nelsonifechukwu/NELSON_IML_WORK/CNN-GradCAM/train2dof/data_sample_2022-02-22-15-05-51/robot_state.csv
position_joint1,position_joint2,position_joint3,position_joint4,position_joint5,position_joint6,position_joint7,velocity_joint1,velocity_joint2,velocity_joint3,velocity_joint4,velocity_joint5,velocity_joint6,velocity_joint7,ee_T_00,ee_T_10,ee_T_20,ee_T_30,ee_T_01,ee_T_11,ee_T_21,ee_T_31,ee_T_02,ee_T_12,ee_T_22,ee_T_32,ee_T_03,ee_T_13,ee_T_23,ee_T_33,v_x,v_y,time
0.465070171636,0.547763984789,-0.123980791881,-1.35585194427,0.0795348282208,1.89410542297,0.159154209074,0.000211275390932,-0.000726025898147,-0.00197482508876,-7.64483848083e-05,0.000350361184134,0.00696080331384,0.000623322900404,0.573809416083,0.818974739772,0.00196889088235,0.0,0.818931464308,-0.573750398579,-0.0119366577341,0.0,-0.00864633570179,0.00846191621584,-0.999926815748,0.0,0.661671349966,0.260896577564,0.303217781027,1.0,0.0,0.0,0.0
0.465072355598,0.547764723592,-0.123978320664,-1.35585879228,0.079534116144,1.89410427569,0.159151749896,-0.000518678345532,-0.000559596543138,-0.00074812900606,-0.00177330512423,6.45574870396e-05,0.00165166609035,0.000104270678951,0.573804065266,0.81897850549,0.0019619203861,0.0,0.818935123387,-0.573745062104,-0.0119421227401,0.0,-0.00865486633329,0.00845928695713,-0.999926764195,0.0,0.661668432898,0.260898434985,0.303213815624,1.0,-8e-05,-0.000105142857143,0.005
0.465072597674,0.547769721906,-0.123975774061,-1.35585678016,0.0795345703976,1.89410582315,0.159156720877,0.000263481690651,0.00141295977327,-0.00332214999213,-0.000467821247049,-0.000149088418763,0.002361858355,0.00121910723231,0.573806188798,0.818977019267,0.00196125216385,0.0,0.818933615589,-0.573747175597,-0.0119439797703,0.0,-0.00865674873008,0.00845982771461,-0.999926743325,0.0,0.661668396691,0.260900420487,0.30321128341,1.0,-0.00028,-0.000368,0.015
0.465068671198,0.547757906312,-0.123981064869,-1.35586118896,0.0795335057924,1.89410236345,0.159154902904,0.000925744621029,-0.00221543810756,-0.00145105521528,0.00128980759353,-0.000148062207553,-7.40824229887e-05,0.000678123600523,0.573811525864,0.818973274877,0.00196334545275,0.0,0.818929926866,-0.573752530992,-0.0119396383816,0.0,-0.00865193690005,0.00845910733004,-0.999926791066,0.0,0.661669308722,0.260893985859,0.303217427929,1.0,-0.00072,-0.000946285714286,0.037
0.46507434351,0.547733684683,-0.123976465345,-1.3558928479,0.0795341160899,1.89410616346,0.159151619228,0.00300542139627,0.000157607613446,0.000739885645321,-0.00430037766333,6.67384605116e-05,-3.01391801537e-05,0.000213025050485,0.573802851221,0.818979353044,0.00196319126606,0.0,0.818935945113,-0.573743801452,-0.0119463382996,0.0,-0.00865760227752,0.00846273380669,-0.999926711344,0.0,0.661660878237,0.260897317344,0.303219697597,1.0,-0.00096,-0.00126171428571,0.049
0.465073660636,0.547567178428,-0.123973723271,-1.35608887372,0.0795317148192,1.89413781824,0.159151630597,0.0011842097955,-0.00787180576149,0.0006371181418,-0.0105980791791,0.000231137211379,0.00206803950527,0.000400993639527,0.573811622339,0.818973160995,0.00198255897333,0.0,0.818929870697,-0.573752358392,-0.0119517790116,0.0,-0.00865085490577,0.00848180976926,-0.999926608113,0.0,0.661629152259,0.260880762848,0.303251714716,1.0,-0.00142,-0.00186628571429,0.072
0.465065106231,0.54748449511,-0.123981755397,-1.3562078036,0.0795312444253,1.89416047698,0.159147661849,0.00148000577053,-0.00630048204675,-0.00152657050853,-0.00897549058168,-0.00040770701715,-0.000145509532468,0.000125586676533,0.573827239971,0.818962262134,0.00196437504866,0.0,0.818918667843,-0.573767984994,-0.0119692003174,0.0,-0.00867539488266,0.00847707979085,-0.999926435615,0.0,0.66160987182,0.260857251644,0.303251201639,1.0,-0.00164,-0.00215542857143,0.083
0.465042000086,0.54724785588,-0.123973962958,-1.35649026823,0.079524418076,1.89430925889,0.159133587804,0.00137966706651,-0.0114433016373,0.00082984372628,-0.0154014340629,-5.68741185029e-05,0.0122625064868,-0.00314569861423,0.573843415875,0.818950695468,0.00205896848456,0.0,0.818908268708,-0.57378370021,-0.01192726779,0.0,-0.00858660701475,0.00853065464921,-0.999926746373,0.0,0.661585658427,0.26082506974,0.303297031623,1.0,-0.0021,-0.00276,0.106
0.465029282654,0.547133413381,-0.123974670322,-1.35661410967,0.0795256407819,1.89438515102,0.159130028908,-0.000225379099728,-0.0147641880165,0.000177274529509,-0.0157231254656,5.67564038928e-05,0.0050392534941,0.00108653103268,0.573858814174,0.818939750462,0.00211976641164,0.0,0.818898087121,-0.573798819771,-0.0118989175828,0.0,-0.00852834132781,0.00856433628365,-0.999926957101,0.0,0.661578834005,0.26080841283,0.303325765375,1.0,-0.0023,-0.00302285714286,0.116
0.464989271741,0.546890836342,-0.123976475446,-1.35695239747,0.0795165688362,1.89454680235,0.159116610285,-0.00164714044404,-0.00710392018687,-5.25286369456e-05,-0.021107769456,-0.000305390979667,0.00756560878743,1.51954440869e-05,0.573898263189,0.818911954938,0.00217726186781,0.0,0.818870960788,-0.573837952338,-0.0118785914869,0.0,-0.00847828831785,0.00860016512087,-0.999927075235,0.0,0.661546421026,0.260754457595,0.3033479246,1.0,-0.00272,-0.00357485714286,0.137
0.464968140743,0.546704816831,-0.123976474348,-1.35724083003,0.0795132809826,1.89463362803,0.159089877919,-0.000845191836894,-0.011621647661,0.000180216633639,-0.0224173961995,0.000560961233417,0.0109628692378,-0.00389419976358,0.573909523321,0.818904077757,0.00217195200629,0.0,0.818862866515,-0.573849082391,-0.0118988815615,0.0,-0.00849783357526,0.00860757801335,-0.999926845537,0.0,0.661509090189,0.260710278027,0.303348315815,1.0,-0.00298,-0.00391657142857,0.15
0.464923975099,0.546378361449,-0.123977520903,-1.35773596228,0.0794996529429,1.89482238599,0.15894409009,-0.00272969072591,-0.0165795235599,-0.000152939978013,-0.0280377264214,-0.000962361407832,0.00290237466963,-0.0115027760635,0.573851405416,0.818944713423,0.00220629983688,0.0,0.818903853588,-0.573790736526,-0.0118918525409,0.0,-0.00847297849388,0.00863106990704,-0.999926853959,0.0,0.661454925883,0.260635490813,0.303368700855,1.0,-0.00338,-0.00444228571429,0.17
0.464880625572,0.546124330919,-0.123974303468,-1.35816409338,0.079484337783,1.89497050479,0.158929393235,-0.00524900099742,-0.0144340898762,0.000445318893697,-0.0289647602811,-0.00240316483472,0.0110476520031,4.5329211866e-06,0.573891845039,0.81891643013,0.00218576344601,0.0,0.818875165576,-0.573831114177,-0.0119189976678,0.0,-0.00850656772511,0.00863024912541,-0.999926575857,0.0,0.661407533479,0.260572607534,0.303353393511,1.0,-0.00366,-0.00481028571429,0.184
0.464822336053,0.54573218698,-0.123979659058,-1.35882064276,0.0794481333502,1.89519029646,0.158865364324,-0.00320635733075,-0.0207756954997,0.00129318719448,-0.028237452389,-0.00460838415831,0.00683199794966,-0.00460859195613,0.573909702034,0.81890402379,0.00214490876771,0.0,0.818862176484,-0.573849084384,-0.0119461783265,0.0,-0.00855208422218,0.00861257812452,-0.999926339964,0.0,0.661324244979,0.260464305376,0.303336268734,1.0,-0.00408,-0.00536228571429,0.205
0.464777358215,0.545455251427,-0.123977132949,-1.35929524431,0.0793887065865,1.89535306094,0.158776351077,-0.00772314494138,-0.0215643026713,-0.0015838953201,-0.0360256048169,-0.00443434297662,0.0138587904741,-0.00249671725776,0.57389074779,0.818917419103,0.00210171194239,0.0,0.818875251598,-0.573830553555,-0.0119400598135,0.0,-0.00857206147787,0.00857349481701,-0.999926504774,0.0,0.661274580484,0.260387656033,0.303321854901,1.0,-0.00432,-0.00567771428571,0.217
0.464701065189,0.5449712573,-0.12397789327,-1.36011602625,0.0793533541217,1.89562154239,0.158693388908,-0.00103129444957,-0.0316685297106,-7.65834718239e-05,-0.0381693398292,-0.00011786714127,0.0140809237317,-0.00806186856478,0.573922088089,0.818895584235,0.00205081080113,0.0,0.818852568348,-0.573861917574,-0.0119882346326,0.0,-0.00864039653886,0.00855978914699,-0.999926034043,0.0,0.661174256831,0.260258183677,0.303297077941,1.0,-0.00472,-0.00620342857143,0.237
0.464650220962,0.544644108817,-0.12398285395,-1.36066828604,0.0793359599759,1.89580835372,0.158622557958,-0.00137030948255,-0.0258917962307,-0.000897249970804,-0.0437796565066,-0.000458913544012,0.0143968056814,-0.00894428068905,0.573935315097,0.81888637696,0.00202549145933,0.0,0.818842877268,-0.57387509823,-0.0120191880049,0.0,-0.00868013732869,0.00855696045725,-0.999925714063,0.0,0.661108492735,0.260170293178,0.303282131062,1.0,-0.00498,-0.00654514285714,0.25
0.464561825075,0.54409391466,-0.123983265901,-1.36156950127,0.0792975674169,1.89614022601,0.158516119353,-0.00755543941631,-0.0312639272031,0.000499684494982,-0.0459810233933,-0.00238576679165,0.0150937983066,-0.00284665185977,0.573963149578,0.818866895283,0.00201435784576,0.0,0.818823042438,-0.573902772167,-0.0120490735171,0.0,-0.00871070957836,0.00856529171363,-0.999925376874,0.0,0.661000251115,0.260022504577,0.303268293977,1.0,-0.0054,-0.00709714285714,0.271
0.464496935186,0.543682759946,-0.123983462298,-1.36225115028,0.0792675954673,1.89637996638,0.158426313394,-0.00476870624635,-0.0306145406958,2.13662825047e-06,-0.0462256338388,-0.00112257867107,0.016643032253,-0.00692930574324,0.573970611332,0.818861709698,0.00199615111373,0.0,0.818817540839,-0.573910234644,-0.0120674887893,0.0,-0.00873616114587,0.00856103229013,-0.999925191309,0.0,0.660927432182,0.259921066331,0.303258579337,1.0,-0.00566,-0.00743885714286,0.284
0.464405617484,0.54304161164,-0.123989234177,-1.36326265269,0.0792015261341,1.89673581971,0.158295588507,-0.00462282041191,-0.0349835337046,0.000708312590123,-0.0475113125034,-0.00519209685048,0.0178426163026,-0.00890234671938,0.573980975095,0.818854485015,0.00197977295424,0.0,0.818810141341,-0.573920706339,-0.0120715439762,0.0,-0.00874877367468,0.00855005936999,-0.999925174923,0.0,0.660811085386,0.259759178955,0.303261703003,1.0,-0.00606,-0.00796457142857,0.304
0.464337391626,0.542555310987,-0.123989851254,-1.36401895123,0.0791631752673,1.89700413554,0.158215530788,-0.00782947495651,-0.0328668158977,-0.000268088059318,-0.0555877120847,-0.000390946630774,0.0139494866771,-0.00818930998138,0.574003478415,0.818838704765,0.00198223291057,0.0,0.818794308071,-0.573943112904,-0.0120801954302,0.0,-0.00875421119783,0.00855727997545,-0.999925065565,0.0,0.660723127853,0.259642352712,0.30326896209,1.0,-0.00634,-0.00833257142857,0.318
0.464242045144,0.541812328578,-0.123995635978,-1.36517386386,0.0790954528871,1.89744205031,0.158041405795,-0.00375058228248,-0.0342251191111,-0.00017954338951,-0.0557399683945,-0.000687874445309,0.0229182832458,-0.00624675432203,0.573989202353,0.818848660227,0.00200352885192,0.0,0.818804556771,-0.573928761056,-0.0120673917992,0.0,-0.00873165288682,0.00856721609231,-0.999925177724,0.0,0.660593580109,0.259467430856,0.303282798016,1.0,-0.00676,-0.00888457142857,0.339
0.464182882033,0.541351332978,-0.123991150063,-1.36586472277,0.0790522942169,1.897689362,0.157954235568,-0.00118551486624,-0.0408646359881,0.0016655290605,-0.0608111440451,-0.0076835191528,0.0234551312491,-0.00745333795743,0.573989857399,0.818848162415,0.00201926068187,0.0,0.818804240137,-0.573929324268,-0.0120620885556,0.0,-0.00871827398378,0.00857706083323,-0.999925210066,0.0,0.66051236806,0.259364798838,0.303301173948,1.0,-0.007,-0.0092,0.351
0.464081485454,0.540538449546,-0.12399943144,-1.36711117706,0.0789754306179,1.8981553883,0.157795339236,-0.00520736457047,-0.0408980068355,-0.00196988404253,-0.0596060243809,-0.0109365822734,0.018784602404,-0.0076247702094,0.574008545996,0.81883501107,0.00203977198837,0.0,0.818791458358,-0.573948022822,-0.0120400049406,0.0,-0.00868822175429,0.00858137882896,-0.99992543459,0.0,0.66036572063,0.259159458241,0.30332436743,1.0,-0.00742,-0.009752,0.372
0.464007613812,0.539929201173,-0.124004534279,-1.36802525851,0.0789243623941,1.89849417032,0.15768650367,-0.00377248633024,-0.0392064675496,-0.000678060930622,-0.0668683166676,0.000251085242018,0.0243562792118,-0.0146153309832,0.574009060836,0.818834564659,0.00207381255209,0.0,0.818791396142,-0.573948333162,-0.0120294374275,0.0,-0.00866002463376,0.00860319159309,-0.999925491758,0.0,0.660266958548,0.259037415978,0.303348163558,1.0,-0.00768,-0.0100937142857,0.385
0.46388986831,0.539053577921,-0.12400514599,-1.36938597283,0.0788492462579,1.89901230279,0.157525181784,-0.00492088138327,-0.0445227138611,-0.000357382216888,-0.0725681129716,-0.00312539754062,0.0291919202557,-0.00366298538233,0.574029084849,0.818820448986,0.00210451222099,0.0,0.818777631544,-0.573968175491,-0.0120195885224,0.0,-0.00863412806445,0.0086228869489,-0.999925546055,0.0,0.660113508798,0.258832299363,0.303364103723,1.0,-0.00808,-0.0106194285714,0.405
0.463804930384,0.538465693333,-0.124005307097,-1.37030239473,0.0787937500338,1.89936670289,0.157409360276,-0.00315680954341,-0.0470719552933,-0.000316084386212,-0.0675362349734,-0.00955390536105,0.0312422885409,-0.00314077526258,0.574039786661,0.818812892418,0.00212542720489,0.0,0.818770364864,-0.573978805094,-0.0120069906917,0.0,-0.00861169441192,0.00863289339307,-0.999925653172,0.0,0.660012692092,0.258690141932,0.303373902542,1.0,-0.00834,-0.0109611428571,0.418
0.463676032023,0.537489045701,-0.124014032441,-1.37184260448,0.0787060594539,1.89994267887,0.157220398627,-0.00458542792111,-0.0444586644329,-0.000462057958061,-0.0726821564236,-0.00589569025298,0.0189972264732,-0.013065389173,0.574058286687,0.818799895891,0.00213562074342,0.0,0.818757489386,-0.573997248167,-0.0120033150549,0.0,-0.00860263831488,0.0086393242869,-0.999925675583,0.0,0.659836732394,0.258454896117,0.303380733563,1.0,-0.00876,-0.0115131428571,0.439
0.463589071471,0.536850201731,-0.124014813375,-1.37283508736,0.0786495683376,1.90031240244,0.157095482269,-0.00839682987959,-0.050581248551,-0.00166440741074,-0.0754472351245,-0.00452820006185,0.0307291924655,-0.0101496150573,0.574067307493,0.818793532037,0.00215064247485,0.0,0.818751289006,-0.574006172496,-0.0119994827993,0.0,-0.00859078224761,0.0086495186104,-0.999925689383,0.0,0.659722993871,0.258303586891,0.3033914507,1.0,-0.00902,-0.0118548571429,0.452
0.463455913361,0.535841646799,-0.124025493412,-1.37441769609,0.0785573024528,1.90090122854,0.156906621386,-0.00906122601091,-0.0541489634441,0.000159661286944,-0.079379266685,-0.00639263302998,0.0378806651466,-0.00926089999807,0.574091558477,0.818776500266,0.00216148049549,0.0,0.818734410252,-0.57403038707,-0.0119927933095,0.0,-0.00857882701787,0.00865480649211,-0.999925746269,0.0,0.659541710509,0.258059949229,0.303401437575,1.0,-0.00942,-0.0123805714286,0.472
0.463359570324,0.535112005131,-0.124024402343,-1.37557677295,0.0784997222148,1.90132250088,0.156769292034,-0.0126096795089,-0.0521575338798,7.55803251143e-05,-0.0843143432401,-0.0116223563132,0.0297149967138,-0.00868442007132,0.574105434379,0.818766771843,0.00216112072914,0.0,0.818724534162,-0.574044118506,-0.0120097489967,0.0,-0.00859277021018,0.00866439154316,-0.999925543538,0.0,0.659403537545,0.257888298308,0.303401116798,1.0,-0.0097,-0.0127485714286,0.486
0.463214143839,0.534062259023,-0.124029720108,-1.37730625622,0.0783978707098,1.90194324265,0.156555378802,-0.0132359451467,-0.0513638961216,-0.00240566839702,-0.0851298122675,-0.0100061109662,0.0216769595724,-0.00842272879996,0.574120564366,0.818756297053,0.00210962279331,0.0,0.818713328655,-0.574059404383,-0.0120429491008,0.0,-0.00864935813409,0.00864144740832,-0.999925254202,0.0,0.65919723133,0.257623448613,0.303372466839,1.0,-0.0101,-0.0132742857143,0.506
0.463112510981,0.533350781741,-0.1240301076,-1.37844902568,0.078326218477,1.90237420411,0.156413055644,-0.00849720116484,-0.0549604750168,-0.000390765193856,-0.0913997499413,-0.00628500667666,0.0372048987964,-0.0115742873299,0.574130910263,0.818749050339,0.00210650208794,0.0,0.818706061565,-0.574069782539,-0.0120422769585,0.0,-0.0086504901769,0.00863861578003,-0.999925268876,0.0,0.659066207049,0.257447566743,0.303367678173,1.0,-0.01036,-0.013616,0.519
0.462945689603,0.532191263865,-0.124030896045,-1.38034568123,0.0782366627072,1.90308713667,0.156172687532,-0.0107225655379,-0.0553844294387,-0.000854757335182,-0.0902208363138,-0.0079400070233,0.0356300942206,-0.0107338023053,0.574151057225,0.818734946841,0.00209695275168,0.0,0.818691592031,-0.574089726941,-0.0120751587992,0.0,-0.00868268263352,0.0086498893146,-0.999924892398,0.0,0.658845142249,0.257161116076,0.303344321788,1.0,-0.01078,-0.014168,0.54
0.462841203748,0.531438464116,-0.124035427846,-1.38155344512,0.0781571478005,1.90352976062,0.156015055518,-0.00838795161014,-0.0565824114881,-0.00127676056929,-0.0946795727462,-0.00703897960074,0.0393650383192,-0.0165182813343,0.574155211272,0.818732074267,0.002081066077,0.0,0.818688566807,-0.574094003234,-0.0120769586926,0.0,-0.00869323325781,0.00863796008121,-0.999924903851,0.0,0.658703867213,0.256973339183,0.303338560888,1.0,-0.01104,-0.0145097142857,0.553
0.462673725529,0.530224892022,-0.124036489461,-1.38350027219,0.078035817845,1.90420837905,0.155769620696,-0.00415226887519,-0.0589934932414,-0.000775867918809,-0.0975210652579,-0.00941568987284,0.040373849484,-0.013589335909,0.574165208241,0.818725185304,0.00203260806868,0.0,0.818680985788,-0.574104150409,-0.0121084637043,0.0,-0.00874674386356,0.00861648205561,-0.999924622514,0.0,0.658466595128,0.256673698454,0.30332587239,1.0,-0.01144,-0.0150354285714,0.573
0.462569747332,0.529432053096,-0.124032514665,-1.3847463569,0.0779643715563,1.90467339945,0.155595806113,-0.00684615088341,-0.0629164542316,-0.00230878784653,-0.094901363444,-0.00783071830227,0.0298429625736,-0.010494151023,0.574153734123,0.818733200294,0.00204529437843,0.0,0.818689097997,-0.574092554833,-0.0121097567079,0.0,-0.00874063987355,0.00862748834887,-0.999924580986,0.0,0.658318704898,0.256490036518,0.303331417268,1.0,-0.0117,-0.0153771428571,0.586
0.462407215945,0.528146921042,-0.124039320104,-1.3867513296,0.0778374848677,1.90544443568,0.15532942033,-0.00765337549889,-0.063652527596,1.23947330365e-05,-0.100381133729,-0.00379406517797,0.033931151774,-0.0152650537283,0.574148213628,0.818736977732,0.00208254254458,0.0,0.818693464395,-0.574086975131,-0.0120790414907,0.0,-0.0086941647636,0.00864029041716,-0.999924875618,0.0,0.658087433001,0.256189758598,0.303349069073,1.0,-0.0121,-0.0159028571429,0.606
0.462285220886,0.527212429801,-0.124037792193,-1.38819907396,0.0777501634413,1.90599368833,0.155118111278,-0.00834211359042,-0.0662475358694,0.00115235536041,-0.104724127171,-0.00752251584054,0.0377935402924,-0.00891284261419,0.574128878958,0.818750457237,0.0021132964904,0.0,0.818707336124,-0.574067501792,-0.0120643302038,0.0,-0.00866466785555,0.00865681838599,-0.9999249887,0.0,0.657918160886,0.25597393038,0.303365321357,1.0,-0.01238,-0.0162708571429,0.62
0.462105552192,0.525761522433,-0.124044282981,-1.39042885259,0.0776039738209,1.90681056412,0.154819835708,-0.0110976071607,-0.0739657252157,-0.00204525499985,-0.109084017911,-0.00469454293871,0.0402921646792,-0.00970661883216,0.574117135199,0.818758626617,0.00213853050201,0.0,0.818715928511,-0.574055746076,-0.0120405855571,0.0,-0.00863086374244,0.00866372227527,-0.999925221258,0.0,0.657651789082,0.255638145668,0.303395877284,1.0,-0.0128,-0.0168228571429,0.641
0.461991240647,0.524937974726,-0.124049033874,-1.39173820672,0.0775271354093,1.90728472915,0.154641424846,-0.0116261511967,-0.0653701903791,-0.00087971341638,-0.108910235309,-0.00748126820154,0.0406234492008,-0.0168447808216,0.574117769818,0.818758207196,0.00212871544822,0.0,0.818715342933,-0.574056384026,-0.0120499836392,0.0,-0.00864418673572,0.00866108848426,-0.999925128988,0.0,0.65749508466,0.255435354631,0.303393186597,1.0,-0.01304,-0.0171382857143,0.653
0.461800195788,0.523464967183,-0.124055285657,-1.39408213949,0.0773829428737,1.90813588986,0.154321885828,-0.0163819075502,-0.0713151160516,-0.000681652605915,-0.109058285835,-0.00651682999531,0.040239056265,-0.0202164692571,0.57410394335,0.818767953611,0.00210885525026,0.0,0.818724811531,-0.574042625294,-0.0120620988988,0.0,-0.00866565406806,0.00865163723099,-0.999925024996,0.0,0.657210628496,0.25508169909,0.303387222583,1.0,-0.01346,-0.0176902857143,0.674
0.461684299099,0.52253507723,-0.124058038128,-1.39556406944,0.0772867126149,1.9087148318,0.154122842424,-0.00733237838827,-0.0721442972476,-0.00151779051878,-0.112069305466,-0.00731748181771,0.037095016599,-0.0129176803348,0.574091474231,0.818776653556,0.00212549031951,0.0,0.818733818764,-0.574030177156,-0.0120431153758,0.0,-0.0086406924812,0.00865422728713,-0.999925218596,0.0,0.657037170159,0.254863951413,0.303385710594,1.0,-0.01372,-0.018032,0.687
0.46148945328,0.52106130116,-0.124056516105,-1.39790631651,0.0771532560052,1.90961648773,0.153810726642,-0.0113918238804,-0.0721292004975,-0.00181998263422,-0.123128643867,-0.000768635373783,0.0396536380233,-0.0224014767093,0.574083909988,0.818781876799,0.00215625111901,0.0,0.818739369577,-0.574022409725,-0.0120359768498,0.0,-0.00861726916005,0.00867523535748,-0.999925238687,0.0,0.65676029283,0.254517738587,0.303384449447,1.0,-0.01412,-0.0185577142857,0.707
0.461356309016,0.520077070442,-0.124064809038,-1.39945307808,0.0770498214002,1.9101843806,0.153597323999,-0.0125060458052,-0.0775134404525,-0.00150577148296,-0.122933931465,-0.00662578002047,0.0432322169865,-0.0201569643042,0.574078541042,0.818785648563,0.00215344438221,0.0,0.818743197218,-0.574017146388,-0.0120266189524,0.0,-0.00861127479354,0.0086675086768,-0.999925357334,0.0,0.656575797764,0.254276635596,0.303388930047,1.0,-0.01438,-0.0188994285714,0.72
0.461141659401,0.51841542888,-0.124067387235,-1.4020299554,0.0768892513076,1.91110246323,0.15325297072,-0.00505193157379,-0.0789943697519,-0.000166023805004,-0.128353334683,-0.0050967862363,0.0425002029615,-0.01936926797,0.574067530089,0.818793365754,0.00215452915767,0.0,0.818750883951,-0.574006087372,-0.0120311508437,0.0,-0.00861447949668,0.00867088264267,-0.999925300479,0.0,0.656257470989,0.253886580732,0.303408502997,1.0,-0.0148,-0.0194514285714,0.741
0.460991459135,0.517297003762,-0.124071287562,-1.40379261352,0.0767739642691,1.91173732189,0.153018721345,-0.0126571639779,-0.0805492526222,-0.000615845178417,-0.125042672961,-0.00681168215975,0.0437573745835,-0.0140926249831,0.574063627963,0.818796136153,0.00214134824894,0.0,0.818753515881,-0.574002274986,-0.0120339289174,0.0,-0.0086243617796,0.00866164406403,-0.999925295363,0.0,0.656041589782,0.253615708812,0.303409448594,1.0,-0.01508,-0.0198194285714,0.755
0.460780037067,0.51570208766,-0.124077284145,-1.40633091576,0.0766144257837,1.91269351737,0.15266410452,-0.0162182596238,-0.0788445258444,0.000420171028395,-0.124903025315,-0.00847932890804,0.0521804109954,-0.0130635398601,0.574041222679,0.818811830404,0.00214661503894,0.0,0.81876934979,-0.573979921664,-0.0120228229929,0.0,-0.00861248158651,0.00865934532982,-0.999925417668,0.0,0.655721281022,0.253213276719,0.303400620677,1.0,-0.0155,-0.0203714285714,0.776
0.460632091104,0.514637047365,-0.12408865745,-1.40802541329,0.0765099755845,1.91332070267,0.152437279428,-0.0139330429549,-0.0821449750535,-0.00193587390912,-0.130618581688,-0.00490847765611,0.0498126157929,-0.0146157703779,0.574046501762,0.818808146409,0.00214011474708,0.0,0.818765592603,-0.573985239079,-0.012024832247,0.0,-0.00861780224771,0.00865523184485,-0.999925407441,0.0,0.655532841517,0.252967248972,0.303397905544,1.0,-0.01574,-0.0206868571429,0.788
0.460382851062,0.512810689704,-0.124085120375,-1.41096611588,0.0763303861547,1.91433420409,0.152026150686,-0.0132235168876,-0.0859204416242,0.000714726602267,-0.1344935018,-0.00519645771188,0.0454142119909,-0.0175495754019,0.574017002596,0.81882904098,0.00205652140017,0.0,0.818785197622,-0.573955902883,-0.0120900207317,0.0,-0.00871947536103,0.00862389277943,-0.999924796784,0.0,0.655155823737,0.25252081826,0.303365822743,1.0,-0.01618,-0.0212651428571,0.81
0.460244367515,0.511813672618,-0.124090816083,-1.41256973105,0.0762372531803,1.91492578471,0.151800590435,-0.0119206296134,-0.0828204251759,8.04426162135e-05,-0.13190814788,-0.00342925854465,0.0444042200254,-0.0165389568027,0.574008692464,0.818834897425,0.0020441714289,0.0,0.8187908379,-0.573947593253,-0.0121025150685,0.0,-0.00873688262498,0.00862086366544,-0.999924670959,0.0,0.654959525343,0.252274661218,0.303352392687,1.0,-0.01642,-0.0215805714286,0.822
0.460000742221,0.51001556924,-0.124086834122,-1.41545693833,0.076059893578,1.91602342125,0.15139521054,-0.0083415640017,-0.0846868634161,0.00123367157922,-0.13656985503,-0.00968640498336,0.0563345208743,-0.0203678860973,0.573976530419,0.818857430544,0.00204887100674,0.0,0.81881340269,-0.573915385512,-0.012103253661,0.0,-0.00873512877864,0.00862479263778,-0.9999246524,0.0,0.654607430903,0.251844271414,0.303332126317,1.0,-0.01684,-0.0221325714286,0.843
0.45985477704,0.508933880453,-0.124094360955,-1.4171374053,0.0759484244839,1.91662906876,0.151156591007,-0.0108381897965,-0.0917837580326,0.000143738486722,-0.138227098862,-0.0080558984724,0.050283533764,-0.0164593358903,0.573963160079,0.818866802236,0.00204889468966,0.0,0.818822835394,-0.573902076714,-0.0120961763473,0.0,-0.0087294603966,0.00862060733378,-0.999924737993,0.0,0.654399838539,0.251582282128,0.303341926711,1.0,-0.01708,-0.022448,0.855
0.459607676716,0.50714602356,-0.124102857946,-1.4199459382,0.0757722479578,1.91763833148,0.150764362681,-0.0114569377675,-0.0900071532668,0.000435347117552,-0.144502105463,-0.00473329755026,0.0472652545895,-0.0214767097458,0.573948273803,0.818877269295,0.0020356159387,0.0,0.818833107215,-0.573887228654,-0.0121052971112,0.0,-0.00874470701549,0.00861480996684,-0.999924654736,0.0,0.654050001126,0.251145995871,0.303343426942,1.0,-0.01748,-0.0229737142857,0.875
0.459438668481,0.505955847228,-0.12410402718,-1.42182211859,0.075661399325,1.91833993837,0.150518207975,-0.0115890752338,-0.088496215364,0.000797183736153,-0.142725568247,-0.00739683504937,0.0613287213306,-0.0180381282715,0.573953142599,0.818873821244,0.00204984962163,0.0,0.818829789882,-0.573891980328,-0.012104421461,0.0,-0.00873576978765,0.00862601474938,-0.999924636258,0.0,0.653820510621,0.250857523114,0.303343369866,1.0,-0.01774,-0.0233154285714,0.888
0.459163946412,0.503914092346,-0.124118478875,-1.42488533629,0.0754663338363,1.91950750857,0.15009158293,-0.0123806795764,-0.0970080093857,-0.0013568410562,-0.150843816245,-0.00693191288839,0.0513327461766,-0.0282582637867,0.573944250686,0.818879751879,0.00216701819232,0.0,0.818837406693,-0.573882744646,-0.0120267908939,0.0,-0.00860504686904,0.00867731010975,-0.999925325941,0.0,0.653454821306,0.250380627003,0.303413546344,1.0,-0.01816,-0.0238674285714,0.909
0.458974900391,0.502555827209,-0.124116822686,-1.42692894522,0.0753342742319,1.92027644874,0.149809971947,-0.013145165426,-0.100807538117,0.00155780854323,-0.148151503789,-0.00727032323849,0.0518687840647,-0.0168887570937,0.573936409477,0.818885064115,0.00223529585197,0.0,0.818843659292,-0.57387467119,-0.0119862548735,0.0,-0.00853274970037,0.00870987361224,-0.999925662379,0.0,0.653206834006,0.250064369618,0.303455899338,1.0,-0.01844,-0.0242354285714,0.923
0.458693943427,0.500523822222,-0.124128380393,-1.42997087898,0.075129278449,1.92134305145,0.149376392905,-0.0138161505615,-0.104158933289,-0.00251396175322,-0.157247183792,-0.015840259877,0.0522353396944,-0.0237896189633,0.573919102413,0.818897083209,0.00227549972851,0.0,0.818856291945,-0.573857293789,-0.0119551833333,0.0,-0.00848441599598,0.00872478333697,-0.999925943678,0.0,0.652824503753,0.249579464262,0.303518909296,1.0,-0.01884,-0.0247611428571,0.943
0.458517196071,0.499245818379,-0.124125971186,-1.43195593014,0.0750090337087,1.92207558172,0.149090482952,-0.0111109351991,-0.0999800541167,-0.00183259077089,-0.152221019836,-0.0058500161706,0.0598171571475,-0.0214122900199,0.573896673745,0.818912736473,0.00229887092994,0.0,0.818872184509,-0.573834706147,-0.0119508308903,0.0,-0.00846767873203,0.00874119185178,-0.999925942249,0.0,0.652575570664,0.249277183646,0.303529007123,1.0,-0.0191,-0.0251028571429,0.956
0.458195846435,0.497162940712,-0.124129071076,-1.43522587897,0.074808976952,1.92328285727,0.148611387148,-0.0190217465783,-0.103468740759,-0.000735937063398,-0.157943829519,-0.0115384740628,0.0590446551195,-0.0200886144759,0.573881739885,0.818923154533,0.00231570655634,0.0,0.81888275745,-0.573819639584,-0.0119497983301,0.0,-0.00845733147286,0.00875423177337,-0.999925915741,0.0,0.652172754544,0.248754983444,0.303529553457,1.0,-0.01952,-0.0256548571429,0.977
0.458008007085,0.495993295747,-0.124124175932,-1.43711981945,0.0746962680898,1.92394900565,0.148333422443,-0.0123004415776,-0.10428258633,-0.000193636292662,-0.156295838812,-0.011344861898,0.0588509462434,-0.0222865160236,0.573869695775,0.818931722653,0.00226997904258,0.0,0.818890567522,-0.573807616143,-0.011991871412,0.0,-0.00851815665109,0.00874080431301,-0.9999255169,0.0,0.651929738485,0.248453261952,0.303500812077,1.0,-0.01976,-0.0259702857143,0.989
0.457661505757,0.493846555427,-0.124138234671,-1.44059494045,0.0744858684424,1.92515936417,0.147845742274,-0.0141123950131,-0.117105923818,0.00287517642691,-0.182141006987,-0.0129562354759,0.070619065102,-0.0210901263988,0.573882192979,0.818923237002,0.00216964977687,0.0,0.818880589771,-0.573820344679,-0.0120639392154,0.0,-0.00863461721365,0.00870013148629,-0.999924872727,0.0,0.651485638333,0.247883784734,0.303447366487,1.0,-0.0278022857143,-0.0365401469388,1.01
0.457412273571,0.491714400543,-0.12421937452,-1.44370860846,0.0743152778308,1.92633902335,0.147393195045,-0.0166625042788,-0.172795248803,0.000529746535553,-0.264559008271,-0.0149998822515,0.106142686528,-0.043834873016,0.573884631071,0.818921076839,0.00233388744358,0.0,0.81888077944,-0.573822314851,-0.011956878502,0.0,-0.00845266586305,0.00877321328838,-0.999925788831,0.0,0.651109791445,0.247385231002,0.30355373621,1.0,-0.0391011428571,-0.0513900734694,1.023
0.456785378338,0.486979568137,-0.124268242087,-1.45120412431,0.0739202587927,1.92921699081,0.146258183355,-0.0367022216456,-0.26312871002,-0.00227447547589,-0.41602980127,-0.0270857948679,0.157156284371,-0.0618810484563,0.573772635109,0.818999198261,0.00245425122561,0.0,0.81896008314,-0.573709447529,-0.0119414798285,0.0,-0.00837219648154,0.00886179875313,-0.999925684663,0.0,0.650168329088,0.24625373713,0.303528834203,1.0,-0.0573531428571,-0.0753784163265,1.044
0.45621461452,0.483063536919,-0.124368263646,-1.45737618972,0.0735642252296,1.93147924125,0.145303176759,-0.0478764108655,-0.319764493236,-0.00881870925176,-0.502446734133,-0.0310876032824,0.179074243231,-0.074375279244,0.573739159701,0.81902265453,0.00245252812379,0.0,0.818983547126,-0.573676015202,-0.0119384262247,0.0,-0.00837104614484,0.00885829336217,-0.999925725354,0.0,0.649393134895,0.245240442096,0.303508776243,1.0,-0.068652,-0.0902283428571,1.057
0.455045937226,0.475595316824,-0.124570262613,-1.46925204704,0.0728423584425,1.93556729394,0.14356802302,-0.0659543727676,-0.40724214841,-0.0127074115095,-0.638547598065,-0.0452458235043,0.219604410912,-0.0866065444632,0.573803836111,0.818978175035,0.00215716979822,0.0,0.818935128809,-0.573741813741,-0.012096812359,0.0,-0.00866953371234,0.00870794711786,-0.999924502571,0.0,0.647849092612,0.243217514988,0.303391409808,1.0,-0.0860348571429,-0.113074383673,1.077
0.454128330534,0.469819014468,-0.124681822014,-1.47821063894,0.0723273979458,1.93876105603,0.142235588873,-0.0784441383999,-0.4641146118,-0.00715111495878,-0.689482127584,-0.0400267989749,0.260011180399,-0.106169458181,0.573836300679,0.8189553807,0.00217516579859,0.0,0.818912255245,-0.573773880474,-0.012124322487,0.0,-0.00868139296087,0.00873881454311,-0.99992413039,0.0,0.646691813571,0.241707878366,0.303400695375,1.0,-0.0973337142857,-0.127924310204,1.09
0.452382805967,0.459054833186,-0.124839893485,-1.49473849091,0.0712960070666,1.94482544706,0.139604348445,-0.0893676443499,-0.541778597057,-0.0109339134382,-0.809871654279,-0.0583650388374,0.301462951722,-0.125345032435,0.573724941424,0.819032737212,0.00241119535437,0.0,0.818992869476,-0.573661730477,-0.0119852256665,0.0,-0.00843324405033,0.00885114510759,-0.99992526602,0.0,0.644563207409,0.238921717277,0.303484082265,1.0,-0.115585714286,-0.151912653061,1.111
0.451050178767,0.451509504554,-0.124986671631,-1.50638602837,0.0705353791882,1.94883275234,0.137760758002,-0.101128186772,-0.602430207972,-0.014473448716,-0.90730404482,-0.0631885911864,0.324659888142,-0.149811778137,0.573741642183,0.819021341098,0.00230602532002,0.0,0.818980127043,-0.573678886134,-0.0120347004183,0.0,-0.00853392274382,0.00879356699416,-0.999924919853,0.0,0.643013305066,0.236852929989,0.303476617965,1.0,-0.126884571429,-0.166762579592,1.124
0.448755246672,0.438561212599,-0.125159380742,-1.52617851847,0.0692067706461,1.9557824112,0.134697010688,-0.119379212979,-0.663541951625,-0.007358530087,-1.05029778354,-0.0711797864116,0.347394308941,-0.168137443086,0.573762100346,0.819006880604,0.00235130407694,0.0,0.818966464496,-0.573699370215,-0.0119878917139,0.0,-0.00846938719141,0.00880400661973,-0.99992537669,0.0,0.640347500465,0.233378038423,0.303528601807,1.0,-0.144267428571,-0.189608620408,1.144
0.447044899897,0.429275096591,-0.125274426368,-1.54011485497,0.0682989844578,1.96064672105,0.132409729849,-0.136578984364,-0.729596433255,-0.00950651794596,-1.10225300786,-0.0672446454102,0.37321819514,-0.17932332838,0.57374153396,0.819020767288,0.00252623450684,0.0,0.818982505167,-0.573677977385,-0.0119155946362,0.0,-0.00831003435328,0.00890558486979,-0.999925814192,0.0,0.638294919583,0.230681077117,0.303651689498,1.0,-0.156435428571,-0.20560084898,1.158
0.443891476142,0.413075404998,-0.125495538663,-1.56431038428,0.0665416164541,1.96914896244,0.128362146924,-0.160232081327,-0.797910432675,-0.00939847651677,-1.18288965482,-0.0917806775056,0.429352185046,-0.200537093427,0.573695585276,0.819051866064,0.00285710225506,0.0,0.819019052609,-0.573632109958,-0.0116077900217,0.0,-0.00786860797829,0.00899953234129,-0.99992854416,0.0,0.635131062823,0.226427870059,0.303875023544,1.0,-0.173818285714,-0.228446889796,1.178
0.441706389253,0.402437597245,-0.125603479291,-1.58046848886,0.0654668512694,1.97462895745,0.125644372681,-0.172463399678,-0.810164863877,-0.0122915630736,-1.25548592174,-0.0782938484421,0.413558284609,-0.210833981424,0.57369961368,0.819049134704,0.00283109620412,0.0,0.81901530581,-0.573635454201,-0.0117064697472,0.0,-0.00796431009759,0.00903488224439,-0.999927467703,0.0,0.632818103976,0.223437578995,0.303849030591,1.0,-0.185117142857,-0.243296816327,1.191
0.437764823344,0.383914119794,-0.125825774833,-1.60806083047,0.0634874753565,1.98397982464,0.120836355957,-0.189346752109,-0.907869814211,-0.010994978462,-1.34207398445,-0.0950909050914,0.428464475836,-0.244298751692,0.573676424448,0.819064708033,0.00301844152329,0.0,0.819033368411,-0.573611702692,-0.0116061563466,0.0,-0.00777492936921,0.00913055839419,-0.999928089103,0.0,0.628827890077,0.218187117004,0.303977389358,1.0,-0.203369142857,-0.267285159184,1.212
0.435265976528,0.372648504988,-0.125946950564,-1.62466793836,0.0622326743499,1.98955872653,0.117831552351,-0.206735436044,-0.940867142591,-0.0160734710858,-1.41450760837,-0.0931004411181,0.452409982087,-0.243627294943,0.573615122967,0.819107070991,0.00316920455974,0.0,0.81907800642,-0.573550316603,-0.0114891524781,0.0,-0.00759329395029,0.00918635423001,-0.999928973869,0.0,0.626380015384,0.214963256045,0.304085550771,1.0,-0.213798857143,-0.280992783673,1.224
0.430377147563,0.352080593488,-0.126193597606,-1.65522784283,0.0598601942454,1.99957072355,0.112286468675,-0.24848527398,-1.00745915924,-0.0181460476018,-1.50741871204,-0.128398320814,0.481763681796,-0.282362677248,0.57366504006,0.819072444207,0.00308218359095,0.0,0.819042597585,-0.573600907188,-0.0114877985473,0.0,-0.0076415430542,0.00911476355585,-0.999929261451,0.0,0.62175606981,0.208851454583,0.304072866118,1.0,-0.232050857143,-0.304981126531,1.245
0.427015266618,0.338649086244,-0.126374510509,-1.67483231294,0.0584054994141,2.00594608933,0.108536482257,-0.256779386811,-1.02984553715,-0.0135690357317,-1.51274764605,-0.110897563592,0.482238062937,-0.289884980909,0.573724296942,0.819030324181,0.00324130713925,0.0,0.819002177045,-0.573659240071,-0.0114567525115,0.0,-0.0075241667967,0.00922783254776,-0.999929114498,0.0,0.618743119197,0.204819271746,0.304158207978,1.0,-0.243349714286,-0.319831053061,1.258
0.421200122257,0.316010833817,-0.126588092549,-1.70795203362,0.0557201390464,2.01645389417,0.102081949444,-0.292699694869,-1.10729348222,-0.0208416822678,-1.61541896285,-0.134601235132,0.507572669214,-0.320000067537,0.573614145805,0.819107756029,0.00316901369503,0.0,0.819078653863,-0.573549297663,-0.0114938608541,0.0,-0.00759727126423,0.0091888895618,-0.999928920363,0.0,0.613453563849,0.197992120085,0.304137202939,1.0,-0.261601714286,-0.343819395918,1.279
0.417273603952,0.301449425141,-0.126715445726,-1.72902752744,0.053959774557,2.02306296324,0.0977150064013,-0.309396540011,-1.12723692038,-0.0047763428696,-1.61771078916,-0.13494640529,0.495839278863,-0.343910094434,0.573442446242,0.819227905169,0.00318545791247,0.0,0.819199093362,-0.573377664582,-0.0114737132263,0.0,-0.00757326144119,0.00918921533471,-0.999929099503,0.0,0.610013972406,0.193548861062,0.304146529529,1.0,-0.272900571429,-0.358669322449,1.292
0.410598701441,0.278049626027,-0.126994286444,-1.76258095709,0.0511725443412,2.03322145623,0.0907042643027,-0.345825005619,-1.17958362116,-0.0146778443034,-1.71611364434,-0.138257390131,0.502804884428,-0.361559351891,0.573452991806,0.819220706046,0.00313813249338,0.0,0.81919059225,-0.573387525426,-0.0115873273971,0.0,-0.00769336062762,0.00921569360936,-0.999927939,0.0,0.604390333907,0.186236836295,0.304152495281,1.0,-0.290283428571,-0.381515363265,1.312
0.405867617081,0.262281645053,-0.127205266236,-1.78478027142,0.0492470689925,2.03993633729,0.0858081874168,-0.367802994022,-1.2178511618,-0.0198969767031,-1.71726173449,-0.145729246893,0.505910956058,-0.374924099844,0.573443989671,0.819226307071,0.00331593351155,0.0,0.819198669638,-0.573378185384,-0.0114779392918,0.0,-0.00750189031369,0.00929854264769,-0.999928626826,0.0,0.600623163249,0.181243789,0.304254452476,1.0,-0.301582285714,-0.396365289796,1.325
0.397477120266,0.236093535151,-0.127623165534,-1.82144595345,0.0459188900108,2.05065533054,0.0774533674351,-0.408665919891,-1.26746580417,-0.0205071854985,-1.72083097322,-0.151209724595,0.497162868455,-0.40707773484,0.573584478438,0.819127655401,0.00338779483907,0.0,0.819101374714,-0.573518980726,-0.011386992117,0.0,-0.00738457768786,0.00930652852385,-0.999929425779,0.0,0.59423743145,0.172687194869,0.304332475184,1.0,-0.319834285714,-0.420353632653,1.346
0.391963577268,0.219337181836,-0.12778121582,-1.84477423328,0.0438119304554,2.05733185665,0.0718513418737,-0.439072074992,-1.2889747122,-0.0184637612267,-1.78698314178,-0.16418040973,0.494369313773,-0.441759540747,0.573438061217,0.819229914296,0.0034473717709,0.0,0.819203880645,-0.573371751548,-0.0114273078175,0.0,-0.00738510899966,0.00937713411142,-0.999928762223,0.0,0.590020528772,0.16727818574,0.304327344798,1.0,-0.331133142857,-0.435203559184,1.359
0.382707566061,0.19272739176,-0.128155121703,-1.88122678031,0.040295753026,2.0674346327,0.0627607553826,-0.484415035217,-1.33898579859,-0.0209048178667,-1.85163703708,-0.178088601444,0.525576052414,-0.466522194104,0.573371143334,0.819276342819,0.00354301988026,0.0,0.819251812223,-0.573304917591,-0.0113440087921,0.0,-0.00726278714679,0.00940713386525,-0.999929376384,0.0,0.583292643366,0.158469691524,0.304392286515,1.0,-0.348516,-0.4580496,1.379
0.37607677305,0.174950588138,-0.12853817979,-1.90526951148,0.0379709076236,2.07380508077,0.0564171544734,-0.522930050288,-1.38414936714,-0.0299142512287,-1.86131144114,-0.173980915973,0.517519077304,-0.499450949169,0.573511886606,0.819177639236,0.00358583305553,0.0,0.819153385403,-0.57344516607,-0.0113630803842,0.0,-0.00725224235969,0.00945439098204,-0.999929007216,0.0,0.578756895967,0.152363267226,0.304436502919,1.0,-0.359814857143,-0.472899526531,1.392
0.364708623146,0.14550801419,-0.129017379165,-1.94480542621,0.0338778485923,2.08385203438,0.0455878574311,-0.553824549062,-1.42015860758,-0.020851674349,-1.91216748747,-0.201864129343,0.463781328992,-0.523488073771,0.573448824371,0.819222494737,0.00342006509107,0.0,0.819195934804,-0.573382373489,-0.0114639030935,0.0,-0.00743062531484,0.00937584568513,-0.999928437102,0.0,0.571008336286,0.142279315717,0.304396124826,1.0,-0.378066857143,-0.496887869388,1.413
0.357059458401,0.12680644881,-0.129365900101,-1.96940608975,0.0313045865227,2.08992488675,0.0383906546735,-0.594599388281,-1.44007044748,-0.0250901699022,-1.91391090562,-0.209474649462,0.458282816813,-0.556135605547,0.573458386309,0.819215400743,0.00351472031833,0.0,0.819189892873,-0.573391439658,-0.0114421694933,0.0,-0.00735843259613,0.00944101318332,-0.999928357804,0.0,0.566083625682,0.135771076046,0.304450069574,1.0,-0.389365714286,-0.511737795918,1.426
0.344278835325,0.0972947460352,-0.130052160534,-2.00756340157,0.0270177222818,2.09892027188,0.0266209000911,-0.658218105509,-1.48577621013,-0.0340267538852,-1.90647444996,-0.224338839765,0.466211650029,-0.608270667247,0.573599193836,0.819116203764,0.00365464954736,0.0,0.819093586976,-0.573533266752,-0.0112265134457,0.0,-0.00709989267632,0.00943320068726,-0.999930300695,0.0,0.557858465675,0.124715870728,0.304585902366,1.0,-0.407617714286,-0.535726138775,1.447
0.33483908798,0.0762724850702,-0.130399110293,-2.03444684254,0.0240814744041,2.10485161606,0.0178410203915,-0.680692907484,-1.48516356349,-0.0311661692806,-1.88510113799,-0.203748047734,0.424726629648,-0.641890956706,0.573499923119,0.819185477138,0.00370663330359,0.0,0.819162323381,-0.573432268477,-0.0113696228718,0.0,-0.00718846519365,0.00955699619355,-0.999928492339,0.0,0.552509536325,0.117836597606,0.30461072427,1.0,-0.40998,-0.538830857143,1.46
0.320372613389,0.0466198048034,-0.131023516964,-2.07207299139,0.0195576103609,2.11263897424,0.00490708229895,-0.736781282346,-1.44464865108,-0.0281567529509,-1.85776749255,-0.223451556885,0.356208266601,-0.655523911225,0.573666401428,0.819070102733,0.00343126541254,0.0,0.819043144198,-0.57359920207,-0.0115338730911,0.0,-0.00747902350933,0.00942713138428,-0.999927594079,0.0,0.54425877036,0.106893109204,0.304511852405,1.0,-0.40998,-0.538830857143,1.48
0.310619501074,0.0273620015768,-0.13133284334,-2.09577348606,0.0167183807487,2.11730901343,-0.00370369978963,-0.751246093141,-1.49516411021,-0.0227699329293,-1.81709303813,-0.218965274945,0.347480859749,-0.675223328113,0.573774720278,0.818993506252,0.00359916498716,0.0,0.818968449337,-0.573706656711,-0.0114933866821,0.0,-0.00734828562299,0.00954240101779,-0.99992747001,0.0,0.538917220675,0.09987007953,0.304607757662,1.0,-0.40998,-0.538830857143,1.493
0.294116151533,-0.00303992762619,-0.131934027227,-2.13267540133,0.0120331270575,2.12406625964,-0.0182179426531,-0.807275363289,-1.41454815681,-0.0247830357108,-1.71504392941,-0.215699153711,0.294701456468,-0.694186748395,0.573979846003,0.818849201964,0.00372393951805,0.0,0.818825948883,-0.573911647469,-0.011411977776,0.0,-0.0072076153998,0.00959968837969,-0.999927945536,0.0,0.530378590619,0.0884107489293,0.304708782045,1.0,-0.40998,-0.538830857143,1.514
0.283680424751,-0.0217045675482,-0.132178586208,-2.15498702923,0.00914313667562,2.12792244871,-0.0275544072024,-0.802587191871,-1.43292574344,-0.0191271607434,-1.73841936073,-0.225234033105,0.279004357452,-0.719153602753,0.573825340178,0.818956863594,0.00385764725792,0.0,0.818935430716,-0.573756926917,-0.0113356090828,0.0,-0.00707015914805,0.00966400981894,-0.999928307312,0.0,0.525042448329,0.0814787342414,0.304760734657,1.0,-0.40998,-0.538830857143,1.527
0.266784704024,-0.0499183010163,-0.132783429995,-2.18811360791,0.00474138028019,2.13299825327,-0.0422792224642,-0.854850704721,-1.42109711912,-0.0276124131265,-1.60186883513,-0.216084607317,0.23940928195,-0.753095506139,0.574083650427,0.818775224408,0.00398008906868,0.0,0.818754973705,-0.574014328734,-0.011339768182,0.0,-0.00700022785895,0.00976888131492,-0.999927780276,0.0,0.516893883763,0.0705830437738,0.304840789274,1.0,-0.40998,-0.538830857143,1.547
0.255522529447,-0.0680142092466,-0.133056192277,-2.20923385445,0.00181778507942,2.13593411946,-0.0522152332681,-0.880638194763,-1.3791009585,-0.0192872618256,-1.5770650033,-0.224779256758,0.202801352337,-0.77247995375,0.57399330671,0.818838988992,0.00389112585661,0.0,0.818817176087,-0.573923668109,-0.0114368802603,0.0,-0.00713189155585,0.00975100114174,-0.999927024387,0.0,0.511514653542,0.0636116805142,0.304791010471,1.0,-0.40998,-0.538830857143,1.56
0.236629616755,-0.0968358774294,-0.13363146735,-2.24205605436,-0.00279686501854,2.13999251417,-0.0688479699021,-0.9022744063,-1.36693563663,-0.0171296965933,-1.52247013571,-0.21180268448,0.19064935935,-0.804832707715,0.57400632983,0.818829533403,0.00395922257665,0.0,0.818807976819,-0.573935639589,-0.0114945904306,0.0,-0.0071399086425,0.00984000014423,-0.99992609532,0.0,0.502920997942,0.0522984135299,0.304815464551,1.0,-0.40998,-0.538830857143,1.581
0.224554056668,-0.114392404446,-0.133904308254,-2.26192346679,-0.00579148760291,2.14211275477,-0.079436330898,-0.941552548598,-1.32715512826,-0.0221328336474,-1.52799805554,-0.235567863112,0.159408522834,-0.820511639519,0.573900605587,0.818904587777,0.00375738281824,0.0,0.81888025664,-0.573830313021,-0.011603622043,0.0,-0.00734630060618,0.00973635977908,-0.999925614816,0.0,0.497535073939,0.0453392711506,0.304728439422,1.0,-0.40998,-0.538830857143,1.594
0.20533964251,-0.140990922315,-0.134435602503,-2.29131283409,-0.0101426474571,2.14477327274,-0.0964194500468,-0.969298656293,-1.3228483238,-0.0236071333012,-1.43631947288,-0.213246618071,0.118859067536,-0.862786235287,0.573827298819,0.818955892956,0.00377139560703,0.0,0.81893071189,-0.573755608307,-0.0117361816659,0.0,-0.00744769914669,0.00982324224092,-0.999924014958,0.0,0.488930015227,0.0340930498077,0.304709954919,1.0,-0.40998,-0.538830857143,1.615
0.191375095136,-0.15944950316,-0.134883620019,-2.31141856893,-0.0132706338726,2.1462797868,-0.108752294851,-1.01193838502,-1.29914763454,-0.0395810666153,-1.4301257059,-0.228464109869,0.0922782635647,-0.879159105096,0.573798427582,0.818976778091,0.00362606583225,0.0,0.818949029609,-0.573726355456,-0.0118870878963,0.0,-0.00765502679457,0.00979054393634,-0.999922769925,0.0,0.483540618644,0.0270622862309,0.304620252864,1.0,-0.40998,-0.538830857143,1.628
0.17081893747,-0.185378701651,-0.135400378855,-2.33907630018,-0.017581334808,2.14775281948,-0.126962800869,-1.04950503875,-1.28069078266,-0.0374178726422,-1.36864400213,-0.221839484985,0.0604625647129,-0.920364455419,0.573682478211,0.81905839866,0.00353563009294,0.0,0.819027843965,-0.573608706167,-0.0121321853252,0.0,-0.00790905235533,0.00985599139391,-0.999920149974,0.0,0.47527595851,0.0163813959216,0.304557617696,1.0,-0.40998,-0.538830857143,1.648
0.156942158334,-0.202026543071,-0.135860796381,-2.35635655825,-0.0203727694611,2.14846315471,-0.13925451689,-1.06673105871,-1.25855119978,-0.0226063282772,-1.33296629277,-0.208422234079,0.0337518274566,-0.961373886482,0.573726823689,0.819026854623,0.00364555717681,0.0,0.818997621934,-0.573652475302,-0.0121028818189,0.0,-0.00782145291689,0.00992964177825,-0.999920110353,0.0,0.469965421136,0.00935173500911,0.304597500694,1.0,-0.40998,-0.538830857143,1.661
0.133764410254,-0.228430026481,-0.136668500471,-2.38335968609,-0.024896416356,2.14900128998,-0.159767993488,-1.11964641919,-1.24025137809,-0.0287537701362,-1.27189064401,-0.226754463715,0.00969122844501,-0.988722330631,0.573872043082,0.818924921479,0.00368755332223,0.0,0.818895615047,-0.573796717391,-0.0121674019047,0.0,-0.00784843376458,0.0100024456139,-0.999919173318,0.0,0.461342127585,-0.0020356153742,0.304607854424,1.0,-0.40998,-0.538830857143,1.682
0.118994173653,-0.244572848943,-0.137121746627,-2.39938895198,-0.0276176756693,2.14913574065,-0.172949658147,-1.15125017485,-1.25138014818,-0.0464240610411,-1.21214642287,-0.21843300866,0.0282501238034,-1.04070243589,0.573882793683,0.818916324653,0.0039165332686,0.0,0.818890714844,-0.57380752102,-0.011986361604,0.0,-0.00756863666453,0.0100861736015,-0.99992048926,0.0,0.45605745733,-0.00903078839337,0.304704186152,1.0,-0.40998,-0.538830857143,1.695
0.0943347150955,-0.270005499574,-0.137907849739,-2.42433137016,-0.0319893325647,2.1489092364,-0.19501248759,-1.19038065598,-1.20952746055,-0.0303796525089,-1.14007929778,-0.213306434365,0.00275667413564,-1.06216694048,0.573938506994,0.818875982938,0.00417871487446,0.0,0.81885468892,-0.5738635569,-0.0117627971988,0.0,-0.00723439922176,0.0101730783943,-0.999922082936,0.0,0.447509530897,-0.0203664351558,0.304787095567,1.0,-0.40998,-0.538830857143,1.716
0.0786176313998,-0.285387217368,-0.13845359997,-2.43922331083,-0.0346142712607,2.14839958781,-0.20919379205,-1.21394993987,-1.18289721089,-0.0299464975808,-1.14592243909,-0.202044609309,-0.0445072840504,-1.09480456492,0.573974460959,0.818850264528,0.00427894258995,0.0,0.818829797591,-0.573898502163,-0.0117906188234,0.0,-0.00719921120643,0.0102714375354,-0.99992133137,0.0,0.442173486863,-0.0273836394185,0.304790039626,1.0,-0.40998,-0.538830857143,1.729
0.0537151733898,-0.3084629268,-0.139205188725,-2.46103556521,-0.0386597343266,2.1472559449,-0.231732601921,-1.26616973246,-1.13027505417,-0.0278645953966,-1.08176742194,-0.198729993763,-0.0646445771868,-1.1406201147,0.573938408023,0.81887469464,0.00443679794076,0.0,0.818856968564,-0.573862956243,-0.0116326861461,0.0,-0.0069797327147,0.0103097467742,-0.999922493223,0.0,0.434031100267,-0.0381529923163,0.304858767704,1.0,-0.40998,-0.538830857143,1.749
0.0370786645363,-0.323041050313,-0.139729598198,-2.47462202628,-0.0411110550938,2.14621371895,-0.246800153305,-1.29654552952,-1.11735292338,-0.0528274713082,-1.01196792459,-0.181152738896,-0.0765940162882,-1.17685161126,0.57403748553,0.818804528278,0.00456690040406,0.0,0.818787781248,-0.573960558412,-0.011687325077,0.0,-0.00694854777143,0.0104484861145,-0.999921270312,0.0,0.428718795093,-0.0451374280226,0.304873052558,1.0,-0.40998,-0.538830857143,1.762
0.00943071705823,-0.345961877452,-0.140576741839,-2.49576361027,-0.0452590032961,2.14420177741,-0.272087486677,-1.34581756463,-1.06740666409,-0.055586725571,-0.995076799396,-0.193983748774,-0.110480558096,-1.21442791347,0.57394989728,0.818866204863,0.0045167296464,0.0,0.818848325954,-0.573872428238,-0.0117729389737,0.0,-0.00704857095445,0.0104557949308,-0.999920493839,0.0,0.420066905452,-0.0564322781149,0.304824217049,1.0,-0.40998,-0.538830857143,1.783
-0.00815823782726,-0.359717327348,-0.141104402164,-2.50801114833,-0.0476765082603,2.14275509108,-0.288276672615,-1.35856538386,-1.04407208948,-0.0442447834446,-0.946092020338,-0.184106533168,-0.113899487686,-1.26329278173,0.573917913846,0.818887877682,0.00464960795539,0.0,0.818872083782,-0.573840564818,-0.0116731946753,0.0,-0.00689103663194,0.0105070919852,-0.9999210542,0.0,0.414782494071,-0.0634187774826,0.304892253736,1.0,-0.40998,-0.538830857143,1.796
-0.0359759668075,-0.380135618392,-0.141934236173,-2.52612640125,-0.0513799940216,2.14021300159,-0.313954084512,-1.41169376198,-1.01624241352,-0.034312480669,-0.852571453405,-0.176191506915,-0.132301249711,-1.29452358311,0.573870659166,0.81892103193,0.00464294229459,0.0,0.8189045033,-0.573792354548,-0.0117684000237,0.0,-0.00697343976068,0.0105558690657,-0.999919969181,0.0,0.406552074182,-0.0741778396937,0.304876277845,1.0,-0.40998,-0.538830857143,1.816
-0.0560277427437,-0.393900052576,-0.142583365638,-2.53804086196,-0.0537972521346,2.13842196468,-0.332443248338,-1.44010648122,-0.981204619122,-0.0483723640524,-0.859572157485,-0.174104073787,-0.126707092159,-1.32727839871,0.574027234161,0.818810167395,0.00483643606003,0.0,0.818796351331,-0.573948590056,-0.0116746700489,0.0,-0.00678360348486,0.0106618400308,-0.999920150758,0.0,0.400834892899,-0.0817538392252,0.30491675593,1.0,-0.40998,-0.538830857143,1.83
-0.0837711896266,-0.411677193202,-0.143398185431,-2.55325653276,-0.0570602213846,2.13564087571,-0.358362219035,-1.45802092956,-0.923354770417,-0.0494851533362,-0.753148067789,-0.167274339594,-0.131668732321,-1.38502012946,0.573947265138,0.818865770203,0.004912650229,0.0,0.818852689893,-0.573867993241,-0.0116852680532,0.0,-0.00674958324637,0.0107296710755,-0.999919655415,0.0,0.392655973203,-0.0924940191826,0.304943260229,1.0,-0.40998,-0.538830857143,1.85
-0.103210758443,-0.423394351755,-0.14394617914,-2.56296387113,-0.0591834931909,2.13381496615,-0.376608956458,-1.48829685099,-0.878862870705,-0.0331899301897,-0.730864722187,-0.172160151033,-0.151016726357,-1.41528460622,0.573936444882,0.818872495277,0.00505377244976,0.0,0.818862170809,-0.573858247227,-0.0114980089393,0.0,-0.00651537971215,0.0107376761863,-0.999921122958,0.0,0.387788704348,-0.0989603110247,0.305010786759,1.0,-0.40998,-0.538830857143,1.862
-0.135296538504,-0.441129107227,-0.144779761756,-2.57780683783,-0.0624840379245,2.13044548204,-0.406844162753,-1.54919763684,-0.809799571828,-0.0462709095415,-0.654658420391,-0.156667549538,-0.155001880246,-1.45052943247,0.573858471521,0.818927414087,0.00500919375493,0.0,0.818914775019,-0.573777602701,-0.0117728839097,0.0,-0.00676710448009,0.0108582809982,-0.999918148666,0.0,0.37913761417,-0.110193087989,0.304948570613,1.0,-0.40998,-0.538830857143,1.883
-0.1572084919,-0.452280971092,-0.145328100225,-2.58676835349,-0.064561205053,2.1284086155,-0.427592214075,-1.55483430217,-0.763579373818,-0.0192673278872,-0.641958132851,-0.159661670439,-0.160327150774,-1.49108505418,0.573828717091,0.818947279393,0.00516758340741,0.0,0.818938055449,-0.573749587363,-0.0115160427083,0.0,-0.00646625749317,0.0108403754311,-0.999920333714,0.0,0.373477213372,-0.117725751744,0.305034129927,1.0,-0.40998,-0.538830857143,1.897
-0.190418488812,-0.467430330765,-0.145993997921,-2.59921202719,-0.0673386338289,2.12515701812,-0.459260742635,-1.573507174,-0.679477782596,-0.0301219674062,-0.555663145592,-0.12536219353,-0.145775252039,-1.51695458867,0.573685125347,0.819047810205,0.00517768821526,0.0,0.819036432348,-0.573602202291,-0.0118567666178,0.0,-0.00674145516526,0.0110429785385,-0.999916299201,0.0,0.364952568105,-0.128798893374,0.304926613169,1.0,-0.392976,-0.516482742857,1.918
-0.209443623599,-0.475281621179,-0.146174733208,-2.6053526332,-0.0687089510173,2.12344697637,-0.477186891902,-1.56402495709,-0.638472235239,-0.00397314946343,-0.494677538019,-0.117469898814,-0.136132242629,-1.48949459763,0.573773938619,0.818984993879,0.00527200752676,0.0,0.818975423081,-0.57369163823,-0.0117434030353,0.0,-0.00659329116949,0.0110559160677,-0.999917144183,0.0,0.360285234313,-0.135000895343,0.304985080621,1.0,-0.382546285714,-0.502775118367,1.93
-0.240672477259,-0.486921682637,-0.146334570381,-2.6145430239,-0.0705868172351,2.12075329255,-0.506695765353,-1.53656923715,-0.542693696576,-0.00201454968365,-0.4373364035,-0.0865762534055,-0.13175546859,-1.46373345729,0.573927330943,0.818876227333,0.00546717538446,0.0,0.818868435508,-0.573843044921,-0.0118064399715,0.0,-0.00653083819126,0.0112531525926,-0.999915353772,0.0,0.352343972061,-0.145422706139,0.304986743055,1.0,-0.364294285714,-0.47878677551,1.951
-0.262108625709,-0.494032627599,-0.146223232764,-2.62020316732,-0.0716637425161,2.11896151805,-0.527080080113,-1.50412229859,-0.487211318743,0.0273021121067,-0.385408078905,-0.0724759145462,-0.128305903747,-1.4387513934,0.573940384374,0.818866847727,0.00550161614284,0.0,0.818858149539,-0.573853644766,-0.0120030089684,0.0,-0.00667187209574,0.0113942741702,-0.99991282452,0.0,0.347584366404,-0.151583479956,0.304940701323,1.0,-0.352995428572,-0.46393684898,1.964
-0.293388245461,-0.50316450392,-0.14592256822,-2.62727525587,-0.0728818014821,2.11677595927,-0.556835634578,-1.45624059313,-0.404043439721,0.00976907216345,-0.307270574289,-0.0493974898679,-0.0891295803453,-1.39814708285,0.574027623728,0.818804012539,0.0057465771474,0.0,0.818798588761,-0.573940065993,-0.0119339260823,0.0,-0.00647348032887,0.0115559149764,-0.999912273593,0.0,0.340338947999,-0.161141842141,0.304962117034,1.0,-0.334743428572,-0.439948506123,1.985
-0.312231972586,-0.50797610653,-0.145660287812,-2.63089323807,-0.0735614857576,2.11560015776,-0.57477282796,-1.43679464641,-0.358531465265,0.0351449840429,-0.262689917887,-0.0609625342911,-0.093476296465,-1.37826098939,0.574072318863,0.818772076038,0.00583156209717,0.0,0.818768644723,-0.573986038467,-0.0117762882486,0.0,-0.00629498194904,0.0115353633889,-0.999913650569,0.0,0.336066461582,-0.166844591557,0.305013215461,1.0,-0.323444571429,-0.425098579592,1.998
-0.341729248195,-0.514523864855,-0.145033478711,-2.63591113087,-0.0743635116859,2.11380626526,-0.602991423006,-1.38108092938,-0.282425275305,0.0433307973804,-0.223590258071,-0.0375925222227,-0.08828068239,-1.338990511,0.574024959562,0.8188047592,0.00590415208857,0.0,0.818801974895,-0.573937876636,-0.0118062090607,0.0,-0.00627848453428,0.0116116136284,-0.999912871735,0.0,0.329411147289,-0.175588128079,0.305019598336,1.0,-0.305192571429,-0.401110236735,2.019
-0.35800548941,-0.517618251162,-0.144686618214,-2.63837574034,-0.0746305004762,2.11291944576,-0.618559514395,-1.35624029376,-0.240654371683,0.0214130270332,-0.196715695346,-0.0231470613941,-0.0680143877043,-1.28387141064,0.574094839151,0.818754961472,0.00601461776321,0.0,0.81875257886,-0.574005393097,-0.011948648787,0.0,-0.00633071432964,0.0117843682936,-0.999910521357,0.0,0.32574773015,-0.180349295306,0.304973979349,1.0,-0.294762857143,-0.387402612245,2.031
-0.384097672351,-0.521794334302,-0.143893080123,-2.64168826187,-0.0750149138828,2.11170657683,-0.643565095109,-1.29030674995,-0.186233776732,0.0265799625642,-0.147990499539,-0.0195386016381,-0.0531690377467,-1.21697029321,0.574056388441,0.818781748262,0.00603808783592,0.0,0.818778820666,-0.573965274449,-0.0120769804554,0.0,-0.00642288208946,0.011876954889,-0.999908838109,0.0,0.319974833465,-0.18790089029,0.304921518278,1.0,-0.27738,-0.364556571429,2.051
-0.401525970882,-0.524110519636,-0.143226475372,-2.64348471281,-0.0751634765527,2.11099234724,-0.660407057191,-1.22989121909,-0.15355127567,0.0489545949706,-0.117549248112,0.00635683495074,-0.045788424985,-1.21758457748,0.573891785941,0.818897183544,0.00603056505406,0.0,0.818893893642,-0.573800251483,-0.0121164868626,0.0,-0.00646194163404,0.0118921741441,-0.999908405557,0.0,0.316173630106,-0.192886905762,0.304911350371,1.0,-0.265212,-0.348564342857,2.065
-0.425429906932,-0.526661227881,-0.142356391625,-2.64545869191,-0.0752829082031,2.11021650697,-0.683362394904,-1.16731436688,-0.107572892171,0.0400713641693,-0.0901015388208,0.00880013834527,-0.0405284836171,-1.1254921824,0.573882553264,0.818903529375,0.00604744057608,0.0,0.818900458291,-0.573790945003,-0.0121135355934,0.0,-0.00644997458965,0.0119042277879,-0.999908339393,0.0,0.310989688298,-0.199721252816,0.304904902126,1.0,-0.247829142857,-0.325718302041,2.085
-0.441371898867,-0.527997645361,-0.14171312017,-2.64652383368,-0.0753164777621,2.10979817458,-0.698644421647,-1.11119118553,-0.0942909371257,0.0568630474694,-0.0704661672404,0.00125996923073,-0.0278505895056,-1.0859183547,0.573890089217,0.818898418943,0.00602427192193,0.0,0.818895010803,-0.573798515999,-0.0121231687616,0.0,-0.00647105003048,0.0118908415584,-0.999908362501,0.0,0.307541708536,-0.20424182399,0.304890743116,1.0,-0.235661142857,-0.30972607347,2.099
-0.462927462472,-0.52926258925,-0.140807188086,-2.64754265833,-0.0752757217279,2.10933627759,-0.7192698248,-1.07041330268,-0.0547721006769,0.0390676355066,-0.0386192971665,0.003350395952,-0.0258250370929,-1.00599152929,0.573968638176,0.818843647772,0.00598579943231,0.0,0.818839572389,-0.573876914205,-0.0121568471782,0.0,-0.00651957050347,0.01187928718,-0.999908184653,0.0,0.302905870382,-0.21033772811,0.304874352917,1.0,-0.218278285714,-0.286880032653,2.119
-0.476109388552,-0.529810437419,-0.140118737836,-2.64796007344,-0.0751902400014,2.10912695813,-0.731956541407,-0.99797841759,-0.0366077263987,0.0523802205184,-0.02924185885,0.00794505247067,-0.00959138839238,-0.967118861712,0.57389986951,0.818892291317,0.00592468554754,0.0,0.818887726862,-0.57380898471,-0.0121196849268,0.0,-0.00652520439135,0.0118073652067,-0.999908999777,0.0,0.300101562277,-0.214024806895,0.30488507093,1.0,-0.206979428572,-0.272030106123,2.132
-0.4961515759,-0.530237544903,-0.1390103686,-2.64825019048,-0.0749741725297,2.10890082945,-0.75115160308,-0.908812913617,-0.00397375284012,0.0609612140246,-0.00701255704028,0.0184202034078,-0.00445303105818,-0.885582671791,0.573886414163,0.818902424364,0.00582665516497,0.0,0.818897244269,-0.573797136065,-0.0120373117299,0.0,-0.00651419113029,0.0116797063933,-0.999910570887,0.0,0.295865705556,-0.219617046997,0.304919257956,1.0,-0.188727428572,-0.248041763265,2.153
-0.507598546855,-0.530303791064,-0.138246946687,-2.64829260264,-0.0746843606927,2.10883068548,-0.762210568091,-0.868856629333,-0.00283125321593,0.057521543442,0.00451215867187,0.0229949209751,-0.00743496236517,-0.831322659959,0.573786634177,0.81897232939,0.00582829599538,0.0,0.818967495067,-0.573697952309,-0.0119853427745,0.0,-0.00647210722074,0.011650438769,-0.999911185608,0.0,0.293474092279,-0.222755939015,0.30493852352,1.0,-0.177428571429,-0.233191836735,2.166
-0.524138031159,-0.530177008957,-0.137101103923,-2.64825552961,-0.0742413103607,2.1088262573,-0.778024904583,-0.792028053329,0.0173140503448,0.0660661732156,0.00496759833711,0.0230867510654,0.00255563447532,-0.762318541026,0.57376366383,0.818988585911,0.00580526632948,0.0,0.818983780279,-0.573675668993,-0.0119390681082,0.0,-0.00644774460083,0.0116048458538,-0.999911873188,0.0,0.290006238134,-0.227263488568,0.304939138707,1.0,-0.160045714286,-0.210345795919,2.186
-0.533974387676,-0.529955322024,-0.1363312182,-2.64813520635,-0.0738545500713,2.10882085838,-0.787451751129,-0.7406788011,0.0203409565016,0.0587512272769,0.00981746645531,0.0215950581065,0.00989746499452,-0.705825825472,0.573728037248,0.819013316957,0.00583719310911,0.0,0.819008738884,-0.573639584836,-0.011960737558,0.0,-0.00644768244674,0.0116431468167,-0.999911428339,0.0,0.287958340882,-0.22990453299,0.304932838128,1.0,-0.148746857143,-0.195495869388,2.199
-0.548608627817,-0.529381993096,-0.135141622003,-2.64782281535,-0.073222713108,2.10885416544,-0.801354973408,-0.651637208593,0.0370064122812,0.0617489763081,0.0113419137001,0.0318681430494,0.00846844378556,-0.637732086088,0.573775461407,0.818979729059,0.0058881388581,0.0,0.818975098377,-0.573685498539,-0.012061670937,0.0,-0.00650044927351,0.0117431559999,-0.999909917166,0.0,0.284914812559,-0.233816007029,0.30489966943,1.0,-0.130494857143,-0.171507526531,2.22
-0.556751686901,-0.528952908954,-0.134357060589,-2.64760394808,-0.0728041537212,2.10891000342,-0.80913337233,-0.615742372801,0.0364268165033,0.053713196178,0.0154395040507,0.0260697610357,0.00687104576545,-0.581969937915,0.573712029767,0.819024045698,0.0059047752314,0.0,0.819019083475,-0.573621020284,-0.0121413711721,0.0,-0.00655709798934,0.0118020015225,-0.999908854459,0.0,0.283242643189,-0.235952982464,0.304867698917,1.0,-0.119196,-0.1566576,2.233
-0.568803599557,-0.528234503791,-0.133247801203,-2.64716703265,-0.0721614790253,2.10903318613,-0.820286651991,-0.5452026389,0.0365205022409,0.0590434328476,0.019785016887,0.0286339500105,0.00225719965275,-0.503995188798,0.573964374686,0.818846813045,0.00596156513799,0.0,0.818842209937,-0.573872374627,-0.0121934312984,0.0,-0.00656350118426,0.0118804050773,-0.999907883971,0.0,0.280762759672,-0.239134169408,0.304843104651,1.0,-0.100944,-0.132669257143,2.254
-0.574722547189,-0.527782385854,-0.132533156646,-2.64687342026,-0.0717665979734,2.1091431693,-0.825975271016,-0.481938085667,0.03669689894,0.0650042032483,0.0261933833816,0.0349371458033,0.00955605766897,-0.45528446021,0.573833599575,0.818938450294,0.0059633488453,0.0,0.818933919027,-0.573741706848,-0.0121834720834,0.0,-0.00655621802969,0.0118751029139,-0.999907994735,0.0,0.279597647519,-0.240663332737,0.304839063813,1.0,-0.0905142857144,-0.118961632653,2.266
-0.583968648316,-0.527085271066,-0.131346308419,-2.64640786319,-0.0710913838287,2.10925813794,-0.834449618665,-0.413275635948,0.0272563423868,0.0577243382291,0.0241446969877,0.0258787124941,0.00342293577255,-0.373960739607,0.573941635017,0.818862625202,0.00597892485461,0.0,0.81885812448,-0.57384933725,-0.0122088907218,0.0,-0.00656652866801,0.0119033110711,-0.999907591674,0.0,0.277772647583,-0.243012716793,0.304835833815,1.0,-0.0722622857144,-0.0949732897961,2.287
-0.588854911616,-0.526677169174,-0.13059106475,-2.64610779471,-0.0706510863587,2.10934747947,-0.83884384651,-0.36117694202,0.0360786008177,0.0565302421272,0.0229717969737,0.0384135338683,0.0106573770438,-0.332082417012,0.574015397793,0.81881086551,0.00598636121805,0.0,0.818806679365,-0.573923446515,-0.0121756424452,0.0,-0.00653396106536,0.0118909077288,-0.999907952597,0.0,0.276850225263,-0.244226937817,0.304849654111,1.0,-0.0609634285716,-0.0801233632655,2.3
-0.595270210463,-0.526041214308,-0.129373262873,-2.64567994524,-0.0699087927523,2.10950239213,-0.84462460352,-0.273489448785,0.0299473928984,0.0601255718612,0.0244510421382,0.0352399365314,0.0090887998958,-0.247168253216,0.574014751982,0.818811103031,0.00601572626967,0.0,0.818807422511,-0.573922894829,-0.012151647348,0.0,-0.0064974658298,0.0119011752945,-0.999908068256,0.0,0.275703421942,-0.245758721246,0.304855160458,1.0,-0.0427114285716,-0.0561350204083,2.321
-0.598291406744,-0.525750034776,-0.128549546195,-2.64548657341,-0.0694430813053,2.10953492938,-0.847251270212,-0.222102405682,0.0184668704932,0.0608238482452,0.0135096764367,0.0354627612093,0.00546531867773,-0.196556336349,0.573966964294,0.818844634236,0.0060113045761,0.0,0.818840790769,-0.573874944104,-0.0121677773052,0.0,-0.00651390749227,0.0119064328305,-0.999907898692,0.0,0.275245597816,-0.246359785034,0.304859146989,1.0,-0.0322817142858,-0.0424273959185,2.333
-0.601815600655,-0.525468395562,-0.127261856766,-2.64530838787,-0.0687722894601,2.1095751627,-0.850149613652,-0.146634493111,0.0110081636697,0.0559718139812,0.00924139013138,0.0262537591694,0.000530224455466,-0.124247624312,0.573865773945,0.818916092507,0.00593749352305,0.0,0.818911295229,-0.573774117796,-0.0121778157168,0.0,-0.00656595556899,0.01185094032,-0.999908217508,0.0,0.27468858071,-0.247082448388,0.304874836751,1.0,-0.0198230769231,-0.0260531868132,2.355
-0.603524845846,-0.525314469344,-0.12674717146,-2.6451901743,-0.0684555083763,2.10960215733,-0.851569750507,-0.119876698154,0.0115421882822,0.0403796742048,0.0110364086685,0.0221580224206,-0.000650634618906,-0.100162848392,0.573877173428,0.818907976429,0.00595507010553,0.0,0.818903495726,-0.573785595427,-0.0121614995087,0.0,-0.00654234146706,0.0118560629554,-0.999908311566,0.0,0.274447522768,-0.247403278596,0.304884939117,1.0,-0.0195830769231,-0.0257377582418,2.367
-0.605771071307,-0.525058524168,-0.126174912675,-2.64496183244,-0.0681835410243,2.10968965797,-0.853632858222,-0.103299562289,0.00985813402823,0.0215809890372,0.00924208449658,0.00323546233937,0.00701166454443,-0.102028586424,0.573750447221,0.818997215731,0.00589337252522,0.0,0.818992560032,-0.573660299157,-0.0120745469734,0.0,-0.00650835181254,0.0117546312907,-0.999909730926,0.0,0.274095649075,-0.247925280371,0.304916319775,1.0,-0.0191630769231,-0.0251857582418,2.388
-0.607147387064,-0.524902254006,-0.125977777942,-2.64481830159,-0.0680494998432,2.10975574105,-0.854881272909,-0.0970677680702,0.0127590570813,0.00583696727786,0.00606050544272,0.0062535174007,0.000645587032846,-0.0914773302975,0.573780406661,0.818976155208,0.00590330703239,0.0,0.818972056314,-0.573690985856,-0.0120071073049,0.0,-0.00644698466893,0.0117243121409,-0.99991048444,0.0,0.27384798652,-0.248285467799,0.304934730599,1.0,-0.0188830769231,-0.0248177582418,2.402
-0.608994823148,-0.524697994801,-0.125803167295,-2.64464510957,-0.0679430554063,2.10976944757,-0.85661696968,-0.0928795009241,0.0104721127453,0.00679022517416,0.0113669323219,0.00595759397667,0.000253271355484,-0.0836222156676,0.573802930752,0.818960345798,0.00590724741373,0.0,0.818956282057,-0.573713459848,-0.0120092035031,0.0,-0.00644611820948,0.0117289193633,-0.999910435994,0.0,0.273473077028,-0.248781805272,0.304943986112,1.0,-0.0184830769231,-0.024292043956,2.422
-0.610127524244,-0.524583185621,-0.125738743765,-2.64453749291,-0.0679144467451,2.10977693241,-0.857702760476,-0.0842593633262,0.00317434394982,0.00638706277758,0.0118677123414,0.00392119416239,0.000430201607671,-0.0852652898332,0.573813593366,0.818952926538,0.00590009187624,0.0,0.818948828889,-0.573724257336,-0.0120016293416,0.0,-0.00644386770704,0.0117187970143,-0.999910569184,0.0,0.273231224042,-0.249099677471,0.304953003863,1.0,-0.0182230769231,-0.0239503296703,2.435
-0.611750523535,-0.524405928229,-0.125671739052,-2.64436230999,-0.0678695412252,2.10983065857,-0.859321598268,-0.0812080639134,0.00861814382831,0.000585183443949,0.00931706390615,0.00128490740279,0.00212801308121,-0.0964538747279,0.573797810005,0.818963977666,0.00590113717828,0.0,0.818960290805,-0.573709197098,-0.0119392692812,0.0,-0.0063924178623,0.0116837485346,-0.999911309574,0.0,0.2728908656,-0.249570768118,0.304973849522,1.0,-0.0178230769231,-0.0234246153846,2.455
-0.612799066659,-0.524276625528,-0.125659480023,-2.64423808056,-0.0678386231597,2.10987180667,-0.860398866669,-0.0874677190965,0.00922203420741,-0.000529920993954,0.0086692992109,0.00163026864079,0.000330459089734,-0.0767409292724,0.573785224426,0.818972676858,0.00591757477961,0.0,0.818969455816,-0.573697011391,-0.0118960692129,0.0,-0.00634778289612,0.0116723264686,-0.999911727328,0.0,0.272667599621,-0.24988500785,0.30498672455,1.0,-0.0175630769231,-0.0230829010989,2.468
-0.614468158143,-0.524078722812,-0.125671925416,-2.64405054363,-0.0678098918766,2.10988834504,-0.862028163789,-0.0770363063123,0.0106282282566,-0.00105626361265,0.0115729044799,0.000474822569253,0.000703726679098,-0.0792976861479,0.573848609247,0.818928058835,0.00594600876438,0.0,0.818925278403,-0.57376040343,-0.0118800147163,0.0,-0.00631741463291,0.0116868918144,-0.999911749522,0.0,0.272292798976,-0.250385134287,0.305000516011,1.0,-0.0171430769231,-0.0225309010989,2.489
-0.615493970998,-0.523964946387,-0.125671938505,-2.64395512028,-0.0677913290517,2.1098976843,-0.863051939031,-0.0745272977187,0.00883396500135,0.000882744143941,0.00987771408573,0.000170448563165,0.00455710905301,-0.0796208719263,0.573863218925,0.818917698041,0.00596294393048,0.0,0.818915101038,-0.573774876119,-0.0118825808463,0.0,-0.0063095898176,0.0117023462314,-0.999911618179,0.0,0.27205900238,-0.250685516233,0.305002962806,1.0,-0.0168830769231,-0.0221891868132,2.502
-0.617009870227,-0.523766140768,-0.125655356359,-2.64379606764,-0.0677699465522,2.10992583051,-0.864511093083,-0.0721292218235,0.011554592841,-0.000131442665273,0.00802168967114,0.000114520410629,0.000516292729867,-0.0773136151449,0.573915477751,0.818881016849,0.00597089135681,0.0,0.818878499615,-0.573827049548,-0.0118855785044,0.0,-0.00630673706531,0.0117109774939,-0.999911535124,0.0,0.271721776541,-0.251131855524,0.305005133882,1.0,-0.0164830769231,-0.0216634725275,2.522
-0.617961158363,-0.523640430218,-0.125619591865,-2.64370554413,-0.0677447729437,2.10995943048,-0.865447133663,-0.074546275617,0.00829377376261,0.000490869761236,0.0064599008723,0.00262190578741,0.00322937588947,-0.0747495393409,0.573918222498,0.818879076068,0.00597323724018,0.0,0.818876615922,-0.573829833957,-0.0118809283723,0.0,-0.00630154323887,0.011710251049,-0.999911576377,0.0,0.271516482161,-0.2514046492,0.305003891303,1.0,-0.0162230769231,-0.0213217582418,2.535
-0.619379498093,-0.523420749863,-0.125505637507,-2.64358464802,-0.0677179426454,2.10999549295,-0.866950353596,-0.0711743773382,0.0117946115508,0.00655864099756,0.00620077068171,0.00509683565162,7.90810178687e-05,-0.0683919690619,0.573786228227,0.818971799098,0.00594167324156,0.0,0.818968615601,-0.573697412479,-0.011934507824,0.0,-0.00636542533367,0.0117141256723,-0.999911126361,0.0,0.271215350681,-0.251792698221,0.304984033281,1.0,-0.0158230769231,-0.020796043956,2.555
-0.62033045025,-0.523287966837,-0.125432158237,-2.64351449436,-0.0676919280968,2.11000590708,-0.867954796454,-0.0688171081595,0.0097498919547,0.00248596995732,0.00522474907201,0.00702460064968,0.000371575467036,-0.0725449300759,0.573705426248,0.819028480769,0.00593114522666,0.0,0.819024874571,-0.573616144974,-0.011979981617,0.0,-0.00640986889302,0.0117309617927,-0.999910645066,0.0,0.27100874199,-0.252048137178,0.304969838969,1.0,-0.0155430769231,-0.020428043956,2.569
-0.621674570618,-0.523090079232,-0.125351915681,-2.64340814599,-0.0676619625958,2.11004576063,-0.869319577587,-0.0598841071407,0.00656888739373,0.00646956165068,0.00588442509437,0.000673510280549,0.000836650689521,-0.0700244153319,0.573650390245,0.819067117251,0.00591896195183,0.0,0.819063085215,-0.573560682373,-0.0120230185334,0.0,-0.00645289951306,0.0117452386434,-0.999910200697,0.0,0.270716287924,-0.252419913679,0.30495086783,1.0,-0.0151430769231,-0.0199023296703,2.589
-0.62259554505,-0.522938431556,-0.125353567566,-2.64332116556,-0.0676373185741,2.11007049289,-0.870289125569,-0.0645703454793,0.00925873982463,-0.00180882133439,0.00871276164304,0.00340472383226,0.00144267276488,-0.0630610820398,0.573627062425,0.819083290952,0.0059416022933,0.0,0.819079307312,-0.573536816171,-0.0120563564042,0.0,-0.00646755693871,0.0117827226523,-0.999909664997,0.0,0.270506582467,-0.252689571451,0.304936819352,1.0,-0.0148630769231,-0.0195343296703,2.603
-0.623932310909,-0.522758629736,-0.125353230418,-2.64320615485,-0.0676080734447,2.11010115808,-0.871546638486,-0.0643440988102,0.0025438265198,0.000186298864284,0.00637175805662,0.0053367174874,0.00533246477221,-0.0668658631101,0.573710428513,0.819024715206,0.00596716005308,0.0,0.819020875784,-0.573619712615,-0.0120821037127,0.0,-0.00647278553882,0.011819085105,-0.999909202015,0.0,0.270199157858,-0.253077867825,0.304925723511,1.0,-0.0144630769231,-0.0190086153846,2.623
-0.624789407595,-0.522641835237,-0.125361270423,-2.64313538385,-0.0675821782428,2.11011283942,-0.872401069396,-0.0669810048994,0.0108766007308,-0.00116903541163,0.00983781123357,0.00510470543543,0.000165723977429,-0.065406091105,0.573733205695,0.819008553348,0.00599542543404,0.0,0.81900486955,-0.573641974746,-0.0121101348053,0.0,-0.00647920104701,0.0118584974016,-0.999908693828,0.0,0.269998606085,-0.253325878291,0.304915827394,1.0,-0.0142030769231,-0.0186669010989,2.636
-0.626139236015,-0.522479821174,-0.125350619553,-2.64300977377,-0.0675501887,2.11013407805,-0.873750726658,-0.05743546783,0.00758398597535,0.0024513294889,0.00623931171893,0.000516300922262,2.25839163932e-05,-0.0615531929278,0.573746079898,0.818999364039,0.00601867146487,0.0,0.818995918181,-0.57365462608,-0.0121162239037,0.0,-0.0064706655234,0.0118811320791,-0.999908480406,0.0,0.269690757568,-0.253716175506,0.304915507235,1.0,-0.0137830769231,-0.0181149010989,2.657
-0.626919170082,-0.522360427002,-0.125344613901,-2.64292355583,-0.0675296975118,2.11015724707,-0.874537478218,-0.0614954666654,0.00540486800772,-0.00089911872526,0.00622668714408,0.00174287388007,0.00832123807514,-0.0631676982122,0.573749569226,0.818996823581,0.00603172278537,0.0,0.818993502691,-0.573657974765,-0.0121209504268,0.0,-0.00646699853071,0.0118945608644,-0.999908344476,0.0,0.269517151061,-0.253945836636,0.304912976805,1.0,-0.0135230769231,-0.0177731868132,2.67
-0.628076882261,-0.522170666317,-0.125280174716,-2.64277755933,-0.067499081039,2.11019331068,-0.875755564127,-0.0539951923407,0.008485349461,0.0063890063684,0.00388645775209,0.000713410548314,0.00112236861435,-0.0568213417019,0.573675255631,0.819048950517,0.00602201251662,0.0,0.81904550472,-0.573583722222,-0.0121211262045,0.0,-0.00647379198286,0.0118861212997,-0.999908400874,0.0,0.269275112902,-0.25427872651,0.304914255474,1.0,-0.0131230769231,-0.0172474725275,2.69
-0.628841278603,-0.522049261799,-0.125211222184,-2.64268404621,-0.0674847598573,2.11021159009,-0.876541356945,-0.0615904864461,0.00931945082626,0.00772863028609,0.00502743011755,0.00158348619914,-0.000153444515122,-0.0520554814306,0.573619942423,0.819087866009,0.00599802576492,0.0,0.819084094077,-0.573528500587,-0.0121265306124,0.0,-0.00649278036413,0.0118691358092,-0.999908479521,0.0,0.269118696059,-0.254491727048,0.304915360652,1.0,-0.0128630769231,-0.0169057582418,2.703
-0.629960984826,-0.521883419185,-0.125142409726,-2.64254691605,-0.0674647582328,2.11024919957,-0.877636838801,-0.0582228871681,0.00975928380966,0.00691189636903,0.00845633053389,0.000235558611306,0.00202503570272,-0.0580588318649,0.573612795008,0.819093001826,0.00598018923677,0.0,0.819089095828,-0.573521611935,-0.0121144805625,0.0,-0.00649324349381,0.0118475569525,-0.999908732427,0.0,0.268869664167,-0.254829867986,0.304921116072,1.0,-0.0124430769231,-0.0163537582418,2.724
-0.630905680571,-0.521761834396,-0.125129397064,-2.64240386581,-0.0674437091234,2.11028880211,-0.878576760609,-0.0519152689842,0.00863448211229,-0.000138786197341,0.00866262430195,2.02704760284e-05,0.0040968756582,-0.0559481275774,0.573617634767,0.819089618183,0.00597941226648,0.0,0.819086151874,-0.573527276912,-0.0120451378943,0.0,-0.00643681529271,0.0118071846181,-0.999909574812,0.0,0.268685300097,-0.255100842258,0.3049456435,1.0,-0.0121230769231,-0.0159331868132,2.74
-0.631839216763,-0.521661900356,-0.125134403793,-2.64224915614,-0.0674217896481,2.11031727991,-0.879565719015,-0.0580862264011,0.00504407957986,3.44036324782e-05,0.00823157555969,0.00277718530094,0.00389616880177,-0.0569351591823,0.573592796527,0.819106921109,0.00599186661962,0.0,0.81910416965,-0.573503410776,-0.0119559187168,0.0,-0.0063569422167,0.0117660183162,-0.999910571051,0.0,0.268486412058,-0.25539168819,0.304981557303,1.0,-0.0117830769231,-0.0154863296703,2.757
-0.632706333887,-0.521582093652,-0.125131214997,-2.6421209102,-0.0674062462995,2.11034791439,-0.880390793755,-0.0513177030153,-0.00105243744252,-0.000789038474115,0.00669050047078,-0.000442728752069,0.000753957919047,-0.0531464595126,0.573637934894,0.819075283737,0.00599550857085,0.0,0.819073109351,-0.573549509508,-0.0118721768291,0.0,-0.00628560662222,0.0117213165179,-0.999911547032,0.0,0.268300000001,-0.255657357169,0.305013213961,1.0,-0.0114630769231,-0.0150657582418,2.773
-0.633640646826,-0.521490425689,-0.125127748135,-2.64196403966,-0.0673922928961,2.11037955504,-0.881278363077,-0.0517985728633,0.00455845601729,-0.00171843597118,0.0112613870682,6.58289300915e-05,0.00068849468323,-0.0459639036971,0.573687433648,0.819040621057,0.00599470047323,0.0,0.819039076041,-0.573600199477,-0.0117707254902,0.0,-0.00620226034125,0.0116628357811,-0.999912751308,0.0,0.268102629114,-0.255948184213,0.305053612209,1.0,-0.0111030769231,-0.0145926153846,2.791
-0.634491952468,-0.521399156773,-0.125103544828,-2.64179880736,-0.0673774489081,2.11042626882,-0.88214994207,-0.0511778745857,0.00855494783423,0.000787824422394,0.00713978450431,0.00462363474228,0.00191470343715,-0.0464378407026,0.573668106044,0.819054255777,0.00598139643166,0.0,0.819053322602,-0.573582404811,-0.0116458802765,0.0,-0.0061079016494,0.0115801756569,-0.999914292862,0.0,0.267935108838,-0.256216144782,0.305099737279,1.0,-0.0107630769231,-0.0141457582418,2.808
-0.635312562987,-0.521346298797,-0.125083645928,-2.64161547673,-0.0673691743812,2.1105068192,-0.882975770413,-0.0504271789582,0.00144662694764,0.000998545879515,0.00786181441839,0.000247789258484,0.00502380124061,-0.0485711216378,0.573661994281,0.819058712013,0.00595730596772,0.0,0.819058791089,-0.573578901786,-0.0114318444606,0.0,-0.00594648127343,0.0114376187252,-0.999916906667,0.0,0.267784201723,-0.256487285276,0.30517100214,1.0,-0.0104230769231,-0.0136989010989,2.825
-0.636057962786,-0.521342334057,-0.125065186017,-2.64140006311,-0.067369969828,2.11058668503,-0.883684306402,-0.0450744869677,-0.00142276654274,0.00302795282703,0.0128381437498,-6.89429620266e-05,0.00375583199457,-0.0463008720174,0.573688765944,0.819040237293,0.00591915755619,0.0,0.819041594078,-0.57360921289,-0.0111393428577,0.0,-0.00572839700005,0.011238768479,-0.99992043461,0.0,0.267659677271,-0.256748288809,0.30527475186,1.0,-0.0101030769231,-0.0132783296703,2.841
-0.636865071951,-0.521390065751,-0.125042924512,-2.64104155919,-0.0673633164566,2.11073154016,-0.884426762361,-0.0468043435152,-0.00397086145151,0.00160679250337,0.0190923496543,-0.00057660744554,0.00379129610625,-0.0420092060793,0.573745164288,0.819001166832,0.00585850538983,0.0,0.819004900212,-0.573672039237,-0.0105882825896,0.0,-0.00531105731607,0.0108733299014,-0.999926779003,0.0,0.26756531449,-0.257070173408,0.305468291214,1.0,-0.00976307692308,-0.0128314725275,2.858
-0.637576628858,-0.521439268604,-0.125013418771,-2.64070934987,-0.0673521416515,2.1107974599,-0.885139701576,-0.0441356678311,-0.000854991364466,0.00208750579178,0.0250028731202,0.000232936477256,0.00120834026787,-0.0460903658606,0.573743095333,0.819002973576,0.00580833294181,0.0,0.819008472499,-0.573675033139,-0.0101402776165,0.0,-0.00497291767201,0.0105751917629,-0.999931715373,0.0,0.267478404558,-0.2573468495,0.305643897372,1.0,-0.00944307692308,-0.0124109010989,2.874
-0.638352031804,-0.521488603033,-0.125015060195,-2.64041694584,-0.0673355115007,2.11081481182,-0.885927754797,-0.0437094392466,-0.0026417844322,0.000926482808112,0.0132834903541,-6.89195530751e-05,-0.000145622487744,-0.0441749802435,0.573754358461,0.818995222569,0.00578864899483,0.0,0.819002263662,-0.57369017624,-0.00977858393569,0.0,-0.00468781271971,0.0103516210838,-0.999935432092,0.0,0.267351533485,-0.257630081985,0.305796591332,1.0,-0.00908307692308,-0.0119377582418,2.892
-0.639042657783,-0.521474534891,-0.12501436971,-2.64025180575,-0.0673194513832,2.11083162738,-0.886571914109,-0.0411768484868,0.00110161514116,0.00234251032145,0.00998483504315,0.00421396068777,0.000263777413872,-0.0385725995129,0.573806504513,0.818958717998,0.00578450471659,0.0,0.818966510315,-0.573744103598,-0.00960757359529,0.0,-0.00454946827266,0.0102504012152,-0.999937113829,0.0,0.267215730993,-0.257856796425,0.305868049117,1.0,-0.00876307692308,-0.0115171868132,2.908
-0.63958389036,-0.521444512713,-0.124995526449,-2.6401152838,-0.0673054229761,2.11077971315,-0.88708045628,-0.0429231966078,0.00237915792208,0.00335687705313,0.0249304724843,0.00338269263693,-0.0119307235286,-0.0395166117659,0.573841152418,0.818934449518,0.00578325898041,0.0,0.81894254373,-0.57377946345,-0.00953856873302,0.0,-0.00449323380848,0.0102099766683,-0.999937781678,0.0,0.267100040287,-0.258034415741,0.305924371345,1.0,-0.00848307692308,-0.0111491868132,2.922
-0.640318180451,-0.521301283332,-0.124922450617,-2.64010658162,-0.0672934176211,2.1109041749,-0.887827516152,-0.0314767189652,0.00595159630643,0.00294444604186,-0.00304082850456,-0.0208186616418,0.0172487799569,-0.0379360713257,0.573776293623,0.818980123128,0.00575062598221,0.0,0.818987796946,-0.573714564444,-0.00955687707495,0.0,-0.00452776165635,0.0101933982654,-0.999937795068,0.0,0.266950135708,-0.25821855809,0.305878771181,1.0,-0.00810307692308,-0.0106497582418,2.941
-0.640948774117,-0.521207242894,-0.124889335869,-2.64001976674,-0.0671736325216,2.11092597951,-0.888448934629,-0.0481048645788,-0.00401678728502,0.00129653665471,-0.000791363904853,0.0112985032419,0.0190738813568,-0.0353909340709,0.573821454439,0.818947892456,0.00583393258835,0.0,0.818956639196,-0.573759850214,-0.00950811755977,0.0,-0.00443946202214,0.0102338967072,-0.999937777332,0.0,0.26681995672,-0.258401491375,0.305887287372,1.0,-0.00774307692308,-0.0101766153846,2.959
-0.64140662269,-0.521078964952,-0.12489332259,-2.6400006218,-0.0671662556769,2.11091481597,-0.888960906816,-0.038325779381,0.0172782472129,-0.000263779972143,0.00270758648222,-0.000235853747128,0.0044562190503,-0.0315437337863,0.57377884403,0.818977662454,0.0058458059229,0.0,0.818985904897,-0.573715760618,-0.00964678701014,0.0,-0.00454675962348,0.0103229537017,-0.999936379778,0.0,0.266707822338,-0.258514319454,0.305846796501,1.0,-0.00748307692308,-0.00983490109891,2.972
-0.642125993773,-0.521041826513,-0.124877763424,-2.63993041326,-0.0671628318927,2.11089307639,-0.889671063932,-0.0264138981362,0.00102794667672,-0.00157333180309,0.00291509095482,-0.000396669638883,-0.00357672765826,-0.0325898740039,0.573780264773,0.818976697862,0.00584149108518,0.0,0.818984963391,-0.573717354286,-0.00963192775445,0.0,-0.00453704692812,0.0103109019366,-0.99993654824,0.0,0.266537393821,-0.258716545059,0.305863577169,1.0,-0.00706307692308,-0.00928290109891,2.993
-0.642498664375,-0.520891758716,-0.124821263243,-2.63988777198,-0.067151786994,2.1108911346,-0.890040948899,-0.0224865078851,0.00869316018441,0.00832311041572,0.00296011175682,-0.00186177212715,-0.00377593737316,-0.0308626528629,0.573733159519,0.819009865918,0.0058179118824,0.0,0.819017349468,-0.573669153565,-0.00974835472076,0.0,-0.00464653156781,0.0103581245494,-0.999935557424,0.0,0.266455759469,-0.258814522308,0.305826512101,1.0,-0.00680307692308,-0.00894118681319,3.006
-0.643119957693,-0.520809419389,-0.124764925349,-2.63985485957,-0.0671467705564,2.11095270298,-0.890664102388,-0.0312811639531,0.00874894182033,0.000650368558741,-0.00158091173607,0.00701954700453,0.0112106499819,-0.032712949278,0.573712449179,0.819024506489,0.00579916626023,0.0,0.819031903668,-0.573648773256,-0.0097248452877,0.0,-0.00463829130283,0.0103291658581,-0.999935895239,0.0,0.2663278263,-0.258978576854,0.305820143588,1.0,-0.00640307692308,-0.00841547252748,3.026
-0.643489904282,-0.520701316463,-0.124712199058,-2.63981898771,-0.0671522274067,2.11095333341,-0.891034149197,-0.0281987180853,0.00425559700585,0.00591207313221,0.000527306287808,-0.00287391873104,0.00607186105135,-0.0272980950149,0.57367484227,0.8190510518,0.00577033737951,0.0,0.819057815297,-0.573610565266,-0.00979599502733,0.0,-0.00471358429563,0.0103461550253,-0.999935367511,0.0,0.266248958216,-0.259073481681,0.305797938352,1.0,-0.00614307692308,-0.00807375824176,3.039
-0.644107987367,-0.520668283175,-0.124708595856,-2.63976240889,-0.0671304049385,2.11095538922,-0.891633785126,-0.0260028622473,0.00219606477745,-0.00199115458797,0.00406123803074,0.00114440611421,-0.0125224302203,-0.0284013888263,0.573699453484,0.819033703883,0.00578583409547,0.0,0.819040771718,-0.573635416885,-0.00976573911269,0.0,-0.00467960022005,0.0103416323229,-0.999935573916,0.0,0.266104147706,-0.259249121677,0.30581179347,1.0,-0.00570307692308,-0.00749547252748,3.061
-0.64439037924,-0.520617824973,-0.124697986604,-2.63972923606,-0.0671349121674,2.11098061186,-0.891904015013,-0.0305012691578,-0.00459762946349,-0.00439354961298,0.00154137747751,0.00120363409671,-0.00370384594132,-0.0261314263492,0.573725082742,0.81901578033,0.00578168704407,0.0,0.819022845786,-0.573661150835,-0.00975751019775,0.0,-0.00467491559183,0.0103336610768,-0.999935678238,0.0,0.266025485915,-0.259351252703,0.305813653041,1.0,-0.00546307692308,-0.00718004395605,3.073
-0.645000818635,-0.520562968135,-0.124767338241,-2.63961821976,-0.0671069214071,2.1109829988,-0.89244713842,-0.0301872404471,0.0119684257076,-0.003818508028,0.0094042330136,0.00299440414936,-0.00225570953876,-0.0258324986717,0.573823330392,0.818946655089,0.00582310199419,0.0,0.818954453796,-0.573759870789,-0.00969330601557,0.0,-0.00459732680321,0.0103312993629,-0.999936062376,0.0,0.265897213886,-0.259535969709,0.305839609298,1.0,-0.00506307692308,-0.00665432967034,3.093
-0.645359486676,-0.52046520477,-0.12471610576,-2.63958184348,-0.0670981151437,2.11098846508,-0.892740418048,-0.0320436580984,0.0128757527648,0.00127054960117,0.00106511854342,0.00967737572143,0.001543497933,-0.0234975048041,0.573846451214,0.818930578889,0.00580553962839,0.0,0.818937944768,-0.573782507322,-0.00974801581718,0.0,-0.00465192071574,0.0103484402142,-0.999935632638,0.0,0.265823134657,-0.259627593784,0.305821824108,1.0,-0.00480307692308,-0.00631261538462,3.106
-0.64572150484,-0.520463042935,-0.124704184923,-2.63950434239,-0.0670778947452,2.11101698673,-0.893099407049,-0.0234296495847,0.002153650727,-4.65060468227e-05,0.000800868894862,0.0100716128678,0.00133600468826,-0.0111184127901,0.5738526706,0.818926215724,0.00580625065856,0.0,0.818934079925,-0.573789821801,-0.00964157852059,0.0,-0.00456426175694,0.0102879801992,-0.999936660483,0.0,0.265755827618,-0.259742820483,0.305859044949,1.0,-0.00446307692308,-0.00586575824176,3.123
-0.646040950429,-0.520387276348,-0.124662886139,-2.63946429925,-0.0670822363046,2.11100987579,-0.893442588641,-0.0172330682511,0.0013866572733,-0.000531777417684,0.00352865598978,-0.00095454038232,-9.48010009712e-05,-0.0147512694473,0.573804325009,0.818960255264,0.0057830615075,0.0,0.818967682808,-0.57374114642,-0.00968392083006,0.0,-0.00461285474756,0.0102930143101,-0.99993638569,0.0,0.265687866751,-0.259827042856,0.305849708955,1.0,-0.00412307692308,-0.00541890109891,3.14
-0.64642250098,-0.520341621494,-0.124615770231,-2.63945695449,-0.0670674212228,2.1110129996,-0.893819427407,-0.0134762446759,0.0072682929513,0.00330008889229,-0.000238918651003,0.000102266294752,-4.2600374906e-05,-0.0201427958576,0.573781632359,0.818976203672,0.00577607891626,0.0,0.818983406739,-0.573718150307,-0.00971650124737,0.0,-0.00464383140083,0.0103058611547,-0.999936109987,0.0,0.265601467101,-0.259918102958,0.305837615281,1.0,-0.00370307692308,-0.00486690109891,3.161
-0.646637711498,-0.520331894094,-0.124593961276,-2.63944065518,-0.0670578386503,2.11102889347,-0.894045978011,-0.0193015783033,0.00154191400549,0.00374081114682,0.000973003438608,0.00118763393086,0.00142387150198,-0.0198263764534,0.573761751412,0.818990161838,0.00577185675154,0.0,0.818997430975,-0.573698535527,-0.00969253793489,0.0,-0.004626876528,0.0102885414789,-0.999936366939,0.0,0.265557176843,-0.259975708223,0.305843333837,1.0,-0.00344307692308,-0.00452518681319,3.174
-0.646967252404,-0.520308264847,-0.12459332501,-2.63943242312,-0.0670533605774,2.11102728439,-0.894343500286,-0.0186544062632,-0.00278221807673,-0.00088292530747,0.00140945776242,-0.000227734809748,-0.00117891834281,-0.00379909667404,0.573789916525,0.818970385673,0.00577806074276,0.0,0.818977651526,-0.573726518016,-0.00970750880626,0.0,-0.0046352248026,0.0103023716377,-0.999936185879,0.0,0.265473151899,-0.260064099174,0.305838251058,1.0,-0.00304307692308,-0.00399947252748,3.194
-0.647204794898,-0.520292456916,-0.124587513976,-2.63942352316,-0.0670421958503,2.11103008651,-0.894549270627,-0.0203150339164,0.000832226646066,0.00288213242147,0.000267642365211,0.000792229145452,0.000584473358293,-0.0159159219238,0.573817047355,0.81895132314,0.0057856196088,0.0,0.818958659144,-0.573753592139,-0.00970963552226,0.0,-0.00463228801076,0.0103099361616,-0.999936121522,0.0,0.265415774347,-0.260127145785,0.305836860036,1.0,-0.00276307692308,-0.00363147252748,3.208
-0.64748547586,-0.520278362447,-0.124585863312,-2.63938154744,-0.067028343165,2.11104304017,-0.894806847564,-0.0138147022335,0.00527633432979,-0.00468522759977,0.0039722804397,-0.00101424079218,0.000577278386964,-0.0151223056654,0.573842691349,0.81893330866,0.00579210269318,0.0,0.818940911615,-0.573779649027,-0.00966667194092,0.0,-0.00459305741647,0.0102907370313,-0.999936500261,0.0,0.265355734559,-0.260212152197,0.305851929784,1.0,-0.00236307692308,-0.00310575824176,3.228
-0.647641536284,-0.52022015987,-0.124560905866,-2.63934610622,-0.0670135276458,2.1110442758,-0.894952121835,-0.010374491575,0.00316114921657,0.00176638449716,-0.000545754557231,0.000109947904815,0.000475134010179,-0.00554212046684,0.573842042873,0.818933774044,0.00579054942276,0.0,0.81894126801,-0.573778799738,-0.00968686859101,0.0,-0.00461049812267,0.0103010506752,-0.999936313803,0.0,0.265328951113,-0.260254841784,0.305847311498,1.0,-0.00210307692308,-0.00276404395605,3.241
-0.64784639074,-0.520194912567,-0.124483368897,-2.63931683233,-0.0670050897891,2.11105605232,-0.895161480774,-0.00851383808689,0.0031137874142,0.00323236553923,0.000673310189542,0.00378970533661,0.000490246045308,-0.0062141767676,0.573788442536,0.818971569289,0.00575663182457,0.0,0.818978783963,-0.573725519454,-0.00967091759174,0.0,-0.00461756887523,0.0102638176846,-0.999936664046,0.0,0.265301306915,-0.260300022142,0.305854174555,1.0,-0.00170307692308,-0.00223832967034,3.261
-0.647978306448,-0.520183444165,-0.124457360018,-2.63930026435,-0.0669912206825,2.11105936195,-0.895288254719,-0.0062486348269,-0.000147636848993,0.00318226199144,0.000335092782921,0.000456384764151,0.000416695557167,-0.0124919246803,0.573780930368,0.81897684837,0.00575436198091,0.0,0.818984083974,-0.573718117301,-0.00966120997225,0.0,-0.00461101434886,0.0102563463886,-0.999936770954,0.0,0.265277948125,-0.260332405152,0.305858394254,1.0,-0.00142307692308,-0.00187032967034,3.275
-0.648170008102,-0.520152305584,-0.124439874604,-2.63929898289,-0.0669720493887,2.1110683411,-0.895426913137,-0.00388001257622,0.00523553841102,0.0021663375783,0.00324338339652,0.000306121693891,-0.00347949678244,0.000234590459923,0.573820323267,0.818949185569,0.00576324234022,0.0,0.818956429036,-0.573757277566,-0.00967991121182,0.0,-0.00462074213183,0.0102745719647,-0.999936538943,0.0,0.265234599134,-0.260378544438,0.305848693794,1.0,-0.00102307692308,-0.00134461538462,3.295
-0.648260989939,-0.520157170005,-0.12444206739,-2.63929035897,-0.066963777182,2.1110766148,-0.895466762198,-0.010500019179,-0.000984900660555,0.00126381638023,0.00272437988522,-0.000367053865376,-0.000210507690405,-0.000879519898717,0.573867641836,0.818915985106,0.0057693927747,0.0,0.818923399676,-0.573804800596,-0.00965728622362,0.0,-0.00459808931808,0.0102668924863,-0.999936722245,0.0,0.265214564409,-0.260405754333,0.305855075972,1.0,-0.000763076923082,-0.00100290109891,3.308
-0.648353550476,-0.520139194714,-0.124437688483,-2.63929505125,-0.0669492259195,2.11107188631,-0.89553662853,-0.00598805136829,-0.00137863318869,0.00145432396576,-0.000665234302633,0.000777884994706,6.03395981231e-05,-0.00171216283168,0.573889176027,0.818900804749,0.00578208633796,0.0,0.818908233367,-0.573826012897,-0.0096829307797,0.0,-0.00461153704466,0.0102921254302,-0.999936400918,0.0,0.265190497948,-0.260425710354,0.305846020349,1.0,-0.000363076923082,-0.000477186813194,3.328
-0.648378786749,-0.520136563658,-0.124434515422,-2.63929505124,-0.0669348585215,2.11107231726,-0.895577570217,0.000370771087715,0.000858096959191,0.00322261343294,0.00038757657522,0.000156650640187,-0.000990777434252,-0.00126445987573,0.573880185489,0.818907027224,0.0057931309974,0.0,0.818914565601,-0.573816964052,-0.0096836415396,0.0,-0.00460589394235,0.0103015276935,-0.999936330107,0.0,0.265185910814,-0.260430265619,0.305845171335,1.0,-0.000103076923082,-0.000135472527479,3.341
-0.648373542271,-0.520144359346,-0.124399781371,-2.63929505124,-0.0669233169284,2.11107203293,-0.895580326503,2.22463816756e-05,-0.00113774033687,0.00200995434567,-0.000304410062888,0.000398242560462,0.000383308522093,-0.00205656898515,0.573853882521,0.81892551385,0.00578542844949,0.0,0.818933007434,-0.573790778022,-0.00967570631819,0.0,-0.00460414592134,0.0102905180806,-0.99993645152,0.0,0.265195996877,-0.260420172157,0.305848846837,1.0,0.0,0.0,3.362
-0.648368565406,-0.520139895249,-0.12438368067,-2.63928167334,-0.0669137502497,2.11107791869,-0.895585969563,-0.000247202567664,0.000428512665818,0.00231163119166,0.00053336787568,0.000116173263163,0.000318384566032,0.00181400282275,0.573838476244,0.818936325317,0.00578317904248,0.0,0.818943864522,-0.57377553838,-0.00966049788469,0.0,-0.00459317440261,0.0102798622994,-0.999936611581,0.0,0.265205560412,-0.260418514216,0.305854180921,1.0,0.0,0.0,3.375
-0.648383482402,-0.520139069645,-0.124390483256,-2.63928861678,-0.0669046791464,2.1110731376,-0.895592673715,0.00062164988868,0.000858640633835,-0.00176862106408,-0.000350396501341,-0.000132207872313,-3.47974221826e-05,0.00132157507242,0.573853565665,0.818925662066,0.00579586790068,0.0,0.818933280421,-0.57379045193,-0.00967193844104,0.0,-0.00459507339864,0.0102969037214,-0.999936427516,0.0,0.265198634831,-0.260420587268,0.305850151256,1.0,0.0,0.0,3.392
-0.648377833751,-0.520141857984,-0.124383311299,-2.63928610828,-0.0669016556018,2.11107547874,-0.895598374708,0.00127878838253,-0.000522936796062,0.00162292681142,-0.00206147252908,-0.00012546854618,-0.000290867341224,0.00266346804139,0.57384057448,0.818934777154,0.00579419962563,0.0,0.818942413006,-0.573777548242,-0.00966417171185,0.0,-0.00458983302052,0.0102910078036,-0.99993651228,0.0,0.265202944941,-0.260418222513,0.305852692819,1.0,0.0,0.0,3.409
-0.648376760923,-0.520128115237,-0.124363890781,-2.63929059326,-0.0668968459399,2.11107724822,-0.895600715434,-0.0012073417112,0.000712810221133,0.000393775493134,-0.00177663812699,9.68150843165e-05,-0.000337187785431,0.000216366976925,0.573825911651,0.818945083848,0.0057896166986,0.0,0.818952596399,-0.573762738455,-0.00968048105252,0.0,-0.00460600471551,0.0102965307328,-0.999936381064,0.0,0.26520683738,-0.260412066678,0.305846197781,1.0,0.0,0.0,3.43
-0.648381412343,-0.520135556017,-0.124356466849,-2.63929640476,-0.0668932514235,2.11107151146,-0.895603868971,-0.00655707895401,-0.000895722198698,0.000957091375883,0.000785329014545,-0.000366977571683,-0.000114969574512,-0.000714790840409,0.573823103342,0.81894704747,0.0057901996527,0.0,0.818954548316,-0.57375988834,-0.00968427724121,0.0,-0.00460881468134,0.0102991706524,-0.999936340929,0.0,0.265205482471,-0.260409143063,0.305845980471,1.0,0.0,0.0,3.442
-0.648373976878,-0.520132801971,-0.124346426036,-2.63928081857,-0.0668918105385,2.11107827196,-0.895606759947,-0.000891646403177,-0.00101699006754,-0.000421932280173,0.000915219186288,-0.000151945767979,0.00458220300628,-0.000507579783844,0.573815882406,0.818952143725,0.00578500542293,0.0,0.818959685975,-0.573752904618,-0.0096635444663,0.0,-0.00459490525819,0.0102829794989,-0.999936571578,0.0,0.265214891982,-0.260410015775,0.305853841783,1.0,0.0,0.0,3.463
-0.648381809269,-0.520135909494,-0.124351188941,-2.63927426864,-0.0668854864246,2.11108310753,-0.895602385564,-0.00102609620202,-0.000891289444183,-0.00145339153926,-0.00110609827758,0.000515097274808,0.000336312453617,0.00106703477719,0.573825220119,0.818945568107,0.00578965756517,0.0,0.818953221342,-0.573762360987,-0.00964993623936,0.0,-0.00458097311977,0.0102790334034,-0.999936676074,0.0,0.26521414741,-0.260414580337,0.305857310822,1.0,0.0,0.0,3.476
-0.648388369709,-0.520125245366,-0.12435143718,-2.63927657154,-0.0668864109225,2.11107871977,-0.895609277117,-0.00148929949696,0.00243983540483,-0.000546691179823,-0.000430621703875,0.000121068641747,0.000400655451649,-0.000734133188243,0.573824676669,0.818945944524,0.00579027585114,0.0,0.818953524557,-0.573761636448,-0.00966726730537,0.0,-0.00459481967104,0.0102894814566,-0.999936505086,0.0,0.265210848062,-0.260415092273,0.305851948173,1.0,0.0,0.0,3.496
-0.648379980665,-0.520124924529,-0.124343572917,-2.6392790772,-0.0668870198131,2.11108024565,-0.895612910249,-0.00046968721474,0.000581725690856,0.000194627252144,-0.0005768230675,-0.000254506209005,-4.71054504575e-05,-0.00177051696427,0.573808881846,0.818957041068,0.00578609548506,0.0,0.818964570171,-0.573745845688,-0.00966872597127,0.0,-0.00459861150254,0.0102868060932,-0.999936515181,0.0,0.265214350959,-0.260410772411,0.305851005301,1.0,0.0,0.0,3.509
-0.648392704751,-0.520126647481,-0.124348212466,-2.63928186126,-0.0668856577283,2.11107905942,-0.895608053396,-0.00147101502366,-0.000149674678655,-0.000261142703639,0.000486959801508,-0.000132131696246,0.00504654382115,0.000551658455026,0.573827011774,0.818944310466,0.00578997534863,0.0,0.818951871577,-0.573763937111,-0.00967075039286,0.0,-0.00459781548257,0.0102912470861,-0.999936473145,0.0,0.265209358753,-0.260414178287,0.305850163033,1.0,0.0,0.0,3.53
-0.648393777634,-0.520130186281,-0.124354299976,-2.63927711578,-0.0668844666345,2.11107939244,-0.895610194096,0.000182595672103,-6.00274868276e-05,-0.0073099191052,0.00199252851314,-0.000177004035049,-0.00240117471562,0.000737384192196,0.573831162253,0.81894137962,0.0057931748045,0.0,0.818949014339,-0.573768163358,-0.00966196311992,0.0,-0.00458873048697,0.010288848415,-0.999936539562,0.0,0.265209078242,-0.260416993377,0.305853513474,1.0,0.0,0.0,3.543
-0.648383198224,-0.520136191578,-0.124346425872,-2.63926116965,-0.0668808992168,2.11108421294,-0.895614279067,-0.00134872266841,-0.000557115367868,0.000331128079219,0.00182162530156,-0.000263452681328,0.00570156919491,-0.00119374076506,0.5738157954,0.818952174557,0.00578926937097,0.0,0.818959890411,-0.573753089164,-0.00963522049158,0.0,-0.00456926156076,0.0102702188534,-0.999936820231,0.0,0.265218420596,-0.26041694097,0.305863587008,1.0,0.0,0.0,3.563
