nelsonifechukwu/NELSON_IML_WORK/CNN-GradCAM/train2dof/data_sample_2022-02-21-14-34-00/robot_state.csv
position_joint1,position_joint2,position_joint3,position_joint4,position_joint5,position_joint6,position_joint7,velocity_joint1,velocity_joint2,velocity_joint3,velocity_joint4,velocity_joint5,velocity_joint6,velocity_joint7,ee_T_00,ee_T_10,ee_T_20,ee_T_30,ee_T_01,ee_T_11,ee_T_21,ee_T_31,ee_T_02,ee_T_12,ee_T_22,ee_T_32,ee_T_03,ee_T_13,ee_T_23,ee_T_33,v_x,v_y,time
0.46507017253,0.547866163714,-0.123998141685,-1.35584330696,0.0794758503198,1.89409078089,0.159170167198,-0.000750146919626,0.000762025661224,0.00106815796913,0.000613096024143,-0.000230744615132,0.000402112509425,-0.000517310122105,0.573818576661,0.818968627461,0.00183717581616,0.0,0.818924254409,-0.573760711345,-0.0119356004671,0.0,-0.00872095093465,0.00835353793858,-0.999927079051,0.0,0.661674981513,0.260875641168,0.303148701895,1.0,0.0,0.0,0.0
0.465071233474,0.547863379654,-0.124003431399,-1.35584542721,0.0794743281078,1.89409392056,0.159174437893,-0.00698055686919,-0.000794681713285,-0.000844588834213,0.000523247352641,0.000186756288086,0.000169852085109,0.00124284928337,0.573824630631,0.818964383297,0.00183822557648,0.0,0.818920067858,-0.57376680222,-0.01193004743,0.0,-0.00871573893041,0.00835127566169,-0.999927143391,0.0,0.661676219436,0.260873034112,0.303150110076,1.0,-6e-05,-7.88571428571e-05,0.004
0.465071720599,0.547857723746,-0.124003431435,-1.35585010216,0.0794721863653,1.89409197849,0.159178820352,-0.000295886025,-0.00193368512039,-0.00635987644893,0.000128028153629,-8.35390519949e-05,-0.00013235319863,0.00161456556439,0.57382748469,0.818962387299,0.00183654714087,0.0,0.818918062827,-0.573769675336,-0.0119294988413,0.0,-0.0087162236079,0.00834961669661,-0.99992715302,0.0,0.661674903214,0.26087239663,0.30315171923,1.0,-0.0003,-0.000394285714286,0.016
0.465072349688,0.547858004412,-0.124004178519,-1.35585714098,0.0794729736847,1.89409056049,0.159169801804,0.000489120015223,-0.00267813310271,-0.00123075253405,-0.00284300925225,7.11059466446e-05,-0.00699743596171,-0.00140581024857,0.573820688498,0.818967164482,0.00182971363179,0.0,0.818922737311,-0.573762895859,-0.0119346784971,0.0,-0.00872445598865,0.00834692023216,-0.999927103738,0.0,0.661672960918,0.260871570578,0.303148073583,1.0,-0.00064,-0.000841142857143,0.033
0.465070116405,0.547822044484,-0.124000594964,-1.35588477829,0.0794728530977,1.89409712593,0.159166942987,0.00026071629962,-0.00360078236764,5.63588630142e-06,-0.000226141325843,9.61181665038e-05,0.000244455960372,-0.00711024783069,0.573819133473,0.818968220224,0.00184478335529,0.0,0.818923951812,-0.573761241148,-0.0119308929421,0.0,-0.00871272471782,0.00835707282468,-0.999927121225,0.0,0.661668655349,0.260869788713,0.303160845442,1.0,-0.00098,-0.001288,0.05
0.465073685662,0.547711990911,-0.12400133551,-1.35601014368,0.0794730583658,1.89412381422,0.159164898971,-0.000679835657902,-0.00762726177489,0.000229091258401,-0.0107287505943,0.000350689602143,-0.000184281500939,-0.000995956540333,0.573821944592,0.818966216127,0.00186001310798,0.0,0.818922052353,-0.573763897435,-0.0119335272075,0.0,-0.00870611487178,0.00837108670922,-0.999927061576,0.0,0.661647377455,0.260860135162,0.303181483565,1.0,-0.0013,-0.00170857142857,0.066
0.465065195345,0.547572274144,-0.123998232961,-1.35620889611,0.0794686786295,1.89416719447,0.159166857892,-0.000400639666787,-0.00810133073106,-0.000515197887752,-0.0124027229489,-0.000195109419933,0.00588000590203,0.000753755290961,0.573838074622,0.818954930412,0.0018528273717,0.0,0.818910547224,-0.573779935131,-0.0119519282135,0.0,-0.00872514335532,0.0083759326136,-0.999926855138,0.0,0.661615897934,0.260836788837,0.303189517933,1.0,-0.00166,-0.00218171428571,0.084
0.465048262144,0.547413525081,-0.124003408612,-1.3564085995,0.0794655548416,1.89427494396,0.159157198757,-0.000938965421343,-0.0148974259804,-0.000604374378362,-0.00914647069718,-0.000368082828854,0.00563925971391,-0.00113662766286,0.573858193709,0.818940695396,0.00191254766927,0.0,0.818897081473,-0.573799791205,-0.01192126119,0.0,-0.00866555331443,0.00840745498736,-0.999927108787,0.0,0.661601579697,0.260807794778,0.303216442106,1.0,-0.00198,-0.00260228571429,0.1
0.465021394625,0.547236444539,-0.12400063349,-1.3566127262,0.0794650417488,1.89438911369,0.159151585641,-0.0042132193732,-0.014027779277,-0.000450214019416,-0.012084898398,-0.000594461399207,0.00350973151192,0.000794581108812,0.573882639967,0.818923346141,0.00200389365829,0.0,0.81888082729,-0.573823764191,-0.0118838229733,0.0,-0.0085822235066,0.00846103269862,-0.999927375546,0.0,0.661586005451,0.260780238913,0.303260578205,1.0,-0.00232,-0.00304914285714,0.117
0.464988847527,0.547007397328,-0.123998757385,-1.35690486853,0.0794569347489,1.89453242686,0.159132057553,-0.00156666880744,-0.0101798418519,0.000679859764497,-0.0137856493519,9.29416740013e-05,0.0140957686605,0.000725838706401,0.573908872212,0.818904806382,0.002066732137,0.0,0.818863086464,-0.573849719745,-0.011852918501,0.0,-0.00852058232014,0.00849502930156,-0.999927614457,0.0,0.661564769155,0.260733724351,0.303290091934,1.0,-0.00266,-0.003496,0.134
0.46495838992,0.546773028859,-0.123998839781,-1.3572823588,0.0794492787814,1.89466346684,0.159095430402,0.000908587227462,-0.0141047991712,0.000310673024411,-0.0224006724885,2.03375793238e-05,0.0108351544786,0.000414325389761,0.57392293202,0.818894958147,0.00206458795172,0.0,0.818853060252,-0.573863636905,-0.0118717671884,0.0,-0.00853710270991,0.0085042373284,-0.999927395277,0.0,0.661518872884,0.260679450592,0.303287779088,1.0,-0.003,-0.00394285714286,0.151
0.464912292847,0.546503162218,-0.123996307759,-1.35767822925,0.0794349050964,1.89481283624,0.15895078243,-0.00484994879592,-0.0191357493114,0.00337417320791,-0.0274670319524,-0.00167778675663,0.0109393451796,-0.00668067147363,0.5738587899,0.818939839824,0.0020916272028,0.0,0.818898189394,-0.573799289306,-0.0118691996618,0.0,-0.00852015030674,0.00852423840228,-0.999927369562,0.0,0.661477183874,0.260614792944,0.303303336583,1.0,-0.00332,-0.00436342857143,0.167
0.464876078302,0.54621351497,-0.123999814759,-1.35816133561,0.0794135485205,1.89497290803,0.158934099892,-0.000521527191526,-0.016843295926,0.000478482357774,-0.0280612458812,-0.00396568474402,0.00260182406352,-0.00463162526698,0.573898498428,0.818912078157,0.00206607161568,0.0,0.818870015515,-0.573839016997,-0.0118923153055,0.0,-0.00855333281411,0.0085169899711,-0.999927148036,0.0,0.661417288805,0.260542667851,0.303292480473,1.0,-0.00366,-0.00481028571429,0.184
0.464829157586,0.545896174754,-0.124001763219,-1.35871174378,0.0793659035811,1.89515798968,0.158885992581,-0.00148904917961,-0.0147205730332,0.000238171283942,-0.0342532036823,-0.00256240876212,0.0119851509411,0.000812086378998,0.573916940894,0.818899278058,0.00201599938288,0.0,0.818856673418,-0.573857771103,-0.0119060423415,0.0,-0.00859311800975,0.00848405729148,-0.999927086889,0.0,0.661351515369,0.260454177777,0.30327125354,1.0,-0.004,-0.00525714285714,0.201
0.464770583624,0.545553598248,-0.123999513255,-1.35928846289,0.0792787930909,1.89536048322,0.158792538758,-0.000119289159255,-0.0216320354583,0.000626861603844,-0.0417193882243,-0.00156435409404,0.00906701956999,-0.00299016467153,0.57389584262,0.818914199188,0.00196038069236,0.0,0.818871312851,-0.573837339123,-0.011883943729,0.0,-0.00860715633626,0.00842560763028,-0.999927460367,0.0,0.661288063619,0.260352418379,0.303256648352,1.0,-0.00432,-0.00567771428571,0.217
0.464705243477,0.54515711557,-0.12400131966,-1.35998288906,0.0792695606133,1.89557668461,0.158690272141,-0.00837437120072,-0.0234131655467,-7.86479411517e-05,-0.03876434363,-0.0021542051846,0.0154556851556,-0.00394947899817,0.573902984253,0.818909316789,0.00190851826527,0.0,0.818865400072,-0.573844350526,-0.0119526078706,0.0,-0.00869307688941,0.00842261906088,-0.999926742268,0.0,0.661199970852,0.260244110771,0.303225623724,1.0,-0.00466,-0.00612457142857,0.234
0.464642583056,0.544725034669,-0.124004560735,-1.36070431943,0.0792433660946,1.895822383,0.158645405592,-0.00695721126769,-0.0290679793223,-0.00257934419519,-0.0418486575185,-0.00860419673746,0.0141122808559,-0.00264625005627,0.573953008767,0.818874324316,0.00187925628535,0.0,0.818829849724,-0.57389432301,-0.01198874969,0.0,-0.00873895304008,0.00841993220744,-0.99992636501,0.0,0.661112992173,0.260133272692,0.303209483664,1.0,-0.005,-0.00657142857143,0.251
0.464574910781,0.544297160281,-0.124007704223,-1.36142065435,0.0792129911724,1.8960929763,0.158520398038,-0.00524820373368,-0.0274403298256,-0.00114212425086,-0.0442283285969,-0.00350075246808,0.0147662033153,-0.010284016546,0.573940209261,0.818883318115,0.00186933340968,0.0,0.818838607131,-0.573881464801,-0.0120061122315,0.0,-0.00875899786433,0.0084216350746,-0.999926175284,0.0,0.661033467854,0.260020747165,0.303194902656,1.0,-0.00532,-0.006992,0.267
0.464505106701,0.543758350589,-0.124002716352,-1.3622958585,0.0791734039599,1.89639186166,0.158408151991,-0.0033496956773,-0.0344455969428,0.000832910952256,-0.0505404345704,-0.00237169199905,0.00779719154989,-0.00580252441405,0.573940040681,0.818883489273,0.00184596873795,0.0,0.818838279297,-0.573881211485,-0.01204053005,0.0,-0.00880059392304,0.00842225432622,-0.999925804837,0.0,0.660925044735,0.259894555669,0.303185330544,1.0,-0.00568,-0.00746514285714,0.285
0.464417042164,0.543215661218,-0.124005935214,-1.36315142598,0.0791195190299,1.89669566162,0.158300289748,-0.0082610997668,-0.0335099930314,0.000349505345313,-0.0573525640663,-0.00359275035517,0.0205034124568,3.90028348105e-05,0.573959261154,0.818870039617,0.00183620662892,0.0,0.818824714266,-0.573900483801,-0.0120444551992,0.0,-0.00880921323807,0.00841672002333,-0.999925775538,0.0,0.660829525985,0.259751955352,0.303188452347,1.0,-0.00602,-0.007912,0.302
0.464352708706,0.54267672057,-0.124011874906,-1.36400831391,0.0790719391468,1.89699805691,0.158195548455,-0.00253077653078,-0.0366414348454,2.80392644883e-05,-0.0512004862402,-0.00173712229977,0.00946694807503,-0.00354164346036,0.573965211424,0.818865896875,0.00182370834572,0.0,0.818820370572,-0.573906452125,-0.0120553658942,0.0,-0.00882525993228,0.00841281215039,-0.999925666927,0.0,0.660727299536,0.259624185271,0.303188209342,1.0,-0.00634,-0.00833257142857,0.318
0.464276400234,0.542148870911,-0.124009829952,-1.36482948007,0.0790301071391,1.89731023786,0.158078882936,-0.00515567968144,-0.0335371832852,-0.000931439142061,-0.0587994399572,-0.000557892616428,0.0186279102707,-0.00846684895099,0.573965255956,0.818865820102,0.00184405124798,0.0,0.818820480051,-0.573906331527,-0.0120536709804,0.0,-0.00881219614779,0.00842849755226,-0.99992565005,0.0,0.660635809955,0.259498827968,0.303197654162,1.0,-0.00664,-0.00872685714286,0.333
0.464181302958,0.541399653462,-0.124017240071,-1.3659793728,0.0789449150779,1.89774233019,0.157925062825,-0.00141803280507,-0.0393638919563,-0.000143467309004,-0.0583669016577,-0.00340785133159,0.0235862253823,-0.0110420527531,0.573963454401,0.818867046836,0.00185997832266,0.0,0.818822097902,-0.573904636229,-0.0120244502119,0.0,-0.00877914487789,0.0084247485356,-0.999925972374,0.0,0.660507540258,0.259320598595,0.303217734991,1.0,-0.00704,-0.00925257142857,0.353
0.46409973233,0.540751812886,-0.12401731948,-1.36698357963,0.0789004263999,1.89810392127,0.157814287476,-0.00269917234645,-0.0445106033834,-0.000681586102764,-0.0621772215906,-0.00400262576213,0.0192913946753,-0.0107807383964,0.573983310197,0.818853098796,0.00187326144047,0.0,0.818808151631,-0.573924267021,-0.0120371694178,0.0,-0.00878173235488,0.00844313864199,-0.99992579454,0.0,0.660388499536,0.259173320711,0.303229085289,1.0,-0.00736,-0.00967314285714,0.369
0.463992362631,0.540010472553,-0.12401621022,-1.36810120912,0.0788312951638,1.8985194353,0.157657915213,-0.00808777138688,-0.0443388100408,0.000575880308133,-0.0648950987057,-0.00402572170966,0.0245551650594,-0.00642075304954,0.573985776424,0.818851293607,0.00190638954735,0.0,0.818806781989,-0.573926592569,-0.0120194430459,0.0,-0.0087481772591,0.00846011692285,-0.999925945166,0.0,0.660264074284,0.258997148757,0.303257026285,1.0,-0.0077,-0.01012,0.386
0.463901064434,0.539262699428,-0.12402899333,-1.36925536324,0.0787694071884,1.89895683409,0.157526390219,-0.00862082380041,-0.0457557655971,-0.000552287727686,-0.075808604989,4.67960643357e-05,0.0214365134413,-0.0139063884239,0.574009145587,0.818834849382,0.00193316370761,0.0,0.818790685334,-0.573949842121,-0.0120058003107,0.0,-0.00872139659821,0.00847445877502,-0.999926057661,0.0,0.66013412576,0.258821941238,0.303274380526,1.0,-0.00804,-0.0105668571429,0.403
0.46379116774,0.538545709952,-0.124027519621,-1.37038094757,0.078695093667,1.89939274638,0.157384157143,-0.00326216431362,-0.0472644688697,0.000212324963783,-0.0695790170986,-0.00100221120184,0.0197203064551,-0.00838789462045,0.57402404027,0.818824363414,0.00195191509727,0.0,0.818780510508,-0.573964719782,-0.0119884510378,0.0,-0.00869627281769,0.00848001240761,-0.999926229393,0.0,0.660011689669,0.258643614605,0.303282847404,1.0,-0.00836,-0.0109874285714,0.419
0.463689480686,0.537762235175,-0.124030790936,-1.37160000711,0.078626133579,1.89986877189,0.157230692242,-0.00462026814056,-0.0439835884129,-0.000901413274698,-0.0753698419864,-0.00206671672747,0.032274413661,-0.0121829738713,0.574032883236,0.818818080514,0.00198667774723,0.0,0.818774677128,-0.573973410975,-0.0119707346887,0.0,-0.00866172056202,0.0084984003994,-0.999926373183,0.0,0.659875788988,0.258461328379,0.303297308811,1.0,-0.0087,-0.0114342857143,0.436
0.463570686634,0.536928035339,-0.124033984165,-1.37290399499,0.0785574027646,1.90034465611,0.157074969759,-0.00854422572003,-0.0520767701423,0.000994384531577,-0.0751199666962,-0.00790900548134,0.0307874770303,-0.00876356750751,0.574058257203,0.818800268101,0.00199629546271,0.0,0.81875689197,-0.573998644932,-0.0119772437915,0.0,-0.00866126629335,0.00851028021482,-0.999926276081,0.0,0.659725618565,0.258258428521,0.303307010765,1.0,-0.00904,-0.0118811428571,0.453
0.463460283676,0.536129540714,-0.124041893533,-1.37415274116,0.0784735856888,1.9008106091,0.156916607616,-0.00465209074526,-0.0523124991051,-0.00175722485646,-0.0841884589526,-0.00967697207201,0.0288056195575,-0.0143598263518,0.574070760637,0.818791486763,0.00200247040577,0.0,0.818748298584,-0.574011226526,-0.01196170092,0.0,-0.00864486482728,0.00850654576073,-0.999926449791,0.0,0.659584801046,0.258061323541,0.303316911757,1.0,-0.00936,-0.0123017142857,0.469
0.463349745714,0.535232358989,-0.124041816951,-1.37556028339,0.0783977356911,1.90131852761,0.15675081292,-0.00642319767724,-0.0557164233718,-0.000265576868336,-0.0772954323333,-0.00436969525169,0.0283893722373,-0.00641210908656,0.574082330393,0.818783367978,0.00200528160777,0.0,0.818740097417,-0.574022665912,-0.011974088804,0.0,-0.00865327426738,0.0085160812248,-0.999926295886,0.0,0.659415545215,0.257855360098,0.303324127927,1.0,-0.0097,-0.0127485714286,0.486
0.463210261166,0.534282477453,-0.124048144415,-1.3771133271,0.0783224187709,1.90188474388,0.15655520695,-0.0127729351951,-0.0438290479154,-0.000803463734558,-0.0840755523123,0.000746387589494,0.0280247302057,-0.0117777651563,0.574105804591,0.818766967623,0.00198110208347,0.0,0.818723207523,-0.574046068437,-0.0120069844941,0.0,-0.0086938458058,0.00851541769407,-0.999925949612,0.0,0.659234005534,0.257614060614,0.303304383096,1.0,-0.01006,-0.0132217142857,0.504
0.463095354301,0.533472600526,-0.124041087056,-1.37842435924,0.0782392233051,1.90237730145,0.156395330676,-0.0059333563284,-0.0530273543443,0.000334459410219,-0.0849501190886,-0.00725099338958,0.0364498983491,-0.00635894939258,0.574113501807,0.818761593205,0.0019716582823,0.0,0.818717701197,-0.574053796434,-0.0120129699847,0.0,-0.00870408810225,0.0085112036685,-0.999925896386,0.0,0.659081069293,0.257417388897,0.30329403403,1.0,-0.01036,-0.013616,0.519
0.462963693567,0.532513574909,-0.124043546651,-1.37995646472,0.0781487622474,1.90295738963,0.156199804837,-0.00735869836737,-0.0600710659612,0.000157915761064,-0.0923414949721,-0.00304687950611,0.0356540167344,-0.0155173928551,0.574122463142,0.818755297614,0.00197657424097,0.0,0.818711458537,-0.574062724711,-0.0120117716339,0.0,-0.00870019157023,0.00851463582999,-0.999925901076,0.0,0.658904587764,0.257184642954,0.30329136983,1.0,-0.0107,-0.0140628571429,0.536
0.462822855025,0.531484290935,-0.124045840983,-1.38163592035,0.0780613772184,1.90356002975,0.155981668941,-0.00765727625971,-0.058557586805,0.00209368964054,-0.0968190127207,-0.00882769109902,0.0357015949056,-0.0211488057263,0.574128854916,0.818750897242,0.00194245193323,0.0,0.818706436868,-0.574069090674,-0.0120497412326,0.0,-0.00875080331084,0.00850856585323,-0.9999255111,0.0,0.658701799602,0.256931431929,0.303269863068,1.0,-0.01106,-0.014536,0.554
0.462697374027,0.530518444154,-0.124046184963,-1.38318521904,0.077958621564,1.90410148472,0.155786557593,-0.0110369627357,-0.0578157245704,-0.000505076525414,-0.099370693796,-0.00329680645059,0.0359943423842,-0.0172609584965,0.574128534288,0.818751217533,0.0019017899622,0.0,0.81870623857,-0.574068959046,-0.012069469209,0.0,-0.00879030326647,0.00848659736637,-0.999925351331,0.0,0.658511506258,0.256697505469,0.303259955578,1.0,-0.01138,-0.0149565714286,0.57
0.462552876289,0.52949073066,-0.124052363036,-1.38481513603,0.0778520032949,1.90470997735,0.155563533349,-0.00789056825978,-0.0591363727975,3.45023128848e-05,-0.10138871291,-0.00519234124473,0.0377095560513,-0.0120776771428,0.574128453595,0.818751277589,0.00190029485233,0.0,0.818706365505,-0.574068968314,-0.0120604146712,0.0,-0.0087837487293,0.00848017398645,-0.999925463426,0.0,0.658323382454,0.256442842353,0.303261042282,1.0,-0.01172,-0.0154034285714,0.587
0.46242367528,0.528391172884,-0.124050655176,-1.38652350373,0.0777463168873,1.90536629091,0.155332756524,-0.00150338207493,-0.0648565219357,0.00171441081217,-0.100515986103,-0.00798891871651,0.0402862650194,-0.0047271785219,0.574108352741,0.818765282419,0.0019386899968,0.0,0.818720893922,-0.574048724946,-0.0120376968063,0.0,-0.00874331404046,0.0084983519111,-0.999925663474,0.0,0.658122101946,0.256197878233,0.303279021486,1.0,-0.01206,-0.0158502857143,0.604
0.462287027599,0.527323435539,-0.124050656348,-1.38816614417,0.0776516369598,1.90599601822,0.155090898811,-0.00454366285507,-0.0713226664945,0.000232872286428,-0.105697399593,-0.00307792832997,0.0409531425763,-0.0131097831653,0.574085683252,0.818781060628,0.00198744626197,0.0,0.818737272655,-0.574025814167,-0.0120162363931,0.0,-0.00869798878332,0.00852570975827,-0.999925825881,0.0,0.657931277499,0.255954400094,0.303303373131,1.0,-0.01238,-0.0162708571429,0.62
0.462133974883,0.526149141654,-0.124050998301,-1.38997995189,0.0775218612139,1.90667615252,0.154858163349,-0.00745365403292,-0.076137321301,0.00070646122761,-0.110552969841,-0.00355067033445,0.0458486573043,-0.016560193667,0.574083516505,0.818782523671,0.00201045018627,0.0,0.818739207276,-0.574023718659,-0.0119844811191,0.0,-0.00865880431228,0.00852629161364,-0.999926161004,0.0,0.657718872242,0.255678824012,0.303325300903,1.0,-0.01272,-0.0167177142857,0.637
0.46196044333,0.524904324706,-0.124058863791,-1.3919275901,0.0774150112879,1.90736506989,0.154596222659,-0.0142462200829,-0.0708554028549,0.00103299900103,-0.10558343019,-0.00720631924799,0.045233613613,-0.0159871923209,0.574092565373,0.818776195102,0.00200390086679,0.0,0.818732653761,-0.574032656806,-0.0120040612205,0.0,-0.00867850212142,0.00853226564808,-0.999925939279,0.0,0.657483725242,0.255374775553,0.303333882945,1.0,-0.01308,-0.0171908571429,0.655
0.461820744707,0.523851709621,-0.124068375889,-1.3936105223,0.0772946434731,1.90797250416,0.154363783322,-0.00809588923245,-0.0753969166836,-0.00102229920591,-0.111513838937,-0.00686250404962,0.0454071549595,-0.0159055210091,0.574081114527,0.818784301792,0.00197179695361,0.0,0.818740501358,-0.57402150039,-0.012002309235,0.0,-0.00869561595863,0.00850485283366,-0.999926024134,0.0,0.657281353169,0.255113256266,0.303325947777,1.0,-0.01338,-0.0175851428571,0.67
0.461652577875,0.522550971073,-0.124068452471,-1.39567108439,0.077172035434,1.90876042897,0.154083715978,-0.0144616819091,-0.0683807308125,-0.000139526834511,-0.117632294525,-0.00953729545408,0.0457967544795,-0.0169019761921,0.574067080998,0.818794084622,0.0019950947309,0.0,0.818750566591,-0.574007348691,-0.0119925083624,0.0,-0.00867436287838,0.00851815321159,-0.999926095516,0.0,0.657037332905,0.254808823676,0.303327775869,1.0,-0.01374,-0.0180582857143,0.688
0.461490177395,0.521297306503,-0.124074425348,-1.39766033699,0.077056627153,1.90953703021,0.153807858236,-0.00677854569765,-0.0743505934399,-0.000136307544261,-0.114317942288,-0.0100120909544,0.051019556477,-0.0200857922046,0.574053917644,0.818803230194,0.0020289807776,0.0,0.818760157102,-0.573994047262,-0.0119743789211,0.0,-0.00864020360248,0.00853535208319,-0.999926244603,0.0,0.656805389005,0.254513010658,0.303329315928,1.0,-0.01408,-0.0185051428571,0.705
0.461322670493,0.520082552831,-0.124072411169,-1.39957176307,0.0769316785919,1.9102248574,0.153555316935,-0.0124216506565,-0.0777122889734,0.000143348056857,-0.120007445534,-0.00511616469987,0.0401878887936,-0.0179560595478,0.574050816918,0.818805432957,0.00201728937566,0.0,0.818762216431,-0.573991004896,-0.0119794049793,0.0,-0.00865106248451,0.00852863173755,-0.999926208057,0.0,0.656572385655,0.254219777571,0.303332224058,1.0,-0.0144,-0.0189257142857,0.721
0.461148037588,0.518645491654,-0.124080522648,-1.40176959244,0.076792428231,1.91101603006,0.153253149535,-0.0131181954156,-0.0831902353977,-0.000291418778271,-0.124283546284,-0.0101262846313,0.0447493680848,-0.0212636008641,0.57403111171,0.81881919223,0.00203963866109,0.0,0.81877629202,-0.573971233142,-0.0119647002821,0.0,-0.00862639838772,0.00853828237261,-0.99992633878,0.0,0.656302370883,0.253889644172,0.303363757761,1.0,-0.01476,-0.0193988571429,0.739
0.460966878982,0.517300284623,-0.124081984386,-1.40390905859,0.0766486148334,1.91177807945,0.152966171328,-0.0144089502713,-0.0830932838946,0.000774835781171,-0.129105178516,-0.010756598807,0.0418045151337,-0.0156663559415,0.574019764819,0.818827233309,0.00200461724494,0.0,0.818783922845,-0.573960080188,-0.0119775182092,0.0,-0.0086571144988,0.00851684453284,-0.999926256145,0.0,0.656037495201,0.253562188801,0.30335547177,1.0,-0.0151,-0.0198457142857,0.756
0.460799386125,0.516109640576,-0.124089685786,-1.40580160825,0.07653655493,1.91249576621,0.152698080174,-0.0141842349229,-0.0809300776276,-0.000788252788165,-0.130029324503,-0.00419367767212,0.0521982988363,-0.0229746254415,0.574012808421,0.818832080751,0.00201648290692,0.0,0.818788922011,-0.573953071861,-0.0119716078679,0.0,-0.00864553647498,0.00852309421515,-0.999926303066,0.0,0.655813727791,0.253269431931,0.303352302431,1.0,-0.0154,-0.02024,0.771
0.460618606271,0.514731563096,-0.124088313605,-1.4080200083,0.0763974864285,1.91332437058,0.15240466362,-0.013731396017,-0.0802749918035,0.00103361989723,-0.132025321614,-0.0123460257882,0.0539411524163,-0.020778944039,0.573999037876,0.818841767612,0.00200275638594,0.0,0.818798423702,-0.57393935463,-0.0119793760584,0.0,-0.00865991948923,0.00851616806638,-0.999926237618,0.0,0.655541766197,0.252940283809,0.303334445881,1.0,-0.01574,-0.0206868571429,0.788
0.460405774752,0.513167781325,-0.124094014661,-1.4105673697,0.0762440960731,1.91419736441,0.152045961369,-0.0100978780758,-0.0827139771154,-5.06903343154e-05,-0.135940583888,-0.00943963387757,0.0445168650552,-0.0123455912527,0.573975675931,0.818858366415,0.00190947450701,0.0,0.818813652426,-0.573916245363,-0.0120454477405,0.0,-0.00876780602725,0.00847746102142,-0.99992562635,0.0,0.655214864754,0.252550245972,0.30329380754,1.0,-0.01612,-0.0211862857143,0.807
0.460232551238,0.511900798002,-0.124097518874,-1.41257235958,0.0761214499867,1.91492284428,0.151759576392,-0.0143253582123,-0.0820954100881,-0.000489634868448,-0.132928135396,-0.00586531057056,0.0504592617422,-0.0253396395518,0.573957280728,0.818871286801,0.00189801314972,0.0,0.818826376681,-0.573897857437,-0.0120565742449,0.0,-0.00878368589946,0.00847426495462,-0.999925514074,0.0,0.654966731438,0.252242880201,0.303290001332,1.0,-0.01642,-0.0215805714286,0.822
0.460033800354,0.510445333032,-0.12410102501,-1.41489710887,0.0759768880712,1.91581596749,0.151427435091,-0.0108430909919,-0.0862404715821,0.000299457301343,-0.135686233773,-0.0115532408062,0.0448003953934,-0.0214485855235,0.57393313107,0.818888176918,0.00191354792922,0.0,0.818843508613,-0.573873680885,-0.0120438237546,0.0,-0.00876457882915,0.0084794090327,-0.999925638125,0.0,0.65468765609,0.251891167837,0.303280136804,1.0,-0.01676,-0.0220274285714,0.839
0.459829894635,0.508944391074,-0.124108883514,-1.41727557967,0.0758277340245,1.91667884579,0.151097856745,-0.0101537890739,-0.0914105011494,-0.00054062218211,-0.142404645816,-0.0125855931379,0.0402494159332,-0.0218880049927,0.573919178938,0.81889799362,0.0018971013928,0.0,0.818853107435,-0.573859798953,-0.0120526549144,0.0,-0.00878139377236,0.00847086027342,-0.999925563054,0.0,0.654392469786,0.251525111314,0.303273533128,1.0,-0.0171,-0.0224742857143,0.856
0.459631492884,0.507525821065,-0.12410687694,-1.41952167432,0.0756854016303,1.91748025685,0.1507915605,-0.0117885194723,-0.0917251973407,0.000618877010372,-0.142393337692,-0.00928827526483,0.0564573358818,-0.018661580468,0.57390719906,0.818906444617,0.0018731614556,0.0,0.8188611892,-0.573847870845,-0.0120714891314,0.0,-0.00881068016567,0.00846193665148,-0.999925380988,0.0,0.654109568424,0.251180077611,0.303266173295,1.0,-0.01742,-0.0228948571429,0.872
0.459417383259,0.505949420479,-0.124115938162,-1.42196274492,0.0755313957294,1.91839420143,0.150464670542,-0.0124341506759,-0.0911995333341,-4.64433371714e-05,-0.14274506172,-0.00401421655804,0.0566246500949,-0.0192130045976,0.573905907499,0.818907264807,0.00190994390447,0.0,0.818862546941,-0.573846473925,-0.0120457661686,0.0,-0.00876851967183,0.00847728110857,-0.999925621618,0.0,0.653812761531,0.250803018353,0.303285930623,1.0,-0.01776,-0.0233417142857,0.889
0.459186220599,0.504215770768,-0.124123808342,-1.42458973407,0.0753656959803,1.9194100205,0.150095676414,-0.0154437285428,-0.0971181953777,-0.00177898748668,-0.145569578718,-0.0063503931637,0.0554120762641,-0.024112176949,0.573889377074,0.818918612712,0.00200886468592,0.0,0.818875289377,-0.573829623651,-0.0119820853821,0.0,-0.0086597733993,0.00852156523352,-0.999926192902,0.0,0.653499400988,0.250400584455,0.303335210589,1.0,-0.01812,-0.0238148571429,0.907
0.458961108155,0.502639957284,-0.124125282832,-1.426919168,0.0752098640825,1.92029463282,0.149760762194,-0.0169776204849,-0.104618025935,-0.000338078398222,-0.147301063566,-0.0155712024241,0.0565485041677,-0.0149459158726,0.573877790525,0.818926467989,0.00211387549574,0.0,0.818884640331,-0.573817729779,-0.0119124188608,0.0,-0.00854258033602,0.00856745774078,-0.999926808816,0.0,0.653222588829,0.250031906671,0.303403571876,1.0,-0.01844,-0.0242354285714,0.923
0.45872955241,0.500922781404,-0.124123360072,-1.42949036033,0.075051672166,1.9211921448,0.149396090199,-0.0120966337322,-0.0987893282489,0.0015006192206,-0.14540872457,-0.00481385450703,0.0454802908403,-0.0315529667833,0.573855654147,0.818941872046,0.00215529894008,0.0,0.818900460508,-0.573795303907,-0.0119051205276,0.0,-0.00851306518435,0.00859696154078,-0.999926807308,0.0,0.65289378714,0.249634881093,0.303455981098,1.0,-0.01878,-0.0246822857143,0.94
0.458486472963,0.499214439012,-0.124125925236,-1.43210711228,0.0748880243133,1.9221456453,0.149038525573,-0.0141450989205,-0.0987967291689,0.00114531452059,-0.155777196528,-0.0099304102465,0.0544544821826,-0.0214472419736,0.573852651428,0.818943876922,0.00219267003591,0.0,0.818902923521,-0.573792122316,-0.0118890334765,0.0,-0.0084784776116,0.00861830321515,-0.999926917463,0.0,0.652567972728,0.249225162921,0.303484931503,1.0,-0.01912,-0.0251291428571,0.957
0.458238245989,0.497641847106,-0.124127373898,-1.43458141991,0.0747270290239,1.92306586308,0.148656837452,-0.0134212282102,-0.0962583406575,0.00076557402788,-0.151681315117,-0.0103797556621,0.0586142535457,-0.0304434377905,0.573826418021,0.818962231364,0.00220283479685,0.0,0.81892144816,-0.5737658901,-0.0118790573039,0.0,-0.0084647507808,0.0086206315379,-0.99992701369,0.0,0.652266077452,0.248826122199,0.303483545965,1.0,-0.01944,-0.0255497142857,0.973
0.457978762083,0.495957012108,-0.12413236255,-1.43727284849,0.0745673980076,1.92400091272,0.148271430786,-0.0183540803729,-0.0975273533049,-0.000592372604022,-0.159209008353,-0.0103789929268,0.0505749176504,-0.0217340246624,0.573819642923,0.818967129731,0.00214586064608,0.0,0.81892541937,-0.573759158128,-0.0119303342513,0.0,-0.00853950881273,0.00860332561018,-0.99992652709,0.0,0.65191990957,0.248394834821,0.30345791893,1.0,-0.01978,-0.0259965714286,0.99
0.457686362861,0.494176674298,-0.124132619293,-1.440174754,0.0743803847112,1.92502539922,0.147864888048,-0.0165506910275,-0.0999677449177,-0.000299038755467,-0.161705624925,-0.0124387123408,0.0573000957954,-0.0285910725256,0.573821652644,0.818965945318,0.00205870543283,0.0,0.818923021466,-0.573761450758,-0.0119845500066,0.0,-0.00863389873881,0.00856308043014,-0.99992606199,0.0,0.651550316808,0.247922999797,0.303405634147,1.0,-0.021424,-0.0281572571429,1.008
0.45742964219,0.49233190069,-0.124176586488,-1.44305299459,0.0742049556267,1.92609340549,0.147456428788,-0.0155571771063,-0.118574505341,-0.00413226698231,-0.181452204134,-0.00461593216308,0.0672965416252,-0.0219930818499,0.573826123097,0.818962761826,0.00207896484558,0.0,0.818920230367,-0.573765963588,-0.0119591900171,0.0,-0.00860145762245,0.00856516691919,-0.999926323707,0.0,0.651195788354,0.247457272603,0.303413708044,1.0,-0.0247245714286,-0.0324951510204,1.024
0.457102323905,0.490160414872,-0.124186690254,-1.44658314441,0.0740011118614,1.92735454496,0.146949557209,-0.0238646012487,-0.128136096762,8.47115079017e-05,-0.216545499077,-0.0140712086481,0.083248148059,-0.0277478128068,0.573807705666,0.81897585963,0.00200129031631,0.0,0.818932066294,-0.573747629837,-0.0120280901603,0.0,-0.00870264745607,0.00854089607113,-0.999925655747,0.0,0.650739456312,0.246901232105,0.303353826963,1.0,-0.0282314285714,-0.0371041632653,1.041
0.45666841743,0.487440426695,-0.12420613926,-1.45084100476,0.0737432436815,1.92892572623,0.146336587182,-0.0260427575948,-0.161642006547,0.000339641681635,-0.248240512621,-0.0138506098345,0.0971028543997,-0.0265503213029,0.573816958457,0.818969310506,0.00202818589924,0.0,0.818925806986,-0.573756706561,-0.01202128239,0.0,-0.00868154323514,0.00855911426153,-0.999925683424,0.0,0.650210775337,0.246203892813,0.303354550037,1.0,-0.0319445714286,-0.0419842938775,1.059
0.456238223508,0.484745400851,-0.124246220658,-1.45497550088,0.0734781708586,1.93049174977,0.145702866798,-0.0326384686123,-0.179469890762,-0.00665901897177,-0.270473089297,-0.0187347972608,0.1015848804,-0.0384551049236,0.573811660576,0.818972785669,0.00212165515678,0.0,0.818930737902,-0.573751253831,-0.0119453819,0.0,-0.00856580530242,0.00859205347102,-0.99992639909,0.0,0.649711545823,0.245509947837,0.303394977365,1.0,-0.0352451428571,-0.0463221877551,1.075
0.455736592899,0.481619638303,-0.124299292976,-1.45986985985,0.0731908529368,1.93217044514,0.144967296594,-0.0237311179888,-0.186300128777,-0.00189804959749,-0.299045907982,-0.0198592411429,0.112226114164,-0.0383540577714,0.573820344715,0.818966886378,0.00204887975524,0.0,0.81892366076,-0.573760012394,-0.0120097013568,0.0,-0.00866014918745,0.0085694520706,-0.999925780399,0.0,0.649077805427,0.244682459961,0.303381063202,1.0,-0.038752,-0.0509312,1.092
0.455177166398,0.478164160671,-0.124352825239,-1.46520628789,0.0728551662433,1.93409972121,0.144180908388,-0.0369303626966,-0.209865671655,-0.00129487330668,-0.314339137733,-0.0184795301255,0.116985558132,-0.048949244975,0.573841822559,0.818951760657,0.00207925466504,0.0,0.818909020186,-0.573781448047,-0.0119838823571,0.0,-0.008621349791,0.00857973848015,-0.999926027472,0.0,0.648406323514,0.243778835971,0.303404405343,1.0,-0.0422588571429,-0.0555402122449,1.109
0.454627299422,0.474883920838,-0.124382922379,-1.47023923647,0.0725512810977,1.93596117354,0.14345979752,-0.0347553391614,-0.222164117924,0.000708312316773,-0.345712748586,-0.0183511865451,0.121491428019,-0.0525970070218,0.573884213958,0.818921782673,0.00218397224232,0.0,0.818880312993,-0.57382330699,-0.0119411996549,0.0,-0.00852585848341,0.00864144422563,-0.999926314875,0.0,0.647732643522,0.242876395152,0.303446312151,1.0,-0.0455594285714,-0.0598781061224,1.125
0.453950352457,0.470903964245,-0.124416759646,-1.47635629709,0.0721825932659,1.93811575399,0.142546300776,-0.045034055078,-0.239003592517,-0.00165242485004,-0.366559226285,-0.0120082035844,0.131872971272,-0.0527037934753,0.573908171245,0.818904966658,0.00219396043151,0.0,0.818863395098,-0.573846985081,-0.0119634770753,0.0,-0.00853811760172,0.00866265792071,-0.999926026717,0.0,0.646986950518,0.241887700039,0.303469146188,1.0,-0.04886,-0.064216,1.141
0.453199294679,0.466329853783,-0.124429798318,-1.483189349,0.0717372616783,1.94069352222,0.141440648025,-0.0459631389334,-0.258389454179,-0.000708065068124,-0.391198508917,-0.0260209355611,0.146744682943,-0.0641695235777,0.573830208863,0.818958854566,0.00245618118409,0.0,0.818920874004,-0.573768183637,-0.0118076444581,0.0,-0.00826085541093,0.00878717030783,-0.999927269308,0.0,0.646128618236,0.240750188634,0.303597682048,1.0,-0.0525731428571,-0.0690961306122,1.159
0.452469592739,0.462056884403,-0.124441632226,-1.48981226808,0.0713038706688,1.94295271095,0.14043337572,-0.0408298018321,-0.26892766737,-0.00158622454327,-0.425616075971,-0.0321833863972,0.141596882902,-0.0615137788323,0.573803062189,0.81897810685,0.00237765094986,0.0,0.818938846113,-0.573741069264,-0.0118784960501,0.0,-0.00836423324639,0.00876323685253,-0.999926619949,0.0,0.645236821824,0.239630439738,0.303586765607,1.0,-0.0558737142857,-0.0734340244898,1.175
0.451648720965,0.457282214654,-0.124453771159,-1.49718781156,0.0708045658647,1.94552100275,0.139332882191,-0.0515682455213,-0.281854644464,-0.000944261918128,-0.443076095442,-0.0362691947993,0.158565257095,-0.0736314553021,0.573787570967,0.81898907524,0.00233772182367,0.0,0.818949217238,-0.573725656414,-0.011907882177,0.0,-0.00841137636943,0.00874723865874,-0.999926364571,0.0,0.644248053028,0.238381235185,0.303585080314,1.0,-0.0593805714286,-0.0780430367347,1.192
0.450749875532,0.452236856023,-0.124477473722,-1.50490291077,0.0702803112026,1.94832042222,0.138093229979,-0.0583036747021,-0.306292253916,-0.00350485051677,-0.453982622021,-0.0321984547662,0.172525040221,-0.0782574780039,0.573735487679,0.819025296985,0.00242898713943,0.0,0.818986787106,-0.573673391734,-0.0118418353467,0.0,-0.00830547732711,0.00878355866163,-0.999926931402,0.0,0.643239510476,0.237051501689,0.303622403107,1.0,-0.0628874285714,-0.0826520489796,1.209
0.449854944929,0.447205176503,-0.124519940706,-1.51246104595,0.0697670633146,1.95110978793,0.136950408881,-0.0553415305508,-0.315293981663,-0.00180952118303,-0.478819705228,-0.0333279778107,0.162903023014,-0.0697715162797,0.573764883067,0.819004085251,0.00262948718541,0.0,0.818968506562,-0.573702393138,-0.0117002678975,0.0,-0.00807417956854,0.00886684074945,-0.999928090794,0.0,0.642260529217,0.235734210125,0.303718316069,1.0,-0.066188,-0.0869899428571,1.225
0.448858233108,0.44166543711,-0.124546767972,-1.52108952986,0.0691814864277,1.95397930387,0.135639246223,-0.0592892290891,-0.328389127669,0.000193495202679,-0.516026591816,-0.0433909261597,0.17571775742,-0.0879434913779,0.573749938172,0.819015156291,0.00243497745588,0.0,0.818976720158,-0.573687812998,-0.0118394238904,0.0,-0.00829991051561,0.00878722775694,-0.999926945388,0.0,0.641051131439,0.234238891166,0.303653481937,1.0,-0.0696948571429,-0.091598955102,1.242
0.447764779076,0.435873306797,-0.124576098934,-1.52998711246,0.0685875446517,1.95705650841,0.134191611416,-0.0668876409625,-0.352320239968,-0.00122442638579,-0.524430425335,-0.0411864237986,0.18411677848,-0.0843604855112,0.573708999022,0.819043920484,0.00240575591968,0.0,0.819004871498,-0.573646746559,-0.0118818148955,0.0,-0.00835183499687,0.00878719912894,-0.999926513292,0.0,0.639831204697,0.232666650537,0.303643296837,1.0,-0.0732017142857,-0.0962079673469,1.259
0.446656563293,0.430168934593,-0.124600676545,-1.53852272725,0.0680018242482,1.96018882393,0.132799712764,-0.0766239682926,-0.346792217845,-0.00532639048191,-0.546540901489,-0.0352661096525,0.191061273677,-0.0793741847889,0.573703202339,0.819047249594,0.00264300214492,0.0,0.81901152564,-0.573640319559,-0.011732499565,0.0,-0.00809349472942,0.00889579306245,-0.999927677489,0.0,0.638701478808,0.231136127194,0.303741466658,1.0,-0.0765022857143,-0.100545861224,1.275
0.445330029713,0.423546811933,-0.124697164011,-1.54873600081,0.0672546009903,1.96357850037,0.131104062365,-0.0783361809709,-0.375543915161,-0.00505077251089,-0.572826547041,-0.0433288248996,0.188564082959,-0.0969303699957,0.573698022623,0.819051544725,0.00242751371118,0.0,0.819013231663,-0.573636165536,-0.0118162113747,0.0,-0.00828573604825,0.00876727174719,-0.999927238115,0.0,0.6372716176,0.229236366832,0.303682107888,1.0,-0.0802154285714,-0.105425991837,1.293
0.444002849213,0.416978776602,-0.124783074045,-1.55864116564,0.0665468300626,1.96698768145,0.129544229621,-0.0838866389599,-0.40013516948,-0.000105056124754,-0.57454405257,-0.0403624576318,0.222258803623,-0.0904262683721,0.573788170404,0.818988314774,0.00245411280402,0.0,0.818950612807,-0.573726483335,-0.0117712787775,0.0,-0.00823270876516,0.00876418643558,-0.999927703158,0.0,0.635901900388,0.227388766053,0.303722726536,1.0,-0.0837222857143,-0.110035004082,1.31
0.442665498691,0.410616299164,-0.124810257692,-1.56820403315,0.0658943518029,1.97039306079,0.12790587991,-0.0897662793584,-0.402422615729,-0.00142775160412,-0.608905162514,-0.0411884629261,0.206339370494,-0.102979244493,0.573774364351,0.818997472514,0.00262025385531,0.0,0.818961873069,-0.573712014781,-0.0116927951113,0.0,-0.00807325395941,0.00885508457557,-0.999928202446,0.0,0.634585430075,0.225618528444,0.303774733341,1.0,-0.0870228571428,-0.114372897959,1.326
0.44117768344,0.403715417323,-0.124877105593,-1.57883869771,0.0651417292914,1.97386896201,0.126163896245,-0.089184012913,-0.406776080911,-0.00174503195973,-0.626997106882,-0.0440245735624,0.200907837914,-0.112936347177,0.573833855456,0.81895650769,0.00238573799232,0.0,0.818917527906,-0.573772011457,-0.0118536179102,0.0,-0.00833888839004,0.00875589850362,-0.999926895919,0.0,0.633043588896,0.223607262052,0.303678137102,1.0,-0.0905297142857,-0.118981910204,1.343
0.439604652425,0.396444601365,-0.124956069558,-1.58951803092,0.0643763954054,1.97768620678,0.124307299852,-0.0927731830095,-0.422757405774,-0.00012738807311,-0.629777515237,-0.0490621742546,0.223758508412,-0.113925079126,0.573868763697,0.818931069445,0.00270045406088,0.0,0.818896621308,-0.573806244288,-0.011638922929,0.0,-0.00798209187888,0.0088907781935,-0.999928617588,0.0,0.631569833478,0.221558971775,0.303825165194,1.0,-0.0940365714286,-0.123590922449,1.36
0.438038583449,0.38950977477,-0.124977354815,-1.60006525502,0.0635729545026,1.98115836397,0.122540555497,-0.0972515468537,-0.435110988579,-0.000781582236749,-0.660339576019,-0.0548099087195,0.215213701144,-0.113928330452,0.57389957697,0.818909964299,0.00254810233325,0.0,0.818873513419,-0.573837562994,-0.0117203762463,0.0,-0.00813589270139,0.00881306215861,-0.999928066005,0.0,0.630020155547,0.219539015475,0.303766684677,1.0,-0.0973371428571,-0.127928816327,1.376
0.436233110837,0.381377078107,-0.125052199941,-1.61219998857,0.0626621733212,1.98512518896,0.120350166451,-0.102982630776,-0.466182174503,-0.00638097037053,-0.666268775189,-0.0473603795994,0.23611947288,-0.113359788742,0.573839887329,0.818951979174,0.00248725122262,0.0,0.818914724363,-0.573778088535,-0.0117527120381,0.0,-0.00819793436765,0.00878119066624,-0.999927839678,0.0,0.628220955204,0.217192562463,0.303785527717,1.0,-0.101050285714,-0.132808946939,1.394
0.434415054399,0.373558354782,-0.125082232939,-1.62388224094,0.0618224260468,1.98909650453,0.118256600561,-0.10805837012,-0.462623837312,-0.00737791467497,-0.685635861721,-0.0515400580929,0.230715783137,-0.129538997262,0.573830674837,0.818958177316,0.00257047156435,0.0,0.818921756175,-0.573768305616,-0.0117403421561,0.0,-0.00814015082224,0.00884215378879,-0.999927774522,0.0,0.626500716942,0.214930740446,0.303793241982,1.0,-0.104557142857,-0.137417959184,1.411
0.432598450903,0.365990105476,-0.125168747428,-1.63519867721,0.060947106652,1.99271228141,0.11634078824,-0.113036893352,-0.479003052456,-0.00414835313066,-0.687294376801,-0.0513407858134,0.236292790999,-0.119801995263,0.573970075195,0.818860940021,0.0024208654121,0.0,0.818822585165,-0.573908256173,-0.0118167009244,0.0,-0.00828703973098,0.00876486074391,-0.999927248448,0.0,0.624789730726,0.212655496616,0.303763661412,1.0,-0.107857714286,-0.141755853061,1.427
0.430622642815,0.357708112314,-0.125223910004,-1.64736541787,0.0599850351642,1.99678050159,0.11403412472,-0.119624600858,-0.481333103035,-0.00317420115587,-0.725308581913,-0.0567276468619,0.228795856163,-0.139729153872,0.573889503685,0.818917085356,0.00252819559667,0.0,0.818880499905,-0.573827697013,-0.0117152856147,0.0,-0.00814325567581,0.00879373882775,-0.999928176193,0.0,0.622962004412,0.210235871253,0.303825376949,1.0,-0.111364571429,-0.146364865306,1.444
0.428371864067,0.348814225129,-0.125259560076,-1.66068235923,0.0590022079271,2.00098040811,0.111565942014,-0.131028053893,-0.501915587444,-0.00329089636828,-0.72395621386,-0.0586226499091,0.247232818246,-0.142786470419,0.573909850487,0.818903366228,0.0023467416178,0.0,0.818863564558,-0.573847820965,-0.0119116713364,0.0,-0.00840799707104,0.00875805534168,-0.99992629831,0.0,0.620884578167,0.207551753516,0.303739134415,1.0,-0.115077714286,-0.151244995918,1.462
0.426468411096,0.341108424788,-0.125315283089,-1.67172098901,0.0581465394761,2.00472875259,0.109488415083,-0.124095005368,-0.506212422634,-0.00325420344999,-0.740686971057,-0.0642592716823,0.244972232085,-0.141987561376,0.573927730386,0.818889851527,0.00266800695401,0.0,0.818854578371,-0.573864868563,-0.0117063662513,0.0,-0.00805530415102,0.00890348934285,-0.999927917378,0.0,0.619215198814,0.205310645179,0.30389255712,1.0,-0.118172,-0.155311771429,1.477
0.424221772277,0.332332794919,-0.125301685769,-1.6847812719,0.0570996048356,2.00876756451,0.106987474588,-0.133225290821,-0.521124389625,0.00129776013459,-0.787920207122,-0.0698602268965,0.227708115492,-0.148137638285,0.573820960097,0.818965375078,0.0024427601764,0.0,0.818926609377,-0.573758339689,-0.0118879347745,0.0,-0.00833441340175,0.00882215730854,-0.999926350835,0.0,0.61710611114,0.202688434698,0.303797431649,1.0,-0.121678857143,-0.159920783673,1.494
0.421869226487,0.323253781686,-0.125312929552,-1.69782635296,0.0560092504509,2.01303531244,0.104403845475,-0.14568369443,-0.523670935518,-0.00191738599953,-0.786470965483,-0.0625991536801,0.246355694385,-0.151686015071,0.573722716304,0.819033576057,0.00264442612425,0.0,0.818997891826,-0.573659849248,-0.0117293412673,0.0,-0.00808987898643,0.00889534021608,-0.999927710777,0.0,0.615052244674,0.200010854825,0.303905252394,1.0,-0.125185714286,-0.164529795918,1.511
0.41953674668,0.314608840707,-0.125328857014,-1.71048609834,0.0550073913339,2.01693181226,0.101944521419,-0.142762012673,-0.532109997095,0.00358892461385,-0.779318570221,-0.0651676257795,0.235309718781,-0.159137415666,0.573715980686,0.819038622463,0.00254073221856,0.0,0.819000963778,-0.573652816904,-0.0118580727518,0.0,-0.00825488030959,0.00888419902193,-0.999926461275,0.0,0.612982842287,0.197383889833,0.303862069009,1.0,-0.128486285714,-0.168867689796,1.527
0.416771968166,0.30461237597,-0.125419575868,-1.72472426799,0.0537690380032,2.02149395697,0.0989503871637,-0.156336780507,-0.544668986387,-0.00195410652272,-0.820862946759,-0.0746691026779,0.246348141843,-0.169781036489,0.573638288533,0.819092428,0.00273042540849,0.0,0.819058084832,-0.573575378492,-0.011657004729,0.0,-0.00798221320191,0.00892345305215,-0.99992832556,0.0,0.610709272598,0.19431249977,0.303981658652,1.0,-0.132199428571,-0.173747820408,1.545
0.414185983544,0.295674943366,-0.125484107126,-1.73783173891,0.0527263118886,2.02538372096,0.0963460303906,-0.164067022848,-0.563000170312,-0.00802691944805,-0.820863449331,-0.0618252645956,0.235820947814,-0.166071460558,0.573728465055,0.819030006692,0.00249868469979,0.0,0.818991750297,-0.573665407011,-0.0118853121585,0.0,-0.00830117814485,0.00886551474577,-0.999926243825,0.0,0.608512123457,0.191480523059,0.303873063895,1.0,-0.1355,-0.178085714286,1.561
0.411663247345,0.287016746017,-0.125596337747,-1.74998138257,0.0517253600051,2.02925737999,0.0937431726201,-0.163693266382,-0.577084257165,-0.007259626313,-0.810829152925,-0.0774663207872,0.258078135939,-0.178216502518,0.573776885463,0.818995148697,0.00278908955582,0.0,0.818960993512,-0.573713110225,-0.0117006480019,0.0,-0.00798279039985,0.00899789015932,-0.999927653898,0.0,0.606545572707,0.188776250599,0.304014057565,1.0,-0.138594285714,-0.182152489796,1.576
0.40835543651,0.276035430915,-0.125659441888,-1.76589263992,0.0503535150643,2.03390749447,0.0903569144208,-0.182078249169,-0.584141383092,-0.00381995788122,-0.848468849165,-0.0768460905365,0.250510425108,-0.18139809731,0.573752896251,0.81901282152,0.00252173165221,0.0,0.818974640071,-0.573689504989,-0.0119011632861,0.0,-0.00830067415273,0.00889373240828,-0.999925997428,0.0,0.603818889634,0.185266723953,0.303905374517,1.0,-0.142513714286,-0.187303738775,1.595
0.405216531141,0.265930046537,-0.125795401164,-1.78008454562,0.0491047045059,2.03831129023,0.0872456210903,-0.189706797303,-0.589523966079,-0.00857507141718,-0.823486767223,-0.0716957800951,0.247816293217,-0.173772693409,0.573847210406,0.81894608926,0.00272560018947,0.0,0.818911170867,-0.573783718229,-0.0117254349855,0.0,-0.00803874888598,0.008960805123,-0.999927538619,0.0,0.601455879878,0.182010893864,0.303999145204,1.0,-0.146020571429,-0.19191275102,1.612
0.402142047114,0.25630452981,-0.125945307004,-1.79375626118,0.047881227795,2.04229127859,0.0842343411668,-0.196929934823,-0.606047053408,-0.00956793841432,-0.855356786304,-0.0867902082794,0.250161607633,-0.187660898246,0.573957544835,0.818869113242,0.00261897065361,0.0,0.818832875295,-0.573894495339,-0.0117718926426,0.0,-0.00813678310614,0.00890123724621,-0.999927277724,0.0,0.599098468669,0.178834691503,0.303972801262,1.0,-0.149321142857,-0.196250644898,1.628
0.398786630781,0.245897807629,-0.125992950949,-1.80835546559,0.0465407216468,2.0465813947,0.0809254937023,-0.193275328824,-0.617300953424,-0.00327943185337,-0.882899517427,-0.082157788434,0.247508164,-0.202088712158,0.573938108473,0.818882646123,0.00264696494253,0.0,0.818846941451,-0.573875145949,-0.011736704827,0.0,-0.00809211231102,0.00890377274064,-0.999927617655,0.0,0.596546257868,0.175486952593,0.303997662386,1.0,-0.152828,-0.200859657143,1.645
0.395114418825,0.234615258422,-0.126004636114,-1.82392815025,0.0452090549222,2.05113977303,0.0773108663967,-0.20225232666,-0.641309253024,0.00120247776573,-0.874792362531,-0.0714463803658,0.257673806754,-0.19488634982,0.573908613087,0.818902515727,0.00288452118213,0.0,0.818869278848,-0.573844125395,-0.0116949052525,0.0,-0.00792187431813,0.00907402733701,-0.999927450336,0.0,0.593784862015,0.171924893086,0.304101368476,1.0,-0.156541142857,-0.205739787755,1.663
0.391984842808,0.22518944956,-0.12601454535,-1.83710217811,0.0439365504377,2.05491547296,0.0741519605476,-0.213811163342,-0.636544733397,-0.00170725214996,-0.905543724356,-0.0913964515821,0.249571509747,-0.215607692228,0.573746607762,0.819016165101,0.00284574869561,0.0,0.818982668411,-0.573682552772,-0.0116817973227,0.0,-0.0079351772452,0.00903318436358,-0.999927714659,0.0,0.591401366861,0.168893748524,0.30408191266,1.0,-0.159635428571,-0.209806563265,1.678
0.387991639026,0.213584291282,-0.126085897802,-1.85296505965,0.0424895273347,2.05936450365,0.0703066678793,-0.224076446292,-0.645513349231,-0.00512667059082,-0.867897192762,-0.0776820827114,0.254742862244,-0.207287580401,0.573759666568,0.819006508724,0.00298840893551,0.0,0.818974597436,-0.573694819891,-0.0116451400075,0.0,-0.00782316135525,0.00912911841661,-0.99992772606,0.0,0.588517435931,0.165114504561,0.304173849545,1.0,-0.163348571429,-0.214686693878,1.696
0.384077332326,0.202646937779,-0.126196590238,-1.86822137327,0.0410414469397,2.06344333376,0.0665261854975,-0.228610613574,-0.652761966073,-0.00519214813054,-0.91345862785,-0.0907709601237,0.233175805714,-0.221935208507,0.573755093669,0.819010524253,0.00275690996966,0.0,0.818975071808,-0.573690450795,-0.0118256215453,0.0,-0.00810385160241,0.00904302524406,-0.999926272924,0.0,0.585669966483,0.161422361907,0.304074761187,1.0,-0.166855428571,-0.219295706122,1.713
0.380478028063,0.192690430641,-0.126295651074,-1.88162270296,0.0397446201385,2.06717353598,0.0630994454225,-0.243937915261,-0.652848416798,-0.010335279688,-0.893267164212,-0.0815959689573,0.250865205684,-0.23321815302,0.573781364216,0.818991484987,0.00293947232262,0.0,0.81895869173,-0.573716393826,-0.0117007519197,0.0,-0.00789654476249,0.00912115541708,-0.999927221904,0.0,0.583026827941,0.157892172221,0.304171959238,1.0,-0.170156,-0.2236336,1.729
0.375898246119,0.180738625001,-0.126490257063,-1.89793091833,0.03822872717,2.07146449433,0.0588087678137,-0.253714513388,-0.667747113314,-0.0076320414224,-0.879401567553,-0.0867731099894,0.240507527793,-0.244965868689,0.573915005737,0.818897991327,0.00289704856935,0.0,0.81886394404,-0.573849359747,-0.0118110275314,0.0,-0.00800971146606,0.00915099073594,-0.999926049211,0.0,0.58012105125,0.153966263443,0.30415728204,1.0,-0.173662857143,-0.228242612245,1.746
0.37149190697,0.16928172163,-0.126569520438,-1.91341902023,0.0366390994124,2.075545483,0.0547086464423,-0.256202039486,-0.668107074483,-0.00167412975319,-0.906139304684,-0.0937875314388,0.233691820057,-0.241168386803,0.573910806905,0.818901021756,0.0028721395131,0.0,0.81886689106,-0.573845525406,-0.0117929893753,0.0,-0.00800928084453,0.00912019959408,-0.999926333977,0.0,0.57715049628,0.150069117376,0.304157686294,1.0,-0.177169714286,-0.23285162449,1.763
0.367222533007,0.158281894518,-0.126596439431,-1.92809405635,0.0351647985544,2.07935026052,0.0506416836917,-0.264430481684,-0.703424151575,0.000268235987819,-0.890957494654,-0.0903049444154,0.251559548718,-0.247423119226,0.573795383588,0.818981485146,0.00298858865988,0.0,0.818948831139,-0.573729663817,-0.0117401760611,0.0,-0.00790049696833,0.00918413683923,-0.999926614196,0.0,0.574116264914,0.146156990521,0.304218217,1.0,-0.180676571429,-0.237460636735,1.78
0.362506704821,0.146561597419,-0.12667333003,-1.94383733723,0.0334774904725,2.08331820393,0.0462844524851,-0.283162795328,-0.687054947044,-0.00585036989313,-0.927509659176,-0.104654228251,0.232978660878,-0.25270207744,0.573743462676,0.819018421201,0.00283048959541,0.0,0.818983833134,-0.573678448899,-0.0118010692462,0.0,-0.00804165704857,0.00908908654415,-0.999926357417,0.0,0.571170240284,0.14234870822,0.304156075693,1.0,-0.183977142857,-0.241798530612,1.796
0.357294803553,0.133916744489,-0.126814260175,-1.96043458188,0.0318111962343,2.08750428436,0.0414413795009,-0.297749081695,-0.701281862316,-0.00635870449854,-0.931399668949,-0.0975348311633,0.228780004486,-0.279213163379,0.573757823046,0.819007709395,0.00301319535696,0.0,0.818975264177,-0.573691893687,-0.0117420051354,0.0,-0.00788829885342,0.00920497699247,-0.99992651887,0.0,0.567874963922,0.137984070812,0.304232739948,1.0,-0.187690285714,-0.246678661224,1.814
0.352423756298,0.122626353375,-0.126991972529,-1.97536978851,0.0302029501092,2.09106091227,0.0370452026358,-0.314324050617,-0.702693117614,-0.0153632649381,-0.938580044664,-0.0965530924173,0.222922178785,-0.271865322078,0.573861438264,0.818935551801,0.00289111949862,0.0,0.818901420045,-0.57379581241,-0.0118142630479,0.0,-0.00801636210654,0.00914746796471,-0.999926028148,0.0,0.564848069473,0.133941858203,0.304193090173,1.0,-0.190990857143,-0.251016555102,1.83
0.347026412221,0.110382338254,-0.127146055397,-1.99117540039,0.0284714756649,2.09488325561,0.0321652167299,-0.323319374603,-0.704898911742,-0.00806249564916,-0.923367664711,-0.103693763955,0.208101107932,-0.297379554299,0.573919665285,0.818894195448,0.00304324867305,0.0,0.818862563342,-0.573854107155,-0.0116753141487,0.0,-0.0078146166919,0.00919287178891,-0.999927208788,0.0,0.56163967373,0.129593520892,0.304284508517,1.0,-0.194497714286,-0.255625567347,1.847
0.341565372684,0.0980112827057,-0.127233998237,-2.00712070047,0.0267178523789,2.09857934879,0.0271514030626,-0.323519343817,-0.727839270826,-0.00102561498929,-0.928085767498,-0.100016638803,0.227469145575,-0.30226571783,0.573833934747,0.818954045774,0.00310373069926,0.0,0.818923218936,-0.573768210962,-0.0116425288933,0.0,-0.00775402341854,0.00922277286713,-0.999927405156,0.0,0.558307986236,0.125277203827,0.304328241349,1.0,-0.198004571429,-0.260234579592,1.864
0.336234733605,0.0863606677669,-0.127320949401,-2.02231464863,0.0251550887052,2.10190896073,0.0222865299615,-0.335929218199,-0.737736354945,-0.00742464551346,-0.965490132419,-0.100624406211,0.206155677388,-0.307726441487,0.573808918612,0.818972025763,0.00298208669984,0.0,0.81893805581,-0.573741794249,-0.0118979485203,0.0,-0.00803329389414,0.00926947172443,-0.999924768712,0.0,0.555051545445,0.121144115321,0.304233773625,1.0,-0.201305142857,-0.264572473469,1.88
0.330323595779,0.0736614159566,-0.127445089158,-2.03824144278,0.0232763926601,2.10548614809,0.0169302717202,-0.358768615204,-0.75403115055,-0.011269228621,-0.950954631009,-0.10733960713,0.210833167304,-0.312595686965,0.573738198754,0.819020827647,0.00317963395338,0.0,0.818990443893,-0.573671588923,-0.0116750921309,0.0,-0.00773822694255,0.00930271525849,-0.999926786986,0.0,0.551663617906,0.116641609787,0.304371475754,1.0,-0.204812,-0.269181485714,1.897
0.323700757368,0.0602555198516,-0.12768355347,-2.05533739572,0.0213271789204,2.10899583374,0.0110971718275,-0.38059275376,-0.755144367727,-0.0112699282539,-0.942005802119,-0.11103211078,0.198768438795,-0.33092769966,0.573906496011,0.818903519259,0.00301776112595,0.0,0.818870327861,-0.57383959192,-0.0118429639609,0.0,-0.00796668743646,0.00926808743122,-0.999925314434,0.0,0.547930062934,0.111654339075,0.304312102985,1.0,-0.208525142857,-0.274061616327,1.915
0.317691608432,0.0481659779935,-0.127789738915,-2.07042424145,0.0195920696375,2.11218374125,0.00574487676481,-0.376781972065,-0.734511898124,-0.00425096449833,-0.940281267527,-0.0999717764597,0.184431633499,-0.334096941911,0.573906415801,0.81890306129,0.00315420577359,0.0,0.818871659101,-0.573839045625,-0.011777204202,0.0,-0.00783453298267,0.00934208263073,-0.99992567003,0.0,0.544611445616,0.107280593606,0.304365042645,1.0,-0.20998,-0.275973714286,1.931
0.311202672856,0.0353438825269,-0.127841603141,-2.0863756747,0.0177562727294,2.1153706878,-6.59132252993e-05,-0.388181896616,-0.76574813074,-0.00436432170181,-0.934158592473,-0.116133248038,0.18777079507,-0.3454641956,0.573817230498,0.818965343071,0.00320931975276,0.0,0.81893412258,-0.573749039749,-0.0118190169962,0.0,-0.00783817209177,0.00941035823434,-0.999925001296,0.0,0.541016399225,0.102667950087,0.304378599624,1.0,-0.20998,-0.275973714286,1.948
0.304530694695,0.0226622276058,-0.127956206396,-2.10212425167,0.0157802211269,2.11836917542,-0.00595451728905,-0.392326038454,-0.736987656638,-0.00380826841138,-0.933845033554,-0.108622553375,0.168471511572,-0.342770289374,0.573778029492,0.818993277246,0.00308732883326,0.0,0.818960616891,-0.573710454063,-0.0118562128048,0.0,-0.00793907860584,0.00933141480487,-0.999924945048,0.0,0.537416075023,0.0979715369125,0.30434245691,1.0,-0.20998,-0.275973714286,1.965
0.297643238013,0.00998310668409,-0.128155688568,-2.11747330013,0.0138713912072,2.12124795704,-0.0119786563238,-0.413058704306,-0.730844963831,-0.0129778800173,-0.908737546748,-0.11459089536,0.159779555242,-0.366549702538,0.573875241205,0.818924688165,0.00321084831703,0.0,0.818894073918,-0.573807742472,-0.0117438189132,0.0,-0.00777504331086,0.00936901195309,-0.999925882412,0.0,0.533894283523,0.0932072061541,0.304428081469,1.0,-0.20998,-0.275973714286,1.982
0.290655695884,-0.00254442577821,-0.128269229897,-2.13268088105,0.0120998868105,2.12391053522,-0.018117684304,-0.411390278902,-0.746111527914,-0.00891780685694,-0.859904107278,-0.109969443315,0.16265225519,-0.371162826304,0.57392450273,0.818889987915,0.00325572719177,0.0,0.818858842989,-0.5738554964,-0.0118663984066,0.0,-0.00784910902369,0.00947658025959,-0.999924290091,0.0,0.53031139951,0.0885182681753,0.304429298532,1.0,-0.20998,-0.275973714286,1.999
0.284003155193,-0.014261411431,-0.128311321484,-2.14671012364,0.0103070334502,2.12640748655,-0.0239654350852,-0.425872816867,-0.705949006458,-0.00462493537767,-0.859375818988,-0.113568050018,0.140120010059,-0.361740465251,0.573846554961,0.818944181005,0.00336253762002,0.0,0.818914875449,-0.573777736902,-0.0117593497078,0.0,-0.00770105005879,0.00950187733525,-0.99992520128,0.0,0.526984118365,0.0841568695706,0.304475757051,1.0,-0.20998,-0.275973714286,2.015
0.2772122937,-0.0259502105625,-0.128420528692,-2.16063557355,0.00849488855463,2.12855135989,-0.0299475330395,-0.427476883335,-0.726807514031,-0.00690923730311,-0.834994057403,-0.108359062847,0.138617351379,-0.36924876414,0.573796207379,0.818979827055,0.00327141785994,0.0,0.818949001055,-0.573727301885,-0.0118432953323,0.0,-0.0078226688315,0.00947494475501,-0.999924512788,0.0,0.523586260944,0.0797374010623,0.304481562204,1.0,-0.20998,-0.275973714286,2.031
0.26930294552,-0.0389872601277,-0.128622735969,-2.17605136612,0.00652243826548,2.13102673565,-0.0367432669682,-0.440380747143,-0.709551108684,-0.00454795348343,-0.840804024685,-0.104209013117,0.128001816792,-0.385318684536,0.573977350099,0.818852576284,0.00334765402119,0.0,0.818822618518,-0.573908000461,-0.0118268047884,0.0,-0.00776331361249,0.00952963637914,-0.999924455643,0.0,0.519826569191,0.0746768869062,0.304497920582,1.0,-0.20998,-0.275973714286,2.049
0.261401955219,-0.0519926608741,-0.128704302628,-2.19115360138,0.004589565021,2.13332234333,-0.0436799709459,-0.435354664462,-0.728074484248,-0.00655528908573,-0.848370465758,-0.111272127502,0.135156716032,-0.393692976986,0.573930178863,0.818884913871,0.00352058602854,0.0,0.818857160904,-0.573860190282,-0.0117549541239,0.0,-0.00760577686183,0.00962956540186,-0.99992470898,0.0,0.516064433621,0.0697738101657,0.30457231985,1.0,-0.20998,-0.275973714286,2.067
0.254656654486,-0.0626133504185,-0.128780902629,-2.20367517918,0.00291587721001,2.13507452007,-0.0496035891482,-0.44761653293,-0.71372591186,-0.00619739881313,-0.852236292527,-0.110732011578,0.110678445301,-0.392160116692,0.573866958781,0.818929726271,0.00340058088173,0.0,0.818899911176,-0.573796766039,-0.0118723906849,0.0,-0.00777156096781,0.00959809291083,-0.999923736818,0.0,0.512878872617,0.065647332722,0.304497414603,1.0,-0.20998,-0.275973714286,2.082
0.24686714982,-0.0747099743347,-0.128939046184,-2.21750485482,0.00103050751962,2.1369064748,-0.0564016408488,-0.463141826027,-0.728396817982,-0.0145933624556,-0.806554454664,-0.112998893981,0.105337675414,-0.403740134452,0.573888761823,0.818914170275,0.00346665209236,0.0,0.8188853477,-0.573818499236,-0.0118264178423,0.0,-0.00769574022051,0.00962602422714,-0.999924054736,0.0,0.509326828666,0.0609379483498,0.30455083968,1.0,-0.20998,-0.275973714286,2.099
0.238904224326,-0.0866244797147,-0.129068726984,-2.23128551419,-0.00077472028473,2.13861969988,-0.0633517421158,-0.466099402778,-0.697647574371,-0.0053212090156,-0.842068737391,-0.106222689979,0.0965886003231,-0.404270484991,0.573920595102,0.818892118387,0.00340526996471,0.0,0.81886137137,-0.573849154133,-0.0119979031676,0.0,-0.00787102859394,0.00967447402269,-0.999922222706,0.0,0.505716235945,0.0562332313661,0.304478464408,1.0,-0.20998,-0.275973714286,2.116
0.231375463611,-0.097864863352,-0.129115246068,-2.24383820426,-0.00254091164702,2.14010508994,-0.0699822891868,-0.473572851474,-0.713084946017,8.17201207178e-05,-0.768224105821,-0.111868968143,0.0951896684628,-0.416076550019,0.573797918587,0.818977604697,0.00351831365856,0.0,0.818948842034,-0.573726720043,-0.011882413123,0.0,-0.00771302818177,0.00969960956188,-0.999923210437,0.0,0.50238904186,0.0518926318178,0.30456157621,1.0,-0.20998,-0.275973714286,2.132
0.223155815119,-0.109639269075,-0.129263065238,-2.25717755617,-0.00440835151541,2.14150074444,-0.0770921085897,-0.489790151704,-0.686474666473,-0.0150794300862,-0.782056766823,-0.103493449509,0.0737970936214,-0.421425092401,0.573860490615,0.818934225001,0.00340871439442,0.0,0.818903292665,-0.573788762551,-0.0120249795595,0.0,-0.00789193724622,0.00969225471694,-0.999921885712,0.0,0.498776638318,0.0471860846941,0.304504972365,1.0,-0.20998,-0.275973714286,2.149
0.214695757175,-0.121427124041,-0.129460898969,-2.27011346709,-0.00625711229106,2.14284932958,-0.0844076782131,-0.495955679612,-0.701356259887,-0.00961260123143,-0.754922571676,-0.102598513728,0.0837985675253,-0.433995436423,0.573985003816,0.818846301466,0.00356326694691,0.0,0.818817831907,-0.573913249867,-0.0119032214095,0.0,-0.00770205100143,0.00975012482226,-0.999922803759,0.0,0.495257233496,0.0424201200236,0.304589432067,1.0,-0.20998,-0.275973714286,2.166
0.206753805894,-0.132374664611,-0.129524022024,-2.28225919099,-0.00795147548738,2.14392513781,-0.0914238759654,-0.505677779159,-0.688471729259,-0.00804508617532,-0.755434160134,-0.114784670562,0.0729808996909,-0.442641638274,0.573878777515,0.818920956746,0.00351599505887,0.0,0.81889106621,-0.573806199988,-0.0120255327505,0.0,-0.00783061178507,0.0097806032833,-0.999921507579,0.0,0.491644066429,0.0377926498037,0.30455361343,1.0,-0.20998,-0.275973714286,2.183
0.197595110854,-0.14468295684,-0.129672799655,-2.29550424585,-0.00990621398709,2.1451384906,-0.0994909685589,-0.510553074114,-0.681715666397,-0.00764768693052,-0.7216933421,-0.107300973094,0.0733630592499,-0.453784648577,0.573834944194,0.818950803626,0.00371281069375,0.0,0.818924358353,-0.573762790259,-0.0118280476252,0.0,-0.00755646196991,0.00982804738435,-0.999923151731,0.0,0.488139119015,0.0331141108034,0.304654454216,1.0,-0.20998,-0.275973714286,2.2
0.188716817063,-0.156122149,-0.129871846812,-2.30796868009,-0.0117422293063,2.14602590092,-0.107211723982,-0.524366057674,-0.673930855537,-0.0099092933452,-0.737539373633,-0.110903055675,0.0452301481522,-0.465274499325,0.573928554457,0.818885515635,0.00364329002409,0.0,0.818857507765,-0.573855782978,-0.0119444221403,0.0,-0.00769053930066,0.00983876974881,-0.999922024067,0.0,0.484540927872,0.0283643187929,0.30461287515,1.0,-0.20998,-0.275973714286,2.217
0.180353434043,-0.166890609952,-0.129935869543,-2.31935272374,-0.0134002860773,2.14676632563,-0.114571746482,-0.532599346467,-0.680474346342,-0.00870162139121,-0.708017376341,-0.100786920028,0.0453480150161,-0.468107206994,0.573867026077,0.818928051648,0.00377220191265,0.0,0.818901820118,-0.573793932529,-0.0118776639489,0.0,-0.00756263123014,0.00990545340989,-0.999922341285,0.0,0.481207964774,0.0240287683681,0.304686785595,1.0,-0.20998,-0.275973714286,2.233
0.171249956079,-0.17815723022,-0.13005921461,-2.33138914913,-0.0151875790922,2.14745260971,-0.122590095015,-0.546132218571,-0.675989894878,-0.0097549613611,-0.698684426706,-0.105123463498,0.0380387716886,-0.46695762446,0.573836237476,0.81894971384,0.00375308705286,0.0,0.818922716796,-0.573762542066,-0.0119530807431,0.0,-0.00763573829768,0.00993279036259,-0.999921514508,0.0,0.477621052602,0.0193587243121,0.304659253211,1.0,-0.20998,-0.275973714286,2.25
0.161328846733,-0.190062575257,-0.130279127686,-2.34382291691,-0.01707959768,2.14803787811,-0.131267495451,-0.555568041937,-0.663055213242,-0.00610274145008,-0.671182238546,-0.103029386394,0.0386931554407,-0.482401485608,0.57394071418,0.818876115646,0.00383545729738,0.0,0.818850154936,-0.573866659988,-0.0119259052991,0.0,-0.00756494358671,0.00998561966093,-0.999921526435,0.0,0.473855389905,0.0143206785709,0.30470174102,1.0,-0.20998,-0.275973714286,2.268
0.152520473262,-0.200486740119,-0.130381136487,-2.35468302004,-0.0187256359657,2.14852798905,-0.139135561046,-0.557225514939,-0.637846440845,-0.00951295679106,-0.689627293892,-0.097218072207,0.0212236314273,-0.500811824876,0.573828901598,0.81895412016,0.00390994432032,0.0,0.818929164635,-0.573754648826,-0.0118900446614,0.0,-0.00749419662041,0.0100250117166,-0.99992166501,0.0,0.470517571117,0.00996559030439,0.304712830426,1.0,-0.20998,-0.275973714286,2.284
0.143477606411,-0.210844349691,-0.130551137825,-2.36550099315,-0.0203439465405,2.14873718108,-0.147081875793,-0.571379540518,-0.654075693778,-0.0116214765106,-0.671811886956,-0.101914712386,0.021031887715,-0.503468376201,0.573899067477,0.818905344283,0.00382679424427,0.0,0.818877840785,-0.573823174765,-0.0121158109729,0.0,-0.00772594788202,0.0100871238353,-0.999919276573,0.0,0.467093497393,0.00553854636508,0.304652193107,1.0,-0.20998,-0.275973714286,2.3
0.133171751738,-0.222460162166,-0.130709927193,-2.37716542449,-0.0222117976888,2.14907289413,-0.156160524381,-0.569055859807,-0.637238826273,-0.0012924900784,-0.64958625405,-0.0976021732906,0.0153229043256,-0.512735104827,0.573920575604,0.818889286011,0.00403200396198,0.0,0.818865670301,-0.573845548361,-0.0118763432655,0.0,-0.00741180543279,0.0101179421917,-0.9999213431,0.0,0.463390090765,0.000583272041475,0.304763606162,1.0,-0.20998,-0.275973714286,2.318
0.124508239756,-0.231957996846,-0.130815510985,-2.38696359812,-0.0237236961315,2.14914105576,-0.163942083593,-0.59203631823,-0.634046865624,-0.0098227021682,-0.649749206445,-0.102129701142,0.00400442837621,-0.519489911249,0.573808924435,0.818967977624,0.00393913267221,0.0,0.818942022525,-0.573732726948,-0.0120610394308,0.0,-0.00761774240598,0.0101468486992,-0.999919502491,0.0,0.460185596087,-0.00349807056126,0.304687287226,1.0,-0.20998,-0.275973714286,2.333
0.113767432511,-0.24333448975,-0.131040863807,-2.39822249396,-0.0256133652908,2.14921540075,-0.173419089578,-0.594256086354,-0.637922548204,-0.0159906691693,-0.614144591278,-0.0993907984615,0.00376786064701,-0.543289539823,0.573884644345,0.818914310973,0.00406363997555,0.0,0.81889104313,-0.573809425991,-0.0118721955583,0.0,-0.00739069821738,0.0101411443525,-0.999921264286,0.0,0.456463507931,-0.00853461269471,0.304771241738,1.0,-0.20998,-0.275973714286,2.351
0.103631294979,-0.253921790338,-0.131144250744,-2.40882265061,-0.0271977565897,2.14920396998,-0.18253757253,-0.594172386136,-0.613610180489,-0.00817041627174,-0.63836579221,-0.0954591752079,-0.00195281725477,-0.537198779176,0.573803953681,0.818970332435,0.00416704112716,0.0,0.818947708715,-0.573727417445,-0.0119267666949,0.0,-0.0073770643721,0.0102564121351,-0.999920189281,0.0,0.452889858792,-0.0131353395792,0.304751575799,1.0,-0.20998,-0.275973714286,2.368
0.0931900821427,-0.264396695278,-0.131343966169,-2.41921254376,-0.0289257688193,2.14904655526,-0.191789499857,-0.625960308844,-0.60951446785,-0.0102491930547,-0.60632693995,-0.107042503665,-0.00606008324398,-0.546136629724,0.573867665703,0.818925755651,0.00415402124019,0.0,0.818902782184,-0.573790915675,-0.0119568106619,0.0,-0.00740834318892,0.0102635641801,-0.999919884642,0.0,0.449303575443,-0.0178602462968,0.304726539962,1.0,-0.20998,-0.275973714286,2.385
0.0831649798975,-0.274180623054,-0.131519660957,-2.42854751486,-0.0305100911448,2.14889945542,-0.200680097029,-0.622320953449,-0.604239191492,-0.010167472771,-0.590632458018,-0.0927486754124,-0.0186415788929,-0.561697348272,0.573949686355,0.818867183038,0.00436359688342,0.0,0.818848340987,-0.573874215548,-0.0116844380639,0.0,-0.00706398314789,0.0102796015449,-0.999922211942,0.0,0.446035356097,-0.0223258558345,0.304838415898,1.0,-0.20998,-0.275973714286,2.401
0.0719967152315,-0.285000928539,-0.131653587401,-2.43916094856,-0.0322367959028,2.14848798756,-0.21091345952,-0.629374806342,-0.593067406515,-0.0144959775208,-0.587441397458,-0.0915019620833,-0.0213477756416,-0.579997813355,0.573722704718,0.819026505943,0.00431132861572,0.0,0.819006052856,-0.573646095799,-0.0118316973328,0.0,-0.00721743585578,0.0103193163061,-0.999920707022,0.0,0.442215667897,-0.0271789617684,0.304775055771,1.0,-0.20998,-0.275973714286,2.419
0.0622393154144,-0.293934644097,-0.131859882514,-2.44766830292,-0.0335927166914,2.14812106104,-0.219546767093,-0.656959864039,-0.598708531111,-0.0158170858968,-0.548746289941,-0.0917097028045,-0.0171148788473,-0.582667534456,0.573929631888,0.818880603426,0.00448128055163,0.0,0.818862299329,-0.573852335182,-0.0117804518006,0.0,-0.00707532639193,0.0104309028891,-0.999920564856,0.0,0.438886235471,-0.0316764284967,0.304815797943,1.0,-0.20998,-0.275973714286,2.435
0.0506241021206,-0.304548385597,-0.131979362539,-2.45762370828,-0.0353727539412,2.14763797632,-0.230094682439,-0.641661590342,-0.583819986045,-0.00745247114329,-0.557849181505,-0.0964103865497,-0.0345451772313,-0.595000618979,0.573770402702,0.818991814643,0.00454746429954,0.0,0.8189755715,-0.573694716215,-0.0115815704855,0.0,-0.00687648758121,0.0103696241824,-0.99992258941,0.0,0.435370072754,-0.0363084497941,0.304875965853,1.0,-0.20998,-0.275973714286,2.452
0.0387214176349,-0.314958586078,-0.132222521191,-2.46760472433,-0.0370345887462,2.14686787892,-0.240779100385,-0.674179715716,-0.572418453999,-0.0164306063675,-0.547808729435,-0.0896716669661,-0.0384047117397,-0.602037002116,0.573874766053,0.818919176689,0.00445890565591,0.0,0.818900086728,-0.573796826733,-0.0118573390573,0.0,-0.00715183411743,0.0104562272206,-0.999919756071,0.0,0.431508323285,-0.0412878974104,0.304784035357,1.0,-0.20998,-0.275973714286,2.47
0.0279307173537,-0.32415047152,-0.132377372478,-2.47596825104,-0.0385139902919,2.14629203563,-0.25050605191,-0.66299953859,-0.582404890728,-0.0033999099751,-0.515973280086,-0.094075199573,-0.033367440293,-0.610076581552,0.573909528738,0.818893809213,0.00463993077644,0.0,0.818878390591,-0.573832975456,-0.0116036461503,0.0,-0.00683974039958,0.0104591835121,-0.999921908667,0.0,0.428223003047,-0.0457311802184,0.304887098878,1.0,-0.20998,-0.275973714286,2.486
0.0172107668131,-0.333125033348,-0.132526715273,-2.48431821291,-0.0399000200255,2.14558917988,-0.260403679335,-0.67611813461,-0.556905940845,-0.0155967391794,-0.529915926895,-0.0934684555944,-0.0494620112237,-0.608156413299,0.57377753623,0.818985966301,0.00469817211603,0.0,0.818970782902,-0.573700028848,-0.0116567814293,0.0,-0.00685153083753,0.0105362678808,-0.999921018673,0.0,0.424871426874,-0.0500587502483,0.304866456899,1.0,-0.20998,-0.275973714286,2.502
0.00531604313567,-0.342585145583,-0.132775146061,-2.49302119359,-0.041470229097,2.1446539617,-0.271003446028,-0.700485995175,-0.55528434084,-0.0107972080887,-0.511696978228,-0.0938981076014,-0.0615895320925,-0.61901498305,0.574004148794,0.81882737997,0.00465895690783,0.0,0.818811062468,-0.57392577422,-0.0117642070655,0.0,-0.00695909338261,0.0105677125798,-0.999919944031,0.0,0.421249484477,-0.0548461205148,0.304842842243,1.0,-0.20998,-0.275973714286,2.519
-0.0057219112255,-0.351347811586,-0.132909591609,-2.500847114,-0.0428712271555,2.14380409377,-0.281257634163,-0.693428243083,-0.558345150701,-0.0181617409427,-0.470920979736,-0.0789372250002,-0.0552011868125,-0.646807608565,0.573823959123,0.818953090004,0.00475890857657,0.0,0.818938650842,-0.573746188655,-0.0116423391964,0.0,-0.00680425500483,0.0105781110018,-0.999920899712,0.0,0.417939866499,-0.0591868189223,0.304905238234,1.0,-0.20998,-0.275973714286,2.535
-0.0185687936561,-0.360971640269,-0.133175057937,-2.50950080648,-0.0444678607195,2.14280260048,-0.292941487992,-0.72483667052,-0.53095861121,-0.0121782685695,-0.494018998508,-0.0884406109442,-0.0732599973416,-0.647434149591,0.57392789723,0.818879997859,0.00480258144283,0.0,0.818866215692,-0.573850117282,-0.0116151020499,0.0,-0.00675554288269,0.0105991068529,-0.999921007667,0.0,0.414168414259,-0.0642200833589,0.304910849101,1.0,-0.20998,-0.275973714286,2.553
-0.0306839645364,-0.369920158302,-0.133284312966,-2.51758357978,-0.0458748807066,2.14170985197,-0.304197610146,-0.72084194869,-0.529218679914,-0.0152391307646,-0.474577149794,-0.079317641036,-0.0632952461499,-0.6679327158,0.573762466528,0.818996094029,0.00477251191643,0.0,0.818980948861,-0.573683294962,-0.0117656018078,0.0,-0.00689820437484,0.0106594622789,-0.999919392071,0.0,0.410563385604,-0.0688190663992,0.304862159083,1.0,-0.20998,-0.275973714286,2.57
-0.0423641982835,-0.378153833596,-0.133517846658,-2.52485037359,-0.0472069912276,2.14065142225,-0.314859137834,-0.748616704886,-0.524336721711,-0.0186186391351,-0.442657079051,-0.0828501080534,-0.0669850460613,-0.677827698024,0.573881333905,0.81891257145,0.00481267262819,0.0,0.818897575868,-0.57380143198,-0.0118077854045,0.0,-0.00690815846646,0.0107175599333,-0.999918702323,0.0,0.407203760826,-0.0732622526383,0.304864611366,1.0,-0.20998,-0.275973714286,2.586
-0.0556327747876,-0.387243301745,-0.133661044925,-2.53268776713,-0.0487141953974,2.13954748022,-0.327124488374,-0.731174046232,-0.498192631643,-0.00243913318925,-0.440369884614,-0.0805862207709,-0.0623632506472,-0.683981564414,0.573804220278,0.818966024058,0.00491071590249,0.0,0.818953714612,-0.573726248507,-0.011565119898,0.0,-0.00665416176163,0.0106579688342,-0.9999210618,0.0,0.403712742561,-0.0779417607166,0.30494312293,1.0,-0.20998,-0.275973714286,2.603
-0.067607457315,-0.395164508862,-0.13388856825,-2.53967588502,-0.0500383615351,2.13834605504,-0.33821973908,-0.753254282671,-0.495906862713,-0.0214210075233,-0.427674245924,-0.0810687526729,-0.0793852825596,-0.699341041854,0.573820734113,0.818954849861,0.00484416071698,0.0,0.818940506788,-0.573741116521,-0.0117611417727,0.0,-0.00685268185166,0.0107160727562,-0.999919099996,0.0,0.400292302544,-0.0823629307236,0.304880724847,1.0,-0.20998,-0.275973714286,2.619
-0.0796718380518,-0.402892792158,-0.134002027925,-2.54640189144,-0.051340000064,2.13715009302,-0.349401183523,-0.748023220719,-0.485623785002,-0.00288305922933,-0.421401414854,-0.0817765701283,-0.0776276128802,-0.690786230402,0.5737469464,0.819006966801,0.00477249713715,0.0,0.818991177976,-0.57366678618,-0.0118581504717,0.0,-0.00697421903032,0.0107124169226,-0.999918298859,0.0,0.396700240845,-0.0870089677771,0.304847419208,1.0,-0.20998,-0.275973714286,2.636
-0.0934651852633,-0.411419263997,-0.134246391179,-2.55354280264,-0.052615461364,2.13590560327,-0.362270651006,-0.785028945198,-0.46821537578,-0.0174757793968,-0.387776297899,-0.0742023408947,-0.061026667036,-0.721861698781,0.573785446506,0.818978743954,0.00498249244557,0.0,0.818966119696,-0.573705258356,-0.0117268165223,0.0,-0.00674566122513,0.0108093772729,-0.999918823414,0.0,0.393188184294,-0.0917046623301,0.304913953343,1.0,-0.20998,-0.275973714286,2.653
-0.106668406866,-0.419278982074,-0.134370701473,-2.56010966485,-0.0538951975113,2.13465713878,-0.374576840865,-0.769321652834,-0.46259560325,-0.00617787552447,-0.394581307667,-0.0766810790423,-0.0766280849793,-0.731885240608,0.57375972428,0.818996241056,0.00506782319234,0.0,0.818985484296,-0.573680505158,-0.0115845334756,0.0,-0.00658050469701,0.0107974202482,-0.999920053141,0.0,0.389446742316,-0.0966645641574,0.304970898128,1.0,-0.20998,-0.275973714286,2.671
-0.119181288751,-0.426414635196,-0.134596811164,-2.56625034669,-0.0551230420191,2.13328951258,-0.386321649761,-0.798910567218,-0.442929783343,-0.0185977330735,-0.384721461082,-0.0691352582959,-0.0880073231175,-0.730436954777,0.573728480606,0.819018769392,0.00496314675955,0.0,0.819005088113,-0.573647083972,-0.0118505526402,0.0,-0.00685886242845,0.0108640511764,-0.999917460793,0.0,0.386019585159,-0.101062647154,0.304894877667,1.0,-0.20998,-0.275973714286,2.687
-0.132652487571,-0.433822372671,-0.134742321197,-2.57247584832,-0.056324150786,2.13202362948,-0.398924903634,-0.785775548902,-0.432847705902,-0.00922778827289,-0.369981957251,-0.0721035104857,-0.0689773746314,-0.753404339711,0.573721909756,0.819023148409,0.00499995368999,0.0,0.819009858193,-0.573640247258,-0.0118518272839,0.0,-0.00683887789504,0.0108948741061,-0.999917262311,0.0,0.382454461706,-0.105720720185,0.304882075509,1.0,-0.20998,-0.275973714286,2.704
-0.146322450899,-0.440958096717,-0.134986908783,-2.57826516123,-0.0575169157942,2.13070083327,-0.411772151178,-0.815486018123,-0.410431065974,-0.0113915253786,-0.325128447791,-0.0711731285666,-0.0805879471263,-0.757930023208,0.573770698733,0.818988437573,0.00508638368666,0.0,0.818976726724,-0.573689467042,-0.0117585454499,0.0,-0.00671223725115,0.0109125488018,-0.999917927707,0.0,0.378930664188,-0.110454198598,0.304936259171,1.0,-0.20998,-0.275973714286,2.721
-0.159293197047,-0.447576744264,-0.135106017277,-2.58354712322,-0.058563968973,2.12950884271,-0.424019979891,-0.797875987554,-0.412500776688,-0.00545548713167,-0.329733568558,-0.0616561019039,-0.0735343647426,-0.773794422024,0.573729772116,0.819016308769,0.00521358420818,0.0,0.819007349729,-0.573649967036,-0.0115509008496,0.0,-0.00646972832997,0.0108972693033,-0.999919692844,0.0,0.375628853552,-0.114854055555,0.305017748341,1.0,-0.20998,-0.275973714286,2.737
-0.173209822548,-0.454296484384,-0.135373549138,-2.5892123846,-0.0596582118214,2.12805429104,-0.437175021556,-0.834550018316,-0.389209154791,-0.0205127821791,-0.332024000853,-0.0672636429668,-0.0764527383528,-0.776700572423,0.57378825235,0.818975422313,0.00520057828251,0.0,0.818964230847,-0.573705047037,-0.011868213809,0.0,-0.00673630710289,0.0110691423683,-0.999916044603,0.0,0.371974020055,-0.11952933906,0.304924932054,1.0,-0.20998,-0.275973714286,2.754
-0.187233886104,-0.460789405809,-0.135512889825,-2.59445410592,-0.0607425010437,2.12671100835,-0.450508560848,-0.815512537455,-0.372168639341,-0.014503432017,-0.305081189666,-0.0588203139088,-0.0683660891399,-0.796530734021,0.573714941411,0.819026632528,0.00522380256699,0.0,0.819015723143,-0.57363163395,-0.0118634176108,0.0,-0.00672004595581,0.0110848097934,-0.999915980457,0.0,0.368419520195,-0.124182270065,0.304935363037,1.0,-0.20998,-0.275973714286,2.771
-0.200711875596,-0.466572159605,-0.135722436631,-2.59919068154,-0.0617737023453,2.12552738836,-0.463246439764,-0.851069141719,-0.357519768761,-0.0148659246048,-0.289027132864,-0.0602521535176,-0.0795310677955,-0.80093248613,0.573780485577,0.818980732138,0.00522126978781,0.0,0.818969518783,-0.573696728962,-0.0119053510876,0.0,-0.00675495780567,0.0111073327842,-0.999915495281,0.0,0.365049825011,-0.128648999161,0.304901758081,1.0,-0.20998,-0.275973714286,2.787
-0.215814375001,-0.4729690683,-0.135860799603,-2.6041596478,-0.0628030455093,2.1241535224,-0.477662814072,-0.831024043587,-0.35857409576,-0.0115376757054,-0.269576148443,-0.0476726522715,-0.0791271958988,-0.800739942159,0.573733967139,0.819012635971,0.0053276610091,0.0,0.819003532611,-0.573651055814,-0.0117654849673,0.0,-0.00657998917883,0.0111138455286,-0.999916589611,0.0,0.361325745733,-0.133570434446,0.304972127513,1.0,-0.20998,-0.275973714286,2.805
-0.230358481094,-0.478730739162,-0.136093289417,-2.60864705118,-0.0638369877992,2.12289183432,-0.491497842347,-0.856057660402,-0.33564626602,-0.00658042072083,-0.2674584352,-0.0609982369125,-0.0764139668505,-0.80949891883,0.573795722595,0.818969037635,0.00537875714953,0.0,0.818961197641,-0.573713651813,-0.0116597334245,0.0,-0.00646321869223,0.0110955121855,-0.999917554808,0.0,0.357762054046,-0.138311617142,0.305014552525,1.0,-0.20998,-0.275973714286,2.822
-0.243984449064,-0.483845950953,-0.136204495617,-2.61278676608,-0.0647087775243,2.12168114459,-0.504652604391,-0.853520783391,-0.305199153357,-0.0101613161103,-0.254920641702,-0.0536401243056,-0.0795952219464,-0.830151058137,0.573662483869,0.819062462278,0.00536510854507,0.0,0.819053580288,-0.573579007982,-0.0117941138118,0.0,-0.00658292900384,0.0111603668584,-0.999916052105,0.0,0.354394033451,-0.142645936554,0.304967570056,1.0,-0.20998,-0.275973714286,2.838
-0.258792678446,-0.488942918895,-0.136398418181,-2.61690905615,-0.0655553477204,2.12040125096,-0.51878117405,-0.863498517118,-0.286545040482,-0.000710167029683,-0.241324479476,-0.0519988545958,-0.0722455836582,-0.827391146314,0.573769686777,0.818987120437,0.0054027766115,0.0,0.818977229055,-0.573683522436,-0.0120108815988,0.0,-0.00673740313295,0.011316448668,-0.999913268933,0.0,0.350784349646,-0.14734786143,0.304905642505,1.0,-0.207526285714,-0.272748832653,2.855
-0.273419197849,-0.493687117196,-0.136456191284,-2.62065432223,-0.0663194285685,2.11931429166,-0.53287589637,-0.870227756679,-0.274859270864,-0.00318352672312,-0.214784190851,-0.0458246922946,-0.0590161579886,-0.826110646107,0.573711474393,0.819027481602,0.00546584224508,0.0,0.819018348313,-0.573624969915,-0.0120035794131,0.0,-0.00669604674316,0.0113634351121,-0.999913013867,0.0,0.347309222425,-0.151932389242,0.304894504564,1.0,-0.204019428571,-0.268139820408,2.872
-0.287208834885,-0.497910250483,-0.136524071833,-2.62392479649,-0.0670355741049,2.11824139511,-0.546023106056,-0.838246690422,-0.258411260266,0.00511255316552,-0.202365618636,-0.040969294795,-0.0762454074486,-0.81847941661,0.573796161642,0.818967963115,0.00549428584798,0.0,0.818958992091,-0.573709175979,-0.012029030405,0.0,-0.00669939730678,0.0114020257993,-0.999912552118,0.0,0.344042142764,-0.156230861351,0.30489813632,1.0,-0.200718857143,-0.263801926531,2.888
-0.301686513593,-0.502095017637,-0.136527469396,-2.62711363791,-0.0676667375124,2.11717949832,-0.559924614721,-0.862756201763,-0.236303787676,-0.00420777991802,-0.176553421466,-0.0349495933367,-0.0595531174508,-0.814603764663,0.573820188196,0.818950555777,0.0055790422833,0.0,0.818942723609,-0.573732924703,-0.0120038935714,0.0,-0.00662984271052,0.0114572131377,-0.999912384888,0.0,0.34065239131,-0.160687982717,0.304921769021,1.0,-0.197212,-0.259192914286,2.905
-0.31691950695,-0.506121900641,-0.136472636112,-2.63014886777,-0.0682840406023,2.11620312783,-0.57455084672,-0.831929344041,-0.213642829018,0.00608984703968,-0.166832487708,-0.0333506363259,-0.0483834334253,-0.820282145715,0.573841235881,0.818935290432,0.00565446626184,0.0,0.818929105559,-0.573754841478,-0.01188481593,0.0,-0.00648874272004,0.0114508249236,-0.999913383662,0.0,0.337149479991,-0.165348854914,0.304959999239,1.0,-0.193498857143,-0.254312783674,2.923
-0.330318879519,-0.509419755695,-0.136464000371,-2.63260982672,-0.0687729576246,2.11540753718,-0.587371789562,-0.852978365102,-0.200171660456,-0.00157152437513,-0.150615957543,-0.0344039591683,-0.0476797581124,-0.804708847821,0.573959092449,0.81885196784,0.00575863361926,0.0,0.818847778142,-0.573873441004,-0.0117616683741,0.0,-0.00632646020662,0.0114663816133,-0.99991424532,0.0,0.334082009342,-0.169436273002,0.304998377702,1.0,-0.190198285714,-0.249974889796,2.939
-0.344251855693,-0.512583450647,-0.136339312481,-2.63507124073,-0.0692363444075,2.11448851062,-0.600950943377,-0.8062295397,-0.176119352125,0.00409716276268,-0.143732725777,-0.0194512874082,-0.0531633151214,-0.798435867098,0.573821367971,0.818948359321,0.0057766189378,0.0,0.818943651598,-0.573734319166,-0.0118732228052,0.0,-0.00640943520434,0.011544056618,-0.999912823149,0.0,0.330864768105,-0.173600736472,0.304976020994,1.0,-0.186691428571,-0.245365877551,2.956
-0.358192110115,-0.515389922354,-0.136283036119,-2.63731240762,-0.0697002428907,2.11367722706,-0.614317331904,-0.820090977606,-0.161364508343,-0.00148898226442,-0.128509554305,-0.0235743053362,-0.0493417215473,-0.787437587278,0.573925140429,0.818875578138,0.00578512007876,0.0,0.818870047374,-0.5738363641,-0.0120174727581,0.0,-0.00652122823453,0.0116346152956,-0.999911050699,0.0,0.327660685482,-0.177777085697,0.304926375025,1.0,-0.183184571429,-0.240756865306,2.973
-0.37095041575,-0.517741986806,-0.136136185544,-2.63919140662,-0.0700615565246,2.11303399037,-0.626721715547,-0.792068510163,-0.144954808549,0.00460331162974,-0.11470124818,-0.0165317260152,-0.0322845968246,-0.759724681464,0.573848857293,0.818928998039,0.00579068694986,0.0,0.818923054495,-0.573759209636,-0.0120891305198,0.0,-0.00657780621934,0.0116796856492,-0.999910154668,0.0,0.324764212336,-0.181557120714,0.304888336974,1.0,-0.179884,-0.236418971429,2.989
-0.385289531491,-0.52012079276,-0.136048783445,-2.64099008483,-0.0704307543986,2.11236417845,-0.640545676852,-0.793267501239,-0.123219570889,0.00460736319993,-0.0943874420916,-0.0154014176342,-0.0355782479782,-0.769933044248,0.573947295236,0.818859603219,0.00584802601928,0.0,0.818854400198,-0.573857375812,-0.0120801657345,0.0,-0.00653615269628,0.011722285978,-0.999909929303,0.0,0.321540501606,-0.185831150086,0.304891180612,1.0,-0.176170857143,-0.231538840816,3.007
-0.397640430848,-0.521993987462,-0.135873579826,-2.64238795045,-0.0706831022473,2.11180812367,-0.652663574298,-0.764642702554,-0.114839971977,0.0101369204708,-0.0815391234615,-0.0171396733817,-0.0322617970553,-0.749282084056,0.57381791439,0.818949993753,0.00588691412211,0.0,0.818945357281,-0.573727966341,-0.0120610666385,0.0,-0.00650004832704,0.0117421431655,-0.999909931667,0.0,0.31861076163,-0.189686853041,0.304903823419,1.0,-0.172664,-0.226929828571,3.024
-0.410803890614,-0.523805025012,-0.13577936752,-2.64367956454,-0.0709504502253,2.11124795526,-0.665308791369,-0.770746618002,-0.0991729295488,0.00371292284333,-0.0702907558452,-0.00957055217137,-0.024403431425,-0.730160761588,0.573993609759,0.818826375176,0.00595400475179,0.0,0.818822799482,-0.573903686582,-0.0120219996876,0.0,-0.00642702888982,0.0117760525617,-0.999910004893,0.0,0.315838304952,-0.193357725565,0.304932743165,1.0,-0.169363428571,-0.222591934694,3.04
-0.423556007178,-0.525333004875,-0.135603288292,-2.64479929921,-0.0711549290799,2.11081048096,-0.67782761224,-0.748963543105,-0.0839935876032,0.00271884737694,-0.0634261876341,-0.0125205209064,-0.0223121351335,-0.724569444789,0.573907824573,0.818886135961,0.00600434219644,0.0,0.818883547273,-0.573818324224,-0.0119588332172,0.0,-0.00634764335838,0.0117803518012,-0.999910461359,0.0,0.31300986721,-0.197093690174,0.304950681275,1.0,-0.165856571429,-0.217982922449,3.057
-0.43624772465,-0.526624229498,-0.135505592179,-2.64576593082,-0.0713622902469,2.11039660414,-0.690113494664,-0.74756324494,-0.0680005823844,0.000362352909577,-0.050754533724,-0.0119003750911,-0.0229863236285,-0.709945933774,0.574026635453,0.818802469678,0.00605675995256,0.0,0.818800496654,-0.573936772873,-0.0119613679777,0.0,-0.0063179220192,0.0118256495533,-0.999910114897,0.0,0.310176780444,-0.200822148688,0.304950905488,1.0,-0.162349714286,-0.213373910204,3.074
-0.448487375287,-0.527674151865,-0.13529774103,-2.64658364103,-0.0715073338174,2.11004647919,-0.702176203222,-0.708905426024,-0.0569310614403,0.00700929421482,-0.0490335180079,-0.013571636971,-0.0236681532884,-0.693844509023,0.573915708686,0.818880065311,0.00607822852791,0.0,0.8188781689,-0.573825400839,-0.0119875248868,0.0,-0.00632862508646,0.0118573857793,-0.999909671374,0.0,0.307461094776,-0.204371656772,0.304938451187,1.0,-0.158842857143,-0.208764897959,3.091
-0.460695269536,-0.528499499587,-0.1351541919,-2.64723375164,-0.071644014895,2.10975276946,-0.71401645232,-0.72335765414,-0.0483967420938,0.00623591188088,-0.0388976648084,-0.00695895256025,-0.0218682642909,-0.698097708635,0.574019738875,0.818806885061,0.0061132037099,0.0,0.818805208473,-0.573928820391,-0.0120202580485,0.0,-0.00633384820251,0.0119056176444,-0.999909065183,0.0,0.304750807718,-0.207929496837,0.304923000777,1.0,-0.155336,-0.204155885714,3.108
-0.473196159366,-0.529147173405,-0.134902244658,-2.64774116536,-0.0717330316831,2.10949717178,-0.726324273682,-0.678283874262,-0.0292328912092,0.00730603519368,-0.0287604785887,-0.00324298015915,-0.0177281317579,-0.678797580942,0.57393291452,0.81886767748,0.0061223615649,0.0,0.818865965207,-0.573841684176,-0.0120415708627,0.0,-0.00634730909935,0.0119246769598,-0.99990875271,0.0,0.302000525651,-0.211540670766,0.304913418001,1.0,-0.151622857143,-0.199275755102,3.126
-0.484133677246,-0.529531419616,-0.134751701176,-2.64806441754,-0.0717812039131,2.10929609589,-0.73704295993,-0.687491913919,-0.0220331291533,0.00574909318809,-0.0145015213742,-0.00124432314378,-0.020806933638,-0.665212581819,0.573966950278,0.818843461618,0.00617027190644,0.0,0.818841918881,-0.573874648724,-0.0121056324265,0.0,-0.00637177801486,0.0120009412682,-0.999907684666,0.0,0.299580259631,-0.214711016231,0.304893376089,1.0,-0.148322285714,-0.194937861225,3.142
-0.496186481826,-0.529818954082,-0.134520862755,-2.64828767298,-0.0718154519294,2.10912376314,-0.748859581292,-0.651278072302,-0.0117245289276,0.0187213003385,-0.0101508660783,0.00138481210228,-0.00653550401515,-0.652200912621,0.573970135713,0.81884104295,0.00619488427469,0.0,0.818839662678,-0.573877425232,-0.0121266044704,0.0,-0.0063747799491,0.012033157439,-0.999907278353,0.0,0.296928119433,-0.218188114753,0.304887973988,1.0,-0.144609142857,-0.190057730612,3.16
-0.506550248264,-0.529957362378,-0.134323597014,-2.64839845185,-0.0718402501128,2.10902135724,-0.759130812538,-0.650502734852,-0.0026936332425,0.0110295355306,-0.00280962260703,-0.00607984939837,-0.00933450516065,-0.644408943943,0.573889932937,0.818897126883,0.00621187233585,0.0,0.818895942699,-0.573797115551,-0.0121265047956,0.0,-0.00636612807543,0.0120463880066,-0.999907174166,0.0,0.294641983177,-0.221173728727,0.304884385455,1.0,-0.141308571429,-0.185719836735,3.176
-0.516333812013,-0.529990363805,-0.134199833913,-2.64841544586,-0.0718484248358,2.10893406384,-0.768583750443,-0.644613817675,0.0015755088907,0.0117656694008,0.000707247956003,-0.0021876615511,-0.00348595022841,-0.626441931482,0.57406889771,0.818771318796,0.00625900151238,0.0,0.818770685437,-0.57397570794,-0.012132529219,0.0,-0.00634137421605,0.0120898274003,-0.999906807181,0.0,0.292467646853,-0.224003179306,0.304884390543,1.0,-0.138214285714,-0.181653061225,3.191
-0.526804230398,-0.529899170823,-0.133940138775,-2.6483564778,-0.0718432947984,2.10893635435,-0.779021168396,-0.611200843322,0.0115415063034,0.0149375209098,0.00680857005417,-0.000545415306309,0.000235139815483,-0.601606961899,0.57391849909,0.818876821701,0.0062493347691,0.0,0.818876353544,-0.573825941083,-0.0120852739954,0.0,-0.00631044184931,0.01205362685,-0.999907439918,0.0,0.29016891002,-0.227003244786,0.30488472967,1.0,-0.134707428571,-0.17704404898,3.208
-0.53783639129,-0.529727370345,-0.133768514223,-2.64822314158,-0.0718446026958,2.10892247367,-0.789814632316,-0.61506136092,0.00997759995193,0.0108735937091,0.01194840107,-0.00024080560445,-0.000299476859487,-0.585140050861,0.574000036996,0.818819483158,0.00627362975641,0.0,0.818819457087,-0.573907594114,-0.0120630433893,0.0,-0.00627709204697,0.012061389682,-0.999907556224,0.0,0.287706903182,-0.230177012119,0.304885815918,1.0,-0.130994285714,-0.172163918367,3.226
-0.547331664642,-0.529442495047,-0.133548422907,-2.64798085829,-0.0718322425071,2.10893575599,-0.799167404632,-0.572060647516,0.0237631152633,0.0168213036221,0.0151182725987,0.00181921347788,0.00348192047312,-0.575113704371,0.573980489251,0.818833329232,0.0062549020108,0.0,0.818833306272,-0.573888607354,-0.0120262125958,0.0,-0.006257967179,0.0120247649975,-0.999908117216,0.0,0.28560818837,-0.232899888039,0.304898695807,1.0,-0.127693714286,-0.16782602449,3.242
-0.557047939157,-0.529004625462,-0.133303721242,-2.64766115247,-0.0718319468253,2.10895528663,-0.808864833483,-0.575141330994,0.0242317778247,0.0168862768162,0.0204291974194,0.00114369104955,0.000880542031684,-0.55690530554,0.573841828389,0.818930893123,0.00620444852943,0.0,0.818930051151,-0.57374988664,-0.012057603573,0.0,-0.00631466399935,0.0120003976767,-0.99990805351,0.0,0.283452180605,-0.235678716061,0.304892011849,1.0,-0.124186857143,-0.163217012245,3.259
-0.566746160581,-0.528476211231,-0.133129209244,-2.64726218814,-0.071793753819,2.10901458785,-0.818296858902,-0.562833997864,0.0346045687914,0.00970805668022,0.0280334940165,0.000721999664922,0.00985602695356,-0.53514984282,0.573975688032,0.818837044872,0.00620889637966,0.0,0.818836223324,-0.573883626787,-0.0120652053172,0.0,-0.00631637470478,0.0120094350045,-0.999907934203,0.0,0.281286762417,-0.238467264797,0.304889859145,1.0,-0.12068,-0.158608,3.276
-0.575373632752,-0.527805759926,-0.132859811977,-2.64677501843,-0.0717302902131,2.1091636969,-0.82698342416,-0.523108440984,0.0484031470133,0.0231683070949,0.0325120134394,0.0063645292025,0.00728578476168,-0.536492971471,0.57379198271,0.818966130506,0.00616316174484,0.0,0.818964897213,-0.573700508235,-0.0120403855736,0.0,-0.00632498073311,0.0119563200319,-0.99990851633,0.0,0.27940649854,-0.240943143647,0.304885875689,1.0,-0.117379428571,-0.154270106123,3.292
-0.584413423118,-0.52704065732,-0.132651193683,-2.64620727221,-0.0716808689625,2.10926033929,-0.835886668228,-0.53206891705,0.0453173225399,0.013205528954,0.0356809187356,0.000279388068409,-0.000440679932775,-0.522296022947,0.573809774042,0.818953898947,0.00613200738031,0.0,0.818952016417,-0.573717972773,-0.0120842635193,0.0,-0.00637853468832,0.0119561185206,-0.999908178547,0.0,0.277399271665,-0.243545286886,0.304877722705,1.0,-0.113872571429,-0.149661093878,3.309
-0.593277543951,-0.526183288975,-0.132453941454,-2.64556219529,-0.0715579010071,2.10940078805,-0.844571459066,-0.517617803671,0.0533223822528,0.0104990520041,0.040059649986,0.00713269458248,0.0115256408804,-0.504472738184,0.573906062867,0.818886242469,0.00615628135666,0.0,0.81888456541,-0.573813926503,-0.012099305167,0.0,-0.00637551731524,0.0119853791308,-0.999907847487,0.0,0.275438729836,-0.246100442609,0.304874270047,1.0,-0.110365714286,-0.145052081633,3.326
-0.60111715667,-0.525253296693,-0.132171457726,-2.64490516611,-0.0714019617112,2.1095551396,-0.852465268397,-0.480347918929,0.0659434587625,0.0187494903429,0.0450932361704,0.0106238711189,0.0110375679081,-0.485062464822,0.573758095284,0.818989941265,0.00615395031326,0.0,0.818987728044,-0.573665053548,-0.0121759825987,0.0,-0.00644182506242,0.0120263099133,-0.999906931049,0.0,0.273628642206,-0.248475635932,0.304849072454,1.0,-0.106858857143,-0.140443069388,3.343
-0.609317456761,-0.524294267766,-0.13193207379,-2.64420424223,-0.0712463192694,2.10971403916,-0.860599823433,-0.485539401404,0.0606632308804,0.0165512813855,0.0447309168913,0.00568662766999,-0.000868195206959,-0.468393996049,0.573755989543,0.818991272655,0.00617306079499,0.0,0.818989071392,-0.573662417537,-0.0122097725753,0.0,-0.00645856854844,0.0120613316922,-0.999906401205,0.0,0.271920850919,-0.250687797432,0.304839598229,1.0,-0.103558285714,-0.13610517551,3.359
-0.61782968923,-0.523256181349,-0.131709183233,-2.64335586265,-0.0710736938559,2.10991071393,-0.868932961122,-0.467540781,0.0563993134578,0.00433926919413,0.0478469673608,0.00231030439612,0.0163379590145,-0.458547312698,0.573860989373,0.818917565677,0.00619131676071,0.0,0.81891598163,-0.573768022038,-0.0121498485263,0.0,-0.00639746797802,0.0120427241985,-0.999907018276,0.0,0.270147510506,-0.253015256322,0.304867112628,1.0,-0.100051428571,-0.131496163265,3.376
-0.624553711908,-0.522280094032,-0.131481616952,-2.64260361187,-0.0708947005328,2.11009211421,-0.875646881383,-0.440668163894,0.0632857861602,0.0154827202794,0.0477553934621,0.0212208706116,0.0145944742439,-0.447147539961,0.573830629234,0.818938631194,0.00621885779619,0.0,0.81893740194,-0.573737535598,-0.0121457338553,0.0,-0.00637874132262,0.0120626815913,-0.999906897352,0.0,0.268584843694,-0.255089152054,0.304871873278,1.0,-0.0967508571429,-0.127158269388,3.392
-0.632303900582,-0.521126276913,-0.131192210398,-2.64172287038,-0.0707079011849,2.11030411754,-0.88344161395,-0.435679073138,0.0670627207141,0.0154158988667,0.0468514286431,0.0137725164234,0.00894107023015,-0.435578564636,0.573720993802,0.819015484061,0.00621329540996,0.0,0.819014196106,-0.573627975208,-0.0121424683296,0.0,-0.00638087236282,0.0120553982464,-0.999906971593,0.0,0.26679759076,-0.257438568881,0.304879646189,1.0,-0.0928314285715,-0.122007020408,3.411
-0.63950701814,-0.520054120388,-0.130957119824,-2.64085061871,-0.0705203271439,2.11051651366,-0.890504549942,-0.418736350848,0.0705152198671,0.0147839276166,0.052300453504,0.0148745171842,0.0174435930499,-0.408191117572,0.57379339169,0.818964674771,0.0062251130131,0.0,0.818963817881,-0.573700829261,-0.0120983638662,0.0,-0.00633690213611,0.0120403353704,-0.999907432713,0.0,0.265307634627,-0.259394859745,0.304899989712,1.0,-0.0895308571429,-0.117669126531,3.427
-0.646001460764,-0.518980251926,-0.130782570721,-2.64001257494,-0.0703288806634,2.11072956941,-0.896887197088,-0.39643239325,0.0665313700633,0.00817644815401,0.0601320552113,0.0105964115089,0.0152987717031,-0.384313444413,0.573888691414,0.818897573347,0.00626746633823,0.0,0.818897365275,-0.573796104852,-0.0120781664032,0.0,-0.00629465457749,0.0120641670557,-0.999907412312,0.0,0.263873755696,-0.261282639697,0.304908287508,1.0,-0.0862302857143,-0.113331232653,3.443
-0.652492670067,-0.517788090513,-0.130485438656,-2.63914659358,-0.0701159968231,2.1109626567,-0.903499705979,-0.373890009276,0.0678329807556,0.019854970432,0.050946307334,0.00760940116373,0.012111408656,-0.38538635507,0.57371697398,0.81901787912,0.0062685205741,0.0,0.819017352018,-0.573623783634,-0.0121276066953,0.0,-0.00633707623327,0.0120920737464,-0.999906807266,0.0,0.262463347973,-0.263141089224,0.304890084985,1.0,-0.0827234285715,-0.108722220408,3.46
-0.659181611449,-0.516614972694,-0.130198937412,-2.63826781344,-0.0698984144812,2.11119313006,-0.91010116003,-0.366897605624,0.0681376236181,0.0172901857084,0.051769632348,0.0144839613976,0.0143882601626,-0.369143515129,0.573726010127,0.819011481309,0.00627739512819,0.0,0.819010934446,-0.573632518903,-0.0121478152778,0.0,-0.00634840443223,0.0121110060153,-0.999906506277,0.0,0.260988749371,-0.265048776711,0.304883777654,1.0,-0.0790102857143,-0.103842089796,3.478
-0.664557311062,-0.515600204899,-0.129972771919,-2.63748083742,-0.0697096650144,2.11141535788,-0.915382028362,-0.348270142945,0.0663690663056,0.00903202348058,0.0549298954558,0.0167282291686,0.0147802183631,-0.351358127687,0.573766155485,0.818983304282,0.00628434790967,0.0,0.818983031214,-0.573672973856,-0.0121186035208,0.0,-0.00631989507824,0.0121002518196,-0.999906817075,0.0,0.259816485821,-0.266600708258,0.304891561501,1.0,-0.0759160000001,-0.0997753142858,3.493
-0.670719979513,-0.514354285073,-0.129775838224,-2.63654163164,-0.0694911916807,2.11165417736,-0.921451637581,-0.335572082991,0.0642977970575,0.0144525745522,0.0513504686873,0.0176002235214,0.0126928343397,-0.331063746223,0.573846491494,0.818926697089,0.00632581194856,0.0,0.818926768676,-0.573752726815,-0.0121450779689,0.0,-0.00631659834624,0.0121500210452,-0.999906234391,0.0,0.258451719155,-0.268392744902,0.304883507908,1.0,-0.0722028571429,-0.0948951836735,3.511
-0.67622428292,-0.513234895418,-0.129529009143,-2.63570024713,-0.0692771269769,2.11188449757,-0.926923419813,-0.316441730137,0.0643712071917,0.0143844307951,0.0506104337277,0.0137733628932,0.0126249807032,-0.315561499719,0.57383435808,0.818935066844,0.00634292371519,0.0,0.818935278667,-0.573740357359,-0.0121555992324,0.0,-0.00631557674526,0.0121699787927,-0.999905998135,0.0,0.257243456889,-0.269973604181,0.304877805856,1.0,-0.0686960000001,-0.0902861714286,3.528
-0.681110538012,-0.512210740006,-0.129245007785,-2.63493943273,-0.0690868256411,2.11208112536,-0.931826486241,-0.299598698867,0.0618160457067,0.0181223314533,0.0425226917706,0.0116461817665,0.0137806681915,-0.30001866966,0.573740702846,0.819000795665,0.0063284673642,0.0,0.819000593692,-0.573646357438,-0.0121914326965,0.0,-0.00635461317306,0.0121779741562,-0.999905653468,0.0,0.256179034769,-0.271360700616,0.304868362702,1.0,-0.0653954285715,-0.0859482775511,3.544
-0.686162211788,-0.511121547624,-0.129000463398,-2.63410023285,-0.0688810381194,2.11232019881,-0.936761200758,-0.288319263997,0.0674658417267,0.0135219600396,0.0465968359132,0.0146187156579,0.0119691467998,-0.286330559728,0.57379504604,0.818962700556,0.00633144054028,0.0,0.818962676379,-0.573700941449,-0.0121701018944,0.0,-0.00633462807601,0.0121685919501,-0.999905894501,0.0,0.25507695048,-0.272818659876,0.304872760762,1.0,-0.0618885714286,-0.0813392653062,3.561
-0.690865830251,-0.510062906888,-0.128795270771,-2.63331017284,-0.06868246116,2.11254274295,-0.941418918739,-0.272668634635,0.0631787693055,0.0132717797978,0.040849077173,0.0124295155103,0.0207427572462,-0.269637306883,0.573813467622,0.81894961925,0.00635392854472,0.0,0.818949782092,-0.573719049301,-0.0121841611565,0.0,-0.00633296622519,0.0121952189561,-0.999905580629,0.0,0.254040015856,-0.274177851753,0.304863424395,1.0,-0.0583817142858,-0.0767302530613,3.578
