nelsonifechukwu/NELSON_IML_WORK/CNN-GradCAM/train2dof/data_sample_2022-02-21-09-53-34/robot_state.csv
position_joint1,position_joint2,position_joint3,position_joint4,position_joint5,position_joint6,position_joint7,velocity_joint1,velocity_joint2,velocity_joint3,velocity_joint4,velocity_joint5,velocity_joint6,velocity_joint7,ee_T_00,ee_T_10,ee_T_20,ee_T_30,ee_T_01,ee_T_11,ee_T_21,ee_T_31,ee_T_02,ee_T_12,ee_T_22,ee_T_32,ee_T_03,ee_T_13,ee_T_23,ee_T_33,v_x,v_y,time
0.465081847397,0.547647141114,-0.123963680491,-1.3557592567,0.0794649598655,1.89408685176,0.159175842095,0.0017434680168,0.000344803520485,-0.000212492056126,-0.00730824578081,0.0001286656496,-0.000141882408742,0.00150875984178,0.573781699032,0.818993837247,0.00209840624376,0.0,0.818952877373,-0.573722784556,-0.0117939825357,0.0,-0.00845545833382,0.00848583054745,-0.999928245378,0.0,0.661688952731,0.260914194123,0.303342361921,1.0,0.0,0.0,0.0
0.465081839084,0.547639745405,-0.123968733442,-1.355749399,0.0794647039721,1.89408331963,0.159166943005,0.000953322539233,-0.00162700182779,-0.00130220861577,0.000591277785472,-9.28218825646e-05,-0.000177922394689,-0.00151112259533,0.573777303524,0.818996889779,0.00210888451372,0.0,0.818956099046,-0.573718381633,-0.0117844521934,0.0,-0.00844168641248,0.00848889847532,-0.999928335699,0.0,0.661691881546,0.260912252522,0.30335215329,1.0,-0.00018,-0.000236571428571,0.01
0.465078859761,0.547641132503,-0.123961437334,-1.35576025178,0.079462111971,1.89408522367,0.159167550704,0.000362558819424,0.00148183737244,0.00166092545362,-0.00152727533717,4.72441256659e-05,-0.00130605437879,-0.00367736688006,0.573775065924,0.818998478601,0.00210063676111,0.0,0.818957558449,-0.573716154275,-0.0117914665776,0.0,-0.0084521866742,0.00848614525056,-0.999928270367,0.0,0.661688983109,0.260912904501,0.303345923944,1.0,-0.00054,-0.000709714285714,0.028
0.465075107791,0.547616779737,-0.123961174838,-1.35577896612,0.07946413051,1.89409397209,0.159168423404,-0.00152520038575,-0.00348165370289,0.000777467683046,-0.00294031012311,-0.000103979892657,-0.000220263111686,0.00021035412397,0.57378024226,0.818994815372,0.00211492001393,0.0,0.818954054531,-0.573721247572,-0.0117870078137,0.0,-0.00844028624096,0.00849533808089,-0.999928292829,0.0,0.661687887988,0.260909596033,0.303355023382,1.0,-0.00088,-0.00115657142857,0.045
0.46508329563,0.547510807025,-0.123967169235,-1.35588533386,0.0794629077071,1.89411429344,0.159174421486,0.000660478929846,-0.00521630477399,-0.00157889172,-0.00370269326739,0.000555099510512,0.00533854234809,0.00105321169017,0.573788069788,0.818989279693,0.00213485785943,0.0,0.818948738682,-0.573728956758,-0.0117811073116,0.0,-0.0084239330054,0.00850836178786,-0.999928319997,0.0,0.661669666939,0.260901494704,0.303381426949,1.0,-0.00122,-0.00160342857143,0.062
0.465080307211,0.547364243342,-0.123966130428,-1.35606270616,0.0794572101934,1.89415948815,0.159162239981,0.000753215191409,-0.0082968107791,-0.00137921140131,-0.0114988258701,-0.000348367812001,-0.00105432674091,-0.00164833423913,0.573788038089,0.818989257827,0.00215169958091,0.0,0.818948859878,-0.573728782913,-0.0117811486353,0.0,-0.00841430419689,0.00852217815882,-0.999928283411,0.0,0.661642748918,0.260883135833,0.303404703823,1.0,-0.00156,-0.00205028571429,0.079
0.465059143313,0.547217218716,-0.123963392439,-1.35626757657,0.0794530970575,1.89424993718,0.159157911544,-0.00127930361227,-0.00883393087676,0.000133566916372,-0.0117429341596,-0.000130616247963,0.00592424641191,-0.000438247717779,0.573810364617,0.81897352933,0.00218417395859,0.0,0.818933487212,-0.573750913837,-0.0117719707426,0.0,-0.00838792211502,0.00854373651406,-0.999928321096,0.0,0.661622823115,0.260853811406,0.303419092871,1.0,-0.00188,-0.00247085714286,0.095
0.465036027316,0.547025968205,-0.123962225653,-1.35648008631,0.079451903373,1.89436631936,0.15914052554,-0.00296954621522,-0.0107333403674,-0.000764988063893,-0.0133232520252,0.000147784286699,0.00718867850918,-0.00230729265006,0.573825969684,0.818962357453,0.00227167167748,0.0,0.818923396419,-0.573766126847,-0.0117324072937,0.0,-0.00830515157588,0.00859285051669,-0.999928591139,0.0,0.661608186594,0.260824203531,0.303463478295,1.0,-0.00222,-0.00291771428571,0.112
0.465001339512,0.546793125524,-0.12396436353,-1.35676393513,0.0794474566406,1.89450844145,0.159127344569,-0.00144996281857,-0.0171433109507,-3.45554671628e-05,-0.0157967725923,-0.000404752797295,0.000488479251257,-0.00300410527275,0.573859930379,0.818938324943,0.00235523790963,0.0,0.818900401885,-0.573799724073,-0.0116942441904,0.0,-0.00822558825415,0.00863972976923,-0.999928844852,0.0,0.661587367723,0.260778323955,0.303505696925,1.0,-0.0026,-0.00341714285714,0.131
0.464971517895,0.546572867422,-0.123958736009,-1.35710274012,0.0794405118697,1.89463482293,0.159089417919,-0.000186132636799,-0.020485614009,0.000431112392689,-0.0229736562353,-8.06986411443e-05,0.00564738613598,-0.00339164357938,0.573866478808,0.818933691975,0.00237055903494,0.0,0.818895822911,-0.573806063113,-0.0117038478262,0.0,-0.00822459251227,0.0086578535227,-0.999928696283,0.0,0.661547539682,0.260731985383,0.303511199665,1.0,-0.00292,-0.00383771428571,0.147
0.464924628137,0.546298775576,-0.123966949558,-1.35751797019,0.0794231060242,1.89478912425,0.158953322301,-0.00150753665174,-0.0135049750485,-0.00117982801244,-0.03007775209,-0.00643831583175,0.00949399206674,-0.00398395474504,0.573817771401,0.818967779744,0.00238492505881,0.0,0.818930062889,-0.573757272925,-0.0117000326023,0.0,-0.00821373976533,0.00866694032705,-0.999928706771,0.0,0.661505356084,0.260658180988,0.303521299138,1.0,-0.00326,-0.00428457142857,0.164
0.46487776618,0.545998112376,-0.123966494564,-1.35799465947,0.0794103662422,1.89494644296,0.158930293447,-0.00239472732903,-0.019912342228,-0.000335896414522,-0.0330816000312,0.000129502792451,0.0121935830545,-0.00537384376114,0.573860132902,0.818938117476,0.00237792181144,0.0,0.818900143184,-0.573799479401,-0.0117243265171,0.0,-0.00823720618088,0.0086755711168,-0.99992843889,0.0,0.661448074405,0.260583425594,0.303520924585,1.0,-0.0036,-0.00473142857143,0.181
0.464831663623,0.545673318441,-0.123964393294,-1.35852532552,0.0793585914621,1.89513531892,0.15887987031,-0.00103200705957,-0.0178827515582,-0.000337895261859,-0.0349801801517,-0.00474485836666,0.0141017922056,5.24189949508e-05,0.573871024937,0.818930558428,0.00235246954444,0.0,0.818892401693,-0.573810619901,-0.0117198054241,0.0,-0.00824799359244,0.00865224276841,-0.999928552096,0.0,0.661386900282,0.260499859095,0.303514537344,1.0,-0.00394,-0.00517828571429,0.198
0.464774270357,0.545345510935,-0.123969828731,-1.35908816855,0.0792644905233,1.8953237743,0.158784279718,-0.00768624638609,-0.0203727102584,-0.0014331308604,-0.0339524772667,-0.00424927211552,0.0160379970205,-0.00323561929346,0.573849925292,0.818945553839,0.00227815518622,0.0,0.818906950354,-0.573790338475,-0.0116961974799,0.0,-0.00827152474008,0.00857762431189,-0.999929000599,0.0,0.661325318025,0.260393799662,0.303495077979,1.0,-0.00426,-0.00559885714286,0.214
0.464707832265,0.54492329575,-0.123969696795,-1.3598166945,0.0792567341832,1.89555298042,0.158695092593,-0.0048056811873,-0.0163944920381,-0.000840442508408,-0.0431868827203,0.000580038616016,0.0140183954925,-0.0119459905864,0.57386962599,0.818931874512,0.00223252674007,0.0,0.818892298385,-0.573809816296,-0.0117662767541,0.0,-0.00835489417723,0.00858067299807,-0.999928281325,0.0,0.661232451941,0.260283307034,0.303467074122,1.0,-0.00462,-0.006072,0.232
0.464650110896,0.544519543947,-0.123967732545,-1.36048571169,0.0792338706284,1.89578380497,0.158636424711,3.04892236203e-05,-0.0313744966421,0.000589435203483,-0.042798328625,-0.00114833074024,0.0149086938409,-0.00352123298664,0.57389865318,0.818911586639,0.00221270118298,0.0,0.818871560857,-0.573838719476,-0.0117999046895,0.0,-0.00839350665909,0.00858403274963,-0.999927929117,0.0,0.661151173888,0.26018413344,0.303454343047,1.0,-0.00494,-0.00649257142857,0.248
0.464584238558,0.54403399068,-0.123976090557,-1.36129405776,0.0792003557084,1.89607331615,0.158514232617,-0.00728716163735,-0.026086023675,0.000727309873074,-0.0443857832285,-0.00668133834287,0.0118519825134,-0.00614735961582,0.573894528897,0.818914537816,0.0021900588747,0.0,0.818874098888,-0.573834562855,-0.011825884531,0.0,-0.00842781954962,0.00858035811772,-0.99992767204,0.0,0.661056707453,0.260060390903,0.303438563497,1.0,-0.0053,-0.00696571428571,0.266
0.46452743028,0.543620427175,-0.123973609244,-1.36196915168,0.0791651243036,1.89631847604,0.158427849949,-0.00300967811134,-0.0305292829749,0.00049516559399,-0.0515787707376,-0.00700293330793,0.0167108299797,-0.00468231200311,0.573896805526,0.818912971538,0.00217911797365,0.0,0.81887231493,-0.573836805606,-0.011840577482,0.0,-0.0084461070072,0.00857985416087,-0.999927522063,0.0,0.660977313357,0.259960508749,0.30343100937,1.0,-0.00558,-0.00733371428571,0.28
0.464445523725,0.543096657128,-0.123975032231,-1.36281176291,0.0791124484394,1.89661174197,0.158335221965,-0.00398325538646,-0.0322670216932,0.00226211675825,-0.0563863939118,-0.000824250901211,0.0227596846735,-0.00608023180074,0.573921793087,0.81889552147,0.0021557450676,0.0,0.818854551955,-0.573861873721,-0.011854093499,0.0,-0.0084703272537,0.00856872923241,-0.999927412583,0.0,0.660880147719,0.259823785957,0.303425919733,1.0,-0.00592,-0.00778057142857,0.297
0.464385519186,0.542523716349,-0.123982858249,-1.36371964582,0.0790579837529,1.89692021632,0.158201950505,-0.00143004188219,-0.0347493002031,-0.000212744464722,-0.0610124865896,-0.000670490370887,0.00892760942475,-0.00359996289797,0.573903075139,0.8189087013,0.00213217797333,0.0,0.818867412033,-0.573843238951,-0.0118678355861,0.0,-0.00849530147367,0.00855712314825,-0.999927300106,0.0,0.660768019719,0.259691474926,0.303426006606,1.0,-0.00626,-0.00822742857143,0.314
0.464300493981,0.541947940906,-0.123986733383,-1.36464020344,0.0790110213673,1.89727157212,0.158087204242,-0.00128629714855,-0.0338883555257,-0.000439939635568,-0.0573588297276,-0.0101638834194,0.022566957053,-0.00420529750862,0.57392017332,0.818896697198,0.00214029812663,0.0,0.818855461614,-0.573860250079,-0.0118698468732,0.0,-0.00849210988198,0.00856510429005,-0.999927258883,0.0,0.660666631917,0.259547583034,0.303425603131,1.0,-0.0066,-0.00867428571429,0.331
0.464227673427,0.541348897595,-0.12398671136,-1.36554172815,0.0789547271227,1.8976005736,0.157961220471,-0.00141856236666,-0.0432051479254,0.000251051687564,-0.0575522048791,-0.00093178690626,0.0221255714741,-0.0148284732655,0.573908180065,0.818905024414,0.0021699641391,0.0,0.818864182431,-0.573848147692,-0.0118533127467,0.0,-0.00846167037583,0.00857978424431,-0.999927391082,0.0,0.660556700176,0.259404781308,0.303453412134,1.0,-0.00694,-0.00912114285714,0.348
0.464131089507,0.540673668531,-0.123981684865,-1.36657271631,0.0788900315969,1.89798235839,0.157835574497,-0.00951970660201,-0.0367407135424,0.000440194151123,-0.0585098152632,-0.00361609823553,0.0171062174112,-0.00719964281249,0.573924088113,0.818893837232,0.00218433691687,0.0,0.818853169056,-0.573863983437,-0.0118474867476,0.0,-0.00844848425954,0.00858837458755,-0.999927428835,0.0,0.660445553068,0.25925461162,0.303468036558,1.0,-0.00726,-0.00954171428571,0.364
0.464043508478,0.539960115329,-0.123990191495,-1.36766335004,0.0788310501213,1.89838677513,0.157694139358,-0.00598031845729,-0.0408131333169,-0.000273012913607,-0.0660117020076,-0.00689080586126,0.0241674729441,-0.0085192160252,0.573930570964,0.818889226738,0.00220928662859,0.0,0.818848856586,-0.573870340102,-0.0118376399399,0.0,-0.00842603397515,0.00860322091795,-0.999927490642,0.0,0.660321004385,0.259089651065,0.303488545172,1.0,-0.0076,-0.00998857142857,0.381
0.463941454362,0.539214054415,-0.123990227935,-1.36881365889,0.0787578438794,1.89882823147,0.157544334455,-0.0058616108299,-0.0495347785028,0.00074677968842,-0.0686195151945,-0.0109800086696,0.0218049758204,-0.0100767944098,0.573935623274,0.818885607616,0.00223805231818,0.0,0.818845657011,-0.573875325856,-0.0118172445749,0.0,-0.00839277008749,0.00861512291917,-0.999927667918,0.0,0.660193293183,0.258913611952,0.303506418686,1.0,-0.00794,-0.0104354285714,0.398
0.463813532658,0.538373043405,-0.123996224259,-1.37012382369,0.0786866439856,1.89934141851,0.157385507636,-0.00877108038565,-0.043552534884,0.00100115031858,-0.0692496620742,-0.000602909598787,0.0335359924014,-0.0141991650662,0.573968031134,0.818862786332,0.0022766856838,0.0,0.818823325967,-0.573907567881,-0.011798783084,0.0,-0.0083551381102,0.00863649391959,-0.999927798713,0.0,0.660053101876,0.258704511392,0.303521581858,1.0,-0.00832,-0.0109348571429,0.417
0.46372390721,0.537689838651,-0.12400760329,-1.37121792778,0.0786224042125,1.89975297734,0.157250817258,-0.00169922397537,-0.0470470943934,-0.000165596264492,-0.0759754103067,-0.00438837605926,0.0238103089776,-0.0101457729518,0.573982353126,0.818852754221,0.00227422661475,0.0,0.818813297439,-0.573921934283,-0.0117959394593,0.0,-0.00835406981883,0.00863299429359,-0.99992783786,0.0,0.659929172588,0.258535386211,0.303519353222,1.0,-0.00862,-0.0113291428571,0.432
0.463600237848,0.53681665579,-0.124003130535,-1.37257754563,0.0785425954875,1.90025802105,0.157087287526,-0.00348625545344,-0.0508858319173,3.57112008234e-05,-0.0786497293534,-0.00206025267015,0.0268170574669,-0.00815668619607,0.574000083007,0.818840277044,0.00229178953577,0.0,0.818800996858,-0.573939541071,-0.0117931183298,0.0,-0.0083414922456,0.0086459369178,-0.999927831037,0.0,0.659773154932,0.258327811966,0.303532337179,1.0,-0.00898,-0.0118022857143,0.45
0.463490055196,0.535967421417,-0.124019435254,-1.37390548193,0.0784739951333,1.90075135992,0.15692666408,-0.00257329229872,-0.0490735397472,2.41620963842e-05,-0.0771669382632,-0.00722434707523,0.0282325877979,-0.00352038564564,0.574024919658,0.818822826322,0.00230599351515,0.0,0.818783697231,-0.573964285502,-0.0117899540939,0.0,-0.00833048600077,0.00865600400257,-0.999927835695,0.0,0.659621847422,0.258121552856,0.303543012006,1.0,-0.00932,-0.0122491428571,0.467
0.463374443916,0.535113958875,-0.12401656197,-1.37523787694,0.0783826013712,1.90123765931,0.156752426848,-0.00412025866833,-0.0566527508864,0.000278570912632,-0.0843763503401,-0.00495800796369,0.040396253871,-0.0120180130765,0.574023472151,0.818823838774,0.00230681079011,0.0,0.818784777737,-0.573962894745,-0.0117826186566,0.0,-0.0083240255038,0.0086524478188,-0.999927920275,0.0,0.659466178477,0.257918238076,0.30355310462,1.0,-0.00964,-0.0126697142857,0.483
0.463259563194,0.534221588061,-0.124024680255,-1.37668919359,0.0783026402328,1.901763288,0.156588609487,-0.00981365575133,-0.0545526564959,-0.000626718166318,-0.0871442093146,-0.0031336054356,0.0314850766576,-0.00761844930129,0.574047228484,0.818807260909,0.00227944153685,0.0,0.818767779577,-0.573986686038,-0.0118048413323,0.0,-0.00835768161431,0.00864303614055,-0.99992772093,0.0,0.659293103757,0.257699943639,0.303537690178,1.0,-0.00998,-0.0131165714286,0.5
0.463144781583,0.533410179418,-0.124025093314,-1.3779939391,0.0782450271949,1.90223867573,0.156411416403,-0.0107368080326,-0.0568472191141,-6.54871145082e-05,-0.0838580118809,-0.00911411288759,0.0277224473905,-0.0135427597161,0.574052405959,0.818803643082,0.0022751241504,0.0,0.818763890889,-0.573991657703,-0.0118327834739,0.0,-0.00838298533213,0.00865559397104,-0.99992740049,0.0,0.659138606326,0.257502739332,0.303530186939,1.0,-0.01028,-0.0135108571429,0.515
0.462990691685,0.532242435816,-0.124025093368,-1.37988880899,0.0781209991399,1.90296071008,0.156178758769,-0.0130299788096,-0.0579596299774,-5.18014689348e-05,-0.0933559484466,-0.00685325712834,0.0393247639712,-0.0142013389911,0.574058469142,0.818799426783,0.00226265502126,0.0,0.818759595955,-0.573997854824,-0.0118293529352,0.0,-0.00838726975506,0.00864347716163,-0.999927469374,0.0,0.658918587028,0.257220522282,0.303514177541,1.0,-0.0107,-0.0140628571429,0.536
0.462894062725,0.531487926428,-0.124020178442,-1.38109136434,0.078053414109,1.90339109534,0.156029449351,-0.00753414122817,-0.0580358230549,0.00013221268322,-0.0946398050581,-0.00130318981982,0.0378208199357,-0.010290961453,0.574059213413,0.81879893599,0.00225140346204,0.0,0.818758851956,-0.573998532981,-0.0118479272665,0.0,-0.00840892985307,0.00864493476282,-0.999927274856,0.0,0.658771387757,0.257045147962,0.303510749483,1.0,-0.01096,-0.0144045714286,0.549
0.462754175908,0.530477849789,-0.12402509337,-1.38273171611,0.077955857961,1.90396835359,0.155820125082,-0.00858004151248,-0.0597600652474,-0.000691169687356,-0.0938218886585,-0.00949976641343,0.0294126612591,-0.0108575885956,0.57406875272,0.81879237244,0.00220564880981,0.0,0.818751632551,-0.574008190076,-0.0118789234172,0.0,-0.00846047429592,0.00862536337863,-0.999927009077,0.0,0.658572753727,0.256792099988,0.303491928115,1.0,-0.0113,-0.0148514285714,0.566
0.462617598908,0.529444505287,-0.12403000281,-1.3843752612,0.0778414837302,1.90457337771,0.155589550036,-0.0103894931375,-0.0629687170778,-0.000701198048669,-0.101056864477,-0.00871222289166,0.0394144449093,-0.0187711889052,0.574053712646,0.81880295595,0.00219116999178,0.0,0.818762153068,-0.57399333731,-0.0118714922478,0.0,-0.00846285890411,0.00860908701132,-0.999927129165,0.0,0.658379137939,0.256540357701,0.30349011692,1.0,-0.01164,-0.0152982857143,0.583
0.46247983788,0.528349209246,-0.124035435623,-1.38605434289,0.0777454918329,1.9052079836,0.155359934421,-0.00363767206068,-0.0618153128967,-0.00122179243715,-0.107151059411,-0.00564880586466,0.0442100444392,-0.00970297627949,0.574047585933,0.818807130318,0.00223591726495,0.0,0.818766884443,-0.573987008474,-0.0118511578919,0.0,-0.00842058724469,0.0086339898223,-0.99992727132,0.0,0.658183686819,0.25628910829,0.303517366329,1.0,-0.01198,-0.0157451428571,0.6
0.462352241509,0.527304421802,-0.124032188805,-1.38767564095,0.0776380437493,1.90584190213,0.155137046257,-0.00930379416607,-0.0691513777833,-0.00153529648226,-0.101388323055,-0.0116346017334,0.0413584581165,-0.011833939715,0.574026301205,0.818821932226,0.00227941491104,0.0,0.818782367148,-0.57396567524,-0.0118146432733,0.0,-0.00836594418538,0.00864842722381,-0.999927605222,0.0,0.657985126147,0.256036766686,0.303537998091,1.0,-0.01232,-0.016192,0.617
0.462198208662,0.526151591594,-0.124033639947,-1.38946586106,0.0775242959653,1.90651899168,0.154890281858,-0.0137676127304,-0.0710913865964,0.000158257149418,-0.107162160908,-0.0107356156624,0.041666902153,-0.0112863393527,0.57401733692,0.818828134625,0.00230862780784,0.0,0.818788975346,-0.573956626685,-0.0117962467611,0.0,-0.00833420696144,0.0086616959132,-0.999927755399,0.0,0.657787609422,0.255781924748,0.303553788388,1.0,-0.01264,-0.0166125714286,0.633
0.46204149563,0.524968462598,-0.124037890745,-1.39130365266,0.07740715543,1.90716810463,0.154644740823,-0.00750644227374,-0.0612954742924,-0.0016883517565,-0.111090424331,-0.00452568554882,0.0381460978085,-0.0148976761147,0.574014746906,0.818829972206,0.00230083742156,0.0,0.818790713315,-0.573954068562,-0.0118000792609,0.0,-0.00834184418038,0.00865749050756,-0.999927728135,0.0,0.657564321541,0.255498907737,0.303567650302,1.0,-0.01298,-0.0170594285714,0.65
0.461879410351,0.523805514775,-0.124043454648,-1.39320455469,0.0772907260611,1.90784718502,0.154373071356,-0.00654425682797,-0.0677379759872,0.000377589932671,-0.112366555238,-0.00677468518471,0.0421224468307,-0.0236227743618,0.573999617635,0.818840724277,0.00224813733302,0.0,0.818800743901,-0.57393910766,-0.0118317111022,0.0,-0.00839815464403,0.00863234036859,-0.999927474219,0.0,0.657332680276,0.255206019145,0.303539669122,1.0,-0.01332,-0.0175062857143,0.667
0.461713309247,0.522572595885,-0.124049617141,-1.39512983839,0.0771737023127,1.90858462533,0.154123510853,-0.0107488611996,-0.0758102748431,-0.000528338725693,-0.115044496243,-0.00854065545159,0.0516337400178,-0.0197088148607,0.574007419366,0.818835157864,0.00228334424523,0.0,0.818795674105,-0.573946811854,-0.0118088158029,0.0,-0.00835911634114,0.00864810677814,-0.999927665095,0.0,0.657109365772,0.254912034689,0.30355399817,1.0,-0.01366,-0.0179531428571,0.684
0.461551926819,0.521359772611,-0.124055973811,-1.39709253197,0.0770551878656,1.9093530488,0.153858480319,-0.00739310325573,-0.0733779519981,-0.00161054096939,-0.119885380843,-0.00558069210291,0.0469937385843,-0.0169662200053,0.574000370266,0.818840067942,0.00229455183556,0.0,0.818800776576,-0.573939768895,-0.0117973243291,0.0,-0.00834334794028,0.00865061590908,-0.999927775087,0.0,0.656881165471,0.254618219974,0.303538799511,1.0,-0.014,-0.0184,0.701
0.461387845739,0.520149189064,-0.124062749383,-1.39900315652,0.076936190967,1.91005359215,0.153598879307,-0.0106461636408,-0.0733556338749,-0.000337766067847,-0.113430349772,-0.00853045533169,0.0447384729272,-0.022487002419,0.573996681506,0.818842662681,0.00229135216991,0.0,0.818803346327,-0.57393611008,-0.0117969695597,0.0,-0.00834493288046,0.00864775469954,-0.99992778661,0.0,0.656651778924,0.254323942977,0.303540564478,1.0,-0.01432,-0.0188205714286,0.717
0.461213470241,0.518721776121,-0.12407160229,-1.40119958719,0.0767945704164,1.91083487606,0.153300713026,-0.0110390629444,-0.0793099313357,-0.00126610632121,-0.125570143178,-0.00870831875005,0.0382206210291,-0.0194206594328,0.573979849737,0.81885444597,0.00229680480789,0.0,0.818815236114,-0.57391929646,-0.0117897056584,0.0,-0.00833603279006,0.00864787875179,-0.999927859773,0.0,0.656380309019,0.253992522379,0.303565168349,1.0,-0.01468,-0.0192937142857,0.735
0.461049162043,0.517463606592,-0.124072589676,-1.4031859249,0.0766580120335,1.9115530887,0.153034489403,-0.00452674613185,-0.0735670205433,-0.00103168951397,-0.125852386028,-0.00761269988424,0.0354994610803,-0.0124518254262,0.57396533611,0.818864667815,0.00227939668361,0.0,0.818825315519,-0.573904938098,-0.0117886213347,0.0,-0.0083452891533,0.00863285392449,-0.999927912393,0.0,0.656136101699,0.253691600352,0.303564880414,1.0,-0.015,-0.0197142857143,0.751
0.460854958177,0.516096625451,-0.124081233575,-1.40532421878,0.0765302076653,1.91235448365,0.152728599334,-0.0131675450932,-0.0807166428982,-0.000909155692389,-0.125239555959,-0.00246677094633,0.0491857018403,-0.0171204090066,0.573958671962,0.818869271204,0.00230357521043,0.0,0.818830231056,-0.573898180344,-0.0117761711949,0.0,-0.00832128731293,0.0086454390531,-0.999928003689,0.0,0.655883494728,0.25335704887,0.303575697615,1.0,-0.01534,-0.0201611428571,0.768
0.460682034347,0.514813571416,-0.124090157842,-1.40739510119,0.0764023364242,1.91313366133,0.152456569583,-0.0112203635066,-0.0805347690181,-0.00246722495179,-0.126295684802,-0.0116283589135,0.050322787232,-0.00955851134059,0.573958683487,0.818869298507,0.00229096355456,0.0,0.818830128543,-0.573898275246,-0.0117786739865,0.0,-0.00833057486144,0.0086365484767,-0.999928003185,0.0,0.655634131275,0.253041732574,0.303557471656,1.0,-0.01566,-0.0205817142857,0.784
0.460494561014,0.513410215356,-0.124090172391,-1.40966807985,0.0762717864733,1.91391475536,0.15212892999,-0.00979906474655,-0.0791884355578,-0.0030952439606,-0.134147195087,-0.00598450247631,0.0436193059897,-0.0242479653172,0.573927926043,0.818891048249,0.00222119497248,0.0,0.818850765647,-0.573867579906,-0.0118393932991,0.0,-0.00842066352982,0.00861395149086,-0.9999274435,0.0,0.655341287011,0.252699495983,0.303526872593,1.0,-0.016,-0.0210285714286,0.801
0.460306381104,0.51207223342,-0.124093778941,-1.41180908098,0.0761343086339,1.91467234133,0.151831125309,-0.0156655494829,-0.0865028239256,-0.000111273984434,-0.134720799527,-0.00807930069345,0.0522000937054,-0.0215196432871,0.573915566638,0.818899825517,0.00217831123563,0.0,0.818858968922,-0.573855375166,-0.0118635707528,0.0,-0.00846520338949,0.00859258305716,-0.999927251278,0.0,0.655073947106,0.252366856114,0.303510895807,1.0,-0.01632,-0.0214491428571,0.817
0.460115300407,0.510638209087,-0.124092286924,-1.41410976774,0.0759953069482,1.91555912324,0.151504281291,-0.00978464343878,-0.0824425895044,0.00197942973492,-0.136177834433,-0.0123711292216,0.0555138702797,-0.0242048785606,0.573886325856,0.818920276556,0.00219375080518,0.0,0.818879602802,-0.573826058357,-0.0118573928553,0.0,-0.00845159077805,0.00860137901114,-0.999927290803,0.0,0.654795729836,0.252026091775,0.303496820006,1.0,-0.01666,-0.021896,0.834
0.459913467043,0.509141312801,-0.124092611683,-1.41647301668,0.0758529594213,1.91643276065,0.151179141348,-0.00962917789765,-0.0874619775211,0.00111276253545,-0.138265974801,-0.00661670930921,0.0508079482226,-0.0165032141977,0.573870260879,0.818931516851,0.00220029277461,0.0,0.818890864514,-0.573809904581,-0.0118613794162,0.0,-0.00845127036337,0.00860885829957,-0.999927229146,0.0,0.654503970508,0.251669312549,0.303495373612,1.0,-0.017,-0.0223428571429,0.851
0.459706575578,0.507647165597,-0.124101064938,-1.4188486702,0.0757010870376,1.91727023955,0.150845807499,-0.0118648033235,-0.0842360977035,-0.00217656453544,-0.136752526979,-0.00621924606491,0.052389016296,-0.0174826402651,0.573854738689,0.818942506042,0.00215814315609,0.0,0.818901293035,-0.573794540277,-0.0118846419909,0.0,-0.00849467128408,0.00858752968172,-0.999927044786,0.0,0.654204585017,0.251299129771,0.303482708264,1.0,-0.01734,-0.0227897142857,0.868
0.459487315916,0.506083684358,-0.124106732839,-1.42128748341,0.0755465746169,1.91816891592,0.150514463734,-0.012812092289,-0.0903328643351,-0.000761543245361,-0.140652411636,-0.00655531975333,0.0501758634685,-0.020658343459,0.573851337395,0.818944848419,0.00217364182993,0.0,0.818903860175,-0.573791100636,-0.0118738166705,0.0,-0.00847694786292,0.00859397472218,-0.999927139822,0.0,0.653905761231,0.250919659079,0.303493119575,1.0,-0.01768,-0.0232365714286,0.885
0.459266767281,0.504464450158,-0.124109622017,-1.42375386738,0.0753886982765,1.91912946352,0.150168524817,-0.0107520863908,-0.0980365540554,0.000840962403048,-0.145244842271,-0.0107007925263,0.0593755920245,-0.0197485963239,0.57383537433,0.818955788153,0.00226431457402,0.0,0.818916083357,-0.573774889057,-0.011814059738,0.0,-0.00837614702729,0.00863377524147,-0.999927646426,0.0,0.653613007952,0.250542102609,0.303534020113,1.0,-0.01802,-0.0236834285714,0.902
0.459032918046,0.502795527234,-0.1241124831,-1.42622083174,0.0752299608529,1.92006585452,0.149818689227,-0.0120893575142,-0.10304242874,-0.000123149365922,-0.139361901339,-0.00872283006255,0.0443449375551,-0.0240314913968,0.573826151222,0.81896192759,0.00237828365388,0.0,0.81892378667,-0.573765320227,-0.0117446086632,0.0,-0.00825396958184,0.00868716389724,-0.999928200007,0.0,0.65331889797,0.250154803854,0.303606550802,1.0,-0.01836,-0.0241302857143,0.919
0.458799461043,0.501091430013,-0.124121917666,-1.42877684184,0.0750663408332,1.92097531221,0.149461681034,-0.011756395703,-0.101309788357,-0.00246561921581,-0.153443570961,-0.00745673090304,0.053237116112,-0.0171478506638,0.573817879213,0.818967588064,0.00242447869435,0.0,0.81893006069,-0.573756892808,-0.0117188120177,0.0,-0.00820642384989,0.00871011003983,-0.999928391731,0.0,0.652999429064,0.24975140086,0.303658494922,1.0,-0.0187,-0.0245771428571,0.936
0.458588333794,0.499571887242,-0.124117061254,-1.43107509474,0.0749141145335,1.92179403806,0.14914333012,-0.0149249051796,-0.102622439127,-0.000116008966256,-0.150524123498,-0.0104923247088,0.0541696643044,-0.0270959281921,0.573802191734,0.818978485685,0.00245594126514,0.0,0.818941360521,-0.573741085713,-0.0117030549078,0.0,-0.00817563318468,0.00872667845274,-0.999928499496,0.0,0.652708631749,0.249394881185,0.303695443671,1.0,-0.019,-0.0249714285714,0.951
0.4582866084,0.497616740964,-0.124117075967,-1.4341872951,0.0747271397186,1.92295381421,0.148695103853,-0.0194550998488,-0.100791608937,-0.000760607987827,-0.15986656613,-0.0102836368947,0.0573465808283,-0.020332586228,0.573790034817,0.818986993641,0.00245908367088,0.0,0.818949817536,-0.57372882095,-0.0117125261862,0.0,-0.00818171695744,0.00873456509917,-0.999928380875,0.0,0.652325317787,0.248903148316,0.303678020446,1.0,-0.0194,-0.0254971428571,0.971
0.458041165286,0.496033733488,-0.124114883448,-1.43670800623,0.0745701906017,1.92384350818,0.148310684149,-0.0188247067332,-0.099373524188,0.000802637445244,-0.159871482766,-0.0105808320373,0.0605732551947,-0.0147054965088,0.573759534432,0.819008480973,0.00241901734461,0.0,0.818970670719,-0.573698350745,-0.01174690408,0.0,-0.00823318632005,0.00872117038273,-0.999928075329,0.0,0.652003710557,0.2485014468,0.303658491429,1.0,-0.01972,-0.0259177142857,0.987
0.457756386227,0.494266061,-0.124122764785,-1.43960481559,0.0743916640286,1.9248461384,0.14790357866,-0.0139285653176,-0.0983032785069,-0.000964707177793,-0.160649196627,-0.00707799907634,0.0510714405006,-0.0259804285145,0.573762516782,0.819006705712,0.00231024578002,0.0,0.818967340063,-0.573701595993,-0.0118203877212,0.0,-0.00835574599065,0.00867427825635,-0.999927466572,0.0,0.65163032533,0.248030419889,0.30359818452,1.0,-0.020428,-0.0268482285714,1.005
0.457485700163,0.492565244718,-0.124124413945,-1.44232080553,0.074216789465,1.92585246815,0.147522973363,-0.0113170875492,-0.111231547523,0.00157822189188,-0.171588147904,-0.00624805865139,0.0636950385702,-0.0303468979476,0.573762712706,0.819006605954,0.00229691380471,0.0,0.818967078444,-0.5737018554,-0.0118259222098,0.0,-0.00836792580834,0.00866653685308,-0.999927431845,0.0,0.651293344375,0.247593658563,0.303576737452,1.0,-0.02222,-0.0292034285714,1.021
0.457175797151,0.490615232014,-0.124134097749,-1.44545350311,0.0740210910364,1.92696613209,0.147070818325,-0.0195269352254,-0.116435341889,-0.00166338843248,-0.185560488929,-0.0142752283014,0.0644513616127,-0.0313084220738,0.573756653137,0.819011021545,0.00223527867317,0.0,0.818970610267,-0.573695953631,-0.011867569543,0.0,-0.00843746237195,0.00863989086564,-0.999927078098,0.0,0.650894162721,0.247084717064,0.303539196223,1.0,-0.024124,-0.0317058285714,1.038
0.456880918878,0.488770835582,-0.124148321411,-1.44842009911,0.0738443774433,1.92801740024,0.146645242948,-0.0199207975235,-0.12592633485,5.21038594218e-05,-0.205101047851,-0.0128543276353,0.0676759588233,-0.0308339537276,0.573759681272,0.819009059741,0.00217603076627,0.0,0.818967737078,-0.57369907599,-0.0119148115507,0.0,-0.00851011561134,0.00861850340313,-0.999926646975,0.0,0.650514847433,0.246600177509,0.303501190264,1.0,-0.025804,-0.0339138285714,1.053
0.456502948743,0.486451843716,-0.124168888697,-1.45197836269,0.0736295365627,1.92940293944,0.146141065608,-0.0277517218642,-0.146781185573,-9.69715303429e-06,-0.213603847604,-0.0158875305264,0.0816233193039,-0.0257652571731,0.573789853839,0.818987593257,0.00229621956488,0.0,0.818947922771,-0.573728857141,-0.0118425155129,0.0,-0.00838162722363,0.00867576652352,-0.999927237053,0.0,0.65009254148,0.246010494305,0.303539371666,1.0,-0.027708,-0.0364162285714,1.07
0.456055949495,0.483703630551,-0.124205448848,-1.4562162035,0.0733614790286,1.93091292553,0.145477850694,-0.0305701005151,-0.149088110736,-0.0010838109339,-0.232276855127,-0.015336806043,0.0836462677504,-0.0381611352689,0.573774902676,0.818998039362,0.0023064001993,0.0,0.818958536627,-0.57371390487,-0.0118329009717,0.0,-0.00836806994252,0.00867843482226,-0.999927327447,0.0,0.649560736056,0.245292232793,0.303561929929,1.0,-0.029836,-0.0392130285714,1.089
0.455644493265,0.481205465722,-0.124240506232,-1.46009399395,0.073124181755,1.93225932714,0.144901016048,-0.0293428559582,-0.16323406413,-0.00110951743721,-0.249703280483,-0.0192771005864,0.0850465436056,-0.0424530170757,0.573790015475,0.818987533927,0.00227690910361,0.0,0.818947555977,-0.573729036216,-0.0118591931665,0.0,-0.00840636434879,0.00866952269129,-0.999927083549,0.0,0.649064325718,0.244631567985,0.30356659186,1.0,-0.031628,-0.0415682285714,1.105
0.45517947967,0.478415253408,-0.12425693587,-1.4643797884,0.0728629215422,1.93383837349,0.144278878053,-0.0314555314946,-0.164366590167,0.000772195999005,-0.251074191606,-0.01311939909,0.0959580511844,-0.0367110462494,0.573811153544,0.818972521904,0.00234847522871,0.0,0.818933410226,-0.573749825886,-0.0118302076545,0.0,-0.0083413383405,0.00871171765633,-0.99992726138,0.0,0.648529064703,0.243914726855,0.303597422703,1.0,-0.033532,-0.0440706285714,1.122
0.454685326277,0.475474918327,-0.124276444081,-1.46886672023,0.0725839479833,1.93549911471,0.143644204645,-0.0270134489684,-0.17443155856,-2.68515467134e-06,-0.269181454808,-0.0168225079203,0.101196437158,-0.0370012250406,0.573851577088,0.81894392188,0.00244278338467,0.0,0.818906040108,-0.573789889732,-0.0117816305241,0.0,-0.00824700907911,0.00876148601107,-0.999927608982,0.0,0.647969782606,0.243158502495,0.303641681823,1.0,-0.035436,-0.0465730285714,1.139
0.454198822645,0.472560288565,-0.124294968588,-1.4733740145,0.0723006271523,1.93707177191,0.14297545229,-0.0324191499462,-0.184611999306,-0.00131097131669,-0.288710868652,-0.0193309412999,0.0980968444059,-0.034315757952,0.573854824211,0.818941696585,0.00242594854726,0.0,0.818903452683,-0.573793047945,-0.0118076337649,0.0,-0.00827793059283,0.00876265394815,-0.999927343241,0.0,0.647381656365,0.242399196482,0.303648880475,1.0,-0.037228,-0.0489282285714,1.155
0.453649149831,0.469315631853,-0.12428825286,-1.47830262926,0.0719884434519,1.93889280328,0.142201950435,-0.0365910221689,-0.196169534509,0.00208269703595,-0.289382502355,-0.0190545009901,0.117225127231,-0.0547417647183,0.573816729717,0.818968029355,0.00254450224459,0.0,0.818931242178,-0.57375442606,-0.0117569580508,0.0,-0.00816881061604,0.00883028161431,-0.999927645712,0.0,0.646754711241,0.241580885046,0.303702046008,1.0,-0.039132,-0.0514306285714,1.172
0.453057333241,0.465726911748,-0.124299363034,-1.48374359494,0.0716185466538,1.94090002701,0.14133993226,-0.0356154358841,-0.196955100715,-0.000293234728206,-0.312945859845,-0.0268379431439,0.102430275984,-0.0373073696091,0.573759519997,0.819007740288,0.00266110183179,0.0,0.818972652919,-0.57369700834,-0.0116740436238,0.0,-0.0080346206199,0.00887763421484,-0.999928313672,0.0,0.646058911701,0.240672982979,0.303762745496,1.0,-0.041148,-0.0540802285714,1.19
0.452518157762,0.462612958657,-0.124305892893,-1.48858891788,0.071305033058,1.94255255909,0.140616781722,-0.0419321763391,-0.212637649689,-0.00076204755709,-0.326418217352,-0.0324057193963,0.121676627507,-0.0499577000001,0.573754714573,0.819011319437,0.00259481031964,0.0,0.818975151178,-0.573692197899,-0.0117350212931,0.0,-0.00812264922368,0.00885827951569,-0.999927774119,0.0,0.645406991705,0.239852023518,0.303746306108,1.0,-0.042828,-0.0562882285714,1.205
0.451846616756,0.458775414265,-0.124313085684,-1.49457365357,0.0709004869267,1.94464468834,0.139735944438,-0.038723123299,-0.211817151031,0.000258544259152,-0.336739193702,-0.0224280387907,0.123761895836,-0.0504834537922,0.573755492366,0.819010955449,0.00253707200793,0.0,0.818973971045,-0.573693115134,-0.0117724806334,0.0,-0.00818644748249,0.00883249141218,-0.999927481957,0.0,0.644608038815,0.238836357583,0.303721307462,1.0,-0.044844,-0.0589378285714,1.223
0.451236467154,0.455524595774,-0.124319112738,-1.49976006429,0.0705555924923,1.94649003036,0.138924477285,-0.0434032469387,-0.214318807018,-0.00172004301202,-0.348358884913,-0.0201100097564,0.11996530254,-0.0506575544089,0.573739575613,0.819022365657,0.00245169947459,0.0,0.818984178056,-0.573677420792,-0.011827081986,0.0,-0.00828031945763,0.0087937373851,-0.999927050585,0.0,0.643921403122,0.237941015032,0.303648542432,1.0,-0.046524,-0.0611458285714,1.238
0.450563270508,0.451819710226,-0.124372580211,-1.50540162868,0.0701547103942,1.94851557525,0.138006481274,-0.0370512740413,-0.238664930315,-0.00306238038309,-0.348767989703,-0.0225507671894,0.135825785605,-0.0572744893706,0.573725192795,0.819032302765,0.00249741471728,0.0,0.818995091852,-0.573663276526,-0.0117571930543,0.0,-0.00819700360944,0.00879093750034,-0.999927761666,0.0,0.643190971164,0.236933602269,0.303684653994,1.0,-0.048316,-0.0635010285714,1.254
0.449718300673,0.4471982784,-0.12442372501,-1.5123643077,0.0697010009217,1.95097081511,0.136989789599,-0.050151644981,-0.245442719082,0.00387986644839,-0.372399201968,-0.0238795141136,0.125649834112,-0.0530996210316,0.573812257498,0.818971031799,0.0025863334762,0.0,0.818934979857,-0.573750010913,-0.0117119872484,0.0,-0.00810802552566,0.00883869096822,-0.999928066145,0.0,0.642271914507,0.235695516766,0.303753794697,1.0,-0.050444,-0.0662978285714,1.273
0.448986850744,0.443226314517,-0.124444705464,-1.5184958572,0.0692811719317,1.95302461609,0.136047679546,-0.0415787640728,-0.249865017918,-0.00112959850742,-0.384818324964,-0.0288477763373,0.13892897313,-0.0618888176752,0.573812774557,0.818970974201,0.002487985619,0.0,0.818933493764,-0.573750724687,-0.0117807306098,0.0,-0.00822075114733,0.00879759785395,-0.999927508134,0.0,0.641423761234,0.23461763651,0.30373380342,1.0,-0.052236,-0.0686530285714,1.289
0.44812093015,0.438678788895,-0.124447371643,-1.52554419277,0.0687994329969,1.95551137838,0.134889414156,-0.0507877026509,-0.261001404798,-7.44585228083e-05,-0.396645820778,-0.0223418744793,0.144390048383,-0.0670469346635,0.573753954651,0.819012250143,0.00246587508725,0.0,0.818974390033,-0.573691896589,-0.0118026759504,0.0,-0.00825204250969,0.00879148981091,-0.999927304108,0.0,0.6404664781,0.233384699275,0.303704089154,1.0,-0.054252,-0.0713026285714,1.307
0.447344584636,0.434709309209,-0.124465441813,-1.53148827104,0.0684012117788,1.95767525998,0.133928993619,-0.0504896145271,-0.274046367189,-0.00297406135887,-0.389148674475,-0.026197226425,0.136876565907,-0.058614627529,0.573766902627,0.81900270385,0.0026190527895,0.0,0.818966903967,-0.573704355651,-0.0117162030981,0.0,-0.00809319584228,0.00886745784252,-0.999927931589,0.0,0.639682966445,0.232314635398,0.30377250159,1.0,-0.055932,-0.0735106285714,1.322
0.446432524184,0.430151476708,-0.124495478423,-1.53847040979,0.0678875179382,1.96014611475,0.132814343062,-0.0565518075093,-0.268918500545,-0.00335585073892,-0.424902171503,-0.0353238795677,0.14158971991,-0.0655946880252,0.573781695894,0.81899232327,0.0026242680971,0.0,0.818956916678,-0.573719485699,-0.011673356667,0.0,-0.00805495083687,0.0088472912323,-0.999928419041,0.0,0.638741567631,0.231041265641,0.303771116483,1.0,-0.057836,-0.0760130285714,1.339
0.445548523468,0.425724756492,-0.124537190083,-1.54537583643,0.0673861155915,1.96237401205,0.131683896441,-0.0552782227768,-0.28139915462,-0.000415605256125,-0.432780783583,-0.0253709103372,0.139652538605,-0.0768323814564,0.573763663897,0.819005679761,0.00238776315106,0.0,0.818967115653,-0.573702230162,-0.0118051466322,0.0,-0.00829877687451,0.00872903174614,-0.999927464523,0.0,0.637695642576,0.229694764129,0.303693644132,1.0,-0.05974,-0.0785154285714,1.356
0.444510321623,0.420566647329,-0.124583286012,-1.55321143527,0.0668331265427,1.96503026514,0.130413762604,-0.0598464911859,-0.289662435762,-0.000258540830483,-0.447857397231,-0.0275290612546,0.15308189481,-0.0646750674123,0.573784587657,0.818991119404,0.00235376422886,0.0,0.818952112174,-0.573723280243,-0.0118229681091,0.0,-0.00833265698155,0.00871162479393,-0.99992733457,0.0,0.636659978084,0.228330415016,0.303698110477,1.0,-0.061644,-0.0810178285714,1.373
0.443406251372,0.415228944808,-0.124603157834,-1.56106957053,0.0663016696642,1.96794355447,0.129133568293,-0.0613286268171,-0.29464260334,-0.000426897273895,-0.432823541418,-0.03030696076,0.160497816832,-0.0732018372092,0.573835038313,0.818954775974,0.00267780031015,0.0,0.818920141362,-0.573772720495,-0.0116367601959,0.0,-0.00799368547364,0.00887065612901,-0.999928703685,0.0,0.635613452725,0.226881345237,0.303829609574,1.0,-0.06366,-0.0836674285714,1.391
0.442403809426,0.410445216403,-0.124621643991,-1.5683818969,0.0657831885635,1.9703955721,0.127869779577,-0.0625838878622,-0.300685436263,-0.000475541364287,-0.462590391274,-0.0375560375532,0.143151577516,-0.0763950306527,0.573788927017,0.818987324562,0.00260314048689,0.0,0.818951551062,-0.573726689094,-0.0116957314815,0.0,-0.00808532032949,0.00884289740998,-0.999928212804,0.0,0.634567977386,0.225529211116,0.303800363861,1.0,-0.065452,-0.0860226285714,1.407
0.441296654797,0.405234552055,-0.124681552953,-1.57640431654,0.0652139986445,1.97300323441,0.126592067547,-0.0647603417928,-0.302738842634,-0.00201123232062,-0.4662366086,-0.0275273284623,0.152375486419,-0.0815081259298,0.573857874043,0.818939590765,0.00241536299438,0.0,0.818901166713,-0.573796092669,-0.0118182102922,0.0,-0.00829263411061,0.00876008526619,-0.999927243916,0.0,0.633402199112,0.224014862418,0.303730644602,1.0,-0.067356,-0.0885250285714,1.424
0.440272038876,0.400500554384,-0.124691278271,-1.58346702184,0.0647321139344,1.97548145259,0.125372542884,-0.0697989308287,-0.324950093899,0.000300931912436,-0.462634550594,-0.0324936625477,0.175472175277,-0.0816784746285,0.573852562901,0.818942925794,0.00254307788264,0.0,0.818906005301,-0.573790135862,-0.0117720588939,0.0,-0.00818160887075,0.00883813807849,-0.999927471666,0.0,0.632408028969,0.222694090005,0.30377638199,1.0,-0.069036,-0.0907330285714,1.439
0.439062582394,0.395001628243,-0.124696185071,-1.59155130618,0.0641217641829,1.97837366795,0.123989422807,-0.0742313924339,-0.325089164226,0.000252163549587,-0.493598491616,-0.0396504747367,0.165175948884,-0.0790233588272,0.573858301147,0.81893816297,0.00277170288314,0.0,0.818904608482,-0.573795506853,-0.0116062665406,0.0,-0.00791457631914,0.00893028459965,-0.999928802215,0.0,0.631281743899,0.221161318763,0.303879871627,1.0,-0.07094,-0.0932354285714,1.456
0.43762106361,0.388439042243,-0.124725173708,-1.60153608404,0.0633703833428,1.98157165664,0.122293129454,-0.0719745158844,-0.334345341959,-0.000567369792046,-0.50867259113,-0.0374239384854,0.156890520123,-0.0902825387223,0.573841370765,0.818950720075,0.00255855204201,0.0,0.81891417828,-0.573779080649,-0.0117423218477,0.0,-0.00814849617785,0.00883363468294,-0.999927781846,0.0,0.629785709007,0.2192669904,0.303813430824,1.0,-0.07318,-0.0961794285714,1.476
0.436428076651,0.383056733503,-0.12472718084,-1.6095929883,0.0627787594887,1.98424684354,0.120827930911,-0.0735663700269,-0.347673586831,-0.000189231678437,-0.506316573867,-0.0409795367715,0.178452305941,-0.0866403039818,0.57375631881,0.819010332188,0.00255133214165,0.0,0.818973489302,-0.573693841531,-0.0117705951777,0.0,-0.00817671295623,0.00884309700279,-0.99992746787,0.0,0.628588096591,0.217745250065,0.303817262955,1.0,-0.074972,-0.0985346285714,1.492
0.435103744597,0.377234892761,-0.124728167406,-1.61818580495,0.0621689934331,1.98723824029,0.119315260602,-0.0848464049889,-0.340442660889,-0.00126421569661,-0.517267514458,-0.0361689696457,0.171292957189,-0.0881905144809,0.573750256415,0.819013984063,0.00273570350092,0.0,0.818979413072,-0.573686982444,-0.011692477924,0.0,-0.00800701960178,0.00894921935479,-0.999927896956,0.0,0.627337954326,0.216106755486,0.303879248063,1.0,-0.076876,-0.101037028571,1.509
0.433956960211,0.372385333794,-0.124753954525,-1.62551760451,0.0615810334465,1.9896137701,0.118003180286,-0.0819446962569,-0.342755046378,-0.00550191085085,-0.522233898494,-0.0386633454247,0.169033196368,-0.0887322788467,0.573731980898,0.819027194574,0.0026106596414,0.0,0.818991130784,-0.573669299064,-0.0117392466137,0.0,-0.00811726321636,0.00887345914735,-0.999927683265,0.0,0.626233484442,0.214664488903,0.303832918195,1.0,-0.078444,-0.103097828571,1.523
0.432517710943,0.366353903593,-0.124821725966,-1.63452139779,0.060898296602,1.99251392075,0.116481564789,-0.0865484809164,-0.355801520767,-0.000597891854701,-0.52260343372,-0.0387727809091,0.186825851945,-0.0944239437943,0.573842855826,0.818949782224,0.00252545314099,0.0,0.818912563683,-0.573780420971,-0.0117893364392,0.0,-0.00820597693355,0.00883352186939,-0.999927312775,0.0,0.624874240473,0.212862779899,0.303817347096,1.0,-0.080348,-0.105600228571,1.54
0.431037691191,0.36016968488,-0.124842491294,-1.64348925246,0.0601974317101,1.99562363299,0.114769462436,-0.0871292684307,-0.35942489273,-0.000183896753353,-0.531150587505,-0.0404824420961,0.175213624936,-0.0939763913064,0.573782046704,0.81899160629,0.00276741893417,0.0,0.818957939984,-0.573719213114,-0.0116148156286,0.0,-0.00792486767343,0.00893094434122,-0.999928714812,0.0,0.623556139996,0.211084097583,0.303926568334,1.0,-0.082252,-0.108102628571,1.557
0.429470577233,0.353953843915,-0.124879011335,-1.65281884023,0.0595138216507,1.99855774609,0.113055834709,-0.0963604775774,-0.365232966521,-0.00282293694302,-0.548395720921,-0.0410792868404,0.170023324496,-0.101306967331,0.573815214921,0.81896885595,0.00261897118044,0.0,0.818932694813,-0.573752267713,-0.0117611037779,0.0,-0.00812949356983,0.00889363264847,-0.999927404681,0.0,0.622109022827,0.209199554003,0.303861932801,1.0,-0.084156,-0.110605028571,1.574
0.427962332156,0.348030189067,-0.124933944471,-1.66165304451,0.0588421606319,2.0013916899,0.111394211834,-0.0897394066942,-0.378050029906,0.000793709390512,-0.545632633871,-0.0421033896942,0.189078991403,-0.10543990519,0.573835691386,0.818954757975,0.00253979981516,0.0,0.818917368691,-0.573772818919,-0.0118254990329,0.0,-0.00822743900266,0.00886595029217,-0.999926849411,0.0,0.620746182017,0.207393391048,0.303821671702,1.0,-0.085948,-0.112960228571,1.59
0.42631676309,0.34148005791,-0.124949316817,-1.6710266719,0.0581082930669,2.00454309204,0.109654307435,-0.0949194312335,-0.391138075338,-0.000736208425479,-0.562370936458,-0.0459736653661,0.180073228509,-0.104168173736,0.573866360971,0.818932440416,0.00279368591444,0.0,0.818898579671,-0.573802823151,-0.0116697582521,0.0,-0.0079538718764,0.00898480011415,-0.999928002053,0.0,0.619322115986,0.20548869116,0.303952523866,1.0,-0.087852,-0.115462628571,1.607
0.424626279758,0.3349644134,-0.124952136231,-1.68074712123,0.0573257813583,2.00753176805,0.107779691641,-0.0952286227484,-0.388119353403,-0.000635446456407,-0.587901900954,-0.0489943606547,0.172491572764,-0.107164330097,0.573800976891,0.818978913141,0.00259338600841,0.0,0.818942084155,-0.57373776019,-0.0118149157015,0.0,-0.00818840099235,0.00890341453245,-0.999926836973,0.0,0.617759099552,0.203515047469,0.303872846993,1.0,-0.089756,-0.117965028571,1.624
0.422903044827,0.328232809106,-0.124945444793,-1.69041334851,0.0565248845403,2.01066302332,0.105881661604,-0.104878857501,-0.410108163873,8.46042530037e-05,-0.574101245736,-0.0435482669893,0.188150625508,-0.119974394327,0.573719791829,0.819035355976,0.00272635746714,0.0,0.819000475541,-0.573656344752,-0.0117203280915,0.0,-0.00803552554027,0.00895724470964,-0.999927596427,0.0,0.616233998014,0.201547734632,0.303959147259,1.0,-0.09166,-0.120467428571,1.641
0.421107300099,0.321511392903,-0.124956122974,-1.70023169358,0.0557591945732,2.01384127314,0.103981318146,-0.106685149172,-0.395238577977,-0.00218375205645,-0.586734283303,-0.0434836483878,0.18776807309,-0.116165560267,0.573719639731,0.819035264374,0.00278524686253,0.0,0.819000942589,-0.57365575392,-0.0117166093465,0.0,-0.00799869734465,0.00900334204115,-0.999927477707,0.0,0.614673981641,0.199523864309,0.303960419566,1.0,-0.093564,-0.122969828571,1.658
0.419235094082,0.314652978205,-0.125011332499,-1.71028495641,0.0549360909954,2.01688405915,0.101997637204,-0.115078167507,-0.405510186558,-0.00301418319819,-0.59512367796,-0.042893303008,0.175038572271,-0.115993324787,0.573726762559,0.819030774069,0.00263437901958,0.0,0.818994245225,-0.57366314857,-0.0118222317062,0.0,-0.0081716827529,0.00894044411107,-0.999926643339,0.0,0.613031067687,0.197394609632,0.303916868159,1.0,-0.095468,-0.125472228571,1.675
0.417184668524,0.307207245664,-0.125040301184,-1.72082319613,0.0540171673587,2.02031486726,0.0998101125882,-0.118752663274,-0.416293382487,0.00025214423518,-0.599453530007,-0.0525762652552,0.190804934334,-0.124552289221,0.573666630804,0.819072137282,0.00285963845653,0.0,0.819039244741,-0.573603022687,-0.0116204491866,0.0,-0.00787784056187,0.00900859349834,-0.999928389872,0.0,0.611358142172,0.195143280893,0.304041972562,1.0,-0.097484,-0.128121828571,1.693
0.415270852405,0.300585134828,-0.125062987739,-1.73048176391,0.0532315039614,2.02321805731,0.0978272301178,-0.121955097548,-0.411646547478,-0.0067444048207,-0.60577375237,-0.0469135420654,0.171920557881,-0.119864249452,0.573665845176,0.819073094521,0.00274058581379,0.0,0.819038209665,-0.573602143422,-0.0117362290357,0.0,-0.00804097835099,0.00897749109181,-0.999927371023,0.0,0.609755487193,0.193061698672,0.303994326719,1.0,-0.099276,-0.130477028571,1.709
0.413179484899,0.29346988826,-0.125154502685,-1.740772858,0.0524051188503,2.02635630688,0.0957652305083,-0.119109847534,-0.432004487585,-0.0122510370527,-0.597002934781,-0.0488019720891,0.193660940972,-0.119936598954,0.573797428682,0.818981063668,0.0026972378858,0.0,0.818945326042,-0.573733544665,-0.0117948964405,0.0,-0.00811245716961,0.00897694444292,-0.999926798574,0.0,0.608061042029,0.190786152493,0.303973890429,1.0,-0.10118,-0.132979428571,1.726
0.411292218925,0.287053300943,-0.125200075519,-1.74982163942,0.0516387616564,2.02929282139,0.0938136921769,-0.125347722171,-0.418728661245,-0.00201898257852,-0.60982967438,-0.052610165296,0.188325961212,-0.132572395351,0.573789030535,0.818986200413,0.00291528245397,0.0,0.818953709345,-0.573724852414,-0.0116345422802,0.0,-0.00785611083441,0.00906342861421,-0.999928065305,0.0,0.606498548663,0.188652813906,0.304057848635,1.0,-0.102972,-0.135334628571,1.742
0.408957284159,0.279333607838,-0.125249904942,-1.76110354379,0.0506344767322,2.03249013989,0.0914235521385,-0.128215480473,-0.428401284397,-0.00115087199493,-0.63619122521,-0.0634458192056,0.179388734136,-0.131428484224,0.57376752992,0.819002404887,0.00257474277996,0.0,0.818965133561,-0.573704170753,-0.0118482645429,0.0,-0.00822677487377,0.00890694553158,-0.999926490546,0.0,0.604648649575,0.186292358233,0.303936639211,1.0,-0.104876,-0.137837028571,1.759
0.406674181148,0.271847844169,-0.125309775778,-1.77154704527,0.0497379809839,2.03577911709,0.0891621347565,-0.134292283009,-0.435682701113,-0.00436203860613,-0.614639195245,-0.0548815043105,0.197239736847,-0.140703569163,0.573819955548,0.81896487049,0.00281893925599,0.0,0.818931136758,-0.573756109492,-0.0116819077722,0.0,-0.00794984152442,0.0090120024369,-0.999927789309,0.0,0.602921345933,0.183936070784,0.304049547817,1.0,-0.10678,-0.140339428571,1.776
0.404438980516,0.264800380456,-0.125381976311,-1.78155297531,0.0488794551158,2.0387724525,0.0869730230137,-0.140164927334,-0.444852499738,-0.00683401511246,-0.629476129663,-0.0561053901164,0.184301152573,-0.132090799569,0.573893301204,0.818913449161,0.00282639651088,0.0,0.818879729552,-0.573829326092,-0.0116893091258,0.0,-0.00795081632726,0.00902306873548,-0.99992768176,0.0,0.601222153543,0.181641537867,0.304052265744,1.0,-0.108572,-0.142694628571,1.792
0.401726913715,0.256296022086,-0.125480368905,-1.79361457364,0.0477861521832,2.04222766843,0.0843105573589,-0.150076738068,-0.455204293195,-0.001091960467,-0.626177681679,-0.0527563347703,0.186279662724,-0.139427000391,0.573951462192,0.818873129562,0.00269511216351,0.0,0.818837709139,-0.573887947802,-0.0117548441497,0.0,-0.00807918917718,0.00895374184467,-0.99992727596,0.0,0.599123919237,0.178856065844,0.30403016107,1.0,-0.1107,-0.145491428571,1.811
0.399406292969,0.249027078524,-0.125458080443,-1.8037616555,0.0468561572101,2.04529568462,0.0820161605915,-0.151318602148,-0.456366681254,0.00475485563377,-0.6415509873,-0.0560016531962,0.188906566033,-0.152847813829,0.573891284454,0.818914896286,0.00281658828208,0.0,0.818881283356,-0.573827608826,-0.0116647339634,0.0,-0.00793634108405,0.00900091387968,-0.999927996428,0.0,0.597361426432,0.176571539996,0.304079435555,1.0,-0.112492,-0.147846628571,1.827
0.396879308146,0.241308687949,-0.125465854407,-1.81478258218,0.0459278854348,2.04838680269,0.0794828810027,-0.148883418698,-0.456180600816,0.000618013201322,-0.652120971556,-0.0549496940571,0.178793418599,-0.157158535225,0.573842376143,0.818949689927,0.00266075389755,0.0,0.818913025409,-0.573778123557,-0.0118688096972,0.0,-0.0081934333917,0.00898992506663,-0.999926021712,0.0,0.595374206259,0.174077495812,0.30398760517,1.0,-0.114396,-0.150349028571,1.844
0.394590147998,0.234248065533,-0.125469585773,-1.82429644502,0.0450876733079,2.05124712596,0.0772748758184,-0.151536364379,-0.471049958985,0.00216502503223,-0.631971815576,-0.0540831620277,0.186702269919,-0.145171990179,0.573845426542,0.818946419468,0.00298921033292,0.0,0.818914209684,-0.573780205645,-0.0116850198575,0.0,-0.00785440667583,0.00915347825444,-0.99992725842,0.0,0.593709133081,0.171882130495,0.304156187757,1.0,-0.116076,-0.152557028571,1.859
0.391940225536,0.226324860718,-0.125458203071,-1.83542726666,0.0440268445497,2.05436103461,0.0746028654051,-0.159639491276,-0.466952651811,0.000462311312563,-0.663950283104,-0.058642627338,0.180445838391,-0.160620082671,0.573699827774,0.819048840053,0.00287265052964,0.0,0.81901500123,-0.573634897283,-0.0117549683174,0.0,-0.00798019421721,0.00909674231674,-0.999926780209,0.0,0.591677257081,0.169326364255,0.304108982358,1.0,-0.11798,-0.155059428571,1.876
0.389145668407,0.218288099868,-0.125519552407,-1.84655487947,0.042985267301,2.05746531314,0.0719057813268,-0.165311652203,-0.484123043793,-0.00129650193453,-0.647985671151,-0.0562792395405,0.189874696311,-0.159197570241,0.573705858153,0.819044685444,0.00285279987446,0.0,0.819010534098,-0.573640935339,-0.0117715437337,0.0,-0.00800509166903,0.00909005176002,-0.999926642042,0.0,0.589658800223,0.166661603111,0.304115534038,1.0,-0.119884,-0.157561828571,1.893
0.386455266566,0.210626926665,-0.125558364102,-1.85702607353,0.0420473535371,2.06048813301,0.0693675621044,-0.168263482129,-0.484872074459,-0.00107496697045,-0.657943360694,-0.0571231915711,0.181030036605,-0.160436190957,0.573752521507,0.819011387019,0.00302306115841,0.0,0.818979342497,-0.573686877487,-0.0117025665361,0.0,-0.00785039587847,0.00919037864131,-0.999926951444,0.0,0.587765544417,0.164155779626,0.3041736925,1.0,-0.121676,-0.159917028571,1.909
0.383141377934,0.201491929546,-0.12561492806,-1.86973870921,0.0407933455567,2.0637804281,0.0661915032152,-0.17969338587,-0.48572277655,-0.00249834437967,-0.663067294509,-0.0702816896961,0.181054887733,-0.168525981238,0.573718145117,0.819036452401,0.0027434472368,0.0,0.819000407325,-0.57365309245,-0.0118831487922,0.0,-0.00815910212674,0.00906463700997,-0.999925627939,0.0,0.585368736236,0.161062777476,0.304089262242,1.0,-0.123804,-0.162713828571,1.928
0.380279755476,0.193656823571,-0.125691746172,-1.88027255503,0.0398069382998,2.0668338131,0.0635066880731,-0.177653480645,-0.486717347533,-0.0072650574424,-0.671030846945,-0.06942877904,0.186484601764,-0.164599763363,0.573775705395,0.818995192235,0.00301029821559,0.0,0.818962991707,-0.573710113244,-0.0117077358296,0.0,-0.00786169218816,0.00918311402017,-0.999926929437,0.0,0.583453098907,0.158457838972,0.304190054843,1.0,-0.125596,-0.165069028571,1.944
0.376881396603,0.184823282885,-0.125826868974,-1.89244243636,0.038673062462,2.06995812979,0.0603413322389,-0.186174748375,-0.490665282147,-0.0096875398856,-0.678150096323,-0.0671212205175,0.161074693873,-0.171741343324,0.573891080991,0.818914970302,0.00283645472815,0.0,0.818879711332,-0.573825180553,-0.0118923266379,0.0,-0.00811133133728,0.00914779154207,-0.999925259314,0.0,0.581144220883,0.155366275171,0.304119912651,1.0,-0.127612,-0.167718628571,1.962
0.373624251962,0.176321728919,-0.12593660306,-1.90372845442,0.0375452629886,2.07309391819,0.057346201695,-0.192171834949,-0.501016288462,-0.00524440687238,-0.674646206719,-0.0717423654779,0.185088898567,-0.167075943683,0.573981507847,0.818850732912,0.00307453413302,0.0,0.81881926231,-0.573915547725,-0.0116921619427,0.0,-0.00780976279728,0.00922875019464,-0.999926916217,0.0,0.579048784308,0.152470776214,0.304239699843,1.0,-0.129516,-0.170221028571,1.979
0.370542347873,0.168327879005,-0.12593321105,-1.91463970391,0.0364320627012,2.07587433461,0.054411912235,-0.193590526725,-0.500438585414,0.000819011913791,-0.688046956283,-0.0697138992936,0.174442103052,-0.186040489078,0.573872841627,0.818927421559,0.00293031789233,0.0,0.818893803016,-0.573807077383,-0.0117950934239,0.0,-0.00797804190115,0.00916867946884,-0.999926140354,0.0,0.576913937161,0.149774007371,0.304179269557,1.0,-0.131308,-0.172576228571,1.995
0.367144301662,0.159699049452,-0.125963394819,-1.92613948206,0.0353038314783,2.0788710891,0.0512101432645,-0.198024439462,-0.523956906837,-0.00186800806179,-0.666933761106,-0.0621319517372,0.192915873485,-0.187330087224,0.573824659767,0.818960839848,0.0030248206047,0.0,0.818928252857,-0.573758339032,-0.0117742076097,0.0,-0.00790725114569,0.00923361950448,-0.999926105095,0.0,0.574682558859,0.146857232713,0.304222312837,1.0,-0.133212,-0.175078628571,2.012
0.364070942022,0.15205631308,-0.125985427417,-1.9363220449,0.034210392547,2.0815353564,0.0484028123844,-0.210429500205,-0.504100326303,-0.00162085929601,-0.68389242199,-0.0692998209847,0.165612401972,-0.190863522665,0.573805284536,0.818974260962,0.00306630429274,0.0,0.818942721809,-0.573739420924,-0.0116894043913,0.0,-0.00781421212093,0.00921874708564,-0.999926973729,0.0,0.572697719793,0.144245299819,0.304244703825,1.0,-0.134892,-0.177286628571,2.027
0.360475199116,0.143298305341,-0.126009768564,-1.94811046924,0.0330372370888,2.08428471708,0.0451208162484,-0.217254704921,-0.523463010043,-0.00171173356073,-0.698448047672,-0.0734095243107,0.166481582527,-0.199804490562,0.573813204148,0.818969410914,0.00287360964857,0.0,0.818934260183,-0.573746749923,-0.0119202077289,0.0,-0.00811371751953,0.009193446985,-0.999924821234,0.0,0.570176350825,0.141040583727,0.304178246428,1.0,-0.136908,-0.179936228571,2.045
0.356803547261,0.134440549406,-0.126110854195,-1.95963320853,0.0318607706124,2.08733262951,0.0416974086854,-0.221134621627,-0.52003978851,-0.00724930712483,-0.695272130686,-0.0786782053722,0.175393771755,-0.204206676203,0.573806360306,0.818973255792,0.00313274172854,0.0,0.818941998143,-0.573739582164,-0.0117321113301,0.0,-0.00781105787001,0.00929767288087,-0.999926267609,0.0,0.568051294587,0.138164366216,0.304276595917,1.0,-0.1387,-0.182291428571,2.061
0.353221426019,0.126063139724,-0.12618254074,-1.9707454268,0.0306584917491,2.08988604963,0.0384361625807,-0.234227275367,-0.521961936308,-0.00802020332049,-0.691506716652,-0.075698422699,0.155530357773,-0.202610175475,0.573807070059,0.81897343197,0.00295143661323,0.0,0.818939497591,-0.573740559368,-0.0118581921973,0.0,-0.00801833984524,0.00922154008135,-0.999925331925,0.0,0.565772103035,0.135204646381,0.304230436897,1.0,-0.140492,-0.184646628571,2.077
0.348822018118,0.11595329561,-0.126329230082,-1.98374036074,0.0292819782968,2.09316369543,0.0344971314118,-0.234765285631,-0.521110807002,-0.00657125351232,-0.683586757588,-0.074838605617,0.177673626692,-0.21426272889,0.573926655155,0.818888583371,0.00322946239947,0.0,0.818858901604,-0.573859922915,-0.0116462456094,0.0,-0.00768386646326,0.00932874442813,-0.999926963695,0.0,0.563176966122,0.131637763745,0.304356215381,1.0,-0.14262,-0.187443428571,2.096
0.345042301488,0.107453355128,-0.126361078288,-1.99494030827,0.0280414572766,2.09567539021,0.031050027519,-0.238626931606,-0.524615936128,-0.000888518213201,-0.710212021809,-0.0705949816769,0.152705217401,-0.213467506303,0.573865272775,0.818932389463,0.00302276226328,0.0,0.8188996121,-0.573798762889,-0.0117962668024,0.0,-0.00792604031286,0.00924498470574,-0.999925851322,0.0,0.560677954153,0.128438584503,0.30427849799,1.0,-0.144524,-0.189945828571,2.113
0.340739932809,0.0977162820948,-0.12636117442,-2.00733368968,0.0266711933858,2.0986167622,0.0271012919816,-0.237174084908,-0.547378391992,-0.000199878028858,-0.684959437469,-0.0744470653647,0.165904931483,-0.223304698872,0.573740284515,0.819019140902,0.00323723071358,0.0,0.818989640533,-0.573673650186,-0.0116300766283,0.0,-0.00766828904707,0.00932408140953,-0.999927126769,0.0,0.558249263625,0.125285309327,0.304395283708,1.0,-0.146428,-0.192448228571,2.13
0.33627201369,0.0880335757731,-0.126389797905,-2.01997002767,0.0253912220198,2.10139953613,0.0230877007571,-0.252798627481,-0.540641428529,-0.00280587017836,-0.710181343596,-0.0690294177405,0.13898114493,-0.2265894438,0.573747634247,0.81901433834,0.00314844261659,0.0,0.818982338256,-0.573679683889,-0.0118446958217,0.0,-0.00789493014812,0.00937456559153,-0.999924890978,0.0,0.555545297937,0.121853305998,0.304316337285,1.0,-0.148444,-0.195097828571,2.148
0.332154771773,0.0792433726185,-0.126503071268,-2.03106690492,0.024103412113,2.10387290121,0.0193271154596,-0.252679573873,-0.564467796835,-0.0086956599326,-0.676712545459,-0.0749173804909,0.166381808953,-0.228445166654,0.573709296398,0.819040872851,0.00323090196067,0.0,0.819010466797,-0.573641688932,-0.0117394589904,0.0,-0.00776186612076,0.00938135990069,-0.999925869013,0.0,0.553194003508,0.118692229385,0.304388317213,1.0,-0.150236,-0.197453028571,2.164
0.3276788611,0.0699352407904,-0.126603969802,-2.04295701794,0.0227880420616,2.10649373695,0.0153802122799,-0.271089521845,-0.551577590161,-0.00296904836848,-0.714469866185,-0.0767616874589,0.145128126977,-0.236361144151,0.573785730755,0.818987248591,0.00325095818962,0.0,0.818956896019,-0.573717793776,-0.0117576557632,0.0,-0.00776438707172,0.00940895088359,-0.9999255902,0.0,0.55063778888,0.115317080492,0.304375532283,1.0,-0.15214,-0.199955428571,2.181
0.323831677724,0.0622014460082,-0.126732432673,-2.05288232268,0.021633606005,2.10841219218,0.0119713734906,-0.281445181421,-0.555898070024,-0.0104784777897,-0.704895546038,-0.0921445002636,0.139276643832,-0.246006716413,0.573847163631,0.818945105307,0.00301565700415,0.0,0.818911045492,-0.573779299332,-0.0119483107971,0.0,-0.00805484416181,0.00932623865019,-0.999924067496,0.0,0.548441497361,0.112420306721,0.304301657395,1.0,-0.153708,-0.202016228571,2.195
0.319091507018,0.0526665292916,-0.126840464007,-2.06463978162,0.0202714372356,2.11105542706,0.00777835088543,-0.283178349711,-0.555602099197,-0.00268506051605,-0.698900048165,-0.0785898707361,0.151650247175,-0.257096018769,0.57389737056,0.81890877174,0.00331338693801,0.0,0.818879442589,-0.573829467046,-0.0117024850485,0.0,-0.0076820965008,0.0094294713938,-0.999926032496,0.0,0.545912124204,0.108960847767,0.304429299235,1.0,-0.155612,-0.204518628571,2.212
0.314312921267,0.0431828973846,-0.126846134471,-2.076721709,0.018912948156,2.11336881513,0.00356927173295,-0.281126125658,-0.553499001747,-0.00107917970168,-0.716032668853,-0.0882568459267,0.129767731476,-0.249484083573,0.573870823522,0.818928169384,0.00311098069776,0.0,0.818894962792,-0.573802144251,-0.0119534960388,0.0,-0.00800412133785,0.00940751016222,-0.999923713487,0.0,0.543164933042,0.105535479105,0.30432388039,1.0,-0.157516,-0.207021028571,2.229
0.309642615226,0.0340715913417,-0.126890330918,-2.08777359004,0.0175901208209,2.1157055354,-0.0006241077367,-0.295187625484,-0.56000583679,-0.00540769893129,-0.69569698332,-0.0875713558665,0.143355483819,-0.257489548058,0.573795310697,0.818979976099,0.0033892583442,0.0,0.818951250191,-0.573726697873,-0.0117163500749,0.0,-0.00765109541351,0.00949860696725,-0.999925615836,0.0,0.540717695733,0.102250586133,0.304461184451,1.0,-0.159308,-0.209376228571,2.245
0.304556110711,0.0244298057845,-0.127010009282,-2.09979531168,0.0161189105904,2.11796242979,-0.00510843262879,-0.30251870917,-0.565445061986,-0.0031824568457,-0.703689103976,-0.0787307834863,0.13413487711,-0.265811321207,0.573811523343,0.818969148675,0.00325823554178,0.0,0.818938502695,-0.573743087681,-0.0118044501424,0.0,-0.00779824050387,0.00944200584233,-0.999925015174,0.0,0.537964730614,0.0986536141326,0.304411112034,1.0,-0.15998,-0.210259428571,2.262
0.299333920487,0.014730675217,-0.127133484641,-2.11151506677,0.0146719223155,2.12017216204,-0.00968090277988,-0.305628094953,-0.574650066415,-0.00428820016269,-0.681536425515,-0.0919465041387,0.135194969447,-0.271633921893,0.573863783709,0.818932061608,0.00337388773916,0.0,0.818903345331,-0.573795471784,-0.0116967716528,0.0,-0.00764308696988,0.00947542402551,-0.999925897035,0.0,0.535284049074,0.0950395721063,0.30449747391,1.0,-0.15998,-0.210259428571,2.279
0.294001733404,0.00520265695659,-0.127229728388,-2.12325271046,0.013304598722,2.12225018428,-0.0143336296731,-0.311539867293,-0.555541897166,-0.00197804904034,-0.697599608777,-0.0778256325891,0.124710242911,-0.273021956145,0.573938639602,0.818879889156,0.00330333298634,0.0,0.818849310296,-0.573869396989,-0.011851967279,0.0,-0.00780980630577,0.00950741696151,-0.999924305109,0.0,0.532537185164,0.0914225308727,0.304443681307,1.0,-0.15998,-0.210259428571,2.296
0.288687191053,-0.00438163018063,-0.127234449233,-2.1347451871,0.0119136202649,2.12428885849,-0.0190336636977,-0.312944592552,-0.578985500793,0.000914990977307,-0.661549701004,-0.0866669366369,0.132626501973,-0.282747989607,0.5738602405,0.818934385228,0.00341232572056,0.0,0.818905130164,-0.573790511597,-0.0118145458485,0.0,-0.00771752630656,0.00957445349828,-0.999924381955,0.0,0.529824199611,0.0879114505993,0.304500431149,1.0,-0.15998,-0.210259428571,2.313
0.282995235639,-0.0144145785468,-0.127229943366,-2.14681406425,0.0103843783705,2.12642793626,-0.0240282415855,-0.322255302182,-0.555702998023,0.000346221049055,-0.679055696926,-0.0844267889719,0.107791962117,-0.28221588013,0.573768612641,0.818998375982,0.00346210747261,0.0,0.818970034173,-0.573699058629,-0.0117567068481,0.0,-0.00764266316256,0.00958117611997,-0.999924892561,0.0,0.52694948997,0.0842015773855,0.304512408962,1.0,-0.15998,-0.210259428571,2.331
0.277772608424,-0.0232667235939,-0.127297787755,-2.15752593905,0.00901414879731,2.12799238691,-0.0285881975778,-0.329242411557,-0.561203624041,-0.0101441505976,-0.659560341275,-0.084057949593,0.10419827342,-0.283290784635,0.573762161073,0.819003833196,0.00323274369651,0.0,0.818971591929,-0.573692303739,-0.0119757732219,0.0,-0.00795375713007,0.00951895404514,-0.999923060671,0.0,0.52431707681,0.0808048626208,0.304440257574,1.0,-0.15998,-0.210259428571,2.347
0.27177459145,-0.0332545963844,-0.127484964488,-2.16918502678,0.00747624385663,2.13006575257,-0.0337230821349,-0.335997689942,-0.544822790504,-0.00980772273616,-0.660486541596,-0.0866519581133,0.105886873444,-0.29430986525,0.573931122729,0.818884379649,0.00349084950468,0.0,0.81885675983,-0.573861889282,-0.0116998209729,0.0,-0.0075776810413,0.00957358142228,-0.999925459866,0.0,0.521539844793,0.0769326998797,0.304550643839,1.0,-0.15998,-0.210259428571,2.365
0.266771514121,-0.0415023457037,-0.12753584309,-2.17903207143,0.0062869999149,2.13142574815,-0.0381327522726,-0.333830968628,-0.539097700146,-0.000846235513284,-0.663155942146,-0.085275768653,0.0979153154193,-0.293729594462,0.573910879861,0.818899091047,0.00336564410738,0.0,0.818868461187,-0.573840364086,-0.0119342666415,0.0,-0.00784176864339,0.00960541021372,-0.999923118424,0.0,0.519064209961,0.0737865824496,0.304488398216,1.0,-0.15998,-0.210259428571,2.38
0.261040088581,-0.0508363231366,-0.127546554628,-2.18976013999,0.00489656120603,2.13315102909,-0.0430862497304,-0.339353463723,-0.547054067478,-0.00137778808702,-0.620985542821,-0.0860842030647,0.115724951631,-0.285819616195,0.573906992181,0.818900785244,0.00360765222693,0.0,0.818874040828,-0.573836561429,-0.0117325584221,0.0,-0.00753774368098,0.00968779659169,-0.999924661671,0.0,0.516417885205,0.0702694512697,0.304597762726,1.0,-0.15998,-0.210259428571,2.397
0.255204665135,-0.0600159248228,-0.127578115314,-2.20057392161,0.00344549940713,2.13464413807,-0.0482108096929,-0.34508719892,-0.534034419378,-0.000389468411149,-0.635959543317,-0.07792517125,0.0834209195467,-0.3007350288,0.573825669031,0.818958309656,0.00348360560994,0.0,0.818929616285,-0.57375524229,-0.0118301486392,0.0,-0.00768980960446,0.00964145639101,-0.999923951682,0.0,0.513668075836,0.0667079696272,0.304541332403,1.0,-0.15998,-0.210259428571,2.414
0.249662333608,-0.0686747736955,-0.127624905596,-2.2106968595,0.00212448839007,2.13591717146,-0.0530920502829,-0.350199321511,-0.538106770476,-0.00330861034094,-0.622752245328,-0.0899539152883,0.0832514319462,-0.304609314345,0.573764752064,0.819001496493,0.00336228086937,0.0,0.818970339719,-0.573693679025,-0.0119955078843,0.0,-0.00789557164077,0.00963639344335,-0.999922396924,0.0,0.511047246645,0.0633631258887,0.304487443642,1.0,-0.15998,-0.210259428571,2.43
0.243571284507,-0.0778551743871,-0.127801256071,-2.22105144245,0.000746817539014,2.13743361835,-0.0583453881958,-0.364342165313,-0.536200059635,-0.00770621615097,-0.61384323963,-0.0822720807913,0.0872979854518,-0.320700140412,0.573916964418,0.818893733105,0.00362197963846,0.0,0.818866720637,-0.573845900765,-0.0117865562706,0.0,-0.00757362471244,0.00973061052894,-0.999923974824,0.0,0.508425565323,0.0597036737777,0.304590167217,1.0,-0.15998,-0.210259428571,2.447
0.237548578596,-0.0869292986436,-0.127826076834,-2.23160622944,-0.000618884746711,2.13862205334,-0.0636181555761,-0.353676022057,-0.5331230682,-0.000636371988803,-0.621929962989,-0.0791297498877,0.0809195678842,-0.310674150564,0.573865288837,0.818930674726,0.00345357246666,0.0,0.818900052757,-0.573793051778,-0.0120409396512,0.0,-0.00787921064694,0.00973819547639,-0.999921539716,0.0,0.505618391217,0.0561822297504,0.304494161378,1.0,-0.15998,-0.210259428571,2.464
0.230693250729,-0.0971236522503,-0.127855650265,-2.24293414249,-0.00220516188139,2.14003155099,-0.0696488004949,-0.367463274344,-0.534969054026,-0.00368344824662,-0.584144429591,-0.0942679124919,0.0721946490104,-0.316045254977,0.573761038184,0.819002933654,0.00363491804581,0.0,0.818975595004,-0.573689318044,-0.0118443257099,0.0,-0.00761537046823,0.00977290994408,-0.999923245236,0.0,0.502635684848,0.052240915902,0.30460219712,1.0,-0.15998,-0.210259428571,2.483
0.225170734828,-0.105072861865,-0.127940793254,-2.25190026123,-0.00347300913219,2.14097898318,-0.0743895522478,-0.37037576039,-0.539811923335,-0.00452873013641,-0.603829357927,-0.086301717601,0.0627505810638,-0.315259786378,0.573819031359,0.818962562781,0.0035758794405,0.0,0.818934278913,-0.57374728398,-0.0118931849741,0.0,-0.007688570158,0.00975313391075,-0.99992287816,0.0,0.500218247689,0.049072216972,0.304589755315,1.0,-0.15998,-0.210259428571,2.498
0.218382231977,-0.11455099748,-0.128125619226,-2.26262222267,-0.0049653253,2.14201169979,-0.0802674544997,-0.375496338924,-0.525456292153,-0.0106978119505,-0.580961592654,-0.090173431952,0.0719124777388,-0.326530304569,0.573935146826,0.818881744306,0.00344717007498,0.0,0.81885085239,-0.57386269378,-0.012068020899,0.0,-0.00790423187994,0.0097491672025,-0.999921235327,0.0,0.497286647433,0.0451944477984,0.30452560802,1.0,-0.15998,-0.210259428571,2.516
0.211967408228,-0.123498451194,-0.128158928484,-2.27234178168,-0.00628599919335,2.14311659312,-0.0859001581436,-0.375124038413,-0.52072796488,0.00567252582891,-0.582380684871,-0.0728270212022,0.0548893283124,-0.337089198441,0.573899224281,0.818905735607,0.00371799153815,0.0,0.81887907809,-0.57382667944,-0.0118635715444,0.0,-0.00758181001731,0.00985326969563,-0.99992271163,0.0,0.494649598028,0.0416672015137,0.304633477736,1.0,-0.15998,-0.210259428571,2.533
0.20664459933,-0.130804176202,-0.128181884773,-2.28041807315,-0.00742001386319,2.14378450531,-0.0905649627104,-0.38503552671,-0.519600975475,-0.00264908402396,-0.571248905484,-0.0796073484524,0.0464102677218,-0.33071980684,0.573847480703,0.818942239361,0.00366392991971,0.0,0.818914373273,-0.573774483761,-0.0119514824374,0.0,-0.00768545226154,0.00985896277688,-0.999921864286,0.0,0.492380353567,0.0387634508932,0.304618902795,1.0,-0.15998,-0.210259428571,2.547
0.199276400088,-0.140678041393,-0.128272476281,-2.29121374329,-0.00898792317197,2.14475473375,-0.0970205735276,-0.385024087921,-0.5253411276,-0.00887282818203,-0.554270376286,-0.0760559074628,0.0655389475279,-0.341936932308,0.573819896919,0.818961418337,0.00369703619799,0.0,0.818934172887,-0.573747029141,-0.0119127633195,0.0,-0.00763507700813,0.00986359980582,-0.999922204473,0.0,0.489347523852,0.0347691237596,0.304631737051,1.0,-0.15998,-0.210259428571,2.566
0.192158698956,-0.149968036648,-0.128452381754,-2.30123158605,-0.0104146826628,2.14561685411,-0.103198058049,-0.403357782542,-0.512001974636,-0.013787994011,-0.558387125363,-0.0780586272719,0.0275878184435,-0.343744954136,0.573938764776,0.818877429003,0.00384674635575,0.0,0.818852387123,-0.573865694306,-0.0118186252438,0.0,-0.00747063351854,0.00993327585616,-0.99992275685,0.0,0.486674425236,0.0311449069882,0.304684984545,1.0,-0.15998,-0.210259428571,2.583
0.185778397461,-0.158186140492,-0.128514155656,-2.31017907031,-0.0117520082126,2.14613937317,-0.108804462757,-0.392866112395,-0.510552824986,-0.00325169058242,-0.551366021137,-0.077400120569,0.0358891621669,-0.354514532618,0.573892616766,0.818910522318,0.00368344385609,0.0,0.818882606145,-0.573819151245,-0.011983568692,0.0,-0.00769998811831,0.00989378018527,-0.99992140856,0.0,0.483887445955,0.0275696015973,0.304628520351,1.0,-0.15998,-0.210259428571,2.6
0.17894550236,-0.166896975117,-0.128528320538,-2.31931809461,-0.0130525623303,2.14679174468,-0.114790930519,-0.403825902116,-0.517999667869,-0.00184029791738,-0.531881069222,-0.0755405746197,0.0452448502292,-0.360949637771,0.573861084834,0.818931719844,0.0038782014594,0.0,0.818906817576,-0.573787559942,-0.011840907231,0.0,-0.00747177462566,0.00997111345887,-0.999922371727,0.0,0.481224746285,0.0240579045955,0.304722730263,1.0,-0.15998,-0.210259428571,2.617
0.172011244206,-0.175464135395,-0.128579680913,-2.32852437571,-0.014362477383,2.14733145861,-0.120896753219,-0.411215663384,-0.503228333278,-0.00482407896672,-0.546162355718,-0.0808829569814,0.0268313369957,-0.358605078911,0.573830926207,0.818952940319,0.0038596077764,0.0,0.818927119718,-0.573756571972,-0.0119379901854,0.0,-0.00756232243506,0.0100113181936,-0.999921289296,0.0,0.478485810664,0.0205187331387,0.304683894943,1.0,-0.15998,-0.210259428571,2.634
0.165288824031,-0.183541711708,-0.128760254247,-2.33711229857,-0.0157124114922,2.14770055919,-0.126739025947,-0.423402142122,-0.499180255454,-0.0083620511822,-0.535821176019,-0.0862872644837,0.0227192206617,-0.367064401088,0.573930737832,0.818883470493,0.00375723645162,0.0,0.818855979992,-0.573856301643,-0.0120239759046,0.0,-0.00769026936488,0.009977757002,-0.999920648913,0.0,0.475887001184,0.0170571267769,0.304653808666,1.0,-0.15998,-0.210259428571,2.65
0.158183442161,-0.192098973906,-0.12880719825,-2.34590837442,-0.0169834718116,2.1482106714,-0.133023384904,-0.419981342463,-0.499692216533,-0.00132273211851,-0.518036439587,-0.0793700254443,0.038971159746,-0.364668832288,0.573878191567,0.818919113054,0.00400679682346,0.0,0.818895701034,-0.573803982212,-0.0118138785764,0.0,-0.00737563699617,0.0100610696732,-0.9999221844,0.0,0.473085048619,0.0133268322176,0.30475777785,1.0,-0.15998,-0.210259428571,2.668
0.15186099862,-0.199536381517,-0.128838586684,-2.3536674568,-0.0182016093902,2.1484978261,-0.138669949552,-0.426748130152,-0.492134855676,-0.00496940838569,-0.518319954833,-0.0805602020139,0.0211804387579,-0.371526991368,0.573769904418,0.818995224452,0.00395803098485,0.0,0.818971121042,-0.573695799032,-0.0118397623891,0.0,-0.00742614608323,0.0100350056121,-0.999922072472,0.0,0.470834883417,0.0104183108009,0.304745149416,1.0,-0.15998,-0.210259428571,2.682
0.144113438684,-0.208403463894,-0.128980423829,-2.36301393884,-0.0195605155659,2.14870299275,-0.145480157844,-0.438028406117,-0.49150885964,-0.0111530124008,-0.512983929602,-0.0749127352875,0.0148006686158,-0.382506177098,0.573840638225,0.818946140246,0.00385852300563,0.0,0.818919193749,-0.573764820273,-0.0120843712378,0.0,-0.00768271233966,0.0100945162032,-0.9999195351,0.0,0.467885208114,0.00661969324237,0.304662580881,1.0,-0.15998,-0.210259428571,2.7
0.137053365172,-0.216319532728,-0.129134223947,-2.37091221011,-0.0207560980709,2.14896681086,-0.151638193105,-0.439140221625,-0.48883893125,-0.00514962893356,-0.487839630973,-0.0786776519475,0.0315451985585,-0.385785616375,0.573987574512,0.818841995367,0.00409851565386,0.0,0.81881896325,-0.573911919367,-0.0118895387585,0.0,-0.00738360881289,0.0101805858604,-0.999920915869,0.0,0.465400747296,0.00319185247539,0.30477562173,1.0,-0.15998,-0.210259428571,2.716
0.129669097719,-0.224580033176,-0.129150560903,-2.37938934268,-0.0221064562086,2.14913448755,-0.158243828287,-0.435446493191,-0.483707866863,-0.00097999356573,-0.512942061321,-0.0825849820294,0.00254655787617,-0.387628678801,0.573833683375,0.818950047871,0.00405830225352,0.0,0.818926594937,-0.573758332888,-0.0118892576209,0.0,-0.00740836599646,0.0101461034828,-0.999921083235,0.0,0.46267509415,-0.000297497819656,0.304758273478,1.0,-0.15998,-0.210259428571,2.733
0.120694706392,-0.234203639261,-0.12924819468,-2.38927346534,-0.0236236366664,2.14915634732,-0.166172665834,-0.455462737977,-0.481696885048,-0.00816875162888,-0.491731613014,-0.0732924495718,-0.00101630503841,-0.399840227766,0.573845361556,0.81894234583,0.00396006677254,0.0,0.818916503163,-0.573768865211,-0.0120746454707,0.0,-0.00761642210833,0.0101721391747,-0.99991925559,0.0,0.459424652782,-0.00450544580376,0.304690842234,1.0,-0.15998,-0.210259428571,2.753
0.114309530817,-0.240962567941,-0.129405984014,-2.39591274422,-0.0247147161171,2.14920645656,-0.171804112763,-0.461470578169,-0.477010535777,-0.00851965735774,-0.464601063784,-0.0789979236263,0.00755852782939,-0.40205071143,0.573929180969,0.818882999744,0.00408348667306,0.0,0.818859518231,-0.57385323859,-0.0119288249298,0.0,-0.00742513284671,0.0101902988465,-0.999920509446,0.0,0.457232058668,-0.00750806944659,0.304764121956,1.0,-0.15998,-0.210259428571,2.767
0.106104313882,-0.249570395743,-0.129493727206,-2.40442854476,-0.0260051179252,2.14923626842,-0.179136522476,-0.454888358951,-0.472106591822,-0.00265826185114,-0.479005889723,-0.072919080465,-0.00265935975296,-0.412002294506,0.573910951063,0.818895006539,0.00423502263046,0.0,0.818873668461,-0.573834723828,-0.0118478576756,0.0,-0.00727208845739,0.0102677614703,-0.999920841769,0.0,0.454383353878,-0.0112576947748,0.30480771748,1.0,-0.15998,-0.210259428571,2.785
0.0986759617902,-0.257082995304,-0.129547588232,-2.4120396624,-0.0272015020867,2.14914680525,-0.185766803101,-0.47084996449,-0.471934435048,-0.00438294842634,-0.46969806209,-0.0751572446088,-0.00688801434112,-0.424376044958,0.573864122357,0.818928244383,0.00415289342853,0.0,0.818905079932,-0.573787132899,-0.011980946651,0.0,-0.00742880182083,0.0102764588136,-0.999919600417,0.0,0.451780825906,-0.0146043903831,0.304735821763,1.0,-0.15998,-0.210259428571,2.801
0.0907048737812,-0.265093045837,-0.129681672709,-2.41984586093,-0.0284586552519,2.14903151017,-0.192809567558,-0.471162905642,-0.477150655223,-0.0103610538527,-0.447959392701,-0.068643263901,-0.00292299019226,-0.420501901282,0.573946968426,0.818869673927,0.00425222989321,0.0,0.818848116507,-0.573870050416,-0.0119026984454,0.0,-0.0073066720877,0.0103136466975,-0.999920117427,0.0,0.449082138922,-0.0181890519013,0.304775883093,1.0,-0.15998,-0.210259428571,2.818
0.0830741944182,-0.272566570409,-0.129816513989,-2.42695573323,-0.0296252765754,2.14892771911,-0.199621094708,-0.474211361913,-0.462188403779,-0.00948405147747,-0.454972464796,-0.0707986965963,-0.0191710114953,-0.415108885514,0.573994472195,0.818835330169,0.00444914123398,0.0,0.818817388233,-0.573918418234,-0.0116825014381,0.0,-0.00701273583968,0.0103489247009,-0.999921857594,0.0,0.446596910147,-0.0215873967715,0.30487319958,1.0,-0.15998,-0.210259428571,2.834
0.0754722477698,-0.279869801712,-0.129841140925,-2.43424026068,-0.0308139681246,2.14865122039,-0.206529759441,-0.478037519443,-0.454096367437,-0.0104705766403,-0.452499372711,-0.0772846358023,-0.0222735147851,-0.435544109165,0.573832270509,0.818949750987,0.00431017194038,0.0,0.818929140267,-0.573755444353,-0.011853277954,0.0,-0.00723439369644,0.0103317177205,-0.999920456415,0.0,0.443987062094,-0.0248827973469,0.304785420073,1.0,-0.15998,-0.210259428571,2.85
0.0671923831992,-0.287632350774,-0.129929583542,-2.44175859724,-0.0320604074164,2.14836875629,-0.213924585271,-0.486418425982,-0.455443246789,-0.00900018392143,-0.431365284513,-0.0626923422183,-0.0202040701134,-0.435897537359,0.573846145303,0.818939921647,0.00433049127472,0.0,0.818919560987,-0.573769227298,-0.0118479255409,0.0,-0.0072181755539,0.0103454095962,-0.999920432055,0.0,0.441104663331,-0.0286729194461,0.304781076491,1.0,-0.15998,-0.210259428571,2.868
0.0587820795888,-0.295380509764,-0.130111970389,-2.44897027636,-0.0331771235843,2.14810282673,-0.221446281249,-0.492930040676,-0.450655778678,-0.00912937425744,-0.419768607809,-0.0672898564319,-0.00845469279251,-0.437160231508,0.573980232324,0.818844522943,0.00459206376081,0.0,0.818828194355,-0.573903374372,-0.011664129445,0.0,-0.00691584077464,0.0104552923031,-0.999921425918,0.0,0.438613405885,-0.0320843513023,0.30487700266,1.0,-0.15998,-0.210259428571,2.884
0.0504243976403,-0.303004737483,-0.130157496849,-2.45617508414,-0.0344081906409,2.14770118541,-0.229057665642,-0.493627937739,-0.446096501414,-0.00120972704062,-0.429725883752,-0.0816410267896,-0.0294858765104,-0.442155027038,0.573841967962,0.818941317944,0.00461090788189,0.0,0.818925610961,-0.573765646933,-0.0116005608836,0.0,-0.00685473004989,0.0104330801103,-0.999922078722,0.0,0.435912768797,-0.0355965611583,0.304899848439,1.0,-0.15998,-0.210259428571,2.901
0.0418488832729,-0.310477095248,-0.130248119432,-2.46340578509,-0.0356413434927,2.1471636103,-0.236710548186,-0.505230181421,-0.439531402833,-0.00669055025402,-0.41489952776,-0.0568704805876,-0.0308467447304,-0.458508244273,0.573876410205,0.81891801028,0.00446151895852,0.0,0.818899345062,-0.573799034176,-0.0118016074186,0.0,-0.00710467038292,0.0104263997937,-0.999920403755,0.0,0.433133181449,-0.0391733907937,0.304814418145,1.0,-0.15998,-0.210259428571,2.918
0.0331531847023,-0.317967707166,-0.130423289348,-2.4703980604,-0.0367802936521,2.1466920577,-0.24453229564,-0.512483013924,-0.433499835867,-0.00620332688542,-0.402000303374,-0.0732738098654,-0.0199109770051,-0.463430762981,0.573980678656,0.818844340923,0.00456867259735,0.0,0.818826942898,-0.573902744506,-0.01178237386,0.0,-0.00702609168953,0.010504009395,-0.999920146723,0.0,0.430416179289,-0.0427890316813,0.304830988372,1.0,-0.15998,-0.210259428571,2.935
0.0250230196522,-0.324935564779,-0.130473794831,-2.47667723037,-0.0378799038757,2.14627582234,-0.252005753645,-0.514452874681,-0.431332424985,-0.00162015538903,-0.390529263806,-0.0728319455465,-0.0313630619684,-0.471204784009,0.573846024259,0.818937768417,0.0047348498657,0.0,0.818923985648,-0.573769830622,-0.0115080015226,0.0,-0.00670775222544,0.0104815048458,-0.99992256906,0.0,0.427949403137,-0.0461005301212,0.30493590921,1.0,-0.15998,-0.210259428571,2.951
0.0161640406815,-0.332160424526,-0.130545266013,-2.48349915777,-0.0390257605003,2.14564580937,-0.260010984707,-0.520926680911,-0.414694343798,-0.000828043029962,-0.396978264812,-0.0682912120012,-0.0488247892277,-0.484653603899,0.573845783638,0.818938390212,0.00465580705169,0.0,0.818922720874,-0.57376849438,-0.0116635755788,0.0,-0.00688052687787,0.0105060421205,-0.999921137605,0.0,0.425193611711,-0.0496621335698,0.304870270628,1.0,-0.15998,-0.210259428571,2.968
0.00718004430363,-0.339403603284,-0.130733574623,-2.49015148327,-0.040108707335,2.14496305034,-0.268121365694,-0.526793644664,-0.42618859529,-0.0115218713733,-0.382685224582,-0.0723365997483,-0.038349555563,-0.478939571612,0.57398039166,0.818843671987,0.0047220481146,0.0,0.818828121032,-0.573901733766,-0.0117496846155,0.0,-0.00691129635924,0.0106108386541,-0.999919818828,0.0,0.422446937385,-0.0532757566592,0.304865708993,1.0,-0.15998,-0.210259428571,2.985
-0.0022827611992,-0.34693844002,-0.130820751843,-2.49702156086,-0.0412712504628,2.14424060584,-0.276872115327,-0.53339235087,-0.412652053258,-0.004768959912,-0.375280411102,-0.058123370172,-0.0442380702883,-0.48481929265,0.57385548943,0.818931004488,0.00475752468132,0.0,0.818915699579,-0.573776405619,-0.0117669128677,0.0,-0.00690666733794,0.0106487242164,-0.999919448065,0.0,0.419572819145,-0.0569986513443,0.304866795824,1.0,-0.15998,-0.210259428571,3.003
-0.0114893708528,-0.354014235169,-0.130927682107,-2.50319125006,-0.0424161933104,2.14360288237,-0.285188675258,-0.541904491068,-0.407003102253,-0.00634199867343,-0.361145868891,-0.0716945078842,-0.0330182295467,-0.498348324817,0.573919494036,0.818885259752,0.00490842414079,0.0,0.818873509177,-0.573842455173,-0.0114786545659,0.0,-0.00658316561216,0.0106074063468,-0.999922069394,0.0,0.41693083874,-0.0606175533357,0.304981746844,1.0,-0.15998,-0.210259428571,3.02
-0.02074942777,-0.360889449793,-0.131099821648,-2.5094956354,-0.0435001622683,2.1427983479,-0.29363936887,-0.54338167725,-0.395139076419,-0.00773096052903,-0.371401150779,-0.0631924788334,-0.0521561610815,-0.501626209135,0.573956622182,0.818859535031,0.0048584610088,0.0,0.818845952376,-0.573877838129,-0.0116739060627,0.0,-0.00677125655777,0.0106788524242,-0.999920052902,0.0,0.414002461658,-0.0644207916403,0.304914675259,1.0,-0.15998,-0.210259428571,3.038
-0.0288446232658,-0.366952570425,-0.131139215521,-2.51495647123,-0.0444887336717,2.142072176,-0.301219425344,-0.549587203139,-0.41309708521,-0.0038225688666,-0.35486575415,-0.0654550193045,-0.0481126210174,-0.506639883709,0.573782148387,0.818982058984,0.00481457744515,0.0,0.818967773644,-0.573703324011,-0.0117059237931,0.0,-0.00682493388754,0.0106598391091,-0.999919890845,0.0,0.411746055065,-0.0672885226592,0.304900385769,1.0,-0.15998,-0.210259428571,3.052
-0.0383498371044,-0.373664004398,-0.131243722088,-2.52094325136,-0.0455215050956,2.14124701267,-0.309816900031,-0.55980958795,-0.390146379749,-0.0116248499042,-0.347103557571,-0.0490920101615,-0.0569878534422,-0.507389158002,0.57390456554,0.818896145092,0.00483736562749,0.0,0.818881734727,-0.573824988929,-0.0117615268348,0.0,-0.00685579970314,0.010711430533,-0.999919128363,0.0,0.40901680021,-0.0708891397633,0.304887237988,1.0,-0.15998,-0.210259428571,3.069
-0.0478941876134,-0.380304934804,-0.13140325122,-2.52662833671,-0.0465365713999,2.14046328941,-0.318546585789,-0.553591205523,-0.392272231939,-0.00528717358368,-0.331678748469,-0.0611699000407,-0.0361721295557,-0.520854216118,0.574007633534,0.818822912597,0.00500213477708,0.0,0.818811479886,-0.573928857001,-0.0115833678177,0.0,-0.00661398481869,0.0107449538024,-0.999920397418,0.0,0.406362284921,-0.074501885138,0.304969882138,1.0,-0.15998,-0.210259428571,3.086
-0.057393093949,-0.386820394567,-0.131488835126,-2.53234657014,-0.047600090107,2.13960990251,-0.327440124398,-0.572353769781,-0.378007705627,-0.00730479182461,-0.34048974754,-0.0725117222306,-0.0528711651898,-0.524188291516,0.573857143341,0.818928433972,0.00499459413687,0.0,0.818917009716,-0.573778587469,-0.0115676558622,0.0,-0.0066074183444,0.0107285466013,-0.999920617004,0.0,0.403656670548,-0.0780243657465,0.304967924304,1.0,-0.15998,-0.210259428571,3.103
-0.0672023035936,-0.393280107425,-0.13162788189,-2.5380694499,-0.0486484205637,2.13862712979,-0.33640539529,-0.579580790447,-0.372302314145,-0.0148658505131,-0.327580229737,-0.0671142760718,-0.0531594211811,-0.521823475776,0.573945546646,0.818866878631,0.00492863744367,0.0,0.818853627967,-0.573865623065,-0.0117358225255,0.0,-0.00678183133344,0.0107717631163,-0.99991898466,0.0,0.400863884357,-0.081637564464,0.304915613562,1.0,-0.15998,-0.210259428571,3.12
-0.0763505471601,-0.399242063699,-0.131709395747,-2.54317646576,-0.0495680540417,2.13779020642,-0.344941015157,-0.566049771551,-0.370585580167,0.000909506624657,-0.316164877205,-0.051597705681,-0.0538993622003,-0.528453008312,0.57388042145,0.818912126065,0.00499385236292,0.0,0.818899979849,-0.573800711644,-0.0116753253203,0.0,-0.00669571835415,0.010789913954,-0.999919369306,0.0,0.398330519907,-0.0849626494287,0.304941864801,1.0,-0.15998,-0.210259428571,3.136
-0.0861598080974,-0.405418767671,-0.131791572391,-2.54851902535,-0.0505682322566,2.1368199842,-0.354146815208,-0.589088347669,-0.36509840742,-0.00569579615519,-0.306089815692,-0.054019767944,-0.056149001625,-0.54901200691,0.573759461924,0.81899706464,0.00496335222071,0.0,0.818984189444,-0.573679336892,-0.011732977709,0.0,-0.00676203188248,0.0107970218486,-0.999918846329,0.0,0.395609988054,-0.0884923777619,0.304925030505,1.0,-0.15998,-0.210259428571,3.153
-0.0963090451224,-0.411493495581,-0.131958878876,-2.55358200537,-0.0515449293406,2.13593385973,-0.363392161261,-0.595175702065,-0.357809263083,-0.00625805986867,-0.30034745623,-0.0528058390499,-0.0570958845506,-0.549335636013,0.573967316586,0.818850742152,0.00507232386042,0.0,0.818840150858,-0.573888224214,-0.0115698034936,0.0,-0.00656312160478,0.0107943193238,-0.999920200869,0.0,0.392931699943,-0.0921670028532,0.304987424552,1.0,-0.15998,-0.210259428571,3.17
-0.106218729298,-0.417471664418,-0.132021960182,-2.55866410784,-0.0524086032515,2.13497081762,-0.372801919392,-0.577480167163,-0.347891226101,-0.0039209619663,-0.303861395221,-0.0530108442706,-0.0666985482558,-0.553711982832,0.573813004792,0.818958431367,0.00514491258965,0.0,0.818948448489,-0.573733169565,-0.0115946435722,0.0,-0.00654385009435,0.0108667846698,-0.999919542272,0.0,0.390231521054,-0.0956456202682,0.304986914387,1.0,-0.15998,-0.210259428571,3.187
-0.115823733343,-0.423053229551,-0.132157607539,-2.56341404185,-0.0532973954659,2.13392981712,-0.381731194256,-0.602176524605,-0.344376059585,-0.0145238182274,-0.295782238389,-0.0549311902041,-0.0684286798283,-0.555389469101,0.573857896427,0.818927129497,0.00512036949112,0.0,0.818915936009,-0.573776660437,-0.0117379976686,0.0,-0.00667474473949,0.0109293052479,-0.999917995672,0.0,0.387610027676,-0.0990194362866,0.304960080041,1.0,-0.15998,-0.210259428571,3.203
-0.127384431639,-0.429423715486,-0.13229582604,-2.56877753884,-0.054351692177,2.13284580877,-0.392396537909,-0.602026430503,-0.3291643467,0.000196902188622,-0.277431361582,-0.0507030488412,-0.0480739600483,-0.564824059741,0.573980285932,0.81884132912,0.00512405969603,0.0,0.818830218812,-0.573899073963,-0.011733395314,0.0,-0.00666722426422,0.0109306829689,-0.999918030786,0.0,0.384564749734,-0.103058932742,0.304953003346,1.0,-0.15998,-0.210259428571,3.222
-0.136956527518,-0.434608357148,-0.132334723815,-2.57314848526,-0.0551571219898,2.1319232878,-0.401542263094,-0.610499338249,-0.321547275611,-0.000284920778506,-0.271522955709,-0.0465036940643,-0.0595950715973,-0.570019766569,0.573798267638,0.818968861723,0.00512820492734,0.0,0.818957515477,-0.573716599516,-0.0117727730195,0.0,-0.00669952721324,0.0109551896514,-0.999917546678,0.0,0.382038483427,-0.106331996932,0.304933477557,1.0,-0.15998,-0.210259428571,3.238
-0.147521473268,-0.440052423853,-0.132502004247,-2.57761327458,-0.0560314141122,2.13087122878,-0.411346190697,-0.625445142768,-0.322033745462,-0.00867181128998,-0.255268314852,-0.0492837157756,-0.0576147528883,-0.571313595365,0.573947713609,0.818863859143,0.00517195648134,0.0,0.818852904308,-0.573865580262,-0.0117882907376,0.0,-0.00668512614824,0.0110011459081,-0.999917138506,0.0,0.379312509783,-0.109977473417,0.304950477745,1.0,-0.15998,-0.210259428571,3.255
-0.156746105677,-0.444848984984,-0.132569673515,-2.58141708005,-0.056791905074,2.13002336253,-0.420109811653,-0.610976324458,-0.314915846144,-0.000779617190154,-0.257345775568,-0.0446450564994,-0.0558472328444,-0.59108377366,0.573856898441,0.8189269448,0.00525985666894,0.0,0.818918234771,-0.573776338032,-0.0115924792582,0.0,-0.00647553699766,0.0109600277453,-0.999918969323,0.0,0.376960511415,-0.113111506059,0.305025325917,1.0,-0.15998,-0.210259428571,3.27
-0.167277350967,-0.45012593412,-0.132661473649,-2.58577599452,-0.057656290451,2.12898268736,-0.430059350444,-0.625465543039,-0.306920218151,-0.0083538677133,-0.252828790626,-0.0498117941789,-0.0616606437241,-0.591511337821,0.573809399108,0.818960309251,0.0052471200001,0.0,0.81895118117,-0.57372845998,-0.0116346022971,0.0,-0.00651798090956,0.0109733905465,-0.999918546995,0.0,0.374218820974,-0.116644829486,0.30501079804,1.0,-0.15998,-0.210259428571,3.287
-0.178074237199,-0.455160560632,-0.132826829293,-2.58995660396,-0.0584587185117,2.12791106328,-0.440170742068,-0.630926927313,-0.291031775612,-0.00726701441703,-0.236842446015,-0.0455301798765,-0.0583660342305,-0.594966258336,0.573934973912,0.818872243123,0.00525757203407,0.0,0.818862236436,-0.573852278013,-0.011787606148,0.0,-0.00663560155482,0.0110707597675,-0.999916700066,0.0,0.371453814238,-0.120266717629,0.304970432778,1.0,-0.15998,-0.210259428571,3.304
-0.188681371382,-0.460040499992,-0.132870946873,-2.59388001606,-0.0591697791263,2.12695214357,-0.450365943871,-0.633631751511,-0.279669434196,-0.00460749069159,-0.229429035205,-0.0459279584219,-0.0543755677889,-0.612430245221,0.573797659443,0.818967894592,0.00534607766924,0.0,0.818959209903,-0.573714978135,-0.0117338518526,0.0,-0.0065426490803,0.0111112902001,-0.999916863031,0.0,0.36879782034,-0.123761075113,0.304991810684,1.0,-0.15998,-0.210259428571,3.321
-0.199001149159,-0.464493919973,-0.133024949037,-2.59756750817,-0.0599202154833,2.12600899453,-0.460048692171,-0.648321999029,-0.280075577662,-0.0112360973906,-0.231149919396,-0.0489707496713,-0.0656212993187,-0.606721636242,0.573918902517,0.818882957624,0.0053424664982,0.0,0.818873541286,-0.573835053305,-0.0118406875313,0.0,-0.00663057033719,0.0111706139225,-0.999915622901,0.0,0.366201231668,-0.127177169155,0.304947760788,1.0,-0.15998,-0.210259428571,3.337
-0.21048989043,-0.469425327033,-0.133098692782,-2.60151666923,-0.0607286686208,2.12493644464,-0.471021756865,-0.629234570735,-0.276872181839,-0.00068656594865,-0.215891772167,-0.0469288469918,-0.0557782973131,-0.608718552471,0.573840965724,0.818937523425,0.00535029757749,0.0,0.818928154198,-0.573757010841,-0.011845576128,0.0,-0.00663114370273,0.0111792013987,-0.999915523126,0.0,0.363332426546,-0.130918199705,0.304952521328,1.0,-0.15998,-0.210259428571,3.355
-0.22216031496,-0.47429563751,-0.133250322171,-2.6051917345,-0.0615023568055,2.12391304815,-0.482117346451,-0.655676681951,-0.265980609352,-0.0129247476117,-0.200762990684,-0.0486783810746,-0.0560471567405,-0.615077941914,0.573894454384,0.818899153055,0.00548445565778,0.0,0.818892763002,-0.573812162252,-0.011618608181,0.0,-0.00636754363426,0.0111592507,-0.999917459349,0.0,0.360490781643,-0.1347367563,0.305053281917,1.0,-0.15998,-0.210259428571,3.373
-0.232015110997,-0.47812884601,-0.133339742738,-2.6082142149,-0.0621784034122,2.12307511338,-0.491454074356,-0.64948929848,-0.24927982462,-0.00195387824567,-0.202596226268,-0.0532595919205,-0.0519389050939,-0.628527684573,0.573932384745,0.818872577176,0.00548333764719,0.0,0.818866489074,-0.573850644788,-0.0115696780277,0.0,-0.00632759704504,0.0111305486463,-0.999918032842,0.0,0.358088461658,-0.137925942052,0.305066332808,1.0,-0.15998,-0.210259428571,3.388
-0.242972696268,-0.482263023116,-0.133376917454,-2.61157739732,-0.0628203728825,2.12211338074,-0.502115969314,-0.651693733539,-0.237942738385,-0.00424749737892,-0.195074060412,-0.0371852118474,-0.0593724543662,-0.631230889576,0.573746946796,0.819002464274,0.00549103429593,0.0,0.81899573342,-0.573663915185,-0.0116810939485,0.0,-0.00641696004295,0.0111993412706,-0.99991669522,0.0,0.355387977055,-0.141395693884,0.305024963848,1.0,-0.15998,-0.210259428571,3.405
-0.255020715534,-0.486486455802,-0.1335428878,-2.6149699457,-0.0636000672481,2.12105345049,-0.513480886168,-0.675014631188,-0.229747475366,-0.00586106881755,-0.181245937711,-0.0386269364697,-0.0578061000874,-0.632160986813,0.573909181017,0.818889056008,0.00545094455302,0.0,0.818881006497,-0.573824875385,-0.0118176346393,0.0,-0.00654957019469,0.0112461405024,-0.999915310141,0.0,0.352449116453,-0.145252359283,0.30498704351,1.0,-0.15998,-0.210259428571,3.423
-0.265507278635,-0.490059512867,-0.13357349241,-2.61784146948,-0.0641528260918,2.12019667462,-0.523686550348,-0.658056747759,-0.226168024355,-0.00485911162312,-0.173997045685,-0.0356511655569,-0.0593635126745,-0.633468552648,0.573769193891,0.81898698279,0.00547549659761,0.0,0.818978649433,-0.573683791361,-0.0119006807649,0.0,-0.00660542615997,0.0113127766237,-0.999914191034,0.0,0.349914444576,-0.14853525523,0.304956259543,1.0,-0.15998,-0.210259428571,3.439
-0.277597789858,-0.493949634009,-0.133737870711,-2.62087074046,-0.0648053224568,2.1192807149,-0.53526035747,-0.674700928237,-0.215772017765,-0.00842990352957,-0.17007190377,-0.0305052411986,-0.053001345152,-0.648810747731,0.573865678426,0.818918868035,0.00555136038826,0.0,0.818911492506,-0.573779926616,-0.011887394838,0.0,-0.00654967887007,0.0113680595948,-0.99991393076,0.0,0.347032954142,-0.152362468182,0.304960576171,1.0,-0.15998,-0.210259428571,3.457
-0.28830110825,-0.49733613227,-0.133763765324,-2.62345088738,-0.0653558138679,2.11843848297,-0.545599908211,-0.657718391289,-0.210359043001,-0.000422273211568,-0.160389046244,-0.0288840332004,-0.0503167044705,-0.642962169932,0.573804178751,0.818961746249,0.00558296785222,0.0,0.818954982342,-0.573718671979,-0.0118477517536,0.0,-0.00649992770709,0.0113707077252,-0.999914225294,0.0,0.344489142967,-0.155685931548,0.304985459453,1.0,-0.15998,-0.210259428571,3.473
-0.300431606695,-0.500920667889,-0.133831371628,-2.62618615699,-0.0659539446727,2.11753396495,-0.55731634903,-0.685552237524,-0.19395594387,-0.00716640593299,-0.148629485735,-0.0272528323533,-0.0457088172635,-0.654372633229,0.573784232583,0.81897542565,0.00562614620437,0.0,0.818969321793,-0.573698746258,-0.0118213960952,0.0,-0.00645384413161,0.0113907911359,-0.999914295214,0.0,0.34162556269,-0.159449097293,0.305003962773,1.0,-0.15998,-0.210259428571,3.491
-0.310728539672,-0.503737921911,-0.133946149665,-2.62833220782,-0.0664590819847,2.11684780641,-0.567164989261,-0.674639353668,-0.179942691247,-0.000581057848415,-0.142096792364,-0.0339021115829,-0.044069331032,-0.656924685542,0.573897975579,0.818895403602,0.0056726084812,0.0,0.818890160645,-0.573812757466,-0.0117716213915,0.0,-0.00638483446369,0.0114011724642,-0.999914619933,0.0,0.339218738544,-0.162657535251,0.305018025888,1.0,-0.15942,-0.209523428571,3.506
-0.322143068575,-0.506738754174,-0.133969392884,-2.63060060688,-0.0669690486495,2.11613562149,-0.578350616483,-0.677197202243,-0.170879723289,-0.00253422184769,-0.131830440957,-0.0330137156552,-0.0414751629925,-0.657391113147,0.573757085176,0.818993839381,0.00571359507809,0.0,0.81898968882,-0.573672759597,-0.0116705357021,0.0,-0.00628048390542,0.0113756470184,-0.999915571524,0.0,0.33657311229,-0.16616261811,0.305042383572,1.0,-0.157516,-0.207021028571,3.523
-0.333801936603,-0.509553419122,-0.134038543704,-2.63274701024,-0.0674671169711,2.11540949759,-0.589458047421,-0.677196965624,-0.165349071007,0.0011202964561,-0.123847978408,-0.0277938831779,-0.0453950702394,-0.65536667603,0.573908034144,0.818887823234,0.00574875684167,0.0,0.818884172794,-0.573823640612,-0.0116570975707,0.0,-0.00624720295301,0.0113978873862,-0.999915526741,0.0,0.334030056539,-0.16953101813,0.305044073585,1.0,-0.155724,-0.204665828571,3.539
-0.34440062302,-0.512018972438,-0.134002006654,-2.63463642078,-0.0678209499268,2.11473258885,-0.599869452048,-0.661923419957,-0.145786921122,-0.0037230084611,-0.115576115447,-0.0251486882536,-0.0439423334266,-0.640800505721,0.573794626802,0.818966923716,0.00580094929125,0.0,0.818963714836,-0.573709646091,-0.0116800113845,0.0,-0.00623760252083,0.0114529152587,-0.999914957907,0.0,0.331419776334,-0.172926700887,0.305045868516,1.0,-0.15382,-0.202163428571,3.556
-0.357225253558,-0.514662698778,-0.134030639512,-2.63672453898,-0.0682852280083,2.11395444817,-0.612181451578,-0.683584249287,-0.136689513259,-0.00326184695476,-0.10603762491,-0.0167801380653,-0.0439192123484,-0.64045667845,0.573919085795,0.818879610496,0.00581492702372,0.0,0.818875738848,-0.573832486936,-0.0118130505734,0.0,-0.0063367942199,0.0115416600612,-0.999913313804,0.0,0.328454969834,-0.176799671605,0.305006961966,1.0,-0.151692,-0.199366628571,3.575
-0.367747991622,-0.516684160372,-0.133974033273,-2.63831164079,-0.0685995519216,2.11338358886,-0.622458406301,-0.648090988714,-0.121955092595,0.00319690309877,-0.0958575450813,-0.0160486235055,-0.0290708284485,-0.638277597911,0.573856413779,0.818923353189,0.0058399372344,0.0,0.818919378518,-0.573768954077,-0.0118737410168,0.0,-0.00637303183015,0.0115964834769,-0.999912449186,0.0,0.326050853609,-0.179940613704,0.304984197798,1.0,-0.1499,-0.197011428571,3.591
-0.378915823465,-0.51867059561,-0.133972097331,-2.63986021624,-0.0689251786819,2.11278754725,-0.633277738807,-0.658129099268,-0.116437180066,-0.00306481801381,-0.0878018973865,-0.0158194641201,-0.0363083205058,-0.644337770368,0.573913815611,0.818882824056,0.0058821439366,0.0,0.818878812143,-0.573825112716,-0.011957338376,0.0,-0.00641646064684,0.0116794695976,-0.999911205569,0.0,0.323495432471,-0.183280083461,0.304961275725,1.0,-0.147996,-0.194509028571,3.608
