nelsonifechukwu/NELSON_IML_WORK/CNN-GradCAM/train2dof/data_sample_2022-02-22-08-06-53/robot_state.csv
position_joint1,position_joint2,position_joint3,position_joint4,position_joint5,position_joint6,position_joint7,velocity_joint1,velocity_joint2,velocity_joint3,velocity_joint4,velocity_joint5,velocity_joint6,velocity_joint7,ee_T_00,ee_T_10,ee_T_20,ee_T_30,ee_T_01,ee_T_11,ee_T_21,ee_T_31,ee_T_02,ee_T_12,ee_T_22,ee_T_32,ee_T_03,ee_T_13,ee_T_23,ee_T_33,v_x,v_y,time
0.465066952928,0.547723868618,-0.124020853223,-1.35583637707,0.0795188826632,1.89412878146,0.15912469843,-0.000508762154899,0.00248142218925,-0.000217359668734,0.000872154728183,3.97339693606e-05,-0.000271369724265,-0.0101748514466,0.573810891651,0.818973587402,0.00201758823251,0.0,0.818931345142,-0.573752065963,-0.0118644700195,0.0,-0.00855925695002,0.00846039125477,-0.999927577828,0.0,0.661691585337,0.260872656125,0.303256934742,1.0,0.0,0.0,0.0
0.465066961745,0.547721363278,-0.124020853151,-1.35584196721,0.0795192360652,1.89412844261,0.159131653811,-0.00168597248681,0.000827442580475,-0.000422460366418,-0.000822507423335,-0.000143782218233,8.53960604357e-05,0.000695082166832,0.57381697256,0.818969333102,0.00201502913194,0.0,0.818927048672,-0.573758147758,-0.011866917703,0.0,-0.00856266715265,0.00845976352662,-0.999927553942,0.0,0.661690279868,0.260872064914,0.30325602007,1.0,-0.00018,-0.000236571428571,0.01
0.465067253932,0.547711574781,-0.124019321294,-1.3558398035,0.0795198478831,1.8941312966,0.159124753646,0.00134948949781,-0.00211358468195,0.000127572099259,0.00139552112781,8.29918518902e-05,-4.39236611304e-05,-0.0108685348473,0.573810058178,0.818974144327,0.00202853629211,0.0,0.818932028312,-0.573751172164,-0.0118605373841,0.0,-0.00854976298941,0.00846709200433,-0.999927602332,0.0,0.66169114357,0.260873826184,0.303264182541,1.0,-0.00052,-0.000683428571429,0.027
0.465069054804,0.547700891712,-0.124023991958,-1.35585445337,0.0795149747295,1.89413676799,0.159126279543,7.22473692052e-05,-0.00157792775368,-0.00155062297212,-0.00109089270057,1.18972065572e-05,0.00126058810837,-0.00112708362041,0.573812624306,0.818972351544,0.00202644869201,0.0,0.818930268477,-0.573753805947,-0.0118546377446,0.0,-0.00854610243978,0.00846202388603,-0.999927676527,0.0,0.661690035322,0.260870298021,0.303265398676,1.0,-0.00084,-0.001104,0.043
0.465068479618,0.547634671058,-0.124018702599,-1.35592755527,0.0795157888973,1.89414950882,0.159131696451,0.00191160248486,-0.00926537638353,0.000797534058265,-0.00236438530427,5.99345016913e-05,0.000609783576294,0.00018528890584,0.573808411239,0.818975250514,0.00204771531716,0.0,0.818933338022,-0.573749402269,-0.0118557232153,0.0,-0.00853483277305,0.00848001930894,-0.999927620332,0.0,0.661673357717,0.260871744671,0.303286994889,1.0,-0.00118,-0.00155085714286,0.06
0.465064806356,0.547494065761,-0.124016918932,-1.35609776206,0.0795170921598,1.89418095359,0.159122031122,-0.0009128299764,-0.00533162698825,-0.000861093766475,-0.0056280469682,0.000147411833297,0.00234620428241,-0.00205687714348,0.573821469175,0.818966103351,0.00204694341221,0.0,0.818924040687,-0.573762322534,-0.0118726461283,0.0,-0.00854900032461,0.00848923385857,-0.999927421117,0.0,0.661647898671,0.260848759869,0.303299712903,1.0,-0.0015,-0.00197142857143,0.076
0.465047876835,0.547349085445,-0.124019415813,-1.3562936427,0.0795123016098,1.89425616407,0.159116582668,-0.00204480603531,-0.0128337611764,0.000305602914593,-0.00791932869135,-0.000201472976822,0.00217553844258,-0.00180127763103,0.573842306009,0.818951442763,0.0020710220816,0.0,0.81890964824,-0.573783014419,-0.0118653817899,0.0,-0.00852901845293,0.00850500176,-0.999927457763,0.0,0.661627076133,0.260819100704,0.30331578437,1.0,-0.00182,-0.002392,0.092
0.465029058937,0.547162268475,-0.124019424911,-1.35651764237,0.0795121821378,1.89438894112,0.159113295008,-0.000409307375346,-0.0132714253091,-0.000149833493567,-0.0114590043437,0.000403607203421,0.00964726411828,0.000614650463373,0.573867809498,0.818933345675,0.00215857930349,0.0,0.818892641592,-0.573808116955,-0.0118251158489,0.0,-0.00844553396239,0.00855386272554,-0.999927749584,0.0,0.661612051211,0.260791522172,0.30335302869,1.0,-0.00218,-0.00286514285714,0.11
0.465011968923,0.546961000972,-0.124017234621,-1.35675724124,0.0795083538605,1.89451121485,0.159102897538,-0.00324162086753,-0.00567685755653,2.0795514601e-05,-0.0152480334754,-0.00325518612061,0.00246527151946,0.000265163118447,0.573884300332,0.818921581509,0.00223608426052,0.0,0.818881829496,-0.573824247064,-0.0117910857781,0.0,-0.00837301645243,0.00859797331969,-0.999927981132,0.0,0.661590975703,0.26076337995,0.303392083896,1.0,-0.00252,-0.003312,0.127
0.464977623584,0.546739533934,-0.124019729592,-1.35707844314,0.0795005853748,1.89463918897,0.159082906388,-0.0023437194688,-0.0131017880166,-0.000621650008415,-0.0201892557546,0.000241557609684,0.00670302079896,-0.00149150104997,0.573913756379,0.818900857402,0.00226558729534,0.0,0.818861412806,-0.573853507769,-0.0117849539305,0.0,-0.00835075443945,0.00861891513332,-0.999927987008,0.0,0.66155862966,0.26071142739,0.303407236218,1.0,-0.00284,-0.00373257142857,0.143
0.464939169271,0.546457532738,-0.124021653036,-1.35749151928,0.0794923586099,1.89478907781,0.159015798655,-0.00298827957985,-0.01340701906,-0.000865123152027,-0.0236653308802,-0.000111102664392,0.0143369243213,-0.00903426158118,0.573912525729,0.818901649368,0.00229093300069,0.0,0.818862390778,-0.573852031897,-0.0117888658861,0.0,-0.00833942572068,0.00864190305363,-0.999927883145,0.0,0.661512114507,0.260648388749,0.303423398429,1.0,-0.0032,-0.00420571428571,0.161
0.464908360882,0.546167099427,-0.124022608867,-1.3579578817,0.079479183589,1.89494377658,0.158904429016,-0.00406901310208,-0.0185411172256,-0.000955201883104,-0.0307677162636,-0.000168444695345,0.00764360787565,-0.00279605660091,0.57386972359,0.818931670411,0.00228176358264,0.0,0.818892131544,-0.573809103623,-0.011812552474,0.0,-0.0083645376566,0.00864755095918,-0.999927624567,0.0,0.661452578872,0.260584273435,0.303420526086,1.0,-0.00354,-0.00465257142857,0.178
0.464866813584,0.545894021732,-0.124020336815,-1.3584062382,0.0794616136503,1.89510152566,0.158881354558,-0.000398157680572,-0.0204016929109,-0.00194092084763,-0.0250799932192,6.95049885598e-05,0.0099353623628,-0.00841383775235,0.573903652959,0.818907920523,0.00227194326833,0.0,0.818868146092,-0.573842955434,-0.0118308375057,0.0,-0.00838478933336,0.00865034938029,-0.999927430749,0.0,0.66139959538,0.260516330462,0.303414068252,1.0,-0.00384,-0.00504685714286,0.193
0.464802984645,0.545557085391,-0.124022229438,-1.3589960494,0.0793834739969,1.89529183539,0.158821399353,-0.0025142283183,-0.0198846936334,-0.000124659355093,-0.0360976690364,-0.00905077304274,0.00767274307779,-0.0040070465991,0.573916653202,0.818898993312,0.00220472916357,0.0,0.818858600927,-0.57385647979,-0.0118355055567,0.0,-0.00842704771579,0.00859812071681,-0.999927525967,0.0,0.661336177222,0.260416469992,0.303392363494,1.0,-0.00416,-0.00546742857143,0.209
0.464738883727,0.545143714584,-0.124022845405,-1.35971837562,0.0793297927441,1.89551763209,0.158711085758,-0.00206779158129,-0.0283342635701,-0.000589130631783,-0.0417252946065,-0.000718854107774,0.0116141613137,-0.00394524582244,0.573908740273,0.81890476812,0.00211789728514,0.0,0.818863354815,-0.573849022834,-0.0118681100089,0.0,-0.00850366230918,0.00854564507085,-0.999927327198,0.0,0.661242197733,0.260291244414,0.303356682098,1.0,-0.00454,-0.00596685714286,0.228
0.464678297003,0.544747437782,-0.124022571928,-1.36039101966,0.0793132485682,1.89573138024,0.158654852828,-0.000523300316251,-0.0248844578668,-0.00042309736192,-0.0420945773959,8.71290595649e-05,0.0110029204901,-0.00428773918334,0.57394508954,0.818879395354,0.00207772954004,0.0,0.818837186109,-0.573885257367,-0.0119214479742,0.0,-0.00857001475637,0.00854374322859,-0.999926776969,0.0,0.661157270202,0.260188520439,0.303335542008,1.0,-0.00486,-0.00638742857143,0.244
0.464609047474,0.544299580456,-0.124026034804,-1.36113705571,0.0792840896437,1.89599857291,0.158530687499,-0.00430631437433,-0.0258049285853,-0.000849996793304,-0.049287993652,-0.00157662183571,0.0187973746319,-0.00521083688262,0.573936404776,0.818885530242,0.00205876994603,0.0,0.818842923105,-0.573876501762,-0.0119488454266,0.0,-0.00860342257094,0.00854385108159,-0.999926489162,0.0,0.661071219072,0.260071463443,0.303320680337,1.0,-0.0052,-0.00683428571429,0.261
0.464536343158,0.543790418114,-0.124021221905,-1.36194107318,0.079248205373,1.8962869811,0.158456104262,-0.00368485293747,-0.036336111746,-0.000116599638512,-0.0523330643921,-0.00694430331979,0.0168069469009,-0.000487137059441,0.573966713809,0.818864281051,0.00206096076615,0.0,0.818821546022,-0.573906642544,-0.0119661319733,0.0,-0.00861600486638,0.00855588525386,-0.999926277926,0.0,0.660976950956,0.259951199969,0.303323108402,1.0,-0.00554,-0.00728114285714,0.278
0.46445694644,0.543274931123,-0.12402648432,-1.36277795612,0.0792014744889,1.89657025574,0.158348695559,-0.00466619422595,-0.0342340280765,0.000411024171681,-0.0552672493593,-0.00677287858352,0.0140316320889,-0.00306758984934,0.573981480942,0.818854008818,0.00202945291535,0.0,0.818810807906,-0.573921485311,-0.0119890139392,0.0,-0.00865267208508,0.0085433744435,-0.999926068277,0.0,0.660878791731,0.259814757667,0.303314179116,1.0,-0.00588,-0.007728,0.295
0.464379049479,0.542753795125,-0.124027552317,-1.36360707885,0.0791483516739,1.89686460731,0.15823985198,-0.00737428027652,-0.030029651534,0.000226998234771,-0.050401706047,-0.00762459094779,0.0214941630972,-0.012127827899,0.573988798377,0.818848913282,0.00201580144227,0.0,0.818805541398,-0.573928866401,-0.011995356933,0.0,-0.00866562519249,0.00853591424616,-0.999926019817,0.0,0.660783663587,0.259682460448,0.30331369064,1.0,-0.0062,-0.00814857142857,0.311
0.464302274754,0.542120372415,-0.12403219809,-1.364583357,0.0790918540269,1.89722438908,0.158099933734,-0.00696582538065,-0.0411381449447,-0.000208033807547,-0.0561816271143,-0.00692405734798,0.0195284322367,-0.00861628937985,0.5739795337,0.81885537119,0.00203048449565,0.0,0.818812180838,-0.573919531111,-0.0119887957242,0.0,-0.00865192163954,0.00854407331735,-0.999926068799,0.0,0.660671211768,0.259536741868,0.303328299835,1.0,-0.00656,-0.00862171428571,0.329
0.464220796145,0.541571529901,-0.124035095562,-1.36542442706,0.0790431882459,1.89752702394,0.157987734716,-0.00652504160289,-0.0433019202887,-0.00628080340806,-0.061858581539,-0.000127400862544,0.0193307639053,-0.0101818057525,0.573990058753,0.818847969468,0.0020401599475,0.0,0.818804882511,-0.573929991625,-0.0119864919982,0.0,-0.00864437208313,0.00855078480151,-0.999926076723,0.0,0.660576547492,0.259401265244,0.303342364229,1.0,-0.00686,-0.009016,0.344
0.464130759929,0.540874135299,-0.124043773821,-1.36650262206,0.0789880752797,1.89792677117,0.157859978894,-0.00436334231793,-0.0410057468221,-0.00135683672932,-0.0606135067403,-0.0051494582884,0.0202237723109,-0.00516782882323,0.574010364182,0.818833687664,0.00205928633516,0.0,0.81879079646,-0.573950161085,-0.0119829513958,0.0,-0.00863028271645,0.00856462788884,-0.999926079953,0.0,0.660454193819,0.259236139583,0.303357125621,1.0,-0.00722,-0.00948914285714,0.362
0.464030231203,0.540155808548,-0.124033329163,-1.36758946742,0.0789111475584,1.8983191733,0.157712178324,-0.00409744633956,-0.0458357095756,0.000626639835497,-0.063929393343,-0.00381469295192,0.0223730823588,-0.0183402580576,0.57400388251,0.818838187477,0.00207665447744,0.0,0.818795551285,-0.57394363606,-0.0119705773874,0.0,-0.00861024904333,0.00857167837531,-0.999926192247,0.0,0.660328276881,0.259070410491,0.303381142924,1.0,-0.00756,-0.009936,0.379
0.463947429652,0.539455969874,-0.124047476765,-1.36868098426,0.0788503844343,1.89873661976,0.157586875323,-0.00859850215123,-0.0433205944,-0.00044448160777,-0.0666094480079,-0.0108155685141,0.0268003431403,-0.0103779550588,0.574023274151,0.818824542193,0.00209683962276,0.0,0.818782203513,-0.573962975787,-0.0119562760783,0.0,-0.00858674929805,0.00858020090332,-0.99992632123,0.0,0.660205721856,0.258905645049,0.303392777293,1.0,-0.00788,-0.0103565714286,0.395
0.463842206639,0.538750036827,-0.124044975944,-1.36977052264,0.0787914835588,1.89915721145,0.157452084597,-0.00847686914923,-0.0442842689574,-0.000880765791431,-0.0664367082934,-0.00605050954135,0.0273636153837,-0.00972670764775,0.574041892478,0.81881139959,0.00213177930393,0.0,0.81876945848,-0.573981389877,-0.0119450758125,0.0,-0.00855732735155,0.00860257533774,-0.999926381213,0.0,0.660086095106,0.258736572116,0.30340927698,1.0,-0.0082,-0.0107771428571,0.411
0.463725419859,0.537923128395,-0.124051368272,-1.37106427234,0.0787186041245,1.89965659449,0.157295824674,-0.00423061569636,-0.0446803908492,0.000238503511821,-0.0755046410121,-0.00597043897222,0.0288249079817,-0.011971467537,0.574066127232,0.818794336684,0.00215932403465,0.0,0.818752756868,-0.574005511359,-0.0119307565357,0.0,-0.00852953620707,0.00861716161278,-0.999926493067,0.0,0.659943660633,0.25853515136,0.303421019672,1.0,-0.00856,-0.0112502857143,0.429
0.463631282423,0.537164835153,-0.124054555838,-1.37226103627,0.0786470162949,1.9000901074,0.157143464256,-0.00502553052698,-0.047792560102,-0.000192678333789,-0.0784669664633,-0.00304531387893,0.0299231709344,-0.0152595249028,0.574067445951,0.818793424975,0.00215444141617,0.0,0.81875176333,-0.574006831428,-0.0119354270702,0.0,-0.00853614946587,0.00861585872498,-0.99992644786,0.0,0.65980180447,0.258356908717,0.303424502421,1.0,-0.00888,-0.0116708571429,0.445
0.463517677139,0.53631599315,-0.124057765173,-1.37358629835,0.0785760810523,1.90058922449,0.156990084915,-0.00745437196359,-0.0496471942169,-3.76153261031e-06,-0.0796753530617,-0.0055565105492,0.0288847584161,-0.0125995642289,0.574091151391,0.818776744573,0.00217700307907,0.0,0.818735311282,-0.574030375638,-0.0119316723847,0.0,-0.00851987401122,0.00863242303187,-0.999926443804,0.0,0.659650355827,0.258156307679,0.303436311143,1.0,-0.00922,-0.0121177142857,0.462
0.463396563103,0.535379736203,-0.124058451353,-1.37505175646,0.0784866970884,1.90112178168,0.156810761106,-0.0051904448923,-0.0582367054075,0.000215687811405,-0.0819667322389,-0.00958423402845,0.0331558693336,-0.00717359743278,0.574100476367,0.818770200943,0.00217898696524,0.0,0.818728774398,-0.574039672016,-0.0119329722403,0.0,-0.00851970114679,0.00863489062348,-0.999926423971,0.0,0.659477386447,0.257936035396,0.30344570541,1.0,-0.00958,-0.0125908571429,0.48
0.463294320826,0.534602817158,-0.124061564796,-1.37631693952,0.078424626422,1.90158050322,0.156656776535,-0.00555391384885,-0.0531661495632,0.000216639161093,-0.0803138094621,-0.0114667509038,0.0325959560014,-0.0140163951449,0.574113098911,0.818761400555,0.00215998183774,0.0,0.818719578987,-0.574052221619,-0.0119601312351,0.0,-0.00855271609455,0.00863505367912,-0.99992614072,0.0,0.659325857055,0.257747896537,0.303431549873,1.0,-0.00988,-0.0129851428571,0.495
0.463157508329,0.533636583939,-0.124064594684,-1.37788000116,0.0783332581225,1.90214367749,0.156455146837,-0.00863126713204,-0.0493743924153,0.000892694580283,-0.0820944241227,-0.00220202540541,0.0252994123637,-0.0148496553485,0.574123226948,0.818754373324,0.00213151180415,0.0,0.818712120247,-0.574062405243,-0.0119819008812,0.0,-0.00858677827625,0.00862434819285,-0.999925941186,0.0,0.659141055908,0.257506514049,0.303418021597,1.0,-0.01024,-0.0134582857143,0.513
0.463023489273,0.53269374572,-0.124069854593,-1.37939982103,0.0782522164424,1.90272911666,0.156278806223,-0.00504716392522,-0.0565866007731,-0.00175683877632,-0.0913900058961,-0.00104194628752,0.0336963432501,-0.00944499134142,0.574153864543,0.818732864402,0.00214090602441,0.0,0.818690674361,-0.574092940199,-0.011984265919,0.0,-0.00858299857868,0.0086337186138,-0.999925892773,0.0,0.658968957574,0.257273690033,0.30341039716,1.0,-0.01058,-0.0139051428571,0.53
0.4629023205,0.5317684213,-0.12406555424,-1.38085852389,0.0781610582735,1.90326333238,0.15609119157,-0.00652677461573,-0.062113489031,-0.00433856474568,-0.0939826213265,-0.00913930508776,0.032920927829,-0.00921246269617,0.574151520149,0.818734509255,0.00214059959896,0.0,0.8186922923,-0.574090574323,-0.0119870723327,0.0,-0.00858549702797,0.00863505444607,-0.999925859789,0.0,0.658795093919,0.2570568486,0.303414527236,1.0,-0.0109,-0.0143257142857,0.546
0.462749729901,0.530711273401,-0.124064940346,-1.38258691945,0.0780648092196,1.90386747446,0.155872680431,-0.0093057975664,-0.0625151701292,0.00152105906144,-0.100874822872,-0.0061154284418,0.0368078135847,-0.0146399197912,0.574165264617,0.81872500686,0.00208780998566,0.0,0.818681938298,-0.574104375538,-0.0120331539708,0.0,-0.00865338982379,0.0086184372913,-0.99992541791,0.0,0.658584494499,0.256790832716,0.303389201593,1.0,-0.01126,-0.0147988571429,0.564
0.462611504127,0.529680293477,-0.124065259389,-1.38422229216,0.0779527235002,1.90447146953,0.155659406673,-0.00761383043035,-0.0612866179057,0.00076256318146,-0.0972443610389,-0.00447643944822,0.0401809066323,-0.0116200381397,0.574162208754,0.818727166564,0.00208126620658,0.0,0.818684095238,-0.574101430049,-0.0120269331299,0.0,-0.00865208555788,0.0086094757908,-0.999925506396,0.0,0.658401952832,0.256557860173,0.30339268164,1.0,-0.01158,-0.0152194285714,0.58
0.462482348914,0.52866112226,-0.12407123676,-1.38580239316,0.0778590416269,1.9050555672,0.155434358679,-0.00630480597976,-0.0654082412119,-0.0022147060394,-0.101689292757,-0.00791156764027,0.0362828258204,-0.0195072354466,0.574148977408,0.818736400673,0.00209877493239,0.0,0.818693557961,-0.574088126567,-0.0120178196336,0.0,-0.00863471086668,0.00861843830171,-0.999925579376,0.0,0.658205271916,0.256303697694,0.30340589881,1.0,-0.01192,-0.0156662857143,0.597
0.462333414705,0.527545827094,-0.12407164119,-1.38752588365,0.0777432845424,1.9057323539,0.155195440118,-0.00842362379491,-0.0696551564951,0.000232136400511,-0.103249619041,-0.00230771208304,0.0408102253628,-0.0159667612885,0.574137927673,0.818744018609,0.00214916273977,0.0,0.818701974002,-0.57407700916,-0.0119754840969,0.0,-0.0085712360793,0.00863526965548,-0.999925980276,0.0,0.658010751524,0.256042696736,0.303429368602,1.0,-0.01226,-0.0161131428571,0.614
0.462178028411,0.526388340306,-0.124079877867,-1.38932270549,0.0776382371178,1.9064078952,0.154952403384,-0.00973116943006,-0.0669196860132,-0.00107075312913,-0.109383632633,-0.00263807574351,0.0429059833242,-0.00970185172257,0.57414083133,0.818741902185,0.00217952013195,0.0,0.818700251524,-0.574079785597,-0.0119601347964,0.0,-0.00854120950826,0.00865134198018,-0.99992609828,0.0,0.657802210121,0.255766423801,0.303447512228,1.0,-0.0126,-0.01656,0.631
0.46202993034,0.525205008642,-0.124086171377,-1.39114971226,0.0775174258576,1.90706261396,0.154714374817,-0.0095851876036,-0.0686334089566,-0.000137713215073,-0.109103818987,-0.00101964958134,0.0319527775274,-0.0149588225715,0.574137337706,0.818744343535,0.00218272376092,0.0,0.818702800056,-0.574076345593,-0.0119507954285,0.0,-0.00853176034054,0.0086485664373,-0.999926202959,0.0,0.657581087677,0.255488942985,0.303467258232,1.0,-0.01294,-0.0170068571429,0.648
0.461881922473,0.524092005543,-0.12409540524,-1.39292672496,0.0774119292389,1.90769173668,0.154476158323,-0.00290988606803,-0.0688006083858,0.000274379509136,-0.108284787915,-0.00553839024724,0.0403982409765,-0.0158555692805,0.574136994181,0.818744664956,0.00215230573842,0.0,0.818702675306,-0.574076076884,-0.0119722302636,0.0,-0.00856677735838,0.00863596503238,-0.99992601248,0.0,0.657363983491,0.255215585245,0.303458967405,1.0,-0.01326,-0.0174274285714,0.664
0.461693695268,0.522663364331,-0.124103941542,-1.3951855449,0.0772722154173,1.90855672575,0.154152961308,-0.0132942323308,-0.0696686423222,-0.00166730782292,-0.112585117084,-0.00853983489662,0.0458121614894,-0.0140185695108,0.574116225704,0.818759164277,0.00217651031188,0.0,0.818717558791,-0.574055280889,-0.0119515820131,0.0,-0.00853619441059,0.008643710784,-0.999926207102,0.0,0.657100241872,0.25487362785,0.303463318263,1.0,-0.01366,-0.0179531428571,0.684
0.46156627999,0.521721989418,-0.124105004495,-1.39669082239,0.0771787550054,1.90914858123,0.153962898304,-0.00698625155928,-0.0701699678152,-0.00114900733883,-0.116261154589,-0.00629200317093,0.0452284779526,-0.0158385588465,0.574121278784,0.818755568045,0.00219634768717,0.0,0.818714269831,-0.57406030193,-0.0119357037354,0.0,-0.00851175175304,0.00865088924117,-0.999926353387,0.0,0.656926266734,0.254648007473,0.303459666654,1.0,-0.01392,-0.0182948571429,0.697
0.461379060746,0.520306941501,-0.124103192373,-1.39895839378,0.0770446516147,1.90998463594,0.153654109702,-0.00779137516134,-0.0763415817952,0.00128036720918,-0.120182977053,-0.000154381035675,0.0483067807938,-0.0159314014074,0.574105366733,0.818766759747,0.00218355767032,0.0,0.818725205079,-0.574044352888,-0.0119526727699,0.0,-0.008533156494,0.00864999382464,-0.999926178699,0.0,0.656649922591,0.254310580726,0.303446729584,1.0,-0.0143,-0.0187942857143,0.716
0.46122344113,0.51905834955,-0.124117141586,-1.40088635368,0.0769169573089,1.91068015263,0.153383557441,-0.00950040779889,-0.0780176285649,-0.000708855410142,-0.122072511495,-0.00687691450458,0.0421641071107,-0.017208896723,0.574089085328,0.81877816073,0.00218918246617,0.0,0.818736784021,-0.574028156757,-0.0119373632802,0.0,-0.00851756396416,0.00864564063412,-0.999926349289,0.0,0.656415762443,0.254014427735,0.303466390082,1.0,-0.01462,-0.0192148571429,0.732
0.461056226823,0.517785781461,-0.124115286923,-1.4028712625,0.0767856539844,1.91138851856,0.153125906944,-0.0106477953883,-0.0824551550931,0.000908313380926,-0.125164544202,-0.00169760676832,0.0476817784812,-0.0291102878282,0.574083368413,0.818782190535,0.00218116387735,0.0,0.818740724367,-0.574022488446,-0.0119396785184,0.0,-0.00852412313077,0.00864034490792,-0.999926339169,0.0,0.656170216672,0.253713778603,0.303476032098,1.0,-0.01494,-0.0196354285714,0.748
0.46087447914,0.51645323722,-0.124118483264,-1.40500692777,0.0766422731278,1.91217966458,0.152826814728,-0.0162940370911,-0.0772021082606,-0.000451469200737,-0.121726779432,-0.00796168469697,0.0528192424346,-0.0149127865843,0.574063852786,0.818795925267,0.00216161778996,0.0,0.81875429638,-0.574003148071,-0.0119388049881,0.0,-0.00853483378245,0.0086236362735,-0.999926392046,0.0,0.655911839135,0.253387241572,0.303462997054,1.0,-0.01528,-0.0200822857143,0.765
0.460692037221,0.51507318101,-0.124127255597,-1.40719886698,0.076516540454,1.91299491373,0.152533173244,-0.0113820913783,-0.0806341556362,7.32202066478e-05,-0.127581848944,-0.00728221746468,0.0501815558234,-0.0163520053826,0.574060924616,0.81879796788,0.00216553104275,0.0,0.818756326896,-0.574000140523,-0.0119441511764,0.0,-0.0085369959521,0.00862987886236,-0.999926319731,0.0,0.655645857136,0.253055446525,0.303458379516,1.0,-0.01562,-0.0205291428571,0.782
0.460504686788,0.513748536059,-0.124128052532,-1.40933275433,0.0763858427646,1.91374535602,0.152237606448,-0.00991260676672,-0.084266651386,-0.000434323892932,-0.132436063314,-0.00990069338351,0.0415013705578,-0.023526984698,0.574049684953,0.818805979087,0.00211535290679,0.0,0.818763588137,-0.573989012729,-0.0119811063533,0.0,-0.0085961776947,0.00860989003071,-0.999925985022,0.0,0.655378132021,0.252726176295,0.303436263233,1.0,-0.01594,-0.0209497142857,0.798
0.46030005883,0.512266771413,-0.124136433425,-1.41174235558,0.0762403966187,1.91459268351,0.151905011157,-0.0160270868405,-0.0806812798641,-0.00145530562061,-0.134477968302,-0.00640634637864,0.0504871919101,-0.0114256006759,0.574037829514,0.818814467297,0.00204580872243,0.0,0.818771071086,-0.573977353724,-0.0120281945957,0.0,-0.00867477889009,0.00857985290636,-0.999925564397,0.0,0.655074301529,0.252354766283,0.303401243293,1.0,-0.0163,-0.0214228571429,0.816
0.460107563775,0.510811332295,-0.12413194727,-1.41404539785,0.0761019357701,1.91546986445,0.151565402988,-0.00850012768929,-0.0879287544726,0.00105643793459,-0.136825258004,-0.000576796344971,0.0498510816005,-0.0219893001595,0.573997435688,0.818842719476,0.00207159010098,0.0,0.818799608285,-0.573936804654,-0.0120205090234,0.0,-0.00865411111357,0.00859612402034,-0.999925603739,0.0,0.65479384093,0.252014259698,0.303400151325,1.0,-0.01664,-0.0218697142857,0.833
0.459927650166,0.509493192831,-0.1241366283,-1.41614504859,0.075964884164,1.91625435895,0.151287794785,-0.0111407401753,-0.092456630691,-0.000643923707969,-0.139788075964,-0.0064553535027,0.0538827679802,-0.0209864259175,0.573985414178,0.818851188393,0.0020548674248,0.0,0.818807911896,-0.573924907997,-0.0120229072717,0.0,-0.00866579915312,0.00858368037774,-0.999925609411,0.0,0.654518650276,0.251672581649,0.30338305926,1.0,-0.01696,-0.0222902857143,0.849
0.459702579278,0.507902796749,-0.124132371297,-1.41865322298,0.0758042521672,1.91714913489,0.150938123669,-0.0159334107407,-0.0888791503842,-0.00120270962146,-0.140621173581,-0.00770625425284,0.0565846309614,-0.0154427425192,0.573974794046,0.818858657218,0.00204504268431,0.0,0.818815212553,-0.573914291434,-0.0120324844141,0.0,-0.0086793919124,0.0085810200349,-0.999925514352,0.0,0.654222938322,0.251306352798,0.30338780891,1.0,-0.0173,-0.0227371428571,0.866
0.459491951235,0.506351115604,-0.12414614561,-1.42108790506,0.0756500385831,1.91804109932,0.150587900832,-0.0109478904932,-0.100033615254,-0.00101167600291,-0.148642340581,-0.0169230149416,0.0533922803728,-0.0257103541227,0.57395463554,0.818872782673,0.00204671448457,0.0,0.818829409708,-0.573894177683,-0.012025702489,0.0,-0.00867308991852,0.00857828286093,-0.999925592519,0.0,0.653923176183,0.250927709083,0.303391723678,1.0,-0.01764,-0.023184,0.883
0.459284169691,0.50483777249,-0.124147162117,-1.42339994112,0.075508701393,1.91894119229,0.150278914211,-0.012293010444,-0.0933936197637,0.00103836181197,-0.149699537774,-0.00913935623808,0.0609393224687,-0.0257604691727,0.573953881778,0.818873094991,0.00213138285259,0.0,0.818830862485,-0.57389310432,-0.0119779112225,0.0,-0.00858536860748,0.00862017666633,-0.999925989261,0.0,0.653648188463,0.250575052422,0.303426929361,1.0,-0.01796,-0.0236045714286,0.899
0.459056720832,0.503170815776,-0.124150438804,-1.42587706665,0.0753601183909,1.91987928357,0.149937985346,-0.0128795262822,-0.102167437875,0.000380425123328,-0.144106922579,-0.00477089118415,0.0576398158285,-0.0257034859241,0.573950608968,0.818875093108,0.00224215359065,0.0,0.818834297382,-0.573889372303,-0.0119217738102,0.0,-0.00847585870861,0.00867862868884,-0.999926417904,0.0,0.653350030609,0.250192172654,0.30349358987,1.0,-0.0183,-0.0240514285714,0.916
0.458825427409,0.501465017959,-0.124158350544,-1.42839631885,0.0751929877937,1.92078870536,0.149584411026,-0.0158860215389,-0.104409129075,-0.000672276157832,-0.156172959613,-0.0121414824424,0.0568132784756,-0.0111112102494,0.573939579851,0.818882611245,0.00231831468869,0.0,0.818842895068,-0.57387813248,-0.0118722011403,0.0,-0.0083916705326,0.008712429387,-0.999926834043,0.0,0.653038922846,0.249794853166,0.303564265141,1.0,-0.01864,-0.0244982857143,0.933
0.458606954564,0.499851400908,-0.124154316867,-1.430836782,0.0750430667902,1.9216477416,0.149241344617,-0.0171871635952,-0.101493366866,0.000589946196613,-0.154755549759,-0.0122634013429,0.0546185973077,-0.0290575451224,0.573918376013,0.818897382522,0.00234978173104,0.0,0.818857957713,-0.573856685086,-0.0118700030689,0.0,-0.00837203767644,0.00873671856282,-0.999926786687,0.0,0.652726398774,0.249420502082,0.303602816917,1.0,-0.01896,-0.0249188571429,0.949
0.458357521721,0.498190890323,-0.124156831403,-1.43345899001,0.0748728042057,1.92264046255,0.148869476404,-0.0176235646647,-0.10225057445,-0.000233853406937,-0.15403663618,-0.00757831691332,0.0621319853984,-0.0262805654835,0.573903661274,0.818907611532,0.00237870809579,0.0,0.818868642565,-0.573841942961,-0.0118455740146,0.0,-0.00833558873403,0.00874623615849,-0.999927007993,0.0,0.652389294963,0.248979384775,0.303605959813,1.0,-0.01932,-0.025392,0.967
0.458077767099,0.496398641389,-0.12415456196,-1.43629161704,0.0746999536914,1.92365489736,0.148435384199,-0.0162458954818,-0.103033230635,-0.000346904973315,-0.160596830187,-0.00624559348149,0.0509307967572,-0.0215611889485,0.573876057729,0.818927040803,0.00234927828045,0.0,0.818887542786,-0.573814304596,-0.0118778369926,0.0,-0.00837919374217,0.00874036926528,-0.999926694842,0.0,0.652050166164,0.248554544885,0.303587703235,1.0,-0.01966,-0.0258388571429,0.984
0.457812884578,0.494725973693,-0.124158966159,-1.4390399248,0.0745383020108,1.92459007019,0.148055861901,-0.0208060128224,-0.104043628342,-0.00110279342694,-0.167696807435,-0.0135925079755,0.05739875776,-0.0198272037914,0.573880154709,0.818924491656,0.00223425569513,0.0,0.818883243493,-0.57381860163,-0.0119663215447,0.0,-0.00851762029992,0.00869699645394,-0.999925903453,0.0,0.651690408896,0.248112980948,0.303526131073,1.0,-0.01998,-0.0262594285714,1.001
0.457522622177,0.492734964711,-0.124204385905,-1.44212380723,0.0743431767013,1.92571872073,0.147613450478,-0.0108622113655,-0.132233334456,-0.00366835017539,-0.202715895645,-0.0145096748358,0.0765286142014,-0.0289713695505,0.573890376284,0.81891727867,0.00225246660768,0.0,0.818876441699,-0.573828925761,-0.0119366700722,0.0,-0.00848277819788,0.00869499932575,-0.999926217008,0.0,0.651312124991,0.247603013269,0.303543569379,1.0,-0.0287228571429,-0.0377500408163,1.018
0.457176633865,0.49006313782,-0.124247566084,-1.44634095226,0.0741132756106,1.92730949572,0.146992280466,-0.0226644721848,-0.1680963351,-0.00127556435769,-0.274516594651,-0.0166789265156,0.0991403299094,-0.0433405937066,0.573845836987,0.818948368489,0.00229608859398,0.0,0.818907976337,-0.573784089473,-0.0119286152296,0.0,-0.00845162359735,0.00872563945013,-0.999926213915,0.0,0.650781502234,0.246958442103,0.303534296029,1.0,-0.0374657142857,-0.0492406530612,1.035
0.456720579438,0.487096015634,-0.124271886319,-1.45110009035,0.0738506882467,1.9290616862,0.146283123321,-0.0305081822983,-0.210757886739,-0.00383379746788,-0.341171726498,-0.0172948931413,0.120778346206,-0.056194393368,0.573822476013,0.818964802093,0.00227285228279,0.0,0.818923797493,-0.573760506722,-0.0119767160265,0.0,-0.00850459973282,0.0087339698234,-0.999925692016,0.0,0.650179992492,0.246199056052,0.303484075065,1.0,-0.04518,-0.0593794285714,1.05
0.456094917585,0.482979819803,-0.124382439391,-1.457505047,0.0734605554514,1.93141159555,0.145308726264,-0.0372518095017,-0.255911357697,-0.0103969609323,-0.404276908155,-0.0257333520257,0.139598495401,-0.0616304982424,0.573827296534,0.818961332649,0.00230570601248,0.0,0.818921020719,-0.57376546626,-0.0119288915495,0.0,-0.00844652905695,0.00873348285631,-0.999926188488,0.0,0.649388035505,0.245119575182,0.303499886666,1.0,-0.0539228571429,-0.0708700408163,1.067
0.45528592147,0.477800585683,-0.12450318804,-1.46564649396,0.0729814282806,1.9342623893,0.144085862965,-0.0466920143321,-0.301494208392,-0.010042074915,-0.480303602054,-0.0296479744954,0.169630300298,-0.0803789886986,0.573843442639,0.818950291969,0.00220670026773,0.0,0.818908528023,-0.573781848289,-0.0119983418089,0.0,-0.00856004577673,0.00869242279369,-0.999925580932,0.0,0.648340236188,0.243744376238,0.303465372815,1.0,-0.06318,-0.0830365714286,1.085
0.454434143076,0.472527267238,-0.124606155018,-1.47381829272,0.0724799589212,1.93721176176,0.142917506648,-0.0617124910867,-0.334201567271,-0.0105026855847,-0.534616849982,-0.0249228753447,0.189257736272,-0.0765660574649,0.573917277451,0.818898469378,0.00223660353194,0.0,0.818857176994,-0.573855633628,-0.0119742364771,0.0,-0.00852236046793,0.00870384762875,-0.999925803452,0.0,0.647303024641,0.242353918375,0.303482944594,1.0,-0.0714085714286,-0.0938512653061,1.101
0.453392631446,0.466190757092,-0.124665611911,-1.48339298292,0.0719053711544,1.94078329463,0.141389570538,-0.0617030111994,-0.379766027027,-0.00308248712376,-0.586374447168,-0.032778437047,0.217980074817,-0.0907115837042,0.573863059985,0.818935621648,0.00252643634649,0.0,0.818898023778,-0.573800197056,-0.0118366977395,0.0,-0.00824398247028,0.00886170793158,-0.99992675076,0.0,0.646096391764,0.24074621815,0.303611837357,1.0,-0.0801514285714,-0.105341877551,1.118
0.452184924512,0.459233858854,-0.124716417998,-1.4942174429,0.0712030271661,1.94452541146,0.13972712634,-0.0737488776411,-0.426380879878,-0.00139324619678,-0.665571856758,-0.0386674994539,0.220525010888,-0.0960650942145,0.573842364257,0.818950468155,0.00241217629976,0.0,0.818911085388,-0.573779630358,-0.0119296653574,0.0,-0.0083859088585,0.00882127512218,-0.999925928076,0.0,0.644654158395,0.238891802707,0.303578377115,1.0,-0.0888942857143,-0.116832489796,1.135
0.450839801367,0.4515242123,-0.124854707611,-1.50599198948,0.0704062470059,1.94861196946,0.137862025362,-0.0772848373902,-0.475391827168,-0.0103042499289,-0.688969875614,-0.0467721176624,0.261387442768,-0.119896503128,0.573840176342,0.818952060245,0.00239205702566,0.0,0.818912742538,-0.573777865809,-0.0119007443844,0.0,-0.00837379097842,0.00878818043505,-0.99992632104,0.0,0.643095874936,0.236807129438,0.303629755874,1.0,-0.0976371428571,-0.128323102041,1.152
0.449363860417,0.443140836132,-0.124926656332,-1.51860826727,0.0695819674301,1.95322016559,0.135944057325,-0.0875262203962,-0.501829907391,-0.00523531922002,-0.783954725989,-0.0451119421783,0.270956537043,-0.117414540921,0.573879165412,0.818923744544,0.0027112781365,0.0,0.818888736487,-0.573815827233,-0.011720945889,0.0,-0.00804294144184,0.008946814026,-0.999927630187,0.0,0.641336294224,0.234483372139,0.303779197262,1.0,-0.106894285714,-0.140489632653,1.17
0.447612445055,0.433611775267,-0.124992888142,-1.53305772616,0.0686074811816,1.958236012,0.133580529162,-0.102172792855,-0.553165010537,-0.00627708112554,-0.777007603498,-0.0543084818394,0.309155663331,-0.141634783882,0.573799743967,0.81897937912,0.00271611878303,0.0,0.818944271966,-0.573736218627,-0.0117378767646,0.0,-0.00805489838672,0.00895971310384,-0.999927418442,0.0,0.639569769248,0.232216203769,0.303817836905,1.0,-0.115122857143,-0.151304326531,1.186
0.446133734556,0.425775649369,-0.125055240402,-1.54496200233,0.0677590583913,1.96244082091,0.131630076487,-0.109032195727,-0.569129452744,-0.00683224824367,-0.877552904738,-0.0677128262773,0.29322729695,-0.14818083969,0.573727825642,0.81902935404,0.00283658347017,0.0,0.818996155839,-0.573664279592,-0.0116334836809,0.0,-0.00790107013158,0.00899777748977,-0.999928303975,0.0,0.637832413975,0.229949821496,0.303873841614,1.0,-0.122837142857,-0.161443102041,1.201
0.444019572445,0.415038370665,-0.125164176722,-1.56114158642,0.0665854378853,1.96804047715,0.128982724527,-0.11981895464,-0.618386036117,-0.00701553895505,-0.918605482094,-0.0706017812589,0.340729237399,-0.149626534643,0.573723805619,0.819031909812,0.00291075192029,0.0,0.819000140219,-0.573660552281,-0.0115363763475,0.0,-0.00777902656842,0.00900277330328,-0.999929215904,0.0,0.635585703594,0.226982388286,0.303947868574,1.0,-0.132094285714,-0.173609632653,1.219
0.441982740959,0.405026545578,-0.125231645217,-1.57639036453,0.0655766952594,1.97324831796,0.126425328403,-0.129514422248,-0.637872319915,-0.00504224652344,-0.975611681639,-0.0622697785967,0.324978604238,-0.164630243573,0.573687692775,0.819057333305,0.0028745118151,0.0,0.81902428856,-0.57362363688,-0.0116569663101,0.0,-0.00789898789871,0.00904192718662,-0.999927922174,0.0,0.633256046624,0.224015461365,0.303900231651,1.0,-0.140837142857,-0.185100244898,1.236
0.439570563173,0.393709677919,-0.125350061529,-1.5932360417,0.0644117725895,1.979017092,0.123546708218,-0.146398530374,-0.67461359737,-0.00936014320123,-1.01726403454,-0.0701554429043,0.35097511054,-0.170610954064,0.573740615036,0.819019482585,0.00308880328419,0.0,0.818989155643,-0.573675777059,-0.0115590941062,0.0,-0.00769529980812,0.00916179454834,-0.999928419379,0.0,0.631006576351,0.221002255583,0.304018976949,1.0,-0.149065714286,-0.195914938775,1.252
0.436983704761,0.382007379323,-0.12547779849,-1.61092490824,0.0630453306355,1.98485310973,0.120402062347,-0.153106150829,-0.705996980029,-0.00959827823386,-1.0391690625,-0.0728712306192,0.354225516405,-0.181863695212,0.573666942938,0.819071833142,0.00288403086773,0.0,0.819039206232,-0.573603195197,-0.011614646578,0.0,-0.00785909185506,0.00902524691236,-0.999928387232,0.0,0.628400791502,0.217588931582,0.30395682793,1.0,-0.157808571429,-0.20740555102,1.269
0.434155476942,0.369661799561,-0.125591570484,-1.62932427233,0.0616997294743,1.99098356984,0.11714906002,-0.168657838959,-0.72452480638,-0.00324445893337,-1.10251082721,-0.0836327918504,0.355133041621,-0.190021740664,0.573701866764,0.819047239457,0.00292138854721,0.0,0.819014888364,-0.573637749749,-0.0116228913224,0.0,-0.0078440293216,0.00906090961429,-0.999928182982,0.0,0.625668304595,0.213999053067,0.303974873886,1.0,-0.166551428571,-0.218896163265,1.286
0.431257048375,0.357570878336,-0.125765357411,-1.64714349045,0.0602665782366,1.99689389339,0.113943279831,-0.189016057314,-0.76867514833,-0.0102350213392,-1.14222434481,-0.0870132686812,0.361625464206,-0.204275673471,0.573799068799,0.818978948872,0.00297604624691,0.0,0.818948216378,-0.573735823267,-0.0114791503792,0.0,-0.00769386629875,0.00902412730638,-0.999929682302,0.0,0.623012852538,0.210384994392,0.30404281354,1.0,-0.17478,-0.229710857143,1.302
0.427902202735,0.344250166815,-0.125946758523,-1.66673889633,0.058827087063,2.00325005183,0.110214134114,-0.201836664097,-0.808104224884,-0.0134031763817,-1.15741632648,-0.0974889198036,0.391706719975,-0.218246648762,0.573885410218,0.818918234817,0.00303439020505,0.0,0.818887782175,-0.573821412021,-0.0115123504168,0.0,-0.00768662360113,0.00909177005151,-0.999929125256,0.0,0.620022416171,0.206348369888,0.304077998742,1.0,-0.183522857143,-0.241201469388,1.319
0.424399145098,0.330550210077,-0.126057021956,-1.68694634056,0.0572512948545,2.00971754241,0.1063628114,-0.208455292999,-0.849792972786,-0.00441580814931,-1.19707526417,-0.0979580887853,0.367400736585,-0.234531184629,0.573881698456,0.818921085918,0.00296616183165,0.0,0.818889391424,-0.573817498621,-0.0115926610983,0.0,-0.00779158906483,0.0090819493536,-0.999928402105,0.0,0.616841890579,0.202213465143,0.304033330964,1.0,-0.192265714286,-0.252692081633,1.336
0.420671040968,0.316263264227,-0.126143205075,-1.70768209251,0.0554831430625,2.01635031146,0.102280008914,-0.225143207519,-0.826664435129,-0.00469054829029,-1.23999634061,-0.103674124463,0.380877995504,-0.234832088739,0.573769502048,0.818999501877,0.00302015658142,0.0,0.818969184147,-0.573705940286,-0.0114767765189,0.0,-0.00766694009317,0.00905861392626,-0.999929577292,0.0,0.613531931087,0.197916125293,0.304082750516,1.0,-0.201008571429,-0.264182693878,1.353
0.41667702018,0.30149916972,-0.12623571151,-1.72892791408,0.0537110891869,2.02300056733,0.097875335207,-0.240932408126,-0.873458759759,-0.00295595996729,-1.26941893025,-0.112431647602,0.387045275825,-0.262735976157,0.573593734271,0.819122298193,0.00310411162186,0.0,0.81909310884,-0.573529991226,-0.0114269469538,0.0,-0.00757991187563,0.00909715676152,-0.99992989088,0.0,0.610063859637,0.193438529842,0.304145642711,1.0,-0.209751428571,-0.275673306122,1.37
0.412319862752,0.286278814253,-0.126398582445,-1.75069920244,0.0519499388004,2.02965472624,0.093393563297,-0.262433783075,-0.907190891549,-0.005824377365,-1.29034625339,-0.109013993837,0.39416148014,-0.269852493848,0.573688484892,0.819055667365,0.00317536782633,0.0,0.819026823375,-0.573623820775,-0.0114682925325,0.0,-0.00757184915037,0.00918011553677,-0.999929193783,0.0,0.606452130048,0.188689517466,0.304195488583,1.0,-0.218494285714,-0.287163918367,1.387
0.40796410781,0.271618534573,-0.12656745555,-1.77164032422,0.0501506250195,2.03594786582,0.0888406254432,-0.278428051745,-0.936626095728,-0.0150532257879,-1.30436912755,-0.118176532946,0.408363644361,-0.292738366868,0.573648668978,0.819083722,0.00313174660124,0.0,0.819054182812,-0.573583985509,-0.0115066974483,0.0,-0.00762877575427,0.0091660483036,-0.999928890141,0.0,0.602907862904,0.18403571606,0.304188630619,1.0,-0.226722857143,-0.297978612245,1.403
0.4029389481,0.25561847218,-0.126770844706,-1.79424020304,0.0481494184814,2.04261953317,0.0838737903366,-0.3018219307,-0.957717829818,-0.0114252977757,-1.32855178449,-0.112339187448,0.401853782135,-0.30362193235,0.573778628813,0.81899272524,0.00312218225999,0.0,0.818963116135,-0.57371402259,-0.0115057200957,0.0,-0.00763200825317,0.00915886474931,-0.999928931298,0.0,0.599032339416,0.178842545702,0.304217257911,1.0,-0.235465714286,-0.30946922449,1.42
0.397642195655,0.23922325763,-0.126939516391,-1.81735182833,0.0460765524176,2.04925031888,0.0785972810512,-0.311405655069,-0.96391974943,-0.00489107248873,-1.34930673124,-0.109455970287,0.381151700945,-0.318042677964,0.573790697088,0.818984721896,0.00300135602421,0.0,0.818953107327,-0.573725953885,-0.0116225960427,0.0,-0.00779692285468,0.00912708305214,-0.999927949579,0.0,0.594948449159,0.173504692666,0.304177456107,1.0,-0.244208571429,-0.320959836735,1.437
0.392113801121,0.22238516156,-0.12707267593,-1.84079007502,0.0439388157193,2.0560050683,0.0730463758498,-0.334533183666,-0.979961779787,-0.00323327455629,-1.40315719108,-0.12969861772,0.38286354777,-0.341250985335,0.573675071714,0.819065416876,0.0030825108819,0.0,0.819034616554,-0.573609796951,-0.0116122619797,0.0,-0.00774319283865,0.00918652521121,-0.999927822755,0.0,0.590733084301,0.1680822521,0.304192901286,1.0,-0.252951428571,-0.33245044898,1.454
0.386169013082,0.205087719144,-0.127261314113,-1.86448499093,0.0416486234161,2.06261882526,0.0672309648758,-0.364213530475,-1.01293364957,-0.00944262669274,-1.42145165713,-0.139513454185,0.392729413854,-0.346572763739,0.573623496786,0.819101200946,0.00317071678489,0.0,0.819071938715,-0.573558421997,-0.0115170598341,0.0,-0.00761519284179,0.00920367847817,-0.999928648025,0.0,0.586397092007,0.162401887026,0.304276995557,1.0,-0.261694285714,-0.343941061224,1.471
0.379795545477,0.18743206361,-0.127482955472,-1.88853326457,0.039337942027,2.06908305414,0.0610535299522,-0.3878319301,-1.04092249802,-0.0197572512971,-1.42871925457,-0.139141066835,0.380527617848,-0.367482791674,0.573599625669,0.819117873533,0.0031820737394,0.0,0.819088431698,-0.573534123781,-0.0115540823162,0.0,-0.00763927454324,0.00923399486329,-0.999928184833,0.0,0.581891213594,0.156487799728,0.304315483661,1.0,-0.270437142857,-0.355431673469,1.488
0.37332602438,0.170513840903,-0.127757104267,-1.9113463115,0.037140051863,2.07513070337,0.0550213092225,-0.412700974401,-1.05561523809,-0.016123410248,-1.43270799253,-0.141222490777,0.360171913531,-0.37474016968,0.57378228211,0.81898954723,0.00328042164874,0.0,0.81896099641,-0.573715981223,-0.0115588126795,0.0,-0.00758466246615,0.00931895871868,-0.999927812346,0.0,0.577569237417,0.150668955535,0.304364374669,1.0,-0.278665714286,-0.366246367347,1.504
0.365746745481,0.151091379909,-0.127979594478,-1.93730175868,0.0344343893941,2.08180471881,0.0478504221437,-0.421151660702,-1.07604787486,-0.0156692874449,-1.44898172271,-0.147886256141,0.359739962391,-0.396753307125,0.573702300244,0.819045512057,0.00329647915415,0.0,0.819017491195,-0.573636357253,-0.0115076346704,0.0,-0.00753444129876,0.00930200965989,-0.999928349838,0.0,0.572506992786,0.144036144843,0.304403099959,1.0,-0.287922857143,-0.378412897959,1.522
0.358567688338,0.133437125062,-0.12820746186,-1.96064577357,0.0320057713253,2.08761199407,0.0411613487087,-0.457713982152,-1.10931659453,-0.0123221391158,-1.4550188748,-0.144330516378,0.353843114172,-0.429243250662,0.573699016977,0.8190476283,0.00334176545718,0.0,0.819020019916,-0.573632721833,-0.0115088800408,0.0,-0.00750951946839,0.00933978579703,-0.999928185181,0.0,0.567853352278,0.137936259125,0.304436302887,1.0,-0.296151428571,-0.389227591837,1.538
0.350932102626,0.115529583631,-0.128542821074,-1.9841225176,0.0294421015345,2.09332234978,0.034141312458,-0.488139054426,-1.14693601831,-0.0274872012117,-1.47091889155,-0.16642851641,0.370643482061,-0.448433078411,0.573779154531,0.818991411073,0.00336114801983,0.0,0.818964483136,-0.573713327163,-0.0114429234978,0.0,-0.00744346395849,0.00931855123174,-0.999928877194,0.0,0.563107172079,0.131582868943,0.304455409955,1.0,-0.30438,-0.400042285714,1.554
0.342374548087,0.0961720524768,-0.128857871534,-2.00917047544,0.0266476593392,2.09915235114,0.0262708880015,-0.513632938318,-1.18069674399,-0.0194091683499,-1.49548689404,-0.176810822984,0.364102730309,-0.478750272712,0.57376914693,0.818998302744,0.00339013796267,0.0,0.818971980029,-0.573703526871,-0.0113976350818,0.0,-0.00738985195907,0.00931621872384,-0.999929296579,0.0,0.557911588207,0.124696693984,0.304491317255,1.0,-0.313122857143,-0.411532897959,1.571
0.333384616591,0.076475505109,-0.129139817372,-2.03441455689,0.0239055135209,2.10468054224,0.0180083454843,-0.538570247752,-1.20796445342,-0.0249819042923,-1.49105244232,-0.183962381285,0.351114990262,-0.49898397851,0.573725242133,0.819029048891,0.00339271491589,0.0,0.819001578766,-0.573658137266,-0.0115543251106,0.0,-0.00751721411663,0.009407827974,-0.999927489503,0.0,0.552506380221,0.117699491724,0.304489891412,1.0,-0.31998,-0.420545142857,1.588
0.324453833098,0.0580492564412,-0.129466087119,-2.05796440098,0.0211374607857,2.10967053631,0.00997736911507,-0.573854089333,-1.16272637305,-0.0232071526935,-1.44428641914,-0.175382643184,0.31084686202,-0.510156857963,0.57377090875,0.818997770433,0.00321608432099,0.0,0.81896774155,-0.573704031226,-0.0116734637718,0.0,-0.00771560881198,0.00933194289841,-0.999926689424,0.0,0.547377475082,0.110927526145,0.304398151193,1.0,-0.31998,-0.420545142857,1.604
0.313982829338,0.0372931657167,-0.129737526003,-2.08393954239,0.0181039120729,2.11483073101,0.000776527267923,-0.585866453914,-1.15004762362,-0.00833865060874,-1.40623380286,-0.16368141757,0.285663744416,-0.517598476067,0.57391692563,0.818895642732,0.00316791593573,0.0,0.818863966263,-0.57384896624,-0.0118285925783,0.0,-0.00786862913262,0.0093829023449,-0.999925020099,0.0,0.541569161848,0.1033121588,0.304384973535,1.0,-0.31998,-0.420545142857,1.622
0.303843706371,0.0179016819894,-0.129981480856,-2.10774248061,0.0151654685196,2.1194147688,-0.00824011545671,-0.601872926023,-1.14154328569,-0.012946621774,-1.35303942353,-0.15833846409,0.25850617434,-0.525468027757,0.573882783629,0.818919244918,0.00325082427205,0.0,0.818888807099,-0.573814732565,-0.0117695030147,0.0,-0.00777305131687,0.00941656006018,-0.999925451256,0.0,0.536145217978,0.0961677721734,0.30444596837,1.0,-0.31998,-0.420545142857,1.639
0.293917842548,-0.000266442481475,-0.130282146582,-2.12974514313,0.012401341669,2.12337810486,-0.016946972734,-0.623511517193,-1.11419417678,-0.0167657263666,-1.36405057016,-0.166577015315,0.238231757734,-0.552994228581,0.573986432492,0.818846323179,0.00331982411911,0.0,0.818816734482,-0.573918074056,-0.0117450630467,0.0,-0.00771224311124,0.00946001651647,-0.999925511923,0.0,0.53101920054,0.0893490380261,0.304506132942,1.0,-0.31998,-0.420545142857,1.655
0.283246269045,-0.0193262023796,-0.130454601593,-2.15249144727,0.00949794331675,2.12734939496,-0.0264536122834,-0.644590642376,-1.10098680812,-0.0138506545607,-1.34751485935,-0.187186554974,0.216377059832,-0.570037353506,0.57382786456,0.818956634993,0.00351550222783,0.0,0.818929835073,-0.573759200563,-0.0116211831473,0.0,-0.00750033770189,0.00954769219138,-0.999926290538,0.0,0.525599764555,0.0822933218316,0.304596906321,1.0,-0.31998,-0.420545142857,1.672
0.271460356112,-0.0392702528737,-0.130771953275,-2.17593545613,0.00637292905348,2.13109270366,-0.0366954238393,-0.666844964059,-1.10224211977,-0.0271194195406,-1.30506188953,-0.182016061383,0.204967934954,-0.577099253314,0.573942254349,0.818875878414,0.0036512086745,0.0,0.818851339797,-0.573873812684,-0.0114924900978,0.0,-0.00731573073156,0.00958600735017,-0.99992729163,0.0,0.519889327862,0.074674210569,0.304697965062,1.0,-0.31998,-0.420545142857,1.69
0.261432708492,-0.0557464249972,-0.13095976812,-2.19504287996,0.0038803487527,2.13393745696,-0.0455221186403,-0.664888730362,-1.09035120273,-0.0106339599001,-1.26120793742,-0.177129976411,0.185061507548,-0.596161389655,0.573909494427,0.818897968817,0.00384132467132,0.0,0.818875696537,-0.573840257833,-0.011432366876,0.0,-0.00715777308303,0.00970689819764,-0.999927268561,0.0,0.515116029742,0.0684175806463,0.304784917968,1.0,-0.31998,-0.420545142857,1.705
0.249052440865,-0.0751950675532,-0.131228727117,-2.21755349252,0.000794507778958,2.137004204,-0.0564057244232,-0.704772587991,-1.0801567927,-0.0157695481923,-1.22372078269,-0.171796878438,0.178013887655,-0.625171376747,0.573859582811,0.818932991535,0.00383164375234,0.0,0.818910353029,-0.573790054356,-0.0114697046465,0.0,-0.00719449897766,0.00971995980066,-0.99992687811,0.0,0.509352115818,0.0608661255168,0.304772360373,1.0,-0.31998,-0.420545142857,1.723
0.237709438977,-0.0922125599013,-0.131500027384,-2.23717509203,-0.00189149040604,2.13930505008,-0.0663616032294,-0.712059308323,-1.07193899191,-0.00853801615975,-1.20034863863,-0.165107005867,0.12486968546,-0.624265923075,0.573869028343,0.818927199507,0.00365063237257,0.0,0.81890073325,-0.57379809983,-0.0117506006478,0.0,-0.00752830550565,0.00973299869329,-0.999924293811,0.0,0.504172868526,0.0541287262344,0.304664521938,1.0,-0.31998,-0.420545142857,1.739
0.22617302943,-0.109165190728,-0.131688314608,-2.25629359976,-0.00465301332857,2.1414651988,-0.0765058935332,-0.733965156767,-1.04441463028,-0.0177658416177,-1.19837575186,-0.180752964767,0.128322435762,-0.635439866416,0.573743287578,0.819015420384,0.00362326288773,0.0,0.81898859565,-0.573672464549,-0.0117613993322,0.0,-0.00755434671244,0.0097156219593,-0.9999242664,0.0,0.499038577065,0.0474845485839,0.304649473835,1.0,-0.31998,-0.420545142857,1.755
0.212650519332,-0.128041323889,-0.132066109386,-2.27729434844,-0.00770909446312,2.14348594169,-0.0883023516838,-0.751588458492,-1.04487368828,-0.0173979565525,-1.1619763001,-0.166384426335,0.102677098934,-0.664785802747,0.573846727219,0.818943166998,0.00357348419352,0.0,0.818914984933,-0.573775153007,-0.0118772111796,0.0,-0.00767653229565,0.0097422660872,-0.999923076593,0.0,0.493255307884,0.0398454057723,0.304621026429,1.0,-0.31998,-0.420545142857,1.773
0.199665225486,-0.145747034724,-0.132323163171,-2.29655826697,-0.0105508978122,2.1451701553,-0.099785643216,-0.771838286016,-1.03677609394,-0.0177123657055,-1.12189285339,-0.17591394596,0.108606716256,-0.677868692128,0.57374012206,0.819017322325,0.00369390993049,0.0,0.81899073192,-0.573668177438,-0.0118215957172,0.0,-0.00756315870669,0.00980799060155,-0.999923298034,0.0,0.487825897925,0.0327621844974,0.304670582619,1.0,-0.31998,-0.420545142857,1.79
0.186948778417,-0.162095486025,-0.13272369851,-2.31432870055,-0.0132859737891,2.14636094444,-0.11085868004,-0.801741243915,-1.00558068144,-0.0195706450324,-1.08843474983,-0.165786387917,0.0639958219715,-0.691532562632,0.573895786075,0.818908902621,0.00354722908875,0.0,0.818879512074,-0.573823205498,-0.0120008515561,0.0,-0.00779227183736,0.00979217989257,-0.99992169379,0.0,0.482665742119,0.0259268850619,0.304601740212,1.0,-0.31998,-0.420545142857,1.806
0.173281604188,-0.179359236706,-0.132972717146,-2.3325886049,-0.016046216768,2.14743139477,-0.122975474524,-0.811340764633,-1.00420834332,-0.0112299153332,-1.06461222446,-0.16670322882,0.049746524093,-0.723184057521,0.573794463386,0.818979365955,0.00366862755624,0.0,0.818951248769,-0.573721056795,-0.0119894967045,0.0,-0.00771453005927,0.00988412424633,-0.999921391967,0.0,0.477244622319,0.0188643297898,0.30465056839,1.0,-0.31998,-0.420545142857,1.823
0.159075457947,-0.196506112146,-0.133394586273,-2.35034093984,-0.0188729980153,2.14830184835,-0.135439783413,-0.836986436633,-1.00095793305,-0.0155341909991,-1.03710507269,-0.156721805465,0.0397515885957,-0.737304791046,0.573929999982,0.818883407205,0.00388167813721,0.0,0.818858845476,-0.573856847656,-0.0118006984802,0.0,-0.00743601176571,0.00995151295395,-0.999922833582,0.0,0.471856901058,0.0116307099053,0.304759199479,1.0,-0.31998,-0.420545142857,1.84
0.144688547835,-0.213261377923,-0.133682606521,-2.36774133438,-0.0215330467146,2.14875526045,-0.148295659307,-0.865502590756,-0.979360088357,-0.0267284022212,-1.00068767709,-0.149244880573,0.0299147535045,-0.754748075448,0.573831316064,0.818952550564,0.00388426691135,0.0,0.818926447749,-0.573756073224,-0.0120078522799,0.0,-0.00760538594829,0.0100716044903,-0.999920357272,0.0,0.466381187582,0.00456720488746,0.30471718185,1.0,-0.31998,-0.420545142857,1.857
0.129839514669,-0.229794917717,-0.134027705382,-2.38456658901,-0.0243909050511,2.14903555594,-0.161409791109,-0.869627325304,-0.96870846898,-0.0163943567652,-0.9833150802,-0.16741459997,0.00416778598776,-0.792629934857,0.573833582531,0.818951092012,0.00385685796011,0.0,0.818925083632,-0.573759036748,-0.0119591826542,0.0,-0.00758122454819,0.0100212512943,-0.999921046662,0.0,0.460957819326,-0.00258981284935,0.304727579398,1.0,-0.31998,-0.420545142857,1.874
0.114643545647,-0.2462399275,-0.134410832696,-2.40089573597,-0.0270682857758,2.14914843527,-0.174964640865,-0.910548070247,-0.977288457458,-0.0353489264789,-0.956577770632,-0.166406740953,0.00478829655158,-0.807418879925,0.57384934486,0.818938902069,0.00409279637651,0.0,0.818916482245,-0.573774679159,-0.0117965912057,0.0,-0.00731248531039,0.010121319413,-0.999922040187,0.0,0.455558832141,-0.00972747204517,0.304819388333,1.0,-0.31998,-0.420545142857,1.891
0.100028637609,-0.261345442822,-0.134709270669,-2.41600180114,-0.0295999760113,2.14902241833,-0.188097404625,-0.917050743572,-0.946909229953,-0.0216758158797,-0.93364919916,-0.167301417273,-0.0162337143433,-0.827924100754,0.573737070216,0.819017673998,0.0040707297807,0.0,0.818994441395,-0.573661771916,-0.0118753234536,0.0,-0.00739102003401,0.0101474137181,-0.999921198304,0.0,0.450407185553,-0.0164020537433,0.304759608574,1.0,-0.31998,-0.420545142857,1.907
0.0840251478159,-0.277197469738,-0.135164225472,-2.43130818268,-0.0322684813062,2.14871100358,-0.202388299056,-0.953751058067,-0.905142926452,-0.0261361916634,-0.885261810029,-0.161137214614,-0.0321205743535,-0.857715250753,0.573839628641,0.818944778191,0.00427525157674,0.0,0.818925166609,-0.573764995644,-0.0116639688349,0.0,-0.00709929335142,0.0101945549313,-0.999922832564,0.0,0.445035114085,-0.0236052105838,0.304846903999,1.0,-0.31998,-0.420545142857,1.924
0.0677833354141,-0.292713373193,-0.135493392555,-2.4462937832,-0.0347752430514,2.14805895559,-0.217120745853,-0.968220696135,-0.891675423164,-0.020376338768,-0.861010796569,-0.145617838536,-0.0380211362392,-0.878365247171,0.573731092795,0.819020466548,0.0043422848153,0.0,0.819000765493,-0.573654881459,-0.011771575985,0.0,-0.00715032644023,0.0103102522458,-0.999921282667,0.0,0.439581626567,-0.0306656156863,0.304824482169,1.0,-0.31998,-0.420545142857,1.941
0.0510117560316,-0.307965904651,-0.135939721042,-2.46064129638,-0.0374001280667,2.1473223128,-0.232195868812,-0.990649021256,-0.886404760274,-0.0183716462055,-0.8450276025,-0.146529598975,-0.0511397165021,-0.899224429369,0.573807176182,0.818966417687,0.00448086642935,0.0,0.818949539384,-0.573732023182,-0.0115742999476,0.0,-0.006908279409,0.0103112183905,-0.999922974259,0.0,0.434196045229,-0.0378621147896,0.304889830805,1.0,-0.31998,-0.420545142857,1.958
0.0339099449334,-0.32285115856,-0.136406660402,-2.47456062754,-0.0398779078393,2.14629114586,-0.247685631405,-1.01634523199,-0.860689664749,-0.0320635025423,-0.760460881582,-0.141423694998,-0.0498828607507,-0.922103774219,0.573885357816,0.81891113276,0.00457161112706,0.0,0.818894936333,-0.573809178588,-0.0116127824765,0.0,-0.00688673701774,0.0104082754212,-0.999922117295,0.0,0.428763123413,-0.0450211428808,0.304891543602,1.0,-0.31998,-0.420545142857,1.975
0.0175748125624,-0.336570928167,-0.136710897397,-2.48719767273,-0.0421894428551,2.14525263353,-0.262707506628,-1.02622049162,-0.863412556187,-0.0200751807376,-0.79056509637,-0.146559423186,-0.074976933185,-0.945401709068,0.573690884999,0.819046868443,0.0046629028476,0.0,0.819032279278,-0.573615116425,-0.0115139311796,0.0,-0.00675586778767,0.0104247060234,-0.9999228389,0.0,0.423683141915,-0.0516591587237,0.304912022895,1.0,-0.31998,-0.420545142857,1.991
-0.000349517753506,-0.350785715173,-0.137171883167,-2.50014340716,-0.0446815287026,2.14382455294,-0.278991491339,-1.05547969559,-0.817751864839,-0.0167747898075,-0.747698954715,-0.136221362023,-0.0830634349963,-0.974077652097,0.573771009982,0.818990925704,0.00463018583536,0.0,0.818975623811,-0.573694879795,-0.0115697623693,0.0,-0.00681934778032,0.0104306043942,-0.999922346479,0.0,0.41822909828,-0.0588524190052,0.304903032523,1.0,-0.31998,-0.420545142857,2.008
-0.0185875656302,-0.364680523245,-0.137683839509,-2.51252666358,-0.0469590962591,2.14238355067,-0.295764249566,-1.08224146771,-0.789306248393,-0.0310412216454,-0.735660608881,-0.128943624874,-0.0932750818672,-0.998165305052,0.573843621822,0.818938795688,0.00484701069257,0.0,0.818926284728,-0.573766824733,-0.0114942558943,0.0,-0.00663216583462,0.0105654533087,-0.999922189759,0.0,0.41282494006,-0.0660172941341,0.304949535851,1.0,-0.31998,-0.420545142857,2.025
-0.0382623983121,-0.378932874993,-0.138088134095,-2.52521774038,-0.0494595400386,2.14054390977,-0.313936436569,-1.10833576795,-0.79992094813,-0.0268045580366,-0.675365786868,-0.130090538533,-0.0985489150016,-1.01448714292,0.573731221781,0.819018045317,0.00476166986508,0.0,0.819003711548,-0.573653566363,-0.0116298396691,0.0,-0.00679363045166,0.0105724309672,-0.999921032026,0.0,0.407027475263,-0.0735310228331,0.304909473116,1.0,-0.31998,-0.420545142857,2.043
-0.0562154216139,-0.391248670274,-0.138520628164,-2.53582137363,-0.0516274192803,2.13900701289,-0.330485110856,-1.12656162259,-0.77015387451,-0.0235897070622,-0.656610946497,-0.127249097088,-0.101569108653,-1.05089714792,0.573779016315,0.818983766757,0.00489664440021,0.0,0.818972515923,-0.57370308597,-0.0113813097718,0.0,-0.00651201332067,0.0105407768519,-0.999923239907,0.0,0.401969755591,-0.0803002190933,0.304989972202,1.0,-0.31998,-0.420545142857,2.059
-0.0744244995129,-0.403115977992,-0.138939377906,-2.54617920002,-0.0535715524033,2.13713698622,-0.347423821962,-1.13815016664,-0.731962019685,-0.0188146150763,-0.646944455141,-0.116258032652,-0.12437828446,-1.06006410798,0.573803078853,0.818966766062,0.00492033392224,0.0,0.818953882356,-0.573723961342,-0.0116662615132,0.0,-0.00673149659669,0.0107238698108,-0.999919839572,0.0,0.39679442687,-0.0869822076731,0.304925279677,1.0,-0.31998,-0.420545142857,2.075
-0.0952808320631,-0.416083294176,-0.139411344438,-2.55698254778,-0.055800076018,2.13521007608,-0.366964218686,-1.17921858931,-0.712610374946,-0.0349670113078,-0.589448574191,-0.115321298726,-0.105054201548,-1.09800594384,0.573740523135,0.819009255658,0.00513791411225,0.0,0.819000723817,-0.573663300974,-0.011356865916,0.0,-0.00635406786624,0.01072405604,-0.999922307204,0.0,0.391126891357,-0.0945418971128,0.305046326492,1.0,-0.31998,-0.420545142857,2.093
-0.112976190634,-0.426334941775,-0.139702857637,-2.56572185609,-0.0576798884048,2.1333692709,-0.383592220081,-1.17675178599,-0.674824868006,-0.0187597786713,-0.576932380383,-0.123567744219,-0.13342729142,-1.10874654131,0.573561113366,0.819135894197,0.00497825010501,0.0,0.819124335237,-0.57348278128,-0.0115572444224,0.0,-0.00661214033248,0.0107067979253,-0.999920818904,0.0,0.385976761537,-0.101195588584,0.304976708871,1.0,-0.31998,-0.420545142857,2.109
-0.13459370377,-0.438203368709,-0.140162880682,-2.57572353586,-0.0597446874099,2.13115377411,-0.403908900379,-1.21075927614,-0.652683532889,-0.0366993815268,-0.540284062522,-0.10465913324,-0.116463809597,-1.15824017683,0.573582143919,0.819121064765,0.00499523141204,0.0,0.81910845385,-0.573501705361,-0.0117423030868,0.0,-0.00675372410391,0.0108270201113,-0.999918578108,0.0,0.380496849814,-0.108311894876,0.304924561452,1.0,-0.31998,-0.420545142857,2.126
-0.155405184574,-0.448969134278,-0.14059274603,-2.58426614856,-0.0616603995901,2.12923103278,-0.42357290119,-1.2284641932,-0.624603059497,-0.0102231066456,-0.503989440153,-0.125183907013,-0.109359515814,-1.18439538846,0.573560374322,0.81913510533,0.00518874992972,0.0,0.819127176562,-0.573482957388,-0.0113451798057,0.0,-0.00631769703549,0.010757598773,-0.999922177358,0.0,0.375163365063,-0.11548358649,0.305075065767,1.0,-0.31998,-0.420545142857,2.143
-0.175354220459,-0.458477756289,-0.141051089879,-2.59212094505,-0.0633422544552,2.12717136942,-0.442438026727,-1.25771359038,-0.58431807428,-0.0398248129134,-0.478954245588,-0.115966197073,-0.128983104363,-1.17696283922,0.573638200838,0.819080615994,0.00518709389005,0.0,0.819070817243,-0.573557661727,-0.0116340842205,0.0,-0.00655428161734,0.0109225626655,-0.999918866217,0.0,0.36997552685,-0.122212627102,0.305004651002,1.0,-0.31998,-0.420545142857,2.159
-0.196708185544,-0.468010130907,-0.14142217491,-2.59988502803,-0.0650654682895,2.12516268306,-0.462867921279,-1.26895833896,-0.546026605425,-0.0274563855656,-0.438834996213,-0.0892814178552,-0.117447573566,-1.22457647962,0.573499025047,0.819177992966,0.00519913566272,0.0,0.81916765901,-0.573417322505,-0.0117331830692,0.0,-0.00663041856276,0.0109881443964,-0.999917645725,0.0,0.364543359548,-0.12928310312,0.304962900105,1.0,-0.315694285714,-0.414912489796,2.176
-0.218277461912,-0.476776415547,-0.141694436247,-2.60669227653,-0.0665351286684,2.12331075324,-0.483253217373,-1.26265810901,-0.498554114029,-0.00973967440011,-0.385395533797,-0.0825733529701,-0.113562037354,-1.20344526355,0.573653931469,0.819068337196,0.00538264018062,0.0,0.819061426507,-0.573573391311,-0.0115191705056,0.0,-0.00634777086354,0.0110169425028,-0.999919163124,0.0,0.359291500396,-0.136333906824,0.305052197499,1.0,-0.306951428571,-0.403421877551,2.193
-0.239644011195,-0.484740217713,-0.141853409176,-2.61301366806,-0.0678754964742,2.12145094394,-0.503541068148,-1.2445984344,-0.451810023314,-0.00415322206449,-0.364046247727,-0.0586182502688,-0.104469562655,-1.17913700806,0.573718992141,0.819022415582,0.00543578251519,0.0,0.819015598745,-0.573637243399,-0.0115977971357,0.0,-0.0063808113782,0.0111060809816,-0.999917966741,0.0,0.354088331566,-0.143162873128,0.305037619305,1.0,-0.298208571429,-0.391931265306,2.21
-0.260746037586,-0.491879631521,-0.141867740522,-2.61874168447,-0.0690584151397,2.11965703972,-0.523611298084,-1.23438199404,-0.396217070316,0.0125546403409,-0.313679295616,-0.0712465642037,-0.094706958159,-1.17266680215,0.573739103514,0.81900843838,0.00541902779422,0.0,0.818999976112,-0.573654946223,-0.0118232273113,0.0,-0.00657479742422,0.0112218475276,-0.999915417511,0.0,0.349001949624,-0.149769752979,0.304972857901,1.0,-0.289465714286,-0.380440653061,2.227
-0.281579094534,-0.498309668743,-0.14183654252,-2.62371603634,-0.0700112068822,2.11817181108,-0.543397928904,-1.21153703394,-0.364419609509,0.00462586715378,-0.274654257755,-0.0549011183018,-0.0937593236171,-1.15328307623,0.573877136674,0.818910699758,0.0055717795179,0.0,0.818904581087,-0.573793043843,-0.0117293142777,0.0,-0.00640833601394,0.0112941585124,-0.999915684052,0.0,0.344129009674,-0.156234536075,0.304997526511,1.0,-0.280722857143,-0.368950040816,2.244
-0.300662861707,-0.503652129085,-0.141625862288,-2.62784521164,-0.070798888646,2.11677355222,-0.5616802931,-1.19665608293,-0.318342912959,0.00860510423072,-0.244930185457,-0.0475363929708,-0.0852817645432,-1.14331114886,0.573803823917,0.818961889373,0.00559842075482,0.0,0.818955814689,-0.573719119922,-0.0117682592117,0.0,-0.00642595848983,0.0113377496536,-0.999915077639,0.0,0.339700566171,-0.162039143471,0.305000990576,1.0,-0.272494285714,-0.358135346939,2.26
-0.320674222589,-0.50867780579,-0.141467168869,-2.63163596177,-0.071469041725,2.11553572464,-0.580801663316,-1.16038559797,-0.286063153743,0.0162400032261,-0.214063550845,-0.0290211682668,-0.0742153725153,-1.12236131369,0.57390931885,0.818886889039,0.005753572614,0.0,0.818883366735,-0.573825028773,-0.0116453827955,0.0,-0.00623482735802,0.0113951180121,-0.999915635548,0.0,0.335144047542,-0.168114475004,0.305044643287,1.0,-0.263751428571,-0.346644734694,2.277
-0.340182907761,-0.513145330664,-0.141174060635,-2.63504728038,-0.0720883622836,2.11429781405,-0.599532841176,-1.12311258508,-0.250814179176,0.0275271765488,-0.196242357115,-0.0338574781183,-0.0820496127022,-1.08704915215,0.573870568824,0.818913838063,0.00578298946603,0.0,0.818910456776,-0.57378574624,-0.0116759623191,0.0,-0.00624353039685,0.0114364618701,-0.999915109231,0.0,0.330688672095,-0.173928037662,0.305050391253,1.0,-0.255008571429,-0.335154122449,2.294
-0.358116110081,-0.516679714424,-0.14096518468,-2.63788287232,-0.072492003813,2.11326302351,-0.616750729769,-1.11963911664,-0.209008906945,0.00161341705476,-0.16639067977,-0.0235498629037,-0.0558810257189,-1.05882123611,0.573968189919,0.81884465706,0.00588994628015,0.0,0.818841153161,-0.573880187721,-0.0118929782917,0.0,-0.00635850067461,0.0116493459129,-0.999911927226,0.0,0.326598482017,-0.179232858089,0.304983292236,1.0,-0.24678,-0.324339428572,2.31
-0.37658853282,-0.519891075093,-0.140544692678,-2.64042393116,-0.0729000930568,2.11238261797,-0.634564127993,-1.06823850613,-0.184352048326,0.0236942302513,-0.144212753671,-0.0287955392128,-0.0524116713261,-1.03767377785,0.573884668746,0.818903223072,0.00588601066639,0.0,0.818899299939,-0.573796026384,-0.0119500446493,0.0,-0.00640868393455,0.0116782222712,-0.999911270011,0.0,0.32246322749,-0.184633690995,0.304946342907,1.0,-0.238037142857,-0.312848816327,2.327
-0.395676558329,-0.522690609207,-0.140181422641,-2.64257416629,-0.0732233580291,2.11154574035,-0.65294319516,-1.04506567834,-0.145530705596,0.0192908564656,-0.109728733495,-0.0112576078766,-0.0477826831668,-1.00398688786,0.57394191901,0.818862685798,0.00594325761287,0.0,0.818859157589,-0.573852394138,-0.0119940266794,0.0,-0.00641103172231,0.0117507918504,-0.999910404768,0.0,0.318227116061,-0.190222028892,0.304935155933,1.0,-0.22878,-0.300682285714,2.345
-0.412107017329,-0.524815651476,-0.139841968769,-2.64413664479,-0.0734427564449,2.11090036216,-0.668792378937,-1.02022064643,-0.124309531252,0.0203962807251,-0.0905806487714,-0.0220060062354,-0.0370227624382,-0.981710791003,0.573990591225,0.81882811697,0.00600524319153,0.0,0.818825577882,-0.57390114049,-0.0119541144729,0.0,-0.00634207123189,0.0117790227432,-0.999910512374,0.0,0.314599283024,-0.195006248176,0.304957636239,1.0,-0.220551428572,-0.289867591837,2.361
-0.428943924907,-0.526587072055,-0.139371811916,-2.64545669058,-0.073570316516,2.11036067535,-0.68511184542,-0.986831412941,-0.0961042422341,0.0306439427081,-0.0734348454459,-0.0139641257154,-0.0350969546188,-0.955476923339,0.57394874177,0.818857151686,0.00604597834416,0.0,0.818855368801,-0.573859558084,-0.0119096382273,0.0,-0.00628287094037,0.0117865306295,-0.999910797636,0.0,0.31092403863,-0.199862230582,0.304972215085,1.0,-0.211808571429,-0.278376979592,2.378
-0.445266637759,-0.527989628495,-0.138962072541,-2.64653360434,-0.0736837270751,2.10991125112,-0.70088454852,-0.940800292967,-0.0718904784829,0.0313871492724,-0.0541481283514,-0.00127199269664,-0.0263827226236,-0.915762557555,0.573997435681,0.818822778436,0.00607850701152,0.0,0.818821395894,-0.573908068916,-0.0119078529013,0.0,-0.00626203754062,0.0118125160535,-0.999910621681,0.0,0.307343381167,-0.204562465287,0.304967746241,1.0,-0.203065714286,-0.266886367347,2.395
-0.460037388399,-0.528946530681,-0.138545229175,-2.64727133391,-0.073701475607,2.10958153029,-0.71515986001,-0.923624161633,-0.0529219368893,0.0183284955396,-0.0412880778305,8.55420257227e-05,-0.020583339524,-0.877646229032,0.574057614281,0.818780256961,0.00612316893683,0.0,0.818779423832,-0.573967995733,-0.0119055400888,0.0,-0.00623363818781,0.0118482187891,-0.999910376717,0.0,0.304125844591,-0.208795331417,0.304964683843,1.0,-0.194837142857,-0.256071673469,2.411
-0.475114721637,-0.529646844407,-0.138023309616,-2.64779742588,-0.0736914017395,2.10930031505,-0.729798774571,-0.875024794422,-0.0295979200327,0.0361546159347,-0.0211285742157,0.00180451620881,-0.0140339498522,-0.850191991231,0.574021501885,0.818805635117,0.00611507771424,0.0,0.818804792848,-0.573932106005,-0.0118909968805,0.0,-0.00622689570902,0.0118329706507,-0.999910599291,0.0,0.300864002333,-0.213089468011,0.304970836567,1.0,-0.186094285714,-0.244581061225,2.428
-0.490460085182,-0.530064296646,-0.137554967465,-2.64811606002,-0.0736913649873,2.10907761169,-0.744609324032,-0.837626822407,-0.0167989636083,0.0187539380129,-0.00848565294166,0.00249956559864,-0.0146354660753,-0.814117340685,0.574110373691,0.818743464521,0.00609631251538,0.0,0.818742375764,-0.574021029732,-0.0118964891863,0.0,-0.00624088134071,0.0118214348439,-0.999910648547,0.0,0.297530744535,-0.217475953084,0.304971526416,1.0,-0.176837142857,-0.232414530612,2.446
-0.502550579467,-0.530193736385,-0.137015032336,-2.64824979708,-0.0736328363606,2.10896347417,-0.75649602776,-0.796010210053,-0.010512954342,0.0335075864922,-0.00964700003724,4.64830788533e-05,-0.00652410248936,-0.773195576518,0.573913872908,0.818881724385,0.00602783977144,0.0,0.818879696786,-0.5738247524,-0.0119139677129,0.0,-0.00629732800375,0.0117738936401,-0.999910855571,0.0,0.294931595199,-0.220878332994,0.304962330548,1.0,-0.169122857143,-0.222275755102,2.461
-0.516640976988,-0.530205027645,-0.136490396653,-2.64829564614,-0.0735754503564,2.10888585975,-0.770047826513,-0.763028054265,0.00287014171635,0.0263481264591,-0.00144707384055,-0.00273597697835,-0.00199241761969,-0.735056087985,0.574007055026,0.818816800764,0.00597448477005,0.0,0.818814123959,-0.573918211253,-0.0119190644788,0.0,-0.00633078651953,0.0117338455261,-0.999911115055,0.0,0.291867603674,-0.224860366598,0.304952661278,1.0,-0.159865714286,-0.21010922449,2.479
-0.529737703889,-0.530025797568,-0.135826263117,-2.64820712618,-0.0733713108714,2.10886742967,-0.782894331511,-0.712589807334,0.0112383943482,0.0346460677731,0.00944267638127,0.00514108757108,-0.0015181326306,-0.702996805159,0.573836051416,0.818936839443,0.00594861330112,0.0,0.818933810573,-0.573747316483,-0.011923826196,0.0,-0.00635198191604,0.0117140674325,-0.999911212533,0.0,0.289054722733,-0.228499030754,0.304943303731,1.0,-0.150608571429,-0.197942693878,2.497
-0.540291108326,-0.529760934573,-0.135388214809,-2.64805378966,-0.0731816534062,2.10886721555,-0.793031161511,-0.69671413372,0.0179091276047,0.0254965820724,0.0115643609162,0.014773241799,-0.000681331042915,-0.663886454824,0.573958205455,0.818850972604,0.0059841421497,0.0,0.818848156224,-0.573868841818,-0.0119581077013,0.0,-0.00635791780662,0.011763784292,-0.999910591133,0.0,0.286758650714,-0.231444780553,0.304927790458,1.0,-0.142894285714,-0.187803918367,2.512
-0.551435729185,-0.529324887262,-0.134743375635,-2.64775528134,-0.0728996088941,2.10892009147,-0.803896666281,-0.631987622756,0.032593753865,0.0417778814798,0.0189065728096,0.0226999016175,8.44516445549e-05,-0.638270473906,0.573869441261,0.81891317703,0.00598496235982,0.0,0.818910384659,-0.573780117208,-0.011954325339,0.0,-0.00635562450378,0.0117615962784,-0.999910631452,0.0,0.284382852743,-0.234515592257,0.304925629022,1.0,-0.134151428572,-0.176313306123,2.529
-0.562033433798,-0.528758210705,-0.134182152396,-2.64737846475,-0.0726184162128,2.10899248384,-0.814197172587,-0.620891402828,0.0313286813042,0.0254116529514,0.0263020531916,0.0153670934894,0.00136390807703,-0.598531071429,0.573858537283,0.818920639815,0.00600930720307,0.0,0.81891790273,-0.573768631833,-0.0119905218745,0.0,-0.00637145654329,0.0118022198251,-0.999910052029,0.0,0.282107115044,-0.23744636812,0.304910739348,1.0,-0.125408571429,-0.164822693878,2.546
-0.571463827277,-0.528153978381,-0.133666854082,-2.64693190038,-0.0723471163236,2.10910878494,-0.823211742582,-0.566458915648,0.0380933973208,0.0417484370661,0.0286257791891,0.023247003051,0.00274913338451,-0.55776553934,0.573976452496,0.818837873041,0.00602632183623,0.0,0.818835538654,-0.573886789565,-0.0119607818087,0.0,-0.0063356366253,0.0118000007851,-0.999910305822,0.0,0.280095265679,-0.240061720207,0.304916237609,1.0,-0.11718,-0.154008,2.562
-0.581110283461,-0.527326879439,-0.133016425198,-2.64637791329,-0.0719673084198,2.10923145071,-0.832717517057,-0.530558057211,0.0487777687461,0.0316830344615,0.0331604830297,0.0205491158002,0.00644602383394,-0.513680708452,0.573826092812,0.818943016273,0.006057904488,0.0,0.81894058445,-0.573735383331,-0.0120322881027,0.0,-0.00637824695888,0.0118657331636,-0.999909257054,0.0,0.278065093041,-0.242701066241,0.304892941419,1.0,-0.107922857143,-0.141841469388,2.58
-0.589798868243,-0.526580011141,-0.132462577573,-2.64583872104,-0.0716495710817,2.10934682342,-0.840939526919,-0.49968646041,0.0496141181581,0.0301503392797,0.0340812203598,0.0237961961957,0.0119172278655,-0.469105209378,0.573982912219,0.818832978932,0.00607585347732,0.0,0.81883061535,-0.573891785346,-0.0120577352902,0.0,-0.00638651186739,0.0118962578981,-0.999908841602,0.0,0.276217280607,-0.245083924665,0.304888873616,1.0,-0.0991800000001,-0.130350857143,2.597
-0.597697367019,-0.525761442508,-0.131890853133,-2.64523576573,-0.071296018373,2.1095033302,-0.848595158063,-0.438685191948,0.0494651554182,0.0391029647036,0.0361649253073,0.0229292314964,0.000639458419438,-0.436279439092,0.573962353373,0.818847210867,0.00609992351436,0.0,0.818845164373,-0.573871134304,-0.0120525888365,0.0,-0.00636878134489,0.011912854485,-0.999908757098,0.0,0.274571748887,-0.247248068123,0.304891276335,1.0,-0.0904371428572,-0.118860244898,2.614
-0.604794395777,-0.524941859724,-0.131227822697,-2.64467265159,-0.0709195873823,2.10963417442,-0.855540574053,-0.413571300336,0.0424866510329,0.0335692222873,0.0315997562909,0.018977113813,0.0044134625221,-0.393241235992,0.57380997593,0.818954025227,0.00609614542414,0.0,0.818951506391,-0.573718016492,-0.0121167088198,0.0,-0.00642568271382,0.0119453658598,-0.999908005187,0.0,0.273116447009,-0.249146102699,0.304875016842,1.0,-0.0816942857144,-0.107369632653,2.631
-0.611064875787,-0.524253489743,-0.130653946589,-2.64415231532,-0.0705911512638,2.10977543944,-0.861437524535,-0.378099567979,0.0367710865247,0.0354085788712,0.0318440784885,0.0198719652051,0.00891843314725,-0.35717438636,0.573878823796,0.818905831405,0.00608948196506,0.0,0.818903401166,-0.573787205293,-0.0120917121753,0.0,-0.00640803014809,0.0119261046679,-0.999908348389,0.0,0.271827450964,-0.250828756678,0.304885757622,1.0,-0.0734657142858,-0.0965549387756,2.647
-0.616350814307,-0.523560084178,-0.13012544401,-2.64363765866,-0.0702452808568,2.10991825854,-0.866450246323,-0.336846791164,0.0474568033985,0.0317654265848,0.0272614033114,0.0189215996709,0.0129258524555,-0.312600619539,0.573918976752,0.818877518016,0.00611273376293,0.0,0.818875406233,-0.573827277349,-0.012086014184,0.0,-0.00638943494178,0.011942190161,-0.999908275401,0.0,0.270697747068,-0.252333793865,0.304887264054,1.0,-0.0652371428572,-0.0857402448981,2.663
-0.621993746081,-0.52280959694,-0.129512949395,-2.64310124374,-0.0698373804044,2.11006149022,-0.871816639318,-0.296112646823,0.0397226312566,0.0386155917145,0.0325242328366,0.0218734897464,0.00544186595057,-0.278635563124,0.573900952001,0.81888990593,0.00614541775718,0.0,0.81888810415,-0.573808896236,-0.0120983628341,0.0,-0.00638105467802,0.0119759020177,-0.999907925717,0.0,0.269636782906,-0.253733082052,0.304886852843,1.0,-0.0564942857144,-0.0742496326532,2.68
-0.626817927256,-0.522208135644,-0.128796620051,-2.64265389185,-0.0694277485853,2.11018754022,-0.876384824378,-0.250719244056,0.0324419724503,0.041156050446,0.027759244277,0.0284690191394,0.00716373858872,-0.239574489407,0.573802489189,0.818959005344,0.00613170993895,0.0,0.81895715745,-0.573710762966,-0.0120781463354,0.0,-0.0063738014373,0.0119523082929,-0.999908254282,0.0,0.268708991321,-0.254950337946,0.304897889387,1.0,-0.0472371428572,-0.0620831020409,2.698
-0.630386888375,-0.521771862084,-0.128219925196,-2.64232791925,-0.0691066481486,2.11030025133,-0.87963992993,-0.230202178184,0.0297263628686,0.0369609483248,0.0228662994895,0.0232499383996,0.00882524812067,-0.200673508142,0.573805675018,0.8189569271,0.00611111880222,0.0,0.818955075558,-0.573714533076,-0.0120401684813,0.0,-0.00635446405415,0.0119136781384,-0.999908838375,0.0,0.268032902555,-0.255838034965,0.304909644906,1.0,-0.039522857143,-0.0519443265307,2.713
-0.633987792967,-0.52127717236,-0.127621202557,-2.64196313277,-0.0687142067751,2.11041489002,-0.882918902559,-0.186224468674,0.023481037518,0.0330686578806,0.0202014265669,0.0263827486996,0.00247139963283,-0.169953554894,0.573832225728,0.818938133743,0.00613650706542,0.0,0.818936747379,-0.573741223112,-0.012014973836,0.0,-0.00631887483879,0.011920219816,-0.999908985948,0.0,0.267364791896,-0.256729417051,0.304918182152,1.0,-0.0302657142858,-0.0397777959185,2.731
-0.636672094451,-0.52088494275,-0.127082042351,-2.64171100038,-0.068364551859,2.11046861506,-0.88524159782,-0.142539523207,0.0202141585729,0.0325564190958,0.0125864373105,0.0178076641313,0.00685205310273,-0.121799456493,0.573909250775,0.818883958943,0.00616283707792,0.0,0.818882559753,-0.573817447426,-0.0120680264935,0.0,-0.00634609205265,0.0119728223589,-0.999908185105,0.0,0.266879685516,-0.257356644362,0.304906385116,1.0,-0.021522857143,-0.0282871836736,2.748
-0.638698482544,-0.520629945677,-0.126615842664,-2.64153929146,-0.0680756783423,2.11050133095,-0.88698615754,-0.122106100743,0.0122165200284,0.023278964585,0.0137808665629,0.0216820026568,0.0034974641536,-0.107641536095,0.573942173598,0.818860778291,0.00617689585636,0.0,0.818859399146,-0.57384999376,-0.0120919805335,0.0,-0.00635715933712,0.0119983378252,-0.999907808958,0.0,0.266522850635,-0.257808813492,0.304904817977,1.0,-0.01972,-0.0259177142857,2.764
-0.640478068283,-0.520390144062,-0.1262239205,-2.64136245289,-0.0678529382942,2.11054020982,-0.888589382477,-0.0986757452181,0.0141258770336,0.0198219793082,0.0164408926752,0.0134186738206,0.00139557797241,-0.0872053600738,0.57391326641,0.818881100902,0.00616864047968,0.0,0.818879600218,-0.573821102833,-0.0120950068704,0.0,-0.00636479900054,0.0119930896543,-0.999907823319,0.0,0.266209649256,-0.258220277261,0.304909814648,1.0,-0.01938,-0.0254708571429,2.781
-0.642041293853,-0.520117311319,-0.125984407006,-2.6411594135,-0.0676966547926,2.11063163236,-0.89018627165,-0.0886535847858,0.0163401831645,0.0118060061262,0.00791587350675,0.00573471416426,0.00849157301198,-0.0908429953899,0.573793342822,0.81896511265,0.00617178227738,0.0,0.818963881072,-0.573701621753,-0.0120564339003,0.0,-0.00633315917861,0.0119725987868,-0.999908269779,0.0,0.265926658256,-0.258627498984,0.304915329865,1.0,-0.01904,-0.025024,2.798
-0.643437753981,-0.519885248935,-0.125822718787,-2.64098575158,-0.0676268923021,2.11067404575,-0.891503941688,-0.0850564607314,0.0127341831802,0.0091354922108,0.00949643681265,0.00592954074483,0.00334057350462,-0.0817174481805,0.573782208208,0.818973115531,0.00614495589821,0.0,0.818971520409,-0.573690579364,-0.0120629519044,0.0,-0.00635405232946,0.011954281213,-0.999908356391,0.0,0.265648066442,-0.259002364081,0.304916373731,1.0,-0.01872,-0.0246034285714,2.814
-0.645010411294,-0.519665074245,-0.125683657018,-2.64081565942,-0.0675939303602,2.11067255341,-0.893080151852,-0.0883237488196,0.00715858447546,0.00195770724455,0.00913344010625,0.0048432707144,0.000299042946788,-0.0882650397365,0.5737037607,0.819028360766,0.00610623623761,0.0,0.819026018222,-0.573611862719,-0.0121061688864,0.0,-0.00641280958222,0.0119467509818,-0.999908071282,0.0,0.265307544115,-0.259425546688,0.304915840423,1.0,-0.01836,-0.0241302857143,2.832
-0.646429904663,-0.519452002037,-0.125599086675,-2.64061306834,-0.0675546294733,2.11072095538,-0.894446553018,-0.0838378866317,0.00921905676806,0.0030621905289,0.0103868445225,0.00168142480891,0.00198646227583,-0.0759963778324,0.573714467334,0.819021002619,0.00608721133579,0.0,0.819018726682,-0.573623235816,-0.0120604965583,0.0,-0.00638615707305,0.0119050506451,-0.999908739219,0.0,0.265010457666,-0.259834387246,0.304935637072,1.0,-0.01802,-0.0236834285714,2.849
-0.647700648872,-0.519242055224,-0.125569114251,-2.64044308427,-0.0675250179905,2.110810943,-0.895750775613,-0.0842377578572,0.0185631409093,0.00370043347853,0.00916476812991,0.00339297826519,0.0082896281229,-0.0894186741147,0.573687283036,0.819040051269,0.00608626324932,0.0,0.819038127518,-0.573596742301,-0.0120029077792,0.0,-0.00633992349346,0.0118710257617,-0.999909437958,0.0,0.264737890324,-0.26021396302,0.304944001625,1.0,-0.0177,-0.0232628571429,2.865
-0.649031916585,-0.519035872503,-0.125566457706,-2.64027796834,-0.0674945214925,2.11081219335,-0.897066146206,-0.0750864547199,0.0108011984636,-0.000418980185736,0.0113059604477,0.000968826933834,0.00206216692044,-0.0639281324884,0.573720102456,0.81901688511,0.00611006085209,0.0,0.819015051297,-0.573629042142,-0.0120338963576,0.0,-0.0063511782364,0.0119085493299,-0.999908920346,0.0,0.264428061927,-0.260601523492,0.30494330693,1.0,-0.01736,-0.022816,2.882
-0.650372953779,-0.518820254469,-0.125574393096,-2.64010264813,-0.067471622117,2.11084782526,-0.898365822323,-0.0790244140708,0.00981695379193,6.79636783057e-05,0.00762538777999,0.000409805150401,0.00213194784355,-0.0798771048422,0.573778541771,0.818975814548,0.00612756809365,0.0,0.818974216504,-0.573687409059,-0.0120306396749,0.0,-0.00633761628254,0.0119214726931,-0.9999088524,0.0,0.264119700142,-0.261001670565,0.30494643933,1.0,-0.01702,-0.0223691428571,2.899
-0.651616602442,-0.518623591818,-0.125574206194,-2.63993758915,-0.0674424151044,2.11091682361,-0.899660502811,-0.0806577945732,0.00948636617631,-0.00115503893772,0.0104603926065,-0.0003065153771,0.00164437164728,-0.0786055722573,0.573757645448,0.818990336522,0.0061432787955,0.0,0.818989211592,-0.573666957422,-0.0119849972584,0.0,-0.006291522014,0.0119079921308,-0.999909304124,0.0,0.263841883574,-0.261375735134,0.304954920553,1.0,-0.0167,-0.0219485714286,2.915
-0.652883787937,-0.518411831437,-0.12556084877,-2.63976143628,-0.067414466252,2.11096053841,-0.90089377541,-0.0700871200096,0.00873693504402,0.000550023599736,0.0118347793253,0.00272432454088,0.00148158094675,-0.0781693123272,0.573797039325,0.818962668291,0.00615243916682,0.0,0.818961755073,-0.573706479966,-0.0119693556437,0.0,-0.00627288199051,0.0119068224523,-0.999909435164,0.0,0.26355836845,-0.261752012765,0.304961022782,1.0,-0.01636,-0.0215017142857,2.932
-0.654076291243,-0.518181164368,-0.125535414331,-2.63958305414,-0.0673783385261,2.11099442718,-0.902153721934,-0.0680490728059,0.0105417121454,0.000545100617931,0.0106402966572,0.00045761842544,0.00544777874474,-0.0776284031071,0.573748541382,0.818996555384,0.00616444908567,0.0,0.818995716508,-0.573657786347,-0.0119794576548,0.0,-0.00627497115075,0.0119220832888,-0.999909240215,0.0,0.263295826803,-0.262103740353,0.304960611034,1.0,-0.01602,-0.0210548571429,2.949
-0.65527371241,-0.517958013786,-0.125496704464,-2.63943031437,-0.06735455084,2.11102230953,-0.903342253443,-0.0751276997271,0.0123200828459,0.00486809994125,0.00917058025955,0.00276486175283,0.0024789186931,-0.0670905000786,0.573737553717,0.819004270754,0.00616204867268,0.0,0.81900316929,-0.573646372396,-0.0120164484067,0.0,-0.00630680712237,0.0119412550116,-0.999908811149,0.0,0.263042421887,-0.262425047484,0.304950995144,1.0,-0.0157,-0.0206342857143,2.965
-0.656459727472,-0.517743213612,-0.125459372678,-2.63926719887,-0.0673289495801,2.11105408418,-0.904473157607,-0.0709778463952,0.0100236033731,0.00181248391005,0.0119815095939,0.00199257385846,0.0010243717025,-0.0662870493871,0.573784785864,0.818971192066,0.00616059884308,0.0,0.818970001007,-0.573693466897,-0.0120287319075,0.0,-0.00631701122291,0.0119474790285,-0.999908672387,0.0,0.262763175567,-0.262791536614,0.304949658503,1.0,-0.01534,-0.0201611428571,2.983
-0.657589327869,-0.517534742302,-0.12544731408,-2.63908782846,-0.0673032405643,2.1111261861,-0.905681821434,-0.0677410091725,0.010823111209,0.000122704222377,0.0148116150076,0.000810378140414,0.00864807573593,-0.0737658994682,0.573731707437,0.819008350138,0.00616418577205,0.0,0.819007510379,-0.573640961903,-0.0119788008777,0.0,-0.00627482929777,0.0119213618465,-0.999909249707,0.0,0.262518669331,-0.263135970543,0.30496076723,1.0,-0.015,-0.0197142857143,3.0
-0.658636124236,-0.517333235931,-0.125437982597,-2.63892790476,-0.0672801057426,2.11117217755,-0.906759548119,-0.0673612805423,0.00864143517311,-0.00101639694362,0.0115108944541,0.00145421404668,0.000186165997414,-0.063927040399,0.573717968022,0.819017922399,0.00617113112911,0.0,0.819017231569,-0.573627307617,-0.0119680094295,0.0,-0.00626220545052,0.0119207542956,-0.99990933609,0.0,0.26228634036,-0.263450708481,0.304963301242,1.0,-0.01468,-0.0192937142857,3.016
-0.659754258211,-0.517142930266,-0.125409586197,-2.63877286626,-0.06725003665,2.11119070153,-0.907867947243,-0.063828299401,0.0159389964458,0.00153773088377,0.00965151354294,0.000300939347227,0.000606957125044,-0.0720975379066,0.573726692464,0.81901175574,0.00617844766974,0.0,0.819011092627,-0.573635870998,-0.0119776692279,0.0,-0.00626579332948,0.0119323554611,-0.999909175239,0.0,0.262034494206,-0.263774142596,0.30496584453,1.0,-0.01434,-0.0188468571429,3.033
-0.660850283264,-0.51695058383,-0.12538894974,-2.63862417056,-0.0672276738481,2.11122148523,-0.908971816221,-0.069955728687,0.0102762683229,0.00207952622065,0.0108997410744,0.00221299243302,0.0051688746239,-0.0735804034623,0.573722943293,0.819014350288,0.00618265823683,0.0,0.819013696857,-0.573632018953,-0.0119840766946,0.0,-0.00626868075247,0.0119394514043,-0.999909072437,0.0,0.261786120231,-0.264094069385,0.304965600209,1.0,-0.014,-0.0184,3.05
-0.661820991165,-0.51675473033,-0.125368369934,-2.63847453482,-0.0672076211991,2.11124680135,-0.909949839043,-0.0639600060048,0.0119643692201,-0.000447728899314,0.00802957814495,0.000171439208955,-0.000125296889288,-0.0603992631918,0.57371874151,0.819017282227,0.00618416970748,0.0,0.819016549567,-0.573627623386,-0.0119995052279,0.0,-0.00628051250727,0.0119495084389,-0.999908878054,0.0,0.261569555361,-0.264380639633,0.30496400874,1.0,-0.01368,-0.0179794285714,3.066
-0.662881015915,-0.51654364278,-0.125324896265,-2.63831001297,-0.0671792299369,2.11129284361,-0.911002040625,-0.0583068859541,0.00838885823142,0.0053529520369,0.00903620153452,0.00461210190181,0.00371763691009,-0.0589335417229,0.573714975597,0.819019965471,0.00617817430906,0.0,0.819019194172,-0.573623958664,-0.01199418716,0.0,-0.00627965085185,0.0119415180491,-0.999908978924,0.0,0.261341151201,-0.264691145054,0.304965862858,1.0,-0.01332,-0.0175062857143,3.084
-0.663872132862,-0.516336573895,-0.125278358037,-2.6381706524,-0.0671621557586,2.11133679517,-0.912034521104,-0.0591921601371,0.00739873859368,0.00426576220685,0.00624691012456,-0.000223791059396,0.00287565231401,-0.058452886296,0.573662728587,0.819056660853,0.00616498536559,0.0,0.819055607063,-0.573571568494,-0.0120131284367,0.0,-0.00630349389967,0.0119411797737,-0.999908832939,0.0,0.261124373588,-0.264977167954,0.304957641947,1.0,-0.01298,-0.0170594285714,3.101
-0.664795785291,-0.516154144289,-0.125249313271,-2.63803558776,-0.0671460217181,2.11136860676,-0.912963573728,-0.0586723091157,0.0124982616227,0.00068006812954,0.00780771683906,0.00014004304135,0.00387002623042,-0.053551003397,0.573651646579,0.8190644649,0.00615935196672,0.0,0.81906327369,-0.573560391628,-0.0120240487472,0.0,-0.00631583232619,0.0119427442829,-0.999908736396,0.0,0.2609188937,-0.265246864042,0.304955098747,1.0,-0.01266,-0.0166388571429,3.117
-0.665757484119,-0.515959808869,-0.125229349468,-2.63788897658,-0.0671273419123,2.11142038443,-0.913904420126,-0.0580527064645,0.0107916346805,0.00322234972211,0.00822129281197,0.00232164080402,0.000676235516654,-0.0523202146562,0.573670174045,0.819051508153,0.00615672847765,0.0,0.819050344068,-0.57357904227,-0.0120151176553,0.0,-0.00630975129474,0.011935615012,-0.999908859913,0.0,0.260706711766,-0.265533680143,0.304954887594,1.0,-0.01232,-0.016192,3.134
-0.666771778238,-0.515772998812,-0.12523119381,-2.63773125507,-0.0671141620357,2.11145541701,-0.914910855354,-0.0547276200056,0.00890803659911,0.00072751091072,0.0104592849866,0.000400229091277,0.00486553323576,-0.0564394990997,0.573691692002,0.819036404972,0.00616090564944,0.0,0.819035363593,-0.573600667256,-0.0120039414022,0.0,-0.00629788667393,0.0119327907956,-0.99990896842,0.0,0.260474946122,-0.265839916102,0.304960543161,1.0,-0.01196,-0.0157188571429,3.152
-0.667588634877,-0.515629744172,-0.125229621289,-2.63759989674,-0.067101157605,2.11149489781,-0.915718532557,-0.0530464564193,0.00973045027088,0.000606968682386,0.0122106249438,-0.000149373979028,0.00046306182302,-0.0589153054285,0.573710356916,0.81902332152,0.00616214860743,0.0,0.819022496734,-0.573619703261,-0.0119721666843,0.0,-0.00627087460172,0.0119157237739,-0.99990934172,0.0,0.260291829784,-0.266088370369,0.304970750563,1.0,-0.01166,-0.0153245714286,3.167
-0.668529428398,-0.515451693527,-0.12522354151,-2.63744216346,-0.067085856838,2.11152770537,-0.916602539026,-0.0488303944292,0.00728002407597,2.29060466913e-05,0.0115077742682,0.00178400643579,0.0018078780894,-0.0419445793369,0.573767175181,0.818983515963,0.0061624806103,0.0,0.818982807712,-0.57367672154,-0.0119551970182,0.0,-0.00625595806152,0.0119066945353,-0.999909542716,0.0,0.260080819835,-0.266373059585,0.304979624906,1.0,-0.0113,-0.0148514285714,3.185
-0.669357047916,-0.51528618053,-0.125208946662,-2.6373077449,-0.0670708628196,2.11156309171,-0.917393175307,-0.0570106548948,0.015303619532,0.00278933213131,0.0114221034602,0.00106285570167,0.00303686431354,-0.049666623948,0.573800450357,0.818960221312,0.00616003077446,0.0,0.818959539076,-0.573710110053,-0.0119469611326,0.0,-0.0062501343341,0.0119002167581,-0.99990965625,0.0,0.259896993478,-0.266620873198,0.304982948435,1.0,-0.01098,-0.0144308571429,3.201
-0.670156435161,-0.515135371938,-0.125197842967,-2.63717621086,-0.0670529221953,2.1116048764,-0.918204020525,-0.04941654473,0.0106421112883,0.00125793500389,0.00895077686083,0.000776034831224,0.00177134425536,-0.0454235174099,0.573797580421,0.818962226439,0.00616078487563,0.0,0.818961721052,-0.573707556035,-0.0119200042613,0.0,-0.00622766429658,0.0118853454183,-0.999909973328,0.0,0.259720630113,-0.266862110853,0.304990848997,1.0,-0.01066,-0.0140102857143,3.217
-0.671028283245,-0.514951421404,-0.125188077394,-2.63704592293,-0.0670368586573,2.11162745435,-0.919083406368,-0.0468831898083,0.00770627940796,-0.000765805245296,0.0106633978055,9.0114492508e-05,0.000434849266504,-0.0501900293554,0.573798186412,0.818961761538,0.00616614222684,0.0,0.818961156931,-0.573707817703,-0.0119461393887,0.0,-0.00624598761136,0.0119047332908,-0.999909628399,0.0,0.25952023506,-0.267118854926,0.304984264022,1.0,-0.0103,-0.0135371428571,3.235
-0.671819887067,-0.514779593859,-0.125172316747,-2.63691971947,-0.067016616708,2.11164482117,-0.919852489968,-0.046266610639,0.00675112269628,0.00439209559022,0.00513255550618,0.00207227930168,0.0066169546137,-0.0454799735893,0.573820685707,0.818945957093,0.00617145993749,0.0,0.818945270665,-0.573730002421,-0.0119697484962,0.0,-0.00626194597537,0.0119228067697,-0.999909313244,0.0,0.259341314855,-0.267351332865,0.304979990873,1.0,-0.00996,-0.0130902857143,3.252
-0.672550410913,-0.514626616441,-0.125147507453,-2.63684256645,-0.0670004237715,2.1116797816,-0.920551219175,-0.040941195683,0.00996401980386,0.00225512379188,-4.15684711736e-05,0.000296644561049,0.00266745865672,-0.0479468054974,0.573840254886,0.818932234169,0.00617289337903,0.0,0.818931336217,-0.573749123735,-0.0120065181149,0.0,-0.00629095365769,0.0119452292213,-0.999908863548,0.0,0.259172342784,-0.267556340491,0.30496210364,1.0,-0.00964,-0.0126697142857,3.268
-0.673281027668,-0.514469481459,-0.125121940744,-2.63674821129,-0.0669840071282,2.1117230776,-0.921296113612,-0.0383260783643,0.0105697708446,0.00101300140039,0.00459735383331,0.000477073524151,0.00442877318538,-0.0443427113354,0.573822450806,0.818944724065,0.00617096247464,0.0,0.818943703682,-0.573731147092,-0.0120219781073,0.0,-0.00630498355503,0.0119523819257,-0.999908689706,0.0,0.259008429136,-0.267766715537,0.30495121646,1.0,-0.00930000000001,-0.0122228571429,3.285
-0.67398876382,-0.514321847536,-0.125074484114,-2.63664210896,-0.0669610170892,2.11174603084,-0.922029995386,-0.04093465317,0.00962995758056,-0.00080899720564,0.00874041396724,0.0045123959844,0.000334648375659,-0.0410264897704,0.573782675409,0.818972645899,0.00616389256047,0.0,0.818971444471,-0.573691242018,-0.0120365640538,0.0,-0.00632156724178,0.0119546540835,-0.999908557836,0.0,0.258855690082,-0.267966035693,0.304947951748,1.0,-0.00896000000001,-0.011776,3.302
-0.67462797004,-0.514183292255,-0.125057321622,-2.63653906442,-0.066948132056,2.11176190969,-0.922639112364,-0.0394801510763,0.00508602002652,0.00227797888957,0.00562910873101,0.000408488958609,1.06228462105e-05,-0.0364933110141,0.573805998548,0.818956314483,0.00616262117026,0.0,0.81895499583,-0.573714375456,-0.0120530950914,0.0,-0.00633549595621,0.0119632779895,-0.999908366537,0.0,0.258711860042,-0.2681533751,0.304945323901,1.0,-0.00864000000001,-0.0113554285714,3.318
-0.675264431325,-0.514024663681,-0.125038833213,-2.63643030202,-0.0669303388344,2.11180040277,-0.923271139813,-0.0367278220318,0.0159548155179,-0.0015773616359,0.0116923652941,-0.0002902900184,0.000398397258927,-0.0408038008323,0.573806011741,0.818956342962,0.00615760624114,0.0,0.818954933139,-0.573714361604,-0.0120580130207,0.0,-0.00634240122401,0.0119619926738,-0.999908338138,0.0,0.258568139574,-0.26835247302,0.304941104902,1.0,-0.00828000000001,-0.0108822857143,3.336
-0.675924864298,-0.513885995442,-0.125016910243,-2.63633376174,-0.0669038887371,2.11183553932,-0.923917508044,-0.0378530867518,0.00699254734743,0.000666981823356,0.00606512926714,3.08832000597e-05,0.000577932532972,-0.0374315849803,0.57382208831,0.818944991925,0.00616912232918,0.0,0.818943688092,-0.573730301616,-0.0120633180908,0.0,-0.00633990358458,0.0119745927193,-0.999908203163,0.0,0.258427767168,-0.268534959799,0.304935958236,1.0,-0.00794000000001,-0.0104354285714,3.353
-0.676473146067,-0.513780234746,-0.125009800555,-2.63626555983,-0.0668869399643,2.11184810148,-0.924457527963,-0.0364548761306,0.00298552185985,0.000183905263771,-0.00013360213663,0.000440587915595,0.00027089628224,-0.0410833136148,0.573834661975,0.818936101227,0.00617978344621,0.0,0.818934793409,-0.573742556067,-0.0120843040029,0.0,-0.00635079032822,0.0119954631324,-0.999907883921,0.0,0.258298507197,-0.268691286616,0.304929092315,1.0,-0.00764000000001,-0.0100411428571,3.368
-0.677102609243,-0.513663379536,-0.125004437937,-2.63618840792,-0.0668630878725,2.11186957754,-0.925099093073,-0.0317159784595,0.00417829650019,-0.000154658273428,0.00353994826606,0.00359051678229,0.00104288036809,-0.0285675511401,0.573835205906,0.818935595245,0.00619630579134,0.0,0.818934403679,-0.573742839702,-0.0120972419354,0.0,-0.00635189823853,0.0120164226585,-0.999907625221,0.0,0.25815069966,-0.268871648594,0.304922910249,1.0,-0.00728000000001,-0.00956800000001,3.386
-0.677658056512,-0.513560715877,-0.124989224996,-2.63610663779,-0.0668420814654,2.11188986503,-0.925632865137,-0.0306309850934,0.0034075731555,0.000886173160798,0.0073360242836,0.00216850716505,2.65614311335e-05,-0.0242702075883,0.573855331209,0.81892144423,0.006202735174,0.0,0.818920353006,-0.57376296353,-0.0120939660163,0.0,-0.00634523056647,0.0120199643738,-0.999907624986,0.0,0.258025798943,-0.269032299109,0.30492419638,1.0,-0.00694000000001,-0.00912114285715,3.403
-0.678157073365,-0.51347532748,-0.124970359156,-2.63604717032,-0.0668176090829,2.11190926764,-0.926123884584,-0.0295402103814,0.00466980861201,0.000984857139025,-0.000199680052017,0.000342358156479,0.00148162163406,-0.0284282476765,0.573862032144,0.818916673448,0.00621264148287,0.0,0.81891568779,-0.573769574476,-0.0120962224849,0.0,-0.00634129570825,0.0120294239931,-0.999907536189,0.0,0.257912407487,-0.26917152515,0.304921749327,1.0,-0.00662000000001,-0.00870057142858,3.419
-0.678680772814,-0.513384124517,-0.124944867659,-2.63596515213,-0.0667893290876,2.11192971911,-0.926645039886,-0.0315371712512,0.00364824049755,0.00051880042389,0.00209735132033,0.00350789360589,0.00243210103137,-0.0225825919232,0.573862237871,0.818916479712,0.00621917222591,0.0,0.818915671181,-0.573769926009,-0.012080662369,0.0,-0.00632480128395,0.0120258450744,-0.999907683708,0.0,0.257799200072,-0.26932125974,0.304927639203,1.0,-0.00626000000001,-0.00822742857144,3.437
-0.679139070616,-0.513287629024,-0.124904408395,-2.63589717872,-0.0667676046308,2.1119433652,-0.927111331093,-0.0232425406013,0.00510414723446,0.00272498889676,0.00030424157815,0.000296414691286,0.000450764837513,-0.0317456894458,0.573839751488,0.818932261131,0.00621596268258,0.0,0.818931336342,-0.573747317257,-0.0120925265133,0.0,-0.0063366901679,0.0120298506474,-0.999907560253,0.0,0.25770202005,-0.26944676365,0.30492495751,1.0,-0.00592000000001,-0.00778057142858,3.454
-0.679521884827,-0.513219336331,-0.124875312612,-2.63582909825,-0.0667482894812,2.11196142924,-0.927516308163,-0.0257930127166,0.00743684635663,0.00159205542793,0.00193376486423,0.00260604481241,0.000866893949079,-0.020105076111,0.573812578306,0.818951323687,0.00621299524153,0.0,0.818950489662,-0.573720408881,-0.0120720676136,0.0,-0.00632203530019,0.0120154710732,-0.999907825914,0.0,0.257623656614,-0.269556619044,0.304932859179,1.0,-0.00562000000001,-0.00738628571429,3.469
-0.679932169036,-0.513109317052,-0.124847521154,-2.63576230138,-0.0667277362064,2.11198979701,-0.927954978136,-0.0238512332194,0.00692404990638,0.00102775504191,0.00530843488535,0.000956771477533,0.000887840739631,-0.0244537888012,0.573781896857,0.818972814721,0.00621373387774,0.0,0.818971911251,-0.573689580568,-0.0120838996661,0.0,-0.00633175284612,0.0120226278545,-0.999907678401,0.0,0.25753805027,-0.26967410358,0.304925593939,1.0,-0.00528000000001,-0.00693942857144,3.486
-0.680431571248,-0.513026224692,-0.124810932751,-2.63570585099,-0.0666988951899,2.11201160178,-0.928452277896,-0.0233911258778,0.00744268494478,0.000259843808571,-0.000681325479776,-0.000165029018061,2.05715334097e-07,-0.0161258909575,0.573773983074,0.818978318934,0.00621903236359,0.0,0.818977479879,-0.573681636274,-0.0120836481992,0.0,-0.00632862307202,0.0120267619622,-0.999907648499,0.0,0.257434008658,-0.269802564717,0.304924027172,1.0,-0.00488000000001,-0.00641371428572,3.506
-0.680723836313,-0.512962398962,-0.124787453416,-2.6356672377,-0.0666824801642,2.11201854801,-0.92873150974,-0.019304916223,0.00582246052888,0.000967981199881,0.0051057666568,0.00138099495101,2.7393411635e-06,-0.0216411184285,0.573775911144,0.818976952624,0.00622107404911,0.0,0.81897603188,-0.573683349171,-0.0121004541874,0.0,-0.00634118858737,0.012038091436,-0.999907432557,0.0,0.257364609767,-0.269887263445,0.304918319381,1.0,-0.00460000000001,-0.00604571428572,3.52
-0.681086010885,-0.512910407818,-0.124763944728,-2.63562828592,-0.0666633076515,2.11202409706,-0.92907909052,-0.0188753822295,0.00273128383122,0.000374645902173,0.00097995007096,0.0017538814668,0.000481304558753,-0.0211958865955,0.573781350094,0.818973105863,0.00622583797216,0.0,0.818972214779,-0.573688704126,-0.0121049196239,0.0,-0.00634203280606,0.0120445973333,-0.999907348855,0.0,0.257282319229,-0.269983710489,0.304917815398,1.0,-0.00426000000001,-0.00559885714286,3.537
-0.681429460102,-0.51284550012,-0.124742811274,-2.63558658636,-0.066645452132,2.11203741127,-0.929417389633,-0.0158369488762,0.00462968548647,0.000301037172812,0.000705874042266,0.000558725885268,-0.000172019662728,-0.0193550529149,0.573780362456,0.81897376728,0.0062298530661,0.0,0.818972879427,-0.573687605487,-0.0121120177787,0.0,-0.00634555751319,0.0120519506925,-0.99990723789,0.0,0.257205912964,-0.270077576821,0.304914386479,1.0,-0.00390000000001,-0.00512571428572,3.555
-0.681706500611,-0.51279815788,-0.124715747596,-2.63554838358,-0.0666262919296,2.11204674198,-0.929676029764,-0.0184208117495,0.00235135637452,0.00256018982058,0.00204991777036,0.00278271766116,0.000165456149305,-0.014953147877,0.573786321571,0.818969583032,0.00623106318669,0.0,0.818968726316,-0.573693587082,-0.0121095152076,0.0,-0.0063427257465,0.0120515520983,-0.999907260661,0.0,0.257147874039,-0.270151761664,0.304915665619,1.0,-0.00360000000001,-0.00473142857144,3.57
-0.682008103102,-0.512741025649,-0.124686907724,-2.63550951619,-0.0666071063276,2.11205612732,-0.929956182808,-0.0185475028505,0.00578554413766,0.000836654211848,-0.00020014685092,-1.82956263306e-05,0.00336505177119,-0.0195042307078,0.573793601069,0.818964473764,0.00623225373716,0.0,0.818963591105,-0.5737007809,-0.0121159952347,0.0,-0.00634724302987,0.0120563015587,-0.999907174741,0.0,0.257083524853,-0.27023187732,0.304913670486,1.0,-0.00324000000001,-0.00425828571429,3.588
