nelsonifechukwu/NELSON_IML_WORK/CNN-GradCAM/train2dof/data_sample_2022-07-06-09-02-23/robot_state.csv
position_joint1,position_joint2,position_joint3,position_joint4,position_joint5,position_joint6,position_joint7,velocity_joint1,velocity_joint2,velocity_joint3,velocity_joint4,velocity_joint5,velocity_joint6,velocity_joint7,ee_T_00,ee_T_10,ee_T_20,ee_T_30,ee_T_01,ee_T_11,ee_T_21,ee_T_31,ee_T_02,ee_T_12,ee_T_22,ee_T_32,ee_T_03,ee_T_13,ee_T_23,ee_T_33,v_x,v_y,w_z,time
0.4650968891485291,0.5472655157457318,-0.12399563602995647,-1.3555685607343457,0.07944222545598281,1.8941841551500405,0.15912892887637511,-0.001027139539104532,-0.0005469334010730062,0.0014715168711131742,0.0009750307623437439,-1.1684319303661845e-05,-4.957710817389069e-05,-0.0016330480233622342,0.5737366254743373,0.819023813966692,0.0026502162141592307,0.0,0.8189906758412254,-0.5736764715330119,-0.011416032400736546,0.0,-0.007829786458332433,0.008720466170260621,-0.9999313215985337,0.0,0.6617668163060891,0.2609363017499776,0.3037129941038259,1.0,5e-324,6.9151598835976e-310,6.9149476840186e-310,0.0
0.4650971430708385,0.547270867077334,-0.12400306168645071,-1.3555717144932695,0.07944457094364717,1.8941826716859964,0.1591355715738406,-0.0001239172153230077,-0.0005229756947170169,-0.0013345456470680139,0.0010436476177808874,-0.0003832337586789869,0.00032398497501048596,-0.0005491176588247554,0.5737442371665818,0.8190184756000526,0.002652139723230273,0.0,0.8189853558168788,-0.5736840689800667,-0.011415903695395045,0.0,-0.00782849645708883,0.008722040478494425,-0.9999313179679457,0.0,0.66176767288442,0.2609352562424902,0.3037141545097132,1.0,-0.00026000000000000003,-0.0003417142857142858,-0.00013000000000000002,0.014000000000000002
0.46509999433972504,0.5472639744953104,-0.12399817684283902,-1.3555702666511136,0.0794428873396198,1.8941859813752568,0.1591370003782737,0.000640445139267389,-0.0012031741121464974,-6.734828610445991e-05,0.001163824323132464,0.0001608208111072421,-0.0003631409677045982,0.0009602533730148937,0.5737427454235714,0.8190195233433797,0.0026512935359686044,0.0,0.8189864065945968,-0.5736825956461671,-0.01141455943758262,0.0,-0.007827896783479393,0.008720561933210039,-0.9999313355583552,0.0,0.6617665663245429,0.2609369354747467,0.3037135180475663,1.0,-0.0005800000000000003,-0.0007622857142857148,-0.00029000000000000016,0.030000000000000016
0.46509395053607216,0.5472301790392298,-0.1240011719615915,-1.3556021014604112,0.0794422103047672,1.8941874357450055,0.15913599060360453,0.00032298645202133685,-0.005117458037579009,-0.0014429006568408918,-0.005214796811575194,3.8301112077876925e-05,-0.0004174086692881244,0.001627114336642703,0.5737504681958652,0.8190141015983748,0.0026549066350511205,0.0,0.818981023464187,-0.5736902971096479,-0.011413724589502624,0.0,-0.007825057870914198,0.008723115927274483,-0.9999313355015114,0.0,0.6617627516947711,0.2609278545546535,0.30372252809129924,1.0,-0.0009200000000000006,-0.001209142857142858,-0.0004600000000000003,0.04700000000000003
0.4650981393492752,0.5471175265158168,-0.1240005942760884,-1.355714664432766,0.07944349314106866,1.8942111761901224,0.1591303466308961,0.000568588350147711,-0.011248571635421447,-0.00046580820633517704,-0.008444041666457186,0.00025153199279096374,0.0026039203919818415,-0.0004650554895912309,0.5737484456670773,0.8190154316896089,0.002681538756809719,0.0,0.818982606839126,-0.5736880897831306,-0.011411057671415661,0.0,-0.007807615798514467,0.008743378540915045,-0.9999312948734193,0.0,0.6617433526151035,0.26092089520992995,0.303750792118793,1.0,-0.001260000000000001,-0.0016560000000000014,-0.0006300000000000005,0.06400000000000004
0.46508470040446187,0.5469802959760885,-0.12399882997421753,-1.3558968103396558,0.07943871726477611,1.8942498531928806,0.15913503909539167,-0.0009804820440147202,-0.009174609270766618,0.00016929203262575586,-0.010026233690972325,-0.00027669640832319047,0.007080959936166652,0.00153628537083943,0.5737707682004131,0.8189997938227978,0.0026814507511898136,0.0,0.8189668755506011,-0.5737103065306755,-0.011423127092565308,0.0,-0.00781731330871599,0.00875044422396401,-0.9999311572995998,0.0,0.6617162995495001,0.26089505099208754,0.30376458205709284,1.0,-0.0016000000000000012,-0.0021028571428571446,-0.0008000000000000006,0.08100000000000006
0.4650716661380174,0.5468298864853595,-0.12399954839787268,-1.3560924392347125,0.07943300253760614,1.894339974529436,0.15912923987758182,0.0012599984244294703,-0.016132521256643096,-9.785098085788961e-05,-0.013022486631339434,0.00031543625044765957,0.00774753240262174,-0.0004974256482615879,0.5737866887581773,0.8189885045220155,0.0027225293253768917,0.0,0.8189560925462218,-0.5737260692609871,-0.011404509326120894,0.0,-0.007778325746384818,0.008773556539450639,-0.9999312588144409,0.0,0.6616972758332726,0.2608699601501348,0.3037858420615312,1.0,-0.0019200000000000016,-0.002523428571428574,-0.0009600000000000008,0.09700000000000007
0.4650509665070059,0.5466312287339294,-0.12399357922975919,-1.356313902029867,0.07942983899137021,1.8944548819579494,0.15912925008077303,-0.00031136234170416993,-0.013418044368274469,0.0020458084432270133,-0.0120101521859082,0.00023222483678398496,0.008369185407705928,0.0015684873893438292,0.5738111041518893,0.8189711102755555,0.0028078794884287958,0.0,0.8189397330371472,-0.5737501437781376,-0.011368072344103312,0.0,-0.007699249803562347,0.008822780088359516,-0.9999314377015929,0.0,0.6616788498061028,0.2608433323756071,0.3038309156521952,1.0,-0.0022600000000000016,-0.002970285714285717,-0.0011300000000000008,0.11400000000000009
0.4650260832105664,0.5464156884666498,-0.12399707775453636,-1.3565773972706154,0.0794209131335416,1.8945886642018754,0.15911979160293993,0.0006006018285017404,-0.007267913991054063,0.00023649804335753363,-0.01789456828413981,2.4576232807804085e-06,0.013485583577528121,0.0007543133189669447,0.5738386724585497,0.8189515315807335,0.0028833684795255086,0.0,0.8189211348896966,-0.5737774916806581,-0.011327478661740808,0.0,-0.007622390819851055,0.008861567317745095,-0.9999316835578631,0.0,0.6616585753390221,0.2608040363699808,0.30386987054674475,1.0,-0.0026000000000000016,-0.00341714285714286,-0.0013000000000000008,0.1310000000000001
0.464987152943447,0.5461801772305841,-0.12399869915794728,-1.3569399345659072,0.07940712807602136,1.8947186478107287,0.1591176144115698,-0.0015873834800815443,-0.012724902490176092,0.00040249538151641113,-0.023617384698374214,-0.00011059918651594267,0.00905420803992699,0.001724094176241096,0.5738865035844445,0.8189179925804682,0.0028895212070704735,0.0,0.8188876146802353,-0.5738252283810503,-0.011332638614116302,0.0,-0.007622568256012485,0.008870012254689474,-0.9999316073291135,0.0,0.6616188555524082,0.26074398915039443,0.3038753946135215,1.0,-0.002940000000000002,-0.0038640000000000033,-0.001470000000000001,0.1480000000000001
0.46494983363870823,0.54591956721068,-0.12399916683821759,-1.357344391098665,0.07938532734038425,1.8948499249908664,0.15909703681006554,-0.001312844972689051,-0.017853454650392675,0.0002520039639109288,-0.025830160635595116,-0.0006633204752365751,0.013498378483498098,-0.0014727535228627562,0.5739092079384266,0.8189020871949855,0.0028878248549951656,0.0,0.8188716315202024,-0.5738478698836538,-0.01134108560252285,0.0,-0.007630213434579813,0.00887368215173942,-0.9999315164590087,0.0,0.6615657690882999,0.26068089351292756,0.30388145519866105,1.0,-0.0032800000000000025,-0.004310857142857147,-0.0016400000000000013,0.16500000000000012
0.4649056276297497,0.5456192737843214,-0.12400453427772408,-1.3578253919298946,0.07935253632597869,1.8950248567568952,0.15908127455747903,-0.004308891833271452,-0.014892029055507279,-0.0008148245300036281,-0.02707601069067848,-0.00041388986407698853,0.01089271993963895,-0.003911400167304851,0.5739625144122754,0.8188647844887788,0.0028711800522833383,0.0,0.8188341811604295,-0.5739012967543852,-0.011341615765503188,0.0,-0.007639622880766639,0.008860853268225041,-0.9999315583786716,0.0,0.6615171946095846,0.2606008778406366,0.30387774524925504,1.0,-0.0036000000000000025,-0.004731428571428576,-0.0018000000000000013,0.18100000000000013
0.46484974079185004,0.5452930790141225,-0.12400173568745859,-1.3583637297085582,0.07931035250682827,1.8952030316427257,0.1590304555197361,-0.0023387910725263606,-0.0200090548521252,-1.9310836076116173e-05,-0.030908425331361192,-0.0019269044598924018,0.01169452887160932,-0.008804766686177457,0.573983517786405,0.8188501799186643,0.0028374386201216965,0.0,0.8188191792851232,-0.5739224417262465,-0.0113547091124553,0.0,-0.007669483559874235,0.008840935257408297,-0.9999315060971422,0.0,0.6614540318896945,0.2605111731840701,0.30386772342231744,1.0,-0.003940000000000003,-0.0051782857142857195,-0.0019700000000000017,0.19800000000000015
0.46480042363007934,0.5449231542786367,-0.12400487514667917,-1.3589817004344198,0.07927986910379041,1.8954035585769995,0.1589305147377257,-0.006403612498391767,-0.01880890314079975,-0.0010715935838797445,-0.038301961533181765,-0.0009703983113024626,0.015774501349121395,-0.0009899842824549424,0.5739705730203801,0.8188593814107359,0.0028003006074148584,0.0,0.8188278185175122,-0.573909515337842,-0.01138502207918379,0.0,-0.007715761525025233,0.008827801646738728,-0.9999312661089136,0.0,0.6613771327373327,0.26041691326001654,0.303852884018455,1.0,-0.004280000000000003,-0.005625142857142862,-0.0021400000000000017,0.21500000000000016
0.4647258631418522,0.5445515415894883,-0.12400591265064308,-1.3596251135500173,0.07925476540477144,1.895609005624185,0.15893018840761686,-0.0049155550706015474,-0.022630665212659065,5.52183595852938e-05,-0.042486068024250534,-0.003434461735124511,0.018027260169011676,0.0016798963190002387,0.574061222164879,0.8187960047141719,0.0027500494329005505,0.0,0.8187636460108022,-0.5740001413085721,-0.011431388806496627,0.0,-0.007781596539850222,0.008814127228953236,-0.999930876569217,0.0,0.6613011369305584,0.26030538767373324,0.30382746536794436,1.0,-0.004600000000000003,-0.006045714285714291,-0.0023000000000000017,0.23100000000000018
0.4646761637893733,0.5441524151836296,-0.12401134411803588,-1.360316760798884,0.07921566298600335,1.8958230639628235,0.15888907169131608,-0.0023423737629641255,-0.025424396474996867,0.00037869348971577405,-0.04493677889153315,-0.0004189081959699498,0.013518720524537169,-0.005952387206752379,0.5741000789159061,0.8187689833330334,0.002682950195104801,0.0,0.8187357039683463,-0.5740391461602732,-0.011473997744868705,0.0,-0.007854586254268159,0.008784019247101593,-0.9999305708301155,0.0,0.6612117383656168,0.2602007159805765,0.303799394242175,1.0,-0.004920000000000004,-0.006466285714285721,-0.002460000000000002,0.2470000000000002
0.46460401084782943,0.5436902790564361,-0.12401135218900147,-1.3610606912052283,0.07918198235259216,1.8960913058454076,0.15882808968895407,-0.001976597436501812,-0.02593415541639339,0.00047248618798426253,-0.044747617590029126,-0.0013946389025155106,0.005493349736452486,-0.004792901488415772,0.5741417299271263,0.8187397975038739,0.0026767220271594885,0.0,0.8187063325921267,-0.5740806947950114,-0.01149102860648818,0.0,-0.007871659547101395,0.008789097534358636,-0.9999303919476126,0.0,0.6611269856754426,0.2600835218977469,0.3037955310654041,1.0,-0.005260000000000003,-0.0069131428571428625,-0.0026300000000000017,0.2640000000000002
0.46454455178084414,0.5432146967475587,-0.12401801128120858,-1.3618196790061972,0.07914416931270052,1.8963630490113146,0.15878424245243167,-3.0451353064192164e-05,-0.030679320160389337,-0.000563723395685734,-0.054438837869894834,-0.0011087074845571923,0.017510536001616575,-0.006604443465867943,0.574191352722577,0.8187050235437215,0.0026686671017267906,0.0,0.8186714052572952,-0.5741302827620506,-0.011501979430586295,0.0,-0.007884717548051312,0.008789267795211358,-0.9999302875704944,0.0,0.6610381762464448,0.25996882942169564,0.30379448132590714,1.0,-0.005580000000000004,-0.007333714285714292,-0.002790000000000002,0.2800000000000002
0.4644765325267187,0.5427085738887124,-0.12402366917770706,-1.3626674476063476,0.0790867449562651,1.896649397987532,0.15871838904868812,-0.0012570449737731547,-0.03856604720510149,-0.001358610779190903,-0.0492219803924541,-0.002246588098660592,0.018135687954061012,-0.0009446247885192386,0.5742288884160094,0.818678867142816,0.002615932621032725,0.0,0.8186446043260747,-0.5741680291995372,-0.011525317962307218,0.0,-0.007933702123656072,0.00875985830204297,-0.9999301581876313,0.0,0.6609356331952486,0.2598367434155691,0.3037739213431156,1.0,-0.005920000000000004,-0.007780571428571435,-0.002960000000000002,0.2970000000000002
0.4644070187239062,0.5421797177966374,-0.12402439248470995,-1.363504974717927,0.07903306280142228,1.896952049168645,0.15866733557292187,-0.005578917979511455,-0.03457433905043889,-0.00019756176317592907,-0.05737150392665375,-0.005082546225090257,0.02126818500879386,-0.00948529830391255,0.5742767404532865,0.8186453266521708,0.002607954393270953,0.0,0.8186109785519329,-0.5742159216224229,-0.01152770795806953,0.0,-0.007939728175774263,0.00875516321297426,-0.9999301514773965,0.0,0.6608382181423836,0.259709761028442,0.30377552061261504,1.0,-0.006240000000000004,-0.008201142857142863,-0.003120000000000002,0.3130000000000002
0.46433063285035203,0.5415523803019074,-0.12402748064060652,-1.3645107778183498,0.07897240722594011,1.8973094715171752,0.15860167746351078,-0.006370017530865623,-0.029712194311147647,0.000333395629604159,-0.06421481583048738,-0.005087635933890101,0.02437463739264492,-0.00991738012177075,0.5743273225378842,0.8186099036715248,0.002588261688940739,0.0,0.818575291266058,-0.5742665527616956,-0.011539749091526665,0.0,-0.0079603540359377,0.00874644866063308,-0.9999300637541854,0.0,0.6607181140637096,0.2595607800568685,0.3037714160282476,1.0,-0.006600000000000005,-0.008674285714285723,-0.0033000000000000026,0.33100000000000024
0.464229197524817,0.5408909618176243,-0.12402256941797302,-1.3655419779464872,0.07891373290421161,1.8976801573853774,0.15849639817039143,-0.0017851223461231097,-0.03351638420855472,8.528544527699847e-05,-0.060715106382332316,-0.0027665266141903597,0.01642857306511221,-0.003720971144993246,0.574362217652369,0.8185854089639981,0.002591923205840803,0.0,0.8185507715262331,-0.5743013516760713,-0.01154724201072966,0.0,-0.00796401215511744,0.008754088812265678,-0.9999299677674733,0.0,0.6606000690473516,0.25939854839107096,0.30378012015304057,1.0,-0.006960000000000005,-0.00914742857142858,-0.0034800000000000026,0.34900000000000025
0.46414860374028555,0.5401965714636453,-0.12403258662665932,-1.3665601849481734,0.07885804936525705,1.8980719033919076,0.15846009527172578,-0.005447292299148848,-0.04105863291210461,-0.0007511583423653989,-0.06291260291907398,0.00016782241253888292,0.019718249992497078,0.0008813823439603366,0.5744470526465287,0.8185256931812511,0.00264956771515123,0.0,0.8184918222906475,-0.5743860073263732,-0.011515134919355793,0.0,-0.0079037113418301,0.00878365393526459,-0.9999301869483541,0.0,0.6604877472003706,0.2592453240942198,0.3038205396403709,1.0,-0.007300000000000005,-0.009594285714285724,-0.0036500000000000026,0.36600000000000027
0.46404876273561374,0.539532552857476,-0.12403103542035988,-1.367601367143969,0.07879636133382908,1.8984483891084465,0.15836288186017017,-0.010848472297514518,-0.0436693188999775,0.0002998166870472348,-0.060626486645746394,-0.007208474516393025,0.024776339057581552,-0.007390106514189663,0.5744893612795618,0.8184959733618521,0.002657492849198584,0.0,0.8184621677101622,-0.5744282431801316,-0.011516091584310408,0.0,-0.007899487731613086,0.008791098712628745,-0.9999301548993325,0.0,0.6603628828196088,0.2590689175538248,0.30383121482516773,1.0,-0.007640000000000006,-0.010041142857142867,-0.003820000000000003,0.3830000000000003
0.46395621392975717,0.5387948088467946,-0.1240378906311093,-1.368760609618489,0.07872810685356751,1.8988782879935957,0.15827420020195007,-5.945214760686309e-05,-0.0382482559681934,-0.0008710915357584196,-0.06857714174594141,-0.0010808655395783352,0.029507096792747635,-0.0031279305992358763,0.5745430507032865,0.8184582965479479,0.0026545435766819952,0.0,0.8184244686706734,-0.5744819533414327,-0.011516130745430439,0.0,-0.007900637485320272,0.008789225526913955,-0.999930162282328,0.0,0.6602352964698962,0.25890609495470535,0.30383363111714945,1.0,-0.007960000000000005,-0.010461714285714295,-0.003980000000000003,0.3990000000000003
0.4638471001564531,0.5380389893392334,-0.12403787111263888,-1.3699220516686674,0.07867152780083791,1.8993375803819907,0.15819334633959853,-0.004681150182091077,-0.04507118575194763,0.00026028238306962385,-0.07102758434542934,-0.0016658209490951342,0.019565271343520905,-0.009548417235974146,0.574615323624265,0.818407390358049,0.002705580292224223,0.0,0.8183741449934054,-0.5745539638787535,-0.011499926031631089,0.0,-0.007857273848237756,0.008822380534844784,-0.9999302119895029,0.0,0.6601094826910217,0.2587281270899084,0.30385447371981394,1.0,-0.008300000000000007,-0.01090857142857144,-0.0041500000000000035,0.4160000000000003
0.46374755270359297,0.5372518681530257,-0.12404961696831641,-1.3711747606898672,0.07858753796363036,1.899812356975783,0.15809666510378906,-0.0010392410453744162,-0.04961805568412349,-1.0390859776771792e-05,-0.0752669792915914,-0.005157898443119406,0.027013736320381468,-0.00477806619169978,0.5746726029839171,0.818367176557176,0.002703814848181352,0.0,0.8183340372999488,-0.5746113866085308,-0.011484976159995042,0.0,-0.007845435762785291,0.0088128945414256,-0.9999303885908727,0.0,0.6599679457244596,0.25853586482850155,0.30385552984476627,1.0,-0.008640000000000007,-0.011355428571428582,-0.0043200000000000035,0.43300000000000033
0.4636348223661325,0.5364259630070495,-0.12405316180606908,-1.3724733299067395,0.07851947942779273,1.9002857308183652,0.1580039748582423,-0.006032164954258662,-0.049748109289196416,0.002874834638601091,-0.07655098084055877,-0.0024888172496090833,0.024770454090059953,-0.007796423301464587,0.5747447325373751,0.8183165070273495,0.0027080709567944197,0.0,0.8182833374422631,-0.5746833975253622,-0.01149431051720136,0.0,-0.007849851748904901,0.008822433623652703,-0.999930269815089,0.0,0.6598168832775807,0.25833721767015855,0.30386163141557193,1.0,-0.008980000000000007,-0.011802285714285725,-0.0044900000000000035,0.45000000000000034
0.4635228951036856,0.535574580599688,-0.12406267076144849,-1.3738260549609647,0.07843958390474896,1.9007766890167797,0.15789857563581478,-0.0020933963358461607,-0.047824461907966444,-0.00014775882875279502,-0.08242932314952982,-0.0016870089653697887,0.028854421718417938,-0.004490796905218689,0.5748096790930802,0.8182709257784095,0.0026966178562899757,0.0,0.818237614746156,-0.574748380548336,-0.011500077077777775,0.0,-0.007860453309179838,0.008816999531798778,-0.9999302344629001,0.0,0.6596589494764263,0.2581288433891558,0.30386148536868446,1.0,-0.009320000000000007,-0.012249142857142868,-0.0046600000000000035,0.46700000000000036
0.4633983080565475,0.5346795052736313,-0.12406845281216368,-1.3752370810522077,0.07836403646609694,1.901288676720432,0.15781041151130648,-0.01028334463247522,-0.050289292002834954,-0.0012740315753557154,-0.0851742143794207,-0.0028394882885705666,0.03683552335403033,-0.005785845364598997,0.5749006938428755,0.8182069858931157,0.002695803385182316,0.0,0.8181735901689823,-0.5748393034153737,-0.011510799283051699,0.0,-0.007868714143654143,0.008823371505800079,-0.9999301132844215,0.0,0.6594946681505897,0.2579100781256511,0.3038659646956192,1.0,-0.009660000000000007,-0.012696000000000011,-0.0048300000000000036,0.4840000000000004
0.4632806932015057,0.5337812614909133,-0.12406913588282417,-1.3766932407572523,0.07828024873973918,1.901819160679755,0.1576837490062415,-0.004330713779916548,-0.04921762789420745,0.0005177455141240806,-0.08766997354191529,-0.013598108901260635,0.028418532083206893,-0.011694214557168486,0.5749511026350621,0.8181716401523972,0.0026727757614199875,0.0,0.8181378891192995,-0.5748897171494848,-0.011530585605705489,0.0,-0.007897598888702506,0.008816391770427492,-0.9999299471302694,0.0,0.6593208155237662,0.2576935030527671,0.303852450573141,1.0,-0.010000000000000007,-0.013142857142857154,-0.005000000000000004,0.5010000000000003
0.4631558910599075,0.5328637413695159,-0.12407233197761124,-1.3781603494972239,0.07818905201357752,1.9023671140706928,0.15760060687460598,-0.005304073003973093,-0.048164503063494755,-0.0011149503313281385,-0.08716462681002156,-0.0030754388621700344,0.03477571937075034,-0.009140893126264137,0.5750432635534606,0.8181068883717296,0.002666672405766759,0.0,0.818073090950862,-0.5749819230286463,-0.011530522693732687,0.0,-0.007900063715021166,0.008812252000978599,-0.999929964151475,0.0,0.6591508723511796,0.25746968883170857,0.30384872181074774,1.0,-0.010340000000000007,-0.013589714285714297,-0.005170000000000004,0.5180000000000003
0.4630435058325457,0.5319579407038434,-0.12407233230751223,-1.3796031328080491,0.0781182933223477,1.9029171892404082,0.15749199352669851,-0.0032332113855582786,-0.05669101387989186,0.003108891172394654,-0.09121571932256688,-0.001123017750479451,0.03074066757666046,-0.004997488303646077,0.5751062899180832,0.8180625260304237,0.002684343977290056,0.0,0.8180288293310025,-0.5750447403019703,-0.011538107973045254,0.0,-0.007895427880192263,0.00883167926751005,-0.9999298293679935,0.0,0.6589812851265521,0.25726210079720213,0.3038482414017455,1.0,-0.010660000000000008,-0.014010285714285727,-0.005330000000000004,0.5340000000000004
0.46291298513598433,0.5310236057792921,-0.12407266784514406,-1.3810914155688003,0.07803087486862259,1.9034602180991467,0.15738244789752237,-0.006804731131612937,-0.05672932804463178,0.0007664689472182054,-0.09325171295078521,-0.0037038284489795408,0.03744072206727898,-0.00047499436062662043,0.575187746292602,0.8180052655136401,0.0026812325532652205,0.0,0.8179714558552478,-0.5751261154696337,-0.011549701817110276,0.0,-0.007905822250055372,0.008836588785332958,-0.9999297038658214,0.0,0.6587930792753802,0.25702603601863094,0.30385046432860296,1.0,-0.011000000000000008,-0.01445714285714287,-0.005500000000000004,0.5510000000000004
0.46277059772515955,0.5299494316979481,-0.12407057300971647,-1.3828208905373476,0.07790001517776335,1.9040647809802267,0.15725650640368338,-0.0077535884415966495,-0.06073848373625402,-0.0006091179976325868,-0.09186059322132985,-0.008295381717686142,0.038016614091203736,-0.0031636506441453677,0.5752519100599551,0.8179603540716803,0.002616493935164702,0.0,0.8179258827042013,-0.5751906832573649,-0.011561799067923009,0.0,-0.00795226343071126,0.008791214367180639,-0.9999297355595937,0.0,0.6585942959154724,0.2567703327038549,0.3038312503735403,1.0,-0.011340000000000008,-0.014904000000000013,-0.005670000000000004,0.5680000000000004
0.4626363887712975,0.5289709442871917,-0.1240790625707918,-1.3843878435514958,0.07781650159354046,1.9046386814350367,0.15714508615293354,-0.013760669798232265,-0.058415627405545414,-9.527855177348762e-05,-0.094762495105937,-0.00542872083377466,0.03546123011177641,-0.001063004091680135,0.5753391582559876,0.8178990200362218,0.0026063196826054697,0.0,0.8178643391091819,-0.5752778689096784,-0.011577705189199282,0.0,-0.007970189146646822,0.008792892373236827,-0.9999295780847167,0.0,0.6584094199709665,0.2565292857954879,0.30382459068177387,1.0,-0.011660000000000009,-0.015324571428571443,-0.0058300000000000044,0.5840000000000004
0.4624901210962711,0.5278189285900082,-0.1240762179119107,-1.3861843834423793,0.077700750771494,1.9053229780700476,0.1570230439856008,-0.007977967020135757,-0.06457075048079958,0.0003866963468802429,-0.09537047122812695,-0.005429394414325163,0.0427989759222729,-0.004772931162869585,0.5754231897051206,0.8178398128046154,0.002634434000777928,0.0,0.8178055539515635,-0.5753618595305101,-0.0115565316932872,0.0,-0.007935791659791469,0.008804520600539573,-0.9999297493462864,0.0,0.6581992546379334,0.25626422222083345,0.30383975241771405,1.0,-0.012020000000000008,-0.0157977142857143,-0.006010000000000004,0.6020000000000004
0.46235754586646866,0.5268077723530337,-0.12408159981841248,-1.3877267738003665,0.07760740287030299,1.9059124577062567,0.15690984928033372,-0.006079386858737825,-0.07162628711839811,0.0006532927996231619,-0.10268432316518529,-0.008689938115234325,0.04541884734851764,-0.006504528594348463,0.5755011085647208,0.8177848323700648,0.0026812100720763014,0.0,0.8177512184616234,-0.5754396578216164,-0.0115278710905311,0.0,-0.007884595323822907,0.008827035343167339,-0.9999299558487234,0.0,0.6580225924370261,0.2560289137485432,0.30386851630415845,1.0,-0.01232000000000001,-0.016192000000000015,-0.006160000000000005,0.6170000000000004
0.4621925530040136,0.5256075370803704,-0.12409266645527141,-1.3896292912102344,0.07749158138170265,1.9066228007471133,0.156771337830904,-0.007706739006545579,-0.06267407461853565,-0.0017236808588638134,-0.1087275604763344,-0.01033604805772175,0.03452110583597164,-0.008811796339901973,0.5756020369364193,0.8177137920860071,0.002682574915197901,0.0,0.8176802413362171,-0.5755406200406805,-0.01152234840398858,0.0,-0.007878204057004179,0.00882594564249177,-0.9999300158432849,0.0,0.6578009516506511,0.25573331106427677,0.3038693180188506,1.0,-0.012680000000000009,-0.01666514285714287,-0.0063400000000000045,0.6350000000000005
0.4620551115464386,0.5245171950814447,-0.12409716918276363,-1.3913655440877057,0.077374659872735,1.9072481225320734,0.15664620051930053,-0.006107085685839023,-0.06705941489059104,0.0008553527678615776,-0.10764689492200014,-0.005242060484695272,0.03764257691972264,-0.0032317118968279465,0.5756770477327652,0.8176610722458552,0.0026560400325237304,0.0,0.817627255074496,-0.5756157944622439,-0.011527177718479647,0.0,-0.007896617934181116,0.008807751935343805,-0.9999300310176943,0.0,0.6575893964983475,0.25547206439188375,0.30386405483602885,1.0,-0.01300000000000001,-0.0170857142857143,-0.006500000000000005,0.6510000000000005
0.4619066577255514,0.5233229424261987,-0.12410180300603754,-1.3932541372664122,0.07725523794135977,1.9079310978622457,0.15650530760634745,-0.009958062856373058,-0.06822376544981332,-0.00014609356902818105,-0.113533297292515,-0.0037171685008749733,0.0414298879709732,-0.009038195083560298,0.5757555613126136,0.8176058371716552,0.0026411250713422223,0.0,0.8175718483988187,-0.5756943712249416,-0.01153301985028082,0.0,-0.007909135787905919,0.008799679245051525,-0.9999300031583574,0.0,0.6573587070797728,0.25519031377129375,0.30386406416167566,1.0,-0.01334000000000001,-0.017532571428571446,-0.006670000000000005,0.6680000000000005
0.4617465231608454,0.5221076667367378,-0.12410099566565735,-1.3951886228368349,0.07713450571999646,1.9086722207269908,0.15635968543388626,-0.012511702032430428,-0.07626511323369593,0.0006308774893143394,-0.11280711413388456,-0.004543726204932628,0.04433622003824124,-0.011608875488728448,0.5758380324052372,0.817547711197134,0.0026546663069003055,0.0,0.8175139338486053,-0.5757768277971981,-0.01152212811864115,0.0,-0.00789154606318393,0.008805275809413843,-0.9999300928658225,0.0,0.6571305776744535,0.254902623192541,0.3038615681917353,1.0,-0.01368000000000001,-0.017979428571428587,-0.006840000000000005,0.6850000000000005
0.4615852516730197,0.5208758659080173,-0.12410433037469679,-1.3971787647757163,0.07702617934022311,1.9094467438950857,0.15621341041674058,-0.010736675051058993,-0.07151291493965392,-0.0014350498556688633,-0.11669053412545201,-0.01071765043787235,0.04883445184745549,-0.012376216585341476,0.5759300905215732,0.8174828128684433,0.0026699059381322726,0.0,0.8174491698676452,-0.5758687542688659,-0.011522996169855172,0.0,-0.0078824876773122,0.008819122415370487,-0.9999300422868792,0.0,0.6568963399610197,0.2546096648862924,0.3038469333916503,1.0,-0.01402000000000001,-0.018426285714285732,-0.007010000000000005,0.7020000000000005
0.4614248179145898,0.5196656495862823,-0.12411278082417068,-1.3991011039308774,0.07689182174038743,1.9101538727945369,0.15607429190195596,-0.004093044610122375,-0.08716813144506427,-0.0007700384480284805,-0.11689749607468462,-0.00810930407067864,0.041339469528891115,-0.006400191207190682,0.5760195125553752,0.8174198651694546,0.0026518075018897892,0.0,0.8173861449511836,-0.5759583996915703,-0.011513416859312536,0.0,-0.007884116645377193,0.008799672899242009,-0.9999302007948297,0.0,0.6566657602036905,0.2543133781740272,0.30384331279679944,1.0,-0.01434000000000001,-0.01884685714285716,-0.007170000000000005,0.7180000000000005
0.46124551703632,0.5182373523223625,-0.12412234952486187,-1.4012976885057074,0.07675856361654229,1.9109419588376866,0.15591779473439382,-0.006520697750097694,-0.08083397124637066,-0.00012875288610459258,-0.12273395506965552,-0.008578782002931893,0.04876271370465982,-0.003009335529134835,0.5761253918403069,0.8173451970180333,0.0026662125972210194,0.0,0.8173116521556871,-0.5760642065270537,-0.011508262688407427,0.0,-0.00787046512098366,0.008809498583739486,-0.9999302218222442,0.0,0.6563965568422724,0.25398006803082296,0.30386891100785207,1.0,-0.014700000000000012,-0.019320000000000018,-0.007350000000000006,0.7360000000000005
0.4610646530573945,0.5168806101416248,-0.12412662246302104,-1.4034060345644408,0.07661711006674025,1.911705705032855,0.15575077135742402,-0.009706025319218865,-0.085966077253943,0.0011102408465593749,-0.12031524381153107,-0.010571860429056229,0.03799218802700395,-0.013003266597044202,0.5762129466205381,0.8172834709489406,0.0026674260509348176,0.0,0.8172500267416836,-0.5761518415834442,-0.011497657671522072,0.0,-0.007860154470361091,0.00880522274542328,-0.9999303405858359,0.0,0.6561403183654498,0.2536554516861939,0.3038835659781947,1.0,-0.015040000000000012,-0.019766857142857162,-0.007520000000000006,0.7530000000000006
0.46089183406331746,0.5156162302098244,-0.12413237119439868,-1.4054238394826344,0.07649552083917048,1.912462138357059,0.15560308427337416,-0.004227996280748878,-0.07987012980499954,0.00043954235981056775,-0.12616766637224966,-0.0037799423604346913,0.050638814778597795,-0.005517102943892478,0.5763113935827648,0.8172140572130029,0.002666312315287172,0.0,0.8171806025591162,-0.5762502843082613,-0.011498675444416712,0.0,-0.00786056732304774,0.008805845913966145,-0.9999303318527243,0.0,0.6558981229583913,0.25334751059166855,0.3038756230139179,1.0,-0.015360000000000013,-0.020187428571428592,-0.007680000000000006,0.7690000000000006
0.4607218607965198,0.5143087282373953,-0.12413867338088423,-1.4074866088088085,0.07636440097654751,1.9132486041931738,0.15544151780367085,-0.009051412667277749,-0.08010135436636866,-0.0008581702887800872,-0.13287417177672414,-0.0033912646095688955,0.04984709391959013,-0.003921033275023522,0.5764096597802428,0.8171447039773401,0.0026802565209305624,0.0,0.8171115052184783,-0.5763485781204372,-0.011482658200565495,0.0,-0.007838382214484907,0.008808953146595161,-0.9999304786377506,0.0,0.65563528778422,0.2530138719641177,0.30387669649848426,1.0,-0.015700000000000013,-0.020634285714285733,-0.007850000000000006,0.7860000000000006
0.4605155205943086,0.5128211815664206,-0.1241366948316178,-1.4098997493518128,0.07622220523612848,1.914095899678233,0.15525771823256956,-0.0105453378434511,-0.08378474408688952,0.0019092037087864446,-0.13369790213084842,-0.009651604046370272,0.049381458034518384,-0.011526132647186004,0.5765011863742581,0.817080329094773,0.002620079513789609,0.0,0.8170462126322179,-0.5764401335435834,-0.011532812528297605,0.0,-0.007913067622258685,0.008789575374895567,-0.9999300609170295,0.0,0.6553457835882391,0.2526705029613594,0.30384588123805545,1.0,-0.016040000000000013,-0.021081142857142878,-0.008020000000000006,0.8030000000000006
0.4603340240067437,0.5115149329660629,-0.12415043766764804,-1.412060441262744,0.07609435721130929,1.9148699825936983,0.15508257046944662,-0.01562318478289533,-0.08582206996843439,0.0012458307946686268,-0.13912144905049068,-0.0055519740114016135,0.05364314945430251,-0.014845384428052564,0.576596158487273,0.8170135108428374,0.0025573461221974954,0.0,0.8169785358498753,-0.5765352522392719,-0.01157245813132152,0.0,-0.007980608106764875,0.008762100490935412,-0.9999297652781585,0.0,0.655059280632844,0.2523206097801798,0.3038043115518827,1.0,-0.016380000000000013,-0.02152800000000002,-0.008190000000000006,0.8200000000000006
0.46014060586744604,0.5100457604331496,-0.12414759574900311,-1.4143956644915923,0.07594784210449204,1.9157521969262625,0.15490269444860474,-0.01134451946457652,-0.08660743462667164,-0.0009773418541570657,-0.13853651513314763,-0.002994795357581924,0.04893191769765501,-0.007921064316622917,0.5766860852575706,0.8169500411144915,0.0025566177925370887,0.0,0.8169150755907946,-0.5766251910163592,-0.01157131189806115,0.0,-0.007979127130815056,0.008761722867350386,-0.9999297804059173,0.0,0.6547903904872854,0.2519895499636256,0.30379333340809644,1.0,-0.016700000000000013,-0.02194857142857145,-0.008350000000000007,0.8360000000000006
0.4599385793514962,0.5085466575460761,-0.12414763474030698,-1.4167660078005588,0.07579707013421501,1.9166140729035868,0.1547309026066441,-0.010004450014194331,-0.08772412913068053,-0.0003495880723352184,-0.14448129103785637,-0.011425120943394353,0.04438540864878113,-0.0075005721121463274,0.5767931570986506,0.8168744897472999,0.0025433885798834596,0.0,0.8168393522680046,-0.5767322936471906,-0.011579332970682086,0.0,-0.007992161256597963,0.008756588492877401,-0.9999297212886588,0.0,0.6544949704692905,0.2516298581625285,0.3037887774292175,1.0,-0.017040000000000013,-0.022395428571428594,-0.008520000000000007,0.8530000000000006
0.45974208361814356,0.5071156000795218,-0.12415144556654838,-1.4190031000891616,0.07564893431908434,1.917410990425602,0.15455665765706167,-0.014345002271036255,-0.0933219555454247,4.910221704559577e-05,-0.14147336549066017,-0.015404934343725432,0.049870966307424505,-0.008932016998252709,0.5768912888161626,0.816805253854489,0.0025229080322032617,0.0,0.8167698987326417,-0.5768305349507479,-0.011585049586097853,0.0,-0.008007593149224113,0.008744117876062926,-0.9999297069567068,0.0,0.6541967307945432,0.2512583081268389,0.3037921956747767,1.0,-0.017380000000000013,-0.022842285714285735,-0.008690000000000007,0.8700000000000007
0.45952077880538333,0.505551482542826,-0.12415464360087838,-1.4214450484501608,0.07550212309212383,1.9183212831800465,0.15434937968191192,-0.012483393386878497,-0.09202663865023217,-0.0005010746172727779,-0.138871276619053,-0.0034387049473085674,0.052615017978210346,-0.011598640201432123,0.5769898106303828,0.816735563915469,0.0025542054741174557,0.0,0.8167005780902554,-0.5769288986837022,-0.01157404474941747,0.0,-0.007979492643963915,0.00876429571531824,-0.9999297549416954,0.0,0.6539172664588141,0.2509048751607774,0.3038040989945671,1.0,-0.017700000000000014,-0.023262857142857165,-0.008850000000000007,0.8860000000000007
0.4592818896414512,0.5038154011379612,-0.1241614286353498,-1.4240784329711489,0.07533699146891895,1.9193384061838945,0.1541374570712076,-0.01108391599609132,-0.09920924450156327,-0.0009408731513802958,-0.15226301941504333,-0.016198727360084316,0.0567291414145357,-0.013258653782700653,0.5771076352008765,0.8166520079130342,0.002649955786400017,0.0,0.8166183513226076,-0.577046490406957,-0.011513604707825052,0.0,-0.007873612308122113,0.008808761306890067,-0.999930203540957,0.0,0.6536045724873822,0.25049741154628674,0.30385192425078306,1.0,-0.018060000000000014,-0.02373600000000002,-0.009030000000000007,0.9040000000000007
0.4590633396872261,0.5022433713479719,-0.1241641776017472,-1.4264036626270833,0.07518847226359755,1.9202288800494964,0.15396074789518815,-0.017522808753906466,-0.0999227314985406,-0.001203986283474891,-0.14506150115124922,-0.013592780331512353,0.04458604571330941,-0.014727595900807057,0.5772227264626333,0.8165702925972658,0.002761920322565871,0.0,0.8165381651293604,-0.5771613029896057,-0.011445615742553065,0.0,-0.007752225518090516,0.00886205349937308,-0.9999306811010907,0.0,0.6533282752032135,0.2501342040061674,0.3039200413879385,1.0,-0.018380000000000014,-0.02415657142857145,-0.009190000000000007,0.9200000000000007
0.45883564294163465,0.5005268114961429,-0.12416656297912292,-1.4289739549612186,0.07502587821040797,1.92112511124913,0.15376382341162947,-0.009876948319812413,-0.10809021414766103,-0.0009265969799882726,-0.15435344722137265,-0.008579996554388148,0.05050623898802951,-0.010476310614640548,0.5773363067745455,0.8164898725834302,0.0027970966787093663,0.0,0.8164581543123689,-0.5772747082014791,-0.011434178105378764,0.0,-0.007721346115183103,0.008885249618682756,-0.9999307141764289,0.0,0.6529998701446255,0.24973641918592998,0.30397226223804863,1.0,-0.018720000000000014,-0.024603428571428596,-0.009360000000000007,0.9370000000000007
0.45859035113980073,0.49884133366798633,-0.12416074594699868,-1.4315768500443942,0.07485762128226607,1.9220893771855603,0.1535577088710398,-0.009976905931706796,-0.09970366185357583,0.001029154580769502,-0.16093899308260948,-0.012095793455730506,0.060411126970137105,-0.010098523765553761,0.5774509245315798,0.8164086943826826,0.0028320302250527674,0.0,0.8163774414936622,-0.5773892210352322,-0.011415224649478644,0.0,-0.007684452876104864,0.008903909044778932,-0.9999308324017803,0.0,0.6526781008556857,0.24933141933987799,0.30399235027173044,1.0,-0.019060000000000014,-0.025050285714285737,-0.009530000000000007,0.9540000000000007
0.45833747579937356,0.4971603037950587,-0.12416793851871377,-1.4342123729202823,0.07468566219039824,1.923071444777513,0.15334802460759386,-0.016565747630097792,-0.10180031096857027,-0.0015033810706211806,-0.15348794152200626,-0.00989355896583755,0.053601251985632606,-0.01156197601271097,0.5775783416752983,0.8163185087859542,0.002845758650447709,0.0,0.8162875174485916,-0.5775166784762752,-0.011398326217217866,0.0,-0.007661339081261653,0.008906555097231733,-0.9999309861984387,0.0,0.6523557207083067,0.24891066084367505,0.3039951492440694,1.0,-0.019400000000000014,-0.02549714285714288,-0.009700000000000007,0.9710000000000008
0.4580670673322852,0.4954828156394645,-0.1241642805686831,-1.4369017660515975,0.07452498707597716,1.9240135504168152,0.15312034452300882,-0.0158701370931859,-0.1013298582383201,0.00011974577346181138,-0.15276726355117368,-0.009438842847551927,0.06086152724532525,-0.017960492604483996,0.5777027965758621,0.8162306338966118,0.0027889098895485494,0.0,0.8161987434663718,-0.5776411008593477,-0.011450618460379685,0.0,-0.007735505518079611,0.008891530244085219,-0.9999305489104222,0.0,0.6520123043924106,0.24847771418282072,0.30396546618582543,1.0,-0.019740000000000014,-0.025944000000000023,-0.009870000000000007,0.9880000000000008
0.45782039212386827,0.49400439885044795,-0.12416846802875815,-1.4393454341456358,0.07437017435687616,1.9248593084083603,0.15294413691988068,-0.013447657607085314,-0.09501753932968575,-0.0012803004691438165,-0.16010185252952916,-0.009771225612836113,0.06266161906342903,-0.015133594274031178,0.5778441388916414,0.8161309364985809,0.0026818910743592597,0.0,0.8160975943526335,-0.5777826872958383,-0.011516494876996877,0.0,-0.007849568645687088,0.008843594185941175,-0.9999300851129298,0.0,0.6516983006589836,0.24807675916064725,0.3039054693554596,1.0,-0.020638285714285876,-0.02712460408163287,-0.012944379373714952,1.0030000000000003
0.4575351881754479,0.4919017665584241,-0.12425273912411139,-1.4426067019935844,0.07417857915508098,1.9260576627145651,0.15279475284638716,-0.014529517696349043,-0.1254979282767856,-0.003087098418743259,-0.19399962467251347,-0.00782420932790419,0.0769451655084462,-0.005317859476110439,0.578063041917301,0.8159758341886818,0.002702682114118459,0.0,0.8159428878318153,-0.5780016392715572,-0.011491548950356194,0.0,-0.007814822008036737,0.008848244347792217,-0.9999303161365518,0.0,0.6513743142359426,0.24763365367110077,0.303920441053773,1.0,-0.02557542857142819,-0.03361342040816277,-0.035102224676569656,1.0179999999999987
0.45723705838507056,0.48950441335228323,-0.12434553490920686,-1.4464739147202383,0.07398338281470604,1.9275038661104256,0.15284461223009838,-0.02380343686057668,-0.15553711464966327,-0.008373087508439198,-0.2418450553848539,-0.013307734215443883,0.08050048588558702,0.002974388358259343,0.5786187923705568,0.8155819404550013,0.0026717822705798417,0.0,0.8155487151332601,-0.5785575551621533,-0.011497630646733759,0.0,-0.007831630878268714,0.008831883798954276,-0.9999303292661685,0.0,0.6508165564387403,0.24692410745789173,0.30387807622884133,1.0,-0.032158285714284605,-0.04226517551020263,-0.06464601841370926,1.0379999999999965
0.45684064500420446,0.4865771739490453,-0.12447461793840198,-1.451153598688591,0.07374687229824727,1.9292399504802151,0.15327728011549416,-0.024160306904353338,-0.17860505590896567,-0.006810289972643354,-0.29281941221194024,-0.01866979003487136,0.11005267698759659,0.04121602752630031,0.5795567081857605,0.8149158132414192,0.00264314720921898,0.0,0.8148823191671469,-0.5794955598291307,-0.011508646675552167,0.0,-0.00784703717298052,0.008823937198839144,-0.9999302786394244,0.0,0.6502375020202735,0.24615384648193966,0.3038393507669231,1.0,-0.03775371428571256,-0.04961916734693651,-0.08975824309027794,1.0549999999999946
0.4563872448267699,0.4833576833066618,-0.12461071233060221,-1.456137455514392,0.07347871079058955,1.9311071311979362,0.15404276100992706,-0.032586946397368005,-0.20256658238302275,-0.002987429931622481,-0.32849471915938977,-0.020582554323168096,0.10897618532712663,0.04937479512214862,0.5808210454732113,0.8140149505352866,0.002705612989515431,0.0,0.8139825496095413,-0.5807598643610202,-0.011451453171028506,0.0,-0.007750491874753296,0.008853737224324212,-0.9999307682099106,0.0,0.6496311508307321,0.2453142881024277,0.30386793940529394,1.0,-0.0430199999999977,-0.05654057142856841,-0.11339327807998963,1.0709999999999928
0.4558158102924366,0.47947510731147325,-0.124756864329631,-1.4622639362402992,0.07313956124259104,1.9332734328509105,0.15516902778807273,-0.0364060544405175,-0.2434266037373903,-0.011946280839647081,-0.38664414051156454,-0.01908570132368495,0.13008454744236156,0.06711495876473132,0.582514843793593,0.8128040286855909,0.0026104815278670587,0.0,0.812770562962227,-0.5824539363131465,-0.01149656281650944,0.0,-0.007824117970233191,0.008818810823665299,-0.9999305034619378,0.0,0.6488512121105965,0.2442751765909068,0.30383607356287734,1.0,-0.04861542857142565,-0.0638945632653023,-0.13850550275655826,1.087999999999991
0.4551605141985539,0.4750895915488993,-0.1248995963533716,-1.469042485472613,0.07275354536390136,1.9357789033099264,0.1566230223516132,-0.04261603753495371,-0.26540761458621903,-0.00977418939839655,-0.41016812459502555,-0.024313955510642724,0.155031373537188,0.09050434075841067,0.5845543922471662,0.8113382687329656,0.00266891272774643,0.0,0.811305894484594,-0.5844934276284492,-0.011442269657182277,0.0,-0.007723738011643333,0.00885410408220863,-0.9999309719735802,0.0,0.6480066258077136,0.24312899908013033,0.3038673621797394,1.0,-0.054210857142853605,-0.07124855510203618,-0.16361772743312694,1.104999999999989
0.4544071633018081,0.47030251275521456,-0.12501230001508984,-1.4764837719427426,0.07235298653224231,1.9384571328456253,0.1583123078358244,-0.04758510614510413,-0.2917953987691111,-0.007609144625603816,-0.44636031501180035,-0.02996679148488072,0.1655521567797885,0.10055040707881495,0.5868635620079574,0.8096695387069937,0.002672934444551493,0.0,0.809637113687331,-0.5868021743255605,-0.011476029280666919,0.0,-0.007723456290439967,0.008899141686176004,-0.9999305743401286,0.0,0.6470522329468473,0.2418742807989444,0.3038702077196624,1.0,-0.059806285714281635,-0.07860254693877015,-0.18872995210969593,1.1219999999999875
0.45359301473051905,0.46497070287205033,-0.12511857777931112,-1.4845017022582134,0.07188110673976325,1.9415064225183067,0.16048202146256368,-0.04368925239201303,-0.31860140513328405,-0.005864425779694043,-0.4915385336212379,-0.0208987556352284,0.1779035934180868,0.1275460655318351,0.5896044714205816,0.8076748475241171,0.002941914165855336,0.0,0.807646266475441,-0.5895423942906246,-0.011314613717100266,0.0,-0.007404288343112353,0.009047347021809315,-0.9999316586777311,0.0,0.6460495989122905,0.2405375391619157,0.3040001711811161,1.0,-0.0654017142857096,-0.08595653877550405,-0.2138421767862646,1.1389999999999856
0.4527251868872512,0.4596001793761737,-0.125217349076977,-1.492837045309883,0.07136315840915726,1.9444062539821456,0.1627598989778359,-0.056824324153863015,-0.3480368031991242,-0.011696576531324537,-0.541826225596642,-0.037303832045965164,0.18550350616387465,0.15585201062497456,0.5924596516052233,0.8055831725268887,0.002839060150557649,0.0,0.8055534490665627,-0.5923977116345152,-0.011372723876133813,0.0,-0.007479966256554504,0.009025068482380882,-0.9999312967617772,0.0,0.6449404996155494,0.2391186806424376,0.30398616762222014,1.0,-0.07066799999999472,-0.09287794285713594,-0.23747721177597628,1.1549999999999838
0.451659445621199,0.4531513924949353,-0.12533872935471724,-1.5028478366474076,0.07074011042568537,1.9479204085563224,0.165584251756246,-0.06113536327726338,-0.36203433451921807,-0.008161403924866464,-0.5505766946486704,-0.041970951840674564,0.20333069727536046,0.16702939014779772,0.595964590450887,0.802994053495261,0.0027393212962940772,0.0,0.8029632967228328,-0.5959027834453955,-0.011426447358567465,0.0,-0.0075431453252156055,0.009009505940120552,-0.9999309624975704,0.0,0.6436047593649326,0.23740217935000374,0.3039623034151591,1.0,-0.0765925714285655,-0.10066452244897181,-0.2640666261394019,1.1729999999999818
0.4506328357779359,0.44687831839663195,-0.12542324814774905,-1.5121277996152558,0.07010538366713522,1.9515046774072264,0.16842147200888152,-0.06380424123759919,-0.3941903707288061,-0.0028136922789632826,-0.6008998943637345,-0.048121785618076375,0.21899092492959096,0.18397810713707327,0.5993675641085688,0.8004557148186316,0.0031493824731849123,0.0,0.8004311621421388,-0.599305416507033,-0.011122918606423797,0.0,-0.0070160968707486115,0.009187757396752455,-0.9999331775167373,0.0,0.6424298974255819,0.2358208490217907,0.30415984054621964,1.0,-0.08185885714285063,-0.10758592653060371,-0.2877016611291136,1.18899999999998
0.4494560244968863,0.439979969831034,-0.12551521304770816,-1.5228655896102519,0.0694483707929663,1.955214058531735,0.17175606659483836,-0.07062409028687237,-0.4062375432794844,-0.003730501745415623,-0.6589692542402238,-0.03634978995576685,0.21814137789685198,0.19255104734272754,0.6033339090701266,0.7974709989533948,0.002991136179331216,0.0,0.7974443521600825,-0.6032715272931644,-0.011256840878659344,0.0,-0.007172674945536139,0.009177075150985842,-0.9999321647120862,0.0,0.6409463762203452,0.23398445893250625,0.30409377291613304,1.0,-0.08745428571427859,-0.11493991836733759,-0.31281388580568226,1.2059999999999782
0.4481754631920538,0.4325758082079505,-0.12559095792592673,-1.5340946342695791,0.06870132070669979,1.959213854463629,0.17545564498067026,-0.07811328880734482,-0.4449346055837922,-0.00133062889670572,-0.6704977156247227,-0.03668799069511648,0.25235177933235026,0.21838080062497595,0.6073776894083487,0.7943953014063285,0.003032229168844736,0.0,0.7943695432356539,-0.6073151309756424,-0.011229753729495159,0.0,-0.007079481245787833,0.009229590070896063,-0.9999323455176425,0.0,0.6395001637356507,0.23216139628853333,0.30413834178107885,1.0,-0.09272057142856371,-0.12186132244896948,-0.33644892079539396,1.2219999999999764
0.44674075463924023,0.42488834106353995,-0.12568670316445169,-1.545899503771171,0.06789839319038002,1.9634066976326803,0.17938329826839763,-0.09096359011905862,-0.45596874548548044,-0.007549098143963633,-0.709379112051279,-0.049368733457087914,0.2508398903722229,0.24070101464377205,0.6122302075714492,0.790661555202532,0.003037262409114873,0.0,0.7906364825987404,-0.6121677950232483,-0.011193302527590852,0.0,-0.006990934349572209,0.009254426574138039,-0.9999327389508275,0.0,0.6377959859397986,0.22994810329227605,0.3041314825463869,1.0,-0.0986451428571345,-0.12964790204080534,-0.3630383351588196,1.2399999999999745
0.44529695480534176,0.4172777692803281,-0.12583538014037673,-1.5575377491983742,0.06707146275634446,1.967412008463736,0.18348211349337049,-0.09991831253614168,-0.49621660086630254,-0.012427529558066263,-0.7181136051262291,-0.05605529955427866,0.2594323220262871,0.25038813867116616,0.6169614093967202,0.786975814244833,0.0029041367225056177,0.0,0.7869498612797585,-0.6168997442020808,-0.011196800274385332,0.0,-0.007020184971944232,0.009193580673848525,-0.9999330953005572,0.0,0.6361727327211196,0.2278183057025673,0.3041096435966935,1.0,-0.1039114285714197,-0.13656930612243734,-0.38667337014853165,1.255999999999973
0.44362382738802125,0.4087716704403767,-0.1259561899626681,-1.5703573792749959,0.06619059033199524,1.9720146416415711,0.18800411514499754,-0.0977177517927256,-0.49326231411668375,-0.003094149882731779,-0.7766138592596696,-0.05322007407617933,0.25796576973172664,0.26773542716791904,0.6221855886228054,0.782851535846503,0.0030517264086137386,0.0,0.7828281399003683,-0.622123788751214,-0.011083399802077915,0.0,-0.0067782354639356335,0.009285087704448552,-0.9999339191518186,0.0,0.6344062517645133,0.22546947786054064,0.3041671200108992,1.0,-0.10950685714284765,-0.14392329795917122,-0.4117855948251003,1.272999999999971
0.44177218826814835,0.399948128475115,-0.12612377954361442,-1.5837981969902595,0.06530002886602171,1.9765815321641917,0.19291380389274201,-0.11167812249208257,-0.5285951606081458,-0.009416361889091483,-0.7579079386561205,-0.05344613953205215,0.2818082218022959,0.28935112723255296,0.6278661746206359,0.7783034712242167,0.0029189636504804647,0.0,0.7782786984090181,-0.6278042960037984,-0.011170515796008116,0.0,-0.0068616454076843025,0.009285535027301395,-0.9999333461094074,0.0,0.6324965119007336,0.22291646079846839,0.30412366540882585,1.0,-0.11510228571427561,-0.1512772897959051,-0.43689781950166895,1.2899999999999692
0.4398101617783874,0.39070526165969965,-0.12626826059842564,-1.5976020824818078,0.06430630937632943,1.9814649798884072,0.1981311198580123,-0.11723984125633767,-0.5373856649079779,-0.009646885716458574,-0.8011546202719091,-0.06261522042079812,0.2901536392428837,0.2973044513874806,0.6337909199807498,0.7734858609389649,0.003072389733038249,0.0,0.7734639248278702,-0.6337291262218551,-0.011031702912938715,0.0,-0.006585930163869824,0.009368356129548477,-0.9999344275637811,0.0,0.6305557132920743,0.2202837604588144,0.30419527753461195,1.0,-0.12069771428570357,-0.158631281632639,-0.4620100441782376,1.3069999999999673
0.4378486989060414,0.38170030744178435,-0.12640035684990436,-1.6111398050570778,0.0633081586531422,1.9859690761042306,0.20329882888505318,-0.12115959150156796,-0.5788550319295621,-0.007168557524704093,-0.8522387805246514,-0.05608978690290438,0.2930712074931239,0.3374519368970656,0.6399770583536311,0.76837586012024,0.0029409635704185904,0.0,0.7683529697007032,-0.6399156420618821,-0.011064894841228495,0.0,-0.006620156957859891,0.009341156790808866,-0.9999344560078238,0.0,0.6284429381916287,0.2175089475185052,0.3041893242096549,1.0,-0.12629314285713153,-0.1659852734693729,-0.4871222688548063,1.3239999999999654
0.4356394511227899,0.3718507818448449,-0.1265532085300603,-1.625865892295836,0.062228260929654916,1.9910649550423931,0.20904653300946188,-0.13254229041982554,-0.5771055565240306,-0.012009881668517863,-0.8894947030950652,-0.06251450324031771,0.2975478134776291,0.33993340778062153,0.646035304860819,0.7632890932044923,0.0029819405863449914,0.0,0.7632675141210012,-0.6459740776969852,-0.010997260217186201,0.0,-0.006467956987113388,0.009380817345442799,-0.9999350807919203,0.0,0.6264235677807978,0.2148024559305557,0.30419369093083537,1.0,-0.13155942857141667,-0.17290667755100478,-0.510757303844518,1.3399999999999637
0.4332691694000386,0.3615833247472791,-0.12669208695431816,-1.6410550834799302,0.06106281599087689,1.9962039762859096,0.21512916335453044,-0.13993320757507163,-0.6187460711746392,-0.00999074881427849,-0.8944617882001269,-0.06525403134666174,0.31587308848272644,0.35884788600394707,0.6527600197764304,0.7575460189697611,0.003022023452697524,0.0,0.7575258782678936,-0.6526991204609667,-0.010915530456427134,0.0,-0.006296665822950631,0.009414664108216633,-0.999935855992395,0.0,0.6241684760487469,0.21179634473048886,0.30424220356973725,1.0,-0.13715485714284462,-0.18026066938773866,-0.5358695285210867,1.3569999999999618
0.4308908104768043,0.35172477197989305,-0.12683124847009017,-1.655844429693634,0.059916138427974996,2.0010539129777656,0.2211274948832921,-0.1506693615953909,-0.6143025746852235,-0.007703393522849289,-0.93148503092956,-0.07248964347811819,0.2941187222589881,0.38746069806471123,0.6597838441207611,0.7514376217781155,0.002743449450891294,0.0,0.7514148343954272,-0.6597236408145203,-0.011009600453023762,0.0,-0.0064632339582968434,0.009325604670731416,-0.9999356277802716,0.0,0.6217614752299455,0.2086369064029755,0.30412921803496606,1.0,-0.14275028571427256,-0.18761466122447254,-0.5609817531976553,1.37399999999996
0.4280247998663832,0.3401649201393038,-0.12700115902887013,-1.6726700734482647,0.058645678197075286,2.0066789039819932,0.22822388091661422,-0.15848702821552133,-0.6346120498421932,-0.00875426966475609,-0.9496760994627872,-0.07082702685155712,0.31632567570832965,0.39128327930879847,0.6671093535216879,0.7449409405249848,0.002975310880401135,0.0,0.7449217400325989,-0.6670487041265979,-0.010880002345588592,0.0,-0.006120399749752592,0.009474707506726049,-0.9999363832887397,0.0,0.6193621794408647,0.2053697337328056,0.3042691495921501,1.0,-0.14834571428570054,-0.19496865306120642,-0.586093977874224,1.390999999999958
0.42538103325883314,0.3297319499893423,-0.1270729986484816,-1.6881062737148587,0.05742655294495007,2.011652935887376,0.23477345826066093,-0.1665407074473403,-0.6643255362130183,-0.0013068483747317252,-0.9556686021380648,-0.07365203276397618,0.30549134325920463,0.4073998742803646,0.6741095462901341,0.7386130129434089,0.0028077771239332925,0.0,0.7385923311540497,-0.6740490230263069,-0.010955812106655714,0.0,-0.006199645324459824,0.009459402302591596,-0.999936040007524,0.0,0.6169216823719251,0.20223806936726765,0.3042094745446035,1.0,-0.15361199999998568,-0.2018900571428383,-0.6097290128639357,1.4069999999999563
0.422438307773067,0.318232703007312,-0.12710364666742646,-1.7047885970866858,0.05601737379547858,2.017144223219512,0.242037168676995,-0.1767567602848294,-0.6842387562787783,-0.0003932219705803043,-0.9733258250225355,-0.07550150404006234,0.31829820599311376,0.43109725725894854,0.6817237633089163,0.731590776361522,0.0028971337356396504,0.0,0.7315722567451631,-0.6816635695566694,-0.010842416762737953,0.0,-0.00595745627286165,0.009511178943599666,-0.9999370211117597,0.0,0.6142756588412301,0.19884430388154428,0.3042662302461226,1.0,-0.15920742857141362,-0.2092440489795722,-0.6348412375405044,1.4239999999999544
0.41933875191293585,0.3064074889842089,-0.12718434932076264,-1.7218505384480443,0.05463769606937503,2.022663202890549,0.24951713450121182,-0.1797606590047185,-0.6947526389096231,-0.00933840794273015,-1.0080995162874893,-0.08731482124067562,0.3181187422019452,0.4358463171763523,0.6895684154637175,0.7242010713415141,0.002992584813982239,0.0,0.7241843752625906,-0.6895078977880464,-0.010797981971097844,0.0,-0.005756610080336677,0.00961331556806412,-0.9999372208314736,0.0,0.6115225349076088,0.19531547490601825,0.3043223721140645,1.0,-0.16480285714284165,-0.21659804081630618,-0.6599534622170734,1.4409999999999528
0.4159687634107975,0.2944078569902119,-0.12725590489356337,-1.739334680077424,0.053144021704876296,2.0280236949202317,0.2573497766291522,-0.2043342735552552,-0.7173843702774587,-0.0028439890778034207,-1.0129326684001194,-0.08166531513187081,0.31581753713652616,0.4597906990133227,0.6977263259203075,0.7163459047480449,0.0026955091656756906,0.0,0.7163264478900992,-0.6976663578931981,-0.010900459550005653,0.0,-0.005928047629520206,0.009536585707398806,-0.9999369539047688,0.0,0.6086203376674316,0.19158314899320716,0.30424069568744205,1.0,-0.1703982857142696,-0.22395203265304006,-0.685065686893642,1.457999999999951
0.41242199606568913,0.282016016750083,-0.12739801492938627,-1.7569408501470745,0.051695086309145336,2.03360804499133,0.2655015476919276,-0.2116753975999559,-0.7211854732562789,-0.004996071170119715,-1.036360938967294,-0.08019594413614906,0.31358640387775116,0.4828177912377175,0.7061886395167091,0.7080043460137485,0.002863275116376473,0.0,0.7079876160753348,-0.7061281484860257,-0.010831449619984139,0.0,-0.00564698296996563,0.009676396295555431,-0.9999372374994684,0.0,0.6057250454814016,0.18773971322562125,0.304332355407831,1.0,-0.17599371428569757,-0.23130602448977394,-0.7101779115702107,1.474999999999949
0.40871240358984984,0.2693352474269984,-0.12753221598253617,-1.7749375609925448,0.0501217438812983,2.0392131491198,0.2738927169774938,-0.2197720940586531,-0.7415446604484037,-0.0038752778524848964,-1.058241759606294,-0.09421164403063563,0.3236823758171692,0.5059226035799399,0.7147749315486595,0.6993346725016683,0.0029257422651749075,0.0,0.699319711418866,-0.7147146471417816,-0.010754593587916486,0.0,-0.005430093880145703,0.009733330528978984,-0.9999378862495742,0.0,0.6027006418395444,0.18377805685897544,0.3043829655007383,1.0,-0.18158914285712552,-0.23866001632650782,-0.7352901362467794,1.4919999999999471
0.4049378648415675,0.25729677247480287,-0.12768319109849846,-1.7921337898422711,0.04859545418650057,2.0443596327059823,0.2820064192425468,-0.23846568667201992,-0.7479149471169999,-0.009154299597412327,-1.0566749027977074,-0.09712815865379999,0.32322064642936943,0.5106170179302251,0.7236298510638859,0.6901687587926306,0.0027694651299909803,0.0,0.6901529165745481,-0.7235699913135532,-0.010778047845401225,0.0,-0.005434874681796487,0.009710858558061058,-0.9999380787645095,0.0,0.5995802597084672,0.17960552428438092,0.3043483198607563,1.0,-0.18718457142855346,-0.24601400816324173,-0.760402360923348,1.5089999999999453
0.4007072199647981,0.24415308615769782,-0.12784071761597943,-1.8106130930330728,0.04688159833257185,2.049986839473671,0.2908631156082159,-0.24663054600799167,-0.7517997783184306,-0.00918913916891914,-1.0850537345682385,-0.09838242275002382,0.32517301658496267,0.5186080329377742,0.7320717380788024,0.6812078295369539,0.00275865638344329,0.0,0.681193085727176,-0.7320126024724478,-0.010690027137967129,0.0,-0.005262860272142955,0.00970523125707605,-0.9999390535367656,0.0,0.5965815519816191,0.17557168521523545,0.30435364148464905,1.0,-0.1924508571428386,-0.2529354122448736,-0.7840373959130598,1.5249999999999435
0.39636349872683524,0.2306942705174778,-0.12793454044452435,-1.8292634557686112,0.04520596423716354,2.055653288254197,0.30004268300384807,-0.2556286164627684,-0.780305639675819,0.0011483451124111718,-1.1058333710793442,-0.09974454609253323,0.3300722265928214,0.5501884874460138,0.7411693782095388,0.6712970322868052,0.002999024611794992,0.0,0.671285928765833,-0.7411097917968527,-0.010593641726381902,0.0,-0.0048889678741702025,0.009865075806516577,-0.9999393872992788,0.0,0.593313116426542,0.17129015893349622,0.30445200418835566,1.0,-0.19804628571426655,-0.2602894040816075,-0.8091496205896284,1.5419999999999416
0.39203445681891463,0.21790924071353882,-0.12798285531548145,-1.8471557683221436,0.04348828438109694,2.060802202768316,0.3089138668922591,-0.281548576993151,-0.8021629530190414,-0.003087729769931488,-1.1008853652245039,-0.11075469727370771,0.32999618717823165,0.5632431103913166,0.7503818807448517,0.6609838060511009,0.002861483745956207,0.0,0.6609722034089587,-0.7503228793542327,-0.010586309058786852,0.0,-0.004850435516133178,0.009835325078747723,-0.9999398680200221,0.0,0.5898764903846628,0.16685410368219428,0.30441758743479985,1.0,-0.20364171428569453,-0.26764339591834135,-0.8342618452661971,1.5589999999999398
0.38689031237969046,0.20319773330323743,-0.12811131549146884,-1.8675417396807654,0.04153893946719861,2.0665380221903544,0.3191303589430983,-0.29075104388344714,-0.8084902092729752,-0.006998115781453553,-1.1329076067244308,-0.1100837785635672,0.30637259359501173,0.5691337197807013,0.759782026410385,0.6501577097727735,0.0026403916299234517,0.0,0.650144446061028,-0.7597232564228622,-0.01065456744544235,0.0,-0.004921276991463275,0.009811973708744204,-0.9999397512874024,0.0,0.5863339187860662,0.16224199468583064,0.30435492446126194,1.0,-0.20923714285712247,-0.27499738775507526,-0.8593740699427657,1.575999999999938
0.3820798432825917,0.1897988699987036,-0.12824710899937675,-1.885700579282637,0.03974866052545138,2.0717391026597856,0.3283577965439194,-0.305347845802964,-0.8167512057636198,-0.014317379527910703,-1.1402444652225452,-0.11741807732775535,0.31322452457433386,0.5803857118632955,0.7686938361984578,0.6395956134830048,0.0028256512534331106,0.0,0.6395855960358571,-0.7686352942920418,-0.010525997019385492,0.0,-0.004560574043567522,0.009898705450515397,-0.9999406066336126,0.0,0.5829989713032875,0.15779948560064785,0.3044522101603844,1.0,-0.2145034285714076,-0.28191879183670715,-0.8830091049324774,1.5919999999999361
0.37661327020799656,0.17537036134312817,-0.12845034902894908,-1.905172018397497,0.03788135605147845,2.077125548609812,0.33847148451436937,-0.3287439031597911,-0.8750906429340664,-0.010643488667289633,-1.1362841890682174,-0.10220490904002827,0.31208018848194774,0.5963443796680936,0.7784425946349225,0.6276936050623437,0.0029346078267233682,0.0,0.6276856684728864,-0.7783836372470024,-0.010505320608208715,0.0,-0.00430995483082991,0.010019993223067777,-0.9999405102430675,0.0,0.5793656126746516,0.15287385800386066,0.3045206052142154,1.0,-0.22009885714283556,-0.28927278367344106,-0.908121329609046,1.6089999999999343
0.3709346737760915,0.1607871219970368,-0.12856628236592735,-1.9249177180194168,0.03582249220190282,2.0823217454477603,0.34880462080255736,-0.3442603684818484,-0.8705875641876554,-0.01009947187110103,-1.132801342131449,-0.12671295856519765,0.30799506953066225,0.6226866214019398,0.7881386497584992,0.6154761393362953,0.002708794150050651,0.0,0.6154668185466394,-0.7880804352830348,-0.010515212474724872,0.0,-0.004337198209886095,0.009954809940322037,-0.9999410434974356,0.0,0.5755565296123103,0.14787540230692542,0.30447614267855316,1.0,-0.2256942857142635,-0.2966267755101749,-0.9332335542856147,1.6259999999999324
0.3661410863682652,0.14855459702753,-0.12859479877626395,-1.9412244826986174,0.034095465624187346,2.086749241887911,0.35752462933935997,-0.34118847960364695,-0.8667470567493918,-0.0032294128825312066,-1.1700347069899502,-0.1242791672647947,0.3092596937133476,0.6065895717608614,0.7961083459222663,0.6051316144494868,0.0028244730267939257,0.0,0.6051246377300746,-0.7960505684665956,-0.010412115887936179,0.0,-0.004052355158898291,0.009998523076765464,-0.9999418022834876,0.0,0.5723893115755465,0.1437768605965217,0.3045156990150165,1.0,-0.230302285714263,-0.3026830040816028,-0.9539142099016125,1.6399999999999308
0.35885252624232994,0.1307612858229495,-0.12866291574222882,-1.9647060705104487,0.031646756300600105,2.0928375509192416,0.3700700297624875,-0.3735709273434242,-0.8891067944664777,-0.009956760820698938,-1.1735388471607808,-0.12214134968905856,0.303751655492569,0.6241753893556121,0.8075596129964352,0.5897623857003422,0.0029234861546970333,0.0,0.5897576407537718,-0.8075016636946153,-0.01037955703206948,0.0,-0.0037608247915713044,0.010106453937818977,-0.9999418562024943,0.0,0.5677349385897978,0.13770983818352536,0.30457582563153146,1.0,-0.2368851428571195,-0.3113347591836428,-0.9834580036387524,1.6599999999999289
0.3523108117315279,0.11539407883885647,-0.12880406179754866,-1.9847762017085244,0.0294064821119918,2.0979266289084593,0.38106636001690336,-0.3883717532493941,-0.909019049325048,-0.009190120799905794,-1.1652065051564247,-0.13608959886409067,0.29347988883660636,0.6457887362336232,0.817423772859716,0.5760122096235682,0.003009456690183296,0.0,0.5760097785902734,-0.8173667782499343,-0.010248496617313547,0.0,-0.0034434955606808537,0.010111035921627473,-0.9999429530182784,0.0,0.5637030676273154,0.13235357950671614,0.30463620817234754,1.0,-0.24248057142854745,-0.3186887510203767,-1.008570228315321,1.676999999999927
0.345388664995465,0.09985646677939519,-0.12895822555459854,-2.0049687797098237,0.027137210186062886,2.102782576323767,0.39216957798234925,-0.40939334506234754,-0.9352531807872793,-0.011508380805310081,-1.1701023482487443,-0.1378776728806358,0.3045342735109974,0.6489725787693941,0.8272994863153889,0.5617363406079131,0.0029309527346613254,0.0,0.5617342456246981,-0.8272431522992229,-0.010205447942361917,0.0,-0.0033082240955109032,0.010089572619239498,-0.9999436264998618,0.0,0.5595524158287816,0.12682996094330096,0.30464764235828073,1.0,-0.2480759999999754,-0.32604274285711055,-1.0336824529918895,1.6939999999999251
0.3387323624869721,0.0850867956880989,-0.12896497805995127,-2.0242116116039415,0.02511269785561452,2.107287599512175,0.40277038657596165,-0.4216899547030863,-0.9338861211842737,-0.0020845896577554,-1.2084435426231073,-0.11514830841135286,0.26884237624969576,0.6628508095931006,0.8364592964210646,0.5480045361022319,0.0027605693911967122,0.0,0.5480011500710478,-0.8364019592384015,-0.010356109509885577,0.0,-0.0033663141523573303,0.01017545518456904,-0.9999425623708666,0.0,0.555474287658929,0.12169867082965594,0.30455993524257197,1.0,-0.25334228571426054,-0.33296414693874243,-1.0573174879816012,1.7099999999999234
0.3312021527585648,0.06902041975790633,-0.1290612285275718,-2.0444960875232767,0.022719382843719688,2.112016314750883,0.41415316760013243,-0.4506264879845142,-0.9345554585200911,-0.009659302837125627,-1.2121490279396552,-0.13527793290946727,0.26735276985696554,0.6741228816502154,0.8462020610249477,0.5328358298996274,0.002966006324056122,0.0,0.5328360425117689,-0.8461455970080873,-0.010204281720550759,0.0,-0.0029275900924822795,0.010215475974552357,-0.9999435350392858,0.0,0.5511769542920483,0.11600679576917461,0.3046741178285998,1.0,-0.25893771428568846,-0.34031813877547634,-1.08242971265817,1.7269999999999215
0.3232615950501202,0.052877161053467195,-0.12920830989190382,-2.0648071494748783,0.020328980028533183,2.1165133972416417,0.42574863258440104,-0.466983590247917,-0.9459449295144933,-0.006798531227756968,-1.191356309529811,-0.13323330858103724,0.25949282333008755,0.6852738400549985,0.8559921615254051,0.516961397460402,0.0030132779594829427,0.0,0.5169633027093121,-0.8559361712641863,-0.01014698352683709,0.0,-0.002666476522382666,0.010243689710785472,-0.9999439767927325,0.0,0.5467843642909267,0.11014228021954921,0.30472124066038936,1.0,-0.25998,-0.34168800000000005,-1.08710748,1.7439999999999196
0.31510706680563044,0.03695209568710629,-0.12926355529480607,-2.0848217517646432,0.01799147252833834,2.120713860908988,0.4371321177408099,-0.4799207830257981,-0.9354969568188943,-0.0012337227811055058,-1.1468311607650556,-0.13839211907072613,0.2529857710431998,0.6573384929412166,0.8654263189326119,0.5010087530218839,0.002874507856001248,0.0,0.5010101319206646,-0.8653701744813045,-0.01020077115923069,0.0,-0.0026232127784269754,0.010268371092712197,-0.9999438380778302,0.0,0.5423409249756137,0.10432079497010599,0.304679937542575,1.0,-0.25998,-0.34168800000000005,-1.08710748,1.7609999999999177
0.306723688837313,0.021115014326756873,-0.1292869315387246,-2.1045297027726733,0.015518790398537183,2.1246492823460077,0.44832309976452145,-0.49381855487767645,-0.9225529187966687,-0.000835394555028898,-1.1413140709966991,-0.1389668823501944,0.22725843924025277,0.6415930246901665,0.8745052175413646,0.48498896668185665,0.0026596223424143898,0.0,0.4849892753520355,-0.8744500474628502,-0.01016189878590967,0.0,-0.0026027520191881925,0.010176717754315195,-0.9999448285268921,0.0,0.5378741849802468,0.09848189611705321,0.30463124950241555,1.0,-0.25998,-0.34168800000000005,-1.08710748,1.7779999999999159
0.2986072780111488,0.006208505155184261,-0.1293383248311427,-2.12259953153137,0.013244100104031816,2.128297933085738,0.45877364973418805,-0.5133421065176813,-0.9182073938548528,-0.009100238622035555,-1.1167991052594048,-0.14257917927137298,0.21131113416310987,0.6444108780935581,0.8828511762743414,0.46962351131453084,0.0028818523263514934,0.0,0.46962733450779354,-0.8827967495897704,-0.010040542716872837,0.0,-0.002171226862545894,0.010217898300698941,-0.9999454386756449,0.0,0.5337611054333371,0.09297376466301055,0.3047306999176853,1.0,-0.25998,-0.34168800000000005,-1.08710748,1.793999999999914
0.28980871968168354,-0.009462588289977895,-0.12938031890323798,-2.1414022678293168,0.010907088677790024,2.1319113219091608,0.4697285548816904,-0.5209160639744371,-0.9335713263064782,0.00337747776137219,-1.0948695292941513,-0.14848231599963505,0.21889519930814194,0.6408365029231431,0.8914268609095279,0.4531326720238219,0.003111285063278582,0.0,0.45313997489078045,-0.8913726909183807,-0.009981780508340171,0.0,-0.0017497900231109864,0.010308073362644506,-0.9999453394353242,0.0,0.5293931988300232,0.0871546696499252,0.3048310065339069,1.0,-0.25998,-0.34168800000000005,-1.08710748,1.8109999999999122
0.28086580738261147,-0.02489705761422519,-0.12939024610965214,-2.159986057402142,0.008492520251137258,2.135128012519218,0.48045744973678284,-0.5322496535349125,-0.9310967628086703,-0.00510705742567093,-1.0595473781350446,-0.13307215578826798,0.19224778786983063,0.618672443534715,0.8996070853485258,0.4366683717610016,0.00292779704458028,0.0,0.43667480409175385,-0.8995535059412416,-0.009967563466425529,0.0,-0.0017188427062203027,0.010245583178145126,-0.9999460353464535,0.0,0.524935587031483,0.08136455753828616,0.3047960455434473,1.0,-0.25998,-0.34168800000000005,-1.08710748,1.8279999999999104
0.2715903185040869,-0.04028478154856894,-0.1294419135734893,-2.178249584630475,0.0061489146455279645,2.138224954528177,0.49099782281521187,-0.5491858553348087,-0.8968414285071976,-0.003708772304731463,-1.0737173353349356,-0.1334728950738473,0.1668821434610159,0.6263188407381967,0.9070860371158148,0.42091216514411534,0.0029355415902267666,0.0,0.4209196369389777,-0.9070327434274746,-0.009950301040494366,0.0,-0.0015255997852848813,0.010261603806980782,-0.9999461845682514,0.0,0.5207764506817173,0.07584955841822295,0.30480446352348006,1.0,-0.25998,-0.34168800000000005,-1.08710748,1.8439999999999086
0.2627465427039616,-0.0546768290539107,-0.1294601659972017,-2.194985520204323,0.003977961469571257,2.1409376139721834,0.5008461051851618,-0.545674057651217,-0.8893356884599294,0.0033362693027809793,-1.0362150907405954,-0.14824986514202404,0.16807602363471025,0.6168938519352877,0.9147532769797808,0.40397744513543543,0.003068057660315383,0.0,0.40398728255586924,-0.9147000422184188,-0.009942595232393941,0.0,-0.0012102550497391507,0.01033467682198528,-0.9999458634034644,0.0,0.5163740497536052,0.07005715371992356,0.3048764797980415,1.0,-0.25998,-0.34168800000000005,-1.08710748,1.8609999999999067
0.25313932211133977,-0.06962731771871744,-0.12946334877820434,-2.2125857543603864,0.0016039437360161708,2.143503909805545,0.5111049501348535,-0.5642079901258897,-0.8665872219668503,-0.0006190535838997831,-1.0101184947206874,-0.14191061021264909,0.1572778599711144,0.6056926214786297,0.9220592987304068,0.38701395575533704,0.0027558259387082547,0.0,0.38702154371463116,-0.9220064880537101,-0.009955279444366128,0.0,-0.0013119679424264952,0.010246119261691541,-0.9999466464667968,0.0,0.5119076308373369,0.06426099797051857,0.30476864877858206,1.0,-0.25998,-0.34168800000000005,-1.08710748,1.8779999999999049
0.24323430700603804,-0.08459963902984839,-0.12955063775012135,-2.2298256041016087,-0.0006959119526251716,2.146015540270811,0.5211027124818485,-0.5875485927359957,-0.8812853307341966,-0.007282640655278072,-1.0140293427427414,-0.13364957321502563,0.13320555958035027,0.5889767703135855,0.9290959491043067,0.36980226270830885,0.002784017778464976,0.0,0.36981112618930284,-0.9290433065296668,-0.009950499496573425,0.0,-0.001093265195311166,0.010274727344156596,-0.9999466159496796,0.0,0.5074963898906953,0.05839962983989613,0.30476103528017007,1.0,-0.25998,-0.34168800000000005,-1.08710748,1.894999999999903
0.23327636074637995,-0.09954153764091436,-0.12950995502232002,-2.2467104025598457,-0.0030192379626278066,2.1481907427784033,0.5308759145713059,-0.578737391705365,-0.8819898234850747,0.0026386795429791834,-0.9803884274842332,-0.13781088309120407,0.12627345896925404,0.5674375229243703,0.9356883857253622,0.3527891011209185,0.002800330367652737,0.0,0.35279911958850474,-0.9356362248116079,-0.009918817422764332,0.0,-0.0008791770762267559,0.01026907406237322,-0.9999468851721927,0.0,0.5030534100574946,0.052685172023033244,0.3048003838932798,1.0,-0.25998,-0.34168800000000005,-1.08710748,1.9119999999999011
0.2235999795590994,-0.1133054768968616,-0.12954076139207144,-2.2624113625767484,-0.005254323932527379,2.150032236716125,0.5399808376355018,-0.6151665135198563,-0.8791104317607848,-0.0038841767146883237,-0.9699430644397103,-0.13246076138439672,0.10634399864060544,0.5681316203510958,0.9420558993954185,0.33541776641733634,0.0025201760062720274,0.0,0.335425906219587,-0.9420044402221233,-0.00989155901672222,0.0,-0.0009438058149112694,0.010163929533797182,-0.9999479005263303,0.0,0.4985847286115492,0.046866040387530485,0.30470697127192475,1.0,-0.25998,-0.34168800000000005,-1.08710748,1.9289999999998992
0.2124306161953847,-0.12883344118141019,-0.12963344634143298,-2.2795238332581236,-0.007618405583681797,2.151972844191226,0.5499481328478727,-0.6184966255263531,-0.8633366763718245,-0.0008651408633967616,-0.9516910492367193,-0.12718861859611252,0.09854256172064511,0.5421750222474085,0.9481236039252251,0.3178605858707416,0.00265076044940422,0.0,0.31787101009197183,-0.9480721805999858,-0.009894858094265043,0.0,-0.0006320853210373123,0.010224345268556749,-0.9999475302394502,0.0,0.494187413490902,0.041035323482586775,0.30475995719655247,1.0,-0.25998,-0.34168800000000005,-1.08710748,1.9459999999998974
0.20236723624545017,-0.14254831596572662,-0.12965159502465576,-2.2944579862018037,-0.00977933697284504,2.153462975199701,0.5585902295781919,-0.6314801356365444,-0.8451411587408935,-0.00519600689366446,-0.9348942885584082,-0.13070990535085525,0.09743691837863797,0.526761450688781,0.9534771898032125,0.30142085597527196,0.0027318508947894895,0.0,0.30143301956020185,-0.9534265025743236,-0.00983797788776827,0.0,-0.00036075961756371067,0.010203954031715118,-0.9999478732287083,0.0,0.49003197849703106,0.03560768408918142,0.3048183522011991,1.0,-0.25998,-0.34168800000000005,-1.08710748,1.9619999999998956
0.19199159788481407,-0.15603872034830535,-0.12975177674909058,-2.309194311547284,-0.01191957332925538,2.1547953241374906,0.5670190297902411,-0.6488309213173749,-0.8669044047745554,-0.013486171314769028,-0.9221289235006742,-0.14034505392373164,0.07504180864915007,0.5195958496885915,0.9585932435566938,0.28473281199594086,0.0026393335427026734,0.0,0.2847449190479584,-0.9585429440123332,-0.009823566651118599,0.0,-0.00026718235623823805,0.010168537211200077,-0.9999482633939483,0.0,0.48585210675882995,0.030090339525205533,0.3047837728588422,1.0,-0.25998,-0.34168800000000005,-1.08710748,1.9779999999998938
0.180926621870439,-0.17033303198724578,-0.1297472824479459,-2.3243783438977257,-0.014050607165060196,2.1560530574521897,0.5758645780793905,-0.6337950412165916,-0.8166091648502087,0.00013027770023372982,-0.8935688975238737,-0.11261896592422752,0.06067362677959632,0.5128520004406031,0.963675742199622,0.2670238995205149,0.002836878931859472,0.0,0.2670389476994616,-0.963625497465598,-0.009841135450307905,0.0,0.0001058725466863697,0.010241417852906692,-0.9999475497001661,0.0,0.4814669560397495,0.024393205233679032,0.3048669631430617,1.0,-0.25998,-0.34168800000000005,-1.08710748,1.994999999999892
0.16944596997017905,-0.1843532334964745,-0.12983459118762958,-2.339381971404926,-0.016342821955886586,2.157007672032035,0.5844231112416995,-0.6776936906142276,-0.7999857855123718,-0.01280188453150511,-0.8769532724079869,-0.11878769531461164,0.0564791734528405,0.4974378751192697,0.9684575085716562,0.24912632876166874,0.0026216998533778674,0.0,0.24914010313689344,-0.9684080327423468,-0.009789689997349256,0.0,0.0001000075941523515,0.010134264472381336,-0.9999486420222214,0.0,0.47701270779374777,0.01854343089744945,0.3048091725720701,1.0,-0.25998,-0.34168800000000005,-1.08710748,2.0119999999998903
0.15778228757489046,-0.19835305867328007,-0.12993065678858956,-2.353882035855452,-0.018561751508770916,2.157957469786064,0.5927405400464458,-0.6749654525799149,-0.784970816288718,-0.00326629006043972,-0.8785169679394844,-0.1287115753192814,0.045540311915804696,0.4740662424966474,0.9728996992327473,0.23116780743829268,0.002892566025216549,0.0,0.23118519539176463,-0.9728515376098251,-0.009697324531997651,0.0,0.0005723390744911128,0.010103437084738454,-0.9999487951825627,0.0,0.4726622769742142,0.01272960509901903,0.3049069689309008,1.0,-0.25998,-0.34168800000000005,-1.08710748,2.0289999999998884
0.14590094867417172,-0.21216675982332586,-0.13000174975902837,-2.368260412035293,-0.020651220932091856,2.15853328922008,0.6007946612773156,-0.7076175002741992,-0.7810293494071686,-0.008050101891763072,-0.8094587635537815,-0.1214984349504083,0.02570235857975628,0.46806307942522285,0.9770045175297781,0.2131556423269128,0.002755317008015923,0.0,0.2131725767405075,-0.9769558919633077,-0.009766503222683043,0.0,0.0006100496628354546,0.010129470819068561,-0.9999485095045317,0.0,0.46819839297505383,0.006953611328411616,0.3048782950078434,1.0,-0.25998,-0.34168800000000005,-1.08710748,2.0459999999998866
0.1336796901637673,-0.22578218035317332,-0.13012863621568402,-2.3822003938902143,-0.022844774837100363,2.159050723681425,0.6085776647985897,-0.7110396736741681,-0.7872123382303462,0.004500128634352824,-0.7925921939228083,-0.1318967287701813,0.016055548546636902,0.45176798897806975,0.9807853016111279,0.19502099799106049,0.0027837721436764088,0.0,0.19503906147721423,-0.9807377086767057,-0.009698359596380095,0.0,0.0008387826954711075,0.010055146440865678,-0.999949093941108,0.0,0.4638004249152911,0.0010951136470340656,0.3048900931076204,1.0,-0.25998,-0.34168800000000005,-1.08710748,2.0629999999998847
0.12213642200163922,-0.23854690803338652,-0.13016667257526518,-2.3950889473077583,-0.024842434470646067,2.1593376886655484,0.6157452253815515,-0.7240154984024441,-0.7805279274398782,-0.003929292966821654,-0.7776746815574443,-0.11731873005149898,0.024788721144754115,0.43623419300787497,0.9840047851200646,0.17806590306550701,0.0028042695108250163,0.0,0.17808495492126797,-0.9839578814636847,-0.009663500266256756,0.0,0.0010385631807991458,0.010008521407479442,-0.9999493741613901,0.0,0.4596322579874096,-0.004288173479231557,0.30491271696248434,1.0,-0.25998,-0.34168800000000005,-1.08710748,2.078999999999883
0.10938424877242164,-0.2518719897898761,-0.13033986055425031,-2.408397808677758,-0.02687057224390939,2.159571231794083,0.6230861407878469,-0.7457174438468084,-0.782392171036541,0.0005191981849181418,-0.765939503069293,-0.11886073076256518,0.008748956653225278,0.4156960480011593,0.9871651736297384,0.15961565420017465,0.0029171575251965205,0.0,0.1596367426695453,-0.9871185279796314,-0.00968860208652932,0.0,0.0013331533491632852,0.010030129197222813,-0.9999488082949219,0.0,0.45524390651643004,-0.010169372925290611,0.3049389001940989,1.0,-0.25998,-0.34168800000000005,-1.08710748,2.095999999999881
0.0965942637033354,-0.2651014534779588,-0.1304098868721046,-2.4214477104234566,-0.028901881747239337,2.1596019280469068,0.6301591003312962,-0.7567436666721469,-0.7830649936333932,-0.0015304904872975628,-0.7295219225086959,-0.12168956997373519,0.005591528869617408,0.4149744327395903,0.9899305367772393,0.14145431682411846,0.0029925756392555443,0.0,0.1414769926379395,-0.989884534765032,-0.009675499384964977,0.0,0.0015936938725268912,0.010001645464097868,-0.9999487122987113,0.0,0.4508288238258611,-0.015908509212001865,0.3049664098478858,1.0,-0.25998,-0.34168800000000005,-1.08710748,2.112999999999879
0.08340088185275028,-0.27806107328752905,-0.1306063056749259,-2.4341320081422113,-0.030955779651692873,2.159561024887871,0.6369102976389737,-0.7718413408823361,-0.7580224090301391,-0.003319930655967312,-0.752910920579952,-0.11814285912823737,0.0003460131969652302,0.38931607312823857,0.9923840160178407,0.12306562544256888,0.003092488955386479,0.0,0.12309007213778667,-0.9923390247029176,-0.009635408345537127,0.0,0.001883046173928593,0.00994287134960415,-0.9999487954122612,0.0,0.4464384820670852,-0.021775545803756083,0.30497569136162245,1.0,-0.25998,-0.34168800000000005,-1.08710748,2.1299999999998773
0.0709117912840551,-0.2901615694507882,-0.1306761028669027,-2.4458422666992066,-0.03280783499085324,2.1593733619014124,0.643026801841689,-0.7815145596009051,-0.73720147811893,-0.005949953733138754,-0.6993474884030035,-0.1065992060806167,-0.01921689148976777,0.3767947445960623,0.9943553865224304,0.10596225340229681,0.003180102033473856,0.0,0.10598830429615419,-0.9943111699660081,-0.009618915451450947,0.0,0.002142810272730611,0.009901864655249167,-0.9999486794033404,0.0,0.44228703026819877,-0.027166361513896804,0.30498486519803286,1.0,-0.25998,-0.34168800000000005,-1.08710748,2.1459999999998756
0.05718349193837032,-0.302832759428016,-0.13085965771994457,-2.4577927112647497,-0.03475655009115822,2.159079945612576,0.6493541471940768,-0.813130881673455,-0.7397330235714662,-0.010472653405112229,-0.7122047523630366,-0.12092872564037145,-0.02622067832855319,0.36526420634604384,0.9961613812171481,0.08735610561530283,0.0034871599447678513,0.0,0.08738592864429112,-0.9961187267593171,-0.009587939068441586,0.0,0.0026361110595989334,0.009856053095113282,-0.9999479532135,0.0,0.43793791876136023,-0.033039743562157414,0.305075343656337,1.0,-0.25998,-0.34168800000000005,-1.08710748,2.1629999999998737
0.04260083770302617,-0.31598053284383176,-0.13095392432653083,-2.470336486126272,-0.036799833892452886,2.158478833916626,0.6557248784904219,-0.8039613651339124,-0.7188820536626973,-0.0075375606617333404,-0.680307069429757,-0.11709452314642026,-0.028964209792616977,0.3355792054375961,0.9976695081950007,0.06800686397947447,0.003371315890101895,0.0,0.06803632059361603,-0.9976273125628423,-0.009568239646464005,0.0,0.002712663066252452,0.009775501079789022,-0.9999485391947569,0.0,0.433224689768264,-0.039104118835172466,0.30502512761259637,1.0,-0.25998,-0.34168800000000005,-1.08710748,2.1809999999998717
0.029195705668504456,-0.32749577455730716,-0.13115748847419667,-2.4808847643547556,-0.0385704218108896,2.1579633315485602,0.6611123668238061,-0.829456487996533,-0.7126361296237512,-0.004399609618630853,-0.6542881274720102,-0.10261735157253035,-0.03854168103819779,0.3261796826959601,0.9987089248913994,0.050471658656030205,0.003720472548280777,0.0,0.0505051409646145,-0.9986686521311642,-0.009534195712085747,0.0,0.0032343749052818893,0.009709976286959979,-0.999947626218233,0.0,0.42915467235121896,-0.04464284905139446,0.30513329024608227,1.0,-0.25998,-0.34168800000000005,-1.08710748,2.19699999999987
0.014930661521363348,-0.3394529255293922,-0.13127420361687905,-2.4920520862470426,-0.04038730649310882,2.157126200473756,0.6665663055086449,-0.8531504247322769,-0.6840717112867132,-0.011103977780788959,-0.6467146501171981,-0.10508545276034782,-0.048214280933921376,0.3175279212978673,0.9994671024040191,0.03214756210591185,0.0035766414369986115,0.0,0.0321804466669568,-0.999426802224927,-0.00955158353259534,0.0,0.003267594100572868,0.009661777454859001,-0.9999479850898279,0.0,0.424707810943526,-0.05036814149627091,0.3050787002932551,1.0,-0.25998,-0.34168800000000005,-1.08710748,2.213999999999868
0.0010688657301272872,-0.35054792849697114,-0.1314607347955303,-2.5021059954888623,-0.042108746704186684,2.1562819459900977,0.6714035360916539,-0.852794312110672,-0.6899051419580635,-0.006290533548732096,-0.6117449237938941,-0.1069614354934066,-0.04684908444258592,0.29564759164473037,0.9998758261418095,0.014680631051654569,0.003682155668576076,0.0,0.014715130365935247,-0.9998367393068466,-0.009523999778200497,0.0,0.0035418043811191735,0.009577184937581147,-0.9999478652161807,0.0,0.42057214898425965,-0.05588580602281431,0.3051196984895474,1.0,-0.25998,-0.34168800000000005,-1.08710748,2.2299999999998663
-0.013800351756506016,-0.36208329517008003,-0.13165026534569657,-2.512568955379107,-0.04384959484145512,2.155323987668128,0.6763345324149762,-0.8786714268408372,-0.6687135137383011,-0.02513950680011589,-0.613777321527449,-0.09003991431116597,-0.073223617949961,0.28666181546982794,0.9999760798994617,-0.003850482444709147,0.0037094898647487195,0.0,-0.0038149391854094272,-0.9999375743902066,-0.00954151260805728,0.0,0.003746069847828215,0.009527316326235942,-0.9999475972291323,0.0,0.4161547171374356,-0.06168536216656248,0.30510932114183,1.0,-0.25998,-0.34168800000000005,-1.08710748,2.2469999999998644
-0.02892709341204621,-0.37335599027091504,-0.13178602293774644,-2.522755927560211,-0.04560232837588321,2.154133884119208,0.6808879487793911,-0.8864755163392336,-0.6567000758442688,-0.003118529548936718,-0.5842003767654542,-0.09128484812541303,-0.07026961641989721,0.2555920446398914,0.9997377271144027,-0.022199705694856298,0.0035209306153419816,0.0,-0.02216534522683611,-0.9996994115400762,-0.009514774753452037,0.0,0.003731169300081383,0.009434418285200134,-0.9999485337392491,0.0,0.41168922491620114,-0.06746195691564663,0.30505395175384054,1.0,-0.25998,-0.34168800000000005,-1.08710748,2.2639999999998626
-0.04343810948298225,-0.38379047892975066,-0.1320276087755713,-2.5317696302303268,-0.047115738423852416,2.153105609232738,0.6849708329465675,-0.9158378615219588,-0.6363357402691667,-0.01995379932442864,-0.5615344530614055,-0.09344900404378001,-0.06531555628854455,0.2579274934544083,0.9991933773414604,-0.039731246567142164,0.003843126903344664,0.0,-0.03969302090473115,-0.9991565723446536,-0.009557977461162418,0.0,0.004219717105654219,0.009397903402221061,-0.9999469352916639,0.0,0.4076055042810893,-0.07296920176141404,0.30515996868773,1.0,-0.25998,-0.34168800000000005,-1.08710748,2.279999999999861
-0.059023324136733765,-0.39456571587013084,-0.13214934160241948,-2.5412661800986216,-0.0487964039628524,2.1518031814494516,0.6890366819311826,-0.9146664960254411,-0.6344318982094768,-0.0042134244788925735,-0.5466864065561798,-0.09568384221435958,-0.0775745693150538,0.2271940942680062,0.9982961284517917,-0.058065257344487586,0.003743355298475952,0.0,-0.05802753895370866,-0.9982601319124427,-0.009500560948531122,0.0,0.004288577438850194,0.009267333942534955,-0.9999478609533341,0.0,0.4031629609369336,-0.0787287629170967,0.30512892152116333,1.0,-0.25998,-0.34168800000000005,-1.08710748,2.296999999999859
-0.07494661855024623,-0.4050621107571784,-0.13237852196706543,-2.5503898620106105,-0.05040676468706056,2.150381454954863,0.6928394258605151,-0.9353100339845006,-0.6061697112370914,-0.009407278803982802,-0.5206608684864212,-0.09792112061287812,-0.07858118207444117,0.22432506074025432,0.9970458057580686,-0.07659808177034666,0.0036251883475809685,0.0,-0.07656077783698245,-0.9970099759151689,-0.009502742963934831,0.0,0.004342324432905054,0.009197299852214555,-0.9999482756092675,0.0,0.39870515975633025,-0.08455775716021814,0.3051054158173516,1.0,-0.25998,-0.34168800000000005,-1.08710748,2.313999999999857
-0.09194450639105597,-0.41583409707238334,-0.1325579216059999,-2.5594735504933643,-0.052024316743616454,2.1490232276329477,0.6964843158084348,-0.9508750871423537,-0.5853381401495161,-0.017594561664424344,-0.5040900703187958,-0.08001172366593204,-0.07565202767316742,0.19004829576152774,0.9953680434272736,-0.09595877847632706,0.0038881690164796405,0.0,-0.09591857475229926,-0.9953345140181283,-0.009464624820447154,0.0,0.004778334652694172,0.009048011661107289,-0.999947649131157,0.0,0.3941115562423774,-0.09067513835222703,0.3051825681788772,1.0,-0.25998,-0.34168800000000005,-1.08710748,2.331999999999855
-0.10740990524776417,-0.4251063251198995,-0.13271755107578134,-2.567458668326082,-0.053347126047403874,2.147540327850293,0.6995394579945738,-0.9414966003843165,-0.5743011162939593,-0.011573103160938675,-0.492663753523836,-0.08415489729628148,-0.0919985059046974,0.18886533981388465,0.9935371344510329,-0.11336415031937075,0.0036440074650891927,0.0,-0.11332522750601082,-0.9935025036480132,-0.009534933510450826,0.0,0.004701340691018796,0.009060526985360765,-0.9999479007660621,0.0,0.38988978580422795,-0.09612077135842678,0.30511647865588354,1.0,-0.25998,-0.34168800000000005,-1.08710748,2.3479999999998533
-0.12303575384790585,-0.4340676413975552,-0.1329739111948181,-2.5750711914859297,-0.05473759500040212,2.1461054173361425,0.7022398672967112,-0.9798775057693206,-0.5663186795327719,-0.018295081408381243,-0.45886696039171254,-0.08886869385118025,-0.08386710859965175,0.16964089671334742,0.9914185736715843,-0.13060500431250377,0.0035059276576255437,0.0,-0.130566728827053,-0.9913839669079214,-0.009534483862513883,0.0,0.004721062669976184,0.008995080069072972,-0.9999483987195625,0.0,0.38569780293041434,-0.10160012704609399,0.3050721624871086,1.0,-0.25998,-0.34168800000000005,-1.08710748,2.3639999999998516
-0.139823406763916,-0.4433397247311556,-0.1331242217161409,-2.582570975474298,-0.056082697940518636,2.1447623362596753,0.7049402644963659,-0.9806106239769006,-0.5400032929441447,-0.005575016084560582,-0.4293901158489206,-0.0861354593282999,-0.08153902563676942,0.1496396668937832,0.9888373806979429,-0.14888343473157528,0.0038864248569369345,0.0,-0.1488412944064279,-0.9888056616889347,-0.009506807694236048,0.0,0.005258426326119947,0.008822396171312655,-0.9999472557482065,0.0,0.38138696944231476,-0.10739008196792332,0.3051866739476472,1.0,-0.25998,-0.34168800000000005,-1.08710748,2.3809999999998497
-0.15695579584377067,-0.4522255430419095,-0.1333232394344572,-2.5900028717581023,-0.05750410186486073,2.1430842099689347,0.7073363580912794,-0.9893230145413325,-0.5124903468170636,0.0007282424550760502,-0.43480630930241554,-0.08218801846250014,-0.10438850941215268,0.1364319419485713,0.9859155630616856,-0.16714722028485823,0.003613331567013724,0.0,-0.16710719788153083,-0.9858837096195239,-0.009446820853462493,0.0,0.005141433564086417,0.008710121684537067,-0.9999488484123309,0.0,0.37689323945357234,-0.11320691650336337,0.30512394738381615,1.0,-0.25998,-0.34168800000000005,-1.08710748,2.397999999999848
-0.17319015125499385,-0.46027923216776917,-0.13356341102773664,-2.5965904498074117,-0.05863045484231177,2.141660959880866,0.7092941784122243,-1.0170712726999838,-0.4930662945582101,-0.02451811573483842,-0.4139753168671611,-0.07286527912978019,-0.08041947199777781,0.12484453440861065,0.9826575410009519,-0.18534231263439593,0.003623694593185257,0.0,-0.18530116608028663,-0.9826257509374935,-0.009531964384177617,0.0,0.005327514514872067,0.00869534926144698,-0.999948002893308,0.0,0.3724725123812024,-0.11899748147717314,0.3051193665573929,1.0,-0.25998,-0.34168800000000005,-1.08710748,2.414999999999846
-0.1916774874844679,-0.46889152987099175,-0.13374878943300283,-2.6035665598666764,-0.05986079984582228,2.14004342703299,0.7112657573607117,-1.015887035613999,-0.4715279173151918,-0.007587703179023178,-0.3723291809868674,-0.06977178728235232,-0.08340056424342802,0.09904193892073414,0.9790714565227059,-0.20343751705096308,0.003606463621670965,0.0,-0.20339580914609517,-0.9790401318190143,-0.009555731830730784,0.0,0.005474972386994237,0.008622370702523197,-0.9999478383399957,0.0,0.3680739398783952,-0.12476844531560512,0.3051198955581326,1.0,-0.25998,-0.34168800000000005,-1.08710748,2.431999999999844
-0.209478108965401,-0.4767101506767205,-0.1339315874107842,-2.6096709241857594,-0.061073535173713535,2.13867054223628,0.712894836260833,-1.0264093399857432,-0.4492909820173252,0.0004738704472230029,-0.3599255197163053,-0.07196707073718409,-0.08993447198118809,0.07914849175662086,0.975126596424678,-0.22157069470128754,0.003910894529422896,0.0,-0.2215263187144501,-0.9750985064957772,-0.009473101273470891,0.0,0.005912582880383654,0.008371268107254332,-0.999947480237817,0.0,0.3637177310576507,-0.13062447081935233,0.30521149106890805,1.0,-0.25998,-0.34168800000000005,-1.08710748,2.448999999999842
-0.22631705234254795,-0.4836521506112049,-0.1341670968485857,-2.6152917647943097,-0.062086234099644526,2.1371604260669947,0.7140811541957511,-1.0458249719666461,-0.41726559214111764,-0.019405451286959245,-0.3420246355953309,-0.062159387866075985,-0.09088475043269208,0.07441393479205802,0.9711410442820454,-0.23843688017256404,0.0036977270804282123,0.0,-0.23839347921839144,-0.9711120131169952,-0.009526486614453971,0.0,0.005862485807406392,0.008370209287662744,-0.9999477840650672,0.0,0.3595086219903757,-0.13606502047279875,0.3051579662596583,1.0,-0.2581148571429096,-0.3392366693878241,-1.0787367384413784,2.4649999999998404
-0.24310726339831154,-0.4900483864530178,-0.13425610308954192,-2.6205044451271102,-0.06298494737489352,2.1358021628830515,0.715109617870701,-1.039951662471613,-0.3963666733412453,-0.0031734484719220363,-0.3165063784985642,-0.05799302179846561,-0.06885483548897407,0.062292882010966576,0.9669281972874693,-0.2549869112909536,0.003504748480707112,0.0,-0.2549445213490425,-0.9668986276996632,-0.009543672659132491,0.0,0.005822360208628419,0.008334690244548693,-0.9999483151944046,0.0,0.35539617389377487,-0.14139212493748057,0.30508622182842693,1.0,-0.25284857142862444,-0.3323152653061922,-1.0551017034516665,2.4809999999998387
-0.2600039829809614,-0.4960565777849138,-0.13436156260727986,-2.62522738136787,-0.06388308430847799,2.1345434548382856,0.7158231943921941,-1.0406205429259017,-0.367667356185986,0.0036037555516922814,-0.2832591499778454,-0.05094547798915974,-0.07639964021897401,0.043056792921073665,0.9624774426021715,-0.271303484717038,0.003512629155505257,0.0,-0.27126078488121685,-0.9624489840756613,-0.009501922887617305,0.0,0.005958745877396809,0.008192705633928904,-0.9999486851443751,0.0,0.3513528675566399,-0.14674174493579692,0.30508751919356564,1.0,-0.24758228571433932,-0.3253938612245603,-1.031466668461955,2.496999999999837
-0.2776422199990981,-0.5019676863112296,-0.13442270453607527,-2.6296798970668203,-0.06462916269024681,2.1333148813238916,0.7162890152150909,-1.0421101897187859,-0.32952091685605694,-0.015991193886334826,-0.24855305499683628,-0.047249287699217074,-0.06792333931546155,0.022282801111358032,0.9575921162839192,-0.2880696948625387,0.0037331801318923013,0.0,-0.28802453224434094,-0.9575655276595914,-0.00953288857824032,0.0,0.006321022606008753,0.00805352654200589,-0.9999475913183906,0.0,0.3472194146692674,-0.1522657962731823,0.3051687809693865,1.0,-0.24198685714291138,-0.3180398693878264,-1.0063544437853862,2.513999999999835
-0.29501500964146077,-0.507341401092678,-0.13441248323119867,-2.6337337683169126,-0.06526424102898046,2.132199881028373,0.716533745016214,-1.0115396468209956,-0.30587346452124997,0.0037311025887873574,-0.23437187285194178,-0.03141159908814917,-0.06803590503111105,0.007267856051032023,0.952556549529938,-0.30430459850584235,0.003934231440205647,0.0,-0.3042571970446957,-0.9525318097803666,-0.009563278948835505,0.0,0.006657758537241598,0.007912698111131405,-0.9999465303004265,0.0,0.34318851792189725,-0.15763532405468303,0.3052325475124345,1.0,-0.2363914285714834,-0.31068587755109256,-0.9812422191088176,2.530999999999833
-0.31226889360242427,-0.5122142673975965,-0.13441452855965128,-2.637517652072777,-0.06592140253305336,2.131003353736729,0.7166052063766857,-0.9883433018695952,-0.2785949856039287,0.004270181412958983,-0.21763531059857702,-0.037649661671481295,-0.07083597974351633,0.0015366928522312447,0.9473360240771234,-0.3201883792504505,0.003821803229608702,0.0,-0.3201415487104948,-0.9473114389458368,-0.00954847280050681,0.0,0.0066778765169360765,0.007822244856499933,-0.9999471078265239,0.0,0.3391464648143234,-0.16291223483926304,0.3052167401255983,1.0,-0.23079600000005546,-0.30333188571435865,-0.956129994432249,2.5479999999998313
-0.32814057468734426,-0.516276442543438,-0.13438150887389047,-2.6407401477844643,-0.06636002594389784,2.130009884816679,0.7165683310373915,-0.9875617617903937,-0.24797862206643068,-0.005160343787267555,-0.19041693863090933,-0.03526588865969124,-0.05728289807368297,-0.0047671604466707545,0.9423094334786822,-0.3346941855106579,0.0036716023273499726,0.0,-0.33464769438868436,-0.942284031177317,-0.009616243017458918,0.0,0.006678321444678947,0.00783293406466859,-0.9999470211799322,0.0,0.3354591185096862,-0.1677059894831289,0.30516830765150543,1.0,-0.22552971428577018,-0.2964104816327266,-0.9324949594425366,2.56399999999983
-0.3447207215575913,-0.5201399485803888,-0.13429746467536638,-2.643735242699024,-0.06678763532548135,2.1291160043425617,0.7163140238389564,-0.9491809501469782,-0.21548136298210013,0.008129928802970143,-0.1641760740430545,-0.017443775347693053,-0.04422905032707768,-0.019953716049982702,0.9368970191714134,-0.34955885482117316,0.0036509430341092057,0.0,-0.34951201646729757,-0.9368720886514874,-0.009632588020424162,0.0,0.006787753748590752,0.007748843730636723,-0.9999469395022349,0.0,0.3316726962015843,-0.1726916603406436,0.30515534981943243,1.0,-0.21993428571434223,-0.2890564897959927,-0.907382734765968,2.580999999999828
-0.36204141291957137,-0.5238434987226652,-0.13420073471317648,-2.646511067232098,-0.06720630449688632,2.1282458283996455,0.7157878484091245,-0.9447378155502846,-0.19967671610655824,0.00617821083863817,-0.1501356197368068,-0.02698688075691216,-0.04715869848882175,-0.0315093136350747,0.9310761465594795,-0.3647795991393416,0.003714870239997658,0.0,-0.36473195486830146,-0.931052515519659,-0.009620880607863444,0.0,0.006968374416084,0.007602986939220485,-0.999946816759571,0.0,0.3277489879987884,-0.1778778864176777,0.3051814901810186,1.0,-0.21400971428577145,-0.2812699102041568,-0.8807933204025423,2.598999999999826
-0.37785452916546985,-0.5268759747935126,-0.13400886111017338,-2.648823531791056,-0.06748649406697142,2.1274644069934983,0.7151400205194559,-0.9192347917338005,-0.17246287821229794,0.007964911980263606,-0.13711986620144712,-0.026371102298932112,-0.05138739788727829,-0.042713959218159854,0.9256177664301559,-0.37841652030276385,0.0036653147212546357,0.0,-0.37836895090152417,-0.9255945358691837,-0.009614523597076792,0.0,0.007031025211231889,0.007512677213727725,-0.9999470607815002,0.0,0.3241763990756569,-0.18253977660824375,0.3051785399636164,1.0,-0.2084142857143435,-0.2739159183674229,-0.8556810957259736,2.6159999999998242
-0.39347458704174954,-0.5294855047663617,-0.1338966462946686,-2.6508859010299775,-0.067734520074107,2.1268038629801587,0.7143638766976931,-0.9031112951483102,-0.1438166807252798,0.018681367721708777,-0.11206697678809668,-0.00736563219484291,-0.04394084489533075,-0.04285445526539242,0.920045144359326,-0.3917715864130015,0.003564171920009414,0.0,-0.39172429607647863,-0.9200217378101478,-0.009634558702483047,0.0,0.007053797798428019,0.007468200001795655,-0.9999472335705281,0.0,0.32064706964606143,-0.18714486146131679,0.30514039349616656,1.0,-0.20281885714291553,-0.26656192653068905,-0.830568871049405,2.6329999999998224
-0.4078455668848521,-0.5315961440218625,-0.13379809535727846,-2.6525149462623667,-0.06791560275460815,2.126312209130909,0.7135260913580389,-0.901279998813227,-0.12405220187587708,-0.0011248715243193617,-0.0982029412697881,-0.007881532533662017,-0.035886067353635726,-0.05060499569809246,0.914778254205066,-0.40391678666780534,0.0035667888491159464,0.0,-0.4038690268327752,-0.9147553454462347,-0.009654742041902649,0.0,0.0071625894495209175,0.0073915748392021086,-0.9999470295639533,0.0,0.31743473998437177,-0.1913811953286148,0.3051299001478792,1.0,-0.19755257142863042,-0.25964052244905717,-0.8069338360596933,2.6489999999998206
-0.42275399165142014,-0.5335258432218971,-0.13363570960155566,-2.6539834480382636,-0.06805937685955611,2.1258528762217432,0.7125378983914026,-0.8634502721346592,-0.10528114082790584,0.007616564495361443,-0.07749867538167453,-0.002998899279603884,-0.020751806610918078,-0.07119804021200206,0.9092000905852247,-0.41632090830266527,0.003583781671854318,0.0,-0.4162727376974468,-0.9091779773317288,-0.009651957628744733,0.0,0.0072767472384461795,0.007283870379602819,-0.9999469956862319,0.0,0.3141206846454401,-0.19574585275932918,0.30512968060384316,1.0,-0.19195714285720245,-0.25228653061232326,-0.7818216113831247,2.6659999999998187
