nelsonifechukwu/NELSON_IML_WORK/CNN-GradCAM/train2dof/data_sample_2022-02-21-10-18-33/robot_state.csv
position_joint1,position_joint2,position_joint3,position_joint4,position_joint5,position_joint6,position_joint7,velocity_joint1,velocity_joint2,velocity_joint3,velocity_joint4,velocity_joint5,velocity_joint6,velocity_joint7,ee_T_00,ee_T_10,ee_T_20,ee_T_30,ee_T_01,ee_T_11,ee_T_21,ee_T_31,ee_T_02,ee_T_12,ee_T_22,ee_T_32,ee_T_03,ee_T_13,ee_T_23,ee_T_33,v_x,v_y,time
0.465091166394,0.547656486581,-0.123945944528,-1.35575571706,0.0794168684566,1.894090787,0.159177472509,-0.000840826829187,0.00235724226055,-2.34886055889e-05,0.00111911715407,-0.000244354299015,-7.87042328589e-06,0.00134139792031,0.573750121913,0.819016020965,0.002074104197,0.0,0.818975095708,-0.573691657526,-0.0117652707939,0.0,-0.00844621161227,0.00844912790747,-0.999928634327,0.0,0.661686496835,0.260923394231,0.303337092329,1.0,0.0,0.0,0.0
0.465093911066,0.54765829342,-0.123947706786,-1.35576124519,0.0794166318223,1.89408685323,0.159172452859,0.00105270367703,0.00298160022793,-0.00102895430995,-0.00052466534478,-0.000160819350977,-0.000174654098967,-0.000747178967588,0.573745210249,0.819019486589,0.00206426853294,0.0,0.818978433272,-0.573686784627,-0.0117705514376,0.0,-0.00845623022663,0.00844405149241,-0.999928592533,0.0,0.661684098136,0.260923202841,0.303332897034,1.0,-0.00012,-0.000157714285714,0.007
0.465093503507,0.54765354454,-0.123948731372,-1.35576143826,0.0794181893632,1.89408709954,0.159177946186,0.00192218348654,0.00113994866432,-0.00111747323316,-0.000142976912764,0.000340856566733,-0.00030792037249,0.000749449369831,0.573751174907,0.819015296137,0.00206903058531,0.0,0.818974296571,-0.57369272182,-0.0117690011548,0.0,-0.00845216690844,0.00844712374155,-0.999928600939,0.0,0.66168448315,0.260922649687,0.303336227546,1.0,-0.00046,-0.000604571428571,0.024
0.465083630832,0.547633354415,-0.123948389353,-1.35577979765,0.0794129423541,1.89409162012,0.159173221578,-0.00117707576071,-0.000715055243386,-0.000116964486051,-0.00394445790796,0.000114199633082,-2.01546414301e-05,-0.000126175028067,0.573754759682,0.819012775849,0.00207259230534,0.0,0.818971855352,-0.57369632504,-0.0117632341593,0.0,-0.00844536307233,0.00844676898034,-0.999928661424,0.0,0.66168450222,0.260913858524,0.303342163624,1.0,-0.0008,-0.00105142857143,0.041
0.465078386445,0.547561331261,-0.123948392889,-1.3558500166,0.0794142481254,1.89410113865,0.159173154158,-0.000730437843921,-0.00949640017534,-0.000611605549048,-0.0110012237937,0.000308882526951,4.40144664663e-07,2.18935200798e-05,0.573763117422,0.819006885237,0.00208660508576,0.0,0.818966076737,-0.573704557013,-0.011764068919,0.0,-0.00843792105285,0.00845881049567,-0.999928622459,0.0,0.661673503047,0.260903856669,0.303360591796,1.0,-0.00112,-0.001472,0.057
0.465077650582,0.547424953168,-0.123943336811,-1.35602728263,0.0794101925404,1.89414256589,0.159164621082,6.23238552472e-05,-0.00830037426036,0.000438011037494,-0.013524114507,0.000331453222739,0.00412561350871,-0.00074289259063,0.573761842117,0.819007761395,0.00209337197214,0.0,0.818966924552,-0.573703138881,-0.0117742018065,0.0,-0.00844235113392,0.00847015320064,-0.999928489049,0.0,0.661643986759,0.26088920095,0.303376248461,1.0,-0.00148,-0.00194514285714,0.075
0.465057346295,0.547270929039,-0.123943100072,-1.3562303863,0.0794021026085,1.89421360168,0.159163630117,-0.00119067385086,-0.0131405893871,0.00105969392833,-0.00851860517632,-0.00428722111259,7.0526057292e-05,0.00113138028843,0.573786648129,0.818990327545,0.00211488037831,0.0,0.818949728097,-0.573727815823,-0.0117678843442,0.0,-0.00842457995264,0.00848439897515,-0.999928518158,0.0,0.661621352358,0.260857335057,0.303394826738,1.0,-0.00182,-0.002392,0.092
0.465043169745,0.54710929808,-0.123948792987,-1.35642186207,0.0793984972833,1.8943299044,0.159148074573,-0.00258270654178,-0.0184084135229,-0.000459346770648,-0.00993187382807,0.000326860670388,0.00703276340713,-0.00170233143365,0.573799493992,0.818981128749,0.0021905132739,0.0,0.818941528185,-0.573740386639,-0.0117255726418,0.0,-0.00834639747877,0.00852219401533,-0.999928852398,0.0,0.661610123138,0.260831384544,0.30342846139,1.0,-0.00212,-0.00278628571429,0.107
0.465017576676,0.546890732945,-0.123948696616,-1.35667809316,0.0793955612247,1.89446086254,0.159134514575,-0.000638668515098,-0.0117778764826,-0.000965114371009,-0.0180351056299,0.000402539399693,0.00815415200423,0.000428256183295,0.573822977468,0.818964440345,0.00227659415546,0.0,0.818925894795,-0.573763480815,-0.0116873358554,0.0,-0.00826544501634,0.00857098878315,-0.999929107772,0.0,0.661590069717,0.260795395204,0.303472676028,1.0,-0.00248,-0.00325942857143,0.125
0.464987739745,0.546661484799,-0.123946287457,-1.35699696192,0.0793803880639,1.89459233161,0.159107460246,0.000571586087844,-0.0170741245515,0.000240795282789,-0.0190656600558,-0.00070739417531,0.00354104019356,0.000268236638375,0.573837429227,0.818954206879,0.00231489862562,0.0,0.818916128534,-0.57377775897,-0.011670674334,0.0,-0.00822966894393,0.00859294301839,-0.999929214434,0.0,0.661557277767,0.260748685921,0.303494574622,1.0,-0.00282,-0.00370628571429,0.142
0.464952694999,0.546408848408,-0.12395093265,-1.35736887621,0.0793649459148,1.89471695207,0.158996893483,-0.00441812841195,-0.0184224348655,-0.000705229781226,-0.0243158651736,-0.00343647286414,0.00391431310391,-0.00614077906704,0.573795420089,0.818983616079,0.00232365665504,0.0,0.818945589045,-0.573735657861,-0.0116732165368,0.0,-0.00822716680939,0.00860115215343,-0.999929164445,0.0,0.661514536952,0.260687944882,0.303507410227,1.0,-0.00314,-0.00412685714286,0.158
0.464908716941,0.54612500612,-0.123944819577,-1.35781801099,0.0793384968492,1.89488931052,0.158943759199,-0.00308347980887,-0.00989820075706,0.000935877190464,-0.0270078808303,-0.00130778960321,0.00564729094683,-0.000735833166894,0.573801791127,0.81897913181,0.00233089257127,0.0,0.818941168346,-0.573741969973,-0.011673113579,0.0,-0.00822286384444,0.0086070830783,-0.999929148806,0.0,0.661464869119,0.260620227889,0.303509344398,1.0,-0.00348,-0.00457371428571,0.175
0.464867234353,0.545793533194,-0.123946737104,-1.35835610407,0.0792355801109,1.8950744019,0.158902059807,-0.00346625361044,-0.0173885784999,0.000614932817611,-0.0263369030678,-0.00867998537511,0.00820943764176,-0.00685958721143,0.573805635858,0.818976601302,0.00227281286503,0.0,0.818938488992,-0.573746655562,-0.0116307084825,0.0,-0.00822141761144,0.00853522433923,-0.999929776653,0.0,0.661404012175,0.260528056335,0.303503869598,1.0,-0.00384,-0.00504685714286,0.193
0.464809364083,0.545498007582,-0.123944843335,-1.35886800819,0.0792170860738,1.89524457284,0.158816386683,-0.00431413699506,-0.0220586395609,0.00110784116669,-0.0356462766346,-7.16040444459e-05,0.0126572301303,-0.0124851452547,0.573805150795,0.818977029846,0.00224062633821,0.0,0.818938352849,-0.573746135778,-0.0116658824723,0.0,-0.00826869827246,0.00852904250441,-0.999929439542,0.0,0.661343856781,0.260442551547,0.303484121815,1.0,-0.00414,-0.00544114285714,0.208
0.464739736281,0.54509831778,-0.123949492524,-1.35957361778,0.0792040856567,1.89546911011,0.158739040112,-0.00812997353869,-0.0211940728038,0.00030355554591,-0.0434641848996,-0.000154505779718,0.0162313396739,-0.00949585468457,0.573837865401,0.818954255361,0.00218603738881,0.0,0.818914580151,-0.57377875348,-0.0117302758417,0.0,-0.00835241831902,0.00852161840756,-0.99992880703,0.0,0.661256981958,0.260328438872,0.303450838855,1.0,-0.0045,-0.00591428571429,0.226
0.464675123834,0.544673569904,-0.12395236107,-1.3602696704,0.079180848471,1.89571029087,0.158665252733,-0.00325567821334,-0.0242377820533,0.000613011331095,-0.0438183296472,-0.000888503883418,0.0119767989431,-0.00309370071562,0.573864934709,0.818935331049,0.00216960206361,0.0,0.81889526399,-0.573805700634,-0.0117605882113,0.0,-0.00838639263202,0.00852583018932,-0.999928486762,0.0,0.661175058503,0.260219620302,0.303441173924,1.0,-0.00484,-0.00636114285714,0.243
0.464606282826,0.544232262044,-0.123955881718,-1.36101518796,0.079145311672,1.89596984721,0.158539455544,-0.00396980680247,-0.0299638722327,0.000800734224107,-0.0498184771158,-0.000939110669789,0.0142462239077,-0.00719825590894,0.573852816422,0.818943912166,0.00213558248965,0.0,0.818903304238,-0.573793615536,-0.0117903341909,0.0,-0.00843040112134,0.00851491597775,-0.999928209694,0.0,0.661087708396,0.260101233681,0.303421240849,1.0,-0.00518,-0.006808,0.26
0.464535590111,0.543747053588,-0.123958011027,-1.36182329468,0.0790970874182,1.89625578655,0.158484619381,-0.0073220814698,-0.0307034241657,6.3113977977e-05,-0.0449620261781,-0.00511516771538,0.0238242446711,-0.00213030695724,0.57389943205,0.818911330991,0.00210256247765,0.0,0.818870278169,-0.573840339261,-0.0118101426906,0.0,-0.00846508748362,0.00849972374952,-0.999928045906,0.0,0.660993144978,0.259975320137,0.303404759282,1.0,-0.00552,-0.00725485714286,0.277
0.464463115145,0.543189994288,-0.123961997941,-1.36271700078,0.0790446594272,1.89656535123,0.158349117402,-0.00912660155265,-0.0350334875839,0.00109264318889,-0.0479987647529,-0.00397650980531,0.0135491803165,-0.0050994372565,0.573886259636,0.818920620687,0.00207964323094,0.0,0.818879237226,-0.573827226572,-0.0118260638576,0.0,-0.00849141513316,0.00848995567407,-0.999927905662,0.0,0.660886482293,0.259838866759,0.303400416096,1.0,-0.00588,-0.007728,0.295
0.464404536004,0.542704439893,-0.123964775925,-1.36350849398,0.0789977449728,1.89683927533,0.158245689475,0.000807560659061,-0.0304897768324,-0.000745557142232,-0.0530014376249,-0.00491105408113,0.0176298209578,-0.00591761318593,0.57388288638,0.818923054256,0.00205203047535,0.0,0.81888128338,-0.573823935887,-0.0118440379069,0.0,-0.00852201556869,0.00847762323009,-0.999927749967,0.0,0.660790046434,0.259721969011,0.303390954825,1.0,-0.00618,-0.00812228571429,0.31
0.464323294777,0.542081874788,-0.123970083049,-1.36448528114,0.0789388972048,1.89720712802,0.158103369177,-0.00107277104877,-0.0330320131498,1.91159647649e-05,-0.0595784982386,-0.00490640374776,0.0239456965394,-0.00983794315578,0.57387519622,0.818928418711,0.00206181792725,0.0,0.818886798216,-0.573816230418,-0.0118360600236,0.0,-0.0085099451709,0.00848098003462,-0.999927824301,0.0,0.660680258441,0.259572888892,0.303398356676,1.0,-0.00654,-0.00859542857143,0.328
0.464250728389,0.541478462416,-0.12397289362,-1.36538868304,0.0788892260897,1.89753490277,0.158003341781,-0.0067490237304,-0.0437124587319,-0.00390306402513,-0.0603151405686,-0.00189082827371,0.0232840632737,-0.0128583314216,0.573891460769,0.818916954846,0.0020878754031,0.0,0.818875629066,-0.573832344931,-0.0118275497844,0.0,-0.0084878540317,0.0084976037124,-0.999927870931,0.0,0.660575403607,0.259438220261,0.303423506839,1.0,-0.00686,-0.009016,0.344
0.464160999225,0.540855564801,-0.123970801144,-1.36633975801,0.0788330036899,1.89788879985,0.157859438327,-0.00312273737203,-0.0445740996101,0.000776204067954,-0.0569739906861,-0.00372049567307,0.0248793162526,-0.00365017078886,0.573883323305,0.818922597892,0.00211111234112,0.0,0.818881545882,-0.573824087864,-0.0118184982755,0.0,-0.00846719121706,0.00851135387416,-0.999927929167,0.0,0.660468815657,0.259290373702,0.303441756628,1.0,-0.00718,-0.00943657142857,0.36
0.464074341538,0.540148053341,-0.123969085085,-1.36741236244,0.0787743572542,1.89828872952,0.157734578655,-0.00179107507132,-0.0429768934942,0.000995709496623,-0.0616322759593,-0.00611608083304,0.0265169013844,-0.00468172987342,0.573894538152,0.818914652091,0.00214442818358,0.0,0.818873966052,-0.573835102395,-0.011808889967,0.0,-0.00844008735044,0.00853323815657,-0.999927971792,0.0,0.660344824266,0.25913376428,0.303465880589,1.0,-0.00752,-0.00988342857143,0.377
0.463971354183,0.539420533229,-0.123969359662,-1.36854849168,0.0786957484812,1.89872835979,0.157587643031,-0.0015846340658,-0.0406624054027,0.00163354138835,-0.0716461991566,-0.00593511257864,0.0223878399596,-0.0146351933754,0.573900670948,0.818910302755,0.00216398444899,0.0,0.818869975905,-0.573841264452,-0.0117861220839,0.0,-0.00841015515312,0.00853624961468,-0.999928198289,0.0,0.660220187059,0.258957416063,0.303477277067,1.0,-0.00786,-0.0103302857143,0.394
0.463875911851,0.538708224259,-0.123977567128,-1.36963805139,0.0786472737632,1.89914958564,0.157460179759,-0.00483226948095,-0.0407982842637,-0.000553214306173,-0.0684643253225,-0.00309886017645,0.028587080941,-0.00990843753312,0.573927530743,0.818891360836,0.00220805462149,0.0,0.818851508875,-0.573867850957,-0.0117746741571,0.0,-0.00837520863219,0.00856604344565,-0.999928236815,0.0,0.660100214674,0.258790406722,0.30349868866,1.0,-0.00818,-0.0107508571429,0.41
0.463765498413,0.537935041014,-0.123990673447,-1.37083972239,0.0785723537334,1.89962291114,0.157313542395,-0.00676745905302,-0.0443317603486,-0.00469757398967,-0.0765440593275,-0.00278946715607,0.0286018780116,-0.0104226695477,0.57395348694,0.818873081632,0.00224006909839,0.0,0.818833757546,-0.573893796595,-0.0117445576817,0.0,-0.00833190079658,0.00857523913088,-0.999928519797,0.0,0.659972528324,0.258597434937,0.303514258111,1.0,-0.00852,-0.0111977142857,0.427
0.463659252667,0.537136045767,-0.123984216785,-1.37210972378,0.078488832662,1.90009437461,0.157155325518,-0.00652713661393,-0.0468451449268,0.000517923680596,-0.0778614235362,-0.00333320009177,0.0281367215272,-0.00187570922756,0.573953999286,0.818872730207,0.0022372589398,0.0,0.818833385593,-0.573894335963,-0.0117441342189,0.0,-0.00833316145727,0.00857270016624,-0.999928531062,0.0,0.659823972016,0.258409295169,0.30351458156,1.0,-0.00886,-0.0116445714286,0.444
0.463541480097,0.536351111387,-0.123992522875,-1.37334768193,0.0784193188057,1.90056000246,0.156999610383,-0.00803095699342,-0.0445048246852,-0.00182225755448,-0.0745560792237,-0.0123001718342,0.0302357500878,-0.0113976195825,0.573978299624,0.818855668406,0.00224783921296,0.0,0.818816451998,-0.573918583779,-0.0117398480547,0.0,-0.00832332467792,0.00857915092851,-0.999928557666,0.0,0.659686611844,0.258210481279,0.303520089461,1.0,-0.00918,-0.0120651428571,0.46
0.463423930102,0.535431239049,-0.123999168176,-1.37479956461,0.0783376649495,1.90108939229,0.156818453006,-0.00623820917652,-0.052702036436,-0.000498271161204,-0.0845614053658,-0.00303277573564,0.0350942958245,-0.0108232231626,0.573988698369,0.818848382105,0.00224681315603,0.0,0.818809103664,-0.573928934932,-0.0117463315608,0.0,-0.00832911387387,0.00858213786234,-0.999928483829,0.0,0.659515804243,0.257991539827,0.303524325356,1.0,-0.00954,-0.0125382857143,0.478
0.463299011219,0.534532443687,-0.123996739554,-1.37624105631,0.0782713140944,1.90161192065,0.156652008816,-0.00665409206915,-0.0519175754835,0.000139636153648,-0.0835310422643,-0.00347497046256,0.0360466338577,-0.00457041631023,0.574014226224,0.818830503838,0.00224075411875,0.0,0.818790920304,-0.573954249694,-0.0117768835509,0.0,-0.00835734204734,0.00859497330571,-0.999928138052,0.0,0.659344099727,0.257775985503,0.303517590873,1.0,-0.00988,-0.0129851428571,0.495
0.463174713292,0.533554712657,-0.124005876073,-1.37780832094,0.0781691011849,1.90218444318,0.156458591761,-0.00849338337923,-0.0581982475558,-0.000550595142444,-0.0846368234685,-0.00468476288328,0.0313068906595,-0.0118479062593,0.57402237523,0.818824850722,0.00221889071688,0.0,0.818785062227,-0.573962562888,-0.0117790142827,0.0,-0.00837155058734,0.00857837749048,-0.99992816171,0.0,0.659159280993,0.257537858863,0.303511139173,1.0,-0.01024,-0.0134582857143,0.513
0.463055669619,0.532739988925,-0.12400062586,-1.37913279718,0.0780899735663,1.90268973663,0.156291436147,-0.00961666519328,-0.0546811261623,0.000677418104909,-0.0896089232752,-0.00551839110204,0.0304254949886,-0.00881246854973,0.574030551521,0.818819129817,0.00221482908529,0.0,0.818779256196,-0.573970720683,-0.011785089022,0.0,-0.00837877060881,0.00857862242713,-0.999928099135,0.0,0.659006982273,0.257337412338,0.303498843256,1.0,-0.01054,-0.0138525714286,0.528
0.462920771858,0.531705547564,-0.123999924377,-1.38079188362,0.0780069459066,1.90329294591,0.156080899646,-0.014618800647,-0.0545366832772,0.00453177450871,-0.0956943354688,-0.0023940957868,0.0342465687864,-0.0148102816726,0.574036313673,0.818815115644,0.0022054202767,0.0,0.818774924642,-0.573976319112,-0.0118133304761,0.0,-0.00840723641278,0.00858718882957,-0.999927786675,0.0,0.658806996266,0.2570930764,0.303490652757,1.0,-0.0109,-0.0143257142857,0.546
0.462794410191,0.530757861667,-0.124000660936,-1.38231634871,0.0779059303159,1.90382831963,0.155878823757,-0.00812616197982,-0.0581643493591,-0.000741007897489,-0.096833406415,-0.00579757508288,0.0336919604051,-0.0149623594163,0.574030476893,0.818819314953,0.00216516937058,0.0,0.818778618703,-0.573970659349,-0.0118322720706,0.0,-0.00844591182992,0.00856504406955,-0.99992765068,0.0,0.658621265497,0.256860910595,0.30347929065,1.0,-0.01122,-0.0147462857143,0.562
0.462658790463,0.52973192868,-0.124001651822,-1.38395944644,0.0777976381765,1.90442327337,0.155668855489,-0.0048992835131,-0.0579100382735,0.00179186483354,-0.0974670802142,-0.00299287786976,0.0297778546107,-0.0114274233219,0.57403034359,0.818819473415,0.00214044296471,0.0,0.818778496298,-0.573970665058,-0.0118404625922,0.0,-0.00846681288519,0.00854949808647,-0.999927606961,0.0,0.658424190493,0.256612333022,0.303471551958,1.0,-0.01156,-0.0151931428571,0.579
0.462511351802,0.528588260568,-0.124007018408,-1.38573484926,0.0776961440784,1.90509183232,0.155423285516,-0.00976930503036,-0.0703979107374,0.00133939218566,-0.10285965007,-0.00608204972259,0.0402614278844,-0.0187133386446,0.574022785782,0.81882468553,0.002173170664,0.0,0.818784098027,-0.573962942441,-0.0118274436147,0.0,-0.00843744581666,0.00856874468926,-0.999927690447,0.0,0.658217137916,0.256345370334,0.303490036253,1.0,-0.01192,-0.0156662857143,0.597
0.462389133875,0.527617291059,-0.124012597809,-1.38725261287,0.0775967015294,1.90568223253,0.155213717958,-0.00840858234291,-0.0696718670976,-0.000643591514966,-0.102221747443,-0.00926786129866,0.0424110099411,-0.0167483043646,0.574010691627,0.818833083425,0.00220324486869,0.0,0.818792997678,-0.573950845095,-0.0117983587563,0.0,-0.00839649388397,0.0085765506656,-0.99992796824,0.0,0.658043230705,0.256118255186,0.303502516826,1.0,-0.01222,-0.0160605714286,0.612
0.462242945255,0.526466415022,-0.124018002672,-1.38903710388,0.0774898794056,1.90635686266,0.154962999705,-0.010830603885,-0.0680767537681,-0.0017087496396,-0.105440726999,-0.0107891465231,0.0419301864071,-0.0153174951461,0.573996558312,0.818842899555,0.0022369166185,0.0,0.818803259534,-0.573936591882,-0.0117795405739,0.0,-0.00836190585118,0.00859317581169,-0.999928115346,0.0,0.657834414038,0.255850717253,0.303521720382,1.0,-0.01256,-0.0165074285714,0.629
0.462089580119,0.525282732172,-0.124014871216,-1.39087530384,0.0773669970691,1.90701880084,0.154715673906,-0.00737667600687,-0.0703546933757,-0.000199152038542,-0.109675021567,-0.0106584119927,0.0380885725546,-0.0156832076156,0.573983087166,0.818852338865,0.00223823219745,0.0,0.818812750194,-0.573923152564,-0.0117746325309,0.0,-0.00835727301165,0.00859129840061,-0.99992817021,0.0,0.657611523631,0.255574095306,0.30353672972,1.0,-0.0129,-0.0169542857143,0.646
0.461955307809,0.524242350189,-0.124023334802,-1.39252584082,0.0772613272125,1.90760681919,0.154483286543,-0.0101322332606,-0.067417954277,-0.000930554595769,-0.110874652796,-0.00526271785859,0.0406719158352,-0.0243876128908,0.573968787815,0.81886242622,0.00221459701758,0.0,0.818822560716,-0.573908976896,-0.0117833442217,0.0,-0.00837812203456,0.00857679893017,-0.999928120212,0.0,0.657410460918,0.255321470942,0.303533986479,1.0,-0.0132,-0.0173485714286,0.661
0.461771078889,0.522906921062,-0.124022308207,-1.39467282566,0.0771372492015,1.90840162654,0.154196041074,-0.00732567286456,-0.0761021116678,0.00140329886322,-0.113964667341,-0.00341020976857,0.0410114006584,-0.0141676339462,0.573965441053,0.818864804825,0.00220245229964,0.0,0.818824684955,-0.573905578864,-0.011801218528,0.0,-0.0083997645662,0.00857707904314,-0.999927936239,0.0,0.657152695684,0.25499754656,0.303519742343,1.0,-0.01358,-0.017848,0.68
0.461607844054,0.521692009639,-0.124028277849,-1.39662994998,0.0770191957299,1.90917164215,0.153930408969,-0.00473722791639,-0.0647288631708,-0.000806299375465,-0.119383948097,-0.013019499268,0.0496674309294,-0.0111304462888,0.573958996555,0.818869269963,0.00222168519456,0.0,0.818829449633,-0.573899111444,-0.0117851261497,0.0,-0.00837561574409,0.00858352570372,-0.999928083488,0.0,0.656926699578,0.254703605863,0.303508877317,1.0,-0.01392,-0.0182948571429,0.697
0.461449921284,0.520497134716,-0.124026240774,-1.39852669076,0.076890926196,1.90987660352,0.153680559601,-0.00964711972116,-0.0784829138867,0.000328298716042,-0.114883023464,-0.00410204741398,0.0446831502496,-0.0167410409057,0.573948772409,0.818876450269,0.00221647166302,0.0,0.818836639453,-0.573888987793,-0.0117785601966,0.0,-0.00837333809657,0.00857538347626,-0.999928172424,0.0,0.65669815364,0.254418755318,0.303506403129,1.0,-0.01424,-0.0187154285714,0.713
0.461277193871,0.519185216379,-0.124034957524,-1.4005903353,0.0767576499349,1.91061011752,0.153406186186,-0.0140053893562,-0.0747568446983,-0.000915453293017,-0.121964075412,-0.00552779041894,0.0466030662615,-0.0173620849341,0.573945260117,0.818878969326,0.00219519621469,0.0,0.818838916616,-0.57388559336,-0.0117856382879,0.0,-0.00839138141193,0.00856198816779,-0.999928135956,0.0,0.656444780118,0.254100841139,0.303509141385,1.0,-0.01458,-0.0191622857143,0.73
0.461086163749,0.517742204673,-0.124037130472,-1.40282567297,0.0766124191038,1.91141070389,0.153094296581,-0.00827632866188,-0.0834730045714,-0.000994713595635,-0.123793439368,-0.00569062525253,0.0436076501829,-0.0159483496821,0.573926887079,0.818891839573,0.00219778767661,0.0,0.818851839188,-0.573867231604,-0.011781886601,0.0,-0.00838701393875,0.00856176882257,-0.999928174476,0.0,0.656170671849,0.253758750494,0.303527332024,1.0,-0.01494,-0.0196354285714,0.748
0.460912089873,0.516478080938,-0.124044283193,-1.40483432693,0.076485338851,1.9121552518,0.152809224285,-0.0113446763554,-0.0760640295953,-0.000527092631262,-0.124413031577,-0.00287898440066,0.0521952478827,-0.0229163301511,0.573912987256,0.81890159515,0.00219258310573,0.0,0.818861567683,-0.573853394968,-0.011779684063,0.0,-0.00838834231217,0.0085561004402,-0.999928211852,0.0,0.655929394491,0.253448591459,0.303522838589,1.0,-0.01526,-0.020056,0.764
0.460725875322,0.515096103324,-0.124044595345,-1.4069961217,0.0763649302202,1.91298012402,0.152522822716,-0.0155129193171,-0.0778360453242,0.000972310261218,-0.120674167385,-0.00544323171794,0.0460967124175,-0.0176318449335,0.573912912695,0.818901531516,0.00223544721772,0.0,0.818861961429,-0.573853053715,-0.0117689322967,0.0,-0.00835493932824,0.00858503019553,-0.999928243548,0.0,0.655671368412,0.253124363874,0.303534471822,1.0,-0.0156,-0.0205028571429,0.781
0.460533755497,0.51368614873,-0.124048179137,-1.40924746475,0.0762290946244,1.91377053772,0.152206559057,-0.0167870025416,-0.0808923740113,0.000448474118506,-0.131521714737,-0.00437664615246,0.0412259263184,-0.00681619363989,0.573895263183,0.818914015929,0.00219278643834,0.0,0.818873792419,-0.573835469707,-0.0118030800013,0.0,-0.00840757088021,0.00856951204013,-0.999927935511,0.0,0.65538814013,0.252779422116,0.303519775771,1.0,-0.01594,-0.0209497142857,0.798
0.460364873765,0.512448113166,-0.124051065506,-1.411265636,0.0761041124005,1.91447213746,0.151925566594,-0.00948486354195,-0.0862380250993,0.000169786812381,-0.136028147634,-0.00234193838467,0.0466063816302,-0.0191253553001,0.573877322971,0.818926768013,0.00212455005557,0.0,0.818885579631,-0.573817721967,-0.0118480517619,0.0,-0.00848374560193,0.0085392560384,-0.999927550959,0.0,0.65513067857,0.25247132997,0.303487502558,1.0,-0.01624,-0.021344,0.813
0.46016653849,0.511010106647,-0.124062658785,-1.4135658202,0.0759644292359,1.91534222147,0.151600624126,-0.0140131495663,-0.088800279671,-0.000133642706271,-0.136343142575,-0.0101085102787,0.0490917483242,-0.012306740494,0.573868445541,0.818932961322,0.00213517545745,0.0,0.818891955005,-0.573808847579,-0.0118372027518,0.0,-0.00846885598643,0.00854163960042,-0.999927656819,0.0,0.654839454969,0.252094039762,0.303480812594,1.0,-0.0166,-0.0218171428571,0.831
0.459949380909,0.509435158864,-0.12406122252,-1.41606294141,0.0758004797482,1.91628078912,0.151250640337,-0.0150128183268,-0.0839233773494,0.00178425919506,-0.141739632137,-0.0112722987816,0.0508059942557,-0.0174627979921,0.57384060554,0.818952474308,0.00213334496753,0.0,0.818911493302,-0.573781067802,-0.0118321287379,0.0,-0.00846604115026,0.0085369409954,-0.999927720781,0.0,0.654550527541,0.251737339364,0.303470682326,1.0,-0.01694,-0.022264,0.848
0.459764565279,0.508102506204,-0.124069823677,-1.41816122122,0.0756654141818,1.91703202137,0.150953097066,-0.0091601302762,-0.0915494783304,0.000721113848399,-0.139391258242,-0.00763329007084,0.048548277217,-0.0164668405775,0.57382666144,0.818962289758,0.00211600473475,0.0,0.818921106666,-0.573767217843,-0.0118383988105,0.0,-0.00848127133809,0.00852619396098,-0.999927683412,0.0,0.654289775738,0.251409137867,0.303469693065,1.0,-0.01724,-0.0226582857143,0.863
0.459535891886,0.506472536657,-0.124081227756,-1.42071740312,0.0755097114376,1.91795970124,0.150610859213,-0.012391658107,-0.0955502622485,-0.001430620193,-0.146413354077,-0.0114506174258,0.0519342309961,-0.0186254959776,0.573831942184,0.818958591776,0.00211517995943,0.0,0.818917370951,-0.573772474074,-0.0118420627368,0.0,-0.00848469034082,0.00852767565539,-0.999927641771,0.0,0.653974378323,0.251008879127,0.303473604781,1.0,-0.0176,-0.0231314285714,0.881
0.459317572857,0.504876489414,-0.1240912324,-1.42317490028,0.0753638371091,1.91891477604,0.150265012037,-0.0100330342287,-0.0973470797505,-0.00119223661693,-0.150030229709,-0.0108626733351,0.0606704937901,-0.015307454633,0.573823885164,0.818964007,0.00220248846013,0.0,0.818923951075,-0.573764105136,-0.0117924091692,0.0,-0.00839401145574,0.00857060160753,-0.999928040091,0.0,0.653662130146,0.250609113172,0.303510624275,1.0,-0.01796,-0.0236045714286,0.899
0.459104907942,0.503320167459,-0.124095633226,-1.42548737165,0.0752177666556,1.91979172079,0.149939060362,-0.0151547623259,-0.0934689785617,-0.000584790834355,-0.141303999184,-0.00929508725675,0.0510824108818,-0.017579508298,0.573812034502,0.81897206047,0.0022934976076,0.0,0.818933237997,-0.573751961189,-0.0117382126684,0.0,-0.0082975292181,0.00861391495937,-0.999928473181,0.0,0.653405502289,0.250271389102,0.303564995373,1.0,-0.01826,-0.0239988571429,0.914
0.458881919389,0.501629983167,-0.12410354346,-1.42800602442,0.0750543645193,1.92070896961,0.149592008916,-0.0116721618599,-0.100260508701,5.493866412e-05,-0.14809371616,-0.00697291314278,0.0520624004785,-0.018364873882,0.573800578649,0.818979884526,0.00236465333143,0.0,0.818942041235,-0.573740300558,-0.0116939092853,0.0,-0.00822053783386,0.00864665241547,-0.999928826547,0.0,0.653093585214,0.249880473896,0.30362583131,1.0,-0.0186,-0.0244457142857,0.931
0.458631236483,0.499801495108,-0.124099718846,-1.43076150249,0.0748769171501,1.92168444393,0.149206638604,-0.0154091214916,-0.103338964092,2.05095155811e-06,-0.15022878175,-0.00977897199406,0.0522549121258,-0.0181721061,0.573779632369,0.818994440371,0.00240562287279,0.0,0.818957077357,-0.573719153316,-0.011678418812,0.0,-0.00818456573982,0.00867110767541,-0.999928909861,0.0,0.652743716648,0.249453918929,0.303674455778,1.0,-0.01896,-0.0249188571429,0.949
0.458413601761,0.498339283814,-0.124106777303,-1.43307669332,0.0747314140467,1.92255262439,0.148872854952,-0.0143249726261,-0.0954311430081,-0.0011405723526,-0.158536294801,-0.00888658145745,0.0579334002748,-0.021821635722,0.573768039046,0.819002537993,0.00241392430513,0.0,0.818965309414,-0.573707559736,-0.0116706803346,0.0,-0.00817358755854,0.00867335062425,-0.999928980206,0.0,0.652460372402,0.249087855033,0.303667733008,1.0,-0.01926,-0.0253131428571,0.964
0.458128315825,0.496561496463,-0.124099695869,-1.43591571377,0.0745593386807,1.92355807307,0.148452214771,-0.0191443664737,-0.0999773444742,0.000706510102672,-0.152251912601,-0.00869328133107,0.054163661291,-0.0279426696944,0.573749230004,0.819015841511,0.00237051181074,0.0,0.818977869329,-0.573688721151,-0.0117152752902,0.0,-0.00823521871461,0.00866319368231,-0.999928562572,0.0,0.652100093172,0.248633211485,0.303642597802,1.0,-0.01962,-0.0257862857143,0.982
0.457860351513,0.494885768453,-0.124100159033,-1.43863808704,0.0743868772718,1.92450388989,0.148058312578,-0.0153513753845,-0.0974798371725,-0.00129475876087,-0.164470265298,-0.00493242655037,0.0605526139137,-0.0279588582238,0.573736799812,0.819024797947,0.00228293459568,0.0,0.818985577132,-0.573676505137,-0.011774498072,0.0,-0.00833410042128,0.00862531941473,-0.999928070731,0.0,0.651749480426,0.248194039972,0.303596296945,1.0,-0.01996,-0.0262331428571,0.999
0.457598354605,0.493245790746,-0.124115990866,-1.44127860909,0.0742224031205,1.92546416009,0.147691757342,-0.0131353091478,-0.109499385986,-0.00478775467098,-0.174530589893,-0.00970034295774,0.0636483153538,-0.0285192795485,0.573750777961,0.819015115521,0.00224326516959,0.0,0.818975379433,-0.573690634017,-0.0117953900021,0.0,-0.00837382370981,0.0086049588056,-0.999927914282,0.0,0.651420958435,0.247761297668,0.303565147584,1.0,-0.02178,-0.0286251428571,1.015
0.457308958766,0.491306658177,-0.124131582966,-1.44434422112,0.0740384368066,1.92659538648,0.147257700808,-0.0127586917612,-0.124401428014,-0.0016975279063,-0.187585927543,-0.00398590493059,0.065134200383,-0.029555964747,0.573747380168,0.819017488556,0.00224590552526,0.0,0.818977738821,-0.57368717715,-0.0117997029813,0.0,-0.0083758771621,0.00860956106168,-0.999927857468,0.0,0.651037561025,0.247272953899,0.303553928258,1.0,-0.0239657142857,-0.0314977959184,1.032
0.456886045204,0.488688395882,-0.124141925075,-1.44857659946,0.0737712992844,1.92808258509,0.146645155868,-0.0224523366176,-0.128176672669,-0.000219766774841,-0.208340595829,-0.01122698225,0.0687077547701,-0.032488166341,0.573737566325,0.819024663359,0.00213370500705,0.0,0.81898332551,-0.573677675604,-0.011873666272,0.0,-0.00850093026167,0.00856000201918,-0.999927227627,0.0,0.65049299513,0.246582650348,0.303489382135,1.0,-0.0266657142857,-0.0350463673469,1.053
0.456612993986,0.487027380993,-0.124156117061,-1.45115598708,0.0736078772756,1.92907350291,0.146274297732,-0.0220031412121,-0.1371429342,-0.00138333540185,-0.221428969924,-0.0124693249485,0.0829402010566,-0.0286568749535,0.573751462676,0.819014784196,0.00218843476444,0.0,0.818974257102,-0.573691452525,-0.0118334443789,0.0,-0.00843644200319,0.00858189298436,-0.999927586158,0.0,0.65018380532,0.246153851546,0.30350208986,1.0,-0.0282085714286,-0.037074122449,1.065
0.456105624556,0.483885042958,-0.12418488896,-1.45593949603,0.0733135135757,1.93082490317,0.145544432266,-0.0271949341422,-0.15014077361,-0.00211802046152,-0.234539872884,-0.0233749376644,0.0753119025292,-0.0349675757328,0.573745914609,0.819018421085,0.00227997682443,0.0,0.81897907611,-0.573685541424,-0.0117864056069,0.0,-0.00834545424733,0.00862982152891,-0.99992793719,0.0,0.649591956546,0.245353456645,0.30355939357,1.0,-0.0309085714286,-0.0406226938775,1.086
0.455732493916,0.481647871893,-0.124221982915,-1.45944941268,0.0730918164655,1.93202987875,0.145015589696,-0.0270138807074,-0.159224589524,-0.00773536676881,-0.253324676287,-0.0195484270552,0.0939245249669,-0.0366325409674,0.573756508808,0.819011174302,0.00221627391486,0.0,0.818970978602,-0.573696357582,-0.0118225380391,0.0,-0.0084114844374,0.008598487715,-0.999927653852,0.0,0.649141284045,0.244749530343,0.303546159353,1.0,-0.0327085714286,-0.0429884081633,1.1
0.45522613265,0.478576340954,-0.124249826942,-1.46418166944,0.0728124790752,1.93377441279,0.144318846891,-0.0310176678976,-0.174428183648,0.000262381028778,-0.263160723568,-0.0148016530511,0.101310618154,-0.0327762515113,0.573775825864,0.818997436133,0.00229088683079,0.0,0.818958096275,-0.573715265668,-0.0117973465332,0.0,-0.00834784053891,0.00864533901738,-0.999927783228,0.0,0.648550533262,0.243958253277,0.303574372569,1.0,-0.0350228571429,-0.0460300408163,1.118
0.454768644052,0.475836103823,-0.124275715754,-1.46832829961,0.0725543609532,1.93530523039,0.143738437517,-0.0326454221083,-0.181622317201,-0.00374251199912,-0.28597413721,-0.0168566246689,0.0944597391619,-0.0380033812744,0.573824458144,0.818963071306,0.002392900599,0.0,0.81892509216,-0.57376354339,-0.0117403836604,0.0,-0.00824214022089,0.00869669307418,-0.999928214751,0.0,0.64803571936,0.243254186871,0.303631127698,1.0,-0.0369514285714,-0.0485647346939,1.133
0.454227023412,0.472609999472,-0.124290692081,-1.47331805614,0.0722442723381,1.93706236073,0.143004224427,-0.0303800401123,-0.196808568679,-0.000114506092988,-0.298725707611,-0.0213173502586,0.101441777613,-0.0429456171758,0.573832718646,0.818957292303,0.00238983196668,0.0,0.818919086774,-0.57377161763,-0.0117646512991,0.0,-0.00826368832106,0.00870818851022,-0.999927936858,0.0,0.647387462796,0.242416448007,0.303640145828,1.0,-0.0391371428571,-0.0514373877551,1.15
0.453686468278,0.469402886571,-0.124297537259,-1.4781905017,0.0719395881065,1.93884855448,0.142248273917,-0.0371396725883,-0.207159274171,4.11040022304e-05,-0.305872892432,-0.0230850804835,0.116176471701,-0.047093446191,0.573810753594,0.818972370736,0.00249438019027,0.0,0.818935436278,-0.573749176577,-0.0117209421955,0.0,-0.00816813649881,0.00876850782433,-0.99992819483,0.0,0.646766995337,0.241601056725,0.3036915574,1.0,-0.0411942857143,-0.0541410612245,1.166
0.453098159019,0.465828986621,-0.124298860345,-1.4835901947,0.0715804166101,1.94085970141,0.141370344034,-0.0341226181592,-0.212026006889,-0.000966343510979,-0.328337632601,-0.0284651510575,0.113943375236,-0.0544752047912,0.573731762314,0.819027243881,0.00264302736827,0.0,0.818992340565,-0.573669779167,-0.0116308842248,0.0,-0.00800994034003,0.00883779702906,-0.99992886457,0.0,0.646078466275,0.240707730855,0.303761782702,1.0,-0.04338,-0.0570137142857,1.183
0.452451739076,0.46211088308,-0.124299596812,-1.48939758969,0.0712009741765,1.94284609251,0.140517506015,-0.0365474871767,-0.223914289331,0.00158006179111,-0.349416393034,-0.0183661900824,0.122517724006,-0.0506602597793,0.573731084505,0.819027997582,0.00255514199367,0.0,0.818991700182,-0.573669133725,-0.0117075593277,0.0,-0.00812316917484,0.00880980041153,-0.999928198192,0.0,0.645296227603,0.239727484261,0.303732488529,1.0,-0.0455657142857,-0.0598863673469,1.2
0.451779023959,0.458244374085,-0.124311423139,-1.49537817198,0.0707887791475,1.944956,0.139606985367,-0.03953954542,-0.228656322715,-0.000857650520757,-0.351702487818,-0.020190145921,0.128787941265,-0.0622594957823,0.573708981104,0.81904354184,0.00253544306487,0.0,0.819007045771,-0.573647165914,-0.0117104619195,0.0,-0.00813708514275,0.00879511224355,-0.999928214346,0.0,0.644503495374,0.238709274284,0.303730492061,1.0,-0.0477514285714,-0.0627590204082,1.217
0.451045461126,0.454273368586,-0.124333538611,-1.50164709329,0.0703669568897,1.94716684859,0.138632420009,-0.0449973020277,-0.237043656276,-0.00119410510596,-0.374553201668,-0.0339362602181,0.130633281256,-0.0613416264536,0.573700083205,0.819050043184,0.00244707826069,0.0,0.819012374176,-0.573638565757,-0.0117589848334,0.0,-0.00822761697899,0.00875048642742,-0.999927865051,0.0,0.643671767149,0.237619603743,0.303668915631,1.0,-0.0499371428571,-0.0656316734694,1.234
0.450236009591,0.449736821374,-0.124396129449,-1.50842931902,0.0699038106093,1.94968692491,0.137563173726,-0.0467514818499,-0.255874302251,-0.00331990619524,-0.385022711736,-0.025543116105,0.146093554106,-0.0612729252245,0.573714582311,0.819039247491,0.0026525487014,0.0,0.819004683831,-0.573652807567,-0.0115987557516,0.0,-0.00797834778078,0.00882699506891,-0.999929212557,0.0,0.642808638563,0.236419314654,0.30377425767,1.0,-0.0522514285714,-0.0686733061224,1.252
0.449509703791,0.4458634989,-0.124421273482,-1.51439071661,0.0695014519676,1.95166322461,0.136689359192,-0.0499351810062,-0.259468148582,0.000306778783237,-0.400246626903,-0.0238580035315,0.127652726886,-0.0572124709804,0.573768876081,0.819001533248,0.002551916679,0.0,0.818965482175,-0.573707244738,-0.0116740413675,0.0,-0.00809716058788,0.00878830247028,-0.999928598316,0.0,0.64198886245,0.235357698444,0.303763441747,1.0,-0.05418,-0.071208,1.267
0.448623529861,0.441090194722,-0.124445032889,-1.52179760705,0.0689875218796,1.95420416601,0.135525758424,-0.0544860061015,-0.270744989459,-0.00314985790251,-0.409560196778,-0.0260598095285,0.143455952547,-0.0617995865412,0.573746227607,0.819017691692,0.0024564004651,0.0,0.81898035202,-0.573684891701,-0.0117292344381,0.0,-0.00819740850549,0.00874151603043,-0.999928191617,0.0,0.640972792626,0.234058020607,0.303725599646,1.0,-0.0564942857143,-0.0742496326531,1.285
0.447785201673,0.436733438175,-0.124439267106,-1.5285351622,0.0685568430245,1.95658437684,0.134423977981,-0.0562114536,-0.279254510268,0.00108712556278,-0.431409017121,-0.0212737361026,0.146810735361,-0.0701681348928,0.573704490455,0.81904690302,0.00246478914772,0.0,0.81900930404,-0.573642736085,-0.0117693726815,0.0,-0.00822591822908,0.00877099607053,-0.999927699335,0.0,0.640054037255,0.232883243912,0.303701783698,1.0,-0.0585514285714,-0.0769533061224,1.301
0.446894279936,0.432155187548,-0.124474727153,-1.53533852408,0.0680811658856,1.95910074638,0.133307340433,-0.0549422568949,-0.282421348169,-0.00336015207904,-0.427666248434,-0.030914281069,0.153903171661,-0.0714665907661,0.573710023567,0.819042323716,0.00268844238712,0.0,0.819007989694,-0.573647865777,-0.0116097290024,0.0,-0.00796679356768,0.00886264432782,-0.999928989347,0.0,0.639166710505,0.23164897878,0.303805116365,1.0,-0.0606085714286,-0.0796569795918,1.317
0.445839893157,0.426939851249,-0.124530232993,-1.54348445156,0.0674785228146,1.96176175063,0.13202335335,-0.0609496949849,-0.293176416172,-0.00140013633394,-0.466682145661,-0.0328853460538,0.144789020999,-0.0742132521613,0.573742881063,0.819020133189,0.00242379071473,0.0,0.818982451867,-0.573681752722,-0.0117361419756,0.0,-0.00822181035382,0.0087187378347,-0.999928190144,0.0,0.638016904676,0.230143119835,0.303712059174,1.0,-0.0629228571429,-0.0826986122449,1.335
0.44479905761,0.421779952681,-0.124592874663,-1.55133499035,0.0669061761259,1.96439566731,0.130711817327,-0.0628357847058,-0.309472888838,-0.000655082529017,-0.466422985341,-0.0385828144569,0.15361242219,-0.0808537462271,0.573725626111,0.819032473776,0.00233660974671,0.0,0.818993798543,-0.57366497135,-0.0117645864925,0.0,-0.00829530692488,0.00866348044238,-0.999928063407,0.0,0.636983526787,0.22876920402,0.303705424016,1.0,-0.06498,-0.0854022857143,1.351
0.443713554209,0.416484677128,-0.124622691636,-1.55922705694,0.0663746134298,1.96726191927,0.129450818277,-0.0656616284484,-0.314514655086,-0.000978500459626,-0.464001172844,-0.0298627090911,0.178136378637,-0.0707309766912,0.573799523602,0.818980019456,0.00256541369871,0.0,0.818944402923,-0.573738122997,-0.0116352069873,0.0,-0.00805728153227,0.00877737640777,-0.99992901642,0.0,0.635856648881,0.227229486624,0.303797287752,1.0,-0.0672942857143,-0.0884439183673,1.369
0.442645976572,0.411414884323,-0.124639744943,-1.56688466041,0.0658364442523,1.96996433996,0.128121465386,-0.0643928134325,-0.313316190174,-0.000486054690218,-0.489449029544,-0.0341665161811,0.170925075992,-0.0783147845757,0.573762449202,0.819005726906,0.00264916638986,0.0,0.818971214005,-0.573700784596,-0.0115891020433,0.0,-0.00797186558991,0.00881915238286,-0.999929333458,0.0,0.634796190516,0.225812778065,0.30382005027,1.0,-0.0693514285714,-0.0911475918367,1.385
0.441418086005,0.405542323212,-0.124697454484,-1.57591596017,0.0651943443821,1.97287414766,0.126679703716,-0.0687987394797,-0.335142488767,-0.00435699844648,-0.511634765961,-0.0326565942333,0.168173194176,-0.0806399545128,0.57381486027,0.818969704409,0.00242410724153,0.0,0.818931986206,-0.573753678275,-0.0117416155173,0.0,-0.00822534530648,0.00872286036756,-0.999928125118,0.0,0.633474304465,0.224123294418,0.303744383302,1.0,-0.0716657142857,-0.0941892244898,1.403
0.440326510902,0.400522216926,-0.124709738893,-1.58347510767,0.0646808321099,1.97548805458,0.125391307684,-0.073947013163,-0.350061310182,0.00099098497079,-0.49777028833,-0.0387825143959,0.178373397012,-0.0844837513939,0.573820894704,0.818965277033,0.00249052540879,0.0,0.818928153192,-0.573759181036,-0.0117400591126,0.0,-0.00818589654849,0.00877642157066,-0.999927980168,0.0,0.632400786508,0.222709033915,0.303759096745,1.0,-0.0735942857143,-0.0967239183673,1.418
0.43895927331,0.394296549044,-0.124736965263,-1.59265005949,0.0639831196326,1.97872588432,0.123826350746,-0.0727234243281,-0.352230053839,-0.00119277141043,-0.509577517843,-0.0439565800181,0.173461476429,-0.0788241032979,0.573840870535,0.818950633611,0.00269479360248,0.0,0.818916631519,-0.573778952836,-0.011576303611,0.0,-0.00793435808673,0.00884993783002,-0.999929359786,0.0,0.631115842503,0.220956576337,0.303862627065,1.0,-0.0759085714286,-0.0997655510204,1.436
0.437726132052,0.388697430899,-0.124749756737,-1.60114936436,0.0633532224326,1.98146352191,0.12239176952,-0.0748616329983,-0.350487803513,0.00168682283711,-0.536673402818,-0.0413371265199,0.171644362676,-0.0954375649901,0.573833075382,0.818956576784,0.00254437420862,0.0,0.81892035465,-0.573771383474,-0.011687563801,0.0,-0.00811187431041,0.00879051975371,-0.99992845957,0.0,0.629843726349,0.219349955097,0.303815358651,1.0,-0.0779657142857,-0.10246922449,1.452
0.436438300509,0.38295239498,-0.124769767453,-1.60973890522,0.0627279709439,1.98429581121,0.120811841915,-0.0816250804326,-0.367600809181,-0.000337161418903,-0.535731077778,-0.0361003232494,0.18634167506,-0.0991293727228,0.573756139806,0.819010532861,0.00252705338202,0.0,0.818973850502,-0.573694265516,-0.0117247093371,0.0,-0.00815306137962,0.00879688397558,-0.999928068624,0.0,0.628570276325,0.217706585757,0.303822869844,1.0,-0.0800228571429,-0.105172897959,1.468
0.435022102165,0.376743596927,-0.124776031319,-1.61893018218,0.0620682813468,1.98747693048,0.119207641492,-0.08579790361,-0.368331850072,-0.00236291483697,-0.553647041764,-0.0385163796305,0.184634254697,-0.095232320876,0.573761718344,0.819006110905,0.00268845018004,0.0,0.818971416716,-0.573699153517,-0.011655331718,0.0,-0.00800358040286,0.00888931815405,-0.999928458803,0.0,0.627229382149,0.215948852868,0.30387496076,1.0,-0.0822085714286,-0.10804555102,1.485
0.433435058244,0.37003275072,-0.124823988664,-1.62904620986,0.0612651364055,1.99072561323,0.117423352171,-0.0887742589638,-0.374702420007,-0.000572118913559,-0.566710960162,-0.0492973292036,0.180556657103,-0.0918045850007,0.573771883312,0.818999547445,0.00251278854578,0.0,0.818962688339,-0.573710068135,-0.0117311436398,0.0,-0.00816634647167,0.00878904965872,-0.999928029106,0.0,0.625699322561,0.213949548361,0.303819422675,1.0,-0.0845228571429,-0.111087183673,1.503
0.432082909221,0.364256845624,-0.124869346838,-1.63746238871,0.0606105926585,1.9935376112,0.115939838486,-0.0896371260441,-0.388050226959,-0.00258822901544,-0.553632165083,-0.0504158948368,0.19126822818,-0.105552690941,0.573812955876,0.818970342511,0.00264889722837,0.0,0.81893553633,-0.573750965455,-0.0116260000106,0.0,-0.00800169592597,0.00884059571235,-0.999928905838,0.0,0.624367099894,0.212166617751,0.303911211154,1.0,-0.08658,-0.113790857143,1.519
0.430381036438,0.357300029072,-0.124881234798,-1.64776369529,0.0598376815548,1.99696296192,0.113980996966,-0.100865413063,-0.3923429215,-0.000307628721596,-0.571291720935,-0.0450258937886,0.186109147878,-0.108417413062,0.573745959558,0.819017164966,0.00268407968138,0.0,0.818982604542,-0.573683623364,-0.011633599733,0.0,-0.00798845911723,0.00887311624515,-0.999928723624,0.0,0.622888313471,0.210238158916,0.303912438565,1.0,-0.0887657142857,-0.116663510204,1.536
0.42859704825,0.350264588437,-0.124935417095,-1.65840871919,0.059031601962,2.0003152067,0.11203760008,-0.102532404698,-0.389488921535,-0.00421313584571,-0.588898506696,-0.045221043458,0.190726412246,-0.111474051099,0.573786637987,0.818989390011,0.0024535722805,0.0,0.818951392027,-0.573724645692,-0.0118065796534,0.0,-0.00826194764922,0.00878398319888,-0.999927288287,0.0,0.621229587846,0.208082157957,0.303796389622,1.0,-0.09108,-0.119705142857,1.554
0.427167739693,0.344535398891,-0.124974581791,-1.66655447192,0.0584252030447,2.00311747459,0.110489100006,-0.101474460667,-0.40629597676,0.00207412163389,-0.581838528706,-0.0483119426049,0.195385105253,-0.0976895583438,0.573820220851,0.818964856205,0.00276863579023,0.0,0.818931066875,-0.573757221865,-0.0116320662457,0.0,-0.00793788150972,0.00894220884876,-0.999928510914,0.0,0.61992290104,0.206300900703,0.303940842809,1.0,-0.0930085714286,-0.122239836735,1.569
0.425160908116,0.336783114704,-0.124980633857,-1.67800789494,0.0575094181449,2.00670294112,0.10830846031,-0.106854674035,-0.411192700662,0.000250836937554,-0.605343360725,-0.04669813822,0.188780463148,-0.116008826667,0.573782677754,0.818991554759,0.00264931005823,0.0,0.818955978225,-0.573719834228,-0.0117219641718,0.0,-0.00808038350688,0.00889569957117,-0.999927784358,0.0,0.618199966115,0.204084731819,0.303909430028,1.0,-0.0953228571428,-0.125281469388,1.587
0.423327910384,0.329676695487,-0.12498498395,-1.68840914127,0.0566308975689,2.00996868209,0.106318375242,-0.106994381109,-0.42299952302,-0.00204746543944,-0.59177316901,-0.0497966839452,0.200809313098,-0.117354414888,0.573725505682,0.819031822748,0.00258154158795,0.0,0.81899549573,-0.573663055627,-0.0117398247008,0.0,-0.0081345116024,0.00884987818322,-0.999927752079,0.0,0.616537556793,0.201962149361,0.303907995412,1.0,-0.0975085714286,-0.128154122449,1.604
0.421537601466,0.322875464118,-0.124988118362,-1.69821516035,0.055882225182,2.01321981241,0.104372029499,-0.115513970718,-0.426952299541,-0.000997556495178,-0.615846262757,-0.0463564947779,0.203953229423,-0.114883804604,0.573684844174,0.819059632573,0.00278653089705,0.0,0.819025805744,-0.573621497431,-0.011655647177,0.0,-0.00794840909994,0.00896908153031,-0.999928186606,0.0,0.614998401267,0.199953482405,0.303975070597,1.0,-0.0995657142857,-0.130857795918,1.62
0.419546430515,0.315570452219,-0.125032292016,-1.70892887282,0.0550076526772,2.01648849225,0.102297606921,-0.12192079451,-0.436141965628,-0.0049280335616,-0.630846148453,-0.0497287596259,0.187289354476,-0.12494406826,0.573712737526,0.819040562576,0.00264547838417,0.0,0.819004644456,-0.573649595872,-0.0117592693417,0.0,-0.0081138971888,0.00891327329691,-0.999927356477,0.0,0.613252482367,0.197695772301,0.303930197276,1.0,-0.101751428571,-0.13373044898,1.637
0.417510791728,0.308091097394,-0.125093173669,-1.71955071838,0.0540737665243,2.01992207086,0.100095169861,-0.123562628538,-0.448814937021,0.000611993166825,-0.62079261592,-0.0607673031225,0.202799772973,-0.129936380559,0.573651709163,0.819082717778,0.00282221789737,0.0,0.819049879818,-0.573588843113,-0.0115706667131,0.0,-0.00785869174326,0.00894924226642,-0.999929073498,0.0,0.611563619487,0.195422827937,0.304040312571,1.0,-0.103937142857,-0.136603102041,1.654
0.415471258378,0.30102460166,-0.125111998491,-1.7298363495,0.0532372319302,2.0230669835,0.0979669715431,-0.129817928404,-0.442803428772,-0.00200319882836,-0.657311561012,-0.0546965158245,0.194260820053,-0.131402576879,0.573635486838,0.819094324819,0.00274994360276,0.0,0.81906017806,-0.573572446229,-0.0116542071671,0.0,-0.00796875649486,0.00893780817944,-0.999928304682,0.0,0.609869332658,0.193210580174,0.304004494915,1.0,-0.105994285714,-0.13930677551,1.67
0.413108080119,0.292951562185,-0.125225953513,-1.74149321951,0.0523025702998,2.02658164513,0.095617001747,-0.12842884627,-0.458795703577,-0.0107352579268,-0.639687760251,-0.0499105136547,0.207003069248,-0.1339443857,0.573776356496,0.818995880339,0.00268097274348,0.0,0.818960456338,-0.573713114912,-0.0117379569991,0.0,-0.00807538467838,0.00893074480559,-0.999927512353,0.0,0.607942938169,0.190628539365,0.30398652023,1.0,-0.108308571429,-0.142348408163,1.688
0.410825830423,0.285178457048,-0.125277821292,-1.75254883117,0.0513551446251,2.03008597334,0.0932705918855,-0.139556014149,-0.463211724676,-0.00169460169748,-0.666464452262,-0.0494733202698,0.195848043533,-0.142975795317,0.573771041641,0.818999118704,0.00282528547292,0.0,0.818965897572,-0.57370766879,-0.0116239531788,0.0,-0.00789927155241,0.00898347313631,-0.9999284468,0.0,0.606129204396,0.188201460175,0.304040646104,1.0,-0.110494285714,-0.145221061224,1.705
0.408588788716,0.277829691789,-0.125316467625,-1.76323807551,0.0504050513227,2.03312926386,0.0909594234866,-0.143127478724,-0.460296314634,-0.00434391147624,-0.672019259857,-0.0599502278667,0.19398232108,-0.145777053406,0.573722594294,0.819033983209,0.00254284205496,0.0,0.818996785976,-0.573659889314,-0.0118043574779,0.0,-0.00820960149281,0.00885517655603,-0.999927091488,0.0,0.604283361955,0.185828473988,0.303942640107,1.0,-0.112551428571,-0.147924734694,1.721
0.406123005624,0.269819453795,-0.125406914526,-1.77441641996,0.0494362102098,2.03666587044,0.0885180150688,-0.145417133052,-0.464599832924,-0.00318071846711,-0.66138311835,-0.0540475137206,0.204545968337,-0.137868698931,0.573794692163,0.818982612898,0.0028067627081,0.0,0.818949368984,-0.573731625438,-0.0116060291681,0.0,-0.00789495956516,0.00895824695645,-0.999928707171,0.0,0.602441502489,0.183279830944,0.304060123701,1.0,-0.114737142857,-0.150797387755,1.738
0.403565692066,0.261759981318,-0.125515661094,-1.78593164232,0.0484455668375,2.04000176446,0.0860289659355,-0.150515507106,-0.47135117788,-0.00952519831169,-0.678282557335,-0.062850736169,0.182983856872,-0.149012015367,0.573906753534,0.818904498854,0.00268456806381,0.0,0.818869370998,-0.57384375856,-0.0117064471577,0.0,-0.00804609452748,0.00891689132332,-0.999927872105,0.0,0.600456121155,0.180630675591,0.304016809265,1.0,-0.116922857143,-0.153670040816,1.755
0.401090510207,0.254010528656,-0.125578667978,-1.79670456748,0.047454778852,2.0431725147,0.0836379449254,-0.155874538333,-0.491834529794,-0.00516280791984,-0.675863662676,-0.0602747292676,0.200791694312,-0.147450021633,0.573962919446,0.818864885272,0.00275928819018,0.0,0.818831062995,-0.573900033393,-0.011627073854,0.0,-0.00793759973641,0.00893307212505,-0.999928594817,0.0,0.598601107088,0.178134187006,0.304094021118,1.0,-0.11898,-0.156373714286,1.771
0.398432353709,0.245792774598,-0.125557073514,-1.80832868431,0.0464384325011,2.04657800213,0.0809755879458,-0.157704290938,-0.491885831276,0.000390648489918,-0.696952494182,-0.0541731405866,0.189602427817,-0.156745731427,0.573883289713,0.818920719864,0.00275159353968,0.0,0.818886347775,-0.573819934887,-0.0116866870883,0.0,-0.00799170484246,0.00896020932813,-0.999927921054,0.0,0.596546965497,0.175519799415,0.304067161399,1.0,-0.121165714286,-0.159246367347,1.788
0.395699896917,0.237413148169,-0.125570799101,-1.82000513256,0.0454179542752,2.04991784355,0.0782333167671,-0.163731122897,-0.504899306954,-0.000117812607651,-0.666710186408,-0.059450737187,0.200506510592,-0.158707302497,0.573814104054,0.818969077987,0.00278750610894,0.0,0.818934683232,-0.573750082847,-0.0117291915356,0.0,-0.00800666746968,0.00901333449924,-0.999927323898,0.0,0.59446091436,0.172848177164,0.304092167735,1.0,-0.123351428571,-0.162119020408,1.805
0.393405144525,0.230443899855,-0.125557850426,-1.82963892867,0.044510476445,2.05282315168,0.0760217906715,-0.167006844832,-0.499071496786,9.63058099983e-05,-0.698159166175,-0.0710597375349,0.206285301866,-0.163172980375,0.573778533365,0.818993379258,0.00296416657616,0.0,0.818961675602,-0.573714372927,-0.0115904742346,0.0,-0.00779208671395,0.00907807891448,-0.999928433373,0.0,0.592886066592,0.170809618308,0.304154650486,1.0,-0.125022857143,-0.164315755102,1.818
0.389953280707,0.220357864884,-0.125577424486,-1.84376706615,0.0431810504366,2.05662229611,0.0726104372688,-0.174215972461,-0.515506151722,-0.00413717898571,-0.693084051744,-0.0691204373447,0.197380066539,-0.169483663805,0.573674110783,0.819067392722,0.00271435054002,0.0,0.819031895752,-0.573610200513,-0.0117829754104,0.0,-0.00809422762935,0.00898290055814,-0.999926892816,0.0,0.590148418112,0.167335482162,0.304076596885,1.0,-0.127722857143,-0.167864326531,1.839
0.386719143426,0.211155074021,-0.125674142434,-1.85628087024,0.0420404309056,2.06028702888,0.069557109489,-0.180292715474,-0.510732155116,-0.00311070647999,-0.70356019797,-0.0711774343916,0.19440514236,-0.174090605728,0.573763751754,0.819003677611,0.00297995530009,0.0,0.818971894469,-0.573699210063,-0.0116189217797,0.0,-0.00780649196489,0.00910719113083,-0.999928056289,0.0,0.587914323683,0.164297979277,0.304183280441,1.0,-0.130037142857,-0.170905959184,1.857
0.383946150786,0.203471404141,-0.125704246384,-1.86704464601,0.0410055364814,2.06305806294,0.0668874356513,-0.183867399191,-0.508012238369,-0.000595514100736,-0.711407119295,-0.07285344195,0.177820331591,-0.186758719883,0.57370550407,0.819045498161,0.0026857855545,0.0,0.819009246998,-0.573641271724,-0.0118444758495,0.0,-0.00816064429926,0.00899509737579,-0.999926243334,0.0,0.585739228646,0.161538661023,0.304075232301,1.0,-0.132094285714,-0.173609632653,1.873
0.380708849556,0.194551888729,-0.125793721439,-1.87903440468,0.0398710407439,2.06645924383,0.063819441808,-0.190510173038,-0.51780631234,-0.00931589593658,-0.701619145209,-0.0653944835284,0.197448485894,-0.174984607945,0.573759778468,0.81900657978,0.00294716655146,0.0,0.818974080515,-0.573695009134,-0.0116721395051,0.0,-0.00786893581451,0.00911083260504,-0.999927533664,0.0,0.583681475692,0.158745510992,0.304194704982,1.0,-0.134151428571,-0.176313306122,1.889
0.377326411586,0.185637513584,-0.125920232945,-1.89131575099,0.0387245986301,2.06968851375,0.0606387468551,-0.199156561811,-0.529355347962,-0.00868370529621,-0.718697699288,-0.0628160003118,0.184904361106,-0.185860968799,0.573841859737,0.818949489985,0.00282838616023,0.0,0.818914831218,-0.573776791607,-0.0118084514105,0.0,-0.00804781786909,0.00909256615309,-0.999926276217,0.0,0.581361294797,0.15565992948,0.304132446579,1.0,-0.136337142857,-0.179185959184,1.906
0.374054984337,0.177077205466,-0.126033787156,-1.90270490408,0.037602384876,2.07278783454,0.0576321300516,-0.205447116367,-0.543005151731,-0.00953320223254,-0.711730136746,-0.0764120146079,0.197721510552,-0.181568280792,0.573942842661,0.818878063337,0.00301291300076,0.0,0.818846190707,-0.573877563253,-0.011670700967,0.0,-0.00782798854753,0.00916560408874,-0.99992735451,0.0,0.57923300712,0.152742268022,0.304238295779,1.0,-0.138394285714,-0.181889632653,1.922
0.370548765956,0.168007356518,-0.126019938495,-1.9150674981,0.0363205497402,2.07598734578,0.0543021562446,-0.205409336929,-0.540722751164,0.00129510198889,-0.722919108478,-0.0724825552233,0.177978787849,-0.204545703493,0.573811377133,0.818970646647,0.0028862267325,0.0,0.818937089512,-0.573746504382,-0.0117362272975,0.0,-0.00795581633452,0.00909819403634,-0.999926961259,0.0,0.576826856505,0.14968316153,0.304181992751,1.0,-0.14058,-0.184762285714,1.939
0.366922657928,0.158732998062,-0.126052115821,-1.92735324863,0.0351045559099,2.07920626234,0.0508813085393,-0.212325777255,-0.563101964928,0.000373816076264,-0.712728978513,-0.0684243924744,0.203090871083,-0.197585077096,0.573750873209,0.819012476398,0.00304070667052,0.0,0.818980885248,-0.573685432971,-0.011665354488,0.0,-0.00780981210753,0.00918346477472,-0.999927332765,0.0,0.574445768311,0.146570840701,0.304260629153,1.0,-0.142765714286,-0.187634938775,1.956
0.363394189351,0.150043899588,-0.126099250516,-1.93903150062,0.0338687112974,2.08218311952,0.0476683232604,-0.219512040088,-0.552664985859,-0.00282519553831,-0.738364818278,-0.0732197155563,0.1786635298,-0.212364197081,0.573759731388,0.819006507644,0.00297623500615,0.0,0.818974256964,-0.573694714248,-0.0116742526664,0.0,-0.00785398982793,0.0091358518202,-0.999927422894,0.0,0.57214956477,0.143562366017,0.304231134625,1.0,-0.144822857143,-0.190338612245,1.972
0.359505000771,0.140633947792,-0.126177936156,-1.95152735618,0.0326455612684,2.08519180256,0.0441220303267,-0.229169638079,-0.564072373482,-0.00741315093875,-0.718666513042,-0.0725192010982,0.190308094019,-0.20223511747,0.573821143456,0.818963644895,0.00293096647185,0.0,0.818929949547,-0.57375528585,-0.0118049394223,0.0,-0.00798631247241,0.00917435669741,-0.99992602226,0.0,0.56964451782,0.140294132165,0.304226259498,1.0,-0.147008571429,-0.193211265306,1.989
0.35554528587,0.131161342441,-0.126278513201,-1.9639541629,0.0313345745012,2.08837296579,0.0404218218452,-0.235814007516,-0.559975321423,-0.000819689326927,-0.731619194739,-0.0788311617181,0.17300879882,-0.222121692646,0.57378131062,0.818991044117,0.00306987632802,0.0,0.818959583027,-0.57371547557,-0.011683379704,0.0,-0.00780749810367,0.0092179870314,-0.999927033182,0.0,0.567181045379,0.137002414975,0.304278915426,1.0,-0.149194285714,-0.196083918367,2.006
0.350911049604,0.12040617087,-0.126432014027,-1.97801916572,0.0297979434556,2.09168659185,0.0363164304893,-0.245949380295,-0.584423282277,-0.0132275303752,-0.714294396414,-0.0837057609978,0.181801808161,-0.216603032456,0.57391981532,0.818894195109,0.00301491290134,0.0,0.818862189651,-0.573854346338,-0.0116897583474,0.0,-0.007842705377,0.009177958836,-0.999927125867,0.0,0.564321750781,0.133182053428,0.304301763333,1.0,-0.151637142857,-0.199294530612,2.025
0.347144721833,0.111912289121,-0.126505547836,-1.98911145235,0.0286075866723,2.09441534281,0.032840162426,-0.253780836771,-0.557967217764,-0.00716754371221,-0.75850445459,-0.0831484267668,0.17502028379,-0.240217629158,0.573882520109,0.818920056657,0.00308882169432,0.0,0.818889178657,-0.573817007914,-0.0116319133475,0.0,-0.00775333799071,0.00920493162927,-0.999927574869,0.0,0.562068081065,0.130167175672,0.304312348211,1.0,-0.153565714286,-0.20182922449,2.04
0.342570066512,0.101585240209,-0.126505682611,-2.00251849352,0.0271070744018,2.09743537604,0.0286818500875,-0.25907329179,-0.584007084084,-5.87445776754e-05,-0.711423702384,-0.0852198636823,0.176490260596,-0.241014491775,0.573775767953,0.818995192647,0.00299823808756,0.0,0.818963013389,-0.573710424544,-0.011690952548,0.0,-0.0078548647187,0.00916360780325,-0.999927162043,0.0,0.559245603863,0.126572293021,0.304306565133,1.0,-0.15588,-0.204870857143,2.058
0.33946956197,0.0946092066728,-0.126505668694,-2.01137900568,0.0261930070812,2.09953841009,0.0258140873997,-0.26119170018,-0.572091644298,-7.80520223391e-05,-0.749022116938,-0.0657128236154,0.16998410679,-0.238866062379,0.573686983787,0.819056805212,0.00315299370842,0.0,0.819026251038,-0.573620679519,-0.0116646063213,0.0,-0.00774550191896,0.00927439599496,-0.999926993725,0.0,0.556910558294,0.123577184277,0.304351811792,1.0,-0.157808571429,-0.20740555102,2.073
0.334076161504,0.0830422365838,-0.126593618524,-2.02642669448,0.0245720260081,2.10274080164,0.020946660055,-0.280377639356,-0.582220088423,-0.00261196398462,-0.735336189717,-0.093023907938,0.160102224124,-0.243254958138,0.573684719973,0.819059049334,0.00297702450871,0.0,0.819025244948,-0.573617898213,-0.0118702101439,0.0,-0.0080148828056,0.00924819446631,-0.999925113472,0.0,0.554151530807,0.120030596635,0.304283875018,1.0,-0.159994285714,-0.210278204082,2.09
0.329047668963,0.0724346298806,-0.126743572583,-2.03970511343,0.0230287775313,2.10585068856,0.016459557803,-0.284858745458,-0.575345108877,-0.011905640233,-0.762681754296,-0.0869474767913,0.161060271702,-0.247434412486,0.57373420024,0.819023321392,0.00325782014514,0.0,0.818994318087,-0.573667781291,-0.0115901057154,0.0,-0.00762380720575,0.00931795562109,-0.999927524007,0.0,0.551362393338,0.116211978747,0.304414578378,1.0,-0.162308571429,-0.213319836735,2.108
0.324404006468,0.0630055637522,-0.126898452501,-2.05187781705,0.0216622216879,2.10824087907,0.0123299070559,-0.291035900534,-0.597529815029,-0.00726919556006,-0.760253308215,-0.0867478386989,0.14294176115,-0.262316483664,0.573811724391,0.818970070631,0.00297913822617,0.0,0.818936360955,-0.57374495528,-0.0118621202532,0.0,-0.00800561006607,0.00924652631944,-0.999925203182,0.0,0.548670823579,0.112703404225,0.304300666474,1.0,-0.164365714286,-0.216023510204,2.124
0.319341590624,0.0528103263954,-0.127004874834,-2.0644782994,0.0201908648679,2.11100887659,0.00784790184423,-0.298994207519,-0.585689975603,-0.00138891238877,-0.748526330749,-0.0832672501393,0.157358438113,-0.268762526174,0.573848451729,0.818943396481,0.00322718293588,0.0,0.818913635984,-0.573781677852,-0.0116528907351,0.0,-0.00769150756312,0.00932995704911,-0.999926893634,0.0,0.545945011628,0.109004754188,0.304420199988,1.0,-0.166551428571,-0.218896163265,2.141
0.314234150538,0.0426602271312,-0.127024391581,-2.07741266889,0.0187403931595,2.11351402111,0.00332278172776,-0.304162616369,-0.6035189699,-0.00270269318603,-0.775805355917,-0.0886573360587,0.139241333515,-0.275078832654,0.573809971346,0.818971105475,0.00303184458787,0.0,0.818937526265,-0.573742364666,-0.0119068872304,0.0,-0.00801205317153,0.00931536127686,-0.999924512675,0.0,0.543009537863,0.105337225454,0.304307721669,1.0,-0.168737142857,-0.221768816327,2.158
0.308919651242,0.0322696747474,-0.127084664713,-2.09003705762,0.0171847087277,2.116147504,-0.00141584525759,-0.313350011409,-0.603870972941,-0.00491995376234,-0.74067559394,-0.0988444747183,0.152250755416,-0.27942621499,0.573735908445,0.819022017999,0.00328455379355,0.0,0.818992832802,-0.573668756905,-0.0116466334866,0.0,-0.00765475074704,0.00937229830543,-0.999926779727,0.0,0.540201800059,0.101587895775,0.304448245897,1.0,-0.16998,-0.223402285714,2.175
0.303799267661,0.0226563026513,-0.127159991397,-2.10206485183,0.0157640274693,2.11834230882,-0.00594197529756,-0.319067921657,-0.592957472702,-0.00388924407969,-0.761830059237,-0.0876062594015,0.13050367829,-0.282988273041,0.573727952188,0.819028248659,0.00311635653687,0.0,0.818996027996,-0.57366035243,-0.0118344022908,0.0,-0.00790513179122,0.00934219088332,-0.999925113376,0.0,0.537424551471,0.098007381597,0.304369227723,1.0,-0.16998,-0.223402285714,2.191
0.298204476862,0.0123418745166,-0.12734595272,-2.1144279352,0.0142289999683,2.12070120589,-0.0107995142347,-0.328887483845,-0.600306017353,-0.0058867795953,-0.721598359027,-0.088240985024,0.133361458907,-0.281761908871,0.573864021484,0.818932115189,0.00332000904007,0.0,0.818903272291,-0.573796593073,-0.0116467724869,0.0,-0.00763305311158,0.00940261099299,-0.999926661014,0.0,0.534610779913,0.0941281347215,0.304500963758,1.0,-0.16998,-0.223402285714,2.208
0.292866107704,0.00281724084795,-0.127438911412,-2.12619114461,0.0128846961675,2.1227468655,-0.0154620858687,-0.327430169675,-0.588613775997,-0.00281544321309,-0.724198619346,-0.082372397811,0.128481269376,-0.28764810849,0.5739395518,0.818879571597,0.00322257707717,0.0,0.818848150046,-0.573870848433,-0.0118618458164,0.0,-0.00786423158991,0.00944696563278,-0.999924451497,0.0,0.531839658981,0.0905196051632,0.304423829879,1.0,-0.16998,-0.223402285714,2.224
0.286859375298,-0.00795050639206,-0.127442593632,-2.13898906417,0.0112449165622,2.12510109595,-0.0207736679382,-0.33189146491,-0.599451528467,-0.000513022349127,-0.70010894096,-0.0989239224954,0.135577786301,-0.287956483157,0.573815680321,0.81896555811,0.00342440486007,0.0,0.81893767831,-0.57374743607,-0.0116492724861,0.0,-0.00757575529142,0.00948909207701,-0.999926279814,0.0,0.528836811527,0.0865681984248,0.304534836075,1.0,-0.16998,-0.223402285714,2.242
0.281423656313,-0.0173644003737,-0.127458146665,-2.15046151215,0.00977505508977,2.12696696134,-0.0255408730092,-0.343071941858,-0.600296357571,-0.00191262608596,-0.725490508797,-0.0849072011737,0.108480286865,-0.299824142896,0.573737010376,0.819021374335,0.00325241574169,0.0,0.81899081279,-0.573668799061,-0.0117857732311,0.0,-0.00778714068332,0.00942581438651,-0.999925254438,0.0,0.526058612691,0.0830230291138,0.304456645845,1.0,-0.16998,-0.223402285714,2.258
0.275519136916,-0.0274541393619,-0.127544837072,-2.16229330888,0.00828270970232,2.12889193103,-0.0306876250351,-0.349602788313,-0.602919664961,-0.0110914463364,-0.692846039668,-0.0918165257318,0.13131183562,-0.303703562986,0.573764641868,0.819001443739,0.00339378791088,0.0,0.818972856284,-0.573696117236,-0.0117035310598,0.0,-0.00763835294959,0.00949467528804,-0.999925750596,0.0,0.52319923873,0.0792203164445,0.304547484832,1.0,-0.16998,-0.223402285714,2.275
0.269472507076,-0.0373679235675,-0.127701807891,-2.1740895882,0.0067513275161,2.13075082404,-0.0358629629832,-0.355303116685,-0.583418140421,-0.00557263992654,-0.698669408259,-0.0884215707223,0.0983332564547,-0.30515514315,0.573911502798,0.818898678597,0.00335976926111,0.0,0.818869530429,-0.573842923703,-0.0117361813455,0.0,-0.00768291149972,0.00948692480301,-0.999925482788,0.0,0.520314119458,0.0753441712207,0.304525071355,1.0,-0.16998,-0.223402285714,2.292
0.263443032377,-0.0472527313047,-0.127730596752,-2.1857794536,0.00535656162921,2.13245455044,-0.0411965956934,-0.354872071571,-0.588913847323,-0.00868852242911,-0.664300879513,-0.0849732589418,0.105460855614,-0.307570135854,0.573855111034,0.818938203733,0.003358110745,0.0,0.818907757945,-0.57378497621,-0.0119009223994,0.0,-0.00781943706698,0.00957957252247,-0.999923541174,0.0,0.517382866545,0.0716063904926,0.304492536046,1.0,-0.16998,-0.223402285714,2.309
0.257655491638,-0.0565317049999,-0.12776276083,-2.19645577517,0.00383498513702,2.13412815485,-0.0462840417444,-0.363842180951,-0.571964760015,-0.00383529206126,-0.675731921024,-0.0863341727475,0.0954119580967,-0.320915466166,0.573739530673,0.819018668,0.0034812802113,0.0,0.818991230613,-0.57367074247,-0.0116614884902,0.0,-0.00755401360471,0.00954197861031,-0.999925941019,0.0,0.514730724267,0.0680567111364,0.304575499592,1.0,-0.16998,-0.223402285714,2.325
0.251426270942,-0.0662850101329,-0.127828889362,-2.20800250486,0.00237873428209,2.13556897143,-0.0517217694483,-0.372088293521,-0.574369671608,-0.00480502995972,-0.666778983586,-0.0878255789023,0.0831770944666,-0.321975756155,0.573737655022,0.819020847472,0.00327131733537,0.0,0.818989021859,-0.573667552415,-0.0119694729455,0.0,-0.00792675188123,0.00954669412775,-0.999923010654,0.0,0.511739941996,0.0642740771693,0.304458659256,1.0,-0.16998,-0.223402285714,2.342
0.245001212741,-0.0761094711081,-0.128010016956,-2.21902330092,0.000882677590874,2.13712709799,-0.0572573511059,-0.374307318765,-0.569805271075,-0.0112786526977,-0.656771725399,-0.0807490317476,0.09178437097,-0.322799414273,0.573881377621,0.818919065041,0.00353217132121,0.0,0.818891541498,-0.573811457377,-0.0117388904088,0.0,-0.00758654684919,0.00962938121302,-0.999924856839,0.0,0.508943284655,0.060397647824,0.304596610309,1.0,-0.16998,-0.223402285714,2.359
0.238577546764,-0.0857387357751,-0.128072513251,-2.23021497949,-0.000557557302911,2.13847493635,-0.0628759851162,-0.371909563739,-0.564629742052,-0.000150467188741,-0.66133918017,-0.0815757259014,0.0758595130259,-0.326360528723,0.573869785233,0.81892764306,0.00342519048611,0.0,0.818897489025,-0.573798688782,-0.0119463015934,0.0,-0.00781793731693,0.0096606874164,-0.999922772505,0.0,0.505994620041,0.0566226119,0.304510361965,1.0,-0.16998,-0.223402285714,2.376
0.232110617278,-0.0954302460648,-0.128085541378,-2.24104793243,-0.00206576161234,2.13977963955,-0.0686097071481,-0.380202400614,-0.57743539617,-0.00268046951326,-0.634753154992,-0.0984054985936,0.0899975233016,-0.34195351717,0.573717700025,0.819033741046,0.00353250713137,0.0,0.819005473355,-0.573646854326,-0.0118350343336,0.0,-0.00766702845589,0.00968329778632,-0.9999237223,0.0,0.503130716515,0.0528991031541,0.304585423794,1.0,-0.16998,-0.223402285714,2.393
0.225474481224,-0.104969282028,-0.128151808498,-2.25182975346,-0.00358842846727,2.14099052368,-0.0743215702303,-0.389512508274,-0.565790481879,-0.00926546514788,-0.645048465377,-0.0813866175956,0.0633967614934,-0.33235582597,0.573747175685,0.819013260087,0.00349357919015,0.0,0.81898447741,-0.573676450708,-0.0118533778434,0.0,-0.0077040378471,0.00966221521489,-0.999923641784,0.0,0.500239235574,0.0491064852739,0.304569512818,1.0,-0.16998,-0.223402285714,2.41
0.219081967304,-0.113913097607,-0.128324677576,-2.26196857305,-0.00502158120339,2.14193989803,-0.0798500943151,-0.403632100464,-0.555818477922,-0.0119079840906,-0.624429126829,-0.103783436564,0.0558114821635,-0.343030264301,0.573848005848,0.818943310042,0.00332686384662,0.0,0.81891145253,-0.573776764365,-0.0120417810883,0.0,-0.00795281200609,0.00963474446805,-0.999921959195,0.0,0.497460989429,0.0454488698058,0.304498082546,1.0,-0.16998,-0.223402285714,2.426
0.211863333051,-0.124018094401,-0.128403789913,-2.2729333761,-0.00650278245718,2.1431710114,-0.0861801797949,-0.395336253431,-0.56289801756,-0.00371305163824,-0.621468320931,-0.0732867763326,0.0565807247241,-0.346925507625,0.573849866135,0.818940671442,0.00364069994003,0.0,0.818913536353,-0.573778278007,-0.0118260122523,0.0,-0.00759599411844,0.00976796207409,-0.999923440964,0.0,0.49448425696,0.0414591726231,0.30462374135,1.0,-0.16998,-0.223402285714,2.444
0.204956327581,-0.133433028403,-0.128437343325,-2.28338991362,-0.00800400538573,2.14402135836,-0.0922373879887,-0.403570436371,-0.557113976965,-0.00273445094226,-0.614137297804,-0.0979081198312,0.0537550001031,-0.356893934162,0.57376721229,0.818999149607,0.0035108324408,0.0,0.818969665069,-0.573695261939,-0.01196582743,0.0,-0.00778600445748,0.00974105226086,-0.999922241995,0.0,0.491537523048,0.0376936931459,0.304577147856,1.0,-0.16998,-0.223402285714,2.461
0.198359649961,-0.142320327963,-0.128549429708,-2.29291894405,-0.00937983109974,2.14490611296,-0.0980418847843,-0.409948237487,-0.562600677221,-0.00686693241312,-0.577564677495,-0.0831106488005,0.06876875814,-0.364101219423,0.573758499212,0.819004447409,0.00369413138696,0.0,0.81897801734,-0.573686755454,-0.011800874164,0.0,-0.00754583945478,0.00979645286087,-0.999923541986,0.0,0.488868703197,0.0341196893369,0.304668417362,1.0,-0.16998,-0.223402285714,2.477
0.191590419087,-0.151045371668,-0.128731825861,-2.30239303964,-0.010747303714,2.14567569704,-0.103869875442,-0.427782347141,-0.547383774346,-0.0104761927461,-0.602652941485,-0.0828108662043,0.0324120086465,-0.363061033609,0.573923523021,0.818888625996,0.00373561767824,0.0,0.818862581486,-0.573851414275,-0.0118056714257,0.0,-0.00752398542491,0.00983469942012,-0.999923331226,0.0,0.486168864892,0.0304697935862,0.304670312936,1.0,-0.16998,-0.223402285714,2.493
0.18399566836,-0.16081771747,-0.128770728264,-2.31304147217,-0.0123481747699,2.14628864618,-0.110570390678,-0.417495787082,-0.543231531235,-0.000421327075086,-0.590886133008,-0.078258754334,0.0342031792379,-0.367658778537,0.573799144455,0.818976627807,0.00354567748551,0.0,0.818947377122,-0.573726785052,-0.0119798380215,0.0,-0.00777710693336,0.00977793233984,-0.999921951278,0.0,0.483040643196,0.0264933407745,0.304606706077,1.0,-0.16998,-0.223402285714,2.511
0.177143729227,-0.169535055113,-0.128795734742,-2.3221102173,-0.013592506274,2.14700870274,-0.116606875865,-0.435215728005,-0.537280648735,-0.00443866672098,-0.573262683383,-0.0719284044178,0.0439903669354,-0.382947516924,0.57377456355,0.818992380273,0.00387016528941,0.0,0.818968019956,-0.573701942452,-0.0117562926507,0.0,-0.00740813538657,0.00991519418679,-0.999923401293,0.0,0.480409016364,0.0229891017635,0.30473419408,1.0,-0.16998,-0.223402285714,2.527
0.169725786567,-0.178618558241,-0.128903249745,-2.33189849134,-0.0150738531877,2.14746948654,-0.123104120895,-0.44101045246,-0.531418191653,-0.0138383749493,-0.577123814762,-0.0822764650489,0.0271108536313,-0.378218303141,0.573773799572,0.81899364058,0.00371355838254,0.0,0.818966431013,-0.573700647892,-0.0119288886438,0.0,-0.00763936016976,0.00988595375197,-0.999921951001,0.0,0.477464868542,0.0191828882278,0.304661872154,1.0,-0.16998,-0.223402285714,2.544
0.162108465191,-0.187696635439,-0.129066867286,-2.34145942305,-0.0164856062384,2.14792531593,-0.129764805254,-0.450639124722,-0.528940038393,-0.00749333164231,-0.547354548153,-0.0753405515382,0.0326042645586,-0.395825357099,0.573872383317,0.818924415672,0.00374646271859,0.0,0.818897206131,-0.573798542507,-0.0119726901328,0.0,-0.00765516080909,0.00993895543002,-0.999921304743,0.0,0.474571385691,0.0153158652115,0.304662418677,1.0,-0.16998,-0.223402285714,2.561
0.155011633238,-0.196264994162,-0.129105183461,-2.35017600565,-0.017844374552,2.14840886976,-0.136077569913,-0.449542493378,-0.537116276048,-0.00154902252397,-0.542979193213,-0.0879892176,0.0304201511223,-0.392513321467,0.573756809886,0.819004431195,0.00395116355716,0.0,0.818981290923,-0.573684155748,-0.0116996351655,0.0,-0.00731547395996,0.00994886592659,-0.999923749047,0.0,0.471757755775,0.0115789648759,0.304779358756,1.0,-0.16998,-0.223402285714,2.578
0.147280281587,-0.205153141367,-0.129214041856,-2.35960407613,-0.019245217788,2.14862116398,-0.142898872298,-0.453888428478,-0.521489508857,-0.00522012940877,-0.557038898533,-0.0836571090702,0.0183832637002,-0.395896440597,0.573763655784,0.819000347328,0.00380069454938,0.0,0.818973756756,-0.57368952022,-0.0119610632897,0.0,-0.00761584298471,0.00997568455638,-0.999921239225,0.0,0.468963139194,0.00800655495326,0.304684106379,1.0,-0.16998,-0.223402285714,2.594
0.138910342109,-0.214595832785,-0.129423390643,-2.36921236823,-0.0206963364787,2.14889475033,-0.150235495459,-0.468341342611,-0.529083329404,-0.0135790458591,-0.519170069675,-0.074869626684,0.024796336789,-0.407081460155,0.573932560661,0.818881272558,0.0039527418526,0.0,0.818856693772,-0.573857900381,-0.011898409008,0.0,-0.00747521609067,0.0100658072725,-0.999921397245,0.0,0.46576605764,0.00368629064262,0.30474103029,1.0,-0.16998,-0.223402285714,2.613
0.13105866288,-0.223396710131,-0.129453458315,-2.37816483914,-0.0221146067115,2.14911861392,-0.157222340846,-0.466025376531,-0.512023854303,0.00536008431401,-0.530691176644,-0.0873499409338,0.0106660991289,-0.419433587743,0.573798876445,0.818974779191,0.00398840079792,0.0,0.818951123664,-0.5737247353,-0.0118208314419,0.0,-0.00739286096344,0.0100492785949,-0.999922175775,0.0,0.46307269026,0.000191445406776,0.304763050082,1.0,-0.16998,-0.223402285714,2.629
0.123004875798,-0.232086061679,-0.129511490887,-2.3871487877,-0.0235136369205,2.14916178212,-0.164368621462,-0.477332583826,-0.513432942219,0.00334288165865,-0.521293297801,-0.0775668671442,0.00139757492802,-0.427141743228,0.573742260848,0.819015078813,0.0038556058005,0.0,0.81898873006,-0.573667305741,-0.0120012191212,0.0,-0.00761749109312,0.0100434976581,-0.999920547836,0.0,0.460127831654,-0.00358423835361,0.304682207483,1.0,-0.16998,-0.223402285714,2.646
0.114816997886,-0.240821076794,-0.129687897253,-2.39578768424,-0.0249110554534,2.14920168989,-0.171612375287,-0.488683898653,-0.506288587453,-0.0157938432644,-0.497515011423,-0.0827868372503,0.00726828539934,-0.428273630272,0.573809148431,0.818967660412,0.00397231386232,0.0,0.818943362431,-0.573734473825,-0.0118856879031,0.0,-0.00745508414424,0.0100734104696,-0.999921470978,0.0,0.457273009211,-0.00742716577711,0.304751781215,1.0,-0.16998,-0.223402285714,2.663
0.107047528434,-0.248972054121,-0.129792396937,-2.40379750742,-0.0261255351601,2.14923435513,-0.178517496038,-0.489834166086,-0.503824661103,-0.00191171393514,-0.505326670066,-0.0747362861721,-0.00742678624682,-0.431871592458,0.573844324358,0.818942088839,0.00415853726025,0.0,0.818920528133,-0.573769448605,-0.0117701041522,0.0,-0.00725313169465,0.0101599146041,-0.999922081072,0.0,0.45459675855,-0.0109890750248,0.304818393696,1.0,-0.16998,-0.223402285714,2.679
0.0986786198853,-0.257442627432,-0.129875477955,-2.41242830616,-0.0274922222893,2.14914312386,-0.186003808272,-0.498053315707,-0.499973837219,-0.012310215787,-0.49699742925,-0.0841901753026,-0.00370463135318,-0.447881901068,0.573785570291,0.818983858917,0.00403795261942,0.0,0.818959738569,-0.573709749726,-0.0119505888427,0.0,-0.00747087041746,0.0101641917482,-0.999920434485,0.0,0.45164720901,-0.0147708225951,0.304715806978,1.0,-0.16998,-0.223402285714,2.696
0.0901797556297,-0.26593097473,-0.130028816911,-2.42066684578,-0.0288209734653,2.14902961025,-0.193497339418,-0.501891268773,-0.499823401135,-0.0106026610403,-0.471295217268,-0.074882351464,-0.00640902572337,-0.450711534416,0.573901227915,0.818902137779,0.00417327679237,0.0,0.818880238542,-0.573825552024,-0.0118379757655,0.0,-0.00729955134119,0.0102114393249,-0.999921218425,0.0,0.448797771877,-0.0185941166273,0.304772330473,1.0,-0.16998,-0.223402285714,2.713
0.0815973395973,-0.274336184299,-0.1301652395,-2.42870457065,-0.0301575183589,2.1488896517,-0.20118430926,-0.504785729726,-0.488272004341,-0.0021209268945,-0.47551388152,-0.0716719308831,-0.0115941212071,-0.454500886775,0.57390764771,0.818896766213,0.00434109289407,0.0,0.818878056472,-0.573832870352,-0.0116323872862,0.0,-0.00703479797779,0.010230938714,-0.999922916784,0.0,0.44597828835,-0.0224033076314,0.304857577124,1.0,-0.16998,-0.223402285714,2.73
0.0734753625247,-0.28211561458,-0.130215593544,-2.43642494867,-0.0314317269006,2.14857287364,-0.208567421784,-0.515252497911,-0.480832759181,-0.00392713990506,-0.474650448523,-0.0807589650663,-0.0259535023982,-0.4668969624,0.573749225585,0.819008488305,0.00420346595825,0.0,0.818987140794,-0.573673695279,-0.0118026039762,0.0,-0.00725515467555,0.0102145161189,-0.999921510115,0.0,0.443199111828,-0.0259245030068,0.30477430925,1.0,-0.16998,-0.223402285714,2.746
0.0646397542935,-0.290372585301,-0.130342355213,-2.44435673066,-0.0326897114731,2.14826385074,-0.216468651543,-0.521284589622,-0.48330066317,-0.00877017810061,-0.460579033914,-0.071412075125,-0.018169462957,-0.470954949837,0.573804427835,0.818969339885,0.00429486047424,0.0,0.818948999266,-0.573728328,-0.0117936063951,0.0,-0.0071946574448,0.0102846932692,-0.999921227892,0.0,0.440310443821,-0.0297341201901,0.304784566445,1.0,-0.16998,-0.223402285714,2.763
0.0562490343497,-0.29810126443,-0.130484706333,-2.4514916458,-0.0338545472199,2.14799835551,-0.22399533101,-0.516042083915,-0.485327103931,-0.00272846264066,-0.44663338694,-0.0739048822542,-0.019244075959,-0.474586978557,0.573873308764,0.818919650969,0.0045582503826,0.0,0.818903916892,-0.573798132928,-0.0115249489248,0.0,-0.00682262294857,0.0103468288738,-0.999923194525,0.0,0.43768041109,-0.0333254016513,0.304906746401,1.0,-0.16998,-0.223402285714,2.779
0.0473008058531,-0.306115801131,-0.130556363984,-2.45920450996,-0.0352183111806,2.14747754331,-0.232070910316,-0.538152083571,-0.467603686714,-0.00670917934789,-0.455282545317,-0.079857894742,-0.0423862313962,-0.469432112852,0.573780313399,0.818985605987,0.00441316708516,0.0,0.818967597477,-0.573704994167,-0.0116361872001,0.0,-0.00699814856463,0.0102910541181,-0.999922557062,0.0,0.43475373904,-0.0370811221909,0.304851254542,1.0,-0.16998,-0.223402285714,2.796
0.0381327321363,-0.314076337474,-0.130697063609,-2.46676904209,-0.0364438062379,2.14691989827,-0.240298870991,-0.545005797168,-0.463338231743,-0.0102737446774,-0.439196994093,-0.0737868622694,-0.0339765830413,-0.487611794244,0.573856817832,0.818932025301,0.00440879395753,0.0,0.818913052118,-0.573780170887,-0.0117675599939,0.0,-0.00710729002562,0.0103635129774,-0.999921038896,0.0,0.431828860687,-0.0408959778651,0.304814803715,1.0,-0.16998,-0.223402285714,2.813
0.0316066420683,-0.319658391587,-0.130820307801,-2.47193255492,-0.0373365837691,2.14657817281,-0.24620125316,-0.539284324077,-0.466484810062,-0.00897955277827,-0.418207433977,-0.0736342677943,-0.0241103494731,-0.489433696196,0.573885905539,0.818911222139,0.00448604279867,0.0,0.818893639138,-0.573809575611,-0.0116844177186,0.0,-0.00699450114524,0.0103793143898,-0.999921670325,0.0,0.429813201828,-0.0436028923247,0.304844552563,1.0,-0.16998,-0.223402285714,2.825
0.019628409382,-0.329739289439,-0.130937171752,-2.48114287581,-0.0389075223646,2.14591105573,-0.25717106691,-0.554956534816,-0.451550267885,-0.00779958243239,-0.425735901179,-0.0703996449872,-0.0351349271419,-0.502326198674,0.573774155694,0.818988556158,0.00465940338828,0.0,0.818974231417,-0.573698862199,-0.0114704266838,0.0,-0.00672118316951,0.0103975658801,-0.999923355223,0.0,0.426158200647,-0.0484655334603,0.304922531654,1.0,-0.16998,-0.223402285714,2.847
0.0100814763849,-0.337374363909,-0.131092978065,-2.48833818864,-0.0400954291168,2.14513809493,-0.265735113758,-0.559419986235,-0.451225151595,-0.0123382295049,-0.414017673859,-0.0709897895604,-0.037818290362,-0.513439215743,0.57390809593,0.818895199622,0.0045712540246,0.0,0.818878102825,-0.573830565921,-0.0117422838032,0.0,-0.00699270918644,0.010482493383,-0.999920606524,0.0,0.423194666499,-0.0523001379728,0.304836424942,1.0,-0.16998,-0.223402285714,2.864
0.000615653652082,-0.344977615225,-0.131194189068,-2.49529479159,-0.0412928714559,2.14443136834,-0.274457065831,-0.550596680562,-0.441503026624,-0.00274091263598,-0.402279721549,-0.0729065172993,-0.0454396299308,-0.528727219535,0.573802040535,0.818969390675,0.00459372564764,0.0,0.818952412111,-0.573724194137,-0.0117576639124,0.0,-0.00699376995655,0.0105088165718,-0.999920322804,0.0,0.420302394107,-0.0560423107298,0.304832954713,1.0,-0.16998,-0.223402285714,2.881
-0.00907221192089,-0.352530105543,-0.131307534658,-2.50191049284,-0.0424930737074,2.1437385664,-0.283272499807,-0.575910813762,-0.442778331796,-0.00294365250854,-0.383667236278,-0.0701698690346,-0.0365197143009,-0.521029203136,0.573815472043,0.818959070865,0.00475301927213,0.0,0.818945529652,-0.573739241494,-0.0114999623357,0.0,-0.00669113362252,0.0104915221957,-0.999922575349,0.0,0.417485283093,-0.059852896505,0.304944923246,1.0,-0.16998,-0.223402285714,2.898
-0.0195069542085,-0.360317805412,-0.131482500888,-2.50895422589,-0.0437478612086,2.14286739998,-0.292761316531,-0.573486287178,-0.434640179169,-0.0090321387424,-0.394153657227,-0.0756776292362,-0.0586246468038,-0.526390049726,0.573891247736,0.81890601345,0.00474592554267,0.0,0.818891941419,-0.573814339093,-0.0115688993672,0.0,-0.00675069110389,0.0105258929303,-0.999921813817,0.0,0.414404883946,-0.0639172029039,0.304926365184,1.0,-0.16998,-0.223402285714,2.916
-0.0274835739541,-0.366307202665,-0.131512697466,-2.51439688001,-0.0446954925418,2.14214168767,-0.300255580195,-0.575027297631,-0.425950024401,-0.00207130696779,-0.391794822845,-0.0701536498426,-0.0463666656183,-0.527432265686,0.573671912623,0.819060014309,0.00468791299904,0.0,0.819044559493,-0.573594242299,-0.0116791124379,0.0,-0.00687706650067,0.0105397913309,-0.999920806242,0.0,0.412000402979,-0.0669371237984,0.304884766822,1.0,-0.16998,-0.223402285714,2.93
-0.0381319026408,-0.37387515551,-0.131649101517,-2.52116244412,-0.0458648888717,2.14120461824,-0.309960669906,-0.599026526591,-0.417543837528,-0.00963325834438,-0.370795514738,-0.0574827554208,-0.0527630230601,-0.542567459751,0.573755064763,0.819001650399,0.00470841831339,0.0,0.818985825503,-0.573676340525,-0.0117652390284,0.0,-0.00693477550986,0.0106066975517,-0.999919700204,0.0,0.408921236472,-0.0709762109602,0.304862730501,1.0,-0.16998,-0.223402285714,2.948
-0.047728774414,-0.380536500755,-0.131800204466,-2.52682606525,-0.0469132475641,2.14041183424,-0.318664507085,-0.591596371092,-0.413102681224,-0.00487871831325,-0.346175552881,-0.0683232869084,-0.0454827013065,-0.547063016008,0.573900944226,0.818898528729,0.00486341055258,0.0,0.818885849203,-0.573823483677,-0.0115465344485,0.0,-0.00666482920459,0.0106093493658,-0.999921507798,0.0,0.406268193715,-0.0746112778131,0.30496223225,1.0,-0.16998,-0.223402285714,2.964
-0.0577814897581,-0.387447313133,-0.131914075177,-2.53288203734,-0.0480389369115,2.13951644957,-0.328121824824,-0.599880380701,-0.408937043139,-0.00991699101735,-0.360980039125,-0.0652247800746,-0.0547330904129,-0.561618835963,0.573721110039,0.819024463718,0.0048746925861,0.0,0.819012060176,-0.573643853513,-0.0115204824181,0.0,-0.00663934732249,0.0106021801036,-0.999921753361,0.0,0.403402002429,-0.0783442668443,0.304963666879,1.0,-0.16998,-0.223402285714,2.981
-0.0682306573532,-0.39429834669,-0.132091789509,-2.53894293785,-0.0491617700515,2.13846995895,-0.337638033731,-0.617550655361,-0.404176363387,-0.0143506813295,-0.3497709535,-0.0672137880295,-0.0639720883022,-0.556129030846,0.573863006813,0.818925429698,0.00481008391742,0.0,0.818911151488,-0.573784285467,-0.0116990008498,0.0,-0.00682079005575,0.0106528602645,-0.999919993495,0.0,0.400432177754,-0.0822010843301,0.304909211765,1.0,-0.16998,-0.223402285714,2.998
-0.0803629483311,-0.402127222076,-0.132174819872,-2.54570715251,-0.0504039244948,2.13733600634,-0.348990503588,-0.603407814121,-0.391117465329,-0.00384177942985,-0.342176851493,-0.0584784385142,-0.0568825027221,-0.569789183084,0.573719548939,0.819025840675,0.00482683892514,0.0,0.819011797256,-0.573640825462,-0.0116887218929,0.0,-0.00680462441943,0.0106594915034,-0.999920032966,0.0,0.397058556547,-0.0865863263446,0.304909964757,1.0,-0.16998,-0.223402285714,3.018
-0.0884163133078,-0.407132452617,-0.132269740828,-2.54996019676,-0.0512356136561,2.13656280433,-0.356509521733,-0.628073564071,-0.383774881055,-0.0113450566527,-0.321153420318,-0.0679461925013,-0.0564376170223,-0.571953686279,0.573672050622,0.819059074025,0.00483306265629,0.0,0.819045332507,-0.573593662521,-0.0116533478273,0.0,-0.00677269656587,0.0106439022831,-0.999920415796,0.0,0.394861870917,-0.0894944011084,0.304927623401,1.0,-0.16998,-0.223402285714,3.031
-0.10170887096,-0.415051054847,-0.132449815062,-2.55655762054,-0.0524437436532,2.13539290005,-0.368740326467,-0.630228419158,-0.36941012248,-0.000544890281149,-0.3084395771,-0.0564429598603,-0.0661109570158,-0.583212161019,0.573845558754,0.818936464867,0.00500880344477,0.0,0.818925844322,-0.573767974521,-0.0114682089856,0.0,-0.00651796900884,0.0106830250646,-0.999921691462,0.0,0.391349886285,-0.0942607640493,0.305002960915,1.0,-0.16998,-0.223402285714,3.052
-0.109781532947,-0.419890350386,-0.132508751612,-2.56069501,-0.0531495309868,2.13454049909,-0.376424012175,-0.633025187516,-0.374406767115,-0.00535095604577,-0.311941721076,-0.05983762496,-0.0698866968667,-0.583818905814,0.573707993237,0.819032719652,0.00502887031646,0.0,0.819021589242,-0.573629115281,-0.0115767594586,0.0,-0.00659716536949,0.0107606399715,-0.999920339845,0.0,0.389123792056,-0.0970761422624,0.304980873809,1.0,-0.16998,-0.223402285714,3.065
-0.120681770956,-0.426058645729,-0.132701084148,-2.56598439051,-0.0542116452553,2.13338816565,-0.386550952715,-0.648060758307,-0.362116239944,-0.0160706789171,-0.308437294396,-0.0623740926584,-0.0659984788169,-0.602705026758,0.57377203738,0.818988361818,0.00494562728496,0.0,0.818975133361,-0.573691772402,-0.0117570453707,0.0,-0.00679174840746,0.0107964175057,-0.999918651453,0.0,0.386164030304,-0.100912626596,0.304926510094,1.0,-0.16998,-0.223402285714,3.082
-0.131564214872,-0.432023411809,-0.132761610549,-2.57097976992,-0.0551612080802,2.13238453893,-0.396733060061,-0.628992684852,-0.34319745013,0.00157313942886,-0.292419121338,-0.055716223235,-0.0601702421354,-0.603176552198,0.573738112609,0.819011976472,0.00497065764338,0.0,0.818999278724,-0.573658099474,-0.0117180739756,0.0,-0.00674591479015,0.0107942784942,-0.999918984811,0.0,0.383309447484,-0.104668357428,0.304929137769,1.0,-0.16998,-0.223402285714,3.099
-0.14257248957,-0.437840941118,-0.132901149148,-2.57581182656,-0.0560778990944,2.13129760919,-0.40712837574,-0.655767803241,-0.337667427312,-0.00518432388744,-0.276592506907,-0.0576157493234,-0.0647681915766,-0.6019847837,0.57371047796,0.819031094943,0.00500997965863,0.0,0.819018548217,-0.573629764065,-0.0117583313494,0.0,-0.00675669563759,0.0108493530487,-0.999918315965,0.0,0.380433571799,-0.108457489123,0.304928045736,1.0,-0.16998,-0.223402285714,3.116
-0.153176428941,-0.44326975032,-0.133050961762,-2.58012987347,-0.0569928250116,2.13030571049,-0.41698137815,-0.654988145392,-0.336439097358,-0.000673926910974,-0.271757510911,-0.0507495288784,-0.0546074973373,-0.611415707233,0.573825223941,0.818950269115,0.00508094338646,0.0,0.818939696216,-0.573745976533,-0.0115790878729,0.0,-0.00656765275232,0.0108055669658,-0.999920049634,0.0,0.377745025194,-0.112110090543,0.30500553496,1.0,-0.16998,-0.223402285714,3.132
-0.163603381208,-0.448625609194,-0.133124642166,-2.58449247338,-0.057805434929,2.12928865935,-0.426916231628,-0.659295197882,-0.327606775853,-0.0138411827681,-0.268423850768,-0.0464484021866,-0.0706691991066,-0.619999765246,0.57371312497,0.81902840386,0.00514497900273,0.0,0.819018728156,-0.573633816376,-0.0115461916352,0.0,-0.0065054502152,0.0108382445135,-0.999920102595,0.0,0.375033580476,-0.115605775089,0.305025030189,1.0,-0.16998,-0.223402285714,3.148
-0.17569141092,-0.454376358022,-0.133323448643,-2.58931829031,-0.0587670118205,2.12805568496,-0.438238817843,-0.678028198623,-0.315801116322,-0.0100207405401,-0.261679736313,-0.055906186537,-0.0658434511163,-0.630445676286,0.573827348557,0.818948632179,0.00510478227436,0.0,0.818937056513,-0.573745876325,-0.0117691873204,0.0,-0.00670964125981,0.0109341874416,-0.999917708744,0.0,0.371891855195,-0.119665476404,0.304956896361,1.0,-0.16998,-0.223402285714,3.166
-0.186985567719,-0.459620604734,-0.133374247575,-2.59350684708,-0.0595283472491,2.1270315902,-0.44907993996,-0.670324502593,-0.308486834239,-0.00561685656661,-0.241445490188,-0.0486132234169,-0.0464687117167,-0.64521289571,0.573692736439,0.819042245338,0.00521453838158,0.0,0.819032428329,-0.573611476038,-0.0116834414829,0.0,-0.00657823973898,0.0109737928281,-0.999918147967,0.0,0.369065122764,-0.123392489652,0.304993822716,1.0,-0.16998,-0.223402285714,3.183
-0.198553897871,-0.464617345485,-0.133538687075,-2.59761372092,-0.0603861813225,2.12598877239,-0.459980227629,-0.695269792944,-0.292105834966,-0.0125785447485,-0.23773478459,-0.0522710758729,-0.0660069085681,-0.637578206535,0.57377825619,0.818982366225,0.00520993641685,0.0,0.818972029767,-0.573696231053,-0.011755672528,0.0,-0.00663889543646,0.0110121535038,-0.999917325354,0.0,0.366168023012,-0.127227700761,0.304959873443,1.0,-0.16998,-0.223402285714,3.2
-0.20812410183,-0.46869280412,-0.133612972011,-2.60089508406,-0.0611153976566,2.12508709422,-0.469044736602,-0.683286434904,-0.292641493886,-0.00284662071486,-0.23372581471,-0.0449689640128,-0.0674176932473,-0.646813832011,0.573760817788,0.818994873978,0.00516403626829,0.0,0.818983875705,-0.573678842473,-0.0117789615665,0.0,-0.00668453949293,0.0109877806072,-0.999917289384,0.0,0.363776980683,-0.130358306419,0.304954419862,1.0,-0.16998,-0.223402285714,3.214
-0.221087411895,-0.474145957525,-0.133741556277,-2.60505461877,-0.0619496054241,2.12394678343,-0.481463754445,-0.69529268302,-0.276257758409,-0.0114386359772,-0.216657132951,-0.0513440141282,-0.0541998574619,-0.6545750596,0.573720924566,0.819021862272,0.00531382510785,0.0,0.819013897616,-0.573640300636,-0.011566671904,0.0,-0.0064252566368,0.0109883498715,-0.99991898284,0.0,0.360606033155,-0.134578681603,0.305049117769,1.0,-0.16998,-0.223402285714,3.233
-0.232945694633,-0.478753753402,-0.133873721871,-2.60867968009,-0.0627287640306,2.1229297722,-0.492709682334,-0.688950888213,-0.266401727194,-0.00470864857561,-0.209386069117,-0.0363936078174,-0.0602739586405,-0.6719020014,0.573790258331,0.818973049937,0.00535068440515,0.0,0.818965768878,-0.573709864696,-0.0115242117967,0.0,-0.0063684010686,0.0109947195142,-0.999919276547,0.0,0.357714093392,-0.138418166929,0.305066721016,1.0,-0.16998,-0.223402285714,3.25
-0.244636126251,-0.483135040282,-0.133912021454,-2.61223276146,-0.0634885953592,2.12190322589,-0.504009587663,-0.694068761688,-0.250477542946,-0.00233861620428,-0.20696112133,-0.0456943807629,-0.066074588295,-0.65222152285,0.573621302876,0.819091754178,0.0052958498235,0.0,0.819083228223,-0.573540193118,-0.0116214897287,0.0,-0.00648180847245,0.0110042877158,-0.99991844258,0.0,0.3548341612,-0.142125984325,0.305026170801,1.0,-0.16998,-0.223402285714,3.267
-0.256017551819,-0.48710042456,-0.134074127446,-2.61543431241,-0.0641783093397,2.12090973472,-0.514783793472,-0.711885376719,-0.240928134927,-0.00875964087578,-0.199364880881,-0.0413538328632,-0.0680016241406,-0.680595443432,0.573767145268,0.818989609053,0.00529435312199,0.0,0.818980064238,-0.573684326978,-0.0117768527578,0.0,-0.00660795985214,0.0110933544285,-0.999916632702,0.0,0.352055233088,-0.145758059972,0.304982246294,1.0,-0.16998,-0.223402285714,3.283
-0.267891256854,-0.491092393606,-0.134134327588,-2.61862184844,-0.0648081768187,2.11994979537,-0.526306502348,-0.704440662862,-0.225214005993,-0.00687730661548,-0.183987796824,-0.0318089757923,-0.0488114760121,-0.671561827849,0.573654847781,0.81906804071,0.00532984106818,0.0,0.819058359542,-0.573570922786,-0.0118552562157,0.0,-0.00665334771845,0.0111664910713,-0.999915517652,0.0,0.349194941335,-0.149484173049,0.304955288023,1.0,-0.16998,-0.223402285714,3.3
-0.280075470278,-0.494996211058,-0.13432169086,-2.62162621662,-0.0654502332485,2.11901565636,-0.537949953996,-0.719694438199,-0.22814328005,-0.00944391944827,-0.176443403961,-0.0356019008946,-0.0631561019752,-0.680637311551,0.573792400339,0.818971015903,0.00543169637133,0.0,0.818962657209,-0.573708083767,-0.0118299458411,0.0,-0.00657230118393,0.011236505851,-0.999915269307,0.0,0.346291139394,-0.153339811552,0.304972640182,1.0,-0.16998,-0.223402285714,3.317
-0.291370240125,-0.498522473088,-0.134354361331,-2.62431009156,-0.0660246651411,2.11813265442,-0.548934420979,-0.70021370899,-0.220501017347,-0.00923913150223,-0.166729551279,-0.0328751940845,-0.0561654779056,-0.688032670345,0.573675290957,0.81905280816,0.0054685364814,0.0,0.819045093039,-0.573591148918,-0.0117930637183,0.0,-0.00652256341155,0.0112445837241,-0.999915504182,0.0,0.343607763925,-0.156841518385,0.304997900383,1.0,-0.16998,-0.223402285714,3.333
-0.303636027956,-0.502013185416,-0.134453734687,-2.62699019968,-0.0666336269533,2.11725797824,-0.560708877971,-0.732884142901,-0.199454708021,-0.00744127336732,-0.14847096458,-0.0344935193558,-0.05354567503,-0.706040352471,0.573741386012,0.819006244119,0.00550826394639,0.0,0.818999077361,-0.573657148209,-0.0117785606912,0.0,-0.00648698466031,0.0112693277956,-0.999915457067,0.0,0.340556288633,-0.16088391934,0.30500665432,1.0,-0.167837142857,-0.220585959184,3.351
-0.316490374659,-0.505416332486,-0.134460215782,-2.62961010617,-0.0672295923078,2.1164313618,-0.573123228573,-0.708006778247,-0.186498539658,-0.000459439089282,-0.142449741579,-0.0293900545541,-0.0430838346131,-0.686484709523,0.573702843723,0.819033187177,0.00551654860257,0.0,0.819026455749,-0.573619155394,-0.0117250265932,0.0,-0.00643891191923,0.0112450968521,-0.99991604058,0.0,0.337744219576,-0.164611086175,0.305013333352,1.0,-0.165651428571,-0.217713306122,3.368
-0.327889121526,-0.508309284743,-0.134501407043,-2.63180246027,-0.0676910494096,2.11572690493,-0.584078087809,-0.719444981357,-0.188099079148,-0.0110852607062,-0.134986442476,-0.0189327624281,-0.048555770766,-0.678113881869,0.573775395816,0.818981881753,0.00558743390407,0.0,0.818976373524,-0.573691989851,-0.0116596436767,0.0,-0.00634369298008,0.0112662099312,-0.999916411543,0.0,0.335103025342,-0.168101075287,0.305030886932,1.0,-0.163594285714,-0.215009632653,3.384
-0.339897058093,-0.511168807318,-0.134455339311,-2.63396830943,-0.068160124613,2.11496003867,-0.595729136174,-0.689684436128,-0.161896354664,0.00958897624193,-0.125388827405,-0.0274300506163,-0.0509259828439,-0.692465784912,0.573712129511,0.819026110497,0.0056008639264,0.0,0.819020842485,-0.573628808468,-0.0116445941193,0.0,-0.00632453149622,0.0112680861267,-0.999916511783,0.0,0.332329417106,-0.171730586673,0.305042386691,1.0,-0.161408571429,-0.212136979592,3.401
-0.351739429683,-0.513735767153,-0.134448768837,-2.63595448559,-0.0685674761469,2.1142323505,-0.607223121711,-0.703272755729,-0.145794106904,-0.00226633185302,-0.112957153357,-0.019232147278,-0.0470139628318,-0.668033242239,0.573706683896,0.819029659517,0.00563955546609,0.0,0.819024396796,-0.573622348347,-0.0117126355581,0.0,-0.0063581432771,0.011338769126,-0.999915499594,0.0,0.329596611418,-0.175300175652,0.305027340049,1.0,-0.159222857143,-0.209264326531,3.418
-0.3630009724,-0.515938574789,-0.134446497016,-2.63767772584,-0.0689298425428,2.11359703126,-0.618004171516,-0.689374488442,-0.132197101913,0.00374058277213,-0.107621348484,-0.0214032045397,-0.035626212286,-0.664825674752,0.573846449508,0.818931519411,0.00567149041121,0.0,0.818926115117,-0.573760983414,-0.0117940150906,0.0,-0.00640453408946,0.0114127050245,-0.999914362387,0.0,0.327016622794,-0.17868871375,0.305003261293,1.0,-0.157165714286,-0.206560653061,3.434
-0.374588438347,-0.51804857962,-0.134367688166,-2.63933703915,-0.0692492449495,2.11299458698,-0.629330266344,-0.683847810545,-0.124867421729,0.00376436603,-0.0933213966094,-0.0211850662029,-0.0365991491543,-0.665813634541,0.573774262319,0.818981885867,0.00570205427811,0.0,0.818976373065,-0.57368779739,-0.0118641640483,0.0,-0.00644546058215,0.0114774206824,-0.999913358673,0.0,0.324379661558,-0.182135662469,0.304977366671,1.0,-0.15498,-0.203688,3.451
-0.386994440726,-0.52013521896,-0.134376148233,-2.64092230299,-0.0696227958676,2.1123715587,-0.641229960164,-0.683405846288,-0.106103933791,0.00162021595793,-0.0833363762822,-0.0107412360358,-0.0285560670323,-0.658270439938,0.573945136457,0.818861897709,0.00573757085547,0.0,0.818856553602,-0.573857981115,-0.011904160384,0.0,-0.00645543682223,0.0115308044565,-0.99991268013,0.0,0.321554804035,-0.18585081119,0.304971182873,1.0,-0.152665714286,-0.200646367347,3.469
-0.396930933608,-0.52165667176,-0.1342512984,-2.64205702604,-0.069833534719,2.1119312892,-0.651080518643,-0.661329338315,-0.0938634942278,0.00113644690716,-0.0733960635067,-0.0191833750333,-0.033972001461,-0.658873538039,0.573772213401,0.818982842429,0.00577042781253,0.0,0.818977979319,-0.573685063047,-0.0118854839276,0.0,-0.00642372284383,0.0115456360195,-0.999912713227,0.0,0.319333759018,-0.188781305467,0.304980037443,1.0,-0.150737142857,-0.198111673469,3.484
-0.409017690028,-0.523366209641,-0.134198251422,-2.64332096171,-0.0701236247564,2.11141833675,-0.662750570828,-0.666862860051,-0.0904413846211,-0.00407154482832,-0.0729451999443,-0.0135317410797,-0.0271515874536,-0.648592777274,0.57387972196,0.818907229276,0.00581046154333,0.0,0.818902929277,-0.573792474985,-0.0118716036377,0.0,-0.00638786591845,0.0115712993565,-0.999912646285,0.0,0.316611755379,-0.192365083231,0.304990377447,1.0,-0.148422857143,-0.195070040816,3.502
-0.420144313729,-0.52476316198,-0.134093656221,-2.64434392979,-0.0703619864807,2.1110152295,-0.673686938541,-0.64568528407,-0.077963277092,0.00396485726175,-0.0609191737671,-0.00685473577875,-0.020584731403,-0.643415526251,0.573801127288,0.818962155343,0.0058310668564,0.0,0.818958408612,-0.573714337354,-0.011820785867,0.0,-0.00633553159248,0.0115584040242,-0.999913128395,0.0,0.314129246128,-0.195646037581,0.305005588158,1.0,-0.146237142857,-0.192197387755,3.519
-0.429255851488,-0.52574895051,-0.134016716443,-2.64511142903,-0.0705280250556,2.11070666708,-0.682614434738,-0.656659722785,-0.0680478912736,0.00559660561086,-0.0513428290593,-0.00563033589889,-0.0277703387534,-0.633994265054,0.573782896165,0.818974763786,0.00585416536606,0.0,0.818971111956,-0.573695648477,-0.0118476833482,0.0,-0.00634456662809,0.0115926135775,-0.99991267508,0.0,0.31209105379,-0.198323038473,0.304993249513,1.0,-0.144437142857,-0.189831673469,3.533
-0.441567009387,-0.526964673429,-0.13397091232,-2.6460126441,-0.0707548086344,2.11033103045,-0.694557770082,-0.635116113425,-0.0575487348756,0.00744657142845,-0.0415706072557,-0.00594576392458,-0.0172457134045,-0.62941692244,0.573903375618,0.818889988863,0.00590326145567,0.0,0.818887041651,-0.573816040813,-0.0118284074549,0.0,-0.00629889960599,0.0116226910489,-0.99991261464,0.0,0.309333078217,-0.201953226964,0.304997390135,1.0,-0.141994285714,-0.186621061225,3.552
-0.45222800172,-0.527859442309,-0.13383492301,-2.64666854954,-0.0708964115204,2.11005666565,-0.705091950877,-0.63393725028,-0.0502361144589,0.00928120158599,-0.0371278089868,-0.0119689596604,-0.0180056054128,-0.604457077586,0.57381313861,0.818953020579,0.00593118401312,0.0,0.818950639653,-0.573726094415,-0.0117883544548,0.0,-0.00625135380726,0.0116218833675,-0.99991292241,0.0,0.306970227733,-0.205065346613,0.305006313005,1.0,-0.139808571429,-0.183748408163,3.569
-0.46239458854,-0.528548567399,-0.133794949465,-2.64718862586,-0.0710278300808,2.10979333159,-0.7149134258,-0.635088429086,-0.0440436092953,0.000939949924843,-0.0337856433937,-0.0105493231131,-0.0156098054979,-0.612954481301,0.573981751611,0.818834486622,0.00598157474916,0.0,0.818832525695,-0.57389404683,-0.0118179853882,0.0,-0.00624430408125,0.0116814408171,-0.999912272455,0.0,0.304696622186,-0.208049954456,0.305000125531,1.0,-0.137751428571,-0.181044734694,3.585
