nelsonifechukwu/NELSON_IML_WORK/CNN-GradCAM/train2dof/data_sample_2022-02-21-08-16-21/robot_state.csv
position_joint1,position_joint2,position_joint3,position_joint4,position_joint5,position_joint6,position_joint7,velocity_joint1,velocity_joint2,velocity_joint3,velocity_joint4,velocity_joint5,velocity_joint6,velocity_joint7,ee_T_00,ee_T_10,ee_T_20,ee_T_30,ee_T_01,ee_T_11,ee_T_21,ee_T_31,ee_T_02,ee_T_12,ee_T_22,ee_T_32,ee_T_03,ee_T_13,ee_T_23,ee_T_33,v_x,v_y,time
0.465095697058,0.547546793275,-0.124008457898,-1.35574534811,0.0794441657881,1.89409950168,0.159163566619,-0.000577602264618,-0.00167084394364,-0.00183045801048,-0.000330370439344,6.05105935851e-05,-0.000121396401033,0.000504261853756,0.573785216403,0.818991143796,0.00218602873759,0.0,0.818951762512,-0.573726411065,-0.0116945639189,0.0,-0.00832372211545,0.00850058363906,-0.999929225359,0.0,0.661705160507,0.260897922264,0.303422615137,1.0,0.0,0.0,0.0
0.465097127531,0.547554559904,-0.123998132912,-1.35575072035,0.0794438372056,1.89410255898,0.159153852475,0.000324466026271,0.00106230158501,0.000896413707465,-0.00198659542774,0.000161939915862,-0.000263091330365,-0.000842839821758,0.573769117818,0.819002439016,0.0021797306393,0.0,0.818962924893,-0.573710285966,-0.0117039449955,0.0,-0.00833518608719,0.00850064443866,-0.999929129347,0.0,0.661701607459,0.260904257571,0.303414479012,1.0,-0.00018,-0.000236571428571,0.01
0.465091787131,0.547551051416,-0.124005936615,-1.3557485645,0.0794434931411,1.89410151556,0.15916168532,-0.00222794810502,1.21985038191e-05,-0.0011117118149,0.000799922134244,0.000699508554622,-0.000364393127427,-0.000839233495707,0.573785136125,0.818991212013,0.00218153823848,0.0,0.818951765171,-0.573726340227,-0.0116978525095,0.0,-0.00832899281403,0.00849879211384,-0.999929196699,0.0,0.661705191164,0.260896383544,0.303418157789,1.0,-0.0005,-0.000657142857143,0.026
0.465091549083,0.547528028608,-0.124001005828,-1.35576728224,0.0794434931411,1.89410560888,0.159156547516,0.000152307098779,-0.00188938478464,0.000957795461925,0.000820259723673,-8.8745016201e-05,0.00112169331489,0.000307115261772,0.573778685988,0.818995705718,0.00219098691453,0.0,0.818956343105,-0.573719816175,-0.0116973295012,0.0,-0.00832321026759,0.0085061647521,-0.999929182158,0.0,0.661701254826,0.26089743905,0.303425750319,1.0,-0.00084,-0.001104,0.043
0.465093798655,0.547426436737,-0.124003299051,-1.35586137298,0.0794386224216,1.89411786148,0.15915799909,0.000267696774176,-0.00534668197813,-0.000585316464774,-0.00588234251427,-0.000578803588677,0.00068319319098,0.000537227373835,0.57378338245,0.818992365417,0.00220959607719,0.0,0.81895322084,-0.573724418379,-0.0116901981502,0.0,-0.00830664373958,0.00851736124588,-0.999929224609,0.0,0.661685024796,0.260887809101,0.303454062161,1.0,-0.00118,-0.00155085714286,0.06
0.465092503174,0.547286440537,-0.123998178306,-1.35603133804,0.079441347764,1.89415082164,0.159152372301,0.00133041474245,-0.0039135918643,-0.000343152510412,-0.0105087819885,0.000110422564321,0.000670783140789,-0.000278006620173,0.573786235234,0.818990332043,0.00222242602236,0.0,0.818951176457,-0.573727040645,-0.0117047132954,0.0,-0.00831114113865,0.00853622613068,-0.99992902637,0.0,0.66165533725,0.260874256298,0.303475026854,1.0,-0.00152,-0.00199771428571,0.077
0.465074138593,0.547142869138,-0.124003882956,-1.3562291031,0.0794326481833,1.89421881623,0.159150787385,-0.00113284431632,-0.0071926854666,-0.000404783447858,-0.012145545754,-0.00239602796456,0.00763894623115,0.00141659009357,0.573812666632,0.818971779646,0.00223487277778,0.0,0.818932780174,-0.573753416673,-0.0116989449899,0.0,-0.00829899968777,0.0085433778852,-0.999929066133,0.0,0.661633934888,0.26084042223,0.303488668528,1.0,-0.00184,-0.00241828571429,0.093
0.465051647955,0.546951758794,-0.124004129374,-1.35643597247,0.0794308356411,1.89435275565,0.159136941744,-0.000947990381253,-0.00945967312335,-0.000754751451664,-0.0108551992872,0.000224007362018,0.00700089666662,-0.00189099409563,0.573831285518,0.818958439273,0.00234038569275,0.0,0.8189207915,-0.573771628092,-0.0116448678705,0.0,-0.00819397366686,0.00859894556009,-0.999929455977,0.0,0.66162428474,0.260812170955,0.303537209935,1.0,-0.00218,-0.00286514285714,0.11
0.465025754708,0.546750313708,-0.123998602462,-1.35668206183,0.0794243671844,1.89447575749,0.159116470175,-0.002834192569,-0.00675956028562,-0.00012148767485,-0.0148401174588,-0.00432759374774,0.00961197018423,-0.0047766325359,0.573844043093,0.818949290015,0.00241277675147,0.0,0.818912523472,-0.573784065082,-0.0116134603223,0.0,-0.00812657869479,0.00864033447697,-0.999929649195,0.0,0.661603542303,0.260778985555,0.303573243285,1.0,-0.00252,-0.003312,0.127
0.464990327725,0.546483395559,-0.123996704915,-1.35704071987,0.0794124758022,1.89461201418,0.15909647304,-0.00329821895611,-0.0220620763265,0.00567691404348,-0.0200567569417,-0.00530536269709,0.00805698689076,-0.000554317155095,0.573872215137,0.818929417542,0.00245696542399,0.0,0.818893137651,-0.573811986569,-0.0116008654149,0.0,-0.00809060951565,0.00866957337447,-0.999929687796,0.0,0.661564957054,0.260724905037,0.303603310921,1.0,-0.00288,-0.00378514285714,0.145
0.464946601432,0.546212973253,-0.123998839745,-1.35744924991,0.0793908710542,1.8947632586,0.158980928747,-0.00106692470634,-0.0171792869678,-0.00236485036367,-0.0233814516702,-0.00258869715118,0.00593214963486,-0.00884967658444,0.573832004048,0.818957554915,0.00247007681327,0.0,0.818921421844,-0.573771709927,-0.0115964060297,0.0,-0.00807985969345,0.00867735479376,-0.99992970722,0.0,0.661521622381,0.260656568886,0.303613520204,1.0,-0.00322,-0.004232,0.162
0.464914090689,0.545956322975,-0.12399884853,-1.35788507451,0.0793598404464,1.89490852598,0.158916184164,-0.00121580218735,-0.0114878433271,0.000339030825485,-0.0320419871379,-0.00155157791305,0.0054905777,-0.00282092214047,0.573821699051,0.81896487004,0.00243849147933,0.0,0.818928342299,-0.573761532457,-0.0116112425159,0.0,-0.00811024325728,0.00865989942335,-0.999929612571,0.0,0.661467556037,0.260591526963,0.303600359476,1.0,-0.00354,-0.00465257142857,0.178
0.464868939328,0.545657334219,-0.124002291587,-1.35836951674,0.0793224610126,1.89508028222,0.158889668663,-1.19957192597e-05,-0.0152003878423,-0.000613264816629,-0.0311058285108,-0.000494580328774,0.0141728146882,-0.000470899786861,0.573856502346,0.818940535862,0.00242081369876,0.0,0.81890385538,-0.573796475175,-0.0116115296916,0.0,-0.00812025432045,0.00864593194774,-0.999929652191,0.0,0.661413129856,0.26051169428,0.303596422412,1.0,-0.00386,-0.00507314285714,0.194
0.464806910893,0.545317262764,-0.124007318302,-1.35896447345,0.0792785916252,1.89527853386,0.158800777096,-0.00381024971858,-0.0232178559124,-0.000793949759658,-0.0357298490427,-0.000921008941203,0.00565678410203,-0.00330574411709,0.573859552491,0.818938557152,0.00236654308,0.0,0.818901231377,-0.573799779496,-0.0116332798572,0.0,-0.00816917680567,0.00861399966135,-0.999929529297,0.0,0.661344766165,0.260407950748,0.303571285218,1.0,-0.0042,-0.00552,0.211
0.464746483539,0.544917372374,-0.124004160474,-1.35963986051,0.0792553333772,1.89549370726,0.158733264982,-0.000952779361648,-0.0275145566193,-0.000353635395644,-0.041659207608,7.27091165768e-05,0.0111634612701,-0.00409045810161,0.573882907256,0.818922308502,0.00232557466576,0.0,0.818884234307,-0.573823051931,-0.0116817283564,0.0,-0.00823211809448,0.00860848640047,-0.999929060581,0.0,0.66125935411,0.260305734114,0.303551418316,1.0,-0.00454,-0.00596685714286,0.228
0.464682537773,0.544514568528,-0.124007466159,-1.36034325117,0.0792208706055,1.8957287006,0.15863038178,-0.00634689482614,-0.0223570152109,6.90140301212e-05,-0.0429100947086,-0.00350312479328,0.015640774779,-0.00911760371764,0.573883348199,0.81892214761,0.00227282103803,0.0,0.81888329241,-0.573823588079,-0.0117213512918,0.0,-0.00829483555095,0.0085880288456,-0.999928718191,0.0,0.66117447912,0.260193698055,0.303522166105,1.0,-0.00488,-0.00641371428571,0.245
0.464617912237,0.544091112312,-0.124009952061,-1.3610507189,0.0791827176264,1.8959771668,0.158549832308,-0.00836223978276,-0.0283680944004,-0.000535278039573,-0.047238179126,-0.00168005248872,0.0125041837204,-0.00891394511611,0.573901315823,0.81890963626,0.0022437108389,0.0,0.818870351112,-0.573841609492,-0.0117431761329,0.0,-0.00832922581989,0.00857689764891,-0.999928527858,0.0,0.661092005681,0.260081799251,0.303506689594,1.0,-0.0052,-0.00683428571429,0.261
0.464546681673,0.543595861547,-0.12401347414,-1.3618611343,0.0791403455732,1.89627065788,0.158444601948,-0.00431794693245,-0.0306654110983,-0.00090186260081,-0.0490955413526,-0.000543016701886,0.0171182953674,-0.00974587229041,0.573909818816,0.818903722179,0.00222723341115,0.0,0.818864165616,-0.573850115086,-0.0117588514267,0.0,-0.00835142984343,0.00857248696755,-0.999928380479,0.0,0.660998812511,0.259956035762,0.303496907019,1.0,-0.00554,-0.00728114285714,0.278
0.464472304938,0.543070752348,-0.124013145546,-1.36270823813,0.0790929799602,1.89655818911,0.158339282533,-0.00472721608599,-0.0384560471317,0.000474959383213,-0.0543828936822,-0.000256595610448,0.0242877105402,-0.00313568932856,0.573918649564,0.818897606323,0.00220021404717,0.0,0.818857621038,-0.573858968958,-0.0117824918887,0.0,-0.00838620329999,0.00856401875761,-0.999928162008,0.0,0.66089686269,0.25982525394,0.303490074144,1.0,-0.00588,-0.007728,0.295
0.464397835179,0.542510535456,-0.124017316551,-1.3636040014,0.0790372420788,1.89687434849,0.158223421618,-0.00468136176496,-0.0377694985395,0.00020018316261,-0.0545676600292,-0.00540244786856,0.0189108798543,-0.00273037265516,0.573922562286,0.818894913809,0.00218163634111,0.0,0.818854692827,-0.573862958982,-0.0117916599624,0.0,-0.00840433189191,0.00855410754829,-0.99992809464,0.0,0.660791732815,0.25968708502,0.303487470161,1.0,-0.00622,-0.00817485714286,0.312
0.464325417651,0.541933037759,-0.124020495349,-1.36452863348,0.0789826877603,1.89721974258,0.158100864199,-0.00719485904882,-0.035220672861,0.000216118437135,-0.0532568493502,-0.00487467425794,0.0168635343835,-0.00776479673087,0.573920607394,0.818896290467,0.0021791671771,0.0,0.818856035804,-0.573861012304,-0.0117931372148,0.0,-0.00840697909635,0.00855291333949,-0.999928082602,0.0,0.660685268351,0.259549829546,0.303485785925,1.0,-0.00656,-0.00862171428571,0.329
0.464246563502,0.541346073857,-0.124018376611,-1.36543219748,0.0789296934603,1.89755569873,0.157984747144,-0.00632864376462,-0.0393121638478,-0.000570281826898,-0.0583380238584,-0.000114909655725,0.02278328417,-0.00210619276311,0.573924614483,0.81889343495,0.00219681320339,0.0,0.818853379837,-0.573864920121,-0.0117873951962,0.0,-0.00839210808195,0.00856410904586,-0.999928111695,0.0,0.660582253092,0.259413638069,0.303499752779,1.0,-0.00688,-0.00904228571429,0.345
0.464157100626,0.540674387282,-0.124021198933,-1.36644441752,0.0788626851479,1.89792850847,0.157845190776,-0.00538577553643,-0.0370438541569,7.59500151848e-05,-0.0577634788828,-0.00242713416062,0.0246605013714,-0.0151830765732,0.573923742957,0.818893981118,0.0022207793319,0.0,0.818854292862,-0.573864013115,-0.0117681100109,0.0,-0.0083625701228,0.00857265748462,-0.999928285911,0.0,0.660468252033,0.259256033318,0.303525147204,1.0,-0.00722,-0.00948914285714,0.362
0.464069435661,0.539963386587,-0.124026816417,-1.3675198515,0.0788038432191,1.89832597808,0.157708373244,-0.00680926447491,-0.0392433466275,0.00107118246189,-0.0637413164664,-0.000841291853772,0.0247431617868,-0.0101197092768,0.57393122891,0.818888651738,0.00225109726548,0.0,0.8188493219,-0.573871345988,-0.0117564101279,0.0,-0.00833551110566,0.00859084578206,-0.999928355745,0.0,0.660345136309,0.259094009104,0.303550384431,1.0,-0.00756,-0.009936,0.379
0.463963540186,0.539219926835,-0.124032140322,-1.36868153903,0.0787424856941,1.89876149052,0.157573143555,-0.00633221277535,-0.043873437262,-0.000917369951996,-0.0676336406248,-0.00136644366457,0.028727744927,-0.00328449468914,0.573958845294,0.818869247658,0.00226849072221,0.0,0.818830090106,-0.573898837562,-0.0117539220435,0.0,-0.00832320135969,0.00860394163877,-0.999928345687,0.0,0.660215109892,0.258912486435,0.303560682882,1.0,-0.0079,-0.0103828571429,0.396
0.46385439767,0.538474651066,-0.124035413833,-1.36983854789,0.0786702097613,1.89921711371,0.157425457874,-0.0100575611408,-0.0507841211384,0.00067048826509,-0.0695706149234,-0.0029539635039,0.0218857881649,-0.011894305823,0.573974336367,0.818858295315,0.00230223525788,0.0,0.818819639097,-0.573914265108,-0.0117286757847,0.0,-0.00828299727661,0.00861724025154,-0.999928565012,0.0,0.660090968602,0.25873020047,0.303576027067,1.0,-0.00824,-0.0108297142857,0.413
0.463751927846,0.537753878261,-0.124044293796,-1.37100324012,0.0785998172485,1.89965781549,0.157282008633,-0.00484866122446,-0.0445716062944,-0.00208312783371,-0.0764374929057,-0.00621992966365,0.0329021655897,-0.00494209181921,0.573992547703,0.818845548305,0.00229567054759,0.0,0.818806849461,-0.573932543059,-0.0117271563234,0.0,-0.00828532923253,0.00861117689567,-0.999928597927,0.0,0.659960637128,0.258547137934,0.303569184305,1.0,-0.00856,-0.0112502857143,0.429
0.46364013195,0.536883366976,-0.124043583899,-1.37233578401,0.078524551433,1.90015434844,0.157116188738,-0.00729429890106,-0.0511157966909,0.000763354594364,-0.0760295525597,-0.000120138251387,0.0329721480487,-0.0146142898296,0.574001056335,0.818839492923,0.00232788662018,0.0,0.818801155643,-0.573940871499,-0.0117171004082,0.0,-0.00825851428325,0.00863187045656,-0.999928641331,0.0,0.659806717217,0.258348541221,0.303592565285,1.0,-0.00892,-0.0117234285714,0.447
0.463525210687,0.536050466391,-0.124057057193,-1.3736674423,0.0784474907923,1.90065318137,0.15695293603,-0.00625814269497,-0.0504319156502,-0.000807278366354,-0.0837210266513,-0.00568641959335,0.0302292710058,-0.0104212281059,0.574023639762,0.818823669376,0.00232515920606,0.0,0.818785324367,-0.573963491182,-0.0117153870166,0.0,-0.00825843869013,0.00862888146392,-0.999928667753,0.0,0.659656312332,0.258139141528,0.303590324708,1.0,-0.00926,-0.0121702857143,0.464
0.463426114646,0.535210919387,-0.124061035802,-1.37496487898,0.0783704205539,1.90113035057,0.156792405046,-0.00289013244745,-0.0536569056246,-0.000631571042552,-0.0823455396827,-0.00367296799954,0.031439882779,-0.0116651264302,0.57402669111,0.818821484604,0.00234118463205,0.0,0.818783337396,-0.573966472128,-0.0117082098032,0.0,-0.00824333095893,0.00863791420527,-0.999928714426,0.0,0.659503142206,0.257948388398,0.303606704135,1.0,-0.00958,-0.0125908571429,0.48
0.463301683087,0.534314156695,-0.124058862834,-1.37640240491,0.0782982979936,1.90165036729,0.156622450908,-0.00594097469936,-0.0512250523974,0.000135445537221,-0.0831429643185,-0.00145649108454,0.0327910055725,-0.00943676474241,0.574047362947,0.818807020408,0.00233137823848,0.0,0.818768573275,-0.573986997166,-0.0117344537037,0.0,-0.00827023150644,0.00864515788438,-0.999928429697,0.0,0.659332017026,0.257732339985,0.303600151676,1.0,-0.00992,-0.0130377142857,0.497
0.463171797914,0.533401008337,-0.124065079697,-1.37788293064,0.0782012220529,1.90219737717,0.156442684386,-0.00961523560741,-0.0495648039106,-0.000986722179736,-0.086138486813,-0.0011413631863,0.0304739603205,-0.00691080865518,0.574065930924,0.81879407214,0.00230679059663,0.0,0.81875538018,-0.574005732523,-0.0117385415682,0.0,-0.00828749678543,0.00862756011226,-0.999928438741,0.0,0.659161042605,0.257500761038,0.303587088164,1.0,-0.01026,-0.0134845714286,0.514
0.463053848862,0.532512334247,-0.124068002209,-1.37932018347,0.0781325284564,1.90274022321,0.156251135652,-0.011104321345,-0.0561143157724,0.00126287305417,-0.0912746534167,-0.00525520083047,0.0282827720933,-0.0050688424459,0.574065515158,0.818794343889,0.00231378961442,0.0,0.818755547836,-0.574005087429,-0.0117583755099,0.0,-0.0082997241463,0.00864467241457,-0.999928189531,0.0,0.658982530664,0.257277080863,0.30357723515,1.0,-0.0106,-0.0139314285714,0.531
0.462914425301,0.531530647131,-0.124065006924,-1.38086859295,0.078034053343,1.90330745227,0.156062582745,-0.00837399065974,-0.0599760688175,-0.000430494437837,-0.0933695557609,-0.00365070722501,0.0336057051645,-0.0145952652026,0.574083631109,0.818781660397,0.00230737748676,0.0,0.818742824814,-0.574023270889,-0.0117566234131,0.0,-0.00830177910172,0.00863860013983,-0.99992822495,0.0,0.658811599785,0.257049610176,0.303580772977,1.0,-0.01092,-0.014352,0.547
0.462785889911,0.530529224973,-0.124068040465,-1.38250537968,0.0779389105201,1.90388667632,0.155843129155,-0.00884762994774,-0.0584803964138,-0.000509645754417,-0.101867501236,-0.00346634986138,0.0313649993987,-0.0213103463341,0.574074786183,0.818787992812,0.00226044163196,0.0,0.818748463143,-0.574014518555,-0.0117912463509,0.0,-0.00835716551867,0.00861995630081,-0.999927924471,0.0,0.658610545766,0.256805953676,0.303557671182,1.0,-0.01126,-0.0147988571429,0.564
0.462642667278,0.529504625733,-0.1240681269,-1.38414226408,0.0778225626902,1.90448385492,0.155629351155,-0.00862597106128,-0.0589075324435,-0.00470326035555,-0.0955859518606,-0.00407470985203,0.0387873168606,-0.00900978188588,0.574074638497,0.818788159973,0.00223728050053,0.0,0.818748445328,-0.574014579458,-0.0117895183825,0.0,-0.00836904756786,0.00859999901172,-0.999927996938,0.0,0.658417465566,0.256552458644,0.303552037661,1.0,-0.0116,-0.0152457142857,0.581
0.462501357529,0.528406619847,-0.124071233947,-1.38582296976,0.0777279909849,1.90511418348,0.1554022158,-0.0109408050009,-0.0724690553718,-0.000537885538778,-0.100915274156,-0.00320190501391,0.0432570356349,-0.00685703353313,0.574072270772,0.818789699589,0.00228093797616,0.0,0.818750494768,-0.574011985489,-0.0117734758452,0.0,-0.00833087540914,0.00862651119695,-0.999928087324,0.0,0.65822121374,0.256300000181,0.303579986849,1.0,-0.01194,-0.0156925714286,0.598
0.462372358753,0.527372143243,-0.124069397658,-1.38745518187,0.0776313734008,1.90573960982,0.155172224996,-0.00784260235439,-0.0639002036874,-0.000666898380459,-0.104755190832,-0.0104320486091,0.0400849376271,-0.0108099320075,0.574050754095,0.818804718366,0.00230473548525,0.0,0.818765797959,-0.573990355412,-0.0117637956466,0.0,-0.00830951542497,0.00864022070165,-0.999928146688,0.0,0.658029017716,0.256062803171,0.303585463025,1.0,-0.01226,-0.0161131428571,0.614
0.462220822048,0.526220518054,-0.124081541633,-1.38924485486,0.0775041715262,1.90641830857,0.154919908858,-0.00867023389724,-0.0704715518937,-0.00143250408345,-0.111247914371,-0.00368081263252,0.0484252066559,-0.00764771911636,0.574039192485,0.818812765876,0.00232525951632,0.0,0.81877432973,-0.573978945037,-0.0117266590155,0.0,-0.00826744727279,0.00863559093558,-0.999928535389,0.0,0.657823770346,0.255784211018,0.30360319273,1.0,-0.0126,-0.01656,0.631
0.462068203865,0.525030934903,-0.124083674363,-1.39107545725,0.0773871003687,1.907076123,0.154683287341,-0.00577892260412,-0.0714381924736,0.000294950961658,-0.106370809762,-0.0105427812416,0.0339468771597,-0.0172769337665,0.574038772293,0.818813028398,0.00233652135582,0.0,0.818774750753,-0.573978495872,-0.0117192451879,0.0,-0.00825491656216,0.00864055216799,-0.999928596056,0.0,0.657602611347,0.255506641039,0.303625708297,1.0,-0.01294,-0.0170068571429,0.648
0.46190952068,0.523869228053,-0.124086559879,-1.3929446303,0.0772695494571,1.90775218271,0.154437157755,-0.00840671551491,-0.0677878628318,0.00127297280923,-0.111347960825,-0.0112742561793,0.0409737694487,-0.0107451218215,0.574037906599,0.818813721654,0.00230606148188,0.0,0.818775045325,-0.573977740528,-0.0117356479278,0.0,-0.00828584112497,0.00862501842171,-0.999928474389,0.0,0.657376454029,0.255220898294,0.303611598771,1.0,-0.01328,-0.0174537142857,0.665
0.461759992568,0.5226596438,-0.124096109169,-1.39487856868,0.0771458835488,1.90847941716,0.154164182645,-0.00682789410016,-0.0764765276645,-0.000668117081437,-0.117157641139,-0.00691450835154,0.0404401754347,-0.00757933212636,0.5740140061,0.818830490444,0.00230122198933,0.0,0.818791831922,-0.573953945022,-0.0117282510356,0.0,-0.00828281357822,0.00861656802543,-0.999928572326,0.0,0.657145435172,0.254932738895,0.303604655786,1.0,-0.01362,-0.0179005714286,0.682
0.461601548593,0.521509921493,-0.124096798396,-1.3967299127,0.0770464732153,1.90920447407,0.153916473571,-0.0107325404589,-0.0748313360787,0.00172542948359,-0.118039410932,-0.00992310644904,0.0448943065041,-0.0143959840311,0.574011899492,0.818831870137,0.00233550633962,0.0,0.81879356146,-0.57395161148,-0.0117217018044,0.0,-0.0082577943706,0.00864086023501,-0.999928569632,0.0,0.656916893639,0.254640243819,0.303599444248,1.0,-0.01396,-0.0183474285714,0.699
0.461426771408,0.520241577035,-0.124096868602,-1.39875430494,0.0769196925568,1.90995100382,0.153639350098,-0.0114357948515,-0.0788450564422,0.00127306370662,-0.118941044466,-0.00821224702654,0.0439451546809,-0.00923782352645,0.574004029805,0.81883744822,0.00231388448686,0.0,0.818798859801,-0.573943824398,-0.011732882217,0.0,-0.00827944302814,0.00862949379782,-0.999928488773,0.0,0.656686373498,0.254348366651,0.303586214615,1.0,-0.01428,-0.018768,0.715
0.461261581712,0.518922577519,-0.124110986424,-1.40081412953,0.0767765389583,1.91069358768,0.153362235187,-0.0102451199773,-0.0765013971399,-0.00205698491343,-0.120593053654,-0.00939760628643,0.042377398014,-0.0114305727185,0.573993072893,0.818845160691,0.00230260407537,0.0,0.81880658726,-0.573933079108,-0.0117192263968,0.0,-0.00827485049166,0.00861230796983,-0.999928674957,0.0,0.656435663218,0.254031812568,0.30359658934,1.0,-0.01462,-0.0192148571429,0.732
0.461091868855,0.517566586488,-0.124107510911,-1.40293527092,0.0766379371078,1.91144535627,0.153076070382,-0.00835624879888,-0.0771795604458,-0.00100962719174,-0.129408583112,-0.00950589198326,0.0403294066143,-0.0178622696115,0.573970044033,0.818861344497,0.00228778115722,0.0,0.818822564201,-0.573910093497,-0.0117285906247,0.0,-0.00829126842273,0.00860531218969,-0.999928599186,0.0,0.656169409194,0.253717167678,0.303603584526,1.0,-0.01496,-0.0196617142857,0.749
0.460899482948,0.516224940268,-0.124115148934,-1.40506250816,0.0765018101045,1.91224004327,0.152784990796,-0.0134837490831,-0.0808594740635,0.000704632494319,-0.128152642115,-0.0106764220039,0.0457908058875,-0.00393295377346,0.573970447788,0.818861058555,0.00228883167951,0.0,0.818822357713,-0.573910561595,-0.0117200981608,0.0,-0.00828370679872,0.00860130214338,-0.999928696359,0.0,0.655917270862,0.25338357943,0.303601314075,1.0,-0.0153,-0.0201085714286,0.766
0.460732481276,0.514949961837,-0.124118819739,-1.40713254884,0.0763766175965,1.91302341359,0.152500151772,-0.00853766979506,-0.0782712990169,0.000586572467814,-0.129364417619,-0.014958400547,0.0533349432018,-0.0112274427088,0.573952159047,0.818873913072,0.00227607464158,0.0,0.818835037215,-0.573892313122,-0.0117278160938,0.0,-0.00829754066902,0.00859510051411,-0.999928634987,0.0,0.655665991905,0.253075900941,0.303578071442,1.0,-0.01562,-0.0205291428571,0.782
0.460539775794,0.513529452966,-0.124119173909,-1.40938949932,0.0762495378396,1.91380522933,0.152191392661,-0.0140542551224,-0.0775015814052,-0.000448480305897,-0.131831596269,-0.00951310202401,0.0433429683039,-0.0172365820503,0.573941532452,0.81888146967,0.002236707043,0.0,0.818841875715,-0.573881623765,-0.0117733334916,0.0,-0.00835752047098,0.00858887981932,-0.999928188919,0.0,0.655378876207,0.25273274379,0.303567203696,1.0,-0.01596,-0.020976,0.799
0.460324635876,0.512035517465,-0.124122362709,-1.41180588349,0.0760976922204,1.91465328798,0.151850290858,-0.0105806358923,-0.0852080737629,0.000801193454539,-0.141371954568,-0.0060187571405,0.0565225076676,-0.0190972118545,0.573926055778,0.818892494657,0.00217062071881,0.0,0.818851979906,-0.57386634195,-0.0118153917248,0.0,-0.00843005173783,0.00855874302563,-0.999927838469,0.0,0.655075706319,0.252355869477,0.303537265951,1.0,-0.01632,-0.0214491428571,0.817
0.460139581555,0.510676841782,-0.12412803501,-1.41397181679,0.0759711920125,1.91548514274,0.151543047888,-0.0127108324256,-0.0904245562128,-0.000913334689616,-0.135939305779,-0.00624809027491,0.0563514992252,-0.0245811812281,0.573909377578,0.818904128896,0.00219109703108,0.0,0.818863854606,-0.573849559571,-0.0118075188584,0.0,-0.00841202783653,0.00857082097432,-0.999927886808,0.0,0.654816108992,0.252028150063,0.303530023915,1.0,-0.01664,-0.0218697142857,0.833
0.459943487061,0.509190171654,-0.124131596475,-1.41633629251,0.0758200995006,1.9163659075,0.151209187339,-0.0149267197093,-0.0826843481565,0.000112819915857,-0.135863246393,-0.010883889232,0.0549949392931,-0.022530698445,0.573881472706,0.818923693148,0.00218791838936,0.0,0.818883411722,-0.573821705363,-0.0118048871771,0.0,-0.00841198869977,0.00856642104375,-0.999927924841,0.0,0.654525022294,0.251672027268,0.303521568333,1.0,-0.01698,-0.0223165714286,0.85
0.45972948,0.507680939715,-0.124131978023,-1.41871334402,0.0756690076282,1.9172079257,0.150879426891,-0.0151665696947,-0.0870230372364,-0.00203356288285,-0.140949116587,-0.00954156653693,0.0494152420953,-0.0187440132115,0.57386924613,0.818932325173,0.00216380096789,0.0,0.818891682715,-0.573809526499,-0.0118231205908,0.0,-0.00844088854065,0.00855700866493,-0.999927761893,0.0,0.654226584735,0.251302353375,0.30351891715,1.0,-0.01732,-0.0227634285714,0.867
0.459525026897,0.506210692552,-0.124134572927,-1.42099821355,0.0755152451297,1.91804740965,0.150575716699,-0.0196355398089,-0.101240413512,-0.000346118105803,-0.14765495149,-0.00215833623479,0.0472981832831,-0.015246091848,0.573866274738,0.818934373199,0.00217669744046,0.0,0.81889398351,-0.573806591306,-0.0118062036922,0.0,-0.00841966478659,0.00855783133435,-0.999927933787,0.0,0.653945980076,0.250947518888,0.303532183154,1.0,-0.01764,-0.023184,0.883
0.459304583832,0.504602921647,-0.12413981834,-1.42346424515,0.0753636721654,1.91901598693,0.150233740117,-0.014650451258,-0.0972518936041,-0.000606805740836,-0.149474414422,-0.00181963877434,0.056468359745,-0.010067860946,0.573857040825,0.818940598867,0.00226696364521,0.0,0.818901446732,-0.573797077552,-0.0117507971745,0.0,-0.00832258799633,0.00859986307666,-0.999928385878,0.0,0.653654901291,0.250570065638,0.303566087106,1.0,-0.01798,-0.0236308571429,0.9
0.45907762392,0.50293886367,-0.124149323768,-1.42594409448,0.0752079080432,1.91995474792,0.149884032084,-0.0153242912681,-0.1033078844,-0.00144422363153,-0.15126372119,-0.0145473954162,0.0532234241025,-0.02209063977,0.573848615722,0.818946216216,0.00236813867312,0.0,0.818908446014,-0.573788348249,-0.0116891129274,0.0,-0.00821410257209,0.00864723651926,-0.99992887438,0.0,0.653357770361,0.250182407205,0.303629580057,1.0,-0.01832,-0.0240777142857,0.917
0.458838930024,0.501235336451,-0.124151957459,-1.42847179649,0.0750427010605,1.92086692127,0.149530896925,-0.0121831655261,-0.102537447785,-0.00154035588753,-0.152902693694,-0.0112274636583,0.0558021590897,-0.0181459578727,0.573841094423,0.818951275989,0.00243983761419,0.0,0.818914466636,-0.573780601493,-0.0116475140995,0.0,-0.00813897174051,0.00868200771222,-0.999929187433,0.0,0.653045630869,0.249782805943,0.303694640625,1.0,-0.01866,-0.0245245714286,0.934
0.458604912891,0.499526150313,-0.124147921446,-1.43106287901,0.074882853437,1.92178720606,0.149156826054,-0.0166800149453,-0.0956571408589,-6.16772472369e-05,-0.148655858307,-0.0132554031087,0.0516410405107,-0.0213758493776,0.573812123342,0.818971466856,0.00247598120713,0.0,0.818935017761,-0.573751389487,-0.0116415912615,0.0,-0.00811368962773,0.00870792156918,-0.999929167563,0.0,0.652715888201,0.24938425673,0.303733376469,1.0,-0.019,-0.0249714285714,0.951
0.458351481918,0.497850526119,-0.124150438696,-1.4336950746,0.0747163781752,1.92277300234,0.148775944035,-0.0184420209656,-0.0991101143144,-0.000723474776776,-0.154948524926,-0.0137745292803,0.0565015329929,-0.0265207929725,0.573798373635,0.818981037451,0.0024967197363,0.0,0.818944871843,-0.573737583986,-0.0116287792072,0.0,-0.00809144349541,0.00871741825826,-0.999929265079,0.0,0.652393935083,0.248967313122,0.303734475431,1.0,-0.01934,-0.0254182857143,0.968
0.458102220721,0.496284414165,-0.124148012072,-1.43621469636,0.0745656466237,1.92366461833,0.148399276875,-0.0123931542553,-0.0990617640942,-7.28924824639e-05,-0.157709293467,-0.0125102937424,0.0646991542449,-0.0213597052353,0.573779049705,0.818994723997,0.00244766961983,0.0,0.818957759612,-0.573718262629,-0.01167433075,0.0,-0.00815709957811,0.00870319199521,-0.999928855557,0.0,0.652073316077,0.2485642493,0.303703971167,1.0,-0.01966,-0.0258388571429,0.984
0.457818242066,0.494510314683,-0.124150309878,-1.4391224988,0.0743807592369,1.9246635653,0.147992066311,-0.0122291734408,-0.0988945644444,0.00732072610371,-0.158849364635,-0.0101560481033,0.054292701121,-0.0310265212622,0.573769848573,0.819001532902,0.00232311713157,0.0,0.818962798169,-0.573709360033,-0.0117580749296,0.0,-0.0082972470962,0.00864914190119,-0.999928171438,0.0,0.651673424999,0.248074264499,0.303636763227,1.0,-0.0201182857143,-0.0264411755102,1.003
0.457551835937,0.492875860071,-0.124153973274,-1.44176094185,0.0742051917878,1.92564071932,0.147630833461,-0.0167335116493,-0.101772666427,-0.00113666926932,-0.16613030808,-0.0188790790248,0.0615960415732,-0.0165597079873,0.57378599911,0.8189902898,0.00229768147131,0.0,0.818951322002,-0.573725705964,-0.0117598218123,0.0,-0.00831310100279,0.00862947653056,-0.999928209666,0.0,0.651369766512,0.247665582813,0.303609419243,1.0,-0.0211554285714,-0.027804277551,1.018
0.457282290594,0.491145364712,-0.124156080138,-1.44454701286,0.0740352075196,1.92663326156,0.147239625385,-0.0166422811583,-0.106056818185,-0.000204685708218,-0.178898747062,-0.0143961245168,0.0564471193292,-0.0202343063794,0.573781219792,0.818993784711,0.002244843093,0.0,0.818953999223,-0.573720994129,-0.0118031755821,0.0,-0.00837897515184,0.00861102950055,-0.999927818868,0.0,0.651012258419,0.247221406607,0.303573577925,1.0,-0.0222617142857,-0.0292582530612,1.034
0.456969289451,0.489219771838,-0.124160016983,-1.44765793516,0.0738370072469,1.92772471502,0.146798250201,-0.0187142109438,-0.120159360542,-0.000247794391128,-0.188419494598,-0.0143386819976,0.0684079505349,-0.0258514930522,0.573779934708,0.818994908751,0.00216168178685,0.0,0.818953945413,-0.573719937414,-0.0118581451427,0.0,-0.00847172366661,0.00857444865853,-0.999927351725,0.0,0.650611674134,0.246714354344,0.303526704463,1.0,-0.0234371428571,-0.0308031020408,1.051
0.456631925517,0.487147995872,-0.124177745526,-1.45086760409,0.0736314013372,1.92895726328,0.146322755481,-0.0202945599722,-0.120687278349,-0.00157119717222,-0.192553609185,-0.0142574598651,0.0724710351007,-0.0255035951151,0.573783316528,0.818992349342,0.00223255342194,0.0,0.818952449222,-0.573723184532,-0.0118042511596,0.0,-0.00838688520405,0.00860160307989,-0.999927833687,0.0,0.650226833386,0.246181936105,0.303546004268,1.0,-0.0246125714286,-0.0323479510204,1.068
0.456269581115,0.484956517215,-0.124193410908,-1.45418905588,0.0734263486371,1.93020900511,0.145825492715,-0.0200497594361,-0.129360603984,-0.000554583765586,-0.194421211487,-0.0130843441476,0.0701766542911,-0.0278836301901,0.573792657083,0.818985523711,0.00233356606736,0.0,0.818946973708,-0.57373217754,-0.0117468979357,0.0,-0.00828185686798,0.00865151721634,-0.999928278476,0.0,0.649825407823,0.245624456278,0.303595682665,1.0,-0.025788,-0.0338928,1.085
0.455892494586,0.482670035629,-0.124230194871,-1.45771250068,0.0732023109075,1.93139379242,0.145290730269,-0.0215869897746,-0.137138992354,-0.00210143428915,-0.213689405266,-0.0176014225196,0.0702012971864,-0.0395961582358,0.573801615963,0.818979385137,0.00228454389697,0.0,0.818940160586,-0.573741281592,-0.0117771846138,0.0,-0.00833469473907,0.00862883844064,-0.999928035416,0.0,0.649370768869,0.245015363786,0.303608882377,1.0,-0.0269634285714,-0.0354376489796,1.102
0.455522507199,0.480448230414,-0.124254043879,-1.46118464158,0.0729891199612,1.93265890958,0.144778431015,-0.0215207761187,-0.134490359152,-0.00243526854431,-0.21841553127,-0.0129819321601,0.0827785401167,-0.0351288553021,0.573814251117,0.818970505849,0.00229405030849,0.0,0.818931381244,-0.573753854507,-0.0117751498264,0.0,-0.00832744053189,0.00863558482898,-0.999928037615,0.0,0.648935755223,0.244430917749,0.303607146691,1.0,-0.0280697142857,-0.0368916244898,1.118
0.455102954914,0.477972769532,-0.12426264738,-1.46494700395,0.0727627155343,1.93404791413,0.144231964999,-0.0273174047109,-0.149338318697,-7.37666222679e-05,-0.227030112819,-0.0104194016657,0.0901056627498,-0.0379095473757,0.573838149763,0.818953501212,0.00238487535277,0.0,0.818915455338,-0.573777302668,-0.011740138543,0.0,-0.00824639898611,0.0086901179766,-0.999928236802,0.0,0.648467859746,0.243798765587,0.303651889287,1.0,-0.0292451428571,-0.0384364734694,1.135
0.454660494714,0.475426254527,-0.124279091612,-1.46884621828,0.0725136876389,1.93548516963,0.143674307714,-0.0237733156693,-0.154353762778,0.000427754199951,-0.228989181998,-0.016238148417,0.0893996588013,-0.0280283915177,0.573876447992,0.818926469239,0.0024509835928,0.0,0.818889323198,-0.573815397106,-0.0117009956183,0.0,-0.00817600031805,0.00872217802784,-0.999928535761,0.0,0.647983594679,0.243131957211,0.303683667785,1.0,-0.0304205714286,-0.039981322449,1.152
0.454210868899,0.472770820556,-0.124288952851,-1.4729499107,0.072256842927,1.93689635942,0.143076690581,-0.0289317867751,-0.15908305195,-0.00058263721219,-0.24667248674,-0.00919255520206,0.0778359646635,-0.0326460386097,0.573889169963,0.818917638156,0.00242268816187,0.0,0.81887992787,-0.573828011853,-0.011739823041,0.0,-0.0082239001614,0.00872141592204,-0.999928149604,0.0,0.647444178449,0.242439295871,0.303689493654,1.0,-0.031596,-0.0415261714286,1.169
0.45378100179,0.470218826339,-0.124281164951,-1.47688429067,0.0720084890319,1.93832585478,0.142467654979,-0.0289358807268,-0.160495285428,-0.0053048070246,-0.249194612215,-0.0139000321898,0.0964803960648,-0.0378276350843,0.573856959454,0.818940082333,0.00246546877819,0.0,0.818902791982,-0.573795503298,-0.011733907252,0.0,-0.00819484984884,0.00875273212136,-0.999928114474,0.0,0.64693571905,0.241791274915,0.303703869824,1.0,-0.0327022857143,-0.0429801469388,1.185
0.453276497668,0.467229175997,-0.124284185654,-1.48139765609,0.0717070217351,1.94005918721,0.141734413283,-0.0249116638866,-0.16978167726,-0.000822853099285,-0.255350204167,-0.0148139196337,0.0896551460042,-0.0356290718861,0.573803788626,0.818976818586,0.0026324282669,0.0,0.818941880647,-0.573741946345,-0.0116242001234,0.0,-0.00800977013112,0.00882598575371,-0.999928970256,0.0,0.646375691298,0.241038251828,0.303769586135,1.0,-0.0339468571429,-0.0446158693878,1.203
0.452802581712,0.464487649224,-0.124295650803,-1.48564757879,0.0714148647682,1.9414875002,0.141100207883,-0.0281683330406,-0.173387429045,-0.00246741583869,-0.271216301402,-0.021455293156,0.0906693933348,-0.0436498515968,0.5738000816,0.818979660085,0.00255531298901,0.0,0.818943673739,-0.573738456712,-0.0116700229028,0.0,-0.00809158584753,0.00878908671785,-0.99992863655,0.0,0.64580424236,0.240309952016,0.303761560069,1.0,-0.0350531428571,-0.046069844898,1.219
0.452275277419,0.461543796057,-0.124293537336,-1.49031716589,0.0710965893073,1.94312962497,0.140402515588,-0.03604140469,-0.177292482246,0.00218690228155,-0.277765742157,-0.0285094096928,0.102123734007,-0.0406166664968,0.573789774529,0.8189871309,0.00247405884786,0.0,0.818950037586,-0.573728386759,-0.0117184071344,0.0,-0.00817794429699,0.00875020124244,-0.99992827503,0.0,0.645183658441,0.239519008416,0.30370976088,1.0,-0.0362285714286,-0.0476146938775,1.236
0.45172916523,0.458506065802,-0.124301666106,-1.4950379031,0.0707833099408,1.94480508824,0.13969102565,-0.0325578359967,-0.177353160368,-0.00231249425395,-0.282270069849,-0.0184949860696,0.104971026628,-0.0532765760343,0.573793334113,0.818984676473,0.00246096160117,0.0,0.818947364191,-0.57373194158,-0.011731189045,0.0,-0.00819588958333,0.00874684449575,-0.999928157472,0.0,0.64456197802,0.238708708775,0.303699167011,1.0,-0.037404,-0.0491595428571,1.253
0.451138553409,0.455421355157,-0.124313037167,-1.49996487855,0.0704528056923,1.94650813601,0.138932019953,-0.0353612034216,-0.184603449815,-0.0026984163284,-0.295650426507,-0.0256992931702,0.101940892659,-0.0456093466445,0.573799621257,0.818980643293,0.00233397914492,0.0,0.818941567101,-0.573738584546,-0.0118107230016,0.0,-0.0083338200825,0.0086885482051,-0.99992752566,0.0,0.643903186554,0.237844174226,0.303623343196,1.0,-0.0385794285714,-0.0507043918367,1.27
0.45054329826,0.452146520423,-0.124351276115,-1.50494917544,0.0701180036957,1.94827341174,0.138132719185,-0.0342507504165,-0.195523073467,-0.00162652634979,-0.293140713476,-0.0132309347427,0.100978066194,-0.0489186885679,0.57379600728,0.81898307496,0.00236893655579,0.0,0.818944551279,-0.573734940491,-0.0117807848737,0.0,-0.00828928134179,0.00869996250907,-0.999927796627,0.0,0.6432502214,0.236960662277,0.303654083967,1.0,-0.0397548571429,-0.0522492408163,1.287
0.449967964599,0.448948543672,-0.124375234632,-1.50969716667,0.0697924960212,1.95003826546,0.137415353467,-0.0395266231485,-0.200266288254,-0.00422639130804,-0.29581093716,-0.0165446897594,0.106596614466,-0.0434182595229,0.573822878491,0.818963747762,0.00253591657912,0.0,0.81892763721,-0.573761457745,-0.0116645411982,0.0,-0.00809798109372,0.00877028163405,-0.999928749893,0.0,0.642642413762,0.236127094401,0.303741271718,1.0,-0.0408611428571,-0.0537032163265,1.303
0.449340025591,0.445499192693,-0.124390774662,-1.51497298899,0.0694281954858,1.95177027578,0.136636476096,-0.0340845760462,-0.196120893759,-0.00182652918125,-0.311136785016,-0.0203313261488,0.1067455263,-0.0495023778978,0.573846122307,0.818947725423,0.00244904843783,0.0,0.818910342498,-0.573784856525,-0.0117275860429,0.0,-0.00819921086827,0.00873554905617,-0.999928228986,0.0,0.641908532329,0.235199255126,0.303744173531,1.0,-0.0420365714286,-0.0552480653061,1.32
0.448695279372,0.442018018188,-0.124388425346,-1.52030724335,0.0690520650757,1.95370499326,0.13578278707,-0.0386274136497,-0.205633818232,0.000762860280331,-0.314590510186,-0.0178928303954,0.115474680299,-0.0512456058844,0.573806741979,0.818975156468,0.00250256838775,0.0,0.818938583629,-0.573745410304,-0.0116853455122,0.0,-0.00813432715379,0.00875474840418,-0.999928591001,0.0,0.641196955562,0.234276849213,0.303755310349,1.0,-0.043212,-0.0567929142857,1.337
0.448012988774,0.438509065929,-0.124392282243,-1.52579180264,0.0686974320248,1.95562257138,0.134889294225,-0.0403250556745,-0.210279332195,-0.000786444263902,-0.328138329902,-0.02121959059,0.116238723702,-0.0550799325061,0.57378805835,0.818988354006,0.00246718433721,0.0,0.818951068555,-0.573726585989,-0.011734510804,0.0,-0.00819509622261,0.00875379395683,-0.99992810316,0.0,0.640407926447,0.23324952768,0.303716033724,1.0,-0.0444565714286,-0.0584286367347,1.355
0.447289826104,0.434823150876,-0.124415975942,-1.53133755212,0.0683049629685,1.95758367979,0.133998543954,-0.0389986353856,-0.223923272722,0.000342963934334,-0.327092083556,-0.0191154384565,0.118118264044,-0.0497817728424,0.573794667728,0.818983547729,0.00252482405239,0.0,0.818947157223,-0.57373314294,-0.0116867989822,0.0,-0.00812287724363,0.00877368933968,-0.999928518065,0.0,0.639707101741,0.232304244457,0.303757113837,1.0,-0.0455628571429,-0.0598826122449,1.371
0.446535321349,0.43110836214,-0.124440249195,-1.53704672578,0.0678925860943,1.95959950783,0.133100320568,-0.0459037024277,-0.216356719775,-0.000372925552573,-0.34558359949,-0.0247923272668,0.110048101353,-0.0518698251923,0.573827056198,0.818960872766,0.00251899866916,0.0,0.818924601819,-0.573765758908,-0.0116660765276,0.0,-0.00810890115318,0.00875734893944,-0.999928774744,0.0,0.638938429259,0.231258290548,0.303747915506,1.0,-0.0467382857143,-0.0614274612245,1.388
0.445822127619,0.427509151869,-0.124475645185,-1.54262493194,0.0674792384049,1.96137446592,0.132216879796,-0.0458889521989,-0.230848152727,-0.000280753046942,-0.348531449558,-0.0297079544686,0.111863025325,-0.0641327165399,0.573836011934,0.818955172161,0.00232471482113,0.0,0.818916371856,-0.573775419133,-0.011768228641,0.0,-0.00830394736859,0.00865694709087,-0.999928048274,0.0,0.63813915127,0.230231808953,0.303698629184,1.0,-0.0478445714286,-0.0628814367347,1.404
0.445036983043,0.423583383484,-0.124490713433,-1.54851249082,0.0670630777714,1.96346195576,0.131205222468,-0.0472890359606,-0.235626366005,-0.000640257739431,-0.347509385723,-0.0268530559863,0.123359901504,-0.0664148302665,0.573795364817,0.818983382981,0.0024175643853,0.0,0.818945886717,-0.573734534802,-0.0117074807951,0.0,-0.0082013499512,0.00869772008118,-0.999928541209,0.0,0.637337561274,0.229160425057,0.303746818314,1.0,-0.04902,-0.0644262857143,1.421
0.444265331893,0.419857713381,-0.124506209329,-1.55418853356,0.0666653781428,1.96540174664,0.130314443499,-0.0470628922679,-0.231802396863,-0.00155281569566,-0.361033635818,-0.0283633490937,0.128654336309,-0.053008001584,0.573836385556,0.818954695349,0.00239926628501,0.0,0.818916893548,-0.573775545719,-0.0117256768694,0.0,-0.00822631618841,0.00869358710434,-0.999928372067,0.0,0.636546004006,0.228114213998,0.303743706412,1.0,-0.0501262857143,-0.0658802612245,1.437
0.44343213911,0.415777778346,-0.124517093726,-1.56022208953,0.0662562430772,1.96761467438,0.12932601947,-0.0512848136058,-0.2424935225,0.00165426939277,-0.355620581571,-0.0188408236787,0.126206752048,-0.0562575534177,0.573854707968,0.8189412017,0.00261327424547,0.0,0.818906236985,-0.573793169005,-0.0116069432602,0.0,-0.00800607929266,0.00880089505808,-0.999929220965,0.0,0.635732824469,0.2270116888,0.303830029954,1.0,-0.0513017142857,-0.0674251102041,1.454
0.442581050596,0.411642794705,-0.124520459249,-1.56650054962,0.0658086845749,1.96973876947,0.128238913502,-0.0526867493727,-0.243144181714,-0.00025053837024,-0.376269239877,-0.0319179283973,0.119666811178,-0.0579757245819,0.573795887711,0.818982492976,0.00258888909986,0.0,0.818947087029,-0.573734303277,-0.0116346375706,0.0,-0.00804338485852,0.00879623973484,-0.99992896254,0.0,0.634836449533,0.225865128198,0.303825618922,1.0,-0.0524771428571,-0.0689699591837,1.471
0.441708030156,0.40747135934,-0.124550140399,-1.5728885668,0.0653552041476,1.97182201155,0.127226518314,-0.0526234776018,-0.243349633935,-0.00269459509774,-0.37258158471,-0.0243135175111,0.121484478096,-0.0528305659783,0.573835263105,0.818955280774,0.00246694349441,0.0,0.818918098992,-0.573773899804,-0.0117220283326,0.0,-0.00818450679213,0.0087469062942,-0.999928250165,0.0,0.633907519054,0.22467538412,0.303786912503,1.0,-0.0536525714286,-0.0705148081633,1.488
0.440849300948,0.403513971685,-0.124549649481,-1.57896330199,0.0649472708104,1.97392082673,0.126202354543,-0.0551267727982,-0.251694395116,0.000448601496112,-0.383923472471,-0.0319870142578,0.130142520366,-0.0699196641553,0.573825272795,0.818962297349,0.00246144751835,0.0,0.818924725834,-0.573763591184,-0.0117635772763,0.0,-0.00822179559863,0.00876614694921,-0.999927775764,0.0,0.632985880881,0.22348696598,0.303749769981,1.0,-0.054828,-0.0720596571429,1.505
0.439891225897,0.399126071011,-0.124567259473,-1.58538011309,0.0644854802166,1.97622982395,0.125087195934,-0.0579444075394,-0.269741966869,-0.00615427823492,-0.378007779312,-0.0250572938335,0.135353186305,-0.0656158723871,0.573838604547,0.818952277476,0.00267769466339,0.0,0.818917734694,-0.573776390088,-0.0116251831394,0.0,-0.00798422595149,0.00886396117701,-0.999928838632,0.0,0.632156987838,0.222334799703,0.303852418816,1.0,-0.0559342857143,-0.0735136326531,1.521
0.438909189209,0.394678383963,-0.124571179151,-1.59203515216,0.0639771542963,1.9784517834,0.123986279322,-0.0559722394424,-0.261172166912,0.000325420704892,-0.40035542702,-0.0261117122736,0.13903291058,-0.0633695973005,0.573859201034,0.818937876914,0.00266796658385,0.0,0.818903280904,-0.573797098215,-0.0116212523369,0.0,-0.00798636599418,0.00885393963569,-0.999928910329,0.0,0.631191395328,0.221070616008,0.303870197013,1.0,-0.0571097142857,-0.0750584816326,1.538
0.437918374596,0.390194249149,-0.124586792999,-1.59884035421,0.0634719629611,1.9806210573,0.122832423384,-0.0562423364032,-0.268679643801,0.000603643373264,-0.397448194735,-0.0326480477885,0.137508158351,-0.0679233319214,0.573855639858,0.818940814397,0.00252863957784,0.0,0.818904187945,-0.573793785355,-0.0117204844272,0.0,-0.00814762225371,0.00879674899517,-0.999928114146,0.0,0.630171964924,0.219777022075,0.303832283865,1.0,-0.0582851428571,-0.0766033306122,1.555
0.436920083207,0.385690125458,-0.124590770466,-1.60568567369,0.0629549725172,1.98295101446,0.121583096011,-0.0635593529538,-0.267703785823,-0.00147931339637,-0.403340631382,-0.03523313524,0.130841404434,-0.0724070362616,0.573766145034,0.819003610402,0.00249877237226,0.0,0.818966624837,-0.573704441503,-0.0117315005337,0.0,-0.00817474187334,0.00877771801087,-0.999928060043,0.0,0.629166018919,0.218491775479,0.303797422213,1.0,-0.0594605714286,-0.0781481795918,1.572
0.435942772169,0.381307838255,-0.124596741827,-1.61208031642,0.062507280405,1.98518372926,0.120446748944,-0.0541875689929,-0.275290099886,-0.00118098338697,-0.403756185969,-0.0246907618213,0.149479831369,-0.0636608068768,0.573759592221,0.819007495826,0.00272011315446,0.0,0.81897337278,-0.573697097703,-0.0116190217304,0.0,-0.00795569804107,0.00889439665919,-0.999928795753,0.0,0.628189963727,0.217194476202,0.303900861414,1.0,-0.060636,-0.0796930285714,1.589
0.434839274178,0.376670027092,-0.12461406353,-1.61912096387,0.0619612411068,1.98747777665,0.11921661888,-0.0679198505084,-0.27496862389,-0.0034073607097,-0.420197462622,-0.0314362067982,0.121912749505,-0.0783057994355,0.573767010101,0.819002784645,0.00256977900848,0.0,0.818966628371,-0.573704949077,-0.0117064051147,0.0,-0.00811343966079,0.0088214821528,-0.999928174195,0.0,0.627190832791,0.215893697932,0.303829546395,1.0,-0.0617422857143,-0.0811470040816,1.605
0.433710949175,0.371878667532,-0.124657990181,-1.62632223517,0.0613914494756,1.9897707138,0.117946144128,-0.0697074268899,-0.285924415256,-0.00496894496558,-0.420731201608,-0.0317504518462,0.131222836631,-0.0719073636825,0.57378112487,0.818993292097,0.002440316345,0.0,0.81895553708,-0.573719624338,-0.0117629859203,0.0,-0.00823390771529,0.00874805830337,-0.999927834516,0.0,0.626101233948,0.214464499604,0.303798973288,1.0,-0.0629177142857,-0.0826918530612,1.622
0.432566759418,0.367028556332,-0.12471463171,-1.63347820694,0.0608469351959,1.99214720498,0.116723035773,-0.0691539289731,-0.286836168844,-0.00303408611949,-0.417711700443,-0.0339836564014,0.135226523475,-0.0801974033669,0.573859729279,0.818938109693,0.00247598582736,0.0,0.818900962894,-0.573798241676,-0.0117276477168,0.0,-0.00818365889902,0.00875778053642,-0.999928161923,0.0,0.625037672531,0.213035514132,0.30383015474,1.0,-0.0640931428571,-0.0842367020408,1.639
0.431370737416,0.362101835058,-0.124718531444,-1.64054569055,0.0602906911991,1.99465042944,0.115365790784,-0.072470800336,-0.283336838575,0.000901675153241,-0.423994126211,-0.0322640846215,0.143430781621,-0.0779666646879,0.573819683093,0.818965284781,0.00275327439312,0.0,0.818932155594,-0.57375770399,-0.011531198884,0.0,-0.00786409059176,0.00887174463158,-0.999929721644,0.0,0.624017348992,0.211625118962,0.303956881887,1.0,-0.0652685714286,-0.0857815510204,1.656
0.430200956196,0.357470715839,-0.124736615252,-1.64754388853,0.0597804469313,1.9968090402,0.114089276858,-0.0722764370056,-0.287402185071,-0.00199080583028,-0.441979890128,-0.0369056041402,0.132208742031,-0.0734244409386,0.573846148085,0.81894735267,0.00256491387553,0.0,0.818911217926,-0.573784186559,-0.011699201294,0.0,-0.00810947903898,0.00881414804356,-0.999928270999,0.0,0.622854402102,0.210124825815,0.303880524248,1.0,-0.066444,-0.0873264,1.673
0.428940415665,0.352463772425,-0.124767831301,-1.65506586867,0.0592076353473,1.99920538294,0.112736951044,-0.0729837447696,-0.290664446953,-0.000879492665328,-0.44843919121,-0.0331944534813,0.142090266272,-0.0748036512731,0.573882735938,0.818922000699,0.00247165232398,0.0,0.818884451261,-0.57382089119,-0.0117723072346,0.0,-0.00822247396223,0.00878009058506,-0.999927647848,0.0,0.621759979456,0.208698111281,0.303832122895,1.0,-0.0675502857143,-0.0887803755102,1.689
0.427644885909,0.347361979605,-0.124780897103,-1.66248802092,0.0586623954319,2.00168404795,0.111289222357,-0.0732924071431,-0.305698644849,-0.00145492874584,-0.429997546376,-0.0392617036204,0.147550308613,-0.0840582410176,0.573860964657,0.818936839798,0.00260625528464,0.0,0.81890085897,-0.573798435497,-0.0117254211164,0.0,-0.00810707019572,0.00886319680814,-0.999927856975,0.0,0.620634263291,0.207193696644,0.303886113262,1.0,-0.0687257142857,-0.0903252244898,1.706
0.42648653834,0.342771706978,-0.124779165293,-1.66905095793,0.0581390737715,2.00387836016,0.110097032615,-0.0749848090136,-0.310430311233,-0.000166092895966,-0.440276396595,-0.0369482910867,0.140252071356,-0.082042552999,0.573895714811,0.818911936125,0.00277421976211,0.0,0.818878312858,-0.573832792829,-0.0116181541739,0.0,-0.00792245938664,0.00893952940635,-0.999928657181,0.0,0.619634662489,0.205861536634,0.303979497265,1.0,-0.0697628571429,-0.0916883265306,1.721
0.424987680568,0.33696079018,-0.124769320722,-1.67771622701,0.0574255910086,2.00652595961,0.108414754004,-0.0823991549317,-0.308661292073,0.00288142267593,-0.453435298928,-0.0347288642467,0.138542586287,-0.084322221778,0.573807715015,0.818974243293,0.00257719089738,0.0,0.818937821814,-0.573745229047,-0.011747469963,0.0,-0.00814238110793,0.00885151841575,-0.99992767351,0.0,0.618238522111,0.204109884826,0.303910849265,1.0,-0.0710765714286,-0.093414922449,1.74
0.423649738114,0.331709751152,-0.124766537022,-1.68548238681,0.056785091904,2.00901002129,0.106954236302,-0.0775408899367,-0.312781095403,0.00119215774932,-0.452538822818,-0.0361669685026,0.145430416271,-0.0885642536395,0.573762471163,0.81900610815,0.00252356880768,0.0,0.818969010975,-0.573700210556,-0.0117717616323,0.0,-0.00819353047508,0.00882108952796,-0.999927524593,0.0,0.616999221701,0.202551154025,0.303879644487,1.0,-0.072252,-0.0949597714286,1.757
0.422334880518,0.326629328821,-0.124769233393,-1.6926529265,0.0562349425385,2.01144226711,0.105505404107,-0.0800660188795,-0.310047874376,-0.000258366454063,-0.452117917595,-0.0352498431117,0.157032487916,-0.0849583232477,0.573718034675,0.819036318084,0.00280593113456,0.0,0.819002971744,-0.573654876613,-0.0116173022995,0.0,-0.00790550862821,0.00896329435241,-0.999928578593,0.0,0.615894665402,0.201080534212,0.304006327767,1.0,-0.0733582857143,-0.0964137469388,1.773
0.420843763295,0.321286626293,-0.124789819182,-1.70059987486,0.0555727290176,2.01387851723,0.103995101747,-0.0915723961931,-0.320132284113,-0.00269311566984,-0.470942153851,-0.0401743845846,0.136713891136,-0.0838801456356,0.573763767094,0.819004841358,0.00263748045015,0.0,0.818969200926,-0.573701066973,-0.0117166799821,0.0,-0.00808304790537,0.00888279272239,-0.999927877564,0.0,0.614611331941,0.199398037915,0.303931695009,1.0,-0.0745337142857,-0.0979585959184,1.79
0.419355330932,0.315811571354,-0.124839323526,-1.70861785126,0.0549247533884,2.01631433745,0.102406946413,-0.0899213316509,-0.325832036735,-0.00359441818735,-0.47831087118,-0.0404203818231,0.147724862974,-0.0972670924811,0.573767824028,0.819002331909,0.0025320621842,0.0,0.81896510785,-0.573705275665,-0.0117964273913,0.0,-0.0082088021532,0.00884225129613,-0.999927212431,0.0,0.613303579437,0.197701194399,0.30390190033,1.0,-0.0757091428571,-0.099503444898,1.807
0.417816326639,0.310232052741,-0.124874673451,-1.71650030865,0.0542388839291,2.01892613273,0.100761306155,-0.0883670419802,-0.334341095147,-0.000852310503775,-0.455623016152,-0.0383759328952,0.163868188412,-0.0892891199154,0.573732519585,0.819026385944,0.00274262630875,0.0,0.818992551229,-0.573669948175,-0.0116076911176,0.0,-0.00793379576293,0.00890607185859,-0.999928865854,0.0,0.612069723917,0.196007098461,0.304009386439,1.0,-0.0768845714286,-0.101048293878,1.824
0.416125544296,0.304361264996,-0.124886901776,-1.72501390896,0.0535461190581,2.02157659314,0.0990095958477,-0.0950695906218,-0.329133632975,-0.00157188591505,-0.484689949419,-0.0379872502579,0.137513451496,-0.104693614344,0.573729162465,0.819028756515,0.00273697647809,0.0,0.818994659814,-0.573666399038,-0.0116342903728,0.0,-0.00795886016926,0.00891667246462,-0.999928572198,0.0,0.610683581578,0.194176687853,0.304001919731,1.0,-0.0781291428571,-0.102684016327,1.842
0.414586432811,0.299073030816,-0.124953692643,-1.73277907542,0.0529002805393,2.02383427105,0.0974853266316,-0.0954820664468,-0.338537318606,-0.0088413159158,-0.487670367337,-0.0365416006314,0.135615195291,-0.0927829627785,0.573816002511,0.818968566193,0.00253569541562,0.0,0.81893157057,-0.573753629859,-0.0117729286064,0.0,-0.00818695163592,0.00883222590768,-0.999927480175,0.0,0.609383342269,0.192469985234,0.303932267012,1.0,-0.0792354285714,-0.104137991837,1.858
0.41290535656,0.293371860643,-0.12499467443,-1.74091485559,0.0522527934131,2.02640322668,0.0957997173319,-0.0985599542855,-0.343776344589,-0.000305281058822,-0.467281787183,-0.0353684503025,0.153595882701,-0.100342061167,0.573873943079,0.818927627342,0.00264301582675,0.0,0.818891890822,-0.573811024375,-0.0117356871638,0.0,-0.00809424266452,0.00889932063475,-0.999927640046,0.0,0.608060719891,0.190680486854,0.303970274316,1.0,-0.0804108571429,-0.105682840816,1.875
0.411298303923,0.28791925735,-0.125009242459,-1.74857142741,0.0516093183303,2.02888219905,0.0941546408971,-0.101922743846,-0.338635693946,-0.00108217340691,-0.487463585106,-0.0397848213469,0.137323823895,-0.1042134806,0.573864587055,0.818933482831,0.00285189830493,0.0,0.818900697685,-0.573801216853,-0.0115999038609,0.0,-0.00786327834405,0.00899236868159,-0.999928650534,0.0,0.606820731955,0.189000350916,0.304058081852,1.0,-0.0815171428571,-0.107136816327,1.891
0.409467034977,0.281784781643,-0.12502744675,-1.75746960923,0.050818282845,2.03141198444,0.092270254616,-0.107236522297,-0.346049105008,-0.000350771159714,-0.49771483096,-0.0452206605153,0.150604091755,-0.114810250786,0.573823463906,0.818963047005,0.00262808143067,0.0,0.818927108631,-0.573760596907,-0.0117437254531,0.0,-0.00810994375143,0.00889120352915,-0.999927585034,0.0,0.605283650983,0.187048135072,0.303992174564,1.0,-0.0827617142857,-0.108772538776,1.909
0.407908911559,0.276617412134,-0.125026293736,-1.76487526996,0.0501885984078,2.0336269571,0.0906904524333,-0.105438624004,-0.345148653182,0.000611976362128,-0.485417563248,-0.0400125043487,0.158173806974,-0.101271269637,0.573800635652,0.818979134006,0.0025991324188,0.0,0.818942583944,-0.573737619937,-0.0117870510416,0.0,-0.00816228595593,0.0088921288002,-0.999927150913,0.0,0.604018992595,0.185429030432,0.303977841859,1.0,-0.0837988571429,-0.110135640816,1.924
0.405750391603,0.269621369278,-0.125061251817,-1.77463614728,0.0493359908253,2.03672970444,0.0885242634205,-0.108502510906,-0.352586613645,-0.000193590550485,-0.496008702874,-0.0440661347738,0.147975325671,-0.10789071869,0.573801352903,0.818977817422,0.00284409546832,0.0,0.818944896616,-0.573737977387,-0.0116076058153,0.0,-0.00787475770809,0.00898979047137,-0.999928583379,0.0,0.602405075246,0.183227313189,0.304080628614,1.0,-0.0851817142857,-0.111953110204,1.944
0.404199558109,0.26469815935,-0.125120433407,-1.78169026882,0.0487203644996,2.03871656578,0.0870350709966,-0.112932535133,-0.356504333839,-0.00955209602168,-0.506776120655,-0.0452124522303,0.13413289107,-0.107626898622,0.573877479379,0.81892493581,0.00270833383456,0.0,0.818890016496,-0.573814293088,-0.0117066149129,0.0,-0.00803291285987,0.00893616224556,-0.999927806052,0.0,0.601175813854,0.181612588665,0.304042225095,1.0,-0.0861497142857,-0.113225338776,1.958
0.402298460606,0.258683048427,-0.125155227529,-1.79030118091,0.0479408139948,2.04117793053,0.0851284992355,-0.115743157152,-0.354184498978,0.000736015144895,-0.504045955657,-0.0494245756913,0.147079758806,-0.11073450177,0.573858510609,0.818938683092,0.00256710694236,0.0,0.818901801437,-0.573795697991,-0.0117933656011,0.0,-0.00818520596538,0.00887010249547,-0.99992715919,0.0,0.599665353017,0.179663795154,0.303992293401,1.0,-0.0873251428571,-0.114770187755,1.975
0.400368895573,0.252524207117,-0.125142420676,-1.79869506251,0.047189533814,2.04378276837,0.0832500599297,-0.111991817684,-0.354138710353,0.000616098681689,-0.497649136883,-0.0473493723418,0.154463363343,-0.113629733708,0.573846680301,0.818946036869,0.0028501061356,0.0,0.818913176284,-0.573783258683,-0.011607267757,0.0,-0.00787053427454,0.0089949547187,-0.999928570189,0.0,0.598233973292,0.177768833855,0.304134478532,1.0,-0.0885005714286,-0.116315036735,1.992
0.398254921193,0.2460969889,-0.125155193755,-1.80789986329,0.0463995286891,2.04640776229,0.0811149828433,-0.119424201105,-0.351771065871,-0.00176614392927,-0.509011746783,-0.041376832066,0.138217532564,-0.114827227524,0.57379677683,0.818981428135,0.00272510014387,0.0,0.818946342478,-0.573733113829,-0.011745175138,0.0,-0.00805575521547,0.00897122715714,-0.999927308304,0.0,0.596595589256,0.175674044215,0.304057006237,1.0,-0.0897451428571,-0.117950759184,2.01
0.396455526389,0.240668794382,-0.125156333571,-1.8156353481,0.0456993835011,2.04857773696,0.0793424325159,-0.122150032544,-0.36602322993,0.000812904031641,-0.512750483161,-0.0526395893283,0.14190500112,-0.124163826754,0.573763855884,0.81900490659,0.00259760739551,0.0,0.81896782528,-0.573700294183,-0.0118499161298,0.0,-0.00821504949115,0.00892658231453,-0.999926411837,0.0,0.595202981313,0.17390624183,0.303996549651,1.0,-0.0907822857143,-0.119313861224,2.025
0.394146670047,0.233562073749,-0.125157033124,-1.82521451239,0.0448648058609,2.05149877707,0.077135095934,-0.122581711516,-0.370254423659,-0.00115556819685,-0.502352698482,-0.0467706999653,0.154978332611,-0.116752734215,0.573783875605,0.818989639554,0.00296332587892,0.0,0.818957491593,-0.573719212941,-0.0116463971409,0.0,-0.00783831251738,0.00910952820355,-0.999927786069,0.0,0.593532944451,0.171700102865,0.304167213452,1.0,-0.092096,-0.121040457143,2.044
0.392261285311,0.228035515298,-0.125167990074,-1.83301322402,0.0440994675019,2.05364781471,0.0752562093547,-0.129666901948,-0.363113576637,-0.00278983497195,-0.53219322762,-0.0554985421549,0.139125727251,-0.125923255084,0.573706320024,0.819044475169,0.00282009960025,0.0,0.819010518903,-0.573642215509,-0.0117100560578,0.0,-0.00797348204965,0.0090279982221,-0.999927456785,0.0,0.592112020556,0.169875746234,0.304117270945,1.0,-0.0931331428571,-0.122403559184,2.059
0.389795946106,0.220972371295,-0.125214717708,-1.84294699134,0.0431748469974,2.05634653005,0.0728797858294,-0.133384175976,-0.377583752575,-0.0025158313771,-0.517904148394,-0.0456913745213,0.141291494783,-0.127124960055,0.573710704218,0.819041954496,0.00265547416324,0.0,0.819005509102,-0.57364680445,-0.0118349780799,0.0,-0.00817019661151,0.00896487417918,-0.999926436753,0.0,0.590291739895,0.167511286344,0.304053179173,1.0,-0.0944468571428,-0.124130155102,2.078
0.387934104087,0.2156392182,-0.125271033005,-1.85006573333,0.0425470226169,2.05853753693,0.0711221228399,-0.134944592369,-0.381826060994,-0.0034916192252,-0.517853780183,-0.0452971061918,0.154790947672,-0.114556936267,0.573774152317,0.81899639122,0.00297996692383,0.0,0.818964516456,-0.573709502187,-0.0116307690379,0.0,-0.0078160730124,0.00911409729097,-0.999927918519,0.0,0.589053341011,0.165775997942,0.304186629529,1.0,-0.0954148571428,-0.125402383673,2.092
0.385319393639,0.208445290258,-0.125325116015,-1.86005283924,0.0415943746608,2.06123124876,0.0686863163379,-0.132632959404,-0.373889756589,-0.00523888873017,-0.530811734783,-0.0519569015969,0.140141636154,-0.128404599523,0.5738329908,0.818955562796,0.00286910035428,0.0,0.818922074442,-0.57376850771,-0.0117082215741,0.0,-0.00794246667688,0.00906830800973,-0.999927338867,0.0,0.587211731503,0.163333238511,0.304152407922,1.0,-0.0967285714286,-0.127128979592,2.111
0.383256979012,0.202751829024,-0.125384584319,-1.86803300598,0.0407975337309,2.06327620933,0.0666898378198,-0.13607281275,-0.376529747648,-0.00930442671496,-0.529505567347,-0.0495512045584,0.140575499028,-0.13089369194,0.573808970921,0.818973181807,0.00263424992635,0.0,0.818936455002,-0.573745132071,-0.01184706694,0.0,-0.00819119974099,0.00895540900491,-0.999926349736,0.0,0.585701540898,0.161386419269,0.304072492887,1.0,-0.0977657142857,-0.128492081633,2.126
0.380688693673,0.195732487536,-0.125403780537,-1.87737045683,0.0399329144345,2.06602657601,0.0642924523974,-0.145622198576,-0.386494606126,-0.000302136159259,-0.523334793852,-0.053348571012,0.153074590694,-0.1322828858,0.573837651662,0.818951917375,0.00297547704037,0.0,0.818919973137,-0.573772995039,-0.0116350617542,0.0,-0.00782145834654,0.00911348955484,-0.999927881948,0.0,0.584015451122,0.159088853366,0.304213006422,1.0,-0.0989411428571,-0.130036930612,2.144
0.378331924078,0.189577437162,-0.125486936308,-1.88586894166,0.0391411439887,2.06829645496,0.0620805194519,-0.148148999047,-0.387618270335,-0.00420994164018,-0.533349247994,-0.0539120309574,0.132288145818,-0.134175533209,0.573898240436,0.818909703567,0.00290756407951,0.0,0.818876540107,-0.573833415525,-0.0117119678639,0.0,-0.00792273924232,0.00910258901577,-0.999927183887,0.0,0.582424596238,0.156944591801,0.304169392065,1.0,-0.100116571429,-0.131581779592,2.16
0.375784428472,0.182946410251,-0.125569732295,-1.89496175028,0.0382609027233,2.07062959023,0.0597385163919,-0.146225884286,-0.388641717155,-0.0010198547705,-0.535510199204,-0.0525239829404,0.142469211628,-0.143149850545,0.57397849756,0.818853877103,0.00278553278642,0.0,0.818818785852,-0.573913707959,-0.0118151874471,0.0,-0.00807641209565,0.00906268459818,-0.999926316943,0.0,0.58069153211,0.15464183973,0.304129705463,1.0,-0.101292,-0.133126628571,2.177
0.373237658514,0.176181275509,-0.125563203907,-1.90388441054,0.0373573122809,2.07313739043,0.0573912249951,-0.150774529518,-0.398243053943,0.00722900488555,-0.532933970774,-0.0459293533648,0.144449794578,-0.142104019873,0.573971090128,0.818858191277,0.00303268475789,0.0,0.818826847588,-0.573906060979,-0.0116264242734,0.0,-0.00778006637837,0.00915665140846,-0.999927810545,0.0,0.579122045,0.152555769564,0.304248584239,1.0,-0.102398285714,-0.134580604082,2.193
0.3708170435,0.169860506319,-0.125547592156,-1.91251258572,0.0364857092282,2.07526567175,0.0550559579628,-0.151686702963,-0.394550783006,0.00690376177937,-0.537429495362,-0.0597155865241,0.134235516648,-0.143548984247,0.573837254727,0.818952585184,0.00286621871639,0.0,0.818918631353,-0.573772293123,-0.0117634080341,0.0,-0.00798927035279,0.00909765683897,-0.999926699413,0.0,0.577205962489,0.150168731575,0.304196755953,1.0,-0.103642857143,-0.136216326531,2.211
0.368163306074,0.163111884033,-0.125557836171,-1.92170547722,0.0355799437706,2.0776177665,0.052538648282,-0.154114060663,-0.412883616184,0.00011080354892,-0.528550641493,-0.0507184508681,0.138547549408,-0.154540043869,0.573777609751,0.818994649845,0.00278657048786,0.0,0.818959310453,-0.573712549459,-0.0118450545642,0.0,-0.00810250185467,0.00907868973342,-0.999925960687,0.0,0.575513695868,0.14800992788,0.304144450242,1.0,-0.104749142857,-0.137670302041,2.227
0.365457072009,0.156159729104,-0.125560089908,-1.9306975793,0.0346501315016,2.08009250522,0.050050075737,-0.162777865708,-0.398781070584,3.82462110207e-05,-0.532193177954,-0.0560317677849,0.139128909536,-0.150575290311,0.573750744591,0.819012336821,0.00310195387242,0.0,0.818981835808,-0.573685452889,-0.0115974420495,0.0,-0.00771905091765,0.00919466191403,-0.999927934626,0.0,0.573796257071,0.145723138643,0.304301682969,1.0,-0.105924571429,-0.13921515102,2.244
0.362631666121,0.149305206677,-0.125581159079,-1.94001014336,0.0337026413748,2.08224876026,0.0474759825832,-0.169632879521,-0.402173026961,-0.000578404213138,-0.553339521652,-0.0478119586023,0.120668556156,-0.145553714929,0.573756031286,0.81900954815,0.00285017592273,0.0,0.818975012224,-0.573690713742,-0.0118169886515,0.0,-0.00804326193425,0.00911446685331,-0.999926113486,0.0,0.571912323342,0.143324800538,0.304212447918,1.0,-0.1071,-0.14076,2.261
0.359917943337,0.142788958447,-0.125617017194,-1.94871385772,0.0328449320452,2.08440696888,0.0450161623172,-0.16824804794,-0.40846943223,0.000957537893802,-0.525236446387,-0.0461750723132,0.134003164041,-0.149560991724,0.573794126598,0.818982930298,0.00282967550686,0.0,0.818947676448,-0.573728369732,-0.0118830933016,0.0,-0.0081087415761,0.00913598121963,-0.999925388295,0.0,0.570179291307,0.141056887331,0.304193640721,1.0,-0.108206285714,-0.14221397551,2.277
0.356835143337,0.135369923367,-0.125666431426,-1.95833217089,0.0318491540088,2.08700421605,0.0421200414588,-0.170213470982,-0.408347139723,-0.00111021016352,-0.546293607675,-0.0592899760137,0.132458322411,-0.1662332162,0.573740135196,0.819019704008,0.00311907260901,0.0,0.818988881416,-0.573674141341,-0.0116592699453,0.0,-0.00775998992264,0.0092440548785,-0.99992716235,0.0,0.568309555346,0.138517520113,0.3043037296,1.0,-0.109450857143,-0.143849697959,2.295
0.353991674151,0.128747958444,-0.125739054497,-1.96711531076,0.0308610194871,2.08899127028,0.0395403818021,-0.178792124366,-0.412685733079,-0.00598622150482,-0.556134933462,-0.0617704840253,0.129479473729,-0.165203780888,0.573749826969,0.819013647081,0.00292041914434,0.0,0.818980227344,-0.57368449047,-0.0117575301818,0.0,-0.00795433165163,0.00913782237357,-0.999926611712,0.0,0.566396361774,0.136004977623,0.304269069799,1.0,-0.110626285714,-0.145394546939,2.312
0.350736258934,0.121240888948,-0.125860546329,-1.97693659307,0.0298273040533,2.0914172781,0.0366958637795,-0.181314613601,-0.426368849636,-0.00305878840003,-0.532359733771,-0.0666275271157,0.135155279172,-0.161241533359,0.573905456539,0.818904354118,0.00298875602002,0.0,0.818872013622,-0.573840083836,-0.0117017259352,0.0,-0.00786767779114,0.00916326944682,-0.99992706441,0.0,0.564538946732,0.133477453546,0.304291209822,1.0,-0.111801714286,-0.146939395918,2.329
0.347750331354,0.114535156026,-0.125890961367,-1.98559933453,0.0289263369336,2.09361003368,0.0339704656733,-0.185972916036,-0.413086571403,-6.93617414531e-05,-0.54675323022,-0.0554704335676,0.126772415125,-0.170590210104,0.57389560983,0.818910585581,0.00316681890296,0.0,0.818880750434,-0.573829880891,-0.0115901366132,0.0,-0.00767421799945,0.00924495355338,-0.999927816001,0.0,0.562799431491,0.131116636152,0.304349820157,1.0,-0.112908,-0.148393371429,2.345
0.344565989501,0.10739548163,-0.125906905798,-1.9950234787,0.0278664804423,2.09565215253,0.0311126888497,-0.18761954842,-0.414222383614,-0.000402486539157,-0.557832125899,-0.0603914394402,0.123495994029,-0.166893151048,0.573863583996,0.818933881372,0.00293799356519,0.0,0.81890072129,-0.573798206725,-0.0117462134816,0.0,-0.00793370950729,0.00914682532132,-0.999926693233,0.0,0.560804895998,0.128583279024,0.304279732737,1.0,-0.114083428571,-0.149938220408,2.362
0.341357608867,0.100125855066,-0.125899809941,-2.00425853912,0.0268840845686,2.09787523234,0.0281772196304,-0.190475259345,-0.433992119142,0.000198746753943,-0.539898740137,-0.0514694765581,0.138668814213,-0.172518386277,0.573790557863,0.818984311849,0.00313680622736,0.0,0.818953893169,-0.573724706499,-0.0116287968798,0.0,-0.00772428769458,0.00924157144985,-0.999927461737,0.0,0.558891777468,0.126100365422,0.30437122498,1.0,-0.115258857143,-0.151483069388,2.379
0.338075670162,0.0929099102703,-0.125894889399,-2.01361998889,0.0259247851747,2.10000697913,0.0251639714082,-0.199453078186,-0.423074781136,3.93567965826e-05,-0.563684000703,-0.054690803415,0.121775079556,-0.167542633156,0.573718500127,0.819034746103,0.00314868049464,0.0,0.819003832559,-0.573651843215,-0.0117060638384,0.0,-0.00778157647381,0.0092949457369,-0.999926522826,0.0,0.556907371306,0.123581062251,0.304350778471,1.0,-0.116434285714,-0.153027918367,2.396
0.3348605636,0.0860773029653,-0.12594718582,-2.02255717802,0.0249568184455,2.10184366962,0.0222675989814,-0.205555159321,-0.426028415316,-0.00575112106219,-0.555563933378,-0.0611663579424,0.110803719825,-0.181768913487,0.57371654264,0.819036893479,0.00293985078226,0.0,0.819002388279,-0.57364960511,-0.0119149255681,0.0,-0.00807247480312,0.00924371268468,-0.999924691628,0.0,0.554970985454,0.121099563935,0.304268250603,1.0,-0.117540571429,-0.154481893878,2.412
0.331595656081,0.079083764139,-0.126034882481,-2.03123392812,0.0239554828148,2.1039209508,0.0193115213205,-0.205476170151,-0.437704949824,-0.000425976284882,-0.541010002986,-0.0644467589936,0.129409779566,-0.184095930435,0.573715468206,0.81903658467,0.00322202022203,0.0,0.819006740198,-0.573648708622,-0.0116561360278,0.0,-0.00769864232588,0.00932634137854,-0.999926872458,0.0,0.553052943988,0.118460597414,0.304409906921,1.0,-0.118716,-0.156026742857,2.429
0.327833855463,0.0713153337916,-0.126089683415,-2.04121158205,0.0228616095055,2.1060741966,0.0160358877218,-0.210061660736,-0.432893616953,-0.00583861092942,-0.553498959388,-0.0620339883759,0.113512893325,-0.18372460365,0.573790391338,0.818984335527,0.00316099216445,0.0,0.818953262912,-0.573723301721,-0.0117419389042,0.0,-0.00780307940337,0.0093262961261,-0.999926063343,0.0,0.551010656632,0.115791985695,0.304365770476,1.0,-0.119891428571,-0.157571591837,2.446
0.324375607321,0.0643302836924,-0.126209457661,-2.05019102539,0.021819998435,2.10781715446,0.0129530037741,-0.218354968058,-0.428792701793,-0.00748278682622,-0.55384562571,-0.0626654602504,0.109476519869,-0.203494937415,0.573834351086,0.818954349009,0.00294255895465,0.0,0.818919882089,-0.573767390874,-0.0119144781733,0.0,-0.00806922469984,0.00924683491349,-0.999924688993,0.0,0.549027215571,0.113177661514,0.304296974535,1.0,-0.120997714286,-0.159025567347,2.462
0.320642875753,0.0568261200938,-0.12628824385,-2.05939259713,0.0207302280022,2.10996795376,0.00965891549263,-0.221054330713,-0.440781153254,0.00015479498605,-0.5395101583,-0.0606975430869,0.124180035364,-0.203940965527,0.573871003825,0.81892749868,0.00325111900707,0.0,0.818898201589,-0.573804335236,-0.0116218414804,0.0,-0.00765208671937,0.00933195301372,-0.999927177459,0.0,0.547076887166,0.110452683049,0.304434594189,1.0,-0.122173142857,-0.160570416327,2.479
0.316670043086,0.0489057790737,-0.126285523334,-2.06942369753,0.0196168435857,2.11195170712,0.00615778864475,-0.224160010271,-0.43759320858,-0.000882521490938,-0.562337723496,-0.0616970224317,0.103294738995,-0.193943969287,0.573854172792,0.818939613783,0.00316926604991,0.0,0.818908463735,-0.573786824956,-0.0117624160293,0.0,-0.00781437578695,0.00934543024114,-0.999925796479,0.0,0.544823999359,0.107599809228,0.304390168977,1.0,-0.123417714286,-0.162206138775,2.497
0.313082961083,0.0418256840157,-0.126288986589,-2.07839137269,0.0185851131892,2.11366614921,0.00295081883021,-0.225345620692,-0.444800359363,-0.00174016212437,-0.552619774064,-0.0631107348296,0.105511792899,-0.203988064129,0.573785652638,0.818988129818,0.00303561289737,0.0,0.818954563067,-0.573717992754,-0.0119094635774,0.0,-0.00801227782533,0.00931968779822,-0.999924470559,0.0,0.5427837323,0.10503989381,0.304329066037,1.0,-0.124524,-0.163660114286,2.513
0.308893282075,0.0337384537956,-0.126339925368,-2.08818371625,0.0174003932423,2.11580512386,-0.000761735825078,-0.236134158114,-0.447499916884,-0.00770956448552,-0.551614281978,-0.0701361182199,0.117430765713,-0.205662675511,0.573766637895,0.819000300867,0.00333156426871,0.0,0.818971677928,-0.573699271963,-0.0116311221715,0.0,-0.00761472316947,0.00940218766383,-0.99992680475,0.0,0.54063444165,0.102098455571,0.304462740758,1.0,-0.125768571429,-0.165295836735,2.531
0.305106839557,0.0265301036178,-0.126421249307,-2.09713551562,0.0163465431754,2.11739223534,-0.0040922862291,-0.236840795925,-0.444770635718,-0.00624012610078,-0.575424403701,-0.0693787803857,0.0979676838149,-0.215300438139,0.573796538653,0.818979826149,0.00321301909541,0.0,0.818949040442,-0.573728802762,-0.0117676226325,0.0,-0.00779419400132,0.00938370070516,-0.999925595582,0.0,0.538566296274,0.0994247536085,0.30443524518,1.0,-0.126874857143,-0.166749812245,2.547
0.301229505846,0.0193226481809,-0.126499987106,-2.10607087443,0.0153088033785,2.11902694631,-0.00752809382666,-0.243343332533,-0.450409685419,-0.00698076406969,-0.555297325576,-0.0649547115284,0.108130292129,-0.207548009154,0.573811717256,0.818969423729,0.00315325820325,0.0,0.818937261838,-0.573743474228,-0.0118715565856,0.0,-0.00791343289711,0.00939453978372,-0.999924557255,0.0,0.536502752966,0.0967291999884,0.304403103936,1.0,-0.127981142857,-0.168203787755,2.563
0.297021889506,0.0115563291311,-0.126621450459,-2.11535700492,0.0141449515404,2.12086055,-0.0111704826181,-0.247550117622,-0.451825347023,-0.00737587355528,-0.557676855342,-0.0646863407581,0.0942102026499,-0.214713914519,0.573901610729,0.818905629233,0.00335537110033,0.0,0.818876986391,-0.573833742923,-0.0116646278511,0.0,-0.00762695109525,0.00944216667816,-0.999926334839,0.0,0.534395786427,0.0938294893075,0.304513071193,1.0,-0.129156571429,-0.169748636735,2.58
0.292967384547,0.00433741717307,-0.126645796373,-2.12433115585,0.0131171107544,2.12237469374,-0.0147294802098,-0.250740327725,-0.463185087366,-0.00185397967046,-0.561707013325,-0.0695943654703,0.0979663499052,-0.217782375535,0.573906952107,0.818902441169,0.00321699745632,0.0,0.818870851194,-0.573838158324,-0.0118761954443,0.0,-0.00787956125148,0.00945031852334,-0.999924299132,0.0,0.532136969566,0.09093936787,0.30443232421,1.0,-0.12998,-0.170830857143,2.597
0.288676283116,-0.00344248342286,-0.126638050935,-2.13367610946,0.011973893855,2.1240654588,-0.0185515279416,-0.254006611365,-0.461821183943,0.00552185645632,-0.530716897952,-0.064211534085,0.106550963524,-0.227852728517,0.573776360211,0.818993539255,0.00331934075929,0.0,0.818963417016,-0.573707387074,-0.0118111179609,0.0,-0.00776904856583,0.00949554174272,-0.999924735453,0.0,0.52994001073,0.0881116323644,0.30447687549,1.0,-0.12998,-0.170830857143,2.614
0.28431485451,-0.0111643756986,-0.126648602691,-2.14288934625,0.0107986036347,2.12577945077,-0.0223947608858,-0.259268989572,-0.44552996564,-0.00167857768562,-0.547587439292,-0.0699335323332,0.097506422111,-0.228648735139,0.573729506715,0.819025892708,0.00343323467551,0.0,0.81899785985,-0.573660910673,-0.0116795559905,0.0,-0.00759649249704,0.00951290090149,-0.999925896263,0.0,0.527895729544,0.0854210553599,0.304522914191,1.0,-0.12998,-0.170830857143,2.63
0.279800969609,-0.0188108596908,-0.126702365764,-2.1522497155,0.00961303650241,2.12715684826,-0.0263442682765,-0.267649361776,-0.448691346506,-0.0105556964378,-0.545552973,-0.0681908700991,0.0733088335264,-0.236515368934,0.57371717604,0.819035579919,0.00317295533126,0.0,0.819003197596,-0.573648307883,-0.0119217487236,0.0,-0.00794432887563,0.00943855429469,-0.99992389777,0.0,0.525601259222,0.082469965817,0.304423275938,1.0,-0.12998,-0.170830857143,2.647
0.275271667069,-0.0265476101229,-0.126804586516,-2.16121628096,0.00847937671596,2.12872156112,-0.0302427716775,-0.26953393853,-0.4662668925,-0.00538573195468,-0.52136748066,-0.0668072347248,0.100992964511,-0.229139074403,0.573813261914,0.81896727704,0.0034185509479,0.0,0.818938801608,-0.573744387632,-0.0117202296311,0.0,-0.00763725716795,0.00952499059709,-0.999925470651,0.0,0.523465569225,0.0795446521529,0.304548575818,1.0,-0.12998,-0.170830857143,2.664
0.270656753818,-0.0341450851386,-0.126916307256,-2.17023840182,0.00732192033408,2.13017368289,-0.0342226504482,-0.271438717259,-0.437651861816,-0.00549383110937,-0.540957524505,-0.0622123292561,0.0713929023662,-0.231188621035,0.573901741643,0.81890523168,0.00342919354936,0.0,0.818876896951,-0.57383282283,-0.0117160566432,0.0,-0.007626703103,0.00953213620864,-0.999925483113,0.0,0.521269908641,0.0765849529042,0.304547271853,1.0,-0.12998,-0.170830857143,2.681
0.266291281993,-0.0412784396057,-0.126934355434,-2.17877578898,0.00628616991361,2.13136811023,-0.0380546044711,-0.273243429447,-0.441010850406,-0.0015209146118,-0.529776425565,-0.0629096792492,0.076126103194,-0.242708351427,0.573876278921,0.818923559386,0.00331168766035,0.0,0.818892578126,-0.573806393323,-0.0119128239005,0.0,-0.00785557584294,0.00954858733751,-0.999923554282,0.0,0.519125599331,0.0738569609136,0.304485126335,1.0,-0.12998,-0.170830857143,2.697
0.261373028642,-0.0493048991888,-0.126926282966,-2.18802124441,0.00509272341856,2.13287714683,-0.0422901877635,-0.274691171272,-0.450487648565,-0.000820555523077,-0.504136290936,-0.0707842809259,0.0881194289208,-0.237373532802,0.573872214009,0.818925536387,0.00352061678648,0.0,0.818897946795,-0.573802439987,-0.0117328386123,0.0,-0.00758832875041,0.00961636107369,-0.999924968618,0.0,0.516848783036,0.0708435671069,0.304574760163,1.0,-0.12998,-0.170830857143,2.715
0.256913878511,-0.0564135680828,-0.12693516663,-2.19626130774,0.00398093694648,2.13405129181,-0.0462470528336,-0.281844222237,-0.443772010707,-0.00222786369495,-0.52542526054,-0.0699438822948,0.0659076926581,-0.253642964378,0.573765434502,0.819000311361,0.0035303062198,0.0,0.818973061686,-0.573695915419,-0.0116990497564,0.0,-0.00755634861773,0.00960392096547,-0.999925330361,0.0,0.514770810541,0.0681232678108,0.304599617524,1.0,-0.12998,-0.170830857143,2.731
0.252130305056,-0.0638554847226,-0.126990587399,-2.20511864393,0.0028735592514,2.13515318482,-0.0503736302695,-0.283666615222,-0.433877544592,-0.00499544444011,-0.519422249486,-0.0703639382343,0.0672682065841,-0.246629047081,0.573814884457,0.818966472925,0.00333788876173,0.0,0.818935333639,-0.573744303977,-0.0119641076969,0.0,-0.00788326019506,0.0095988829307,-0.999922854852,0.0,0.512478975139,0.0652124448671,0.304492646307,1.0,-0.12998,-0.170830857143,2.748
0.2472661632,-0.0713544223663,-0.12710060617,-2.21359622965,0.00172975613711,2.13639830292,-0.0545812099922,-0.287210601713,-0.440194149825,-0.0080510256522,-0.494751125491,-0.070736030418,0.0746233964703,-0.250112179652,0.573886502555,0.818915512838,0.00352305538199,0.0,0.818887531156,-0.573816181876,-0.0117876051504,0.0,-0.00763161346125,0.00964991940801,-0.999924315902,0.0,0.510339024454,0.0622737855138,0.304582045196,1.0,-0.12998,-0.170830857143,2.765
0.242338410281,-0.0787906633018,-0.127181758162,-2.22208467709,0.000625701779662,2.13751278345,-0.0589258830581,-0.290051864432,-0.433607458355,-0.00325883621761,-0.508432192731,-0.0696326735505,0.0652493469837,-0.247834027615,0.573884006758,0.818916959605,0.00359262560784,0.0,0.81888972339,-0.573813249122,-0.011778071115,0.0,-0.00758391202839,0.00970139761556,-0.999924180707,0.0,0.508147127623,0.059345025602,0.304605814276,1.0,-0.12998,-0.170830857143,2.782
0.237444736671,-0.0861505899086,-0.127166354135,-2.23068495433,-0.000507214493564,2.13848314718,-0.0631785056572,-0.290976862876,-0.433195675112,0.00172600609503,-0.506881816447,-0.0744596637966,0.055726426047,-0.259340559417,0.573828820376,0.818956398956,0.00341297754618,0.0,0.818925784808,-0.573757403768,-0.011989474526,0.0,-0.00786078709169,0.00967506761476,-0.999922297528,0.0,0.505856639151,0.0564976555652,0.304510875939,1.0,-0.12998,-0.170830857143,2.799
0.232788276703,-0.093126852175,-0.127165958132,-2.23846317131,-0.00154915817203,2.13944207114,-0.067297838154,-0.292158643999,-0.433797403463,-0.000853978610118,-0.478485087056,-0.0708672245671,0.0775506242275,-0.257775257811,0.573740121865,0.819018007264,0.00353881919475,0.0,0.818989312602,-0.573668608366,-0.0118987612691,0.0,-0.00771533880496,0.00972523908127,-0.999922943667,0.0,0.503807628472,0.0538245789289,0.304578137476,1.0,-0.12998,-0.170830857143,2.815
0.227390602207,-0.100893309378,-0.127204840626,-2.24714005658,-0.0027921490624,2.14048769175,-0.0719506693255,-0.297982204102,-0.428207015665,-0.00513576405139,-0.487151971586,-0.0695211551745,0.0557815273747,-0.269051465042,0.573749070097,0.819011453604,0.00360421000028,0.0,0.818984279154,-0.573678179148,-0.0117832155704,0.0,-0.00758307787997,0.00971258730267,-0.999924078407,0.0,0.50150982119,0.050737565875,0.304624696235,1.0,-0.12998,-0.170830857143,2.833
0.222542584864,-0.107788163815,-0.127315638087,-2.25498795404,-0.00384271191007,2.14122313628,-0.0761236413138,-0.303334361876,-0.437329377685,-0.015142886001,-0.492103106173,-0.0706094499923,0.0456710029744,-0.266486166017,0.573845408224,0.818944483527,0.00348242171493,0.0,0.818914682138,-0.57377361759,-0.0119718852712,0.0,-0.00780633799112,0.00972200484114,-0.999922268833,0.0,0.499365669624,0.0479556888335,0.304567257078,1.0,-0.12998,-0.170830857143,2.849
0.217604852332,-0.114615104687,-0.127444279122,-2.26265121846,-0.00494447902909,2.14203096239,-0.080366547543,-0.306941107404,-0.4362703667,-0.0065729022117,-0.468183959809,-0.0635424248997,0.0538910980889,-0.262512431844,0.573943990111,0.81887543872,0.00347260393715,0.0,0.818845617054,-0.573872355278,-0.0119633682485,0.0,-0.00780382727057,0.00971001676934,-0.999922404917,0.0,0.497165214329,0.0449754951635,0.30456210364,1.0,-0.12998,-0.170830857143,2.866
0.212416149395,-0.121895954739,-0.127444668216,-2.27050223249,-0.00603079257335,2.14294711227,-0.0849589669515,-0.309175295132,-0.413046055477,0.00180582064622,-0.472836912566,-0.0596444103867,0.0461911690452,-0.270247752038,0.573857978707,0.818934696283,0.00370545525354,0.0,0.818908770628,-0.573786647454,-0.0117497018263,0.0,-0.00749624207523,0.00977727818966,-0.999924102713,0.0,0.495164863547,0.0423002044886,0.304668708391,1.0,-0.12998,-0.170830857143,2.882
0.207153050497,-0.129062953841,-0.127447286845,-2.27856187739,-0.00712777973691,2.14358368496,-0.0895199962783,-0.314873240225,-0.429549877238,0.000608694878901,-0.465650955379,-0.0654144537963,0.0474176289258,-0.26344959123,0.573844997994,0.818944451064,0.0035568597108,0.0,0.818915480123,-0.573772759604,-0.0119584134755,0.0,-0.00775259640896,0.00977523143812,-0.999922168021,0.0,0.492891825841,0.0394327082586,0.304595139282,1.0,-0.12998,-0.170830857143,2.899
0.201798913194,-0.136278379936,-0.127474146307,-2.28651642122,-0.00827139552797,2.14427411252,-0.0942060355786,-0.31308746884,-0.419368582367,0.000225693304091,-0.464614512408,-0.0698830355809,0.0465926399858,-0.271744072658,0.573797434019,0.818977932489,0.00352103833491,0.0,0.818948367876,-0.573725174946,-0.0119892154362,0.0,-0.00779894468923,0.00976311762104,-0.99992192595,0.0,0.490654202653,0.0365341574306,0.304580952682,1.0,-0.12998,-0.170830857143,2.916
0.196407437584,-0.14351124341,-0.127547293393,-2.29413904671,-0.00933601892996,2.14505640716,-0.0989686989867,-0.318066604865,-0.422383526132,-0.0116140003878,-0.449365076353,-0.0672017135797,0.0375389680515,-0.27520884618,0.573788260619,0.818983007803,0.00382253936562,0.0,0.818958401036,-0.573716289883,-0.0117261671561,0.0,-0.00741062122213,0.00985902759981,-0.999923938241,0.0,0.488536229873,0.0336405857948,0.304716609487,1.0,-0.12998,-0.170830857143,2.933
0.190564991993,-0.150992757265,-0.127683299599,-2.30235847479,-0.0105125955629,2.14561608153,-0.103994868119,-0.322726477846,-0.415458757458,-0.00587555089992,-0.460202020512,-0.0661056901039,0.0253912806459,-0.28490886881,0.573917894307,0.818892618523,0.00372516099819,0.0,0.818865967554,-0.573845208954,-0.0118722468324,0.0,-0.00758457553152,0.00986429238601,-0.999922581978,0.0,0.486165438734,0.0305003458858,0.304665535772,1.0,-0.12998,-0.170830857143,2.951
0.185746047789,-0.157273209688,-0.127669597422,-2.30917267562,-0.0115275967188,2.14603775611,-0.108268439079,-0.324252966265,-0.419456778958,0.0030877021886,-0.456840584014,-0.0698844095672,0.0257842080159,-0.285596615913,0.573791690221,0.818981444604,0.00363820404876,0.0,0.818953424839,-0.573719026828,-0.0119378850829,0.0,-0.00768974753593,0.00982956817503,-0.999922120654,0.0,0.484172636388,0.0279886029511,0.30464467319,1.0,-0.12998,-0.170830857143,2.966
0.18022983435,-0.164329028424,-0.127679820153,-2.31664874642,-0.0125833327475,2.14657249122,-0.113122529854,-0.332905459809,-0.418837696097,-0.00184556027495,-0.426448593721,-0.0584721098975,0.0289101553473,-0.27782804391,0.573746172004,0.819012835269,0.00374869005028,0.0,0.818986416353,-0.573673333467,-0.0118702653333,0.0,-0.007571521924,0.00988083576266,-0.999922517568,0.0,0.481995595685,0.0251450367713,0.304692569827,1.0,-0.12998,-0.170830857143,2.983
0.174566742638,-0.171344868878,-0.127709189233,-2.32404332222,-0.0136121016402,2.14710676466,-0.118129765848,-0.333889771178,-0.409170237163,-0.00323529939565,-0.442986187112,-0.055884804427,0.0328995505162,-0.290358798114,0.573718633635,0.819031410574,0.00390189875145,0.0,0.819007177082,-0.573645533041,-0.0117810530877,0.0,-0.00741088842185,0.00995488442429,-0.999922986539,0.0,0.479831503099,0.0222535192982,0.304742199119,1.0,-0.12998,-0.170830857143,3.0
0.16883338757,-0.178283553357,-0.127829418665,-2.33156875705,-0.0147484695803,2.14740098448,-0.123062091558,-0.343885917816,-0.412497457723,-0.012500298472,-0.435673885539,-0.0717348173691,0.0187872656976,-0.29087573385,0.573826226058,0.818956910061,0.00371330766653,0.0,0.818929205115,-0.573752431603,-0.0119937959238,0.0,-0.0076920308421,0.00992348180453,-0.999921175479,0.0,0.477553410595,0.0192971228826,0.304658438792,1.0,-0.12998,-0.170830857143,3.017
0.163339428304,-0.184852986064,-0.127937529283,-2.33851361897,-0.015788927136,2.14775490657,-0.127842024396,-0.349793274464,-0.417210800913,-0.00377148229764,-0.436146670124,-0.0540839499817,0.019139664961,-0.294121361165,0.573900642764,0.818904746781,0.00371683144728,0.0,0.818876947278,-0.573826642877,-0.0120114962617,0.0,-0.00770360271133,0.0099372243366,-0.999920949914,0.0,0.475459101331,0.0165030673754,0.304652989243,1.0,-0.12998,-0.170830857143,3.033
0.157276315138,-0.192204205614,-0.127946131311,-2.34601325358,-0.0168738992632,2.14821086264,-0.13326714242,-0.337459083455,-0.419914297281,-0.00100989267786,-0.418074389457,-0.0774613606119,0.0304291938049,-0.298627130998,0.573796051731,0.818976899692,0.00395925385191,0.0,0.818953165071,-0.573722415795,-0.0117919436524,0.0,-0.00738595897168,0.0100088068838,-0.999922632705,0.0,0.473201047312,0.0135102812551,0.30475988824,1.0,-0.12998,-0.170830857143,3.051
0.151373148961,-0.199034955761,-0.127974156614,-2.35321211898,-0.018004440383,2.14843879559,-0.138485254637,-0.348441803692,-0.399512969865,-0.00237734199959,-0.432599921686,-0.0770582249633,0.0060687005449,-0.30722317904,0.573725165501,0.819027074452,0.00385132268601,0.0,0.819001705056,-0.573651597273,-0.011865873894,0.0,-0.00750929914808,0.0099621821131,-0.999922179649,0.0,0.470965862551,0.0106044632265,0.304722317772,1.0,-0.12998,-0.170830857143,3.068
0.145428489259,-0.205855360675,-0.128048832755,-2.3604171973,-0.01902787497,2.14862493688,-0.143681114602,-0.353325371715,-0.397905067789,-0.00335825512181,-0.414306841973,-0.0648827227715,0.00781297631693,-0.308825992099,0.573786652905,0.818984301353,0.003786553526,0.0,0.81895691333,-0.573711765454,-0.0120470407319,0.0,-0.00769409506394,0.0100136481605,-0.999920260697,0.0,0.468700986836,0.00770101082539,0.304658168215,1.0,-0.12998,-0.170830857143,3.085
0.139727176181,-0.212274106906,-0.128203609982,-2.36694811736,-0.0199801771746,2.14881423884,-0.148663627514,-0.3564172805,-0.403110680208,-0.0112313370742,-0.397748151043,-0.0631759963759,0.00821527499404,-0.307761950298,0.573928226995,0.818884543482,0.00390404989981,0.0,0.818858545143,-0.573852692793,-0.012021519086,0.0,-0.00760403302208,0.0100965481458,-0.999920116008,0.0,0.46664495665,0.00490797079218,0.304697243654,1.0,-0.12998,-0.170830857143,3.101
0.133700874763,-0.219051762962,-0.128222709872,-2.37369207622,-0.0210235389214,2.14904053986,-0.153981041482,-0.348843435202,-0.390004407798,0.00102265489338,-0.400848844679,-0.0645733248485,0.00321774106176,-0.320514622288,0.573886174125,0.818913105973,0.00409034421401,0.0,0.818890593133,-0.573811426363,-0.0118063692641,0.0,-0.0073214452371,0.0101252514293,-0.999921934814,0.0,0.464384117281,0.00187741706232,0.304799766738,1.0,-0.12998,-0.170830857143,3.119
0.127301321532,-0.226130731066,-0.128221568689,-2.38110204712,-0.0222018642453,2.14909072096,-0.159728790847,-0.358259943847,-0.392256018144,-0.001002316453,-0.418880897481,-0.0643954303055,-0.00139467685564,-0.316947866866,0.573732113914,0.819022016954,0.00389154334774,0.0,0.818996148343,-0.573657044376,-0.0119854636533,0.0,-0.00758409337785,0.0100637981703,-0.999920597595,0.0,0.462101914874,-0.000965794628884,0.304703969929,1.0,-0.12998,-0.170830857143,3.136
0.121440937528,-0.232425522661,-0.128260872183,-2.38748999697,-0.0231734032709,2.14911942694,-0.164915247826,-0.363872571215,-0.39631779717,-0.00225513693265,-0.398554434007,-0.0573855415021,0.00685676784921,-0.323897043358,0.57372420636,0.819027584431,0.00388559887537,0.0,0.819001277737,-0.573648682283,-0.0120350854408,0.0,-0.00762824514961,0.0100873244989,-0.999920024682,0.0,0.46000671941,-0.00370227545195,0.304696903906,1.0,-0.12998,-0.170830857143,3.152
0.115511712057,-0.238701246859,-0.128393647453,-2.39370394043,-0.0241429730002,2.14915099304,-0.170113061299,-0.375073267038,-0.387099919091,-0.0123433980172,-0.374638343525,-0.0572396740966,0.00166405411792,-0.334756961851,0.573838101804,0.81894730863,0.0039856625285,0.0,0.818922528975,-0.573762490667,-0.0119684060097,0.0,-0.00751481491442,0.0101320712975,-0.999920431178,0.0,0.457955859959,-0.00648739630561,0.304746016281,1.0,-0.12998,-0.170830857143,3.168
0.109178850532,-0.245320892694,-0.128500369889,-2.40016640982,-0.0251819414999,2.14924443493,-0.175717858646,-0.369425358856,-0.384292852647,-0.00243353530875,-0.3841192651,-0.0666124233989,0.00195221738531,-0.324620850607,0.573886391122,0.818912594798,0.0041616184895,0.0,0.818891157184,-0.573811615209,-0.011757969121,0.0,-0.00724090338488,0.0101558465779,-0.999922211024,0.0,0.455819200597,-0.00942153441047,0.304831289594,1.0,-0.12998,-0.170830857143,3.185
0.102875760968,-0.251857018456,-0.128500375932,-2.40684407125,-0.0261680901603,2.14919734426,-0.181380720008,-0.379030840882,-0.38048123684,-0.00109210097982,-0.387811054144,-0.0564312026467,-0.00482490151906,-0.336960311998,0.573792460714,0.818978732379,0.00409815073302,0.0,0.818955523864,-0.573716600751,-0.0119104515736,0.0,-0.00740337196173,0.0101905266963,-0.999920668478,0.0,0.453557349296,-0.0122550700671,0.304757164845,1.0,-0.12998,-0.170830857143,3.202
0.0967886176952,-0.257994651652,-0.128556082563,-2.41296847786,-0.0271263835471,2.14914740857,-0.186779666271,-0.385623009366,-0.383167428469,-0.0063298556768,-0.379261536646,-0.0526845500313,-0.0033804502413,-0.337102321447,0.573804154519,0.818970496516,0.00410670122727,0.0,0.81894723203,-0.573728032257,-0.0119299226531,0.0,-0.00741426781207,0.0102088073355,-0.999920401275,0.0,0.451464657632,-0.0149960268675,0.304739761834,1.0,-0.12998,-0.170830857143,3.218
0.0902849890226,-0.264467920411,-0.128693025913,-2.41925902784,-0.0281368417845,2.14906257615,-0.19252031558,-0.387978315359,-0.380229789432,-0.0150171437888,-0.365230675266,-0.0638836256174,-0.00196981378227,-0.343495289698,0.573908334218,0.818896988133,0.00420638120318,0.0,0.818875352821,-0.573832311028,-0.0118483021368,0.0,-0.00728892182173,0.0102445384736,-0.999920957401,0.0,0.449289920914,-0.0179329108832,0.304780567581,1.0,-0.12998,-0.170830857143,3.235
0.0836794391715,-0.270927988121,-0.128788150781,-2.42537733463,-0.0291313373194,2.14900090095,-0.198433440165,-0.38365440598,-0.38462725513,-0.00379225657283,-0.36471191165,-0.0608490078205,-0.00421994833985,-0.336336524474,0.573928788647,0.818881594534,0.00440756118009,0.0,0.818863717625,-0.57385376372,-0.0116110603743,0.0,-0.00697892242738,0.0102733115422,-0.999922873882,0.0,0.447160689124,-0.0208707427578,0.304882506975,1.0,-0.12998,-0.170830857143,3.252
0.0771593624761,-0.277280637511,-0.128772822767,-2.43170983861,-0.0301262350029,2.14876983414,-0.204353503628,-0.387754024876,-0.381794424598,-0.0024212758426,-0.373786918426,-0.0615163911375,-0.0151035380339,-0.351516638926,0.57377686344,0.818988589875,0.0043066850496,0.0,0.818968631121,-0.573701055941,-0.0117569789088,0.0,-0.00715821963506,0.010273120231,-0.999921608374,0.0,0.444902877743,-0.0236866931571,0.304813942005,1.0,-0.12998,-0.170830857143,3.269
0.0708323955694,-0.283220597332,-0.128812519572,-2.43752245797,-0.0310857276303,2.14855653536,-0.209990899585,-0.393443934381,-0.381725130926,-0.0020578144619,-0.35920756244,-0.0616403074471,-0.0187372941952,-0.350469166275,0.573768430899,0.818994716987,0.00426475687942,0.0,0.818974054244,-0.573692535245,-0.0117949302466,0.0,-0.00721346525441,0.0102604813981,-0.999921341127,0.0,0.442807510926,-0.0264245785829,0.304786514972,1.0,-0.12998,-0.170830857143,3.285
0.064078792598,-0.289521369593,-0.128929377729,-2.44355798315,-0.032026179733,2.14832175883,-0.216072207422,-0.402909603485,-0.370099667854,-0.00819525557481,-0.348275032391,-0.0477947929295,-0.0109673568935,-0.368135943483,0.573804154051,0.818969209236,0.0043559175757,0.0,0.818949599593,-0.573727762576,-0.0117794175224,0.0,-0.00714800703022,0.0103265544793,-0.999921131024,0.0,0.440608271451,-0.0293435638615,0.304802006899,1.0,-0.12998,-0.170830857143,3.302
0.0572194442389,-0.295798055434,-0.129051709661,-2.44937360104,-0.0329506805795,2.14810354234,-0.222165864573,-0.396420814094,-0.366064791459,-0.00247153663578,-0.338681541054,-0.0526361864173,-0.0117649844266,-0.361375119631,0.573929758052,0.818880038242,0.00456756955603,0.0,0.818863976628,-0.573853866929,-0.0115876698285,0.0,-0.00686792628898,0.0103909267688,-0.999922427106,0.0,0.438467369811,-0.0322875354791,0.304894952902,1.0,-0.12998,-0.170830857143,3.319
0.0504181600822,-0.301989597984,-0.129054681657,-2.4552759806,-0.0339099371116,2.14776270949,-0.228357321617,-0.406852421053,-0.36294117145,-0.00059560143916,-0.350672109266,-0.0573891800091,-0.0282725495074,-0.367426857728,0.573812508429,0.818962222544,0.00456400235259,0.0,0.818946021568,-0.573736505954,-0.0116009652358,0.0,-0.00688235001679,0.0103946506605,-0.999922289228,0.0,0.43625467062,-0.0351267200415,0.304890506836,1.0,-0.12998,-0.170830857143,3.336
0.0434503477674,-0.308106215893,-0.129091692812,-2.46121125974,-0.0349375807413,2.14731217624,-0.234558898544,-0.405391924382,-0.364066019518,-0.00504456259833,-0.344961975983,-0.0548740604556,-0.0314198339192,-0.361568554888,0.573814564452,0.818961680067,0.00439989846036,0.0,0.818942589325,-0.573737950513,-0.0117705748107,0.0,-0.0071153979907,0.010357590912,-0.999921042594,0.0,0.433979596263,-0.0380278354026,0.304816452107,1.0,-0.12998,-0.170830857143,3.353
0.0364309323572,-0.314181728776,-0.129237602121,-2.46690387581,-0.0358302435309,2.1469731491,-0.240906582619,-0.408810919303,-0.361453147148,-0.010617305774,-0.337512283512,-0.0564903214385,-0.0207914424183,-0.37065728496,0.573888773344,0.818909045829,0.00451634700963,0.0,0.818891334996,-0.573811572316,-0.0117476740325,0.0,-0.00702887968165,0.0104404566833,-0.99992079272,0.0,0.431788553467,-0.0409596280626,0.30483029314,1.0,-0.12998,-0.170830857143,3.37
0.0297737757336,-0.319865982056,-0.129305894244,-2.47213970581,-0.0367037801135,2.14660853534,-0.246911149078,-0.413688783143,-0.35689837547,-0.000204295295803,-0.325693564339,-0.0553380303779,-0.021977523891,-0.37209914235,0.573906671226,0.818896026571,0.00460187889012,0.0,0.818879839147,-0.573829815641,-0.0116575564311,0.0,-0.00690576428318,0.0104589366182,-0.999921457448,0.0,0.429741830189,-0.0436947143571,0.304870335732,1.0,-0.12998,-0.170830857143,3.386
0.0227148059819,-0.325865446438,-0.129310130146,-2.47755122315,-0.0376541485256,2.14622833307,-0.253393946438,-0.424190516419,-0.353318750654,-0.00160921120591,-0.324620506165,-0.0552954391818,-0.0275122458843,-0.384600712988,0.573768096522,0.818992495723,0.00471277672433,0.0,0.818978988622,-0.573692854716,-0.0114311655213,0.0,-0.00665848064303,0.0104187037898,-0.999923554701,0.0,0.427606160093,-0.046549374476,0.304954808476,1.0,-0.12998,-0.170830857143,3.403
0.0154939635024,-0.331747658279,-0.129358585914,-2.48316525869,-0.0385632031178,2.1456662083,-0.259928654069,-0.422096516273,-0.338021802809,-0.00724018317184,-0.332350452504,-0.047930707105,-0.0353027909234,-0.386674280948,0.573763430674,0.818996384638,0.00460374547915,0.0,0.818980203937,-0.573686566002,-0.0116574632407,0.0,-0.00690644628399,0.0104592038854,-0.999921449942,0.0,0.425330672855,-0.0494410766945,0.304870069519,1.0,-0.12998,-0.170830857143,3.42
0.00815379585407,-0.337628988595,-0.129535915439,-2.48859837026,-0.0394548810511,2.14514900628,-0.266499152137,-0.43098648643,-0.345825787315,-0.0133501960264,-0.315284501861,-0.0448842025535,-0.0247586437328,-0.391335705617,0.573936956552,0.818874512562,0.00465290027903,0.0,0.818858436513,-0.573859099206,-0.0117193050302,0.0,-0.00692666439108,0.0105364117682,-0.999920499514,0.0,0.423097032937,-0.0524111478315,0.304857210561,1.0,-0.12998,-0.170830857143,3.437
0.00130229758518,-0.343127593469,-0.129563830231,-2.49355576041,-0.0402607102682,2.14467927598,-0.272783249718,-0.422213947379,-0.341100439712,0.000959041277951,-0.308576937328,-0.0563606966751,-0.0260597631667,-0.401002682624,0.573881423885,0.818912884612,0.00474822474895,0.0,0.818898346149,-0.573803737883,-0.0116411325528,0.0,-0.0068086554174,0.0105691466079,-0.999920964552,0.0,0.421044755767,-0.0551052337851,0.304894190832,1.0,-0.12998,-0.170830857143,3.453
-0.00608620755184,-0.348824477326,-0.129599120483,-2.49870285144,-0.041175022733,2.14410225578,-0.279511865137,-0.437258883952,-0.339025932671,-0.00293716165218,-0.296360348624,-0.0608665866683,-0.0286419206178,-0.397500326735,0.573848803303,0.818935775945,0.00474264971226,0.0,0.818921356775,-0.573771437251,-0.0116144786437,0.0,-0.00679044587558,0.010549014909,-0.999921300968,0.0,0.418860597034,-0.0579996860469,0.304909412418,1.0,-0.12998,-0.170830857143,3.47
-0.0135382970998,-0.354578531906,-0.129695917228,-2.50376028686,-0.0420659281856,2.14357099057,-0.286325052068,-0.440931728509,-0.334525255695,-0.012357006883,-0.302545692063,-0.055393969469,-0.0382986536365,-0.402384673311,0.573856819219,0.8189294312,0.00486668798364,0.0,0.81891747945,-0.573780451813,-0.0114412354985,0.0,-0.00657728068198,0.0105512500122,-0.999922702264,0.0,0.416693122198,-0.0609179997433,0.304981530373,1.0,-0.12998,-0.170830857143,3.487
-0.0210955991273,-0.360185409193,-0.129839680121,-2.50895429128,-0.0429613115116,2.14287874095,-0.293199396783,-0.443549214079,-0.333538028705,-0.0066145452026,-0.30372719659,-0.045547212838,-0.0482754490886,-0.415552615006,0.573927872387,0.81888015062,0.00477944755094,0.0,0.818865826607,-0.573849785546,-0.0116588397612,0.0,-0.00680463851794,0.0106052635523,-0.999920609488,0.0,0.414411970946,-0.0638539815102,0.30490539037,1.0,-0.12998,-0.170830857143,3.504
-0.0285770269902,-0.365747795682,-0.129830381331,-2.51396556608,-0.0438362164453,2.14224256533,-0.300160172151,-0.447152274693,-0.322995346794,-0.000720633812391,-0.286889826676,-0.053496273075,-0.0362235107247,-0.405541039019,0.573761519867,0.818996895485,0.00474872678424,0.0,0.818982090726,-0.573683429225,-0.0116792552999,0.0,-0.00684113967932,0.0105904333605,-0.999920517606,0.0,0.412200175313,-0.0666810670501,0.304891306892,1.0,-0.12998,-0.170830857143,3.521
-0.0367143882033,-0.371535579422,-0.129867604245,-2.51908423624,-0.0447403053704,2.14156517265,-0.307579781005,-0.450941051368,-0.315109056182,-0.00288694924293,-0.285337699604,-0.0456459991488,-0.0455154613817,-0.40358510087,0.573771824177,0.818989544496,0.00477144512747,0.0,0.818975257881,-0.573694008026,-0.0116386870284,0.0,-0.00679474432851,0.0105858500014,-0.999920882485,0.0,0.409882094831,-0.0697587586066,0.304907277008,1.0,-0.12998,-0.170830857143,3.539
-0.0435570232725,-0.376286839821,-0.130017384649,-2.52330357525,-0.0454373150214,2.14094219277,-0.313821615937,-0.457447295096,-0.323377685952,-0.010811654896,-0.28159282679,-0.0490761604182,-0.0370511888997,-0.427001404295,0.573898014232,0.81890081968,0.00482324463072,0.0,0.818886541389,-0.573818977749,-0.0117200685969,0.0,-0.00683003597663,0.0106760197548,-0.99991968338,0.0,0.407924342343,-0.0723608566901,0.304896519035,1.0,-0.12998,-0.170830857143,3.554
-0.0521743276655,-0.382321947602,-0.130058803926,-2.52846555032,-0.0463398679093,2.14022910838,-0.321818760046,-0.457087530271,-0.306258704704,0.00692422939759,-0.277365700841,-0.0531100050651,-0.0342173054979,-0.424349969262,0.573824463267,0.818951601643,0.00495039628931,0.0,0.818939898838,-0.573746519914,-0.011537758802,0.0,-0.00660872064541,0.0106749308137,-0.999921182226,0.0,0.405515218644,-0.0755669104115,0.304971575427,1.0,-0.12998,-0.170830857143,3.573
-0.0600561030133,-0.387604547294,-0.130095474412,-2.53317703062,-0.0472122377638,2.13947933575,-0.329039132006,-0.46950567009,-0.30181429725,-0.00345252241773,-0.280604973214,-0.0551691527122,-0.0446119704064,-0.421228271601,0.573811376479,0.818961293418,0.00486323026863,0.0,0.818948029946,-0.573733008423,-0.011632119072,0.0,-0.00673618924023,0.0106575802952,-0.99992051671,0.0,0.403266836732,-0.0784696630026,0.304929541064,1.0,-0.12998,-0.170830857143,3.59
