nelsonifechukwu/NELSON_IML_WORK/CNN-GradCAM/train2dof/data_sample_2022-02-22-07-33-16/robot_state.csv
position_joint1,position_joint2,position_joint3,position_joint4,position_joint5,position_joint6,position_joint7,velocity_joint1,velocity_joint2,velocity_joint3,velocity_joint4,velocity_joint5,velocity_joint6,velocity_joint7,ee_T_00,ee_T_10,ee_T_20,ee_T_30,ee_T_01,ee_T_11,ee_T_21,ee_T_31,ee_T_02,ee_T_12,ee_T_22,ee_T_32,ee_T_03,ee_T_13,ee_T_23,ee_T_33,v_x,v_y,time
0.465089246151,0.547664958452,-0.124038925541,-1.35583269833,0.0795301488031,1.89415144412,0.159129367805,-0.00137593678816,0.00109134538519,-0.000428892227003,0.000250470592111,-0.000189619591104,0.000441764068459,8.9360823807e-05,0.573811917082,0.818972680898,0.00209252429288,0.0,0.818931439857,-0.573752816863,-0.0118215420163,0.0,-0.00848109153735,0.00849713921561,-0.999927932259,0.0,0.661696218928,0.260881540502,0.303303006909,1.0,0.0,0.0,0.0
0.465089243199,0.547657137088,-0.124036790034,-1.3558352128,0.0795301488572,1.89415144412,0.159126146321,-0.00119595340381,0.000436747070345,-0.000457026833934,-0.000186142344009,5.8712680246e-05,0.000420106808138,0.000635916741846,0.573807912179,0.818975473149,0.00209790419976,0.0,0.818934288755,-0.573748777783,-0.0118202197634,0.0,-0.00847696331077,0.00850074497334,-0.999927936617,0.0,0.661695360135,0.260882579657,0.30330728013,1.0,-0.00014,-0.000184,0.008
0.465088622496,0.547656488025,-0.124031579099,-1.35583305153,0.0795307592087,1.89414981651,0.159127774901,-0.00062902812358,0.000545502921401,0.00187807487404,0.00109469552775,0.00025577664347,-0.00034189063679,0.000971759448899,0.573806144341,0.818976705006,0.00210054164115,0.0,0.818935523514,-0.573746968223,-0.0118225074224,0.0,-0.00847734199061,0.00850419930127,-0.999927904035,0.0,0.661694479167,0.260885438395,0.303308455814,1.0,-0.00034,-0.000446857142857,0.018
0.465083986957,0.547649016657,-0.124034392459,-1.35584677124,0.0795296551735,1.89415100577,0.159128587236,-0.00136391767414,0.000228687255967,0.000517574702709,-0.00433610028508,0.000122916028572,0.000431631148531,0.00334685424309,0.573813024049,0.818971897766,0.00209547182243,0.0,0.818930662153,-0.573753879031,-0.0118238649962,0.0,-0.0084812913595,0.00850089752511,-0.99992789862,0.0,0.661693685539,0.260879113203,0.303307412737,1.0,-0.00068,-0.000893714285714,0.035
0.465085825401,0.547610806705,-0.124037487683,-1.35587449473,0.07952751282,1.89415472952,0.159126906978,-0.000468804479021,-0.0048050283274,-0.000694975206335,-0.00526372170708,0.000145213201159,0.000143760299137,-0.000433218106832,0.573813208293,0.81897173815,0.00210736834903,0.0,0.818930669417,-0.573754028371,-0.0118161126372,0.0,-0.00846811426259,0.00850619384527,-0.999927965259,0.0,0.661689435484,0.260875657268,0.303321707235,1.0,-0.00098,-0.001288,0.05
0.465089901162,0.547496548099,-0.12403219809,-1.35600157187,0.0795259687198,1.89418645304,0.159125033899,0.00156318703044,-0.00670504917089,0.00106033853835,-0.00783310697592,-0.00019963207668,0.00157528950338,0.000499681420316,0.573811186965,0.81897309716,0.00212949382889,0.0,0.818932216057,-0.573751819287,-0.0118161868259,0.0,-0.00845550095754,0.00852433540821,-0.999927917507,0.0,0.661667458873,0.260869737684,0.303344739109,1.0,-0.00132,-0.00173485714286,0.067
0.465075446673,0.547345363614,-0.124033908788,-1.35621060854,0.0795224927489,1.89423457378,0.159115078022,0.000413641367808,-0.00611067125307,0.000575615427595,-0.010661855952,-0.000122803097179,0.00177765716649,-0.00156931583011,0.573826627577,0.818962284406,0.00212722939447,0.0,0.818921262832,-0.573767155059,-0.011830636455,0.0,-0.00846847374372,0.008530931848,-0.999927751467,0.0,0.661637479964,0.260839056316,0.30335656579,1.0,-0.00168,-0.002208,0.085
0.465056977608,0.547160995239,-0.124034703744,-1.35643173812,0.079521772496,1.8943555935,0.159107753789,-0.000169379572108,-0.00847738758246,0.000480048738189,-0.008459551219,0.000393938833872,0.00680540119597,-0.00017626799338,0.573848694998,0.818946616184,0.00220499228894,0.0,0.818906553591,-0.573788862157,-0.011795976082,0.0,-0.00839523631468,0.00857495321131,-0.9999279925,0.0,0.661620827386,0.260810662618,0.303392445843,1.0,-0.00204,-0.00268114285714,0.103
0.465032500884,0.546973397899,-0.124037185695,-1.35664121646,0.0795179485587,1.89445501554,0.159098952156,-0.00134086372274,-0.00860584944301,0.000925324427101,-0.0107184026965,0.000203310817334,0.00989839520119,-3.44026000195e-06,0.573874030002,0.818928669863,0.00227558059153,0.0,0.818889493956,-0.573813891637,-0.0117627103295,0.0,-0.00832722129397,0.00861392886441,-0.999928226232,0.0,0.661604741488,0.260776770803,0.303434325281,1.0,-0.00236,-0.00310171428571,0.119
0.46500921433,0.546787163458,-0.124035732644,-1.35688440249,0.0795115290133,1.89457473273,0.159075766574,-0.00125312573529,-0.016366329542,-0.000515263412186,-0.0159568786007,0.00029701015113,0.00899202811528,-0.00201940181854,0.573885153998,0.81892071186,0.00233336859571,0.0,0.818882249081,-0.573824757533,-0.011736979353,0.0,-0.00827287009653,0.00864659880086,-0.999928395411,0.0,0.661583857746,0.260742879856,0.303460816058,1.0,-0.00266,-0.003496,0.134
0.46498316342,0.546543235137,-0.12403790003,-1.357248654,0.0795075306087,1.89470328493,0.159002668478,-0.00149200536754,-0.0140923555986,-0.000276096634086,-0.0210344809463,-0.00019801579242,0.0040576840914,-0.00517213492224,0.573860263071,0.818938108236,0.00234952064629,0.0,0.818899707768,-0.573799654992,-0.0117461249277,0.0,-0.00827135444034,0.00866482293639,-0.999928250196,0.0,0.661536935001,0.260687072845,0.303471559575,1.0,-0.00302,-0.00396914285714,0.152
0.46494190472,0.546243390698,-0.124037900043,-1.35769585581,0.0794910625027,1.89487331002,0.158938682227,-0.000404793234086,-0.0171123097853,0.00482799559179,-0.0254348200965,-0.00324196822661,0.0110090716277,0.000913911171712,0.573869472929,0.818931579187,0.00237561589973,0.0,0.818893419267,-0.573808662944,-0.0117444928545,0.0,-0.00825494603027,0.00868534937111,-0.999928207709,0.0,0.661490763055,0.260624867313,0.303485632211,1.0,-0.00336,-0.004416,0.169
0.464898386374,0.545958705735,-0.124036341445,-1.35819306444,0.0794669636985,1.89503208137,0.158892537419,-0.00523632293221,-0.0202298330182,0.000224168835328,-0.0282913627412,-0.000466039875549,0.00590111077644,8.78934580958e-05,0.57388758469,0.818918981358,0.00234286404857,0.0,0.818880281671,-0.57382677562,-0.0117755158202,0.0,-0.00829895507834,0.00867651455434,-0.999927920122,0.0,0.661424420156,0.260545791806,0.303471649661,1.0,-0.00372,-0.00488914285714,0.187
0.464844794235,0.545618671489,-0.124040267688,-1.35874538985,0.0794250034341,1.89521599817,0.158807677768,-0.00803220463025,-0.0187097138236,-0.000725809730152,-0.0301720515254,-0.00796494563169,0.0118075862784,-0.00556833407039,0.573884340082,0.818921366568,0.00230358143948,0.0,0.818882231424,-0.573823758941,-0.01178692644,0.0,-0.00833087654243,0.00865086096692,-0.999927876949,0.0,0.661364166975,0.260455428828,0.303458118471,1.0,-0.00404,-0.00530971428571,0.203
0.464786531488,0.545227024631,-0.124040377128,-1.35943359643,0.0793683681435,1.89542845668,0.158735956711,-0.00428623383952,-0.0257951168764,-0.0015494025179,-0.0347043767576,-0.004527580528,0.0122493001713,-0.00035759118927,0.573896623694,0.818912979845,0.00222343326478,0.0,0.818872869253,-0.573836418935,-0.0118209646699,0.0,-0.00840461623498,0.00860488656073,-0.99992765656,0.0,0.661277130552,0.260345519408,0.30342615548,1.0,-0.0044,-0.00578285714286,0.221
0.464725926451,0.544843340474,-0.124041096342,-1.36008844113,0.0793426246602,1.8956363874,0.158657837126,-0.00245680097721,-0.0236878013554,-0.000791941835881,-0.0402282914114,-0.0035999419569,0.015431151708,-0.00438784722265,0.573912350906,0.818902082547,0.00217705761509,0.0,0.818861193715,-0.573852148665,-0.0118660777851,0.0,-0.00846800965509,0.00859296203628,-0.99992722426,0.0,0.661195587888,0.260242266656,0.303404088624,1.0,-0.00472,-0.00620342857143,0.237
0.464665474491,0.544441108343,-0.124041814696,-1.36077075929,0.0793115903028,1.89586341356,0.158561906754,-0.00425447686093,-0.0287804306504,-0.00032971794625,-0.0432628273457,-0.000129530117005,0.016077335025,-0.00368360292589,0.573906454207,0.818906315483,0.00213896767905,0.0,0.818864791105,-0.573846264386,-0.0119023376181,0.0,-0.00851962486136,0.00858251894092,-0.999926875507,0.0,0.661117673079,0.26014290752,0.303383836267,1.0,-0.00502,-0.00659771428571,0.252
0.464589435915,0.543946939179,-0.124041779489,-1.36158617495,0.0792710327176,1.89615692927,0.158482117347,-0.00433987670855,-0.0279784428289,0.000376636113068,-0.0520835417116,-0.000152522763355,0.0190643528872,-0.00322411822116,0.57394510941,0.818879280282,0.00211721768852,0.0,0.818837381537,-0.573884911654,-0.0119246666738,0.0,-0.0085499877911,0.00857792625867,-0.999926655755,0.0,0.6610182127,0.260009337959,0.303370692846,1.0,-0.0054,-0.00709714285714,0.271
0.464524849486,0.543454571633,-0.124044995479,-1.36236941811,0.0792286535037,1.89642056466,0.158369923807,-0.00222082327364,-0.032951878376,-0.000383407331076,-0.0469733693403,-0.00263448360983,0.0132931127525,-0.00637190260907,0.573940577505,0.818882509775,0.0020965638534,0.0,0.818840267763,-0.573880390819,-0.0119440288226,0.0,-0.00857774456364,0.00857207874633,-0.999926468179,0.0,0.660923373328,0.259889299962,0.303369186443,1.0,-0.00572,-0.00751771428571,0.287
0.464440803096,0.542928356314,-0.124050262284,-1.36323310419,0.0791772566427,1.89672396186,0.158251670233,-0.00572642694053,-0.0288458223475,0.00192138714576,-0.0555864143562,-0.000574987972119,0.0198288989008,-0.00703012847653,0.573945890597,0.818878850217,0.00207128829032,0.0,0.818836244483,-0.573885773659,-0.0119612045829,0.0,-0.00860626027028,0.00856129497329,-0.999926315542,0.0,0.660819606855,0.259739640708,0.303359441176,1.0,-0.00608,-0.00799085714286,0.305
0.46437266943,0.542410362528,-0.124053461795,-1.364030515,0.0791267191047,1.89700791575,0.158172300554,-0.0049811550823,-0.032055448469,-0.00102993494486,-0.0505015570951,-0.00364218401129,0.0215248552749,-0.0103183991982,0.573974422563,0.81885885966,0.00206811537004,0.0,0.818816250575,-0.573914353043,-0.0119586816349,0.0,-0.00860571699866,0.00855754861837,-0.999926352286,0.0,0.660732517179,0.259623708028,0.303368298262,1.0,-0.00636,-0.00835885714286,0.319
0.464281350996,0.541811576199,-0.124051341677,-1.36496371863,0.0790736261297,1.89735309321,0.158026151232,-0.00854096404781,-0.033942042418,0.000532586806094,-0.0560262123523,-0.00654350601733,0.0185816030536,-0.00963943008022,0.573965738428,0.818864917701,0.0020795601283,0.0,0.81882240743,-0.573905572357,-0.0119585120144,0.0,-0.00859910037011,0.0085667315456,-0.999926330578,0.0,0.660628138123,0.259476517903,0.303377384141,1.0,-0.0067,-0.00880571428571,0.336
0.464199408802,0.541155120437,-0.124057298879,-1.36595014722,0.0790120821856,1.89771441995,0.157914464011,-0.0113764685859,-0.0423163155818,-0.00128803788832,-0.061181809517,-0.00473828679555,0.0242716958012,-0.00991619411312,0.573983821717,0.818852179924,0.00210398230666,0.0,0.818810026656,-0.573923591148,-0.0119414686271,0.0,-0.00857093755273,0.00857713674454,-0.999926483175,0.0,0.660515950779,0.259325019904,0.303403474128,1.0,-0.00704,-0.00925257142857,0.353
0.464116914595,0.540496902153,-0.124057653845,-1.36694628737,0.0789596623466,1.89807952777,0.157784988573,-0.00492310265504,-0.0441086348143,0.000396712174417,-0.0641545537347,-0.00422369982167,0.021721624415,-0.00829918575806,0.573986785846,0.818850030596,0.00213165879478,0.0,0.818808158749,-0.573926361861,-0.0119363825099,0.0,-0.00855085663711,0.0085969109615,-0.999926485284,0.0,0.660400500642,0.259177014057,0.303426252692,1.0,-0.00736,-0.00967314285714,0.369
0.464005943995,0.539681411491,-0.124066243643,-1.36818048951,0.0788904170055,1.89853459635,0.157620406188,-0.00614723546337,-0.0427985977653,-0.00126482612835,-0.0653291744835,-0.00549099956262,0.025847880429,-0.00880254724193,0.573998715634,0.818841583748,0.00216381067751,0.0,0.8188001161,-0.573938144269,-0.011921548957,0.0,-0.0085201305828,0.00861484808616,-0.999926593189,0.0,0.660262132958,0.258982624788,0.303454812149,1.0,-0.00774,-0.0101725714286,0.388
0.463907142792,0.538926358701,-0.124069415466,-1.36934633174,0.0788198021695,1.89896768575,0.157480178161,-0.00922686808803,-0.0427896888098,-0.00123873732705,-0.0658006189607,-0.00413377400991,0.0193705853006,-0.0140595404002,0.574012619829,0.81883178988,0.0021815269547,0.0,0.818790563894,-0.573951986034,-0.0119112177082,0.0,-0.0085013556649,0.00862356899788,-0.999926677817,0.0,0.660129020604,0.258805033479,0.303470977605,1.0,-0.00808,-0.0106194285714,0.405
0.463795677903,0.538157549937,-0.124069579362,-1.37054721539,0.0787505815044,1.89943762122,0.157341715846,-0.00931608919111,-0.0427552112083,0.000252653413372,-0.074269714414,-0.00106380371458,0.0364933831848,-0.0152006522192,0.574038621926,0.818813474712,0.0022138356705,0.0,0.818772667385,-0.573977852895,-0.0118949750193,0.0,-0.00846923624139,0.00864096957046,-0.999926800162,0.0,0.659997782011,0.258619582213,0.303483160543,1.0,-0.00842,-0.0110662857143,0.422
0.463710460493,0.537452512891,-0.124081498272,-1.37164801314,0.0786814585412,1.89984613131,0.157208650794,-0.00756815285512,-0.0505488944788,-0.000599910610208,-0.0770016320295,-0.00578177221303,0.0210378928732,-0.00931025157745,0.574050043702,0.818805451089,0.00221979579703,0.0,0.818764794144,-0.573989323756,-0.0118833911747,0.0,-0.00845620919111,0.00863931820563,-0.999926924684,0.0,0.659871443944,0.258451542512,0.303492867024,1.0,-0.00872,-0.0114605714286,0.437
0.463594963616,0.536607582391,-0.12407871565,-1.37295403734,0.0786102586524,1.9003258807,0.157051572704,-0.00994196665248,-0.0494312570581,-0.000376783221005,-0.0747732750861,-0.00963369432987,0.02720183955,-0.0130557107812,0.574066886842,0.81879358623,0.00224041969064,0.0,0.818753099739,-0.574005982403,-0.0118844744902,0.0,-0.00844507977677,0.00865700051289,-0.999926865811,0.0,0.659719765515,0.258254035947,0.30350923928,1.0,-0.00906,-0.0119074285714,0.454
0.463477880517,0.53575611342,-0.12408541723,-1.3743010593,0.0785289443731,1.90082164449,0.156882762662,-0.00735863454464,-0.0541072220294,-0.00053908169145,-0.0836683146272,-0.000839906829948,0.0264308732936,-0.00980294341032,0.57408154824,0.818783312516,0.00223830677175,0.0,0.818742810876,-0.574020663021,-0.0118842317541,0.0,-0.00844593891563,0.00865528238393,-0.999926873428,0.0,0.659564773918,0.258044666713,0.303512242774,1.0,-0.0094,-0.0123542857143,0.471
0.463377699265,0.534916137814,-0.124085800248,-1.37562162928,0.0784617303283,1.90130020444,0.156718404525,-0.011406567291,-0.0515912251186,0.00123662615795,-0.0820797434769,-0.0016370679026,0.0255342851578,-0.00356748640033,0.574083738165,0.818781763648,0.00224321059083,0.0,0.818741185694,-0.574022689477,-0.0118983072324,0.0,-0.00845462598153,0.00866740046704,-0.999926695048,0.0,0.659405290718,0.257854228457,0.303517888192,1.0,-0.00972,-0.0127748571429,0.487
0.463246654716,0.534031871647,-0.124088312602,-1.37709475107,0.0783773635474,1.90183145858,0.156539139008,-0.00841205965303,-0.048626080129,0.000313929928759,-0.0869665054326,-0.00259612800034,0.0316391201471,-0.0148632240408,0.574104191205,0.818767554782,0.00219448802518,0.0,0.818726265824,-0.574043258086,-0.0119325771233,0.0,-0.00851043978999,0.00864739401373,-0.999926394787,0.0,0.659231087163,0.257625495704,0.303486648058,1.0,-0.01006,-0.0132217142857,0.504
0.463115299139,0.533054003381,-0.124090052889,-1.37865603192,0.0782945671608,1.90241865624,0.156345054354,-0.00363002395622,-0.0562639102322,0.000368840648757,-0.0844541415049,-0.00881177602118,0.0356188203166,-0.0145995673363,0.57411741849,0.818758259415,0.00220211878734,0.0,0.818716966848,-0.574056347956,-0.0119408738231,0.0,-0.00851271269458,0.00865854237182,-0.999926278966,0.0,0.659049424636,0.25739183261,0.303484099073,1.0,-0.01042,-0.0136948571429,0.522
0.462993851119,0.532153844042,-0.124095406812,-1.38011519238,0.0782063330316,1.90296764391,0.156169828664,-0.00613477567141,-0.0555418689735,0.000523033778675,-0.0964705618244,-0.00737516109767,0.026014221792,-0.00654602300203,0.574133308961,0.818747148206,0.00219037617613,0.0,0.818705718644,-0.574072300511,-0.0119451641336,0.0,-0.00852279886906,0.00865155668073,-0.999926253514,0.0,0.658880048448,0.257170258471,0.303471958774,1.0,-0.01074,-0.0141154285714,0.538
0.462852782339,0.531106232176,-0.124095043734,-1.38180543452,0.078104068493,1.90357944764,0.15594729514,-0.00669163280189,-0.0602260899674,-0.000477938436877,-0.0945350346808,-0.00480977709429,0.0337016464214,-0.0166912881828,0.574131010516,0.818748831669,0.00216340128461,0.0,0.818706999952,-0.574070061638,-0.0119649263538,0.0,-0.00855449026486,0.00864079339574,-0.999926075961,0.0,0.658677297833,0.256915610209,0.303458810276,1.0,-0.0111,-0.0145885714286,0.556
0.462716138275,0.530077281217,-0.124098439352,-1.38345655215,0.0780041719767,1.90415549981,0.155734399309,-0.00289384323788,-0.06032685209,-0.000894429238294,-0.103200984439,-0.0061515599938,0.0406942453999,-0.00610801943135,0.574133775928,0.818746996682,0.00212359698913,0.0,0.818704583219,-0.574072928451,-0.0119927118224,0.0,-0.00860006282211,0.0086241855524,-0.999925828421,0.0,0.658475150793,0.256664089317,0.303447911017,1.0,-0.01144,-0.0150354285714,0.573
0.462578426831,0.529094012749,-0.124096109165,-1.38500295899,0.0779008807282,1.90472567485,0.155518742755,-0.00813949604837,-0.0670416973818,0.000325839155701,-0.101740305125,-0.0155001364188,0.0317943806088,-0.00968557571807,0.574124470414,0.818753519665,0.00212447864317,0.0,0.818711167216,-0.574063670103,-0.0119864191529,0.0,-0.00859450233344,0.00862119692274,-0.999925902001,0.0,0.658293809898,0.256426101791,0.303453725129,1.0,-0.01176,-0.015456,0.589
0.462435268122,0.527943751118,-0.124099226062,-1.38681735752,0.0777932100905,1.90542672141,0.155274609751,-0.00881809710382,-0.0591432002558,0.000228997224712,-0.106125123901,-0.00777056905074,0.0397808868034,-0.0157142659503,0.574113586367,0.81876107343,0.00215441066975,0.0,0.818719122646,-0.574052674855,-0.0119696118223,0.0,-0.0085636718937,0.0086359402527,-0.999926039295,0.0,0.658082696963,0.256159911684,0.303460874874,1.0,-0.01212,-0.0159291428571,0.607
0.462294760417,0.526858606116,-0.124104832271,-1.38847003153,0.077687926767,1.90605926679,0.155042439881,-0.00357129358688,-0.0744224713335,-0.0015272177952,-0.109375723943,-0.0045764909868,0.0353247135492,-0.0127701082766,0.574103590497,0.818767947212,0.00220519803957,0.0,0.81872674442,-0.574042559726,-0.0119333354928,0.0,-0.00850491882355,0.00865659203099,-0.999926362174,0.0,0.65789330679,0.255908141917,0.303492981656,1.0,-0.01244,-0.0163497142857,0.623
0.462150974167,0.525763982362,-0.124108530964,-1.39017443268,0.0775815773201,1.90668266567,0.154813342962,-0.0111611405988,-0.0691381795932,-0.000929054031319,-0.107898249795,-0.00532184698943,0.0419378123525,-0.0169713772542,0.574099609564,0.818770713956,0.00221430972293,0.0,0.818729640366,-0.574038553093,-0.0119273823398,0.0,-0.00849485575683,0.00866059329078,-0.999926413067,0.0,0.657690173942,0.255648561636,0.303506030005,1.0,-0.01276,-0.0167702857143,0.639
0.461981697324,0.524533453666,-0.124113376137,-1.39212498762,0.0774604689722,1.90737755836,0.154545734059,-0.0110508660351,-0.0728343917436,-0.00128473025114,-0.106563963674,-0.00101822907513,0.0411286553979,-0.0118265064907,0.574094737847,0.818774193719,0.00219056566447,0.0,0.818732786734,-0.574033753905,-0.0119423701755,0.0,-0.00852080993195,0.0086497063398,-0.999926286472,0.0,0.657454103769,0.255346630634,0.303503460716,1.0,-0.01312,-0.0172434285714,0.657
0.461841741564,0.523480861248,-0.124120456832,-1.39380934715,0.077353457887,1.90798766632,0.154323216809,-0.0093340373826,-0.0709358424431,-0.000162789328317,-0.115916525031,-0.00706458500579,0.042321379619,-0.0146197715327,0.574093706406,0.818774978864,0.00216729146122,0.0,0.818733295695,-0.574032845139,-0.0119511557139,0.0,-0.00854137523124,0.00863568322405,-0.999926232221,0.0,0.657250663751,0.255088496696,0.303494907354,1.0,-0.01342,-0.0176377142857,0.672
0.46167974112,0.522254267689,-0.124120988468,-1.39574616476,0.0772278963054,1.90874219837,0.154051208508,-0.0139364038643,-0.0677812631664,0.000443130626886,-0.118709814598,-0.00702228376636,0.0476087955071,-0.0152115051224,0.574074170723,0.818788593721,0.00219822685022,0.0,0.818747409906,-0.5740132836,-0.0119237546473,0.0,-0.00850138656517,0.0086450785456,-0.99992649182,0.0,0.657025819697,0.254798806933,0.303500511016,1.0,-0.01376,-0.0180845714286,0.689
0.461525278205,0.521080554075,-0.124124723995,-1.39762404467,0.0771215888705,1.90946985396,0.153797553019,-0.0113484458595,-0.0768213249915,0.0019226676996,-0.119702417281,-0.00509393497553,0.0406943333758,-0.0091690554527,0.574071126818,0.818790683985,0.00221451444286,0.0,0.818749657745,-0.574010118671,-0.0119217661336,0.0,-0.008490440816,0.00865724133888,-0.999926479591,0.0,0.656788763023,0.254501837615,0.303492111844,1.0,-0.0141,-0.0185314285714,0.706
0.461349993907,0.51979468954,-0.124132937981,-1.39967932971,0.0769826216484,1.91021836306,0.153524318733,-0.00867649349954,-0.0784231001022,0.000374603108667,-0.127839904999,-0.00890145890721,0.0430142312031,-0.0166655142967,0.574065218097,0.818794890299,0.00219086574202,0.0,0.818753681019,-0.574004433448,-0.0119191904498,0.0,-0.008501969277,0.00863633833225,-0.999926562393,0.0,0.656557311784,0.254201202231,0.303484393359,1.0,-0.01442,-0.018952,0.722
0.461183008994,0.518444741724,-0.12414225255,-1.40174567289,0.0768516430805,1.91096087369,0.153249541232,-0.0107683517788,-0.0809607636916,-0.00303799440693,-0.118884810071,-0.0142477689723,0.0420583839778,-0.0194969387462,0.574057841593,0.818800012506,0.002209281872,0.0,0.818759074161,-0.573997015268,-0.0119059583189,0.0,-0.00848064089861,0.00864374473359,-0.999926679516,0.0,0.656304239303,0.253887858435,0.303513090878,1.0,-0.01476,-0.0193988571429,0.739
0.460980783124,0.516948533475,-0.124146390715,-1.40412789526,0.0766963706866,1.9118076688,0.152913580959,-0.00853046778745,-0.0828029905134,-0.000836359361472,-0.127864210018,-0.00598966961589,0.0415156990815,-0.0159762877281,0.574035378968,0.818815866144,0.00216977977574,0.0,0.818774426413,-0.573974728348,-0.0119246288006,0.0,-0.00851884051654,0.00862188500194,-0.99992654353,0.0,0.656009326955,0.253522065688,0.303502547224,1.0,-0.01514,-0.0198982857143,0.758
0.460817799016,0.515766375038,-0.124149414829,-1.40602954358,0.0765750895596,1.91253626099,0.152652718885,-0.00701796462709,-0.0784601826511,-0.00224971175934,-0.128644012165,-0.0111372530517,0.0472286011971,-0.0190005055543,0.574025344538,0.818822896272,0.00217146723698,0.0,0.818781539015,-0.573964749574,-0.0119165648124,0.0,-0.00851137433473,0.00861853344183,-0.999926636003,0.0,0.655783587509,0.253233044579,0.303489787379,1.0,-0.01544,-0.0202925714286,0.773
0.460627329935,0.514362750618,-0.124157168739,-1.40825900689,0.0764396376136,1.91335531261,0.152359923924,-0.0119247784662,-0.0829040048607,-0.0011198403134,-0.136120813223,-0.00952831592625,0.0460260291527,-0.0126950581688,0.57402802165,0.818821041192,0.00216327602389,0.0,0.818779559542,-0.573967441665,-0.0119229059565,0.0,-0.00852124032458,0.0086154941835,-0.999926578166,0.0,0.65551200728,0.252891166979,0.303483892066,1.0,-0.01578,-0.0207394285714,0.79
0.460421770499,0.512874379974,-0.124155965282,-1.41067615869,0.0763024494654,1.91419400684,0.152021091804,-0.0119412794307,-0.0840619624952,-0.000430512434124,-0.133942193963,-0.00862204807239,0.0553126279345,-0.0197067133635,0.57400782234,0.818835383399,0.0020932479246,0.0,0.818792752152,-0.573947295474,-0.0119865734653,0.0,-0.00861378233603,0.0085944886318,-0.999925966019,0.0,0.65520290201,0.252524629727,0.30344906094,1.0,-0.01614,-0.0212125714286,0.808
0.46022575532,0.511468101754,-0.124161325189,-1.41297329048,0.0761539334078,1.91503528983,0.151700009703,-0.0123707888351,-0.0834848975312,-0.000740469404875,-0.136021002074,-0.0158919630298,0.0554740207814,-0.0208651329605,0.573989403222,0.818848420223,0.00204367018442,0.0,0.818805173431,-0.573929117985,-0.0120084300585,0.0,-0.00866032889452,0.00856624424944,-0.999925806329,0.0,0.654919455776,0.252172081788,0.303413794794,1.0,-0.01648,-0.0216594285714,0.825
0.460026380718,0.510008102847,-0.124156831362,-1.41529194976,0.0760098524288,1.91592047444,0.151363607859,-0.00707816617378,-0.0812097585068,0.00104333565676,-0.136989172851,-0.00436003370093,0.0569320396298,-0.0145079879339,0.573956327212,0.818871553574,0.00206400162868,0.0,0.818828563891,-0.573895952328,-0.0119985731649,0.0,-0.00864093443268,0.00857688560662,-0.999925882896,0.0,0.654638535082,0.251824951958,0.303408889135,1.0,-0.01682,-0.0221062857143,0.842
0.459847379968,0.508663284729,-0.124162171576,-1.41738146223,0.0758671368232,1.91667815862,0.151075332807,-0.0120839253413,-0.0878909630547,0.00105580782904,-0.137167245775,-0.0113381744519,0.0458037158293,-0.012086996597,0.573940555603,0.81888260233,0.002066188733,0.0,0.818839740326,-0.573880271968,-0.0119858254115,0.0,-0.00862940509476,0.00857119376365,-0.999926031267,0.0,0.654379989325,0.251502814872,0.303421172108,1.0,-0.01712,-0.0225005714286,0.857
0.45963201289,0.507138792607,-0.124167789324,-1.41976853993,0.0757205189848,1.91753600353,0.150741332282,-0.0100027497593,-0.0922915309404,-0.000525868248354,-0.141716115133,-0.00506180038344,0.0571945277438,-0.0225399264469,0.573931484084,0.818888972419,0.00206139016479,0.0,0.818845995049,-0.573871169326,-0.0119943449462,0.0,-0.00863923075546,0.00857205831492,-0.999925939012,0.0,0.6540835739,0.251129996024,0.303425781946,1.0,-0.01746,-0.0229474285714,0.874
0.459422751145,0.505654520006,-0.124168513384,-1.4220706698,0.0755732879401,1.91840631251,0.150436157561,-0.0158309764668,-0.0936039392571,0.000409297731471,-0.145194979505,-0.0103811193657,0.0604033851647,-0.0140920851903,0.573932751764,0.818887982194,0.0021014215816,0.0,0.81884557443,-0.573872317042,-0.0119681189434,0.0,-0.00859476657598,0.008589800581,-0.999926169931,0.0,0.653805385017,0.250774364372,0.303443084572,1.0,-0.01778,-0.023368,0.89
0.459204984157,0.504004723104,-0.124172109099,-1.42455097724,0.0754169193394,1.91935376803,0.150085505017,-0.0118172073666,-0.100367507711,0.000713626483759,-0.147997292753,-0.00709060596148,0.0537713813692,-0.0220300787735,0.573912105435,0.818902199219,0.00219778286329,0.0,0.818861113162,-0.573851345775,-0.0119103822118,0.0,-0.00849240103797,0.00863535771101,-0.999926652171,0.0,0.65350651925,0.250396350336,0.303497396235,1.0,-0.01812,-0.0238148571429,0.907
0.458959181484,0.502220469404,-0.124180603881,-1.42717521182,0.0752514436455,1.9203412385,0.149714672159,-0.0122011111507,-0.105225749685,1.59452627026e-05,-0.146639870202,-0.00623843968014,0.0572275343926,-0.0198274519108,0.573905679798,0.818906363603,0.0023206136049,0.0,0.818866953644,-0.573844514799,-0.0118377348379,0.0,-0.00836248600503,0.00869418444264,-0.999927237345,0.0,0.653192081609,0.249983202752,0.303579987287,1.0,-0.01848,-0.024288,0.925
0.458715420766,0.500401622681,-0.12417850724,-1.42991395963,0.0750743650657,1.92130389528,0.149332828966,-0.0152758084787,-0.102021925872,0.000208681013933,-0.157591828906,-0.0037812510523,0.0560352467201,-0.0210085799826,0.573882720863,0.81892235121,0.00235632877104,0.0,0.818883360912,-0.573821374061,-0.0118244997246,0.0,-0.00833139570841,0.0087156023006,-0.999927310419,0.0,0.652842471796,0.249561147823,0.303629032175,1.0,-0.01884,-0.0247611428571,0.943
0.458500588255,0.498918084076,-0.124183796141,-1.4322086853,0.0749328830859,1.92214679828,0.149001249025,-0.0121193896729,-0.104808291863,-0.0010090544668,-0.154897184051,-0.0159319647911,0.0594512042225,-0.0241790537135,0.573869551142,0.818931504659,0.00238240444654,0.0,0.818892831322,-0.573808082899,-0.0118136239428,0.0,-0.00830766585111,0.00873058108273,-0.999927377184,0.0,0.652558605555,0.249199547858,0.303644811228,1.0,-0.01914,-0.0251554285714,0.958
0.458231740169,0.497150679489,-0.124178744488,-1.43502229092,0.0747555558225,1.92317845248,0.148586094705,-0.013368065833,-0.0961783700426,-0.000343196615568,-0.155343073718,-0.0126623966114,0.0492816647029,-0.0254935907825,0.573840988336,0.818951560173,0.00236835300424,0.0,0.818912640152,-0.573779510417,-0.0118282765469,0.0,-0.00832803344547,0.00872719214102,-0.999927237341,0.0,0.652206530766,0.248758118008,0.303627087234,1.0,-0.0195,-0.0256285714286,0.976
0.457956280275,0.495487830039,-0.12418129146,-1.43771495219,0.0745871697228,1.92410992879,0.148194048351,-0.0135099319083,-0.0961074215411,-0.0012142443024,-0.160235115563,-0.0146700102711,0.0572079398,-0.0216275712854,0.573837661927,0.818954130454,0.00228404618958,0.0,0.818913980648,-0.573776375424,-0.0118873969364,0.0,-0.00842486328221,0.00869204077022,-0.999926732369,0.0,0.651862457268,0.248315792803,0.303584991597,1.0,-0.01984,-0.0260754285714,0.993
0.457702960009,0.493999238063,-0.124181263098,-1.44015836956,0.0744355102456,1.92497348873,0.147861680543,-0.0191126877767,-0.106092712134,0.00212311065004,-0.169162841238,-0.00489235282554,0.0573722647028,-0.0207122103084,0.573855798491,0.818941674656,0.00219156369424,0.0,0.818900244909,-0.573794804328,-0.0119439656354,0.0,-0.00852406747308,0.00864895250192,-0.999926265229,0.0,0.65153063484,0.247880829138,0.30352849262,1.0,-0.023564,-0.0309698285714,1.009
0.457391701016,0.491627065098,-0.124264204332,-1.4438303156,0.0742270558311,1.92633991568,0.147331898034,-0.0188840377021,-0.143102916483,-0.00308261983999,-0.228329244276,-0.0136172644549,0.0856589819922,-0.0225571497927,0.573863980268,0.818935773705,0.00225335256044,0.0,0.818895262257,-0.573802851561,-0.0118989030971,0.0,-0.00845162000916,0.00867377862516,-0.999926665153,0.0,0.651102423003,0.247318452456,0.30355785416,1.0,-0.03118,-0.0409794285714,1.026
0.456953215249,0.488621015486,-0.124278697635,-1.44867714673,0.0739554256074,1.92811773472,0.14660859993,-0.0302488104311,-0.181992395123,-0.00215514069078,-0.296918440376,-0.0156187053254,0.1068831506,-0.0404424489693,0.573810179773,0.818973588463,0.00221040510164,0.0,0.818932179779,-0.573748886356,-0.0119602353088,0.0,-0.00852706353667,0.00867324362758,-0.99992602928,0.0,0.650481647213,0.246566489179,0.303495955979,1.0,-0.039244,-0.0515778285714,1.044
0.456404727761,0.485019806427,-0.12434203265,-1.45426904655,0.07362380792,1.93023771986,0.145769661902,-0.0348265510091,-0.219779482874,-0.00604729226883,-0.347117084525,-0.0222531470633,0.126234369795,-0.0507890992567,0.573805947342,0.818976271676,0.00231260204732,0.0,0.818936313437,-0.573744365457,-0.0118938867452,0.0,-0.00841413062621,0.00871882461087,-0.999926589557,0.0,0.649799564142,0.245647764822,0.303521390313,1.0,-0.04686,-0.0615874285714,1.061
0.455873745507,0.481607155011,-0.124430359144,-1.45964148216,0.07329576259,1.93210821831,0.144943344326,-0.0383767844916,-0.254210832157,-0.00770223444336,-0.400911537092,-0.0259460676521,0.140482579796,-0.0600317798057,0.57380269667,0.818978790751,0.00222542038083,0.0,0.818937726415,-0.57374149453,-0.0119350161377,0.0,-0.00849787267914,0.00867099209505,-0.999926297312,0.0,0.649112076483,0.244733938346,0.303496750324,1.0,-0.053132,-0.0698306285714,1.075
0.455108698993,0.476819723218,-0.124531592795,-1.4670967444,0.0728488571932,1.93476242231,0.143840640294,-0.043326260073,-0.299041593057,-0.00829735578802,-0.450781656666,-0.030988305958,0.167603159019,-0.0698023872355,0.573841406428,0.818951719026,0.00220659806281,0.0,0.818910372864,-0.57378023866,-0.0119493028805,0.0,-0.00851996380777,0.00866417762543,-0.999926168396,0.0,0.648164378579,0.243466874995,0.303498182868,1.0,-0.060748,-0.0798402285714,1.092
0.454166461348,0.471115264188,-0.124609184292,-1.47593323703,0.0723244753994,1.93795516603,0.142559671242,-0.0547702039293,-0.32937932312,-0.00104072653953,-0.502029755359,-0.0359278792162,0.183282530942,-0.0770792960358,0.573903788924,0.818907854125,0.00226150664197,0.0,0.818867004423,-0.573842166258,-0.0119475601316,0.0,-0.00848636634779,0.0087087908685,-0.999926066541,0.0,0.647037420239,0.241972943432,0.30351640555,1.0,-0.068812,-0.0904386285714,1.11
0.45310040022,0.464648218639,-0.124661725999,-1.48565332442,0.071715497309,1.94158200168,0.140975755279,-0.065991500509,-0.368241410647,-0.00419031753444,-0.559268049253,-0.0356290506966,0.198994924419,-0.0946796802684,0.573813931437,0.818969895659,0.00257468333298,0.0,0.81893322732,-0.57375122108,-0.0117750754378,0.0,-0.00816636182423,0.0088653667469,-0.999927355265,0.0,0.645811421008,0.240336906378,0.303668378129,1.0,-0.076876,-0.101037028571,1.128
0.452086475507,0.458799600749,-0.124708840358,-1.49474887215,0.071129017612,1.94469435484,0.139611958476,-0.0742534621214,-0.405829831376,-0.00911382099175,-0.613968335995,-0.0410360654254,0.203916716385,-0.0950157784389,0.573826122936,0.818961762234,0.00244121616867,0.0,0.818922997972,-0.573763530674,-0.0118861752859,0.0,-0.00833380270179,0.00881993575548,-0.999926375523,0.0,0.644500879632,0.238669918906,0.303634692828,1.0,-0.084044,-0.110457828571,1.144
0.450760550307,0.451106653378,-0.124822271147,-1.50644797193,0.0703219533104,1.94880234798,0.137747259498,-0.0756177658049,-0.445625030091,-0.00473478170104,-0.651959099217,-0.0492431930121,0.25423405595,-0.105596877283,0.573783013887,0.818991789651,0.0024996722444,0.0,0.818954275844,-0.573720725734,-0.0117970267851,0.0,-0.00822771271406,0.00881622059596,-0.999927286855,0.0,0.643045466001,0.236726601455,0.303714198196,1.0,-0.09166,-0.120467428571,1.161
0.449369403921,0.443259359775,-0.124878155024,-1.51824407433,0.0695621248128,1.9531188124,0.135960945243,-0.0834272583546,-0.462840746591,-0.00054676606665,-0.711739422445,-0.0465916331404,0.253385807439,-0.111799504964,0.573825071134,0.818961334301,0.00280491698304,0.0,0.81892781816,-0.57376172522,-0.0116386519228,0.0,-0.00792240443172,0.00897574762351,-0.999928333163,0.0,0.641496671274,0.234685191437,0.303851606913,1.0,-0.099276,-0.130477028571,1.178
0.447941521475,0.435454956433,-0.124914883587,-1.53023267285,0.068738385351,1.95722122092,0.133999850768,-0.0953784627047,-0.51001197765,-0.00251209858597,-0.757484124115,-0.05506586775,0.260789028059,-0.119454788416,0.573717091957,0.819037272085,0.00271886616964,0.0,0.819002434031,-0.573653827338,-0.0117066789395,0.0,-0.00802867297639,0.00894325199371,-0.999927776719,0.0,0.639836945927,0.232589957148,0.303834858604,1.0,-0.106444,-0.139897828571,1.194
0.446273073382,0.426587846569,-0.124960488587,-1.54360015275,0.0678047751386,1.96199516283,0.131825336055,-0.101307890429,-0.523354739095,-0.00204808138273,-0.789316834621,-0.0635794656768,0.28138788205,-0.13681940536,0.57365562883,0.819079634052,0.0029188171812,0.0,0.819047644387,-0.573591982622,-0.011573270839,0.0,-0.00780537058726,0.00902989615089,-0.999928766046,0.0,0.638020004867,0.230220706534,0.303927869073,1.0,-0.11406,-0.149907428571,1.211
0.444430309965,0.417236166105,-0.125056366772,-1.5578062476,0.0667885540505,1.96681294011,0.129494853705,-0.11131148013,-0.563365827823,-0.0134920266592,-0.847774480838,-0.0616706587641,0.297414162687,-0.1319334309,0.573642516537,0.819089071992,0.00284644769731,0.0,0.819056266242,-0.57357925015,-0.011594111819,0.0,-0.00786409836286,0.00898244924387,-0.999928733242,0.0,0.63602777916,0.227617503272,0.303936636208,1.0,-0.121676,-0.159917028571,1.228
0.442561755795,0.407963680803,-0.125146801129,-1.5718241667,0.0658296609785,1.97171871586,0.127152209734,-0.119152041862,-0.583541337219,0.00206807448867,-0.900901804175,-0.0535972632705,0.300377546796,-0.149699878204,0.573632105232,0.819095947145,0.00296380152917,0.0,0.819064614968,-0.573568403599,-0.0115407885767,0.0,-0.00775321951187,0.00904788600548,-0.999929009153,0.0,0.634066292214,0.225044438834,0.303967489076,1.0,-0.128844,-0.169337828571,1.244
0.440196671002,0.396940326618,-0.125278627518,-1.58836088541,0.0647089326988,1.97731482994,0.124352146455,-0.136097457517,-0.634549901749,-0.00919550460493,-0.922804898005,-0.062194458562,0.32729141393,-0.161168630846,0.573723494217,0.819031691932,0.0030309561709,0.0,0.819000822448,-0.573659088176,-0.0115607215852,0.0,-0.00773001063326,0.00911518867594,-0.999928577585,0.0,0.631710914169,0.221894692674,0.304017275047,1.0,-0.136908,-0.179936228571,1.262
0.437977232848,0.386789113192,-0.125399065498,-1.60375700694,0.0635090558078,1.98250142009,0.12170038234,-0.143424487697,-0.646185598621,-0.00537948807063,-0.99584767399,-0.0809159453409,0.327063629807,-0.168517608506,0.573714192719,0.819038693944,0.00289651462986,0.0,0.819006720419,-0.573650963881,-0.0115460144213,0.0,-0.00779519424417,0.00899655050193,-0.999929146003,0.0,0.62947579512,0.218938346138,0.30396006684,1.0,-0.144076,-0.189357028571,1.278
0.435434753934,0.375439193311,-0.125516148743,-1.62057107485,0.062274853649,1.98808357735,0.118661501737,-0.157471301361,-0.673362004729,-0.00608852767627,-0.99756067937,-0.0688694075004,0.327023690344,-0.184096718558,0.573675803118,0.819065333049,0.00296648212537,0.0,0.819034196062,-0.573612274739,-0.0115191515044,0.0,-0.00773347599688,0.00903808280433,-0.999929250701,0.0,0.626994739086,0.215667975857,0.304035024994,1.0,-0.151692,-0.199366628571,1.295
0.432957717232,0.365165148734,-0.125630527565,-1.63591235707,0.0611158481481,1.99316710093,0.115978905737,-0.167827417632,-0.702097809724,-0.0127704704101,-1.0144379805,-0.0796633295409,0.344829136259,-0.181083220042,0.573818694054,0.818965341619,0.00293640627823,0.0,0.818933898126,-0.573755339442,-0.0115250971194,0.0,-0.00775402560768,0.00901821244634,-0.999929270964,0.0,0.624717968883,0.212588880963,0.304020802393,1.0,-0.158412,-0.208198628571,1.31
0.430001050469,0.353037541515,-0.125771432575,-1.65388815007,0.059734702489,1.99906901003,0.112630343088,-0.172266630898,-0.710479198735,-0.00751006839525,-1.0844289025,-0.0811275702052,0.344225180685,-0.198609370333,0.573835294128,0.818953731898,0.002930379614,0.0,0.818922324401,-0.573772089112,-0.0115136116978,0.0,-0.00774789440552,0.00900684344962,-0.999929420961,0.0,0.621999314288,0.208956295798,0.304023868143,1.0,-0.166028,-0.218208228571,1.327
0.42683694458,0.340387318889,-0.125930812094,-1.67232355495,0.0583596359133,2.00507023337,0.109165383098,-0.190712791307,-0.758370368258,-0.00613937394376,-1.1078791883,-0.0815588739994,0.357762236408,-0.207411441037,0.573933098575,0.818884583353,0.00309586968278,0.0,0.818855061548,-0.573869065653,-0.0114643170588,0.0,-0.00761147520038,0.00911499506414,-0.999929488669,0.0,0.619171885091,0.205168141057,0.304121891798,1.0,-0.173644,-0.228217828571,1.344
0.423503186308,0.327447765884,-0.126001112751,-1.69131776468,0.0568085390782,2.01113112184,0.105460329094,-0.205507953819,-0.787507883046,-0.00368329359656,-1.11586059895,-0.0931845762265,0.36584867327,-0.223474817045,0.573834720416,0.818953735383,0.0030397118651,0.0,0.818923558899,-0.573770957676,-0.011482147404,0.0,-0.00765939658593,0.00907832128975,-0.999929456375,0.0,0.616167014741,0.201272489275,0.304106051929,1.0,-0.18126,-0.238227428571,1.361
0.419747412467,0.313275865716,-0.126041591767,-1.71204714822,0.0550938854192,2.01760104108,0.101374874216,-0.213537733689,-0.800540909941,-0.00407752484691,-1.14620045318,-0.0861818969835,0.355219166048,-0.243483274942,0.573717263236,0.819036486494,0.00291248305785,0.0,0.819004421641,-0.573653637725,-0.0115761893195,0.0,-0.00781071530678,0.00902696995458,-0.999928750732,0.0,0.612799971772,0.196990539708,0.30405824537,1.0,-0.189324,-0.248825828571,1.379
0.41570092921,0.298611258878,-0.126164839222,-1.73321456352,0.0532927870601,2.0242057694,0.0970054617351,-0.234573375516,-0.836790923017,-0.00632569566879,-1.20333384045,-0.0975129155242,0.365786686715,-0.237957572632,0.573615763508,0.819107555861,0.00291799371808,0.0,0.819075869909,-0.573552489049,-0.0115329328529,0.0,-0.00777323954,0.00900570371466,-0.99992923452,0.0,0.609342081649,0.192471329151,0.304079787883,1.0,-0.197388,-0.259424228571,1.397
0.412095362256,0.285961172684,-0.126299822821,-1.7511313479,0.0518747243936,2.02970638623,0.0932874926043,-0.246089467538,-0.844843956752,-0.0071745989938,-1.21237620152,-0.0965166182935,0.368490681108,-0.250990609304,0.573693585571,0.819052305177,0.00312060259802,0.0,0.819022648408,-0.573628962709,-0.0115091892847,0.0,-0.00763670701333,0.0091587686069,-0.999928896304,0.0,0.606372391563,0.188562054993,0.304196578192,1.0,-0.204108,-0.268256228571,1.412
0.407488640751,0.270530441484,-0.126477272067,-1.77314560225,0.0499794003333,2.03631936983,0.0885157729251,-0.262421042514,-0.888395235811,-0.00927778625408,-1.22786159031,-0.100518295074,0.384598526015,-0.268662602822,0.573682443919,0.819060237235,0.0030867815476,0.0,0.819030044986,-0.573617811546,-0.0115385696438,0.0,-0.0076802985833,0.00914781778622,-0.999928662677,0.0,0.602647268609,0.183655172125,0.304198370925,1.0,-0.212172,-0.278854628571,1.43
0.403074691272,0.256510534027,-0.126660397229,-1.79304358903,0.0482136050604,2.04216924832,0.0841461686955,-0.282344579283,-0.892417032472,-0.0117416496483,-1.23232522133,-0.102370161528,0.35979777402,-0.275454377472,0.573809794899,0.818971208665,0.00303736020002,0.0,0.818940483886,-0.57374543003,-0.0115504230456,0.0,-0.00771694096312,0.00911533860922,-0.999928677169,0.0,0.599019504022,0.178789049743,0.30420305484,1.0,-0.219788,-0.288864228571,1.447
0.398425351827,0.242116482728,-0.126800213085,-1.81332214648,0.0463766209624,2.04804583067,0.0795412033763,-0.29100025389,-0.902457387878,-0.00859830279996,-1.2918819899,-0.102928311949,0.36681972591,-0.300509544724,0.573809978516,0.818971582135,0.00289881228698,0.0,0.818938605893,-0.573745540863,-0.0116773721003,0.0,-0.00790040738801,0.00907471664344,-0.999927613921,0.0,0.595427198716,0.174105827953,0.304139735993,1.0,-0.226956,-0.298285028571,1.463
0.393017971186,0.225451216955,-0.126927694283,-1.8363360477,0.0443159263028,2.05474257559,0.0741104677012,-0.307196014178,-0.93723254485,-0.00589731408514,-1.2955271188,-0.121440879298,0.366541480242,-0.31139668721,0.573721311239,0.81903260776,0.00319239035244,0.0,0.819003452731,-0.573655946462,-0.0115302387157,0.0,-0.00761245433767,0.00922990010018,-0.99992842718,0.0,0.591556091087,0.169089224619,0.304277620285,1.0,-0.234572,-0.308294628571,1.48
0.388193139222,0.211323535026,-0.127059303744,-1.85579807214,0.0424469631588,2.06017341848,0.0693739050353,-0.330907548265,-0.953433983347,-0.00715022915871,-1.29869400554,-0.116588516939,0.351759516726,-0.321424633975,0.57366166535,0.819074351547,0.00320113205253,0.0,0.819045487672,-0.573596497595,-0.0115019116398,0.0,-0.00758490871728,0.00922025606759,-0.999928725479,0.0,0.588003739519,0.16445608324,0.304316146629,1.0,-0.241292,-0.317126628571,1.495
0.382341479169,0.195030118204,-0.127251338091,-1.87811917452,0.0403019264105,2.06627113189,0.0637467981931,-0.351026213833,-0.973733776813,-0.0148193496724,-1.31984895264,-0.124689279971,0.375977993365,-0.343554609259,0.573683035245,0.81905939437,0.00319851013115,0.0,0.8190304057,-0.573617762327,-0.0115153889749,0.0,-0.00759721156538,0.00922603797933,-0.999928578749,0.0,0.583869545407,0.158987154052,0.304335283848,1.0,-0.248908,-0.327136228571,1.512
0.375666344158,0.177420352703,-0.127540781189,-1.90198292452,0.037996601738,2.07269679945,0.0574840282065,-0.385201436813,-0.987121218284,-0.0155594570064,-1.32254673731,-0.134863515945,0.378341925153,-0.353881815081,0.57385863804,0.818936011999,0.0032891791081,0.0,0.818908091031,-0.573792936255,-0.0114870209235,0.0,-0.00751997214927,0.0092856403441,-0.999928610903,0.0,0.579401206853,0.15292122827,0.304379282624,1.0,-0.256972,-0.337734628571,1.53
0.368710875354,0.159441428158,-0.127736522324,-1.92618980894,0.0355327741322,2.0788934421,0.0509333860002,-0.389308918191,-1.02278376239,-0.013342181367,-1.32756436025,-0.141351582529,0.353316215611,-0.375629960089,0.573841028191,0.818948720068,0.00319611708907,0.0,0.818919361327,-0.57377533044,-0.0115627299181,0.0,-0.0076355767365,0.00925270913351,-0.999928040082,0.0,0.574700879708,0.146774670067,0.304372752474,1.0,-0.265036,-0.348333028571,1.548
0.363080896716,0.145294461777,-0.127880151469,-1.94523245801,0.0335432399087,2.08372399399,0.0456466687015,-0.411095131644,-1.01058739522,-0.00968283921916,-1.36919235632,-0.154022072454,0.324887439583,-0.379471113812,0.573779257453,0.818992447145,0.00307930783179,0.0,0.818961460697,-0.573713807953,-0.0116335445834,0.0,-0.00776129315421,0.00919709808508,-0.999927585236,0.0,0.570931742847,0.14191090655,0.304300683009,1.0,-0.271308,-0.356576228571,1.562
0.355838011802,0.127684735244,-0.128099425998,-1.96835805572,0.0311513000697,2.08943880659,0.0388406790403,-0.43151669462,-1.03383189006,-0.0163956015376,-1.38528073106,-0.152350012191,0.338366595519,-0.414680218553,0.57371841919,0.819034559282,0.00321139934053,0.0,0.819004994083,-0.573652198988,-0.0116069447073,0.0,-0.0076644101131,0.00928944891768,-0.999927478849,0.0,0.566294716601,0.135830717427,0.304371356366,1.0,-0.278924,-0.366585828571,1.579
0.347604743241,0.108722573638,-0.128437009001,-1.99306426636,0.0284314389083,2.0953674159,0.031388451976,-0.464103401967,-1.04872269413,-0.0179244239702,-1.39187620948,-0.15588186753,0.324415095482,-0.429501514321,0.573869234356,0.818928690134,0.00326331677457,0.0,0.818900285984,-0.573803426909,-0.0115193656038,0.0,-0.00756118221293,0.00928311928808,-0.999928323541,0.0,0.561265500513,0.129075599816,0.304417057641,1.0,-0.286988,-0.377184228571,1.597
0.339074321424,0.0894729039614,-0.128632205456,-2.01786701875,0.0257172269101,2.10102398104,0.0235093516169,-0.482353485874,-1.08231384831,-0.0137205027153,-1.37283508692,-0.143805870989,0.308275292755,-0.435951163751,0.573739749297,0.819019190465,0.00331852783056,0.0,0.818991024224,-0.573673201227,-0.0115545375003,0.0,-0.00755978301503,0.00934732192044,-0.999927736016,0.0,0.556041306169,0.122337404081,0.304450283732,1.0,-0.295052,-0.387782628571,1.615
0.33154787905,0.0731111232613,-0.128871127136,-2.0386535306,0.023376357468,2.10559762146,0.0165736986145,-0.498541306943,-1.08996953838,-0.0125497777304,-1.38725154252,-0.165831912881,0.301305218829,-0.457526262882,0.573653717467,0.819079087621,0.00340698676224,0.0,0.819051905427,-0.57358670784,-0.0115330701896,0.0,-0.00749243854041,0.00940666869497,-0.99992768636,0.0,0.55158709854,0.116522639712,0.304507487127,1.0,-0.29998,-0.394259428571,1.63
0.321994707971,0.0535220106041,-0.129207451961,-2.0633987682,0.0204828576472,2.11082797741,0.00805747085109,-0.540313673554,-1.09182541278,-0.015881897362,-1.3647537443,-0.164164472905,0.286168973436,-0.47914020701,0.573764472482,0.819001511799,0.00340597857418,0.0,0.818974270817,-0.573697393462,-0.0115408568262,0.0,-0.00749812252003,0.00941132364523,-0.999927599952,0.0,0.546191874325,0.109348524877,0.304513859321,1.0,-0.29998,-0.394259428571,1.648
0.312729741075,0.0351694257572,-0.129411141191,-2.08628794985,0.0178285720971,2.11535921402,-0.000167602995824,-0.549093508763,-1.10318126082,-0.0154917844098,-1.33755475833,-0.155836287532,0.277574613049,-0.485965856261,0.573797666633,0.818978222565,0.00341403461864,0.0,0.818950162939,-0.573729401629,-0.0116598125679,0.0,-0.00759054667498,0.00948648009621,-0.999926192425,0.0,0.541051235899,0.102660326654,0.304516923949,1.0,-0.29998,-0.394259428571,1.665
0.30375372597,0.0181227866633,-0.129590302797,-2.10722687579,0.0152452287944,2.11933360797,-0.00811176366013,-0.565317525264,-1.06763638818,-0.00820858251027,-1.28542460534,-0.159212335046,0.238764232488,-0.500278719001,0.57377330624,0.818995206048,0.0034340090514,0.0,0.818967397632,-0.573704970303,-0.0116514191223,0.0,-0.00757249413794,0.0094977975905,-0.999926221865,0.0,0.536265569866,0.0963664658636,0.304554510874,1.0,-0.29998,-0.394259428571,1.681
0.293279952284,-0.000985484804588,-0.129889668037,-2.1303745012,0.0123531577141,2.12347833001,-0.0172818398515,-0.585794882311,-1.06893741135,-0.0181393915411,-1.27592621778,-0.147577221413,0.211129994674,-0.518012293965,0.573892512551,0.818911446127,0.00348917492718,0.0,0.81888419427,-0.573823782781,-0.0116485875088,0.0,-0.00753713519988,0.00954245107377,-0.999926063877,0.0,0.530868659829,0.0891862690253,0.304611740339,1.0,-0.29998,-0.394259428571,1.699
0.283851758443,-0.0177216450822,-0.130030725206,-2.15045154321,0.0097841180613,2.12704502086,-0.025666949133,-0.597840046446,-1.0209785683,-0.0143151686231,-1.26065443654,-0.165837671663,0.197585347015,-0.534539790385,0.573754976148,0.81900721651,0.00362678248344,0.0,0.818982092091,-0.573686280868,-0.0115382355422,0.0,-0.00736940470427,0.00959057461242,-0.999926853701,0.0,0.526099495371,0.0829553704388,0.304653694772,1.0,-0.29998,-0.394259428571,1.715
0.274080297412,-0.0343628046102,-0.130261163969,-2.17007836466,0.00716565984205,2.13019237616,-0.0341639817634,-0.620675907151,-1.02470237895,-0.0143236504603,-1.21833927728,-0.164884975514,0.197900936393,-0.532822207193,0.573814582737,0.818965146075,0.00369608619815,0.0,0.818941367242,-0.573746265603,-0.0114458126667,0.0,-0.00725324563646,0.00959483683434,-0.999927662151,0.0,0.521330583486,0.0766195964231,0.304727708277,1.0,-0.29998,-0.394259428571,1.731
0.262782155839,-0.0529527834615,-0.130512344111,-2.19177349727,0.00438744720055,2.13345540918,-0.0440608660936,-0.626773596032,-1.03563406214,-0.00889772924782,-1.18451502157,-0.152037522344,0.187371013628,-0.557365742153,0.573873541114,0.818923043507,0.00386710782829,0.0,0.818900880324,-0.573803932746,-0.0114517191478,0.0,-0.0071592528555,0.00973880412626,-0.999926947728,0.0,0.515936711359,0.0695145770024,0.304791234043,1.0,-0.29998,-0.394259428571,1.749
0.251901488361,-0.0700982728936,-0.130711044738,-2.21184554612,0.00162703093311,2.13617460594,-0.0536439798346,-0.650372318609,-1.00253948361,-0.0124040834797,-1.14768434427,-0.163357000085,0.158743732445,-0.568585245182,0.573771989591,0.818995047537,0.00368279410257,0.0,0.818969936497,-0.573702191641,-0.0116097080776,0.0,-0.00739560875931,0.00967760927856,-0.999925821674,0.0,0.5108007992,0.0628477781018,0.30470011231,1.0,-0.29998,-0.394259428571,1.766
0.241259844423,-0.0862115681831,-0.13101857322,-2.23030946604,-0.000920242895723,2.13853610469,-0.0629149780071,-0.663102390189,-0.99625100304,-0.0180387156095,-1.16454785015,-0.153037181794,0.139021511213,-0.585288159314,0.573881860896,0.818917990262,0.00369889984598,0.0,0.81889276947,-0.573811579867,-0.0116468803018,0.0,-0.00741551101673,0.0097131226878,-0.999925329934,0.0,0.506005375691,0.056456128979,0.304694514759,1.0,-0.29998,-0.394259428571,1.782
0.229914428775,-0.103248958908,-0.131166233065,-2.24946749822,-0.00362725700294,2.140720861,-0.0729638545082,-0.674133771018,-0.998748859246,-0.0147004507777,-1.11935377545,-0.16156697203,0.121767904976,-0.602377489695,0.573683366823,0.819056840825,0.00374606856243,0.0,0.8190321697,-0.573612884792,-0.0116322954434,0.0,-0.00737886002862,0.00974159263225,-0.999925324111,0.0,0.500889154202,0.0498828218299,0.304738896875,1.0,-0.29998,-0.394259428571,1.799
0.217999795498,-0.11996926455,-0.131503686848,-2.26819118546,-0.00635486658914,2.14264155663,-0.0832460807935,-0.714241805678,-0.98688839647,-0.0201874528499,-1.07048389683,-0.155018856745,0.112073547407,-0.611481531925,0.573869449259,0.818926765592,0.00368167152175,0.0,0.81890092111,-0.573798702558,-0.0117079993887,0.0,-0.00747559965697,0.00973397477067,-0.999924679736,0.0,0.4957934267,0.0430791079787,0.30470751564,1.0,-0.29998,-0.394259428571,1.816
0.206659586387,-0.135596961272,-0.13168465078,-2.28555994398,-0.00882078952808,2.14415609385,-0.0932200438156,-0.715761580347,-0.966089843952,-0.0089660439455,-1.08407750264,-0.156685152265,0.0852606309948,-0.632589283901,0.573806307181,0.818971443559,0.00358376556098,0.0,0.818942941762,-0.573734126875,-0.0119313326236,0.0,-0.00771544064342,0.00978136174512,-0.999922395458,0.0,0.490924425403,0.0368297048062,0.304634254275,1.0,-0.29998,-0.394259428571,1.832
0.193494102544,-0.153049395177,-0.132058306274,-2.30443966691,-0.0116276433189,2.14574638326,-0.104800041275,-0.746332816066,-0.958467412503,-0.0275456019459,-1.04225731251,-0.151710983417,0.0723420957332,-0.643071154495,0.573867182653,0.818928103957,0.00373686022054,0.0,0.818901732631,-0.573794630138,-0.0118499628965,0.0,-0.00756022287638,0.00986061597856,-0.999922802662,0.0,0.485563890841,0.029682208846,0.304684194392,1.0,-0.29998,-0.394259428571,1.85
0.180809408007,-0.169382446708,-0.132288126639,-2.32182946945,-0.0142141853736,2.14684952525,-0.115934835888,-0.748299780316,-0.970867222479,-0.0131368113473,-1.01134595526,-0.149751647857,0.0651947473973,-0.669455782619,0.573865842191,0.818928579741,0.00383710192388,0.0,0.818903100064,-0.573792401182,-0.0118633870505,0.0,-0.00751371144395,0.00995039883773,-0.99992226383,0.0,0.480467038231,0.0230326595262,0.304736787789,1.0,-0.29998,-0.394259428571,1.867
0.168571302448,-0.184530457799,-0.132571059904,-2.33797212299,-0.0167161777647,2.14764015919,-0.126760392068,-0.776701202618,-0.952720275313,-0.0253798202489,-1.00608562027,-0.158800744269,0.0425246009285,-0.672595058802,0.573822691503,0.818959299066,0.00373257168157,0.0,0.818931549106,-0.573748443913,-0.0120244703775,0.0,-0.00770614300505,0.00995682636503,-0.999920735343,0.0,0.475608025967,0.016728858036,0.304681616887,1.0,-0.29998,-0.394259428571,1.883
0.156034706684,-0.199543012408,-0.132816416476,-2.3534781601,-0.0191867398225,2.14837406816,-0.137865048372,-0.786331266934,-0.930608429593,-0.0144695405362,-0.968093996829,-0.144451319172,0.0360316350431,-0.709454147212,0.573761744979,0.819001182157,0.00390775188468,0.0,0.818976639017,-0.57368810048,-0.0118311036387,0.0,-0.00744800050755,0.00998878448846,-0.999922372723,0.0,0.470874323795,0.0104422005239,0.304773011039,1.0,-0.29998,-0.394259428571,1.899
0.143254345223,-0.21435267716,-0.133120542477,-2.36875027569,-0.0215365744197,2.14873862106,-0.149230091989,-0.805803120057,-0.921220663131,-0.0278207914258,-0.930517818587,-0.145177908132,0.0264861968281,-0.702919567267,0.573765465949,0.818998351178,0.00395445993829,0.0,0.818973331593,-0.57369020252,-0.0119574484423,0.0,-0.00752464050836,0.0100995626553,-0.999920686164,0.0,0.466054766675,0.00416321078424,0.304771482457,1.0,-0.29998,-0.394259428571,1.915
0.1293362933,-0.229883328565,-0.133396589703,-2.38450906461,-0.0241863998274,2.14901593639,-0.161556260917,-0.816339172227,-0.924555184587,-0.0122475693831,-0.925473613158,-0.149351599529,0.0113174514538,-0.737515233519,0.573715760819,0.819033089342,0.00397130368069,0.0,0.819008921968,-0.573641298276,-0.0118656457991,0.0,-0.0074403959873,0.0100602348442,-0.999921713027,0.0,0.460977027152,-0.00251685625435,0.304801449636,1.0,-0.29998,-0.394259428571,1.932
0.113323568455,-0.247083998508,-0.13382054314,-2.40161130345,-0.0269974513705,2.14913061411,-0.175798636416,-0.85290288959,-0.914300580228,-0.0298841737869,-0.901107373067,-0.148796913988,0.00186273286749,-0.759140538373,0.573790846741,0.81897939015,0.00419161152043,0.0,0.818958617029,-0.573716375994,-0.0117068531834,0.0,-0.00718301360492,0.0101502369982,-0.999922685513,0.0,0.455318204162,-0.0100455248979,0.304884536936,1.0,-0.29998,-0.394259428571,1.951
0.0987081055336,-0.262100860272,-0.134100397485,-2.41661883868,-0.0294816495707,2.14900665278,-0.188896717769,-0.865399743044,-0.880430621349,-0.0227527911572,-0.864550835797,-0.148893918946,-0.0152623821529,-0.774795701532,0.573717633268,0.819030700914,0.00418749783144,0.0,0.819009342424,-0.573642437414,-0.0117812529704,0.0,-0.00724722094676,0.0101889085845,-0.99992182891,0.0,0.450195139341,-0.0167026024904,0.304826586156,1.0,-0.29998,-0.394259428571,1.968
0.0863364779066,-0.274355092148,-0.134472404769,-2.428410974,-0.0315049897576,2.14880900015,-0.199911720352,-0.890615028657,-0.88469752655,-0.0323759259153,-0.863295881971,-0.140759329879,-0.0220529799578,-0.7958562228,0.57386196841,0.818928380483,0.00441539969461,0.0,0.818910902162,-0.573787368636,-0.011564463454,0.0,-0.00693710031597,0.0102524220995,-0.999923379305,0.0,0.446071532034,-0.0222873900276,0.304920231295,1.0,-0.29998,-0.394259428571,1.982
0.07115370796,-0.288914198704,-0.134747432817,-2.44260648948,-0.0338691431567,2.1482594942,-0.213620918301,-0.906387145138,-0.872229430792,-0.0204923018313,-0.829834431695,-0.124652175594,-0.0405739191134,-0.810452264241,0.573779181085,0.818986388818,0.00441510881318,0.0,0.818967888098,-0.573703096684,-0.0117090572012,0.0,-0.00705673273932,0.0103344445627,-0.999921697824,0.0,0.440944710226,-0.0289090453701,0.304860574492,1.0,-0.29998,-0.394259428571,1.999
0.0555038101823,-0.303292309289,-0.135142135158,-2.45611598307,-0.0363251973588,2.14764242509,-0.227730234833,-0.92082166357,-0.807901663489,-0.0189974930181,-0.813016752556,-0.142335405256,-0.0465742912857,-0.832618818586,0.573800254693,0.818970651407,0.00459203104904,0.0,0.818955820206,-0.573725705573,-0.011442299422,0.0,-0.00673647085554,0.0103264636932,-0.999923989165,0.0,0.435925185955,-0.0356615810985,0.304956366052,1.0,-0.29998,-0.394259428571,2.016
0.041546161806,-0.315721503687,-0.135391601743,-2.46794624439,-0.0384190970486,2.14679867665,-0.240404679931,-0.936513331255,-0.815389124927,-0.0190280670437,-0.775989923522,-0.133447016773,-0.0608811306479,-0.855430845702,0.573697285857,0.819043252234,0.00450800074697,0.0,0.819026483439,-0.573621707495,-0.0115975436121,0.0,-0.00691313585143,0.0103458504817,-0.999922582969,0.0,0.431374633295,-0.0415001325284,0.304891975202,1.0,-0.29998,-0.394259428571,2.031
0.0224103647793,-0.331908681355,-0.135823810291,-2.48285630839,-0.0410650151114,2.1456618289,-0.257821441212,-0.963875376142,-0.77533976606,-0.0189001717575,-0.733389581467,-0.124607074892,-0.0610646196096,-0.895706516392,0.573713346076,0.81903078733,0.00472364707357,0.0,0.81901726239,-0.57363783529,-0.0114500974776,0.0,-0.0066684480584,0.0104380231957,-0.999923286794,0.0,0.425453655575,-0.0493782992019,0.304953438188,1.0,-0.29998,-0.394259428571,2.051
0.00674616387532,-0.344621994321,-0.136247711436,-2.49455076284,-0.0432608470122,2.14446951999,-0.272062013358,-0.992249969571,-0.794799956545,-0.0221673564247,-0.72084044323,-0.128956419243,-0.0823218192967,-0.894995458103,0.5738042492,0.818967314256,0.00468707601376,0.0,0.818952699921,-0.573727869945,-0.0115565324692,0.0,-0.00677544666915,0.0104698825708,-0.999922234417,0.0,0.420308791887,-0.0561212948141,0.30491553382,1.0,-0.29998,-0.394259428571,2.068
-0.0111837186043,-0.358591077464,-0.136591595231,-2.50696443748,-0.0456311558642,2.14309652767,-0.288549100034,-1.01252724616,-0.777706370926,-0.0243483310161,-0.691441883262,-0.124028360002,-0.0781331708445,-0.922387245669,0.573672855309,0.819058446043,0.00484395995723,0.0,0.819047182618,-0.573598157593,-0.0112965991385,0.0,-0.00647421307774,0.0104481851987,-0.999924457142,0.0,0.415290239844,-0.0627852818275,0.305023068275,1.0,-0.29998,-0.394259428571,2.085
-0.025429445992,-0.369168791984,-0.136963385941,-2.51645251613,-0.0473995434626,2.14186825344,-0.301652278095,-1.0044782576,-0.753240851928,-0.0126664007775,-0.661998762698,-0.128936349642,-0.0801121269789,-0.941373632002,0.573714483953,0.819029050566,0.0048838644599,0.0,0.819017645564,-0.573638615908,-0.0113833867682,0.0,-0.00652187677426,0.0105309877907,-0.999923278767,0.0,0.411066255862,-0.0683179243688,0.304999566443,1.0,-0.29998,-0.394259428571,2.099
-0.0440606416788,-0.382406392883,-0.137394695412,-2.52806316491,-0.0496571571208,2.14016283823,-0.318788635716,-1.05836572743,-0.742712677253,-0.0347700207938,-0.629440810275,-0.120257715073,-0.0875904863708,-0.960437382868,0.573767334384,0.818991690948,0.00493994469774,0.0,0.818980932861,-0.573691182486,-0.0113756603714,0.0,-0.0064826934201,0.0105729064062,-0.999923091211,0.0,0.405681411224,-0.0754170914576,0.305025277729,1.0,-0.29998,-0.394259428571,2.117
-0.0619254774841,-0.394497821944,-0.137712303181,-2.53863700635,-0.0517701130695,2.13856163391,-0.335440660537,-1.05382307595,-0.697804680442,-0.0160880162993,-0.621304121194,-0.124724678898,-0.0945755736435,-0.980632151072,0.573596770157,0.819111195337,0.00493374506937,0.0,0.81910059918,-0.573521057492,-0.0113380746563,0.0,-0.00645766152491,0.0105449195675,-0.999923548717,0.0,0.400601862229,-0.08205929565,0.305012386638,1.0,-0.29998,-0.394259428571,2.134
-0.0791489057406,-0.40556677434,-0.138087571296,-2.54823841157,-0.0535543359357,2.1367808443,-0.351393034655,-1.07377093227,-0.682167892412,-0.0168349561034,-0.582378561762,-0.104387289479,-0.109301055495,-1.00381397396,0.573693293429,0.819043344272,0.00497515619061,0.0,0.819031586942,-0.573614692205,-0.0115841002158,0.0,-0.00663418522277,0.0107207370817,-0.999920523533,0.0,0.395745953646,-0.0883468940835,0.304966712521,1.0,-0.29998,-0.394259428571,2.15
-0.0999494822204,-0.418237694023,-0.138543944067,-2.55881141719,-0.0557468376012,2.13486599332,-0.370822947883,-1.10682155511,-0.654967936168,-0.0223501636753,-0.545211514802,-0.113002086869,-0.115465171858,-1.02459775371,0.573691329082,0.819043655428,0.00514745950382,0.0,0.819035503758,-0.57361452493,-0.0113122620991,0.0,-0.00631270050195,0.0107059048882,-0.999922763724,0.0,0.390133222253,-0.0958622292055,0.305066146651,1.0,-0.29998,-0.394259428571,2.169
-0.116614965556,-0.427854277926,-0.138821597454,-2.56701266235,-0.0575031732367,2.13310283887,-0.386504731166,-1.11916489098,-0.633723936045,-0.0258697181098,-0.540309429958,-0.117771332432,-0.116580281412,-1.06008536352,0.573533887982,0.819154816417,0.00500129768868,0.0,0.819143857014,-0.573455982378,-0.0115032470133,0.0,-0.00655504232101,0.0106944901648,-0.999921326555,0.0,0.38557758438,-0.10172562757,0.305002681016,1.0,-0.29998,-0.394259428571,2.184
-0.135776641292,-0.438311493582,-0.139232848884,-2.57578000292,-0.059277249059,2.13117278789,-0.40453622712,-1.13480495915,-0.612656452814,-0.0224465844162,-0.504267015917,-0.0937350290094,-0.0988910877149,-1.07216885475,0.573550731053,0.819142702286,0.00505362263958,0.0,0.819131364139,-0.573470942247,-0.0116461832469,0.0,-0.00664190815658,0.0108194660301,-0.999919408858,0.0,0.380460690061,-0.108387479283,0.304965652336,1.0,-0.29998,-0.394259428571,2.201
-0.156531877216,-0.448983092096,-0.139653452085,-2.58427026281,-0.0611501557744,2.12924133572,-0.424090328391,-1.15300288411,-0.585076580043,-0.0141489294957,-0.472716816063,-0.119702164251,-0.108187758442,-1.07785570372,0.573590394665,0.819113767593,0.00523849114142,0.0,0.81910666382,-0.573513155905,-0.0112995659178,0.0,-0.00625140678337,0.010772412879,-0.999922434509,0.0,0.37514693941,-0.11553497952,0.30510287145,1.0,-0.29998,-0.394259428571,2.219
-0.174082523279,-0.457345213106,-0.140027418363,-2.59119733893,-0.0626458149089,2.12743645176,-0.440681972473,-1.17487095654,-0.544339712429,-0.0313243890361,-0.445899477845,-0.0957241105995,-0.119438632325,-1.12434583703,0.57363682561,0.819081490591,0.00520105529039,0.0,0.819072376865,-0.573557087263,-0.0115523161285,0.0,-0.00647931093811,0.0108870842814,-0.999919741742,0.0,0.370586161961,-0.121454897385,0.305035174482,1.0,-0.29998,-0.394259428571,2.234
-0.196464464399,-0.467385116387,-0.140394366215,-2.59936690488,-0.064460231806,2.12533671336,-0.462084818435,-1.19592195629,-0.51495803313,-0.0281295993873,-0.418249708717,-0.0951685313768,-0.112869937254,-1.11947657283,0.573481909762,0.819189965076,0.00520069176628,0.0,0.819180344998,-0.573401359318,-0.0116271407626,0.0,-0.0065428792778,0.0109284697719,-0.999918876349,0.0,0.364897336749,-0.128873694521,0.30499983744,1.0,-0.299084,-0.393081828572,2.253
-0.214412913835,-0.474801363411,-0.140675391994,-2.60515585123,-0.0657050121013,2.12376188983,-0.479089508353,-1.18865461197,-0.480058646547,-0.0207587104928,-0.375007650424,-0.0787396818127,-0.102130791672,-1.14143825885,0.57360332778,0.81910395062,0.00535605628943,0.0,0.819096922323,-0.573523268268,-0.0114908440761,0.0,-0.00634049494473,0.0109785269942,-0.999919631805,0.0,0.360491771838,-0.134762831091,0.305063015078,1.0,-0.292364,-0.384249828572,2.268
-0.234651617379,-0.482507909252,-0.140844978874,-2.61125514916,-0.0670236904307,2.12200776595,-0.498317094785,-1.17229014202,-0.438849114655,-0.0038037099975,-0.353336881783,-0.0862197742681,-0.106400537875,-1.13241532592,0.5736458513,0.819073862425,0.00540296959603,0.0,0.819067271974,-0.57356535109,-0.0115038650689,0.0,-0.00632368079194,0.0110247522989,-0.999919229687,0.0,0.355559323098,-0.141268030935,0.305065724508,1.0,-0.284748,-0.374240228572,2.285
-0.254729859881,-0.489495709148,-0.140965776071,-2.61689647855,-0.0681340939461,2.12024248809,-0.517390063471,-1.18317176902,-0.393872450794,-0.0108902730716,-0.314271928987,-0.0659217256323,-0.110080337262,-1.10602767167,0.573760779521,0.818993066431,0.00544719396873,0.0,0.818985092248,-0.573676727851,-0.0117973513393,0.0,-0.00653714639753,0.0112302443727,-0.9999155701,0.0,0.350675594567,-0.14759716842,0.30498807797,1.0,-0.277132,-0.364230628572,2.302
-0.274542876654,-0.495889756212,-0.140893854441,-2.62187372932,-0.0691222507439,2.11877626087,-0.536259122673,-1.17354591326,-0.365058671499,0.00361664739948,-0.287965813808,-0.0514356881001,-0.0822539892768,-1.10626981707,0.573772857335,0.818984047291,0.00553040410939,0.0,0.818977566617,-0.573689232899,-0.0117113763478,0.0,-0.00641882069169,0.0112491633515,-0.999916124015,0.0,0.346003526965,-0.153749827452,0.305005381334,1.0,-0.269516,-0.354221028572,2.319
-0.293956771154,-0.501549819497,-0.14082493624,-2.62623961513,-0.0699814274184,2.11731833193,-0.554800078585,-1.13442404043,-0.319723557746,0.00127190692569,-0.246938459864,-0.0415916649893,-0.0763813007515,-1.08130844784,0.57382313579,0.818948409774,0.00559087313763,0.0,0.81894245733,-0.573738843295,-0.0117361909603,0.0,-0.00640375712892,0.0113133191015,-0.999915496782,0.0,0.341727285855,-0.159381200535,0.305015464271,1.0,-0.262348,-0.344800228572,2.335
-0.312020499146,-0.50632631002,-0.140702763975,-2.62986124326,-0.0707219885751,2.11613940526,-0.572009458366,-1.1244193363,-0.294594300359,0.0113809266547,-0.219688498197,-0.0494904905807,-0.0694827902579,-1.07745242724,0.573901064414,0.818893326862,0.00565989281238,0.0,0.818888791347,-0.573817453855,-0.0116371799918,0.0,-0.00628198470379,0.0113136305908,-0.99991626571,0.0,0.337317402996,-0.165237516021,0.305050111029,1.0,-0.254732,-0.334790628572,2.352
-0.331887725608,-0.511100387481,-0.140542525068,-2.63345297611,-0.071308245701,2.11492305708,-0.591047429094,-1.10526882639,-0.249085516958,0.00663135643821,-0.191089242345,-0.0324083637088,-0.0662912977389,-1.05095131704,0.574004163691,0.818819790535,0.00584102691663,0.0,0.818817854315,-0.573920403621,-0.0115515654517,0.0,-0.00610648344672,0.0114136035406,-0.999916216747,0.0,0.332790707296,-0.17122899604,0.305089048071,1.0,-0.246668,-0.324192228572,2.37
-0.350049709391,-0.514989670856,-0.140204257798,-2.63650279636,-0.0718301822573,2.11377724562,-0.60864345627,-1.06236910317,-0.214689263359,0.0193217820409,-0.17606804794,-0.0277587051816,-0.0622119752457,-1.02438492771,0.573831613668,0.818940725132,0.00584078552314,0.0,0.818937645761,-0.573745773868,-0.0117331251802,0.0,-0.00625772851382,0.0115162990257,-0.999914104156,0.0,0.328392916318,-0.176904443458,0.305042232727,1.0,-0.238604,-0.313593828572,2.388
-0.367992963562,-0.518254430123,-0.139953784933,-2.63914366621,-0.0722485528108,2.11284822702,-0.625867518705,-1.03776424475,-0.177591920976,0.0121288053072,-0.143974499981,-0.0197344152634,-0.0453212378049,-0.998887253786,0.573923557099,0.818875932149,0.00589111663004,0.0,0.818872401182,-0.573835481877,-0.0118986227167,0.0,-0.00636308652734,0.0116531970548,-0.999911853179,0.0,0.324348230043,-0.182189664807,0.304976086332,1.0,-0.230988,-0.303584228572,2.405
-0.385430443418,-0.521065114492,-0.13969054384,-2.64132203912,-0.0725915080199,2.11205123038,-0.642639939246,-1.02461793626,-0.15928358869,0.0159342005291,-0.12056906538,-0.0193115761906,-0.0388213055135,-0.966581184735,0.573984851214,0.818832536524,0.00595101735506,0.0,0.818829573923,-0.573896141037,-0.0119203638143,0.0,-0.00634563801622,0.0117152028096,-0.999911239511,0.0,0.320683914212,-0.187019905003,0.304964188524,1.0,-0.22382,-0.294163428572,2.421
-0.401285096643,-0.523319267758,-0.139318838497,-2.64304191918,-0.0728427132891,2.11136575496,-0.658109543665,-0.987851590492,-0.132879012007,0.0179150765169,-0.0970864378668,-0.0145440079428,-0.0384700173276,-0.954470411704,0.573827760405,0.81894247869,0.00597200858217,0.0,0.818939592796,-0.573738635842,-0.011944370811,0.0,-0.00635550294434,0.0117449519551,-0.999910827867,0.0,0.317168892216,-0.191628635103,0.304960880914,1.0,-0.216652,-0.284742628572,2.437
-0.417871298753,-0.525342910539,-0.139022484182,-2.64453439194,-0.0730779426572,2.11075364195,-0.674061418519,-0.949902196979,-0.112144012322,0.0259065914002,-0.0754870262914,-0.0167631299853,-0.0332622568249,-0.938241098613,0.573948403369,0.818857506256,0.00603005975401,0.0,0.818855575783,-0.573859394602,-0.0119032826129,0.0,-0.00628680691731,0.0117698447084,-0.999910969444,0.0,0.313504281352,-0.196471692118,0.304979346032,1.0,-0.209036,-0.274733028572,2.454
-0.432946938768,-0.526882358332,-0.138699932685,-2.64567794843,-0.0732215326636,2.11030532645,-0.688652545889,-0.938096147476,-0.0846283620893,0.0176018958626,-0.0669705182758,-0.0134992349657,-0.0207607401959,-0.908790344553,0.573988012752,0.818829330527,0.00608568698193,0.0,0.818828435934,-0.573899366314,-0.0118430043504,0.0,-0.00620494688562,0.0117811029078,-0.999911348195,0.0,0.310194074782,-0.200844525232,0.30499293129,1.0,-0.201868,-0.265312228572,2.47
-0.447537469859,-0.52810981803,-0.138350216843,-2.64658952462,-0.0733147419943,2.10992205616,-0.702801855414,-0.894446529034,-0.0618494927563,0.0236960262476,-0.0473225373695,-0.00120757325087,-0.0208317562807,-0.866883951656,0.574008472668,0.818814668371,0.00612854533868,0.0,0.818814549622,-0.573920074026,-0.0117995279019,0.0,-0.00614444963119,0.0117913981015,-0.999911600428,0.0,0.306997779767,-0.205053132916,0.305003598913,1.0,-0.1947,-0.255891428572,2.486
-0.463488734025,-0.529116003401,-0.137966248883,-2.64734033616,-0.0733440943417,2.10956077318,-0.718198558756,-0.880897338795,-0.0470479822891,0.0157513253175,-0.0334697899229,-0.00176423960052,-0.0202198825124,-0.836456879422,0.574134533446,0.818725775782,0.00619584341134,0.0,0.818726540214,-0.574045866539,-0.0117873813674,0.0,-0.00609405198387,0.0118404721076,-0.999911328944,0.0,0.303511653309,-0.20964298365,0.305008945417,1.0,-0.186636,-0.245293028572,2.504
-0.477004976386,-0.529707386448,-0.137496751451,-2.64778339056,-0.0733461363117,2.10931811066,-0.731408849453,-0.830998597806,-0.0310904945925,0.0291826259637,-0.0232778723108,-0.000441708118614,-0.0129484957906,-0.818345189849,0.574026808495,0.818801474795,0.00617372689662,0.0,0.81880206714,-0.573938472525,-0.0117707903399,0.0,-0.00609471844721,0.0118120369755,-0.999911661193,0.0,0.300587470754,-0.213494003741,0.305014928234,1.0,-0.179468,-0.235872228572,2.52
-0.490989386145,-0.530054375683,-0.137112338377,-2.64808017081,-0.0733531531992,2.10910618517,-0.744893245292,-0.819614989751,-0.0170573521526,0.0228444474738,-0.0128131245721,-0.00153745316388,-0.00717465822326,-0.79035409741,0.57414492766,0.818718714776,0.00616563210615,0.0,0.818718885391,-0.574055986541,-0.0118261541329,0.0,-0.00614299396278,0.0118380737744,-0.999911057862,0.0,0.297534748902,-0.217497877272,0.304998519192,1.0,-0.171852,-0.225862628572,2.537
-0.503428319853,-0.530212795682,-0.136594667165,-2.64821300055,-0.0733269810652,2.10898090891,-0.757188208972,-0.76254475696,-0.00877183716782,0.0309188673181,-0.00675690487772,0.00310220966643,-0.00517388349367,-0.759965760165,0.573889209494,0.818898600238,0.00608314527323,0.0,0.818897734589,-0.573800711024,-0.0118317883336,0.0,-0.00619864116473,0.0117718361814,-0.999911496444,0.0,0.294685599467,-0.221224324796,0.30499447874,1.0,-0.164236,-0.215853028572,2.554
-0.516386405759,-0.530222868971,-0.136166089598,-2.64826094047,-0.0732922908204,2.1088958789,-0.769656599502,-0.755537046012,-0.000239096883478,0.0252977794377,0.00165512162395,0.000477384833499,-0.00237800784306,-0.722774535728,0.574012395181,0.818812510153,0.00604899134392,0.0,0.818811154355,-0.573923916303,-0.0118481517785,0.0,-0.00622987404106,0.0117541938705,-0.999911509883,0.0,0.292018088858,-0.224685945328,0.304984453467,1.0,-0.157068,-0.206432228572,2.57
-0.528513729454,-0.530068848744,-0.135601575006,-2.64820155641,-0.0731834013723,2.10889162568,-0.781582118207,-0.698938335198,0.0107182368506,0.0291717442985,0.00363044496034,0.00508776859146,0.000693162386581,-0.687119341976,0.573829843156,0.818940936102,0.00598340880151,0.0,0.818938775017,-0.573741743772,-0.0118507859636,0.0,-0.00627228311201,0.011700605398,-0.999911873266,0.0,0.289397990721,-0.228075626215,0.304969569012,1.0,-0.149452,-0.196422628572,2.587
-0.541633469784,-0.529772380121,-0.135139143649,-2.6480129559,-0.0730147663834,2.10888248456,-0.794250179574,-0.679460221197,0.014363263001,0.0241444448628,0.0129934268385,0.00473778585406,-0.000180109264248,-0.646643015208,0.573956566035,0.81885190172,0.00601417118862,0.0,0.818849969815,-0.573868002334,-0.0118739097409,0.0,-0.00627175391719,0.0117400383887,-0.999911414377,0.0,0.28652203212,-0.2317641488,0.304958379476,1.0,-0.14094,-0.185235428572,2.606
-0.552543630862,-0.529307184445,-0.134542456347,-2.64770635795,-0.0727572553052,2.10891653773,-0.804992682152,-0.630899620241,0.0307933545101,0.0385837136294,0.0178089948252,0.0209944183487,-0.000800818070212,-0.623981440055,0.573800573117,0.818961218268,0.00601432995505,0.0,0.818959029496,-0.573711556959,-0.0119123599797,0.0,-0.00630539163718,0.011761035243,-0.999910956079,0.0,0.28418463446,-0.234778940013,0.304946359435,1.0,-0.133324,-0.175225828572,2.623
-0.563043086369,-0.528734084042,-0.134070749467,-2.64732877372,-0.072531120429,2.10898770759,-0.815168633052,-0.610379034363,0.0311734641613,0.0249145685127,0.0199414994454,0.0177732609165,0.00391366879858,-0.585881696809,0.573850980756,0.818925747367,0.00603482279688,0.0,0.818923508172,-0.573761280351,-0.0119594245255,0.0,-0.00633145491311,0.0118052130362,-0.999910270786,0.0,0.281907228517,-0.2377067163,0.304927014801,1.0,-0.125708,-0.165216228572,2.64
-0.571840107148,-0.52812724664,-0.133642918844,-2.64689433714,-0.0723156506745,2.10911120745,-0.823662309477,-0.57095785645,0.0490899840371,0.0293819954179,0.0304393977395,0.0145509151144,0.00973684230594,-0.561726791362,0.573914139555,0.818881429754,0.00604246012372,0.0,0.818879387833,-0.573824577785,-0.0119435762287,0.0,-0.00631318219754,0.0118028605632,-0.999910414094,0.0,0.280021262018,-0.240167150259,0.30492438187,1.0,-0.118988,-0.156384228572,2.655
-0.580513412055,-0.527367056407,-0.133123630547,-2.64641943944,-0.0720172493211,2.10921697222,-0.83226821896,-0.538504589449,0.0445877730908,0.0282306699282,0.0261309657946,0.0206360962319,0.0106373850113,-0.519295023925,0.573757400908,0.818991059318,0.00606931317859,0.0,0.818988616138,-0.573666359785,-0.0120540942938,0.0,-0.00639055769531,0.011887053076,-0.999908925223,0.0,0.278172548512,-0.242553570663,0.304884774463,1.0,-0.11182,-0.146963428572,2.671
-0.589420253545,-0.526581587732,-0.132631755864,-2.64586395612,-0.0717390744062,2.10933174219,-0.84075473278,-0.509785998568,0.0426278792241,0.026720541152,0.0354515947998,0.0166665547017,0.00807973405047,-0.482035994129,0.573904339331,0.818887978119,0.00608567908004,0.0,0.818885431516,-0.573812607784,-0.012103226818,0.0,-0.00641927114549,0.0119297980158,-0.999908232228,0.0,0.276259492119,-0.245019148937,0.304872370827,1.0,-0.104204,-0.136953828572,2.688
-0.59765353637,-0.525712219886,-0.132123337416,-2.64523236391,-0.0714349203674,2.10949014582,-0.848792479482,-0.460653726738,0.0537097036785,0.0308849862478,0.0369772549827,0.0197250957056,0.00921770343471,-0.45379128516,0.573870453811,0.818911613646,0.00610067038265,0.0,0.818909140525,-0.573778436947,-0.0121190660011,0.0,-0.00642413446289,0.0119508987374,-0.999907949021,0.0,0.274520455334,-0.247301538102,0.304867752382,1.0,-0.0965880000001,-0.126944228572,2.705
-0.604703658723,-0.524879993878,-0.131577081685,-2.64465466357,-0.0711169469733,2.1096301868,-0.855768618397,-0.434801766833,0.0492311783847,0.0317759008213,0.0336460908549,0.0172492550299,0.0131774137735,-0.42686246354,0.573712987306,0.81902191319,0.00610416350469,0.0,0.819019099043,-0.57362027077,-0.0121756833687,0.0,-0.00647080414771,0.0119850049205,-0.999907239873,0.0,0.27305190922,-0.249223510131,0.304851343878,1.0,-0.0894200000001,-0.117523428572,2.721
-0.611866732258,-0.524075403669,-0.13104565711,-2.64404231082,-0.0708169119023,2.10978204231,-0.862578715459,-0.410009937136,0.0487297317179,0.0374923812728,0.0350378381673,0.0178305548932,0.00975352228906,-0.385931792164,0.573772135426,0.818980571975,0.00609148888777,0.0,0.818977779031,-0.573679808616,-0.0121499605286,0.0,-0.00645614174459,0.0119603331116,-0.999907630067,0.0,0.271467003002,-0.251295121544,0.30486455189,1.0,-0.0813560000001,-0.106925028572,2.739
-0.618426343895,-0.523239232176,-0.13054894467,-2.64339470998,-0.0704726813163,2.10994362877,-0.868867428228,-0.37264867435,0.0474389948576,0.0314006703575,0.0376123001891,0.0225917365847,0.0148336491163,-0.359005228567,0.573840910683,0.81893209938,0.00612966007341,0.0,0.818929870544,-0.573748522636,-0.0121345294093,0.0,-0.00642059584909,0.0119832818526,-0.999907584182,0.0,0.270188293057,-0.252983827553,0.30487513398,1.0,-0.0741880000001,-0.0975042285715,2.755
-0.62429586016,-0.52243698759,-0.130025602307,-2.64278733022,-0.0701212425497,2.11010173838,-0.874538552916,-0.332879673552,0.0475710847097,0.0313725942115,0.0335209410137,0.0176762633608,0.0115638163074,-0.321086041756,0.573816128904,0.818949270768,0.00615540568655,0.0,0.818947436661,-0.573723742148,-0.0121206676155,0.0,-0.00639483264035,0.0119962192439,-0.99990759415,0.0,0.268989860226,-0.254574732297,0.304883377616,1.0,-0.0665720000001,-0.0874946285715,2.772
-0.629606539968,-0.521761799369,-0.129460590672,-2.6422666262,-0.0697870408797,2.11024169772,-0.879651913643,-0.30616485689,0.0379976097042,0.032534685709,0.0305626311406,0.0196825551645,0.00190653168821,-0.287851504964,0.573748503635,0.818996687978,0.00615032992256,0.0,0.818994988361,-0.573656530417,-0.0120888812375,0.0,-0.0063726994648,0.0119732974271,-0.999908010194,0.0,0.267912544635,-0.25598051262,0.304898101047,1.0,-0.0589560000001,-0.0774850285715,2.789
-0.634484536339,-0.521103747501,-0.128944991429,-2.64175934118,-0.0694576060692,2.11037970719,-0.884227802851,-0.272008059856,0.0431967350076,0.0266352824506,0.0335018395262,0.0205688976745,0.0146720025725,-0.253457991522,0.573798660468,0.818961465514,0.00616134325425,0.0,0.818960095291,-0.573706978555,-0.0120586889688,0.0,-0.00634091805014,0.0119653842066,-0.999908306966,0.0,0.266925323673,-0.257274229202,0.304911435139,1.0,-0.0513400000001,-0.0674754285715,2.806
-0.638902627179,-0.520416082498,-0.128428295258,-2.64125372216,-0.0690811157994,2.11052609983,-0.888386732852,-0.231109957486,0.0379283844891,0.0240574948313,0.0268604644736,0.0194380022572,0.0119716045289,-0.218282836656,0.573832735066,0.818937244012,0.00620720861082,0.0,0.818936481078,-0.57374086515,-0.0120501667185,0.0,-0.00630712251547,0.011998320708,-0.999908126032,0.0,0.266055594032,-0.258437005651,0.304913700489,1.0,-0.0432760000001,-0.0568770285715,2.824
-0.642561582193,-0.519891733813,-0.127954984904,-2.64087801166,-0.06877287568,2.11062579809,-0.891730023853,-0.20281360546,0.0277437470608,0.026578546484,0.0184955945693,0.0180526614815,0.00464258451065,-0.175763182024,0.573907559942,0.818884667553,0.00622581637661,0.0,0.818884052847,-0.573815413272,-0.01206343178,0.0,-0.00630621133971,0.0120217479,-0.999907850392,0.0,0.265328789158,-0.259374939724,0.304911736304,1.0,-0.0356600000001,-0.0468674285715,2.841
-0.64547672768,-0.519462698015,-0.127460299095,-2.64058562822,-0.0684777130174,2.11071775239,-0.894340774883,-0.173702325034,0.0265020998934,0.0282041789656,0.0153085731415,0.0119653039004,0.0140421805708,-0.154977715561,0.573947858341,0.818856436888,0.00622403194196,0.0,0.818855715995,-0.573855552844,-0.0120775722942,0.0,-0.00631822416954,0.0120287124744,-0.999907690799,0.0,0.264777561645,-0.260089762028,0.304906697789,1.0,-0.0284920000001,-0.0374466285715,2.857
-0.648059904567,-0.519070669104,-0.126841039648,-2.64033241374,-0.0681478205472,2.11080037405,-0.896690766595,-0.127230310768,0.020268578589,0.0402019705676,0.0124638806706,0.018686020211,0.0044288599533,-0.123816617963,0.573854161482,0.818922340855,0.00619256812519,0.0,0.818921066708,-0.573761743746,-0.0121035042947,0.0,-0.00635889381222,0.0120171021692,-0.999907572591,0.0,0.26433166489,-0.260674205787,0.304899585597,1.0,-0.0204280000001,-0.0268482285715,2.875
-0.649763319793,-0.518797844293,-0.126420979362,-2.64017022079,-0.0679115270914,2.11083178026,-0.898185718198,-0.110199365727,0.0153238227838,0.0201927678503,0.0105299716999,0.0138269217979,0.00293931800799,-0.0945875983374,0.573836642182,0.818934671538,0.00618536532562,0.0,0.818932938291,-0.573743572429,-0.0121615204812,0.0,-0.00641080060972,0.0120443573684,-0.999906913213,0.0,0.264036130038,-0.26105000583,0.304885705537,1.0,-0.0197,-0.0258914285714,2.89
-0.651440532908,-0.518549174944,-0.126059979609,-2.63998891401,-0.0677215237273,2.11088258818,-0.899867210138,-0.0937842262146,0.0128975836017,0.019402987174,0.0112048662475,0.0122550725802,0.00425069963747,-0.0970196605167,0.573667734823,0.819053155481,0.0061648537243,0.0,0.819051169804,-0.573574822608,-0.0121594002406,0.0,-0.00642331392316,0.0120250177662,-0.999907065675,0.0,0.263737860552,-0.261444161825,0.304889564212,1.0,-0.01936,-0.0254445714286,2.907
-0.653048952388,-0.518281001006,-0.125859794557,-2.63976515603,-0.067588322942,2.11095873858,-0.901373024584,-0.0925799590017,0.0212586450547,0.0102093480011,0.0154885288187,0.00254985810566,0.00550285798515,-0.0924899999881,0.573678228857,0.819045801081,0.00616541713801,0.0,0.819044120412,-0.573585870187,-0.0121130194759,0.0,-0.00638484451401,0.0119989552329,-0.99990762515,0.0,0.263429996226,-0.261874775488,0.304903786307,1.0,-0.01902,-0.0249977142857,2.924
-0.654476682199,-0.518020460186,-0.125750657211,-2.63956585954,-0.0675329969917,2.11103420342,-0.902781499215,-0.0887384627555,0.0133943550193,0.00362250785828,0.0138048335672,0.00833241704223,0.00554222199832,-0.0929310674887,0.573650631594,0.819065265304,0.00614743403046,0.0,0.819063512522,-0.573558662952,-0.0120900582178,0.0,-0.00637675547089,0.0119708389184,-0.999908013772,0.0,0.263136345327,-0.262278878135,0.30490740971,1.0,-0.0187,-0.0245771428571,2.94
-0.655959984953,-0.517779680746,-0.125732327098,-2.63938892406,-0.067494248817,2.11104594058,-0.904131298354,-0.0894861615262,0.0156592179794,0.000722333530837,0.00793423853588,0.000550740787036,0.000130769084801,-0.0785171943401,0.573772879364,0.818979465253,0.00616970833088,0.0,0.818977720844,-0.573680256437,-0.0121327258869,0.0,-0.00639713666622,0.0120145140504,-0.999907359756,0.0,0.26279135916,-0.262704230264,0.304900533542,1.0,-0.01836,-0.0241302857143,2.957
-0.657533238556,-0.517526040798,-0.125716998561,-2.63915727106,-0.0674550453895,2.11109070742,-0.90572766246,-0.0799337980501,0.0138344408654,-0.00145177061966,0.0156964327888,-0.000209498860489,0.00798122200625,-0.0817251033261,0.57377175181,0.818980138824,0.00618513850109,0.0,0.818978789529,-0.573679425659,-0.0120998255283,0.0,-0.00636135256369,0.012008266529,-0.999907663101,0.0,0.262438764011,-0.263171949634,0.304916503564,1.0,-0.01798,-0.0236308571429,2.976
-0.658731864854,-0.517315151196,-0.125715272036,-2.63897361898,-0.067423958533,2.11115978115,-0.906937852582,-0.0800348499097,0.0120388107692,2.38753751894e-06,0.0155512626329,0.00336665495546,0.00270686446878,-0.0751143043164,0.57378381327,0.818971589831,0.00619819159747,0.0,0.818970712487,-0.573691998852,-0.0120502880788,0.0,-0.00631311220594,0.0119906284903,-0.999908180506,0.0,0.262174223165,-0.263536529192,0.304928153433,1.0,-0.01768,-0.0232365714286,2.991
-0.660157439805,-0.517061663534,-0.125714171368,-2.6387768099,-0.0673920641741,2.11119958714,-0.908351926123,-0.0801961322069,0.0124131360996,-0.00069263226454,0.00975785497833,0.000948579905013,0.000418601073378,-0.0723762547851,0.573816390216,0.818948613503,0.00621817200285,0.0,0.818947930983,-0.573724357191,-0.0120579934485,0.0,-0.00630748171964,0.0120116646319,-0.999907963558,0.0,0.261846678127,-0.263958862844,0.304927549559,1.0,-0.01732,-0.0227634285714,3.009
-0.661477050696,-0.516837505527,-0.125696783666,-2.63859737983,-0.0673622519641,2.11121451568,-0.909683546014,-0.0790341167775,0.0180206298067,-0.000219491632742,0.0070123015522,-0.000328746020376,0.0025726861672,-0.0775691483733,0.57381632653,0.818948554853,0.00623175841841,0.0,0.818947901076,-0.573723951339,-0.0120793163771,0.0,-0.00631715125181,0.0120350261388,-0.999907621606,0.0,0.261542710829,-0.264342229638,0.304928109522,1.0,-0.01698,-0.0223165714286,3.026
-0.662570241693,-0.516616296504,-0.125671342632,-2.63842331216,-0.0673344642584,2.11127740288,-0.910764297127,-0.0722642951422,0.015231752753,0.00342324231162,0.0118473311747,-0.000270579151847,0.00790742914052,-0.0666619224037,0.573829395997,0.818939399935,0.00623140636901,0.0,0.818938881879,-0.573737287083,-0.0120573653597,0.0,-0.00629918264638,0.0120222431115,-0.999907888742,0.0,0.261306079217,-0.264670043954,0.304931586447,1.0,-0.01668,-0.0219222857143,3.041
-0.663869548349,-0.516351736906,-0.125613192418,-2.63822770531,-0.0673027910612,2.11135071026,-0.912112478014,-0.0731601001359,0.010539769078,0.000790263648614,0.00899331919649,0.00258528814709,0.00449246267028,-0.0713221348488,0.573771870025,0.818979800408,0.00621889004241,0.0,0.818979197474,-0.573679977237,-0.0120459421811,0.0,-0.00629785187844,0.012004995481,-0.99990810435,0.0,0.26102757606,-0.265050339345,0.304930505994,1.0,-0.01632,-0.0214491428571,3.059
-0.664946320879,-0.516152944183,-0.125556693522,-2.63807093113,-0.0672854129603,2.1113576387,-0.913218514534,-0.0690301472441,0.0125839944907,0.0045282382826,0.00599080388725,0.000259326205772,-6.47409406012e-05,-0.07126298377,0.573723396295,0.819013875934,0.00620342424793,0.0,0.819012892317,-0.573631240858,-0.0120759526174,0.0,-0.00633201672078,0.0120091721985,-0.999907838427,0.0,0.26078825385,-0.265355662015,0.304930318718,1.0,-0.01602,-0.0210548571429,3.074
-0.666143610423,-0.515920291016,-0.125504815403,-2.63790312803,-0.0672558060826,2.11139853521,-0.91441157421,-0.0678610637662,0.0128928674102,0.000781980941198,0.00761834287297,-0.00025555033884,0.00442654759828,-0.0755466703912,0.573711492437,0.819022260181,0.00619739255659,0.0,0.819021092747,-0.573619166849,-0.0120933023015,0.0,-0.0063498628836,0.0120140930443,-0.999907666142,0.0,0.260523689413,-0.265699085719,0.304925429397,1.0,-0.01568,-0.020608,3.091
-0.667379805117,-0.515672836808,-0.125491212482,-2.63769822676,-0.0672260875495,2.11147845767,-0.915693173923,-0.0686133273355,0.0172193808281,-0.000685807779906,0.00914311766511,0.00386078818699,0.00318382973267,-0.0680450771389,0.573687923181,0.819038741523,0.00620109517657,0.0,0.819037898746,-0.573596110478,-0.0120486249391,0.0,-0.00631148804888,0.0119913134518,-0.999908182545,0.0,0.260253922732,-0.266075615048,0.304934336259,1.0,-0.01532,-0.0201348571429,3.109
-0.668540579548,-0.515445518037,-0.125484799109,-2.63751210346,-0.0671977615721,2.11151237485,-0.91679576879,-0.068813760408,0.0157650148017,0.000242589754214,0.008973420316,0.00144572611082,0.0030203709594,-0.0583053021863,0.573752773934,0.818993224207,0.00621289033076,0.0,0.818992527844,-0.573660882264,-0.0120489998458,0.0,-0.00630407845671,0.0120016889116,-0.999908104807,0.0,0.259991053963,-0.26642281846,0.304938032793,1.0,-0.01498,-0.019688,3.126
-0.669703779648,-0.515238258729,-0.125483768724,-2.63733107588,-0.0671713112591,2.11154598565,-0.917916423744,-0.0716815469649,0.00742108989861,-7.38556693327e-05,0.014377523099,-0.000361293085997,0.000822541734159,-0.0639612733802,0.573807505699,0.818954781453,0.00622569190835,0.0,0.818954335559,-0.573715706316,-0.0120345958646,0.0,-0.00628413358474,0.0120043299359,-0.99990819865,0.0,0.259724960755,-0.266770719763,0.304946650939,1.0,-0.01464,-0.0192411428571,3.143
-0.670816550273,-0.515035307619,-0.125471683611,-2.63716440579,-0.0671417467532,2.11160286661,-0.919086636802,-0.0652826472158,0.0118884821997,0.000836664816542,0.0103810486416,0.000690606276246,0.000868933902762,-0.059214468946,0.573773117075,0.81897880192,0.00623530503012,0.0,0.818978643016,-0.573681593257,-0.0120066125162,0.0,-0.00625620186078,0.0119958840992,-0.999908475163,0.0,0.259475128493,-0.267102256361,0.304952573368,1.0,-0.0143,-0.0187942857143,3.16
-0.67195437827,-0.514812978309,-0.125438788891,-2.63698094623,-0.067116187903,2.11162991447,-0.920208175485,-0.0591837519038,0.0169804435221,0.00300289008431,0.00599517251665,0.00269176225301,0.00447278519279,-0.0602780076472,0.5737834966,0.818971547337,0.00623302360803,0.0,0.818971326091,-0.57369191781,-0.0120123845417,0.0,-0.00626208645243,0.0119974066019,-0.999908420061,0.0,0.259221192168,-0.267435755944,0.304956895576,1.0,-0.01394,-0.0183211428571,3.178
-0.672941586263,-0.514614555305,-0.125396194902,-2.6368124217,-0.0670936669569,2.11166752508,-0.921212530079,-0.0634561577658,0.0152678062665,0.000964782590831,0.0147600738796,-0.000236934637678,0.00691723772978,-0.0648745955535,0.573757478242,0.818989861904,0.00622166866467,0.0,0.818989579727,-0.573666120146,-0.0119999082042,0.0,-0.00625876313992,0.0119807495418,-0.999908640589,0.0,0.259007884124,-0.267726256318,0.304964377737,1.0,-0.01362,-0.0179005714286,3.194
-0.673848093286,-0.514434652707,-0.125362168742,-2.63666163335,-0.0670689084648,2.11172522587,-0.922148630131,-0.0611134668315,0.0133800587433,0.00181173207096,0.0115546980745,0.00389700734506,0.00709859660118,-0.0576668438863,0.573727381491,0.819010998695,0.00621471199298,0.0,0.819010839093,-0.573636467615,-0.0119664269003,0.0,-0.00623576986945,0.011955613438,-0.999909085108,0.0,0.258813720271,-0.267995891458,0.304972147125,1.0,-0.01332,-0.0175062857143,3.209
-0.674833016861,-0.514218277809,-0.12531688557,-2.63648352664,-0.0670494567207,2.11175697191,-0.923118959981,-0.0563938643443,0.0140780148914,0.00168905204061,0.0078160075113,0.00333493514308,0.00368342038484,-0.0573893307893,0.573724649403,0.819013029284,0.00619930892979,0.0,0.81901266949,-0.573633801389,-0.0119689606637,0.0,-0.00624672185195,0.0119444302834,-0.999909150399,0.0,0.258601586199,-0.268286567349,0.304976885057,1.0,-0.01298,-0.0170594285714,3.226
-0.675734740964,-0.514025130986,-0.125315767976,-2.6363367055,-0.0670246825391,2.11179726979,-0.924010363755,-0.0576624291696,0.0109653592801,-0.00079608920433,0.00530768019233,0.000314419658151,0.00243458303618,-0.060589161576,0.57375741619,0.8189899645,0.00621388094258,0.0,0.818989798106,-0.573666507126,-0.0119664573643,0.0,-0.00623583317503,0.0119551789311,-0.999909089908,0.0,0.258383349529,-0.26857572552,0.304977912886,1.0,-0.01264,-0.0166125714286,3.243
-0.676703377535,-0.513826547764,-0.12530375744,-2.63617791894,-0.0670004693921,2.11183535103,-0.925004364118,-0.0568105131433,0.0113794122969,0.00345904527324,0.0107464824818,0.00287416871045,-0.000199421550099,-0.0572224296039,0.573739784633,0.819002281905,0.00621841339483,0.0,0.819002177553,-0.573648866119,-0.0119648846599,0.0,-0.00623220203537,0.011957854685,-0.999909080551,0.0,0.258178503242,-0.268846901215,0.304977945505,1.0,-0.01232,-0.016192,3.259
-0.677763306808,-0.513608295574,-0.125299136075,-2.63600304933,-0.0669828035286,2.11187726727,-0.926033767653,-0.060320273138,0.0136041948644,0.000136155778237,0.0113716225695,0.000227116885873,0.00400768829745,-0.0499176181385,0.573778092824,0.818975421215,0.00622145825674,0.0,0.81897538183,-0.573687201991,-0.0119609836273,0.0,-0.00622670050796,0.0119584017616,-0.999909108283,0.0,0.257936722806,-0.26916590132,0.304980386835,1.0,-0.01194,-0.0156925714286,3.278
-0.678680260487,-0.513419981382,-0.125294816757,-2.63585536527,-0.0669608842876,2.11192245032,-0.926910592472,-0.0574203892171,0.011956706339,4.98439725237e-06,0.00698599676841,-0.000635266439777,0.00123010029134,-0.0542888905437,0.573824896576,0.818942573258,0.00622869778607,0.0,0.818942686908,-0.57373407849,-0.0119511355457,0.0,-0.00621379714756,0.0119590358679,-0.999909180969,0.0,0.257728518186,-0.269441333413,0.304981809981,1.0,-0.0116,-0.0152457142857,3.295
-0.679536517215,-0.51323105082,-0.125279619997,-2.63570829598,-0.0669404112038,2.11195547883,-0.927793211513,-0.0477313172023,0.00854243624849,0.000475639820246,0.0109237846812,0.00309758908963,0.000841813078005,-0.0538384771954,0.573808872583,0.818953780917,0.00623132154928,0.0,0.818953899949,-0.573717991564,-0.0119550330678,0.0,-0.00621571791964,0.0119632994615,-0.999909118029,0.0,0.257536704782,-0.269696862788,0.304981933357,1.0,-0.01126,-0.0147988571429,3.312
-0.680228739835,-0.513078033238,-0.125263654548,-2.63558495226,-0.0669214571874,2.11197875177,-0.928520408395,-0.049838915391,0.0123376957861,0.00327909474923,0.0114836495441,0.000165773651114,-7.29231151454e-05,-0.0557281296888,0.573783342418,0.818971651291,0.00623355814804,0.0,0.818971780506,-0.573692421036,-0.0119572439458,0.0,-0.00621661844271,0.0119662059992,-0.999909077651,0.0,0.257382968625,-0.269902992006,0.304983737418,1.0,-0.01098,-0.0144308571429,3.326
-0.681064838159,-0.512889514824,-0.125231358445,-2.63544621339,-0.0669032415715,2.11200812418,-0.929351570089,-0.0465814976718,0.00870381768645,-0.000680126950057,0.00635322226981,0.000115858141963,0.000288047343721,-0.047020861009,0.573779429187,0.818974440567,0.00622729802135,0.0,0.818974391881,-0.573688349638,-0.0119737143352,0.0,-0.00623375769373,0.0119704990558,-0.999908919561,0.0,0.257197425135,-0.270146951146,0.304980298759,1.0,-0.01064,-0.013984,3.343
-0.681880634793,-0.512702318836,-0.125204317672,-2.63530873555,-0.0668847756359,2.1120407342,-0.93011106836,-0.0484039311009,0.00805007141125,0.00355914372856,0.0112768642993,0.000693271647084,0.00047759762715,-0.0431403670674,0.573821353036,0.818945102032,0.00622266499562,0.0,0.81894491868,-0.573730141501,-0.0119871515813,0.0,-0.00624680887678,0.011974733969,-0.999908787403,0.0,0.257016225305,-0.270386825627,0.304976918324,1.0,-0.0103,-0.0135371428571,3.36
-0.682682784874,-0.512519175378,-0.125192904989,-2.6351717531,-0.0668661988096,2.11207699122,-0.930895731543,-0.0517805933108,0.00846541114786,0.00333564482544,0.00693052654828,-0.000514564780094,0.00287724895632,-0.0435512677959,0.573836579481,0.818934424101,0.00622382298901,0.0,0.818934307451,-0.573745458794,-0.0119789604985,0.0,-0.00623921306507,0.0119710983681,-0.999908878361,0.0,0.256827053368,-0.270641919691,0.304979643752,1.0,-0.00994000000001,-0.013064,3.378
-0.683478267117,-0.512337036112,-0.125185550101,-2.63502745273,-0.0668435532068,2.11213950156,-0.931721845473,-0.0445492440879,0.00963916485189,-0.000139445697776,0.00448271305868,7.93900101538e-05,0.00343945737631,-0.0456400262135,0.573829394157,0.818939421215,0.00622877861489,0.0,0.818939461051,-0.573738430758,-0.011963239819,0.0,-0.00622359884873,0.0119660816435,-0.999909035716,0.0,0.256661490572,-0.270871325555,0.30497840393,1.0,-0.00960000000001,-0.0126171428571,3.395
-0.684150292881,-0.512185667017,-0.125167375506,-2.63490081786,-0.0668230525898,2.11215394739,-0.932411879937,-0.0385307605289,0.00960631228067,0.00250186479547,0.0068601806831,0.000934194570813,0.00169664718769,-0.0416780702956,0.573816978717,0.818948100492,0.00623141532016,0.0,0.818948131825,-0.57372592453,-0.011969452962,0.0,-0.00622735614739,0.0119717117632,-0.999908944931,0.0,0.256512380234,-0.271070785127,0.304981570282,1.0,-0.00928000000001,-0.0121965714286,3.411
-0.684884997054,-0.51201133644,-0.125133697284,-2.63477173726,-0.066797910636,2.11218791649,-0.93312085061,-0.0399598552085,0.0147965011074,4.5819367809e-05,0.00370923047777,0.00721321863066,0.00333456330263,-0.0455795401409,0.573831531813,0.818937921702,0.0062289963945,0.0,0.818937880363,-0.5737404056,-0.0119767269955,0.0,-0.00623448902989,0.0119740152389,-0.999908872901,0.0,0.256353114183,-0.271285566291,0.304979373419,1.0,-0.00892000000001,-0.0117234285714,3.429
-0.685485125974,-0.511873884741,-0.125096503706,-2.63467686972,-0.0667769315911,2.112216457,-0.933705899975,-0.0420387940548,0.00657916331781,0.000271838224479,0.00962957170249,0.00346379931048,1.74316358469e-05,-0.037183786524,0.573831336056,0.818938095418,0.00622418948929,0.0,0.818937928698,-0.573740109746,-0.0119875898215,0.0,-0.00624614707408,0.0119763101126,-0.99990877266,0.0,0.256223035649,-0.271456240517,0.304974898257,1.0,-0.00862000000001,-0.0113291428571,3.444
-0.686131076457,-0.511721955207,-0.125071861384,-2.6345902486,-0.0667522502172,2.11224757858,-0.934367444886,-0.0415625014754,0.00487370596804,9.20760342935e-05,0.00666121739577,0.00129962397253,0.000146492528141,-0.0363186966924,0.573816226464,0.818948624852,0.00623177346743,0.0,0.818948363095,-0.57372459962,-0.0120170410556,0.0,-0.00626613815231,0.0119993048559,-0.9999083719,0.0,0.256076142466,-0.271638830121,0.304961239647,1.0,-0.00828000000001,-0.0108822857143,3.461
-0.686819807309,-0.511559494117,-0.125052387534,-2.63451139682,-0.0667239851893,2.11226828466,-0.935086570451,-0.0389415863211,0.00805286332822,0.00210798388578,0.00202176361099,0.000820140072108,0.00261609826952,-0.0350997996373,0.573793912105,0.81896412512,0.00624940790172,0.0,0.818963715447,-0.573701490647,-0.0120739103261,0.0,-0.00630292612896,0.0120462064818,-0.999907576745,0.0,0.255913111156,-0.271829269596,0.304939139288,1.0,-0.00790000000001,-0.0103828571429,3.48
-0.687416737881,-0.511418919783,-0.125039492592,-2.63445025745,-0.0667050281103,2.11228374229,-0.935666872753,-0.0338757828504,0.0133444192214,0.000832006524172,0.00187025781982,-0.000143765951132,-0.000253951371465,-0.0379312213296,0.573809904682,0.818952814541,0.00626320568508,0.0,0.818952197705,-0.573716679236,-0.0121332906218,0.0,-0.00634340906763,0.0120917011984,-0.999906771616,0.0,0.255768307276,-0.271993364152,0.304916485813,1.0,-0.00756000000001,-0.00993600000001,3.497
-0.687949477231,-0.51130025666,-0.12502458967,-2.63439502214,-0.0666814117033,2.11229636528,-0.936181068256,-0.0346833913048,0.00307779638625,0.00366716000286,0.00783615919887,0.000162211983136,0.000270542729279,-0.032541462026,0.573827654513,0.818940256334,0.00627904231959,0.0,0.81893954072,-0.573733770913,-0.0121793128314,0.0,-0.00637175362037,0.0121312161125,-0.999906112768,0.0,0.255640502586,-0.272138500458,0.304899068506,1.0,-0.00724000000001,-0.00951542857144,3.513
-0.688416553355,-0.51119732385,-0.125008299864,-2.63432554057,-0.0666605593463,2.11230885719,-0.936658883794,-0.0321320583444,0.00568226908258,0.00212659571135,0.00528408155297,0.00230156401476,0.00056712757232,-0.03078141416,0.573819826135,0.818945675509,0.00628765468014,0.0,0.818944954416,-0.573725679846,-0.012196426621,0.0,-0.00638094473486,0.0121480283657,-0.999905850043,0.0,0.255534014134,-0.272270817435,0.304893961278,1.0,-0.00694000000001,-0.00912114285715,3.528
-0.688947484343,-0.511093247585,-0.124974364307,-2.63423851484,-0.0666399435888,2.11232455203,-0.937178667191,-0.0286536233033,0.00334304364909,0.00360758509946,0.00614312257489,0.000250611327787,-0.000108549596444,-0.0297621757014,0.57381805158,0.8189469443,0.0062843460163,0.0,0.818946193574,-0.573723946888,-0.0121947406858,0.0,-0.0063814886845,0.0121443374051,-0.999905891407,0.0,0.255418407648,-0.272420790565,0.304897080048,1.0,-0.00660000000001,-0.00867428571429,3.545
-0.689444532543,-0.510974590433,-0.124939859031,-2.63414607402,-0.0666153639478,2.11235398419,-0.937693713451,-0.0276126187962,0.00690904131985,0.00155461758826,0.00475863510699,0.000883407853304,-0.00032544473161,-0.0296900086573,0.573793997537,0.818963815229,0.00628208857846,0.0,0.818963075691,-0.573699985983,-0.0121882582614,0.0,-0.0063778311504,0.0121385817201,-0.999905984632,0.0,0.255315423724,-0.272564748576,0.304898440364,1.0,-0.00626000000001,-0.00822742857144,3.562
-0.689882741325,-0.510885125623,-0.124913139064,-2.63406469638,-0.0665963233849,2.11238498703,-0.938162380492,-0.0285619264989,0.00395160259911,0.000271377080769,0.0054171050615,-1.11720226067e-05,0.00438213404503,-0.0331604866822,0.573762266512,0.818986078026,0.00627793173544,0.0,0.818985447397,-0.573668591833,-0.0121626723165,0.0,-0.00635972948503,0.0121202505186,-0.999906322296,0.0,0.255224546415,-0.272693654936,0.304905534219,1.0,-0.00594000000001,-0.00780685714286,3.578
