nelsonifechukwu/NELSON_IML_WORK/CNN-GradCAM/train2dof/data_sample_2022-02-22-07-20-46/robot_state.csv
position_joint1,position_joint2,position_joint3,position_joint4,position_joint5,position_joint6,position_joint7,velocity_joint1,velocity_joint2,velocity_joint3,velocity_joint4,velocity_joint5,velocity_joint6,velocity_joint7,ee_T_00,ee_T_10,ee_T_20,ee_T_30,ee_T_01,ee_T_11,ee_T_21,ee_T_31,ee_T_02,ee_T_12,ee_T_22,ee_T_32,ee_T_03,ee_T_13,ee_T_23,ee_T_33,v_x,v_y,time
0.465057386405,0.547659975351,-0.124071091716,-1.35583545397,0.0795253581338,1.89416816888,0.159131095996,0.000804295609102,-0.000505415125169,-0.00128251881679,6.56842584134e-05,2.76179911628e-05,-0.000195327138589,-0.000807833743645,0.573860885242,0.818938356324,0.00209757751073,0.0,0.818897407575,-0.573801986321,-0.0117925087236,0.0,-0.0084539063328,0.008485123646,-0.999928264499,0.0,0.661715023323,0.260841943904,0.303307735224,1.0,0.0,0.0,0.0
0.465049950888,0.547654669419,-0.124074076635,-1.35583663689,0.0795259684854,1.89416820812,0.159126630902,-0.00740161944998,-0.000649857493342,-0.000899849478797,-0.000827308413363,0.000228901262353,-0.000357403691888,0.00544717442262,0.573865620247,0.818935029644,0.0021009575417,0.0,0.818894133433,-0.57380671613,-0.0117897266538,0.0,-0.00844963928073,0.00848634399264,-0.99992829021,0.0,0.661717491279,0.260835327774,0.303311034413,1.0,-0.00014,-0.000184,0.008
0.465057745892,0.54765318597,-0.124074419093,-1.35583554836,0.0795253581886,1.89416820812,0.159134112388,0.00105214267067,0.000603434159201,-0.000629538746435,1.14277544245e-06,-2.6777075599e-05,-8.80953626363e-05,-0.00603818813073,0.573865378415,0.818935194763,0.00210264974411,0.0,0.818894329188,-0.57380647638,-0.0117877983347,0.0,-0.008447091517,0.00848662069749,-0.999928309387,0.0,0.661715859952,0.260840337907,0.303312613664,1.0,-0.00048,-0.000630857142857,0.025
0.465048879095,0.547643080721,-0.124071231783,-1.35584758893,0.0795259684854,1.8941709208,0.159123781407,-0.00141459675152,0.00113094105818,0.00100768739106,0.00050464060904,0.000157615069218,-0.00012529588175,-0.00178320634648,0.573862773147,0.818937014156,0.00210507550103,0.0,0.818896149448,-0.573803831119,-0.0117901107976,0.0,-0.00844762038876,0.00848990735716,-0.999928277019,0.0,0.661715454552,0.260835301966,0.303314172483,1.0,-0.0008,-0.00105142857143,0.041
0.465061254453,0.547576799635,-0.124073963675,-1.3559242246,0.0795220454721,1.8941848713,0.159126150249,0.00176226194657,-0.00852141903096,-0.001119724101,-0.0049591821349,-0.000539904763483,0.00162383491861,0.000109131329634,0.573859613097,0.818939219052,0.00210875672444,0.0,0.818898391103,-0.573800645892,-0.0117894327741,0.0,-0.00844498549075,0.00849250032621,-0.999928277257,0.0,0.66170003947,0.260833995007,0.303325944343,1.0,-0.00116,-0.00152457142857,0.059
0.465050570284,0.54744326606,-0.124068752703,-1.35608819483,0.0795232048357,1.89420637104,0.159123397512,-0.00126092830306,-0.00378090265147,0.000282392624838,-0.0141959492441,0.000313414944995,-0.000802625975597,0.000217054740991,0.573871643819,0.818930783623,0.00211067670605,0.0,0.818889805761,-0.573812491766,-0.0118092004609,0.0,-0.00845994800761,0.00850554067655,-0.99992803994,0.0,0.661671786366,0.260813876181,0.3033441874,1.0,-0.00148,-0.00194514285714,0.075
0.465037908597,0.547305608531,-0.124074042448,-1.35627660236,0.0795184161217,1.89426847342,0.159120691278,-0.00279725388988,-0.0119154639849,-0.000566964269108,-0.0120740851411,-2.3080696532e-05,0.00176623623787,0.000450213826039,0.573892699294,0.818915996265,0.00212312503413,0.0,0.818875139285,-0.573833454437,-0.011807613267,0.0,-0.00845128592292,0.00851504129897,-0.999928032329,0.0,0.66164939499,0.260785321708,0.303357580686,1.0,-0.0018,-0.00236571428571,0.091
0.465029940025,0.547131490403,-0.124071620172,-1.35647831363,0.0795175913871,1.89437842698,0.159105922778,0.000420769841012,-0.0126775963117,0.000969688599775,-0.010951228317,0.00032015601562,0.00571339343896,-0.00192103717941,0.573896677145,0.818913006441,0.00219971487823,0.0,0.818873080314,-0.573837068211,-0.0117747350323,0.0,-0.00838036707674,0.00855893339343,-0.99992825448,0.0,0.661631242801,0.260767138796,0.303394373183,1.0,-0.00212,-0.00278628571429,0.107
0.465004949211,0.546928687721,-0.12407119925,-1.35671924203,0.079511019813,1.89449920795,0.159088633614,-0.00112916689373,-0.00996409473806,-0.0005002025651,-0.0147060995473,-0.000132231100224,0.0019651460666,-0.00113756148472,0.573914563545,0.81890026728,0.00227440131043,0.0,0.818861284134,-0.573854639948,-0.0117386736007,0.0,-0.00830778715468,0.00859958048242,-0.999928511389,0.0,0.661612224253,0.260732058787,0.303433805593,1.0,-0.00246,-0.00323314285714,0.124
0.464972586475,0.546673645983,-0.124068720349,-1.35708189141,0.0795045623886,1.89465115492,0.159044541775,-0.000275569400833,-0.0159723544373,0.00128070176991,-0.020752690794,-0.000619806796307,0.00161270430634,-0.00130095666168,0.573921787314,0.818895088799,0.00231570493544,0.0,0.818856536113,-0.573861597886,-0.0117297330646,0.0,-0.00827668601687,0.00862834560963,-0.999928521506,0.0,0.661576355982,0.260684174377,0.303453289273,1.0,-0.00282,-0.00370628571429,0.142
0.464943029558,0.546455032413,-0.124071857934,-1.35740385927,0.0794915190649,1.89476179107,0.158948811413,-0.00319014347624,-0.0176400787879,0.000657195530499,-0.0255980000059,0.000113161073001,0.00793459842762,-0.00620726953234,0.573884393146,0.818921251417,0.00233113302606,0.0,0.818882823105,-0.573824071482,-0.0117304694032,0.0,-0.00826882963977,0.00864102447467,-0.999928477018,0.0,0.661537422652,0.260630336111,0.303466182877,1.0,-0.00312,-0.00410057142857,0.157
0.464904423708,0.546150678139,-0.124074348978,-1.35787010473,0.0794652264469,1.89492057532,0.158926626683,-0.00486754744296,-0.0160307586801,-0.00117256412037,-0.0329135517262,-0.00527905354466,0.0143952400879,-0.00188331709323,0.573918600548,0.81889728465,0.00232895669545,0.0,0.818858806566,-0.573858260291,-0.0117345177358,0.0,-0.00827303295451,0.00864191108078,-0.999928434588,0.0,0.66148222177,0.26055852316,0.303473603373,1.0,-0.00348,-0.00457371428571,0.175
0.464842623687,0.5458315919,-0.124067233449,-1.35842810418,0.0794312747373,1.89510231766,0.158865511544,-0.00242139625492,-0.0217779510461,0.00764384885968,-0.0298546466839,-0.00421001523725,0.00614303720932,-0.00346474845566,0.573936304421,0.818885010557,0.00228141479289,0.0,0.818845843004,-0.573876066365,-0.0117682942682,0.0,-0.00832779076477,0.00862254435167,-0.999928147234,0.0,0.661415145144,0.260466546275,0.303449422603,1.0,-0.00384,-0.00504685714286,0.193
0.464782051507,0.545511090383,-0.124072185761,-1.35898811272,0.0794042859516,1.89528584359,0.158778292514,-0.00425304730053,-0.0202566055016,0.00106022953321,-0.0325995974747,-0.00410587697474,0.0137641346814,-0.00309852415248,0.573942011507,0.818881135585,0.00223609297065,0.0,0.818841302497,-0.57388186769,-0.0118012780467,0.0,-0.00838075211335,0.00860442020283,-0.999927860871,0.0,0.661350001833,0.260369428053,0.303425833491,1.0,-0.00416,-0.00546742857143,0.209
0.464708831959,0.545087632395,-0.124077572028,-1.35974742489,0.0793623842595,1.89551289233,0.15867633747,-0.00298441115754,-0.0157044188281,-0.000295003953133,-0.0409430146525,-0.000491555843923,0.00205596595401,-0.00199893810509,0.573953301424,0.818873467691,0.00214443409668,0.0,0.818832348049,-0.573893420222,-0.0118606457026,0.0,-0.00848185475933,0.00856355363959,-0.999927359206,0.0,0.661254610441,0.260241925493,0.303384005857,1.0,-0.00454,-0.00596685714286,0.228
0.464657376896,0.544732617843,-0.124078103372,-1.36032081514,0.0793387561371,1.89571310815,0.15861809585,-0.00376765420666,-0.0228376165259,0.00108980762176,-0.0401523354564,-0.000230588796041,0.0195751438064,-0.0026330161926,0.573973797223,0.818859127351,0.00213460900894,0.0,0.81881776319,-0.573913835178,-0.0118797044055,0.0,-0.00850288644664,0.00856665975624,-0.999927153978,0.0,0.661186922621,0.260153951998,0.303379733607,1.0,-0.00482,-0.00633485714286,0.242
0.464584241499,0.544299100897,-0.124083976223,-1.36106499237,0.079296598291,1.8959667772,0.158532282278,-0.00716015817975,-0.0279419015118,-0.0017700502558,-0.0491594897713,-0.000302678532369,0.0143809472775,-0.000781704183199,0.573997774794,0.818842446741,0.00208538918853,0.0,0.818800406488,-0.573937973802,-0.0119098053476,0.0,-0.00855553482613,0.00854388377924,-0.999926899765,0.0,0.661100514929,0.260029934528,0.303354486638,1.0,-0.00516,-0.00678171428571,0.259
0.464521279187,0.543744905923,-0.124089901412,-1.36196555522,0.0792532364817,1.89627686858,0.158410123656,-0.00372204416485,-0.0288161209396,-0.000194975745426,-0.0484038290415,-0.00301131167599,0.0156686310401,-0.00348880894047,0.57399201135,0.818846553271,0.00205912674462,0.0,0.818804057071,-0.573932205513,-0.0119367709559,0.0,-0.00859275003752,0.00853779688157,-0.999926632644,0.0,0.660989883163,0.259899275082,0.303345048646,1.0,-0.00554,-0.00728114285714,0.278
0.464449393288,0.543281669183,-0.124090053571,-1.36269690355,0.0792092490745,1.89652160753,0.158329868144,-0.00309867249739,-0.0330223554769,-0.00217879256214,-0.0505856378833,-0.00259695042247,0.0188297835951,-0.00203481219929,0.574014125524,0.818831099836,0.00203974039242,0.0,0.818788308616,-0.573954355231,-0.0119520160048,0.0,-0.00861613041592,0.00853090584755,-0.999926490269,0.0,0.660903684407,0.259780426966,0.303345866537,1.0,-0.00584,-0.00767542857143,0.293
0.464388519154,0.542765018187,-0.124093621742,-1.36351097515,0.0791631308564,1.89681975483,0.158224041112,-0.00612534482602,-0.0302926639408,0.000652593488817,-0.0558247420463,-0.00169344019151,0.0169295800996,-0.00432532868006,0.574012834483,0.818832002165,0.00204082830421,0.0,0.818789202747,-0.573953037668,-0.0119540335543,0.0,-0.0086171715319,0.00853294114971,-0.999926463931,0.0,0.660808434922,0.259661044577,0.303349792337,1.0,-0.00616,-0.008096,0.309
0.464323247491,0.542215441951,-0.124096588125,-1.36436741237,0.0791061777414,1.89713264942,0.158105772699,-0.0017895235372,-0.0314575537875,-0.000593077391347,-0.0509863756765,-0.000724848651218,0.018737221082,-0.0116668180742,0.574003934493,0.818838237462,0.00204229215266,0.0,0.818795505036,-0.573944180157,-0.0119476314424,0.0,-0.00861118156884,0.00853037132643,-0.99992653746,0.0,0.660708720549,0.259533761403,0.303358018574,1.0,-0.00648,-0.00851657142857,0.325
0.464240553487,0.541582150248,-0.1240927655,-1.36532925457,0.0790521271695,1.89747952495,0.15798294272,-0.00347538750028,-0.0395672313243,0.00117380567961,-0.0594599251986,-0.000760464814127,0.0168733940258,-0.00463304325471,0.574007320569,0.818835815604,0.00206153294801,0.0,0.818793258639,-0.573947411336,-0.0119463605011,0.0,-0.00859906190411,0.00854543218813,-0.999926513161,0.0,0.660596347611,0.259390273031,0.303377930045,1.0,-0.00682,-0.00896342857143,0.342
0.464152123207,0.540918908275,-0.124097598087,-1.36633620775,0.0789988864657,1.89784514247,0.157851635316,-0.00102042199878,-0.0410158486861,-0.00116887936592,-0.0601738665419,-0.00420271888812,0.0250035235003,-0.00418799783244,0.574017200268,0.818828833892,0.00208362299963,0.0,0.818786503722,-0.573957137712,-0.011942038947,0.0,-0.00858274077667,0.00856114298131,-0.999926518996,0.0,0.660481349507,0.259234427209,0.303399366256,1.0,-0.00716,-0.00941028571429,0.359
0.464046061266,0.540112505867,-0.124100733677,-1.36752144699,0.0789187352571,1.89827772303,0.157703804839,-0.00525109141453,-0.0494787269642,-0.00117343338878,-0.0658308847818,-0.00480026942495,0.0260789211929,-0.0165322697464,0.574029354908,0.818820206824,0.00212497122904,0.0,0.818778495729,-0.573969202055,-0.0119112100361,0.0,-0.0085336357235,0.00857743010169,-0.999926799698,0.0,0.660347785962,0.259048841834,0.303442725325,1.0,-0.00754,-0.00990971428571,0.378
0.46395046299,0.539365306767,-0.124100708222,-1.36867776706,0.0788509714728,1.89870584425,0.157565990731,-0.00280168646064,-0.0488162172538,0.00114394287501,-0.0696260181282,-0.0043972333238,0.0279726957372,-0.00413845783109,0.574040661627,0.818812236039,0.00214191822556,0.0,0.818770717465,-0.573980410239,-0.0119057878341,0.0,-0.00851934968029,0.00858831159937,-0.999926828115,0.0,0.660214087003,0.258876362705,0.303457415278,1.0,-0.00788,-0.0103565714286,0.395
0.463850010391,0.538664400763,-0.124103904484,-1.36976591932,0.0788008468641,1.89912924531,0.157431203122,-0.00597912170711,-0.042158193485,0.000259258150358,-0.0722158093061,-0.00130704660917,0.0311809925863,-0.00406046639476,0.574061703914,0.818797384935,0.00217931748527,0.0,0.818756249679,-0.574001194101,-0.0118987261601,0.0,-0.00849187852009,0.00861509869235,-0.99992683136,0.0,0.660094787731,0.25870883261,0.303471454637,1.0,-0.0082,-0.0107771428571,0.411
0.463738204915,0.537874962555,-0.124115556032,-1.37098943067,0.0787266190569,1.89958938131,0.15727631482,-0.0087357335875,-0.0432987214652,-0.000432908826093,-0.0730980089106,-0.00592125084626,0.0287699331429,-0.0109892165073,0.574082350731,0.818782859368,0.00219788232226,0.0,0.818742025728,-0.57402182484,-0.0118822058288,0.0,-0.00846747706786,0.00862102926043,-0.999926987178,0.0,0.659959792126,0.25851260818,0.303486904181,1.0,-0.00854,-0.011224,0.428
0.4636284617,0.537066999593,-0.124122753163,-1.37225738179,0.0786478962222,1.90005609877,0.157117173042,-0.00137911963839,-0.0518666790843,-0.00100077020263,-0.0762102672111,-0.00648473074635,0.0227163405315,-0.0150590291187,0.57409578768,0.818773431789,0.00220019670024,0.0,0.818732665353,-0.57403528864,-0.011876741152,0.0,-0.00846153247432,0.0086199259357,-0.999927047011,0.0,0.659814722946,0.258315032703,0.303494561658,1.0,-0.00888,-0.0116708571429,0.445
0.463522833529,0.536275547623,-0.12413087364,-1.37349953933,0.0785820920534,1.90053007723,0.156970853346,-0.0051493525199,-0.0482044848814,-0.000731698530186,-0.0784112062016,-0.00172488060482,0.0258046398226,-0.0147202662948,0.574119068026,0.818757049445,0.00222184943298,0.0,0.818716529888,-0.574058444376,-0.0118698370202,0.0,-0.00844320386479,0.00863393085531,-0.999927081115,0.0,0.659674806012,0.258125069258,0.303503381026,1.0,-0.0092,-0.0120914285714,0.461
0.463397285078,0.535344572763,-0.124137838261,-1.37496136076,0.0784922238266,1.90105165334,0.156797880986,-0.00535139899018,-0.0545336140731,-0.00124512808501,-0.0894939574652,-0.00164951149549,0.0305863776294,-0.0163964385062,0.574141288467,0.818741495997,0.0022114500731,0.0,0.818700845382,-0.574080707699,-0.0118749198286,0.0,-0.00845310155073,0.00862856394182,-0.999927043818,0.0,0.659502969259,0.257897757684,0.303510015885,1.0,-0.00956,-0.0125645714286,0.479
0.463283233333,0.534514317953,-0.124138338288,-1.37631325881,0.0784248484764,1.90153003206,0.156636466369,-0.00297848530998,-0.0545429741353,-0.00129722032921,-0.0845484579083,-0.000161169133993,0.0281354190848,-0.00967788253551,0.574164482889,0.818725313211,0.00218059561755,0.0,0.818684090635,-0.574103849564,-0.0119111946428,0.0,-0.00850027188284,0.00862436989871,-0.999926680123,0.0,0.659331163876,0.257679252284,0.303492457761,1.0,-0.0099,-0.0130114285714,0.496
0.463165195156,0.533648432478,-0.124147541902,-1.37770390889,0.0783389753237,1.902041184,0.156468049759,-0.00677562326081,-0.0503325494952,0.000311329945156,-0.0862512571545,-0.00719036123731,0.0320937154158,-0.0126498994761,0.574177357588,0.818716323215,0.00216587987166,0.0,0.818674938461,-0.574116812021,-0.0119154601792,0.0,-0.00851207758409,0.00861490487442,-0.999926661285,0.0,0.65917792682,0.25747813534,0.303487239237,1.0,-0.0102,-0.0134057142857,0.511
0.463024494006,0.532657564406,-0.124152877006,-1.37930281441,0.0782539881253,1.9026476074,0.156263880395,-0.00870757125142,-0.0609666046247,0.000587522520327,-0.0924229848169,-0.00596637809618,0.0298167672213,-0.0152743057636,0.574193995845,0.818704649663,0.00216763833354,0.0,0.818663205769,-0.574133358021,-0.0119243293138,0.0,-0.00851815437878,0.00862161003625,-0.999926551746,0.0,0.658994845328,0.257232882564,0.303477651595,1.0,-0.01056,-0.0138788571429,0.529
0.462911548673,0.531809292366,-0.124142950774,-1.38067068699,0.0781793967778,1.903152994,0.156102045431,-0.00695254644788,-0.0625098889221,0.000745235355035,-0.088372578106,-0.000426238188725,0.0273277874799,-0.0138159212515,0.574201698666,0.818699264458,0.00216113993713,0.0,0.818657591852,-0.574140940676,-0.0119446407595,0.0,-0.00853843407893,0.00862803274704,-0.999926323383,0.0,0.658830086211,0.257035201728,0.303468043412,1.0,-0.01086,-0.0142731428571,0.544
0.462781534774,0.530809314182,-0.12415295885,-1.38228190326,0.0780822531624,1.90372078401,0.155894738034,-0.00698315744362,-0.0653514565826,-0.00114061637475,-0.0994319655836,-0.00771390740955,0.0333816486494,-0.0117513249504,0.574207055424,0.818695610276,0.00212181927276,0.0,0.818653402354,-0.574146435526,-0.011967635031,0.0,-0.00857978048033,0.00860910079023,-0.999926132647,0.0,0.658634812034,0.256788420108,0.303455383997,1.0,-0.0112,-0.01472,0.561
0.46262470373,0.529672501427,-0.124151157908,-1.38412506011,0.0779529516872,1.90438699706,0.1556439867,-0.0117132137573,-0.0619710530285,-0.000202206325623,-0.100621964544,-0.0105317525819,0.0350926316993,-0.0209168894009,0.574194275671,0.818704687268,0.00207743430224,0.0,0.818661994104,-0.574133935239,-0.0119795958537,0.0,-0.00861519161502,0.00857949705446,-0.99992608262,0.0,0.658414074773,0.256506622151,0.303436607801,1.0,-0.01158,-0.0152194285714,0.58
0.462501728179,0.528726461259,-0.124148652725,-1.38560219338,0.0778637008201,1.90493289548,0.155457016614,-0.00549841235125,-0.0632473652363,3.94206921129e-05,-0.0974845603168,-0.00419577005879,0.0388155008525,-0.0101831851319,0.574196267035,0.818703257721,0.00209036391792,0.0,0.818660697878,-0.574135837286,-0.0119770194669,0.0,-0.00860563770233,0.00858862400962,-0.999926086537,0.0,0.65823833693,0.256286796983,0.303446994622,1.0,-0.01188,-0.0156137142857,0.595
0.462352379869,0.527547551338,-0.124154968989,-1.38744280581,0.077746206657,1.90563862213,0.155190188228,-0.00990197990899,-0.0687279399053,-0.00251714492149,-0.106428743984,-0.00650489303046,0.0367980806445,-0.0182537957855,0.574172758185,0.818719664138,0.00212184201625,0.0,0.818677606954,-0.57411229349,-0.0119497797812,0.0,-0.00856550901517,0.00859850810877,-0.999926346144,0.0,0.658025422589,0.256010685891,0.303462219604,1.0,-0.01224,-0.0160868571429,0.613
0.462203199256,0.526394008473,-0.124157446969,-1.38922965745,0.0776430284511,1.90631945194,0.154946255981,-0.00835568027439,-0.0674173293555,-0.000740792920298,-0.10766196053,-0.0105115402173,0.0423842881808,-0.010919424536,0.574165851859,0.818724398115,0.00216365217207,0.0,0.818682855936,-0.57410518688,-0.011931583963,0.0,-0.00852667912909,0.00862221901407,-0.999926473838,0.0,0.657817192025,0.255743616967,0.303482602699,1.0,-0.01258,-0.0165337142857,0.63
0.462071167015,0.525355777202,-0.124160616925,-1.39084438304,0.0775397453323,1.90689737517,0.154734427533,-0.00813638584793,-0.0695603050776,-0.00207061407073,-0.10943411873,-0.00504433718031,0.0383534700936,-0.0131250727375,0.574161839,0.818727217292,0.00216175908075,0.0,0.818685662138,-0.574101194052,-0.011931156665,0.0,-0.0085274584059,0.00862038198565,-0.999926483031,0.0,0.657621023868,0.255499413914,0.303494587895,1.0,-0.01288,-0.016928,0.645
0.461890792587,0.524036364549,-0.124168929592,-1.39292452881,0.0774030922951,1.90764054363,0.154449240853,-0.00734186694835,-0.068581350936,0.000473695314953,-0.109799016887,-0.00589169255257,0.038063563759,-0.0126489535377,0.574156767952,0.818730831839,0.00213955911314,0.0,0.818689047988,-0.574096275299,-0.0119355055659,0.0,-0.00854381797771,0.00860465057922,-0.999926478879,0.0,0.657370685006,0.255174738098,0.303496992111,1.0,-0.01326,-0.0174274285714,0.664
0.461740160359,0.522890276782,-0.124175370398,-1.39473304431,0.0772963128323,1.90832759547,0.154204388119,-0.0122557202372,-0.0726300430479,-0.00139597476967,-0.114080873916,-0.00824218331131,0.0443806220141,-0.0140261765539,0.574152612438,0.818733694312,0.00215924267413,0.0,0.818692166896,-0.574092040059,-0.0119252801165,0.0,-0.00852418873076,0.00861485165928,-0.999926558572,0.0,0.657158161043,0.254901687785,0.303501591583,1.0,-0.01358,-0.017848,0.68
0.461589634628,0.52173406584,-0.124171033216,-1.39658299703,0.0771760322262,1.90905124047,0.153952256224,-0.011285057113,-0.0704825657684,0.000757580466644,-0.121639795364,-0.00994872280182,0.0416501343169,-0.0192909898753,0.574133215136,0.818747245488,0.00217857401141,0.0,0.818706041642,-0.574072639598,-0.0119066681005,0.0,-0.00849805559087,0.00861979130111,-0.999926738441,0.0,0.656941136412,0.254630533224,0.303496108942,1.0,-0.0139,-0.0182685714286,0.696
0.461413534475,0.520385558155,-0.124173840339,-1.39870968635,0.0770484220055,1.90985329739,0.153664398826,-0.0091941658712,-0.0820138951659,-0.0014177217039,-0.121544313126,-0.0079222218143,0.0442916092317,-0.0194112665239,0.57412297004,0.818754378315,0.00219776322153,0.0,0.818713408733,-0.574062302736,-0.0118984805056,0.0,-0.00848044326825,0.00863069535317,-0.99992679391,0.0,0.656687429575,0.254312278042,0.303500675305,1.0,-0.01426,-0.0187417142857,0.714
0.461241683044,0.519072627662,-0.12418493111,-1.40076795792,0.0769119627503,1.91059386312,0.153391629973,-0.0147983870914,-0.074393136597,-0.00234809127312,-0.12640333837,-0.00838925581233,0.0447960124276,-0.0163987548932,0.574120770961,0.818755953884,0.00218523036962,0.0,0.818714909586,-0.574060244175,-0.0118945273366,0.0,-0.00848442454736,0.00861814181513,-0.999926868412,0.0,0.656437173999,0.253994139574,0.303507319672,1.0,-0.0146,-0.0191885714286,0.731
0.461078312427,0.517795836,-0.124183730465,-1.40274543007,0.0767858723159,1.91129820696,0.15312158207,-0.0113454958352,-0.0843954300434,-0.001704464186,-0.122737359314,-0.0112463590642,0.0406099579367,-0.0133783621928,0.574103293967,0.818768204793,0.00218668187107,0.0,0.818727153333,-0.574042737069,-0.0118966934027,0.0,-0.00848554882705,0.00862039266263,-0.999926839469,0.0,0.656191620721,0.253697118354,0.30352313307,1.0,-0.01492,-0.0196091428571,0.747
0.460909002289,0.516531506282,-0.124189073596,-1.40475984237,0.0766571314322,1.91203469997,0.152844009568,-0.0108509965569,-0.0783147635012,-0.000228797376996,-0.124039140384,-0.0095694549859,0.0463090173934,-0.017984312492,0.574090314517,0.818777350083,0.00216994696679,0.0,0.818736107826,-0.574029854074,-0.0119020701523,0.0,-0.00849969476458,0.00860964289323,-0.999926811941,0.0,0.655945860889,0.25338962196,0.303515295045,1.0,-0.01524,-0.0200297142857,0.763
0.460730493526,0.515232668856,-0.124192204163,-1.40680063002,0.0765296521917,1.91281264909,0.152561133108,-0.0146281607774,-0.0813728058491,-0.000379561484476,-0.129331797531,-0.00778001949675,0.0476127960115,-0.0164179608397,0.574080592843,0.818784095182,0.00219665645286,0.0,0.818743240033,-0.574020066416,-0.0118834824028,0.0,-0.00846924456299,0.00862074022023,-0.999926974701,0.0,0.655704092035,0.253077735755,0.30352224884,1.0,-0.01556,-0.0204502857143,0.779
0.460542186707,0.513846605694,-0.124197984105,-1.40905449963,0.0763908596401,1.91361639603,0.152252064939,-0.01214568988,-0.0822182288167,-0.000914998476617,-0.133949468079,-0.00635373081317,0.0429625752198,-0.0170418565926,0.574066931412,0.818793824774,0.00213954931564,0.0,0.818752170475,-0.574006580673,-0.0119195464643,0.0,-0.00853169991387,0.00859454358019,-0.99992666927,0.0,0.655422054213,0.252733776157,0.303490901455,1.0,-0.0159,-0.0208971428571,0.796
0.460355502231,0.512449283499,-0.124198427155,-1.41133567437,0.0762610175887,1.91441484973,0.151950033617,-0.0109654718323,-0.0750151200823,-0.0007256507491,-0.135140949555,-0.00946624988156,0.0448533026069,-0.0178859565685,0.574057393826,0.818800685625,0.00207188657023,0.0,0.818757946786,-0.57399712027,-0.0119782051158,0.0,-0.00861867157264,0.00857271585703,-0.999926110792,0.0,0.655129765218,0.252392056138,0.303453412468,1.0,-0.01624,-0.021344,0.813
0.460141820283,0.510917744518,-0.124191618669,-1.41376899393,0.0761124937026,1.915335183,0.151599770565,-0.0128148957504,-0.0879514334823,0.00158235282369,-0.134262307871,-0.00492567591721,0.0459962402648,-0.0154978336684,0.574028110439,0.818821175349,0.00208761291717,0.0,0.818778586894,-0.573967720511,-0.0119761578189,0.0,-0.00860827493002,0.00858410926811,-0.999926102605,0.0,0.654834369349,0.252025857024,0.303447314363,1.0,-0.0166,-0.0218171428571,0.831
0.45994639861,0.509514129173,-0.124198828639,-1.41598152042,0.0759712206189,1.91617418743,0.151286038802,-0.0161878252493,-0.0902216366142,0.000105274593548,-0.139720186455,-0.00435401591692,0.0538241648282,-0.0195942872225,0.574013726106,0.818831210093,0.00210677985303,0.0,0.818788946507,-0.573953333367,-0.0119573866912,0.0,-0.00858205332573,0.00858887750802,-0.999926287055,0.0,0.654569263894,0.251683689053,0.30344962573,1.0,-0.01692,-0.0222377142857,0.847
0.459752435217,0.508107857683,-0.124199095414,-1.41820591142,0.0758285547506,1.91696840539,0.150976951513,-0.0110070017071,-0.0904595864143,0.000495170132471,-0.143743541322,-0.00458383086487,0.0540014837226,-0.024824064764,0.573996529839,0.818843324653,0.00208333961659,0.0,0.818800726814,-0.57393620786,-0.011972718075,0.0,-0.00860824196977,0.00857830377899,-0.999926152711,0.0,0.654289710603,0.251342037488,0.303443596589,1.0,-0.01724,-0.0226582857143,0.863
0.459510450853,0.506384708465,-0.124205398231,-1.42090053729,0.0756527309116,1.91795692449,0.150605418803,-0.017070167474,-0.0915597526799,0.00111735577142,-0.147518773505,-0.01130409222,0.0557272891352,-0.0150046710563,0.57398689589,0.81885005981,0.00209040593755,0.0,0.818807617144,-0.573926608633,-0.0119616433261,0.0,-0.0085952182472,0.00857763197309,-0.999926270508,0.0,0.653958983804,0.25092171173,0.30345183416,1.0,-0.01762,-0.0231577142857,0.882
0.459299413324,0.504877930005,-0.124216176348,-1.42321258183,0.0755116503333,1.91885847171,0.150291196256,-0.0118011382619,-0.096104419586,-0.000651839411401,-0.14687812992,-0.00680267631961,0.0599145236591,-0.0181004469064,0.57399166372,0.818846514771,0.00216843918388,0.0,0.818805165793,-0.573931133544,-0.0119122340831,0.0,-0.00850992044562,0.00861321809661,-0.999926694177,0.0,0.653687179474,0.250561249084,0.303482898675,1.0,-0.01794,-0.0235782857143,0.898
0.459090369277,0.503322791647,-0.124217130077,-1.4255433209,0.0753619113061,1.9197396491,0.149965683631,-0.0133445705185,-0.0917785539307,-6.01913469042e-05,-0.147270965401,-0.00411751643135,0.0584995369804,-0.0205967867303,0.573976382372,0.81885699297,0.00225487157981,0.0,0.818816830313,-0.573915571469,-0.0118601063354,0.0,-0.0084177871673,0.00865391434336,-0.999927122657,0.0,0.653404891431,0.250203611665,0.303536159587,1.0,-0.01826,-0.0239988571429,0.914
0.458866603614,0.501721783045,-0.124223547583,-1.4279165683,0.0752021397484,1.92060600982,0.149629988949,-0.0153100647829,-0.0946354576992,-0.000425560775457,-0.146064757401,-0.00530275618342,0.0537114047139,-0.0172526500236,0.57396236492,0.818866589049,0.00233664194211,0.0,0.818827574462,-0.573901325735,-0.0118075619968,0.0,-0.00832797644827,0.00869057038186,-0.999927556773,0.0,0.653094375147,0.249808325359,0.303604589859,1.0,-0.0186,-0.0244457142857,0.931
0.458628045537,0.500005436899,-0.124219007082,-1.43050221105,0.0750368502873,1.92150998677,0.149266049567,-0.0133538089341,-0.0960127404882,0.000218527499933,-0.150223143141,-0.0154359555492,0.0517894667924,-0.0238683604649,0.573948408933,0.818876306872,0.00235898874843,0.0,0.818837526538,-0.573887227268,-0.0118026443232,0.0,-0.00831127230042,0.00870590505802,-0.999927562361,0.0,0.65278514638,0.249423787001,0.303644531032,1.0,-0.01892,-0.0248662857143,0.947
0.458381394642,0.498353877989,-0.12422674531,-1.43312405565,0.074876844175,1.92248806192,0.14890437864,-0.0159607470481,-0.0877773665238,-0.00112402029358,-0.1546953188,-0.00287693712694,0.0604952771004,-0.0261671570764,0.573950169798,0.818875060818,0.00236310389188,0.0,0.818836314695,-0.573888952014,-0.0118028553619,0.0,-0.00830906466155,0.00870941380435,-0.999927550153,0.0,0.652462902101,0.249009593396,0.303633502189,1.0,-0.01926,-0.0253131428571,0.964
0.458104106102,0.496561666142,-0.124219028074,-1.43595406492,0.0747087758307,1.92351106718,0.148468200548,-0.0119812251704,-0.0937396353288,-8.97147977987e-08,-0.15530956729,-0.00752379930434,0.0562784391186,-0.0281949834626,0.573912607294,0.818901406192,0.00235648622226,0.0,0.818862387751,-0.573851224537,-0.0118283103682,0.0,-0.00833410794655,0.00871822223075,-0.999927264978,0.0,0.652106310933,0.248563555349,0.303624181554,1.0,-0.01962,-0.0257862857143,0.982
0.457838076066,0.49488142841,-0.124224475981,-1.43870020038,0.0745322376716,1.92445240162,0.148074386668,-0.0150001189076,-0.101767978257,-0.001108570331,-0.169863046642,-0.0110704709477,0.0584757159648,-0.0269509591316,0.573902422292,0.818908853091,0.00224653456444,0.0,0.818868304853,-0.573841369272,-0.0118966012528,0.0,-0.00845324036812,0.00866727109843,-0.999926707884,0.0,0.651749968788,0.24811901132,0.303569488441,1.0,-0.01996,-0.0262331428571,0.999
0.457551586254,0.493002810251,-0.124261800957,-1.4416505441,0.0743530140335,1.92550568221,0.147667980047,-0.0173910159807,-0.126451454887,-0.00822236882813,-0.187732495248,-0.00844070268974,0.0713801742926,-0.0330509747295,0.573930919355,0.818888939838,0.00222506641647,0.0,0.818848137866,-0.573869975041,-0.0119048629017,0.0,-0.00847202486437,0.00865472703205,-0.999926657558,0.0,0.651382664369,0.24762805571,0.303565610458,1.0,-0.0262285714286,-0.0344718367347,1.016
0.457237404002,0.490565909605,-0.124307759664,-1.4454625678,0.0741415354883,1.92694622478,0.147102024844,-0.0225805946603,-0.15434395306,-0.000874708328557,-0.249656945104,-0.0132696673102,0.0860737394775,-0.0352173495572,0.573892298311,0.81891584968,0.00228210068823,0.0,0.818875749409,-0.57383108985,-0.0118799937887,0.0,-0.00841933698095,0.00868676109771,-0.999926824796,0.0,0.65090662168,0.247040244328,0.303572941419,1.0,-0.0333102857143,-0.0437792326531,1.033
0.456769605024,0.487540866004,-0.124322963829,-1.45027979242,0.0738664660488,1.92871142337,0.146398673814,-0.0289986370087,-0.195292358113,-0.0016579669499,-0.306575668399,-0.0195189944012,0.110801382023,-0.0426687113395,0.573876265225,0.818927125378,0.00226769335344,0.0,0.818886559479,-0.57381482982,-0.0119201796861,0.0,-0.00846068530304,0.00869785926795,-0.999926379314,0.0,0.65029723714,0.246271293416,0.303536415969,1.0,-0.040392,-0.0530866285714,1.05
0.456249281674,0.484099785872,-0.124406275852,-1.45561178254,0.0735324929318,1.93072476463,0.14558270703,-0.028730059933,-0.228792280977,-0.00318660879253,-0.347643902594,-0.0178048468328,0.120890272879,-0.0563557904665,0.573867759865,0.81893285258,0.00235033061464,0.0,0.81889371428,-0.573806364897,-0.0118358445584,0.0,-0.00834428793402,0.00871704839985,-0.999927190312,0.0,0.649649394035,0.245380460848,0.303564844108,1.0,-0.0470571428571,-0.0618465306122,1.066
0.455543627998,0.479621667372,-0.124505484672,-1.46267950227,0.0731101342093,1.93316539288,0.144507028115,-0.0419546683385,-0.267003917003,-0.00526224207884,-0.416253816442,-0.032211388957,0.140426355805,-0.0623075205033,0.573867950053,0.818933086524,0.00221869340926,0.0,0.818892078139,-0.573806913352,-0.0119221412587,0.0,-0.00849049779054,0.00865877192924,-0.999926465854,0.0,0.648735310579,0.244183948577,0.303520766957,1.0,-0.0545554285714,-0.0717014204082,1.084
0.454811955348,0.475041684682,-0.124597251491,-1.46975200895,0.0726809832142,1.93574954576,0.143499184321,-0.047236719707,-0.291893671947,-0.00139359308151,-0.46761045611,-0.0246202505227,0.169921237172,-0.0683735380753,0.573935264118,0.818885728247,0.00228551426477,0.0,0.818845691041,-0.573874055993,-0.0118764061226,0.0,-0.00841398413078,0.00868793906201,-0.999926859618,0.0,0.64784769649,0.242985057026,0.303552154124,1.0,-0.0612205714286,-0.080461322449,1.1
0.453976787594,0.469986274066,-0.124650583803,-1.47752907474,0.0722222811189,1.93856846316,0.142320633493,-0.0472768638461,-0.328156474837,-0.00311225987581,-0.491313961659,-0.0233012601733,0.181486033085,-0.0761163072024,0.573941937481,0.818880789735,0.00237728936048,0.0,0.818841680644,-0.573880092193,-0.011861227797,0.0,-0.00834881328883,0.0087544482283,-0.999926825799,0.0,0.646853557336,0.241677083138,0.303590780252,1.0,-0.0678857142857,-0.0892212244898,1.116
0.452916549783,0.463629788301,-0.124691676213,-1.48714293868,0.0716061310082,1.94211487703,0.140751895855,-0.0603897857783,-0.363116651998,-0.00208049584163,-0.560443332567,-0.0381607716079,0.202642391658,-0.0878235452403,0.573842754961,0.818949573584,0.00261446091828,0.0,0.81891363598,-0.573780129289,-0.0117288933815,0.0,-0.00810540256381,0.00887172899568,-0.99992779483,0.0,0.645628724988,0.240056644336,0.303708170965,1.0,-0.075384,-0.0990761142857,1.134
0.451858954871,0.45750251651,-0.124749599695,-1.49666552854,0.0709766757656,1.94534374202,0.139338499823,-0.0695731342731,-0.401631823775,-0.0106069130443,-0.613223989304,-0.041703209193,0.207741463647,-0.0908295728383,0.57386425033,0.818934988944,0.00246028003449,0.0,0.81889683954,-0.573801968937,-0.0118327315669,0.0,-0.0082786837573,0.0088052667033,-0.99992696267,0.0,0.644344402618,0.23841577279,0.303675326657,1.0,-0.0820491428571,-0.107836016327,1.15
0.450563825594,0.449939594482,-0.12484904703,-1.50803325937,0.0701937005528,1.94948542731,0.137517920235,-0.0772176711937,-0.451108245307,-0.00478156415586,-0.647830419277,-0.0439840556322,0.251589915063,-0.104916369173,0.57381261481,0.818970407537,0.00270214075121,0.0,0.818936026225,-0.573750146819,-0.011631890518,0.0,-0.00797597402747,0.00888757703583,-0.999928694864,0.0,0.642870247693,0.236438290545,0.303819650074,1.0,-0.0895474285714,-0.117690906122,1.168
0.4494594502,0.443735854008,-0.124879115206,-1.51742493889,0.0695904624896,1.95287613899,0.136093052813,-0.0835581471988,-0.448072676167,0.000644045723828,-0.685825502494,-0.0394858128817,0.2430818162,-0.104813577113,0.573830654434,0.818957182243,0.00287412355812,0.0,0.818924893549,-0.573767454402,-0.0115617427914,0.0,-0.00781964429308,0.0089883468148,-0.999929028874,0.0,0.641622095882,0.234820449156,0.303894130821,1.0,-0.0953794285714,-0.125355820408,1.182
0.448004125096,0.435782499239,-0.124910259347,-1.52973060526,0.0687524874477,1.95706100843,0.134101266727,-0.0877777381167,-0.480549636891,-0.00138767629747,-0.721634271019,-0.0541015589506,0.256517774305,-0.125835345778,0.573726736064,0.819030512521,0.00272007094221,0.0,0.818995874345,-0.573663671318,-0.011683189515,0.0,-0.00800863700448,0.00893085701353,-0.999928048175,0.0,0.639908961832,0.232678798913,0.303836258868,1.0,-0.102461142857,-0.134663216327,1.199
0.446403717691,0.427214375318,-0.1249359133,-1.54258842675,0.0678566875738,1.96165527739,0.132007299098,-0.0985884438835,-0.507971401251,-0.00284958570498,-0.78151196734,-0.0543481961685,0.272965278487,-0.127675528454,0.573649774675,0.819083611218,0.00295309163109,0.0,0.819052173001,-0.573586143138,-0.0115421489956,0.0,-0.007760282051,0.0090400613373,-0.999929025138,0.0,0.638159489639,0.230414097954,0.303952832853,1.0,-0.109542857143,-0.143970612245,1.216
0.444635307952,0.418253641853,-0.125025430602,-1.5562768495,0.0668793656205,1.9662545395,0.129743439593,-0.1059405634,-0.538936828555,-0.00577952424792,-0.835956199534,-0.0623634331885,0.278481293195,-0.136749344273,0.573615779986,0.819107932121,0.00280702486728,0.0,0.819074608783,-0.573552641342,-0.0116146355155,0.0,-0.00790381572544,0.00896167354545,-0.999928606504,0.0,0.636230719572,0.227908313395,0.303925466139,1.0,-0.116624571429,-0.153278008163,1.233
0.442605468948,0.408205002744,-0.125130543485,-1.57141619947,0.0658266991782,1.97158077223,0.127221845283,-0.115796930164,-0.556600195452,-0.00483376979983,-0.858649141323,-0.05585621368,0.298841340911,-0.148219406557,0.573622267556,0.819102798288,0.00297437411487,0.0,0.81907181954,-0.57355878674,-0.0115073667654,0.0,-0.00771988654157,0.00903728183151,-0.99992936295,0.0,0.634126582809,0.225116464961,0.303985990373,1.0,-0.124122857143,-0.163132897959,1.251
0.44045862863,0.398206682166,-0.125244060449,-1.58646875552,0.0648114973146,1.97666039401,0.124708473473,-0.131424719839,-0.601848969227,-0.0101188786906,-0.87307471833,-0.0557627390452,0.320371597353,-0.148247729707,0.573727419076,0.819029069704,0.00299641122557,0.0,0.818997913953,-0.573663312894,-0.0115571311779,0.0,-0.00774684435738,0.00908487249765,-0.999928723207,0.0,0.631979016903,0.222255671391,0.304007934602,1.0,-0.131204571429,-0.172440293878,1.268
0.438180117922,0.387822044561,-0.125389094391,-1.60209671257,0.0635892312763,1.98199477975,0.12200666687,-0.136082889111,-0.621989015719,-0.00692090484435,-0.952233476465,-0.0746752696914,0.316769585345,-0.158151449562,0.573748731449,0.819014209168,0.00297745584894,0.0,0.818983729531,-0.573685763402,-0.011447381147,0.0,-0.00766759141039,0.00900658171181,-0.999930042317,0.0,0.629742064868,0.219228345728,0.304013000461,1.0,-0.138286285714,-0.181747689796,1.285
0.436043700775,0.378230411397,-0.125483572529,-1.61635354143,0.0625363645985,1.9866959552,0.119430519575,-0.143801177785,-0.650213976915,-0.00560137626665,-0.96676793165,-0.0638642111068,0.326439214864,-0.175292254408,0.573698015849,0.819049725336,0.00298009045806,0.0,0.819019201741,-0.57363495455,-0.0114556972683,0.0,-0.00767344938432,0.00901303562991,-0.999929939227,0.0,0.627633733618,0.216464857052,0.304056987599,1.0,-0.144534857143,-0.189960097959,1.3
0.43338913063,0.367086407408,-0.125614814234,-1.63308756904,0.0612799136972,1.99220645951,0.116483657962,-0.161855188552,-0.646704157807,-0.0109466662324,-0.995946827007,-0.0763576390903,0.327325287578,-0.167626908217,0.573810124897,0.818971588198,0.00286795956247,0.0,0.818939596596,-0.573747380814,-0.0115163812508,0.0,-0.0077862546655,0.00895707426244,-0.999929570049,0.0,0.625143303954,0.213126949623,0.304003947506,1.0,-0.151616571429,-0.199267493878,1.317
0.430568740593,0.355431968113,-0.125753303937,-1.65023068708,0.0599337267574,1.99788341352,0.113307051267,-0.172676857136,-0.681228376778,-0.0041024214162,-1.01397555574,-0.0750190233705,0.321506826793,-0.190312233956,0.57383781501,0.818951865512,0.0029581987816,0.0,0.81892152997,-0.573775355412,-0.0114068477086,0.0,-0.00764446483296,0.00896838590669,-0.999930562695,0.0,0.62257520865,0.20965594843,0.304075486058,1.0,-0.158698285714,-0.208574889796,1.334
0.427535594805,0.343322382582,-0.125898693912,-1.66799186959,0.0586140011629,2.00362473502,0.109963267019,-0.184024032059,-0.726713884973,-0.00341752152323,-1.03815576905,-0.0861534557028,0.343212971949,-0.200900745543,0.573915804857,0.818896981883,0.00302140688225,0.0,0.818867062498,-0.573852672676,-0.0114276384331,0.0,-0.00762436300095,0.00903280679678,-0.999930136305,0.0,0.619849050228,0.206013398676,0.304123720416,1.0,-0.16578,-0.217882285714,1.351
0.424367164445,0.330999251133,-0.125994110186,-1.68625488355,0.0571546898796,2.0094198967,0.106492936018,-0.192541824233,-0.732733028289,-0.00553006396503,-1.08172391945,-0.0870438582853,0.338364039551,-0.214249096806,0.573892778329,0.818913676224,0.00286649187987,0.0,0.818881558683,-0.573829905454,-0.0115316675575,0.0,-0.00779871165747,0.0089654306842,-0.999929398082,0.0,0.616793406935,0.202049472978,0.304049783957,1.0,-0.173278285714,-0.22773717551,1.369
0.421201472702,0.318878509315,-0.126027179579,-1.7037820436,0.0556620735387,2.01502508551,0.103043857108,-0.209134672871,-0.754781929878,-0.00170287180307,-1.10525648703,-0.0945150992495,0.343242079034,-0.20721400263,0.5737969748,0.81898054576,0.00294011556293,0.0,0.818949878598,-0.573734460457,-0.0114285663346,0.0,-0.0076730756083,0.00896565668912,-0.999930368031,0.0,0.614167885088,0.198649948455,0.30411444653,1.0,-0.179526857143,-0.235949583673,1.384
0.417634845857,0.305652380709,-0.126108617661,-1.72283537997,0.0540963914179,2.02102408765,0.099133881641,-0.212085353439,-0.787742098651,-0.0028877992414,-1.12712229181,-0.103508183399,0.350596204818,-0.233662772426,0.57367447559,0.819065991247,0.00304054925323,0.0,0.819036571165,-0.573611616392,-0.0113822465056,0.0,-0.00757886256147,0.00902019899676,-0.999930596018,0.0,0.611077604791,0.194642686476,0.304176490778,1.0,-0.186608571429,-0.245256979592,1.401
0.413552610114,0.291332750801,-0.126253669919,-1.74349364181,0.0524038630062,2.02727819847,0.0949139363149,-0.233661458802,-0.812771600476,-0.0109150800992,-1.12952369321,-0.0893134340198,0.362237926289,-0.235323173058,0.573747934577,0.8190147057,0.00299438086469,0.0,0.818984098297,-0.573684506999,-0.0114839046641,0.0,-0.0076878049027,0.00904139096913,-0.999929572973,0.0,0.607462818639,0.189910696963,0.304180929109,1.0,-0.194523428571,-0.255659363265,1.42
0.409489975058,0.277454251382,-0.126393574277,-1.76346420152,0.0507247874532,2.03327995853,0.0906616942285,-0.243575583332,-0.807560061905,-0.0123358971117,-1.19302029043,-0.0916112011631,0.333161057598,-0.256402878171,0.573713993474,0.819039058654,0.00283213569787,0.0,0.819005926067,-0.573650604586,-0.0116199753482,0.0,-0.00789270927453,0.00898625139425,-0.999928473655,0.0,0.604273723249,0.185774339381,0.304107270699,1.0,-0.201188571429,-0.264419265306,1.436
0.404836996225,0.262270433233,-0.126586814024,-1.78484370574,0.0488449279414,2.03976378369,0.0859809280459,-0.268863284941,-0.850627079586,-0.0132037364569,-1.19760395723,-0.107276741677,0.351093194598,-0.270480243478,0.573790822951,0.818984647346,0.00299763406964,0.0,0.818954066726,-0.573727361753,-0.0114846798303,0.0,-0.00768609975569,0.00904490264546,-0.999929554322,0.0,0.600661442917,0.180914744837,0.30420493612,1.0,-0.208686857143,-0.274274155102,1.454
0.400149315004,0.247658029496,-0.126749428489,-1.8054120373,0.0470179932142,2.04572582099,0.0813690269357,-0.278297665009,-0.869431916489,-0.0119879791156,-1.21382332595,-0.113479624978,0.360068758053,-0.27691281339,0.573884188798,0.818919379991,0.00295530432776,0.0,0.818888008453,-0.573820564282,-0.0115384799314,0.0,-0.00775341971181,0.00904198855701,-0.999929060947,0.0,0.597079489436,0.17615497442,0.304218371063,1.0,-0.215768571429,-0.28358155102,1.471
0.395568397875,0.233549607147,-0.126881886241,-1.82504051509,0.0452599595663,2.05144579264,0.0767922876035,-0.294195901558,-0.902130768032,-0.00179283415659,-1.21985069436,-0.102917766792,0.377758316486,-0.287672499043,0.573858964839,0.818936580631,0.00308419843923,0.0,0.818906733709,-0.573794769099,-0.0114922296221,0.0,-0.00764185742871,0.00912076546762,-0.99992920432,0.0,0.593609055664,0.171607714318,0.304279654014,1.0,-0.222433714286,-0.292341453061,1.487
0.390469363838,0.218374619765,-0.126956590075,-1.84623398313,0.0432614590772,2.05743253406,0.0717121577731,-0.308927847046,-0.89806376539,-0.00497867583468,-1.23089809218,-0.123401955944,0.357821064845,-0.307550454196,0.573710837111,0.81904069209,0.00299449203248,0.0,0.819009518377,-0.573646747333,-0.0115570317694,0.0,-0.00774804785849,0.00908308672581,-0.999928730105,0.0,0.589754500369,0.166673697766,0.3042311412,1.0,-0.229515428571,-0.30164884898,1.504
0.385322435972,0.203706992224,-0.127127751935,-1.86644296368,0.041355110077,2.06302293051,0.0667650485478,-0.323900822232,-0.895475942716,-0.0145877551109,-1.28040760399,-0.124927136841,0.333292907003,-0.32105316897,0.573758847623,0.819007087561,0.00298700527968,0.0,0.818975622172,-0.57369454786,-0.0115863257337,0.0,-0.00777580395961,0.00909421650034,-0.999928413487,0.0,0.586040401743,0.161791798013,0.304236192551,1.0,-0.236180571429,-0.31040875102,1.52
0.379867587596,0.188701097889,-0.127319285472,-1.88674704597,0.0393850905052,2.06859163738,0.061528172125,-0.351766614296,-0.937313591766,-0.0109425818569,-1.28591165329,-0.129207089053,0.351672804809,-0.334368711718,0.573777067973,0.818993709148,0.00315080066423,0.0,0.818964589495,-0.573712517653,-0.0114758504035,0.0,-0.00759114165893,0.00916515042715,-0.999929184786,0.0,0.582272900287,0.156758140922,0.304337906419,1.0,-0.242845714286,-0.319168653061,1.536
0.373311505446,0.171573673382,-0.127563138963,-1.90988232912,0.0371615269336,2.07472553267,0.0554343393218,-0.36667438269,-0.958239854693,-0.00729781176611,-1.29180045046,-0.12400113782,0.335061462521,-0.338823643086,0.573954831983,0.818868833994,0.00322962192976,0.0,0.818840256279,-0.573889437801,-0.0115019467569,0.0,-0.00756528547113,0.00924632038733,-0.999928633461,0.0,0.577889232925,0.150875873136,0.304375245423,1.0,-0.250344,-0.329023542857,1.554
0.36729566699,0.156092424544,-0.127716254304,-1.93060316845,0.0350246874703,2.08010337738,0.0497174501228,-0.378288437966,-0.971086108327,-0.0107088942152,-1.28729906767,-0.127331084442,0.352168469585,-0.35945359233,0.573865840373,0.818931039507,0.00327057874624,0.0,0.81890319155,-0.573800580168,-0.0114544301397,0.0,-0.00750387287203,0.00925177167692,-0.999929045789,0.0,0.573864323768,0.145607824305,0.304409670761,1.0,-0.257009142857,-0.337783444898,1.57
0.360575311242,0.139411561045,-0.127887605516,-1.95287626213,0.0326951611833,2.08562978106,0.0434631130248,-0.40632978614,-1.01266504531,-0.0180942416691,-1.29968394901,-0.132667336096,0.343195884416,-0.385789961976,0.57383397569,0.818953817952,0.00315583700456,0.0,0.81892420696,-0.573768731163,-0.011547003722,0.0,-0.00764588939726,0.00921063170259,-0.999928349753,0.0,0.56942511044,0.139857765486,0.304371034972,1.0,-0.264090857143,-0.347090840816,1.587
0.353462914709,0.122413918475,-0.128092616126,-1.97531670452,0.0303454438554,2.09105065833,0.0368031339018,-0.427993743206,-1.00846352848,-0.010575608127,-1.3075563696,-0.13312636392,0.313444585935,-0.389428990054,0.573763841609,0.819003142508,0.00310701233845,0.0,0.818972327538,-0.573698079816,-0.0116441763466,0.0,-0.00775427930119,0.00922574210365,-0.99992737578,0.0,0.564873106717,0.133933496865,0.304348635336,1.0,-0.271172571429,-0.356398236735,1.604
0.345839568092,0.105020636304,-0.128382114828,-1.99791268979,0.0278669891071,2.0964395649,0.0299107972608,-0.454402704712,-1.02009547145,-0.00784248543619,-1.3392702773,-0.140399228853,0.299806605835,-0.416743953124,0.573889987843,0.818914461739,0.00318325455512,0.0,0.818884934942,-0.573824322468,-0.0115696659716,0.0,-0.00764808514268,0.00924661268903,-0.999928000882,0.0,0.560247799576,0.127739644866,0.304393745689,1.0,-0.278254285714,-0.365705632653,1.621
0.338499721219,0.0884525579245,-0.128535789153,-2.01914550822,0.0255344643604,2.10130858297,0.0230999587677,-0.471994155141,-1.03910174047,-0.0171447826025,-1.35226357143,-0.139169927112,0.301919142646,-0.434104847047,0.57373432413,0.819022985093,0.00331995566492,0.0,0.818995045962,-0.573668030541,-0.011526158333,0.0,-0.00753578126388,0.00933215957635,-0.999928058811,0.0,0.555772288786,0.12197186959,0.304463567458,1.0,-0.284919428571,-0.374465534694,1.637
0.330218199158,0.0705443797904,-0.128753658868,-2.04185071529,0.022989001386,2.10627912304,0.0154924255067,-0.492439208965,-1.05367735218,-0.0133257461339,-1.35197644429,-0.147677666712,0.281859859675,-0.45544791405,0.573627937652,0.819097016764,0.00343702976961,0.0,0.819070297961,-0.573560934443,-0.0115086219947,0.0,-0.00745547547757,0.0094170174043,-0.999927865233,0.0,0.550892937161,0.115622722829,0.304534473905,1.0,-0.28998,-0.381116571429,1.654
0.321466110492,0.0526623336604,-0.129085740964,-2.06434040634,0.020336746507,2.11102371511,0.00770274669078,-0.515108588338,-1.04347960752,-0.0166472259652,-1.3126847191,-0.147610544803,0.267298463974,-0.453771207138,0.573751843469,0.819010052466,0.0034789333176,0.0,0.818984104077,-0.573684989155,-0.0114593799489,0.0,-0.00738967782482,0.00942421290227,-0.999928285865,0.0,0.545990336486,0.109057855815,0.304574106739,1.0,-0.28998,-0.381116571429,1.671
0.312489840348,0.0349463844478,-0.129259411215,-2.08644768435,0.0177635176303,2.11542395279,-0.0002390663133,-0.535009653037,-1.05060557745,-0.00968548149589,-1.27776638254,-0.15433021702,0.273070721799,-0.479204689935,0.573784281749,0.818987284866,0.00348886049347,0.0,0.818960715192,-0.573716438631,-0.0115560337922,0.0,-0.00746277180359,0.00948809290946,-0.999927138911,0.0,0.541027701506,0.102598097584,0.304570911057,1.0,-0.28998,-0.381116571429,1.688
0.304363921704,0.019530294231,-0.129425883719,-2.1055215918,0.015402438052,2.11900488632,-0.00744626821952,-0.54321734374,-1.02618997219,-0.00543675639325,-1.24652336738,-0.146677721327,0.216970666981,-0.479277530543,0.573745497179,0.819014901614,0.00338264736623,0.0,0.818986710596,-0.573677684355,-0.0116374069691,0.0,-0.00759080656229,0.00944743497931,-0.999926560117,0.0,0.536656027442,0.096883038414,0.304543659633,1.0,-0.28998,-0.381116571429,1.703
0.294798056682,0.00204001680275,-0.129724051791,-2.12669474224,0.0127505316348,2.12285382831,-0.0157655353716,-0.569804803142,-1.02093723062,-0.0139457809604,-1.25332897969,-0.148805419447,0.206803793571,-0.489954360865,0.573921914391,0.818890903791,0.0034743016138,0.0,0.818864034433,-0.573853956097,-0.0115791659847,0.0,-0.00748847614896,0.00949070047069,-0.999926921995,0.0,0.531746926993,0.0902952957123,0.304619528537,1.0,-0.28998,-0.381116571429,1.72
0.285713110814,-0.0142206322742,-0.129842027769,-2.14615251115,0.0103391615639,2.12632876548,-0.0238527120993,-0.574111597229,-1.00432086148,-0.0124018601385,-1.2160000535,-0.152727969708,0.212833351885,-0.504418229529,0.573803872975,0.818972776235,0.00366797566471,0.0,0.818948455283,-0.573735402714,-0.0114831252021,0.0,-0.00730005998029,0.00959312941694,-0.999927337856,0.0,0.526848784497,0.0838939646953,0.30468754976,1.0,-0.28998,-0.381116571429,1.737
0.27572916204,-0.0313156725067,-0.130072838835,-2.16641911266,0.00760873549696,2.12960210019,-0.0325487024838,-0.593608374264,-1.01145667763,-0.0125597131204,-1.18588325007,-0.158096254023,0.205904655786,-0.505764536873,0.573834647157,0.818951105593,0.00369205521352,0.0,0.818927619528,-0.573766795169,-0.011400247242,0.0,-0.00721800536435,0.00956556700757,-0.999928197585,0.0,0.522231119361,0.0777715186912,0.304749439995,1.0,-0.28998,-0.381116571429,1.753
0.265419207393,-0.0482165255237,-0.13033079284,-2.1864133406,0.00506868142678,2.13257308764,-0.0415664680552,-0.608164958429,-1.00342573764,-0.00819732762758,-1.13747221052,-0.146642809858,0.17358258066,-0.530886047217,0.573930370049,0.81888419396,0.00365432892564,0.0,0.818858966665,-0.57386096755,-0.0115900619444,0.0,-0.00739398415738,0.00964445423417,-0.999926154024,0.0,0.517263740191,0.0712333733984,0.304705172331,1.0,-0.28998,-0.381116571429,1.77
0.254972879633,-0.06494320679,-0.130511956655,-2.20594785405,0.00238343853407,2.135378464,-0.0507212795615,-0.623355210596,-0.981512004195,-0.016841041982,-1.15990920443,-0.163981529329,0.145690502728,-0.548902212305,0.573857978564,0.818935136817,0.00360680272857,0.0,0.818909384592,-0.573788850988,-0.0115983279392,0.0,-0.00742887811331,0.00960962264374,-0.99992623074,0.0,0.512318458675,0.0647914438261,0.304677157203,1.0,-0.28998,-0.381116571429,1.787
0.243505696922,-0.0825169721212,-0.13081847459,-2.22600659171,-0.000390389106305,2.13799958894,-0.0607528224567,-0.642351237392,-0.957309364696,-0.0169077812943,-1.1032437672,-0.154733109755,0.137888007247,-0.57708666356,0.573919249719,0.818891773922,0.00370193260863,0.0,0.818867346412,-0.573849944572,-0.0115436994146,0.0,-0.00732882777166,0.00965672896082,-0.999926515235,0.0,0.507143318866,0.0578724796415,0.304735571764,1.0,-0.28998,-0.381116571429,1.805
0.231893759456,-0.0999202649892,-0.130976579342,-2.24575625995,-0.00310917189278,2.1402994897,-0.0709787213868,-0.654112660875,-0.960784239335,-0.00956912917619,-1.08697270696,-0.154696661712,0.127457069963,-0.577338913916,0.573801395942,0.818974361958,0.00370126617047,0.0,0.818949230787,-0.573731196211,-0.0116369578574,0.0,-0.00740698087624,0.0097086386677,-0.999925436705,0.0,0.501891027557,0.0511143959685,0.30472453424,1.0,-0.28998,-0.381116571429,1.823
0.221177192631,-0.115112130212,-0.131248999938,-2.26301259574,-0.00561733281388,2.14201860287,-0.0802781090813,-0.683842373304,-0.957867435409,-0.0273107921094,-1.06786344201,-0.151993961416,0.106469555598,-0.596230898282,0.573881605671,0.818919289495,0.00344192757334,0.0,0.818889735969,-0.573810920997,-0.0118900870405,0.0,-0.00776215544596,0.00964224704729,-0.999923385072,0.0,0.497186247629,0.0449610482577,0.304603191853,1.0,-0.28998,-0.381116571429,1.839
0.20953058951,-0.131259649974,-0.13148023507,-2.28079372048,-0.00813983089804,2.14371689035,-0.0904505179016,-0.683612055424,-0.945371574656,-0.00622726850554,-1.03671497869,-0.145891943682,0.0976245178566,-0.597053762623,0.5739271303,0.818886935988,0.00354712191966,0.0,0.818858262629,-0.57385545051,-0.0119085912782,0.0,-0.00771640314116,0.00973944122508,-0.999922797223,0.0,0.492266661871,0.038487640267,0.304637440298,1.0,-0.28998,-0.381116571429,1.856
0.199052910632,-0.145449981065,-0.131694213548,-2.29619277246,-0.0104081675636,2.14506172333,-0.0997008441702,-0.707560748261,-0.952828255486,-0.00913380685431,-1.00862847,-0.150615796193,0.0947482645153,-0.602812706441,0.573870457707,0.818926121666,0.00366768657367,0.0,0.818899173459,-0.57379856233,-0.0118364047771,0.0,-0.00758877388297,0.00979621713828,-0.999923219373,0.0,0.48792253426,0.0327852903002,0.304688751015,1.0,-0.28998,-0.381116571429,1.871
0.186822274064,-0.161187815007,-0.132017779961,-2.3133449357,-0.013025401994,2.146237782,-0.110345553282,-0.714008453579,-0.926922575568,-0.00642477135433,-1.00929775174,-0.152584033284,0.0658322742054,-0.626280595723,0.573982603495,0.818848202556,0.00351268520966,0.0,0.81881836604,-0.573910144503,-0.0120156720052,0.0,-0.00782319636847,0.00977322602897,-0.999921637755,0.0,0.482945798539,0.026236232532,0.304608757519,1.0,-0.28998,-0.381116571429,1.888
0.173019865052,-0.178726016073,-0.132218843356,-2.33183211155,-0.0157742652834,2.14732440066,-0.122632463597,-0.744074462955,-0.910544198444,-0.0145772979502,-0.969198056588,-0.147361264775,0.0387412729482,-0.647991560425,0.573818503059,0.818962407146,0.00369433751819,0.0,0.818934704117,-0.573745100349,-0.0119690066017,0.0,-0.00768270632346,0.00989364913705,-0.999921542787,0.0,0.477461956172,0.0191238358988,0.304692465352,1.0,-0.28998,-0.381116571429,1.907
0.160907114108,-0.193339040586,-0.132533237685,-2.34702677888,-0.0182077696042,2.14809300759,-0.133222557456,-0.754127566806,-0.906122169723,-0.0122389220018,-0.933577413486,-0.150577643184,0.0491219941421,-0.665749548772,0.573922270216,0.818889108008,0.00382144430848,0.0,0.818863853354,-0.573849442136,-0.0118133116475,0.0,-0.00748100258558,0.00990935603714,-0.999922916661,0.0,0.472863352816,0.0129560266596,0.304767738265,1.0,-0.28998,-0.381116571429,1.923
0.149513514501,-0.206857505767,-0.132706115196,-2.36107388393,-0.0203233266492,2.14855427435,-0.1434689721,-0.755943343567,-0.91382628544,-0.0170390552099,-0.928471788305,-0.142347327504,0.0287815693393,-0.682009838814,0.573746672897,0.819011892906,0.00387576044966,0.0,0.818986428572,-0.573672467591,-0.0119111983078,0.0,-0.00753214102894,0.0100083983006,-0.99992154633,0.0,0.468485970874,0.00734695527743,0.304760587228,1.0,-0.28998,-0.381116571429,1.938
0.136093471358,-0.221994583591,-0.133071111436,-2.37644799017,-0.0228494159753,2.14891428312,-0.155220032114,-0.79298160964,-0.887045014668,-0.0115193894015,-0.89590200171,-0.15128994196,0.0182268547965,-0.694863037771,0.57391120041,0.818896104192,0.00398139230371,0.0,0.818872522024,-0.573837289395,-0.0118027485815,0.0,-0.0073806955658,0.0100341755524,-0.999922417317,0.0,0.463597116377,0.000792743923252,0.304827335783,1.0,-0.28998,-0.381116571429,1.955
0.121734417225,-0.237720734041,-0.133301341059,-2.39247505014,-0.0254911282889,2.14905043651,-0.168058782989,-0.800288931103,-0.858732591126,-0.0139865025036,-0.874348865975,-0.150689627028,0.000517670975327,-0.722859762429,0.573755081196,0.819005886583,0.00390018535986,0.0,0.818980866675,-0.573680957402,-0.0118846975607,0.0,-0.00749631951857,0.0100132755867,-0.999921766693,0.0,0.458061325733,-0.00636910305905,0.304780307415,1.0,-0.28998,-0.381116571429,1.974
0.107681775838,-0.252390011218,-0.13368507662,-2.40702290893,-0.0278463828409,2.14907470581,-0.180544033322,-0.824703409104,-0.821253399251,-0.0166196451495,-0.864995276885,-0.139491343695,-0.010375080417,-0.740588341307,0.573887555312,0.818912093906,0.00409917230854,0.0,0.818889656013,-0.573812722679,-0.0118083643038,0.0,-0.00731799600868,0.0101336382282,-0.999921875104,0.0,0.453475106827,-0.0125252536682,0.30482572303,1.0,-0.28998,-0.381116571429,1.99
0.0934716719783,-0.266905460416,-0.133943249607,-2.42133151849,-0.0302248456309,2.14890909423,-0.193274485985,-0.844311158395,-0.855636564029,-0.0136724003786,-0.806227287541,-0.147323476394,-0.0164857760942,-0.758280890505,0.573824832761,0.818955578314,0.0041915337993,0.0,0.818934426604,-0.573749824252,-0.0117597191819,0.0,-0.00722593496436,0.0101808062334,-0.999922065487,0.0,0.448549276707,-0.0189404372153,0.304831940076,1.0,-0.28998,-0.381116571429,2.007
0.0788626630388,-0.281109472285,-0.134281513492,-2.43513631466,-0.032619252361,2.14857130095,-0.206393103737,-0.862670940113,-0.811517373465,-0.00346053394837,-0.824725052824,-0.139576485749,-0.0229470746837,-0.781818101457,0.573817238376,0.818960489661,0.00427085675998,0.0,0.818940784088,-0.573742569473,-0.0116706054815,0.0,-0.00710752929038,0.0101945696684,-0.999922773906,0.0,0.443656279854,-0.0254346360876,0.304844734379,1.0,-0.28998,-0.381116571429,2.024
0.0639770455028,-0.295155709249,-0.134606879355,-2.44853360006,-0.0348616596873,2.1480028267,-0.219833573965,-0.898531217199,-0.796821909423,-0.0289930775632,-0.762102313916,-0.14095489912,-0.027396250838,-0.800038617278,0.57381998251,0.818957625277,0.00444776054018,0.0,0.818940131039,-0.573744648743,-0.0116140739194,0.0,-0.00695968958361,0.0103070357353,-0.999922660877,0.0,0.438756231313,-0.0318880421953,0.30488850299,1.0,-0.28998,-0.381116571429,2.041
0.0496950121888,-0.308124058848,-0.13489395586,-2.4608068546,-0.0370605323971,2.14733346753,-0.232733528833,-0.893179563936,-0.7817870384,-0.0156332704625,-0.757836261718,-0.137446205883,-0.05347237051,-0.80939360136,0.573776819222,0.818987603146,0.00449605586854,0.0,0.818971144422,-0.573701959908,-0.0115357142482,0.0,-0.00686834313598,0.0103012637801,-0.999923351976,0.0,0.434135477057,-0.037958756888,0.304903644738,1.0,-0.28998,-0.381116571429,2.057
0.0360083504249,-0.320072298182,-0.135228352673,-2.47203114495,-0.039057469228,2.14649609788,-0.245146247624,-0.919218750081,-0.791022675568,-0.0302985004258,-0.72149928193,-0.130099402527,-0.0490264451623,-0.833315160247,0.573803875343,0.818968435993,0.00453435662678,0.0,0.818952161701,-0.57372843137,-0.0115667966682,0.0,-0.00687148435943,0.0103506931979,-0.999922819948,0.0,0.429485825877,-0.044070748137,0.304900934151,1.0,-0.28998,-0.381116571429,2.073
0.0193497936082,-0.3341767579,-0.135528791633,-2.48494345402,-0.0413334024873,2.14551341251,-0.260392478389,-0.925430346664,-0.770913760974,-0.0179365379445,-0.732372283727,-0.123832804119,-0.0650825547795,-0.846413962824,0.573688158761,0.81904832953,0.00474102229789,0.0,0.819035372171,-0.573613143501,-0.0113915599254,0.0,-0.00661085270336,0.0104184685891,-0.999923873172,0.0,0.424615188563,-0.0504730556126,0.30496417893,1.0,-0.28998,-0.381116571429,2.09
0.00410672212323,-0.346343618942,-0.135898697138,-2.49614299274,-0.0434409217604,2.14433074403,-0.27420569039,-0.955815218767,-0.743634249989,-0.0150317393233,-0.691493748862,-0.131608450515,-0.0731713629303,-0.878340620039,0.573774286485,0.818988380474,0.00467415435851,0.0,0.818973956579,-0.573698502626,-0.0115079725202,0.0,-0.00674347025304,0.0104311902431,-0.999922854964,0.0,0.419944005279,-0.0566096704292,0.304920591964,1.0,-0.28998,-0.381116571429,2.106
-0.0122726302641,-0.359105963862,-0.136208471638,-2.50741343694,-0.0455898971815,2.14310791748,-0.289296005845,-0.967706499,-0.738150922737,-0.023681078148,-0.662277660737,-0.117844500697,-0.072810354628,-0.885153913349,0.573659808427,0.819067467362,0.00486364117935,0.0,0.819057041235,-0.573586011598,-0.0111980982459,0.0,-0.00638240430472,0.0104076988289,-0.999925469583,0.0,0.415106189802,-0.0630557411149,0.305043049724,1.0,-0.28998,-0.381116571429,2.123
-0.030988455195,-0.37285546208,-0.136611460026,-2.51982521407,-0.0478917625239,2.1414210516,-0.306565904133,-0.990903901358,-0.713952097151,-0.0180706784243,-0.645230054177,-0.120494507033,-0.0950213330166,-0.917509936322,0.573614615379,0.819099432682,0.00481033321397,0.0,0.819086872434,-0.573538634877,-0.0114401315832,0.0,-0.00661182064278,0.0105025096714,-0.999922987594,0.0,0.409543128677,-0.0702624218293,0.304961868936,1.0,-0.28998,-0.381116571429,2.142
-0.0461324185869,-0.383518687123,-0.13697710224,-2.52903029988,-0.0497115509443,2.14008025983,-0.320424368318,-1.01614512899,-0.696645909155,-0.0230645633226,-0.604544263005,-0.122718047017,-0.0834774991724,-0.935381663025,0.573741490536,0.819009823719,0.00493534102598,0.0,0.818999678904,-0.573666455474,-0.0112725649487,0.0,-0.00640122508195,0.0105097832773,-0.99992428152,0.0,0.405235181784,-0.0760297844477,0.305043881431,1.0,-0.28998,-0.381116571429,2.157
-0.0623950011035,-0.394475955994,-0.137260637418,-2.53863572531,-0.0516132756735,2.13859539266,-0.335598445963,-1.02712272649,-0.682904398382,-0.0185030224695,-0.591250628334,-0.117892197506,-0.0982200458979,-0.965248418719,0.573580726818,0.8191225764,0.00490933354163,0.0,0.81911202042,-0.573505658978,-0.0112917680143,0.0,-0.00643393541322,0.0104982367445,-0.999924192877,0.0,0.400607374029,-0.0820663074412,0.30501711417,1.0,-0.28998,-0.381116571429,2.173
-0.0800922385715,-0.405821484618,-0.137661690026,-2.54849143517,-0.05343657171,2.13674286674,-0.351979317049,-1.04371087595,-0.648545087952,-0.0158121196833,-0.56594955406,-0.108947790871,-0.11484426387,-0.96980404492,0.573706245617,0.819034483621,0.00494017018957,0.0,0.819022345357,-0.573627864473,-0.0115852409096,0.0,-0.00665502065977,0.0106928407122,-0.999920683783,0.0,0.395613104162,-0.0885297432971,0.304960864091,1.0,-0.28998,-0.381116571429,2.19
-0.098111801513,-0.41686592542,-0.138097984648,-2.55764584283,-0.05533147722,2.1351269163,-0.368809355103,-1.07632358505,-0.642452329158,-0.0269711109866,-0.540292218232,-0.110141454318,-0.0936431292284,-0.980992261371,0.573740769512,0.819008966503,0.00515646078731,0.0,0.819001271478,-0.573664513452,-0.0112556752026,0.0,-0.00626054088107,0.0106811933393,-0.999923355931,0.0,0.39076455656,-0.0950644969558,0.305081187339,1.0,-0.28998,-0.381116571429,2.207
-0.11639010244,-0.427408870958,-0.138394894804,-2.56665272934,-0.0572203232881,2.13319964322,-0.385946667823,-1.0833000884,-0.614695816751,-0.023618679668,-0.526122978854,-0.114594159868,-0.125740248004,-1.00568732528,0.573631450014,0.81908642518,0.00501343605034,0.0,0.819075734333,-0.573553675315,-0.0114834602994,0.0,-0.00653059750698,0.0106938636872,-0.999921493206,0.0,0.385774569238,-0.101500074883,0.305008406453,1.0,-0.28998,-0.381116571429,2.224
-0.134928805523,-0.437535647115,-0.13877546625,-2.57518747504,-0.058965851034,2.13133946735,-0.403386849924,-1.09299869205,-0.586173732481,-0.0231098002092,-0.489185294364,-0.0915725589605,-0.102420506072,-1.03218460278,0.573625691116,0.819090417727,0.00502005782126,0.0,0.819078755124,-0.573546174694,-0.0116415333407,0.0,-0.00665636160249,0.0107899130584,-0.999919632084,0.0,0.380814163634,-0.10794652726,0.304955659601,1.0,-0.28998,-0.381116571429,2.241
-0.153872071878,-0.44732117524,-0.139159081033,-2.58293709136,-0.0606174756636,2.12957891066,-0.421193433827,-1.12694002651,-0.57243186454,-0.0168953651357,-0.452876832983,-0.108747727629,-0.100842695995,-1.0603537674,0.573722084263,0.819021448828,0.00525197966959,0.0,0.81901450027,-0.573644755619,-0.0112999822318,0.0,-0.00624227740834,0.0107847045017,-0.999922359047,0.0,0.375979579774,-0.114480947616,0.305102556951,1.0,-0.28998,-0.381116571429,2.258
-0.176419387589,-0.458120313345,-0.139591293116,-2.59188721352,-0.0625885032291,2.12727977848,-0.442570637732,-1.13425633654,-0.531930412855,-0.0260306919696,-0.424927945712,-0.0961182808431,-0.120950077759,-1.07449224134,0.5736730877,0.819056366877,0.00515783172336,0.0,0.819046617659,-0.573593347507,-0.011578285598,0.0,-0.00652489619697,0.0108668646976,-0.999919665264,0.0,0.370116397455,-0.122078894163,0.305018793244,1.0,-0.28998,-0.381116571429,2.278
-0.193455712957,-0.465786818834,-0.139835781225,-2.59816330122,-0.0639731176792,2.12569207271,-0.458892747333,-1.14260542319,-0.502320767948,-0.0158743666806,-0.414348990161,-0.0970317489269,-0.105241363041,-1.09300838642,0.573501277756,0.819176820554,0.00513497610096,0.0,0.8191663345,-0.573420908217,-0.0116501220097,0.0,-0.00659913430126,0.0108879690361,-0.999918948494,0.0,0.365777947694,-0.127714097309,0.304978009189,1.0,-0.28998,-0.381116571429,2.293
-0.210911846677,-0.473107874857,-0.140145798964,-2.6039263261,-0.0652485787283,2.12414203622,-0.475395059058,-1.16147413406,-0.467230617926,-0.0103287896126,-0.370190211958,-0.0695942630812,-0.102109318711,-1.09608800694,0.573642483669,0.819077231616,0.00524752123893,0.0,0.819068620993,-0.573562437642,-0.0115529706801,0.0,-0.00645311841078,0.0109255651305,-0.999919491404,0.0,0.361461638091,-0.133466783876,0.305021787112,1.0,-0.285521142857,-0.375256359184,2.308
-0.230582892314,-0.4807244767,-0.140394243712,-2.60989592074,-0.0665015367335,2.12243608815,-0.494080134829,-1.14808348147,-0.438020347508,-0.00446707176152,-0.343428946674,-0.0760272149442,-0.102720353073,-1.09906456432,0.573759004362,0.818994708956,0.00538688369692,0.0,0.818987902823,-0.573678518866,-0.0115116863533,0.0,-0.00633779277615,0.0110169383925,-0.999919226463,0.0,0.356671734584,-0.139836128075,0.305055578859,1.0,-0.278439428571,-0.365948963265,2.325
-0.250045377769,-0.487751580751,-0.140487191297,-2.61555775182,-0.0676408729393,2.12070072362,-0.512664444147,-1.1495840284,-0.401651135189,-0.00970396178526,-0.331213916783,-0.0559598328886,-0.104459419449,-1.09706351351,0.57373772694,0.819009504678,0.00540359451154,0.0,0.819001348547,-0.573654489577,-0.0117500880109,0.0,-0.00652376311297,0.0111672349825,-0.999916363191,0.0,0.351904852088,-0.14597512228,0.304990587756,1.0,-0.271357714286,-0.356641567347,2.342
-0.268251743448,-0.493745574584,-0.140497381279,-2.62028391521,-0.0685980389022,2.11926401902,-0.529967645628,-1.12681683836,-0.367996272987,0.000245246468162,-0.286010005328,-0.0499172124502,-0.0797180138049,-1.08931525386,0.573804964745,0.818962053185,0.00545571064826,0.0,0.818954186746,-0.573720869949,-0.0117961984145,0.0,-0.00653070955041,0.0112369106378,-0.999915537269,0.0,0.347566901968,-0.151662771414,0.304975656628,1.0,-0.264692571429,-0.347881665306,2.358
-0.287313234905,-0.499525124917,-0.140422480782,-2.62471945935,-0.069512617937,2.11786111584,-0.548133707284,-1.09579085582,-0.327280008839,0.0138574093125,-0.251937212139,-0.0500302644921,-0.0855069212537,-1.05909493121,0.573836903569,0.818939297627,0.00551196936783,0.0,0.818932562419,-0.573753303015,-0.0117197436114,0.0,-0.00643537187143,0.0112393689756,-0.99991612777,0.0,0.343109456542,-0.157554103227,0.305006804383,1.0,-0.257610857143,-0.338574269388,2.375
-0.306039507771,-0.50463882146,-0.140358726372,-2.62863741198,-0.0702327775526,2.11658276765,-0.566008198059,-1.10085213864,-0.28764485486,-0.00673306710035,-0.225331214119,-0.0473031495036,-0.0728654928552,-1.0479842319,0.573953268569,0.818856829533,0.00564669175648,0.0,0.818851821464,-0.573869151316,-0.0116892495103,0.0,-0.00633148148819,0.011333104991,-0.999915732986,0.0,0.338781180846,-0.163290426623,0.305025806553,1.0,-0.250529142857,-0.329266873469,2.392
-0.324373106678,-0.509235044019,-0.140115239735,-2.6320756682,-0.0709074387406,2.11546175196,-0.58361696278,-1.07634404798,-0.261240698732,0.0138665382437,-0.19409307491,-0.0402497943978,-0.0620237789104,-1.0107603525,0.57388306049,0.818905713484,0.00569317200647,0.0,0.818902335197,-0.573800664628,-0.0115112806572,0.0,-0.00616002621813,0.011268497778,-0.999917534117,0.0,0.334613816248,-0.168827164238,0.305081200881,1.0,-0.243447428571,-0.319959477551,2.409
-0.342387722705,-0.513267356811,-0.13991796539,-2.63519251479,-0.0714530620213,2.1143041356,-0.600966477883,-1.04863962488,-0.221710301039,0.0111271380314,-0.171312661151,-0.0207442076333,-0.0693279316209,-1.01489557041,0.573871458436,0.818913458493,0.00574835562826,0.0,0.818910001324,-0.57378743583,-0.0116247630886,0.0,-0.00622146049122,0.0113787247385,-0.99991590549,0.0,0.330486780528,-0.17420886495,0.30506365176,1.0,-0.236365714286,-0.310652081633,2.426
-0.359991335185,-0.516724629194,-0.139707137509,-2.63797850745,-0.0719035949404,2.1132991181,-0.61792801415,-1.0411954127,-0.197201146568,0.0208502235858,-0.15238709118,-0.0358884009131,-0.0538676689228,-0.980296703297,0.573892089369,0.818898635267,0.00580015681585,0.0,0.818894466099,-0.573805358681,-0.0118326092861,0.0,-0.00636166901578,0.0115405793768,-0.999913168328,0.0,0.326466597678,-0.179418555299,0.304993137751,1.0,-0.229284,-0.301344685714,2.443
-0.376129136421,-0.51950769809,-0.139391493393,-2.64019998894,-0.0722524506177,2.11253429736,-0.633530764858,-1.0003098348,-0.168823497314,0.0136678111881,-0.129663001529,-0.0191654886761,-0.0449233402143,-0.977085724179,0.573826981917,0.818944117444,0.00582015708098,0.0,0.818939682053,-0.573739234963,-0.0119094216838,0.0,-0.00641402184888,0.0116005284367,-0.999912140172,0.0,0.322848173614,-0.184152422411,0.304951045436,1.0,-0.222618857143,-0.292584783674,2.459
-0.394894308442,-0.522336847125,-0.139086712821,-2.64237163648,-0.0726014627167,2.11169524555,-0.651617991006,-0.971946608836,-0.141248474175,0.0279831059913,-0.112929758216,-0.0144336350299,-0.0402847495924,-0.940927268787,0.573889063342,0.818900176034,0.00588145982175,0.0,0.818896176857,-0.573800407564,-0.0119536901502,0.0,-0.00641421841907,0.0116766218173,-0.999911253215,0.0,0.318664690512,-0.189661072371,0.304939569004,1.0,-0.214704,-0.2821824,2.478
-0.410293484484,-0.524429611433,-0.138862932553,-2.64387982595,-0.0728272570273,2.11107223285,-0.666457404021,-0.966952900076,-0.126448588405,0.0091846210968,-0.0929965120999,-0.014926782189,-0.0385278850854,-0.92607830996,0.574002951761,0.818819630007,0.00598095189329,0.0,0.818817232288,-0.573914445361,-0.011886816878,0.0,-0.0063007256179,0.0117206001086,-0.999911460275,0.0,0.315244710334,-0.194172234233,0.304973982061,1.0,-0.208038857143,-0.273422497959,2.494
-0.426131958258,-0.526203148594,-0.138513037472,-2.64518310931,-0.0730035131983,2.11053465919,-0.681871209871,-0.921926573119,-0.101181718627,0.0120676779301,-0.0669780237258,-0.00836081101195,-0.033928923983,-0.898242469377,0.573950735214,0.818855884135,0.0060283883784,0.0,0.818854370317,-0.573862555457,-0.0118336198478,0.0,-0.00623068284284,0.0117285127917,-0.9999118064,0.0,0.311762603265,-0.198769395177,0.304994094103,1.0,-0.200957142857,-0.264115102041,2.511
-0.441621516955,-0.527627071573,-0.138239891275,-2.64625218716,-0.0731801645544,2.11009331826,-0.696811451219,-0.895910397094,-0.0773360947259,0.0210592888405,-0.0586453395454,-0.00843169254357,-0.0257872432641,-0.879986474046,0.57406901861,0.818772674687,0.00606761566151,0.0,0.81877180306,-0.573980914757,-0.0118063927514,0.0,-0.00618417524819,0.0117459030606,-0.999911890987,0.0,0.308344447631,-0.203272501983,0.304998174434,1.0,-0.193875428571,-0.254807706123,2.528
-0.457276964616,-0.528758791896,-0.137800185296,-2.64709958939,-0.0732257789188,2.10972286954,-0.712087970726,-0.871885539211,-0.055944292565,0.0212166712749,-0.04001250414,-0.00233677689199,-0.01797652288,-0.835867368078,0.573999335265,0.818821235853,0.00610685947218,0.0,0.818821034245,-0.573911402471,-0.0117712740857,0.0,-0.00613389100648,0.0117573548549,-0.999912066128,0.0,0.304930322153,-0.207762758672,0.305006257405,1.0,-0.186377142857,-0.244952816327,2.546
-0.470053222456,-0.529415576549,-0.137469104479,-2.64760723155,-0.0732326725745,2.10945394676,-0.724401557753,-0.826052484147,-0.0384236812226,0.0298821579601,-0.0287246450314,0.000890254026915,-0.00727856086441,-0.808354716118,0.574111767467,0.818742123932,0.00614490485594,0.0,0.818742232753,-0.574023313405,-0.0117957142622,0.0,-0.00613044753248,0.011803378737,-0.99991154502,0.0,0.302141438946,-0.211428779016,0.305000939042,1.0,-0.180128571429,-0.236740408163,2.561
-0.484729859668,-0.529901410636,-0.137024315871,-2.64800752279,-0.0732388577164,2.10922966133,-0.738758830854,-0.811370666694,-0.022075956815,0.0139350198493,-0.0176770865765,0.000150889544029,-0.0071418448396,-0.779215700876,0.574033628342,0.818796998422,0.00613317287559,0.0,0.818796817221,-0.573944971474,-0.0118189986472,0.0,-0.00615737543409,0.0118065524195,-0.999911342094,0.0,0.298951821714,-0.215624535951,0.304988683572,1.0,-0.172630285714,-0.226885518367,2.579
-0.497323325571,-0.530130170703,-0.136596329497,-2.64819764401,-0.0732276949359,2.10906106493,-0.751079001092,-0.763597953827,-0.0106426758567,0.0327727436889,-0.00539235057625,0.00133348526506,-0.0147681839793,-0.764036547273,0.573949362512,0.818856361216,0.00609392071654,0.0,0.818855521366,-0.573860592624,-0.011849146037,0.0,-0.00620580713458,0.0117910774545,-0.999911225285,0.0,0.296217799876,-0.219207949675,0.304982436116,1.0,-0.165965142857,-0.218125616327,2.595
-0.510175224676,-0.530236495617,-0.136146692231,-2.64828249035,-0.0731954668019,2.10896249811,-0.763580935025,-0.756799689025,-0.00323141927638,0.0226042190661,-0.0023664438387,0.00160809350259,-0.000891564471115,-0.723198364297,0.573927729647,0.818871828273,0.00605284257416,0.0,0.818870639258,-0.573839473739,-0.0118271485222,0.0,-0.00621167833031,0.0117446496885,-0.999911735233,0.0,0.293425354501,-0.22285543574,0.304985909944,1.0,-0.158883428572,-0.208818220408,2.612
-0.521185180109,-0.530195137296,-0.135765619987,-2.64828909266,-0.0731474613261,2.10888478837,-0.774271041232,-0.71609646116,0.00564202376616,0.0356042932889,0.000636112807799,0.00444524951269,-0.000343898889948,-0.701704647661,0.573941306061,0.818862529006,0.00602351124025,0.0,0.818860726617,-0.573852724099,-0.0118704823229,0.0,-0.00626380543923,0.0117456030582,-0.99991139885,0.0,0.291013054119,-0.225964711448,0.30497106482,1.0,-0.152634857143,-0.200605812245,2.627
-0.532977768762,-0.529978843811,-0.13528834864,-2.64817479968,-0.0730091595457,2.10889094068,-0.785863676107,-0.692766788104,0.0172337916899,0.0308327316228,0.00646127076909,0.0117881223881,0.00118031892789,-0.675410945763,0.573834358432,0.818937528311,0.00601670238457,0.0,0.818935594228,-0.573745744177,-0.0118768870829,0.0,-0.00627449196799,0.0117428837089,-0.999911363788,0.0,0.288454747813,-0.229276612829,0.304957042901,1.0,-0.145553142857,-0.191298416327,2.644
-0.544474174685,-0.529683907664,-0.134914880085,-2.6479450965,-0.0728435017052,2.10890772603,-0.796928533407,-0.656950041608,0.0250342474675,0.029239257587,0.0195828826152,0.0119461426304,0.00154165392377,-0.640899546194,0.574008098687,0.818815371753,0.00606931001501,0.0,0.818814277599,-0.573919537079,-0.0118444358421,0.0,-0.0062152302055,0.0117686663765,-0.99991143078,0.0,0.285938648098,-0.23252342659,0.304964992348,1.0,-0.138471428572,-0.181991020408,2.661
-0.555130616672,-0.529163307309,-0.134354705186,-2.64762000294,-0.0726081454828,2.10895470697,-0.807507061969,-0.61654844832,0.0335184239863,0.0305091005748,0.0206051870432,0.0121502827725,0.000745119984781,-0.627064622448,0.573796121079,0.818963981492,0.00606261951414,0.0,0.818962382116,-0.573706840518,-0.0119090185641,0.0,-0.00627501178561,0.0117986331373,-0.999910704255,0.0,0.283649586781,-0.235476470244,0.304941260592,1.0,-0.131389714286,-0.17268362449,2.678
-0.566103984546,-0.528532048986,-0.133907008075,-2.64719522489,-0.0723856452178,2.10904413862,-0.818062698366,-0.602458987695,0.0371325522716,0.0233943941107,0.0247786989115,0.0126395501273,0.00381328815571,-0.566721568363,0.573941706948,0.818861752767,0.00609046650973,0.0,0.818860259483,-0.573851801316,-0.0119470694185,0.0,-0.00628809409229,0.0118443904428,-0.999910081101,0.0,0.28126028117,-0.238551058435,0.304923022566,1.0,-0.123891428572,-0.162828734694,2.696
-0.575704789417,-0.527766579873,-0.133383214417,-2.64668423985,-0.0721098060345,2.10916850441,-0.827582845934,-0.546025127397,0.0435126868833,0.0320949380695,0.0310343624053,0.0179285712156,0.0125097623715,-0.542332391575,0.573785041945,0.818971452693,0.00610182064866,0.0,0.81896972656,-0.57369440621,-0.012002589848,0.0,-0.00632931992908,0.0118843417179,-0.999909346957,0.0,0.279212514593,-0.241218523324,0.304899698702,1.0,-0.116809714286,-0.153521338776,2.713
-0.583789559452,-0.527071628327,-0.132969637319,-2.64621773383,-0.0718845056737,2.10926773071,-0.835447896054,-0.53307390534,0.0426983039391,0.0230726394348,0.0241933923501,0.0139072929147,0.00855166665604,-0.51147303613,0.573795731551,0.818963865864,0.00611488060163,0.0,0.818961858749,-0.573704192348,-0.0120714746108,0.0,-0.00637809167507,0.0119346443676,-0.999908437913,0.0,0.277469121578,-0.243465473794,0.304876742321,1.0,-0.110561142857,-0.145308930612,2.728
-0.593580724937,-0.526155617669,-0.132489763143,-2.64554052203,-0.0715861635814,2.10941470484,-0.844883990018,-0.503174737356,0.047252349776,0.0277547093751,0.0416951209304,0.0139987269886,0.00971542664879,-0.496922102972,0.573912897329,0.818881495293,0.0061505972957,0.0,0.818879801911,-0.573820893067,-0.0120913027446,0.0,-0.00637212552161,0.0119761850645,-0.99990797927,0.0,0.275361250142,-0.246201775019,0.30487425945,1.0,-0.102646285714,-0.134906546939,2.747
-0.601498038289,-0.525231300297,-0.13195014916,-2.64489330307,-0.0712708243452,2.10956489304,-0.85271538337,-0.450131084724,0.0538193201088,0.0352407772262,0.0349452177144,0.0161981829719,0.00924085706505,-0.445758752431,0.573772880559,0.818979569387,0.00615575846089,0.0,0.818977513894,-0.573680078155,-0.0121551044958,0.0,-0.00642346992261,0.0120159284244,-0.999907173941,0.0,0.273699547274,-0.248385045383,0.304856573379,1.0,-0.0955645714287,-0.125599151021,2.764
-0.60863522828,-0.524428078766,-0.131494307146,-2.64430423047,-0.0710076133315,2.10971666944,-0.85960768737,-0.449869379084,0.0517333512269,0.030095390412,0.0318318266872,0.0139615769915,0.00489080488459,-0.416095976665,0.573796260782,0.818963188234,0.00615583716261,0.0,0.818961081643,-0.573703355529,-0.0121636141784,0.0,-0.0064300516101,0.0120210588369,-0.999907069972,0.0,0.272183448721,-0.25035673162,0.304854524813,1.0,-0.0888994285715,-0.11683924898,2.78
-0.614905091573,-0.523686451598,-0.131058294622,-2.64370838378,-0.0707433195193,2.10986132137,-0.865656815117,-0.406586817908,0.0510176563209,0.0272076691732,0.036743620323,0.0218685736208,0.0115135076896,-0.394816097376,0.573814097826,0.818950682026,0.00615698353932,0.0,0.818948892674,-0.57372174988,-0.0121165920733,0.0,-0.00639061901131,0.011995157145,-0.999907633831,0.0,0.270869852245,-0.252090382008,0.304876791263,1.0,-0.0826508571429,-0.108626840816,2.795
-0.621482390339,-0.522790282421,-0.130626619863,-2.6430216013,-0.0704255631536,2.11002586641,-0.871967525023,-0.368060533806,0.0504180435754,0.0314175479051,0.0397931863995,0.0177016730956,0.00853878190712,-0.354038987076,0.573900254028,0.818890001495,0.00619764304332,0.0,0.818888757066,-0.57380773496,-0.0121092424223,0.0,-0.00636000447829,0.0120249090275,-0.999907471672,0.0,0.269492096993,-0.253918519049,0.304885081303,1.0,-0.0755691428572,-0.0993194448981,2.812
-0.627374047978,-0.521990587447,-0.130088836376,-2.64242763633,-0.0701003049635,2.11018262428,-0.877734305556,-0.333902052809,0.0495483181716,0.0352529537608,0.0341713065329,0.0184848262954,0.00194123335908,-0.330307730649,0.573793148034,0.81896505885,0.00619697940134,0.0,0.818963797908,-0.573700640094,-0.0121086817089,0.0,-0.00636149865765,0.0120232118664,-0.999907482576,0.0,0.268280091135,-0.255508085691,0.304888283158,1.0,-0.0684874285715,-0.0900120489797,2.829
-0.632600702562,-0.521321446421,-0.129609882615,-2.64189786715,-0.0698085538894,2.1103326848,-0.882745012934,-0.317293039087,0.0431383567292,0.0263008439661,0.0327708265684,0.0152500192735,0.0123037836363,-0.296746510714,0.573783957918,0.818971510418,0.00619529336416,0.0,0.81897056906,-0.573692106222,-0.0120549232039,0.0,-0.0063185694176,0.0119909153426,-0.999908142596,0.0,0.267201232206,-0.256915569412,0.304907982555,1.0,-0.0618222857144,-0.0812521469389,2.845
-0.63812741302,-0.520483775808,-0.129087873948,-2.64124839211,-0.0694534334368,2.11050235333,-0.887976709503,-0.271718768179,0.045900985111,0.029000329379,0.036238927658,0.0149668419025,0.011993907308,-0.264419745197,0.573850555535,0.818924723224,0.00621164278824,0.0,0.818924237626,-0.573759081132,-0.0120148553445,0.0,-0.0062753964499,0.0119818269362,-0.999908523427,0.0,0.2661350886,-0.258341407066,0.304926616578,1.0,-0.0543240000001,-0.071397257143,2.863
-0.642784691311,-0.519747116381,-0.128650455986,-2.64071965899,-0.0691148047082,2.11064671338,-0.892355361813,-0.250950146088,0.0405168945236,0.0230291832748,0.0256169345126,0.0205064099629,0.00355811126597,-0.221659495512,0.57393364858,0.818866053874,0.00626895060377,0.0,0.818866070086,-0.573841439112,-0.0120461164341,0.0,-0.00626689284982,0.0120473344492,-0.999907789642,0.0,0.265126169501,-0.25966228983,0.304915185286,1.0,-0.0464091428572,-0.0609948734695,2.882
-0.646032733513,-0.519261012803,-0.128266981851,-2.64037513278,-0.0688690736633,2.1107492303,-0.895337093727,-0.223914538016,0.031823071969,0.0311600108304,0.026377146237,0.0107878514008,0.00442282861544,-0.208939906424,0.573995763021,0.81882245156,0.00627724106241,0.0,0.818822498668,-0.573903355349,-0.0120582459449,0.0,-0.00627115353721,0.0120615605157,-0.999907591426,0.0,0.264430276013,-0.260559098161,0.304909094666,1.0,-0.0401605714287,-0.0527824653062,2.897
-0.649541519847,-0.518705469886,-0.127676606707,-2.6400022582,-0.0685657000917,2.11086471907,-0.89862018553,-0.179015328882,0.0336184809497,0.0304218247779,0.0201848442781,0.0229619627686,0.00510907055298,-0.164313957664,0.573912539626,0.81888111524,0.00623400870679,0.0,0.818880353014,-0.57381987134,-0.0121024626889,0.0,-0.00633340200742,0.0120508943651,-0.999907327688,0.0,0.263769856499,-0.261417524117,0.304895977099,1.0,-0.0326622857144,-0.0429275755103,2.915
-0.652427095891,-0.518243188656,-0.127086776944,-2.63967796564,-0.0682501414048,2.11096164404,-0.901399184849,-0.148275976961,0.025271975025,0.0301782474833,0.0138562561237,0.0182336650575,0.00217226652401,-0.139064931239,0.573740072744,0.819002208393,0.00620148981223,0.0,0.819001051297,-0.573647641376,-0.0120999346836,0.0,-0.00635252552926,0.012021475532,-0.9999075605,0.0,0.263284124815,-0.262067219366,0.304900018225,1.0,-0.0255805714287,-0.033620179592,2.932
-0.654433884654,-0.517904328008,-0.126646846743,-2.63945895833,-0.0680026259051,2.11104346168,-0.903193574529,-0.125125471442,0.0216535187613,0.0294661494597,0.0136871056659,0.0166887619099,0.00172799764742,-0.105208281634,0.573719294979,0.819016877867,0.00618637526563,0.0,0.81901543859,-0.573626774423,-0.0121153587449,0.0,-0.00637413552639,0.0120177833086,-0.999907467359,0.0,0.2629318405,-0.262536802245,0.30489234786,1.0,-0.0199488888889,-0.0262185396825,2.947
-0.656472733531,-0.517590977425,-0.126292657126,-2.6392536679,-0.0677448235163,2.11107271022,-0.904872231405,-0.101740266589,0.0195814604644,0.0219360032587,0.0149041039812,0.00923981362482,0.00556176047915,-0.0898769067126,0.573883989461,0.818901166137,0.00622845414751,0.0,0.818899910813,-0.573790554591,-0.012168912572,0.0,-0.00639143159118,0.0120842572996,-0.999906555798,0.0,0.262541571336,-0.263021357778,0.30488125115,1.0,-0.0195888888889,-0.0257453968254,2.965
-0.658146646113,-0.517320613597,-0.126079014795,-2.63903917733,-0.0675899026723,2.11112921588,-0.906514932499,-0.0946694691458,0.0166098889519,0.0067038088683,0.0173513972048,0.0128849881501,0.00219931138498,-0.090891332887,0.573835270275,0.818935171037,0.00624620916214,0.0,0.818934241577,-0.573741943533,-0.0121506009924,0.0,-0.00636696490132,0.0120879106971,-0.999906667731,0.0,0.262213637712,-0.263457451478,0.304889041725,1.0,-0.0192488888889,-0.0252985396825,2.982
-0.659615617276,-0.517055141129,-0.125924573528,-2.63882626216,-0.067489795871,2.11121861465,-0.907914863797,-0.0943349795932,0.0177657964628,0.00452214556194,0.0101441847422,0.00457959082653,0.00549676660798,-0.0900204447586,0.573836005346,0.818934703461,0.006239979007,0.0,0.818934007723,-0.57374330539,-0.0121019591876,0.0,-0.00633069006298,0.0120549030276,-0.999907296541,0.0,0.261925960333,-0.263862138576,0.304899253081,1.0,-0.0189288888889,-0.024877968254,2.998
-0.661181661419,-0.516786752764,-0.125812450209,-2.63862446733,-0.0674475679589,2.11124592034,-0.90945544171,-0.0874245670843,0.0130012673017,0.00446998850086,0.0110505745962,0.00586109275147,-0.000160997490161,-0.0786909679184,0.57380592037,0.81895595846,0.00621697296303,0.0,0.818954785693,-0.573712993946,-0.0121328673294,0.0,-0.00636964845621,0.0120535629337,-0.999907065281,0.0,0.261585112415,-0.264295114579,0.304896974059,1.0,-0.0185688888889,-0.0244048253968,3.016
-0.66249096427,-0.516559516499,-0.125767614973,-2.63843618453,-0.0674093857168,2.11127066549,-0.910738741298,-0.0769611838003,0.0131508220954,0.00345414368343,0.0123702468374,0.00379459379896,0.00104165097341,-0.0783777100409,0.573821486503,0.818945020167,0.00622113116068,0.0,0.818943860633,-0.573728460376,-0.0121389368009,0.0,-0.00637200452141,0.0120605721333,-0.999906965751,0.0,0.261293701933,-0.264672365925,0.304901895598,1.0,-0.0182488888889,-0.0239842539683,3.032
-0.663757404086,-0.516309294592,-0.125720768074,-2.63823095718,-0.0673649753318,2.11136238629,-0.912064685967,-0.0808134989568,0.0124518728304,-0.000660990091782,0.0109278720133,0.00510550636642,0.00966279129843,-0.0908130562619,0.573769086451,0.818981741121,0.00622013213319,0.0,0.818980912661,-0.573676728741,-0.0120839769472,0.0,-0.00632833326542,0.0120278134777,-0.999907637685,0.0,0.261027921503,-0.265050613461,0.304911782694,1.0,-0.0179288888889,-0.0235636825397,3.048
-0.665192834444,-0.516045016309,-0.125697833193,-2.63803061016,-0.0673276088972,2.11140482041,-0.913513442178,-0.0785772526586,0.0128484640949,-0.000496189762103,0.011423828655,0.00475565064613,0.000491441786494,-0.0791718654487,0.573768356243,0.818982145917,0.00623417556256,0.0,0.818981409661,-0.573675763658,-0.0120961035693,0.0,-0.00633021930809,0.0120462672802,-0.999907403597,0.0,0.260701694043,-0.26546998196,0.304909472149,1.0,-0.0175688888889,-0.0230905396825,3.066
-0.666526598373,-0.515804669418,-0.125692528698,-2.63783795749,-0.0672908001514,2.11142757411,-0.914831796583,-0.0815890757897,0.0132689564314,-0.00113010154791,0.0120948221208,0.000272992958829,0.00061767463399,-0.083945078768,0.573802983577,0.818957708398,0.00625737930147,0.0,0.818957156542,-0.573710054728,-0.0121118022802,0.0,-0.0063292542762,0.0120745463174,-0.999907068618,0.0,0.26039358813,-0.265861938904,0.304910380791,1.0,-0.0172288888889,-0.0226436825397,3.083
-0.667684198273,-0.515588368149,-0.125686504012,-2.63766660402,-0.0672595713754,2.1114768347,-0.916000090528,-0.0788193458226,0.0148021931111,0.00126693787714,0.00401725579427,0.00387718964588,0.00157336787986,-0.0730725624523,0.573812211663,0.818951127349,0.00627245251947,0.0,0.81895083503,-0.573719333614,-0.0120997083686,0.0,-0.00631056402738,0.0120800232258,-0.999907120597,0.0,0.260131318228,-0.266206782761,0.304912747129,1.0,-0.0169288888889,-0.0222493968254,3.098
-0.669031315145,-0.515336554859,-0.125668405941,-2.63746146314,-0.0672229900869,2.11154641161,-0.917287208937,-0.0719864670592,0.0158910206328,0.00172894647413,0.00956978737557,0.000369762432494,0.000438923881193,-0.0663018821382,0.573874749841,0.818907237675,0.00628128009582,0.0,0.818907254439,-0.573782191043,-0.0120686689483,0.0,-0.00627915458814,0.0120699225947,-0.999907440309,0.0,0.259831239758,-0.266608611007,0.304919357856,1.0,-0.0165688888889,-0.0217762539683,3.116
-0.670356597076,-0.515088695794,-0.125622719864,-2.63724589183,-0.0671858229722,2.11157286425,-0.918675710665,-0.0680858496186,0.0144776670328,0.00170933594555,0.0203210520157,0.00565537325449,-0.000287881759618,-0.0727630900483,0.573817512817,0.818947340275,0.00628193776162,0.0,0.818947373658,-0.573724979008,-0.0120662563539,0.0,-0.00627764480177,0.012068638,-0.999907465295,0.0,0.259538346207,-0.266995059835,0.304929120677,1.0,-0.0162088888889,-0.0213031111111,3.134
-0.671436498281,-0.514884918049,-0.125586094056,-2.63708357579,-0.0671581675583,2.11162994857,-0.919787158874,-0.0752424062982,0.0139836799444,0.00562044360117,0.0102278457192,0.00684369917347,0.0102561668585,-0.0803477893671,0.573785883705,0.818969531933,0.00627792376811,0.0,0.818969650194,-0.573693638316,-0.0120444310362,0.0,-0.00626253769379,0.0120525855878,-0.999907753646,0.0,0.259301376565,-0.267311699019,0.304933347666,1.0,-0.0159088888889,-0.0209088253968,3.149
-0.672548320545,-0.514647478619,-0.125535061782,-2.63691035338,-0.0671384791008,2.1116670944,-0.920879903676,-0.0734082956619,0.0158945634882,0.00455728388741,0.0125297057261,0.000922871574355,0.00329341606563,-0.0699521374103,0.573782745554,0.818971846624,0.00626276639694,0.0,0.818971642057,-0.573690326863,-0.0120667009296,0.0,-0.00628952093446,0.0120529249253,-0.999907580193,0.0,0.259056604844,-0.267633499144,0.304928715935,1.0,-0.0155888888889,-0.0204882539683,3.165
-0.673699738469,-0.514404510892,-0.125506860999,-2.63671962966,-0.0671038917182,2.11170534627,-0.922100502028,-0.0678553157839,0.0168354113647,0.00300676948323,0.0130948522482,0.00542328031454,0.000622129744925,-0.0780540355254,0.57373074164,0.819008221913,0.00627020238657,0.0,0.819008061293,-0.573638199807,-0.0120730344212,0.0,-0.00629120797019,0.0120622495285,-0.999907457137,0.0,0.258801041522,-0.267973401259,0.304929537813,1.0,-0.0152488888889,-0.0200413968254,3.182
-0.674960669447,-0.514150581049,-0.125475846266,-2.63650763717,-0.0670751979618,2.11176709418,-0.92332994771,-0.0653492282064,0.0119503781437,0.00181329944277,0.00664420302817,0.00362620213547,5.55192694384e-05,-0.063790498272,0.573757667134,0.818989397424,0.00626523841937,0.0,0.818989344605,-0.573665472296,-0.0120468343909,0.0,-0.00627219944109,0.0120433589754,-0.999907804259,0.0,0.258523897131,-0.268350141126,0.30493801765,1.0,-0.0148688888889,-0.019541968254,3.201
-0.675995915118,-0.513938206909,-0.125456770659,-2.63632914724,-0.0670502722284,2.11182293905,-0.924375971483,-0.0716910385551,0.0138924128377,0.000485341879797,0.00932905386294,0.00482740462522,0.00217294154034,-0.0697588289608,0.573755113567,0.818991191053,0.00626462560026,0.0,0.81899130376,-0.573663255472,-0.0120191758076,0.0,-0.00624993392455,0.0120269690248,-0.999908140952,0.0,0.258296348911,-0.268662319825,0.30494583203,1.0,-0.0145488888889,-0.0191213968254,3.217
-0.676958999566,-0.513736228684,-0.125439849115,-2.63616836994,-0.0670236625036,2.1118568674,-0.925383799523,-0.0623515931255,0.0170676621466,0.000789672068312,0.00717881394464,0.00151729428227,0.000356115568652,-0.0727409315601,0.573726142121,0.819011434482,0.00627143812679,0.0,0.819011619256,-0.573634228665,-0.0120202383256,0.0,-0.0062473213417,0.0120329373286,-0.999908085474,0.0,0.25808041136,-0.26894834135,0.304947511015,1.0,-0.0142488888889,-0.0187271111111,3.232
-0.678181137757,-0.513501134666,-0.125421579467,-2.63596759316,-0.066997702051,2.11189283524,-0.926560669498,-0.0643013986496,0.0091696545373,0.00289775109242,0.0120327332002,0.000254227830338,0.000299740947164,-0.060505300649,0.573771645255,0.818979537471,0.00627401034437,0.0,0.818979809255,-0.573679813958,-0.0120120768785,0.0,-0.00623849218919,0.012030708537,-0.999908167417,0.0,0.257803152592,-0.269311003817,0.30495530678,1.0,-0.0138688888889,-0.0182276825397,3.251
-0.6792328047,-0.513275696982,-0.125420238488,-2.63578123088,-0.0669700939382,2.11195784415,-0.927583685635,-0.056675865818,0.0171369175539,0.00378973856019,0.0111529007104,0.00117522106542,0.00555464619832,-0.0608456231451,0.573815544829,0.818948717361,0.006282176876,0.0,0.818949292436,-0.573724049556,-0.0119799115456,0.0,-0.00620681673751,0.0120192751864,-0.999908502039,0.0,0.257569167733,-0.269633522387,0.304962188839,1.0,-0.0135288888889,-0.0177808253968,3.268
-0.680182627674,-0.513065095191,-0.125419123883,-2.63561456361,-0.0669546283344,2.11199887627,-0.928594861252,-0.0565453158248,0.0121732460832,0.00119451887522,0.0150372225419,-0.000370990777131,-0.000413864679736,-0.0655732462672,0.573779750964,0.818973767341,0.00628591224405,0.0,0.81897439811,-0.573688261138,-0.0119775278969,0.0,-0.00620324651196,0.0120206956062,-0.999908507119,0.0,0.257353370725,-0.269922471225,0.304963539122,1.0,-0.0132088888889,-0.0173602539683,3.284
-0.681145073154,-0.512869356028,-0.125409196917,-2.63546821318,-0.0669369035297,2.11201669124,-0.929518702019,-0.0582746354758,0.0118349590885,9.80707912737e-05,0.00765145342304,0.000750344524489,0.000576921385778,-0.0584930579854,0.57381952553,0.818945851977,0.00629210232401,0.0,0.818946398268,-0.573727680807,-0.012003830217,0.0,-0.00622065345717,0.0120411585251,-0.999908152768,0.0,0.257128303466,-0.270203926482,0.304959374606,1.0,-0.0128888888889,-0.0169396825397,3.3
-0.682075661834,-0.512678694741,-0.125390467357,-2.6353115506,-0.0669175983493,2.1120500927,-0.93039590073,-0.0591998761493,0.0158201681034,-0.000473639595099,0.012006130138,0.000670833527803,0.00143741963361,-0.057828759371,0.573866247498,0.818913126252,0.00629035263887,0.0,0.818913680982,-0.573774460664,-0.0119999288321,0.0,-0.00621777525338,0.012037841729,-0.999908210606,0.0,0.256918487879,-0.270480061886,0.30496329832,1.0,-0.0125688888889,-0.0165191111111,3.316
-0.683038044601,-0.512464236748,-0.125369138892,-2.63513441845,-0.0668952079881,2.11210719524,-0.931374307676,-0.0551054936472,0.00618929800978,0.000241948231202,0.00719572625471,0.000779371945547,0.00778934762805,-0.054884455659,0.573856619581,0.818919908636,0.00628572212936,0.0,0.818920559453,-0.57376515764,-0.01197531146,0.0,-0.00620041199542,0.012019850255,-0.999908534863,0.0,0.256708306009,-0.270771784018,0.304969787157,1.0,-0.0122288888889,-0.0160722539683,3.333
-0.683956132518,-0.512259603155,-0.125350735487,-2.63496817798,-0.0668780242339,2.11215743385,-0.932322114716,-0.0554641552243,0.0181309189851,-0.000787975048862,0.0073603856967,0.000660180698599,0.000998676442883,-0.0553616001872,0.573835087131,0.818935040968,0.00627999625716,0.0,0.818935720922,-0.573743855175,-0.0119591198658,0.0,-0.0061907522453,0.0120057069995,-0.999908764631,0.0,0.256505415967,-0.271049415094,0.304974293423,1.0,-0.0118888888889,-0.0156253968254,3.35
-0.684888600159,-0.512051876533,-0.125306350076,-2.6348004366,-0.066857655516,2.11218179909,-0.933225885128,-0.0526229879118,0.0183332046282,0.000605188197546,0.0102363825474,0.0039839781603,-0.00025360071933,-0.0461106316006,0.573844357949,0.818928640688,0.00626747252959,0.0,0.818929097859,-0.573753061361,-0.0119709715182,0.0,-0.00620750939607,0.0120023211713,-0.999908701389,0.0,0.256300852722,-0.271321314865,0.304976729393,1.0,-0.0115288888889,-0.0151522539683,3.368
-0.685799289259,-0.511852668056,-0.125268949809,-2.63462626548,-0.0668389921891,2.11222552147,-0.934157320391,-0.0511825110812,0.00822164427009,0.00271790157672,0.0124756966737,0.000895541799634,0.00320087444469,-0.0471676343622,0.573817607939,0.818947498,0.00625261871959,0.0,0.818947912298,-0.57372667062,-0.0119486929604,0.0,-0.00619817741775,0.011977170057,-0.999909060862,0.0,0.256104743864,-0.271593818955,0.304986711176,1.0,-0.0111688888889,-0.0146791111111,3.386
-0.68658337958,-0.511674615681,-0.125256106093,-2.6344884217,-0.0668189460528,2.11227038999,-0.934960018831,-0.0437956802833,0.0108729201518,0.00114676644196,0.00929081244481,0.00147901919269,0.00173420972991,-0.0525462650482,0.573808913412,0.818953577513,0.00625425196741,0.0,0.818954066816,-0.573718075032,-0.0119395865623,0.0,-0.00618990890465,0.011973216797,-0.999909159428,0.0,0.255929917236,-0.271829785816,0.304987536499,1.0,-0.0108488888889,-0.0142585396825,3.402
-0.687352873608,-0.511503636108,-0.125245513126,-2.63434459811,-0.0667932663769,2.1123106189,-0.935724565726,-0.0492767983082,0.0104983437656,-0.000681959808628,0.00832874417339,-0.000266046554201,0.000569731932753,-0.0475223623162,0.573823759774,0.818943128735,0.00626031282049,0.0,0.818943803391,-0.57373309922,-0.0119216042211,0.0,-0.00617148600399,0.0119679745689,-0.999909336063,0.0,0.255759624465,-0.272062873346,0.30499324161,1.0,-0.0105288888889,-0.013837968254,3.418
-0.688095077685,-0.511325670792,-0.12524117669,-2.63421967276,-0.0667771675583,2.11233442773,-0.936448638593,-0.0464689966611,0.0104054321044,-0.00108765575586,0.0103067212326,0.00142540405509,0.0035809287259,-0.0452589407157,0.573848946947,0.818925425871,0.00626736391493,0.0,0.818926033476,-0.573757943734,-0.0119465726885,0.0,-0.00618752142309,0.0119882664394,-0.999908993882,0.0,0.255587414172,-0.272283605524,0.304986214263,1.0,-0.0102088888889,-0.0134173968254,3.434
-0.688851058643,-0.511153125842,-0.125223504073,-2.6340911148,-0.0667499462446,2.11235877855,-0.937207454698,-0.0475376738664,0.0130726085532,4.00936897559e-05,0.00587196617689,0.00194724159027,0.000627746879554,-0.0403267623924,0.573852355414,0.818922967151,0.00627654049442,0.0,0.818923596402,-0.573761123276,-0.0119609185868,0.0,-0.00619395526741,0.0120040395336,-0.999908764815,0.0,0.25541635459,-0.272504977299,0.304983201036,1.0,-0.00986888888889,-0.0129705396825,3.451
-0.689600876387,-0.510994710664,-0.125192698718,-2.63396146698,-0.066724474935,2.11239768046,-0.937986668449,-0.0456226288792,0.00824749579038,0.00284118131092,0.00535257651996,0.00037190948381,-0.000245886169973,-0.0478276303926,0.573823873315,0.818942939883,0.00627459407996,0.0,0.818943632964,-0.573732828386,-0.0119463199977,0.0,-0.00618353286343,0.011993853403,-0.999908951556,0.0,0.255252400926,-0.272724731552,0.304987456456,1.0,-0.00952888888889,-0.0125236825397,3.468
-0.690271008371,-0.510840317979,-0.12516916107,-2.63384222358,-0.0667015775904,2.11243181838,-0.938659243529,-0.0361001074691,0.00833118040931,0.000905048691554,0.00752245248883,0.000187005378401,6.71622722164e-05,-0.0327995030128,0.57382104665,0.818944916646,0.00627509535898,0.0,0.818945633817,-0.573730034297,-0.0119433453543,0.0,-0.00618085029062,0.0119925357712,-0.999908983946,0.0,0.255105182675,-0.272922461089,0.304987890612,1.0,-0.00920888888889,-0.0121031111111,3.484
-0.690971186244,-0.510667672596,-0.125148300421,-2.63373989803,-0.0666756665862,2.11245610956,-0.939350809803,-0.0430159733193,0.0103584472565,0.00309463571052,0.00718365250891,0.00045288752351,0.00506497746086,-0.0339914552489,0.573829791137,0.818938707353,0.00628580177426,0.0,0.818939300536,-0.573738220955,-0.0119842711173,0.0,-0.00620809829524,0.0120248534162,-0.999908427015,0.0,0.254943670508,-0.273121776779,0.304972970345,1.0,-0.00886888888889,-0.0116562539683,3.501
-0.691637569636,-0.51051990351,-0.125128060219,-2.6336447474,-0.0666518784807,2.11248327758,-0.94001371635,-0.0377559081581,0.00167945660243,0.00141935394795,0.000838774738055,0.00121495203341,0.000134964673505,-0.0345830224336,0.573833412441,0.818936109594,0.00629365310873,0.0,0.818936668761,-0.573741543836,-0.0120050129422,0.0,-0.00622052810797,0.0120432127234,-0.999908128809,0.0,0.25479030293,-0.273311683558,0.304964231136,1.0,-0.00852888888889,-0.0112093968254,3.518
-0.69232507252,-0.510351761456,-0.125112343152,-2.63354946165,-0.0666179255441,2.11251053693,-0.940705316412,-0.0363033185558,0.00725800335898,-4.50403009643e-05,0.0034571619312,0.00248652872658,0.000626013929598,-0.0398135659773,0.573838502708,0.818932384344,0.0063142365758,0.0,0.818932948477,-0.573746033617,-0.0120441566256,0.0,-0.00624070186494,0.0120825698077,-0.999907528298,0.0,0.25463053624,-0.273506537948,0.304947904419,1.0,-0.00816888888889,-0.0107362539683,3.536
-0.692997427213,-0.510179750471,-0.125086092003,-2.63345920983,-0.0665921371493,2.1125429546,-0.941406615212,-0.0314998347156,0.011560617207,-0.000475900569288,0.00023503688932,-0.000106353994918,0.00317238860978,-0.0348058691167,0.57381203037,0.818950861972,0.00632347841088,0.0,0.818951258162,-0.573718968212,-0.0120883899143,0.0,-0.00627201858659,0.0121153174186,-0.999906936103,0.0,0.2544760264,-0.273695358424,0.304928532083,1.0,-0.00778888888889,-0.0102368253968,3.555
-0.693509872757,-0.510044380523,-0.125049237717,-2.63337762032,-0.0665716433849,2.11255965287,-0.941928584061,-0.0346455156425,0.00847225952559,0.00268825874611,0.00666984038349,0.00019092714809,0.000554416851657,-0.0351140255734,0.573791081427,0.818965550526,0.00632209050113,0.0,0.81896571389,-0.573697616006,-0.0121223662231,0.0,-0.00630095339181,0.0121335145929,-0.999906533537,0.0,0.254363623925,-0.273837727645,0.304917704642,1.0,-0.00748888888889,-0.00984253968255,3.57
