nelsonifechukwu/NELSON_IML_WORK/CNN-GradCAM/train2dof/data_sample_2022-02-21-14-03-51/robot_state.csv
position_joint1,position_joint2,position_joint3,position_joint4,position_joint5,position_joint6,position_joint7,velocity_joint1,velocity_joint2,velocity_joint3,velocity_joint4,velocity_joint5,velocity_joint6,velocity_joint7,ee_T_00,ee_T_10,ee_T_20,ee_T_30,ee_T_01,ee_T_11,ee_T_21,ee_T_31,ee_T_02,ee_T_12,ee_T_22,ee_T_32,ee_T_03,ee_T_13,ee_T_23,ee_T_33,v_x,v_y,time
0.465106804907,0.547745194772,-0.123988936346,-1.35576673108,0.079477651091,1.89409111558,0.159169694874,0.00307386627336,-0.00015697758295,-0.000133263641243,-0.00105540376826,-0.000287268627078,1.01858544575e-05,0.0014862100202,0.573777851175,0.818996754169,0.00201023938379,0.0,0.818954653207,-0.573719293362,-0.0118404103209,0.0,-0.00854410900264,0.00844022258878,-0.999927877821,0.0,0.661684063718,0.260916245152,0.303270570669,1.0,0.0,0.0,0.0
0.465101995284,0.547741607646,-0.123988385222,-1.35576144136,0.0794776117804,1.89409161958,0.159172040147,-0.000122875725428,-0.00024103182596,-9.10698342183e-05,0.000833861035702,-2.53341905906e-05,-0.000233631303825,0.0011842123725,0.573783023475,0.818993110809,0.00201824672064,0.0,0.818951118415,-0.573724437149,-0.0118356565399,0.0,-0.00853556804042,0.00844410677863,-0.999927917972,0.0,0.661686603377,0.260914086427,0.303275655072,1.0,-0.00016,-0.000210285714286,0.009
0.465098327061,0.547740597659,-0.123988947038,-1.35576243908,0.0794758685453,1.8940936045,0.159169010651,-0.000816893801755,0.000189953250131,-0.000487428130791,-0.000134410320035,3.34867037491e-05,0.000461194808956,0.000504618675947,0.573783543854,0.818992744729,0.00201885724546,0.0,0.818950780434,-0.573724974954,-0.0118329726534,0.0,-0.00853301421612,0.00844307225548,-0.999927948504,0.0,0.661687981468,0.260911081579,0.303276083513,1.0,-0.00036,-0.000473142857143,0.019
0.465095093912,0.54773735486,-0.123995639398,-1.35577268912,0.0794737403577,1.89409398524,0.159164502434,-0.00123847099984,0.00062629041591,-0.00458560298711,-0.000569539777277,-0.000290909362748,0.00896105276224,-0.000808719838377,0.573791956271,0.818986870376,0.00201096300016,0.0,0.818944820217,-0.573733434716,-0.0118352959243,0.0,-0.00853935966898,0.00843802779226,-0.999927936915,0.0,0.661689028562,0.26090381521,0.303272392611,1.0,-0.00066,-0.000867428571429,0.034
0.465097052904,0.547697381437,-0.123991599271,-1.3558126991,0.0794760701083,1.89410016639,0.159171520929,-0.000419684554517,-0.00499386310407,-0.00255395600024,-0.00380105608526,-8.38746485796e-05,0.000231312450404,0.00142301611137,0.57379126283,0.818987333332,0.00202025816901,0.0,0.81894535642,-0.57373265684,-0.0118359019296,0.0,-0.00853452998823,0.00844598077248,-0.999927911005,0.0,0.661679841509,0.260903783148,0.303283434684,1.0,-0.001,-0.00131428571429,0.051
0.465098960789,0.547578689247,-0.123990683654,-1.35594966486,0.0794734639548,1.89412697233,0.15916723795,-0.000835779126207,-0.00667641273658,0.000827754107417,-0.00865726381519,1.3602554812e-05,0.00189673395542,0.00149093589591,0.573792315409,0.818986565543,0.00203252020436,0.0,0.81894466163,-0.573733574312,-0.0118395015009,0.0,-0.00853043182754,0.00845809939515,-0.99992784354,0.0,0.661656364926,0.260892274952,0.30330461831,1.0,-0.00134,-0.00176114285714,0.068
0.465090357344,0.547448972658,-0.123984288301,-1.35612816148,0.0794700395331,1.89417123362,0.159159514544,-0.00068481210265,-0.0132484988855,0.00138991772515,-0.0153499441315,-3.61659806225e-05,-0.000569171947279,0.000108435428397,0.573804000402,0.818978372869,0.00203489458362,0.0,0.818936402872,-0.573745152161,-0.0118496971903,0.0,-0.00853729919089,0.00846601589895,-0.999927717936,0.0,0.661630385917,0.26087066536,0.303311828338,1.0,-0.00166,-0.00218171428571,0.084
0.465068452975,0.547277756006,-0.123984343682,-1.35634681118,0.0794636851688,1.8942815516,0.159150993304,-0.00409099698686,-0.0134705806423,0.00168650883002,-0.0123129508947,-0.00344881341038,0.00727271991643,-0.00148347086754,0.573819188007,0.818967587771,0.00209202234765,0.0,0.818926310346,-0.573760058978,-0.0118253898881,0.0,-0.00848445551759,0.00849901139808,-0.99992788781,0.0,0.661611143072,0.26084149107,0.303341957219,1.0,-0.002,-0.00262857142857,0.101
0.46505169941,0.547084581786,-0.123986018705,-1.35657730535,0.0794594981478,1.89440689675,0.159141892205,-0.00249266792398,-0.0083502614431,-0.000690021228191,-0.0105553531421,-3.82494156594e-05,0.0135307161269,-0.00153671787923,0.573837015678,0.818954873163,0.00217762743665,0.0,0.818914699748,-0.573777539858,-0.011781179573,0.0,-0.00839894241523,0.00854393254294,-0.999928226916,0.0,0.661594358414,0.260810151521,0.303383301071,1.0,-0.00236,-0.00310171428571,0.119
0.465026082386,0.546871287721,-0.123989005683,-1.35685868908,0.0794575771271,1.89453877539,0.159126050397,0.000163100413447,-0.013250735077,-4.06785419503e-05,-0.0149703270899,-6.72903861219e-05,0.0057395984803,-0.00396358432303,0.573864071719,0.818935766658,0.00223252749051,0.0,0.81889621332,-0.573804286102,-0.0117635012743,0.0,-0.00835267890668,0.00857902421983,-0.99992831398,0.0,0.661568256953,0.260771838146,0.303408702479,1.0,-0.00268,-0.00352228571429,0.135
0.464984607587,0.546634732335,-0.123986734731,-1.35723198628,0.0794507287562,1.89466947592,0.159068000615,-0.00441863217673,-0.0102392991849,0.000209195324505,-0.0247860442952,0.000322496421099,0.00562736288343,-0.0049735875961,0.573867944942,0.818933040955,0.00223676145076,0.0,0.818893379724,-0.573807975291,-0.0117807910596,0.0,-0.00836436852808,0.00859245293059,-0.999928100961,0.0,0.661525605358,0.260712272204,0.303409819538,1.0,-0.00302,-0.00396914285714,0.152
0.464950863643,0.546351423437,-0.123991749086,-1.35765826509,0.0794356566033,1.89482834805,0.158951000637,-0.000968814411707,-0.0167846461213,-0.000378530367746,-0.0297484900502,-7.20967913938e-05,0.0110652880822,-0.00228435912145,0.57382311292,0.818964403223,0.00225571140666,0.0,0.818924912679,-0.573762998365,-0.0117794737312,0.0,-0.00835288675337,0.00860675825849,-0.999928073911,0.0,0.661477742025,0.260648512656,0.303421487088,1.0,-0.00336,-0.004416,0.169
0.464913153502,0.546099853527,-0.123986746548,-1.35809242214,0.0794145593086,1.89497323308,0.158933482277,-0.00276609486418,-0.0186453693945,0.00136295941357,-0.029299477845,-0.00188380465473,0.00760683460615,0.00605161343041,0.573854781305,0.818942292136,0.00222688694288,0.0,0.81890233349,-0.573794677943,-0.011806043818,0.0,-0.00839085425913,0.00859872315928,-0.999927825158,0.0,0.661423478832,0.260584644521,0.303405355668,1.0,-0.00366,-0.00481028571429,0.184
0.46484938721,0.545758588642,-0.123989241484,-1.35868301994,0.079342484095,1.8951678549,0.158876741743,-0.00653831081313,-0.0158190443059,9.20115838281e-05,-0.0385033070716,-0.00407037230873,0.0140563674206,-0.00711214102048,0.573876063344,0.818927560633,0.00215899468647,0.0,0.818887018284,-0.573816526542,-0.0118064412617,0.0,-0.0084299156124,0.00854357124489,-0.999927969362,0.0,0.661356903581,0.260476929847,0.303382727201,1.0,-0.00402,-0.00528342857143,0.202
0.464777444873,0.545394845686,-0.123994941976,-1.3593094878,0.0792883179326,1.89537332909,0.158763094685,-0.00420660592943,-0.0264109636112,-0.000326745783255,-0.0401407427567,-0.000806250419546,0.0136375394659,-0.00760523558666,0.573866392489,0.818934491147,0.00209992454254,0.0,0.818893311023,-0.573807220842,-0.0118222405994,0.0,-0.00847685192943,0.00850416445698,-0.999927908486,0.0,0.661286638279,0.26036163267,0.303359995871,1.0,-0.00436,-0.00573028571429,0.219
0.464714828891,0.545014533999,-0.123995287377,-1.35996895832,0.0792710542321,1.89558568836,0.158708627181,-0.000707352998178,-0.0210432705472,0.000679620723168,-0.0410373343437,0.00034019586865,0.016705825857,-0.000909409626678,0.573905394103,0.818907273828,0.00205484589442,0.0,0.818865258261,-0.573846149678,-0.0118756984591,0.0,-0.00854609498404,0.00849833293767,-0.999927368661,0.0,0.661204798836,0.260258351454,0.303333746442,1.0,-0.00468,-0.00615085714286,0.235
0.464641816665,0.544585192528,-0.124001068563,-1.36068658985,0.0792434980542,1.89583562928,0.158602242394,-0.00390419814833,-0.0264521511509,0.000388762750615,-0.0372971729776,-0.00346328345736,0.0162838970558,-0.00453706990829,0.573917867357,0.818898590074,0.00203165081015,0.0,0.818856117799,-0.573858562508,-0.0119061110458,0.0,-0.00858418260737,0.00849692314715,-0.999927054392,0.0,0.661118251488,0.260133223126,0.303319546422,1.0,-0.00504,-0.006624,0.253
0.464580263644,0.544102912687,-0.124007069009,-1.36145352449,0.0792072255891,1.89611560683,0.158507936735,-0.000138767032435,-0.028734450096,-0.000662771392572,-0.0398848394387,-0.000927093147807,0.00977612515247,-0.00453427772007,0.573933684161,0.818887525986,0.00202308466614,0.0,0.818844858802,-0.573874330192,-0.0119204556317,0.0,-0.00860068165291,0.0084983071141,-0.999926900854,0.0,0.661028045316,0.260014645762,0.303315204722,1.0,-0.00538,-0.00707085714286,0.27
0.464515236027,0.543626750918,-0.124004614503,-1.36224006689,0.0791651834617,1.89637738865,0.158415615224,-0.000819134193859,-0.0260554262931,-0.000701154343699,-0.0471050952422,-0.00752850635547,0.0166632155056,-0.00868537973876,0.57393364242,0.818887634188,0.00199087267694,0.0,0.818844457171,-0.573874333421,-0.0119478576605,0.0,-0.00864160854056,0.00848765593633,-0.999926638458,0.0,0.660936775816,0.259906222725,0.303303752841,1.0,-0.00568,-0.00746514285714,0.285
0.46443825193,0.543051917279,-0.124008081305,-1.36314742079,0.0791077187146,1.89670519338,0.158294568937,-0.00640463953802,-0.0363219290669,0.000905409496693,-0.0491663804138,-0.00715873665284,0.0104478472658,-0.00144747411324,0.573935132116,0.818886605978,0.00198433216668,0.0,0.818843365692,-0.57387587184,-0.0119487691275,0.0,-0.00864609310837,0.00848283893879,-0.999926640568,0.0,0.660832349801,0.259766124265,0.303307031615,1.0,-0.00604,-0.00793828571429,0.303
0.464371056656,0.542468236045,-0.124013137007,-1.36405972354,0.0790533385326,1.89702482612,0.158175743711,-0.00586733532983,-0.0334214314721,-0.000512579196541,-0.0535260909977,-0.00155144087035,0.0153578136594,-0.00612916880486,0.57393249854,0.81888847147,0.00197618671606,0.0,0.818845110202,-0.573873258175,-0.0119547459858,0.0,-0.00865568960648,0.00847957132036,-0.999926585259,0.0,0.660722890793,0.259631053775,0.303313486014,1.0,-0.00638,-0.00838514285714,0.32
0.4642980907,0.541899310898,-0.124014043931,-1.36493247397,0.0790061734337,1.8973521618,0.158054310571,-0.00524423727317,-0.0385909187262,-3.30868320826e-05,-0.0527180764932,-0.00596391772029,0.0241314999962,-0.00495945381346,0.573929359434,0.81889061648,0.00199887999903,0.0,0.818847503148,-0.573869977553,-0.0119483200773,0.0,-0.0086374362712,0.00849443312871,-0.999926616958,0.0,0.660623709076,0.259500774043,0.30332879877,1.0,-0.0067,-0.00880571428571,0.336
0.464217065935,0.541252650927,-0.124013757274,-1.36591815707,0.078949653236,1.89771524697,0.157927944715,-0.00266524638039,-0.0407136203368,-4.01685687697e-05,-0.0544716463829,-0.00412617883409,0.0202488040114,-0.00579667512091,0.573931602945,0.818888989325,0.00202118896538,0.0,0.818846127883,-0.573872089615,-0.0119411270106,0.0,-0.00861871943107,0.00850859674101,-0.999926658039,0.0,0.660509845337,0.259354397495,0.303348292164,1.0,-0.00704,-0.00925257142857,0.353
0.464127596564,0.540517135696,-0.124017319461,-1.36704858745,0.0788824185806,1.89813094569,0.157783273853,-0.00420553955777,-0.0415567046426,-0.00102892910343,-0.0643129308643,-0.00548625703463,0.0248641892454,-0.00955689979567,0.573933558119,0.818887575961,0.00203855415463,0.0,0.818844935831,-0.573873967676,-0.0119326103181,0.0,-0.00860175878778,0.00851794924039,-0.999926724459,0.0,0.660378879584,0.259186041107,0.30336628019,1.0,-0.0074,-0.00972571428571,0.371
0.464041585744,0.539877672907,-0.124012308172,-1.36802391588,0.0788206428755,1.89850022362,0.157669124866,-0.00620903539883,-0.0368896165878,0.000850047708211,-0.0659901095241,-0.00448802735305,0.0288867368248,-0.00532516295339,0.573944511354,0.8188798298,0.00206618846625,0.0,0.818837555522,-0.573884811553,-0.0119175348019,0.0,-0.00857343975687,0.00853204066957,-0.999926847531,0.0,0.660268594892,0.259039834584,0.30338578874,1.0,-0.0077,-0.01012,0.386
0.463933698454,0.539086024888,-0.124017963774,-1.36925008968,0.0787450384938,1.89896649061,0.157508815989,-0.0061370841719,-0.04099618669,0.000316655257582,-0.064717071763,-0.000477715929207,0.022665603992,-0.012497110384,0.573953205228,0.818873675383,0.00209018517959,0.0,0.818831761749,-0.573893454337,-0.0118994084137,0.0,-0.00854473322225,0.00854137806032,-0.999927013534,0.0,0.660132344702,0.258849572224,0.303402084912,1.0,-0.00806,-0.0105931428571,0.404
0.463829373685,0.538359518804,-0.124023323562,-1.370388744,0.0786856029159,1.89939975836,0.157372073131,-0.00909704296121,-0.0509617629239,-0.00305421088199,-0.0689823985041,-0.00377003148588,0.0215873090378,-0.00717871896245,0.57396729136,0.818863723888,0.00212062511428,0.0,0.818822138325,-0.573907346887,-0.0118915885828,0.0,-0.00852071222692,0.00856196252383,-0.999927042469,0.0,0.659997825645,0.258666973431,0.303415852925,1.0,-0.0084,-0.01104,0.421
0.463715791539,0.537578835577,-0.124032193696,-1.3716247779,0.0786281804629,1.8998787383,0.157222095834,-0.00893884175462,-0.0494366008222,0.00112703860597,-0.0716150056715,-0.00133969316905,0.0344932121107,-0.0085506895654,0.574006901791,0.81883591677,0.00213658700852,0.0,0.818794462479,-0.573946810909,-0.0118925759777,0.0,-0.00851194493499,0.00857601141724,-0.999926996746,0.0,0.659870303728,0.258478371096,0.303415883119,1.0,-0.00872,-0.0114605714286,0.437
0.463604616803,0.536740947299,-0.124030103685,-1.37292637949,0.0785457017165,1.90036023463,0.15705637465,-0.00730785455832,-0.051488938179,0.000451866468087,-0.0781460251522,-0.000686516556465,0.0249292460027,-0.00845344046923,0.574010328769,0.818833479968,0.00214975630661,0.0,0.818792207661,-0.573950195061,-0.0118844926101,0.0,-0.00849773099771,0.00858219045635,-0.999927064628,0.0,0.659719490488,0.258282052779,0.303429572575,1.0,-0.00906,-0.0119074285714,0.454
0.463478707621,0.535886702052,-0.124044936369,-1.37426699586,0.0784546532795,1.90085876239,0.156894153321,-0.00787535072605,-0.0531292933901,-0.000698229953097,-0.0837304549501,-0.0037551827124,0.0384232747642,-0.0128817094454,0.57404033299,0.818812444883,0.00215014125661,0.0,0.818771330227,-0.573980348216,-0.0118665732632,0.0,-0.00848252235368,0.00857253073209,-0.999927276621,0.0,0.659571297481,0.258061563143,0.30343810026,1.0,-0.0094,-0.0123542857143,0.471
0.463367024923,0.535034962841,-0.124041323815,-1.37558789681,0.078391495327,1.90133574729,0.156730768946,-0.00127073595,-0.0560712521015,-0.000749137436201,-0.0804549633798,-0.00444315737106,0.03003913766,-0.00946687090673,0.574050967565,0.818804944736,0.00216702903225,0.0,0.818763852957,-0.573990714673,-0.0118810547445,0.0,-0.00848457518486,0.00859478148784,-0.999927068198,0.0,0.659413569069,0.257866532974,0.303451652635,1.0,-0.00972,-0.0127748571429,0.487
0.463240294475,0.534140127889,-0.124046069831,-1.3770724089,0.0783058625149,1.90187191959,0.156554280496,-0.0106691146309,-0.0505295399733,0.000490527588923,-0.0871363123599,0.000309194530596,0.0298772855996,-0.0132314773248,0.574071969106,0.818790341213,0.00212092526252,0.0,0.818748592897,-0.574011842933,-0.0119118724045,0.0,-0.00853605419743,0.00857494171553,-0.999926800398,0.0,0.659237448192,0.25763827268,0.303422971724,1.0,-0.01006,-0.0132217142857,0.504
0.463105757114,0.533212103086,-0.124049195649,-1.37855035952,0.0782225159309,1.90243346743,0.15636260007,-0.00344623431406,-0.058053514554,-0.000638270488076,-0.0880896788714,-0.00290959810096,0.0348379730732,-0.00526847190967,0.574086011163,0.818780467623,0.00213178961984,0.0,0.818738822979,-0.574025801059,-0.0119107668598,0.0,-0.0085287652202,0.0085833488167,-0.999926790464,0.0,0.65906993034,0.257409128727,0.303422779574,1.0,-0.0104,-0.0136685714286,0.521
0.46298501228,0.532318687919,-0.12404927502,-1.37999317634,0.0781373703065,1.90298730314,0.15618434375,-0.00678829009373,-0.0545428711631,-0.000448431848638,-0.0909392723554,-0.00919990108608,0.0353974910572,-0.0092638845314,0.574095100381,0.818774087691,0.00213446634727,0.0,0.818732465924,-0.574034866212,-0.0119108570796,0.0,-0.00852720721006,0.00858568688776,-0.999926783679,0.0,0.658903622408,0.257193768132,0.30341395359,1.0,-0.01072,-0.0140891428571,0.537
0.462841901192,0.531279806489,-0.124050074858,-1.38166968152,0.0780330375141,1.90359782699,0.155968771474,-0.00712934269796,-0.0578976240741,-0.000511319777348,-0.098369054931,-0.00490982363067,0.031770600179,-0.0175862883823,0.574099662692,0.818770955927,0.00210853711163,0.0,0.818728985751,-0.574039522889,-0.0119256426938,0.0,-0.00855415092483,0.00857299295542,-0.999926662458,0.0,0.65870452754,0.256938205633,0.303401157878,1.0,-0.01108,-0.0145622857143,0.555
0.462690955291,0.530054550077,-0.124058397993,-1.38360203467,0.0779000645402,1.90427664532,0.15571637378,-0.008354330071,-0.0585224968032,-0.00182214702516,-0.092475127407,-0.00384701381046,0.0333736851853,-0.0145928784329,0.574091514828,0.818776756372,0.00207430220088,0.0,0.81873444521,-0.574031621428,-0.0119311663092,0.0,-0.00857841175565,0.00854804857813,-0.99992666817,0.0,0.658468998843,0.256645246586,0.303403757867,1.0,-0.01148,-0.015088,0.575
0.462582326691,0.529253163407,-0.124055628374,-1.38486231051,0.0778400343217,1.90474994097,0.155544438849,-0.0147485474354,-0.0618745645907,0.000168366208931,-0.100332524673,3.21740869709e-05,0.034281349752,-0.0107701613239,0.574090101291,0.818777693451,0.00209552086646,0.0,0.818735489959,-0.574029952294,-0.0119397760152,0.0,-0.00857329558555,0.00857034953107,-0.999926521156,0.0,0.658320481834,0.256458645492,0.303409313761,1.0,-0.01174,-0.0154297142857,0.588
0.462435405543,0.528103514361,-0.124058144709,-1.38667671017,0.0777223226747,1.90543732785,0.155295766303,-0.00796436128817,-0.0626073468308,-0.000393185068844,-0.104911480544,-0.00875943235766,0.044023340435,-0.0134357073107,0.574070990182,0.818791059059,0.00210872894532,0.0,0.818749089636,-0.574010851425,-0.0119255007218,0.0,-0.00855422476383,0.00857276896442,-0.999926663746,0.0,0.658117957509,0.256207642011,0.303416355743,1.0,-0.01208,-0.0158765714286,0.605
0.462298007102,0.527032013288,-0.124055647,-1.38832826689,0.0776119296748,1.90606798332,0.15505331757,-0.00651779622791,-0.0694328636975,-0.00159454717393,-0.106114712414,-0.00231441206098,0.0391447580142,-0.0160968353882,0.5740516594,0.818804495529,0.00215344913312,0.0,0.818763241812,-0.573991475916,-0.0118863928582,0.0,-0.00849673405015,0.00858673385907,-0.999927034094,0.0,0.65790455617,0.255925702316,0.303443622017,1.0,-0.01244,-0.0163497142857,0.623
0.462152607962,0.525849979759,-0.124060995,-1.39014582854,0.0775069696149,1.90674388883,0.154814357969,-0.00728383531768,-0.0701775860921,0.00035236082047,-0.104589936919,-0.00278575278682,0.0412996306291,-0.0126065096809,0.574039791304,0.818812747887,0.00217917386212,0.0,0.818771729,-0.573979404783,-0.0118846782102,0.0,-0.00848068838628,0.00860668985582,-0.999926998743,0.0,0.657712907201,0.25568970833,0.303458346402,1.0,-0.01274,-0.016744,0.638
0.462002120831,0.524766490623,-0.124064844275,-1.39186658964,0.077397321139,1.90735694392,0.15457963454,-0.0137388198559,-0.0671386905081,-0.000149037643539,-0.109026952782,-0.0129890316158,0.04281252024,-0.0150255152946,0.574040696816,0.818812170339,0.00215754594191,0.0,0.818770900682,-0.573980428198,-0.0118923145132,0.0,-0.00849934635207,0.0085933737931,-0.999926954851,0.0,0.657491786742,0.255404361808,0.303459150329,1.0,-0.01308,-0.0171908571429,0.655
0.461840054162,0.523509745302,-0.124071174973,-1.39388614988,0.0772634947809,1.90807917794,0.154312631259,-0.00817908007774,-0.0680146782407,0.00187433748097,-0.112898100732,-0.00701807639043,0.0433093884792,-0.0237256833207,0.574031428537,0.818818779196,0.00211489677342,0.0,0.818777012903,-0.573971392712,-0.0119075770904,0.0,-0.00853642184245,0.00856711729392,-0.999926864327,0.0,0.657244239997,0.255098320078,0.303444314716,1.0,-0.01344,-0.017664,0.673
0.461707447506,0.522432393038,-0.124075413473,-1.39560799945,0.0771578864756,1.90874909168,0.154083421283,-0.00761683092964,-0.0732675454094,-0.0009765596845,-0.12022740906,-0.00980147309763,0.0536845298271,-0.0191369827582,0.574019933645,0.818826800805,0.00212907549912,0.0,0.818785270165,-0.573959893067,-0.0118940915232,0.0,-0.00851736095024,0.00857086630042,-0.999926994742,0.0,0.657028762502,0.254826924434,0.30343752884,1.0,-0.01376,-0.0180845714286,0.689
0.46153455383,0.521188513397,-0.124078465268,-1.39760551927,0.0770360171313,1.90951891325,0.153812547809,-0.0118191130583,-0.0738489963588,0.000647625410906,-0.121186757863,-0.00665083868612,0.0450897397237,-0.0141566669596,0.57401538051,0.818829957597,0.00214251760889,0.0,0.818788623324,-0.573955307839,-0.0118845202104,0.0,-0.00850185551324,0.00857633155513,-0.999927079836,0.0,0.656808343332,0.254543218745,0.303430199325,1.0,-0.01408,-0.0185051428571,0.705
0.461359501084,0.519827593268,-0.124086418925,-1.39977187842,0.0768963848443,1.91030642646,0.153519014739,-0.00938194364488,-0.0794828979706,-0.00120743561747,-0.120438451453,-0.0174807522502,0.0394503353887,-0.0207645330045,0.574001648005,0.818839641489,0.00212049871681,0.0,0.818798069931,-0.573941715498,-0.011890113078,0.0,-0.00851921728011,0.00856136959122,-0.999927060284,0.0,0.65654387287,0.254215255179,0.303423338828,1.0,-0.01444,-0.0189782857143,0.723
0.461197533122,0.518543853273,-0.124092912708,-1.40172479266,0.0767736220367,1.91100109253,0.15325023208,-0.0113491274998,-0.0837361473723,-0.00153600856974,-0.120302566394,-0.0124777773868,0.0392493373585,-0.0227534797069,0.573989140576,0.818848357409,0.00214032016235,0.0,0.818807042747,-0.573929128634,-0.0118797708215,0.0,-0.00849950237955,0.0085715336953,-0.99992714098,0.0,0.656303953332,0.253917539827,0.303455333121,1.0,-0.01476,-0.0193988571429,0.739
0.461013707182,0.517194078979,-0.124096681759,-1.40386793976,0.0766267530926,1.9117668021,0.152958283262,-0.00807311560924,-0.0839444854698,0.000436692660696,-0.128953235504,-0.0135454113643,0.0471460996941,-0.00913510843956,0.573976910782,0.81885701627,0.00210705843036,0.0,0.818815354498,-0.573917120749,-0.0118869949873,0.0,-0.00852463646575,0.00854831703847,-0.999927125769,0.0,0.656040452945,0.253586355059,0.303448842696,1.0,-0.0151,-0.0198457142857,0.756
0.460830896133,0.515839359748,-0.124105580655,-1.40600272075,0.0764979219463,1.91258172615,0.152667386255,-0.0108069919222,-0.0794139665777,-0.000522731124466,-0.12846021938,-0.00722746801244,0.0461589178236,-0.0148162524863,0.573972942257,0.818859729513,0.00213350429869,0.0,0.818818441261,-0.573913075721,-0.0118696532726,0.0,-0.0084952986149,0.0085599772828,-0.999927275701,0.0,0.655788041012,0.253260132051,0.303453851315,1.0,-0.01544,-0.0202925714286,0.773
0.46065917512,0.514516429035,-0.124103594273,-1.40809193617,0.0763736454015,1.91335319342,0.152375180135,-0.00895751880686,-0.0829772752334,0.000476570894192,-0.134452768786,-0.00521582914838,0.048781261695,-0.0196438445241,0.573949418522,0.818876202111,0.00213950815956,0.0,0.818834913212,-0.573889451415,-0.0118755783668,0.0,-0.00849695093957,0.00856805023793,-0.999927192519,0.0,0.655530620615,0.252950390627,0.303453738892,1.0,-0.01576,-0.0207131428571,0.789
0.460464573146,0.513123117413,-0.124105847351,-1.41036215081,0.0762414480739,1.91413718491,0.15205755474,-0.0129550790809,-0.0848925281923,-2.19534563918e-05,-0.135735063995,-0.00380370494874,0.047317978953,-0.0123758429376,0.573933619886,0.818887468887,0.00206401704649,0.0,0.818845019238,-0.573873784066,-0.0119357166174,0.0,-0.00858968887544,0.00854058355499,-0.999926635148,0.0,0.655240877616,0.25260230944,0.303417668214,1.0,-0.0161,-0.02116,0.806
0.460265141101,0.511627002161,-0.124106800952,-1.41279018923,0.0760922769171,1.91502108954,0.151735074599,-0.0065645849251,-0.078733591176,0.000517033438387,-0.139867843355,-0.0127502305867,0.0520793105445,-0.0206754651681,0.573920373538,0.818896859944,0.00202101788965,0.0,0.818853787929,-0.573860656712,-0.0119652652938,0.0,-0.00863870184586,0.0085221917599,-0.999926369828,0.0,0.654937138671,0.252238521175,0.303386648073,1.0,-0.01646,-0.0216331428571,0.824
0.460075155342,0.51023828998,-0.12410722851,-1.41497112978,0.0759565333108,1.91585081398,0.151409243118,-0.00727927884315,-0.0865909280714,0.00108416533256,-0.136732950157,-0.00509797060573,0.0509078873927,-0.0155324525088,0.573886741487,0.818920357194,0.00205022429072,0.0,0.818877680042,-0.573826921147,-0.0119480791903,0.0,-0.00860821712072,0.00853589148664,-0.999926515877,0.0,0.654674523176,0.251907660668,0.303392777113,1.0,-0.01678,-0.0220537142857,0.84
0.459869299475,0.508734388874,-0.124115862152,-1.41734255019,0.0757991042308,1.91670520188,0.151089686454,-0.0139253135881,-0.0903827133991,-7.81372892205e-05,-0.139590369088,-0.00862096752159,0.0508956155732,-0.0196719048157,0.573880365944,0.818924874385,0.00203041825702,0.0,0.818882012148,-0.573820701012,-0.0119499025816,0.0,-0.00862114242669,0.00852065150329,-0.999926534502,0.0,0.654380500077,0.25153885341,0.303390776928,1.0,-0.01712,-0.0225005714286,0.857
0.459652778042,0.507201289162,-0.124124753097,-1.41974334234,0.0756401909994,1.91756421289,0.150747579084,-0.0128693888278,-0.0906971465218,-0.00136603347171,-0.144823903801,-0.0134546938829,0.0457963177067,-0.0153788218224,0.573865086749,0.818935618576,0.00201537590356,0.0,0.818892620546,-0.573805545858,-0.0119506676826,0.0,-0.00863055972561,0.00850861121856,-0.99992655579,0.0,0.654082972195,0.251159984766,0.303395092111,1.0,-0.01746,-0.0229474285714,0.874
0.45944774548,0.505736004133,-0.124128654134,-1.42203785486,0.0755058040432,1.91843481308,0.15043849565,-0.0153182192639,-0.0940745394919,-0.000496008461692,-0.139426744854,-0.0146245641905,0.0561242239428,-0.0146717384811,0.573865184451,0.81893546015,0.00205160548377,0.0,0.818892885301,-0.573805444689,-0.011937376169,0.0,-0.00859888380418,0.00853065395273,-0.999926640879,0.0,0.653805152991,0.250807983233,0.303402948757,1.0,-0.01778,-0.023368,0.89
0.459230786492,0.504078648632,-0.124129626899,-1.42451519658,0.0753510289914,1.91939270962,0.150087207576,-0.0103440921745,-0.104363300102,0.00535283131518,-0.143646873847,-0.00758649132549,0.0570510760214,-0.0157543298003,0.573841769592,0.818951570568,0.00216689567773,0.0,0.818910552498,-0.573781619715,-0.0118704164279,0.0,-0.00847813449557,0.00858639982023,-0.999927194837,0.0,0.653508436776,0.250433434138,0.303464799927,1.0,-0.01812,-0.0238148571429,0.907
0.458982776276,0.502298674383,-0.124140857356,-1.42713710409,0.075178044941,1.92037310858,0.149718053371,-0.0126886265488,-0.106889733664,-0.000146655872955,-0.143111440679,-0.0121886101322,0.0569552463283,-0.0254183320814,0.573838121366,0.818953827211,0.00227733732161,0.0,0.818914387639,-0.573777684514,-0.0117958201006,0.0,-0.00835370751597,0.00863400177595,-0.999927832188,0.0,0.653194630648,0.250015809015,0.303545010519,1.0,-0.01848,-0.024288,0.925
0.458763262225,0.500694106673,-0.124142601601,-1.42956449875,0.0750295940511,1.92123039225,0.149376164324,-0.0138374308071,-0.102296367563,0.000258288966634,-0.149119364677,-0.0125199706245,0.0575762036054,-0.0236323341526,0.573822799106,0.818964473018,0.00230955899442,0.0,0.818925358232,-0.573762143249,-0.0117901450479,0.0,-0.00833073279977,0.00865697713375,-0.999927825214,0.0,0.652886698243,0.249638883001,0.303583812784,1.0,-0.0188,-0.0247085714286,0.941
0.458519594457,0.498984414154,-0.124144737175,-1.43218476807,0.074859550003,1.92219002047,0.14900986508,-0.0150504528379,-0.102665669051,-0.00013764676863,-0.158643628824,-0.00509407369166,0.0586197920529,-0.0287594673433,0.573811179846,0.818972508242,0.00234681239844,0.0,0.818933906934,-0.573750414628,-0.0117671020167,0.0,-0.00829060808656,0.00867414594203,-0.999928009914,0.0,0.652561659786,0.249228009708,0.30361243708,1.0,-0.01914,-0.0251554285714,0.958
0.458263008654,0.497318270429,-0.124144736852,-1.43483322898,0.0746944154574,1.9231627793,0.148625674751,-0.0137508696463,-0.0997014215336,-0.0013365845471,-0.157420917826,-0.010993045599,0.0655105372792,-0.0118364090628,0.573796452921,0.81898285485,0.00233687361511,0.0,0.818944075268,-0.57373567578,-0.0117780653198,0.0,-0.00830544570302,0.00867214787025,-0.999927904113,0.0,0.652232553323,0.248807836599,0.303597822359,1.0,-0.01948,-0.0256022857143,0.975
0.458012050656,0.495734236663,-0.124140158401,-1.43738408651,0.0745415069236,1.92403505966,0.148258752856,-0.0117841281915,-0.105029010171,0.00069660773859,-0.161409402808,-0.0161503443139,0.0523429062646,-0.0202283002055,0.573785541757,0.818990710381,0.00226169875211,0.0,0.81895073,-0.573724824082,-0.011843773317,0.0,-0.0084025093781,0.00864817223731,-0.999927300834,0.0,0.651900518229,0.248399902452,0.303563019073,1.0,-0.0198,-0.0260228571429,0.991
0.457735183926,0.494057264081,-0.124147524362,-1.44012800873,0.0743675170445,1.9250121153,0.147866650412,-0.0150883385298,-0.103360070366,-0.00157140938364,-0.165130576746,-0.00407886783353,0.0616188575539,-0.017302683228,0.573787476584,0.818989575387,0.00218037234989,0.0,0.818948483316,-0.573727026715,-0.0118923249304,0.0,-0.00848891503761,0.00860944550005,-0.999926905213,0.0,0.651554099911,0.247950232635,0.303509977286,1.0,-0.021136,-0.0277787428571,1.008
0.457416792257,0.491927221243,-0.124179570985,-1.44351390854,0.0741537726307,1.92626938177,0.147387644236,-0.0186201903438,-0.11492673117,-0.000256937204363,-0.190709667775,-0.0101413314648,0.0690460889956,-0.0198666896152,0.573791087991,0.818987072405,0.00217013297564,0.0,0.818945964147,-0.57373079746,-0.0118838863049,0.0,-0.00848784054821,0.00859625519909,-0.999927027817,0.0,0.651136083769,0.247401585568,0.303490958673,1.0,-0.0242737142857,-0.0319025959184,1.027
0.457139625623,0.49020859301,-0.124180403563,-1.4463225365,0.0739937491937,1.92725147968,0.146979103749,-0.0214404594414,-0.118464373165,0.00121068095297,-0.206311156758,-0.0206968188929,0.0725276047128,-0.0260819803319,0.573781099596,0.818994288362,0.00208621136168,0.0,0.818951806032,-0.573720870486,-0.0119603121534,0.0,-0.00859868989369,0.00857127264488,-0.999926295192,0.0,0.650770892708,0.246951344204,0.303434906292,1.0,-0.0265857142857,-0.0349412244898,1.041
0.456769040153,0.487823255215,-0.124200815852,-1.45007167224,0.07375772979,1.92863628406,0.146439627041,-0.0201490160003,-0.149872058699,-0.00107171392077,-0.227049581921,-0.0141050507798,0.0772240813555,-0.0288909064817,0.573785729266,0.818991015019,0.00209788202773,0.0,0.818948727814,-0.57372549419,-0.0119492857082,0.0,-0.00858291447554,0.00857455251873,-0.999926402606,0.0,0.650275736757,0.246300456983,0.303425017692,1.0,-0.0295582857143,-0.0388480326531,1.059
0.456343864368,0.48519157528,-0.124229496722,-1.4541163394,0.0735142343219,1.93019205354,0.1458351183,-0.0257933164975,-0.157589713131,-0.00232969309992,-0.244247465394,-0.0153002756707,0.0972648654675,-0.0353789980368,0.573788326309,0.818988890038,0.00221393039563,0.0,0.818948192001,-0.573727698522,-0.0118799691745,0.0,-0.00845953244952,0.00862984807525,-0.99992697835,0.0,0.64981884551,0.245669779601,0.303467401923,1.0,-0.0322005714286,-0.0423207510204,1.075
0.455906862724,0.482486970527,-0.124262848662,-1.4582804762,0.0732505055342,1.93161471818,0.145200312033,-0.0296831235011,-0.177337474233,-0.00308075820347,-0.267025641692,-0.0152332387465,0.0893088028749,-0.0350658239282,0.573782698798,0.818992926246,0.00217904098535,0.0,0.818951704096,-0.57372214058,-0.0119062448983,0.0,-0.0085011299644,0.00861629254885,-0.999926742463,0.0,0.649281531552,0.244963123931,0.303486310108,1.0,-0.0348428571429,-0.0457934693878,1.091
0.455368005393,0.479210114492,-0.124314677277,-1.46340319107,0.0729395236408,1.93344919163,0.144439198983,-0.0282377924708,-0.18342718679,-0.00290569407665,-0.294248457222,-0.0228323758507,0.0924432004901,-0.0395742242257,0.573803849628,0.818978145146,0.00216490779997,0.0,0.818936692428,-0.573743298892,-0.0119192144712,0.0,-0.00851963884574,0.00861237939624,-0.999926618645,0.0,0.648633870359,0.244094154932,0.30348017344,1.0,-0.0378154285714,-0.049700277551,1.109
0.454770220263,0.475660996878,-0.124346758239,-1.46881030849,0.0726103430066,1.93545684011,0.143671406546,-0.0307226308851,-0.199122446013,-0.00047035011933,-0.309517000482,-0.0178274846984,0.120696883148,-0.0405779377573,0.573860687082,0.818937977479,0.00229080029413,0.0,0.818898151437,-0.573799614673,-0.0118560817594,0.0,-0.00839509692241,0.0086798384645,-0.999927088718,0.0,0.647963961929,0.24317776432,0.303538729327,1.0,-0.040788,-0.0536070857143,1.127
0.454240527645,0.472521672203,-0.124374887013,-1.47366082474,0.0723171846751,1.93716265949,0.142951256367,-0.0372700543847,-0.213835725267,-0.000707565117341,-0.328624616084,-0.0254865005103,0.124242981116,-0.0505833097079,0.573878447859,0.818925531882,0.00229068012675,0.0,0.818885501049,-0.573817163643,-0.0118804789759,0.0,-0.00841495800519,0.00869392296279,-0.999926799413,0.0,0.647336454091,0.242354529816,0.303549871281,1.0,-0.0432651428571,-0.0568627591837,1.142
0.453617716701,0.468744647855,-0.124380895444,-1.47937669515,0.0719603443158,1.93928762411,0.142053237286,-0.0370764045259,-0.231572173975,0.00348015470357,-0.341495025838,-0.0174119009567,0.132007022607,-0.0560068624498,0.573833372175,0.818956610913,0.00246522245625,0.0,0.818918750158,-0.573771314842,-0.0118027880329,0.0,-0.00825165622657,0.00879181982047,-0.999927304395,0.0,0.646565320913,0.241351184129,0.303629231809,1.0,-0.0462377142857,-0.0607695673469,1.16
0.45289933107,0.464476652545,-0.124385111209,-1.48584225523,0.0715324529456,1.94161189783,0.141037303018,-0.048027533986,-0.236102202691,0.000301929712385,-0.368335820888,-0.0228936774772,0.129230496325,-0.051110702845,0.573780323287,0.81899351149,0.002552576507,0.0,0.818956807749,-0.573717971431,-0.0117551350169,0.0,-0.00816307745458,0.00883548518848,-0.999927646566,0.0,0.645771293102,0.240323484026,0.303690574496,1.0,-0.0490451428571,-0.0644593306122,1.177
0.45222119851,0.460529522073,-0.124393964592,-1.4920108183,0.071115747592,1.94374103702,0.140130540294,-0.0376483100261,-0.246798047214,-0.00148323032149,-0.384533692373,-0.0243799922649,0.132154292331,-0.0583410214254,0.573772974287,0.818998932096,0.00246375823445,0.0,0.818960965279,-0.57371083747,-0.011813518492,0.0,-0.00826193329706,0.00879616881736,-0.999927181285,0.0,0.644942004807,0.239282419707,0.303658484972,1.0,-0.0516874285714,-0.0679320489796,1.193
0.451454981042,0.456164670076,-0.12440575387,-1.49881190669,0.0706503694233,1.94613640704,0.139092590458,-0.0464001864717,-0.259575709495,-0.00314856464716,-0.410423023128,-0.0254837407655,0.144943374383,-0.0618756550223,0.573745355679,0.819018431828,0.00241289539715,0.0,0.818979805191,-0.57368341803,-0.0118389808395,0.0,-0.00831226547968,0.00876884170231,-0.999927004165,0.0,0.644034996706,0.238125078794,0.303631966608,1.0,-0.0544948571429,-0.0716218122449,1.21
0.450620730586,0.451538578129,-0.124436505021,-1.50584141676,0.0701756478293,1.94871119141,0.137943361629,-0.0471066015398,-0.279844891258,-0.00126494487638,-0.412854891629,-0.0261187518989,0.159519854046,-0.0727299291091,0.573701124001,0.819049029434,0.002540591312,0.0,0.819012265705,-0.57363892961,-0.0117487855615,0.0,-0.00816560654364,0.00882123676512,-0.999927751716,0.0,0.643125576068,0.236900959426,0.303687205011,1.0,-0.0573022857143,-0.0753115755102,1.227
0.449798486803,0.446975847179,-0.12449663684,-1.51275181803,0.0697069542082,1.95118895109,0.136922383454,-0.0508825543563,-0.288897217623,-0.00180637016773,-0.44417506924,-0.0238126866263,0.147430357725,-0.066957822884,0.573765897051,0.819003377723,0.00262860422426,0.0,0.818968003557,-0.573703647402,-0.0116739457027,0.0,-0.00805311617831,0.00885102509159,-0.999928400774,0.0,0.642219711835,0.2356765593,0.303742984955,1.0,-0.0599445714286,-0.0787842938775,1.243
0.448815119417,0.441662620201,-0.12451818377,-1.52101836766,0.0691395966096,1.95392911134,0.135657029472,-0.0521761337332,-0.29774187118,-0.000865429331649,-0.463233928642,-0.0367174392452,0.157190693035,-0.0747443999475,0.57376204586,0.819006666461,0.00243760618246,0.0,0.818968525928,-0.573700186115,-0.0118066461363,0.0,-0.00827142602424,0.00877069704708,-0.999927326552,0.0,0.641065283092,0.234226779559,0.303683789807,1.0,-0.0629171428571,-0.0826911020408,1.261
0.447883649885,0.436792537971,-0.12453500357,-1.52857132471,0.0686419795114,1.95656838721,0.134414674388,-0.0553258100896,-0.30744141928,-0.00335444521535,-0.475950406845,-0.0348967215883,0.169584333848,-0.0782382919584,0.573715541894,0.819039357384,0.00239894673215,0.0,0.819000459275,-0.573653567005,-0.0118566298075,0.0,-0.00833504258375,0.008767240067,-0.999926828606,0.0,0.640033565655,0.232896838043,0.303646116311,1.0,-0.0655594285714,-0.0861638204082,1.277
0.446891633237,0.431646765177,-0.12455348975,-1.53618240459,0.0681217342996,1.95940786968,0.133175479458,-0.0650911074281,-0.317401036697,-0.00111481455462,-0.488023428616,-0.0344629056135,0.181775419845,-0.0804762226631,0.573720091675,0.819035265564,0.002690180862,0.0,0.819000465573,-0.573657383704,-0.0116700648979,0.0,-0.00801510690343,0.00889878141063,-0.999928282304,0.0,0.63897338258,0.231442427465,0.303773079686,1.0,-0.0683668571429,-0.0898535836735,1.294
0.44570341105,0.425793785508,-0.12462804349,-1.54530602958,0.0674461010793,1.96241345176,0.131697984557,-0.0675028651783,-0.33114636462,-0.000604432259277,-0.510320816067,-0.036090926684,0.166375656977,-0.0781685741997,0.573733403715,0.819026746704,0.00243239509011,0.0,0.818988739783,-0.573671780733,-0.0117846934597,0.0,-0.00825674169025,0.00875354501272,-0.999927598212,0.0,0.637759540718,0.229838545699,0.303684234822,1.0,-0.0711742857143,-0.0935433469388,1.311
0.44459833996,0.420320624156,-0.124715122055,-1.55370239214,0.0668447353946,1.96515844825,0.130336950858,-0.0716739421232,-0.346494340391,-0.00411173042421,-0.522673489746,-0.0335315583321,0.172313028682,-0.0745584823486,0.573773632078,0.818999075668,0.00225390527843,0.0,0.818958775315,-0.573712721871,-0.0118736683274,0.0,-0.00843159158707,0.00865882001791,-0.999926963882,0.0,0.636571660564,0.228264834814,0.303646686655,1.0,-0.0738165714286,-0.0970160653061,1.327
0.44329100622,0.413916979397,-0.124745553688,-1.56315746265,0.0662035846226,1.96866906663,0.128797792491,-0.0719439698673,-0.358771825184,-0.000944634169179,-0.527123282651,-0.0296509969725,0.202195154655,-0.0921997213834,0.573821923384,0.818964120419,0.00262994505801,0.0,0.818928929422,-0.573759844245,-0.011653179319,0.0,-0.00803473357773,0.00884075807314,-0.99992863948,0.0,0.635307637619,0.226530958174,0.303791664542,1.0,-0.0767891428571,-0.100922873469,1.345
0.441980598187,0.407785336454,-0.124775742197,-1.57249078493,0.0655513454994,1.97178494683,0.127218476641,-0.078811580837,-0.366039341092,-0.00351045201042,-0.557769687631,-0.0446959669349,0.182306899851,-0.0920771167565,0.573822051566,0.818964281359,0.00255066568646,0.0,0.818927763896,-0.573759929943,-0.0117306100625,0.0,-0.00814363766445,0.00882026349666,-0.999927939462,0.0,0.633973899496,0.224783583122,0.303767629548,1.0,-0.0795965714286,-0.104612636735,1.362
0.440694110344,0.401876687019,-0.12485217071,-1.58160077773,0.0649050439127,1.97479758477,0.125696028514,-0.081985616826,-0.377051371857,-0.00645919639505,-0.567582207601,-0.0426300855265,0.193533938678,-0.100969884977,0.573869546401,0.818931540054,0.00237135377915,0.0,0.818892536589,-0.573807924958,-0.0118416922496,0.0,-0.00833699419247,0.0087376386979,-0.99992707144,0.0,0.632660904011,0.223045297037,0.303683171919,1.0,-0.0822388571429,-0.108085355102,1.378
0.439336475913,0.395666111311,-0.12488142673,-1.59068354849,0.0642207258929,1.97807572691,0.124133215964,-0.0921231009244,-0.389728907743,0.000546232383742,-0.580002685955,-0.0530154859969,0.197560275605,-0.0955127348664,0.573887693375,0.818917885152,0.00267575647971,0.0,0.818883407305,-0.573825579343,-0.0116153619912,0.0,-0.00797676374235,0.00885721641291,-0.999928957955,0.0,0.631409163518,0.221311434996,0.303825741249,1.0,-0.0848811428571,-0.111558073469,1.394
0.437853070844,0.389005519647,-0.124912384854,-1.60081904708,0.0634659339488,1.98136692548,0.122431801169,-0.0923575333744,-0.398709987249,-0.00301125450417,-0.608310242816,-0.0505958287166,0.200652092171,-0.10567659169,0.573908962535,0.818903540501,0.00249819488317,0.0,0.81886655299,-0.573847249074,-0.0117324347628,0.0,-0.00817430748536,0.00877920672235,-0.999928050525,0.0,0.62990547469,0.219378168349,0.30376253275,1.0,-0.0876885714286,-0.115247836735,1.411
0.436230361597,0.381681095016,-0.124944804277,-1.6116830367,0.0626671425668,1.98495901394,0.120449378573,-0.0916631669489,-0.424631620133,-7.4139099879e-05,-0.598902324987,-0.0423782936698,0.214251939772,-0.109302161277,0.573822199845,0.818964244229,0.00252913833881,0.0,0.818927480905,-0.573760193032,-0.0117374959616,0.0,-0.00816162774445,0.00880658619607,-0.999927913338,0.0,0.628297209904,0.217299699099,0.303810654784,1.0,-0.0906611428571,-0.119154644898,1.429
0.434808136378,0.375519710533,-0.124948747297,-1.62089398701,0.0620139691248,1.98812350628,0.118826063464,-0.100832680436,-0.415935414944,-0.00118323892757,-0.63063056743,-0.0431281664513,0.213303020706,-0.114160855141,0.573817355834,0.818967334245,0.00262573498659,0.0,0.818931562287,-0.573754713971,-0.0117205540647,0.0,-0.0080923788954,0.00887592548609,-0.999927863073,0.0,0.626943591533,0.215537593234,0.303818709328,1.0,-0.0931382857143,-0.122410318367,1.444
0.432991085933,0.367921789676,-0.125021475717,-1.63233848894,0.061115645902,1.99174772463,0.116854507306,-0.0987776449475,-0.422958346224,-0.00324134400975,-0.640344433416,-0.0476944179713,0.199526298442,-0.105310619845,0.573900493486,0.818909783824,0.00239508565511,0.0,0.818871012467,-0.573838696221,-0.0118390270632,0.0,-0.00832086246572,0.0087558582667,-0.999927046436,0.0,0.625204726156,0.213251451466,0.303752528204,1.0,-0.0961108571428,-0.126317126531,1.462
0.431261831164,0.360483859695,-0.125076988592,-1.64313121882,0.0602725576687,1.99542689917,0.114849246996,-0.103237481661,-0.432604124951,-0.000280430175815,-0.649965770038,-0.0433994155554,0.213661279394,-0.118781554002,0.573854869344,0.818941043848,0.00262726713002,0.0,0.818905754068,-0.573792724961,-0.0116628314489,0.0,-0.00804381946366,0.00884442707014,-0.999928533985,0.0,0.623603149617,0.2111203354,0.303877826597,1.0,-0.0989182857143,-0.130006889796,1.479
0.429503542551,0.353426404961,-0.125084421292,-1.65365247202,0.0595139277429,1.99879664713,0.112898893327,-0.113801228073,-0.44771207209,0.000899958491081,-0.669406628728,-0.055758318249,0.211617404334,-0.116574256462,0.573849276328,0.818945168146,0.00256252409518,0.0,0.818908303543,-0.573786564893,-0.011786230885,0.0,-0.00818209246657,0.00886216294769,-0.999927255069,0.0,0.621975118846,0.209026610191,0.303840335329,1.0,-0.101560571429,-0.133479608163,1.495
0.427571102637,0.345740897427,-0.125162818749,-1.66489052736,0.0586520779267,2.00251336129,0.110754390782,-0.110013156402,-0.471030588588,-0.00167660184561,-0.659775606028,-0.0487479945424,0.232874594149,-0.12357410269,0.573864543552,0.818934112779,0.00267422531679,0.0,0.818898807176,-0.573801542593,-0.0117166644189,0.0,-0.0080608567651,0.00891386982037,-0.999927780149,0.0,0.620268683819,0.206723892673,0.303893889373,1.0,-0.104368,-0.137169371429,1.512
0.425583067212,0.33793048249,-0.125162217418,-1.67631673944,0.0577406634256,2.00623403062,0.108615700137,-0.124944461922,-0.454991109558,0.000823136742024,-0.676861315606,-0.0570179030438,0.21551818515,-0.132692196647,0.573848141239,0.818945405465,0.00273506237192,0.0,0.818910880466,-0.573784917645,-0.0116869602436,0.0,-0.00800179891691,0.00894648499517,-0.999927963216,0.0,0.618487862536,0.20441614284,0.303923386461,1.0,-0.107175428571,-0.140859134694,1.529
0.423654021314,0.330454907367,-0.125183331092,-1.6874064913,0.0568054190408,2.00964275272,0.106489336541,-0.121736529067,-0.481182472011,-0.00183752962171,-0.681303140024,-0.0616019499748,0.216700625477,-0.138619577758,0.573777698861,0.818995459814,0.00251714036636,0.0,0.818958071907,-0.573715237416,-0.0118004116974,0.0,-0.00822052009167,0.00883241554185,-0.999927203093,0.0,0.616698722775,0.202152349827,0.303852218523,1.0,-0.109817714286,-0.144331853061,1.545
0.421513081411,0.32230425749,-0.12517914206,-1.69914857941,0.0558721573683,2.0135109209,0.104167746166,-0.131246026096,-0.477326172666,-0.00105645541531,-0.699751617662,-0.0593712079223,0.219691550035,-0.136153842053,0.573713291735,0.819039904883,0.00272763562678,0.0,0.819005240999,-0.573650064009,-0.0116947073325,0.0,-0.00801387792138,0.00894352910415,-0.999927892924,0.0,0.614736106541,0.199600831883,0.303933372642,1.0,-0.112790285714,-0.148238661224,1.563
0.419123919461,0.313563524397,-0.125226428602,-1.71195725072,0.0548497545541,2.01742501871,0.101647894225,-0.138165469962,-0.486071409993,-0.0064898769454,-0.707979157208,-0.0630803688226,0.213783864392,-0.150271026688,0.573725747534,0.819031631147,0.00258857064656,0.0,0.818994665824,-0.573662478443,-0.0118256111652,0.0,-0.00820074163887,0.00890485460346,-0.999926723016,0.0,0.612759420493,0.197050963696,0.303883057206,1.0,-0.115597714286,-0.15192842449,1.58
0.4169328321,0.305549861116,-0.125305632548,-1.72328896526,0.0538558060161,2.02109042986,0.0992893671502,-0.142385133762,-0.492396921243,-0.00369681633568,-0.711992492914,-0.060875989472,0.228301095185,-0.157009391066,0.573678469013,0.819064020381,0.00280920106225,0.0,0.819030793372,-0.573615392305,-0.0116055210701,0.0,-0.00789441576888,0.00895883221963,-0.999928706221,0.0,0.61095821848,0.194609684621,0.304018206462,1.0,-0.11824,-0.155401142857,1.596
0.414459967242,0.297046658243,-0.1253349725,-1.73579401366,0.0528516675636,2.02477580218,0.0967914121642,-0.147566360482,-0.498576684248,-0.00281349574564,-0.732837383669,-0.0622374856023,0.212745396597,-0.145140269191,0.573731098969,0.819028013126,0.00254689831603,0.0,0.818990464108,-0.573667941466,-0.0118515625984,0.0,-0.00824584661146,0.00888566654461,-0.999926522772,0.0,0.608855728898,0.191918596943,0.303899393516,1.0,-0.121047428571,-0.159090906122,1.613
0.411907821907,0.288264118205,-0.125447548557,-1.74811712006,0.051839882972,2.02872094079,0.0941764860213,-0.157464726269,-0.513035577847,-0.00473174502564,-0.724983393978,-0.0619259014184,0.231032601325,-0.150667506263,0.57379732975,0.81898059749,0.00285520724045,0.0,0.81894740654,-0.573733444424,-0.0116544828881,0.0,-0.00790681970531,0.00902574949916,-0.999928006433,0.0,0.606867366647,0.189179849281,0.304047371892,1.0,-0.123854857143,-0.162780669388,1.63
0.409287251914,0.279466392522,-0.125482263779,-1.76086030425,0.0507388796314,2.03245744509,0.0914564978396,-0.155866116732,-0.525967808608,-0.000942698448983,-0.769723784597,-0.0711244331324,0.208740374062,-0.162703613352,0.573738333328,0.819022611382,0.00265213434914,0.0,0.818986383439,-0.573674728725,-0.0118049254439,0.0,-0.00814719526973,0.00894517239055,-0.999926800871,0.0,0.604686438595,0.186392053177,0.303968404119,1.0,-0.126662285714,-0.166470432653,1.647
0.406524397709,0.270435278936,-0.125560700418,-1.77352529038,0.0496194096953,2.03637536531,0.0886910687642,-0.1619280783,-0.535657329116,-0.00891885657851,-0.737586027831,-0.0663460123249,0.231533719875,-0.170541667612,0.573770269853,0.818999621447,0.00283626587239,0.0,0.818966282392,-0.573706563742,-0.0116513486383,0.0,-0.0079154181729,0.00900817700504,-0.999928096866,0.0,0.602575385986,0.183526326751,0.304068054704,1.0,-0.129469714286,-0.170160195918,1.664
0.403830080349,0.261897516315,-0.125688639397,-1.78571781415,0.0485592969018,2.03999035552,0.0860512629885,-0.168760429657,-0.538724691085,-0.0132726916884,-0.758521499087,-0.0663300623284,0.218877400356,-0.170184597714,0.573881951577,0.818921607826,0.00276636805957,0.0,0.818887323772,-0.573818428971,-0.011692238465,0.0,-0.00798778753861,0.00897548117129,-0.999927815389,0.0,0.600492099585,0.180723735368,0.304033027054,1.0,-0.132112,-0.173632914286,1.68
0.400860275156,0.252613606485,-0.125782359185,-1.79868301611,0.047379421431,2.04377870819,0.083170415215,-0.172240354516,-0.55238271134,-0.00124707475101,-0.761315334462,-0.0719475391673,0.233071040193,-0.168876889618,0.573957878643,0.818868263619,0.00280486776481,0.0,0.818834721194,-0.573894486757,-0.0116432099958,0.0,-0.00792470958114,0.00897960810926,-0.999928280236,0.0,0.59825184255,0.177714874667,0.30409572419,1.0,-0.134919428571,-0.177322677551,1.697
0.398001811497,0.243872016791,-0.125786638591,-1.81112269378,0.0462820477049,2.04741302284,0.0803043913112,-0.178549545564,-0.555167974333,-0.00107657390378,-0.770359591814,-0.0654662822925,0.226287743257,-0.175792396841,0.573886268916,0.818918681175,0.00273694612402,0.0,0.818883819185,-0.573822629909,-0.01173145276,0.0,-0.00803673893179,0.00897393332434,-0.999927437041,0.0,0.596052031159,0.174893235196,0.304029873069,1.0,-0.137561714286,-0.180795395918,1.713
0.394680637519,0.233716873544,-0.125809534048,-1.82503841166,0.045063734253,2.05148850275,0.0770730943126,-0.186472804895,-0.577789150593,-0.00315277852089,-0.756537868999,-0.0637173615649,0.229791212412,-0.175189440928,0.573887389016,0.818916995527,0.00299433896499,0.0,0.818885260662,-0.57382262207,-0.0116307855202,0.0,-0.00780657879841,0.00912695690046,-0.999927875392,0.0,0.593591658789,0.171679416827,0.304163948481,1.0,-0.140534285714,-0.184702204082,1.731
0.391653002528,0.224708074922,-0.125801981455,-1.83772582909,0.0438506427207,2.05502896076,0.074029056431,-0.193512400692,-0.5720067374,-0.000366233533982,-0.830655325252,-0.0728989781843,0.22228793952,-0.195084308547,0.573730368189,0.819027579274,0.00283476753886,0.0,0.818993615539,-0.57366598482,-0.0117278500637,0.0,-0.00797937656356,0.00905045450026,-0.999927206762,0.0,0.591271624456,0.168759671565,0.304092850191,1.0,-0.143176571429,-0.188174922449,1.747
0.388278393758,0.214904706901,-0.125885976418,-1.85113639501,0.0426163185439,2.05881055947,0.0707829759945,-0.200157524692,-0.585775167118,-0.00729343377388,-0.774610902488,-0.0792810408949,0.226565996791,-0.184255284756,0.573759336613,0.819006864465,0.0029540664589,0.0,0.81897441177,-0.573694494146,-0.0116742089159,0.0,-0.00786667703439,0.00911766674689,-0.999927489144,0.0,0.588843212313,0.165550220535,0.304169268843,1.0,-0.145984,-0.191864685714,1.764
0.384564326292,0.204508226597,-0.125980208719,-1.86558547132,0.0412590672567,2.0627234482,0.0672274027766,-0.209310267257,-0.581806134828,-0.00937297347479,-0.842090275626,-0.0809288838949,0.209561740943,-0.202159839801,0.573780714971,0.818992389967,0.00281126400356,0.0,0.818957636306,-0.573715861144,-0.0118003181866,0.0,-0.00805165906466,0.00907327581802,-0.999926420519,0.0,0.586163016704,0.162056383339,0.304107254818,1.0,-0.148956571429,-0.195771493878,1.782
0.38135392296,0.195609169862,-0.12604842159,-1.87756026107,0.0401139647183,2.06602944162,0.0641438647117,-0.210274487146,-0.598344950565,-0.00825426755203,-0.795496899843,-0.0757355255849,0.229899643338,-0.209593161454,0.573764192853,0.819003392606,0.00297334839041,0.0,0.818970891509,-0.573698937458,-0.0117027741093,0.0,-0.0078789565805,0.00914989468687,-0.999927098078,0.0,0.583950615638,0.159113694074,0.304208472848,1.0,-0.151433714286,-0.199027167347,1.797
0.377534364778,0.185583646186,-0.126197940964,-1.89140655399,0.0388087288989,2.06971045109,0.0605919230585,-0.233303083455,-0.594722336021,-0.0102596832789,-0.792393377456,-0.0733777976369,0.21124495896,-0.209778840512,0.573892003014,0.818914306312,0.00284160080924,0.0,0.818879552619,-0.573826578446,-0.0118356695367,0.0,-0.00806196825658,0.00911950047546,-0.999925916945,0.0,0.581346851717,0.155625746047,0.30412823051,1.0,-0.154241142857,-0.202716930612,1.814
0.373125311749,0.174109327262,-0.12633971437,-1.90678965097,0.0372814306142,2.07386028053,0.0565335722909,-0.237487521603,-0.597199669034,-0.00107834690257,-0.802856193651,-0.0808242259926,0.222978012967,-0.211985879155,0.574006543202,0.818833506019,0.00298742087651,0.0,0.818801017354,-0.573941009351,-0.0117200113464,0.0,-0.0078822863866,0.00917364307327,-0.999926854242,0.0,0.578452719246,0.151697575913,0.304210311362,1.0,-0.157378857143,-0.206840783673,1.833
0.369601895813,0.165060831518,-0.126341086408,-1.91923897346,0.035996571238,2.07696364742,0.0531782343526,-0.238071594263,-0.59808704138,0.0023362791876,-0.810004759114,-0.0781960430261,0.195236837405,-0.224053339234,0.573876450282,0.818925664629,0.00270601640035,0.0,0.818889006551,-0.573811379763,-0.0119181502743,0.0,-0.00820749414986,0.00905564720439,-0.999925313358,0.0,0.575993395319,0.148614587372,0.304085385189,1.0,-0.159856,-0.210096457143,1.848
0.365463301893,0.154501748357,-0.126388023549,-1.93303553296,0.0345883322868,2.0807051284,0.049298539758,-0.244576515293,-0.607723977824,0.000527035885886,-0.789270013762,-0.0874184349031,0.219261358403,-0.232689401004,0.573817923148,0.818965385623,0.00307166502481,0.0,0.818934215392,-0.57375239355,-0.0116485474059,0.0,-0.00777753169965,0.00919981399213,-0.999927434079,0.0,0.573347915265,0.145087272044,0.304258816326,1.0,-0.162663428571,-0.213786220408,1.865
0.361165237214,0.144004824893,-0.126452803711,-1.94723360724,0.0331234458515,2.08409110099,0.0453531891,-0.257219715586,-0.623423463106,0.000651617411908,-0.82747294608,-0.0837061923674,0.196111515789,-0.233142438919,0.573814816893,0.81896856356,0.00279190176753,0.0,0.818932964469,-0.573749363182,-0.0118833856945,0.0,-0.00813042398712,0.00910541848487,-0.999925491004,0.0,0.570486695687,0.141430725976,0.304147850373,1.0,-0.165470857143,-0.217475983673,1.882
0.356990002929,0.133877955619,-0.126577617387,-1.96041000229,0.0318060240892,2.08748725051,0.0414621469563,-0.263079513348,-0.622600008259,-0.00650468134512,-0.854414557398,-0.0852793798559,0.210535716469,-0.246014229381,0.573829681079,0.818957169852,0.00306560972167,0.0,0.818925245701,-0.573763373483,-0.0117379769927,0.0,-0.00785411705814,0.00924628280839,-0.999926406842,0.0,0.567889902832,0.13794599821,0.304262897645,1.0,-0.168113142857,-0.220948702041,1.898
0.352361331065,0.123107040005,-0.126724859312,-1.97466944693,0.0302710495287,2.0908409603,0.0372878136097,-0.275923261501,-0.636701303991,-0.0123773911402,-0.837852167611,-0.0898474262796,0.199920626641,-0.246667390832,0.573911349599,0.818900503698,0.00291114160846,0.0,0.818866348444,-0.573845320029,-0.0118405645062,0.0,-0.00802585377279,0.00917944698728,-0.999925658949,0.0,0.564985901981,0.134109310202,0.304217060338,1.0,-0.170920571429,-0.224638465306,1.915
0.347268174695,0.111491130703,-0.126863901158,-1.98965166549,0.028662857972,2.09451008114,0.0326561290997,-0.283068737645,-0.639986933503,-0.00941311773956,-0.814358543262,-0.0902602707514,0.192711587424,-0.264098160938,0.57395237015,0.818871004904,0.00311464717965,0.0,0.818839916852,-0.573886115027,-0.0116903571233,0.0,-0.00778559161238,0.00926028390557,-0.999926813174,0.0,0.561953065216,0.13000797291,0.30431618877,1.0,-0.173893142857,-0.228545273469,1.933
0.342952601562,0.101778543748,-0.126890883202,-2.00228604556,0.0272431900896,2.09737915474,0.0287447140296,-0.289330742475,-0.655951397848,-0.00365929753225,-0.841753656648,-0.0933321856189,0.191259802002,-0.263331745629,0.573881524467,0.818920983411,0.00302749158352,0.0,0.818888709762,-0.57381551251,-0.0117382080321,0.0,-0.00787559486012,0.00921569682734,-0.999926520269,0.0,0.559301135511,0.126603075998,0.304301331574,1.0,-0.176370285714,-0.231800946939,1.948
0.337348161737,0.0893318862496,-0.126908940574,-2.01827690994,0.0255734682523,2.10105789765,0.0236208561343,-0.298696320803,-0.664768330254,-0.00131090718388,-0.822710846497,-0.0813361892732,0.188694615699,-0.266847613301,0.573783914935,0.818988872868,0.0031610095129,0.0,0.818957631502,-0.573716624274,-0.0117634917549,0.0,-0.00782079572085,0.00933861501355,-0.99992580996,0.0,0.555921506941,0.122288591639,0.304333900156,1.0,-0.179508,-0.2359248,1.967
0.332396539566,0.0787009500065,-0.127021125225,-2.03178001085,0.0240522914165,2.10402631606,0.0190781168505,-0.319320848465,-0.676182782115,-0.012703527355,-0.839915415362,-0.0980519341967,0.195920123547,-0.286726300658,0.573716051732,0.819036225582,0.00320937248564,0.0,0.819005637444,-0.573648634326,-0.0117369958632,0.0,-0.00777212228544,0.00936237733897,-0.999925967262,0.0,0.55304006913,0.118491149439,0.304381855219,1.0,-0.182150285714,-0.239397518367,1.983
0.327293779218,0.0680759689875,-0.127169200334,-2.04533384301,0.0225141803872,2.10701678537,0.0145640362555,-0.322916896628,-0.673097206922,-0.011756541075,-0.832148819296,-0.100311214435,0.18013476465,-0.289573956863,0.57380040198,0.818977069589,0.00322568993932,0.0,0.818946722754,-0.573732953128,-0.0117264950452,0.0,-0.00775319520696,0.00937051618667,-0.99992603796,0.0,0.55012726979,0.114624826613,0.304371517845,1.0,-0.184792571429,-0.242870236735,1.999
0.321614678025,0.0565618774432,-0.127348012331,-2.05971652363,0.0208101525193,2.10997665897,0.00952152451858,-0.336199411361,-0.693169515331,-0.00740364716854,-0.836472520917,-0.0974460511275,0.187131770066,-0.305431099624,0.573865216117,0.818931561923,0.00324923350474,0.0,0.818901776892,-0.573797990116,-0.0116830322617,0.0,-0.00770334851694,0.00936546923862,-0.9999264705,0.0,0.54698628161,0.110394919459,0.304437579201,1.0,-0.1876,-0.24656,2.016
0.315865024433,0.0451046169535,-0.127443886643,-2.07426009635,0.0191724344821,2.11294992976,0.00442976338171,-0.339207512796,-0.686186103715,-0.00417186525569,-0.88216279866,-0.103289352788,0.16284513628,-0.293617132883,0.573888854335,0.818915304253,0.00317084065747,0.0,0.818883668413,-0.573820891525,-0.0118266206782,0.0,-0.00786565749627,0.00938389609027,-0.999925034153,0.0,0.543741252505,0.106218799163,0.30435967276,1.0,-0.18998,-0.249688,2.033
0.310302875323,0.0342006316213,-0.127492565223,-2.08768361243,0.0175984860556,2.11566365402,-0.000570345070691,-0.358569192448,-0.681242332825,-0.00247760258139,-0.814065074775,-0.105416315179,0.174085430058,-0.310738264449,0.573794667949,0.818980738351,0.00331302652374,0.0,0.818951032397,-0.57372632362,-0.0117498520245,0.0,-0.00772228063681,0.00945539097837,-0.999925478205,0.0,0.540729683017,0.102285851106,0.304429609811,1.0,-0.18998,-0.249688,2.049
0.303871901556,0.0220544907428,-0.127590713651,-2.10281892251,0.0157614584758,2.11845513547,-0.00621292463607,-0.360068821811,-0.678665997931,-0.00678791411004,-0.858442624902,-0.0837221090546,0.141766444089,-0.315058008355,0.573801031,0.818976984806,0.003134020039,0.0,0.81894434303,-0.573732587856,-0.0119091373287,0.0,-0.00795537311929,0.00940024424322,-0.999924170848,0.0,0.537245409936,0.0977771241019,0.304361466001,1.0,-0.18998,-0.249688,2.067
0.297592307991,0.010566410115,-0.127789299962,-2.11665057213,0.0140289281567,2.12108222892,-0.011657266672,-0.37496900051,-0.674640325395,-0.00924282250053,-0.838625205683,-0.0981696877932,0.143127679459,-0.331953922104,0.57394571463,0.818874912654,0.00330771610725,0.0,0.818845286501,-0.573877549564,-0.0117346402498,0.0,-0.00771112695835,0.00944373604875,-0.999925674423,0.0,0.534089598596,0.093434319185,0.30447539578,1.0,-0.18998,-0.249688,2.084
0.292043398672,0.000560220895105,-0.127864995109,-2.12890383405,0.0125983588664,2.12319885114,-0.0165527979528,-0.365851170748,-0.665444213475,-0.00417224063698,-0.834065716826,-0.094662338591,0.136557898584,-0.333541869056,0.57394928622,0.81887264372,0.00324917154679,0.0,0.818841154261,-0.57387998752,-0.0119025590886,0.0,-0.00788219725794,0.00949220342719,-0.999923881623,0.0,0.531192520322,0.0896978751255,0.30443281594,1.0,-0.18998,-0.249688,2.099
0.285309181576,-0.0114375262269,-0.127874708023,-2.14316706185,0.0108078595288,2.12582489959,-0.0224899342747,-0.377860847968,-0.655605220889,-0.000453688529205,-0.779825490951,-0.0968742665949,0.13794102016,-0.32761831008,0.573845327512,0.818944464093,0.00350024645811,0.0,0.818916989143,-0.573776104379,-0.0116916139978,0.0,-0.00756657046263,0.00957577371775,-0.999925523011,0.0,0.527837398988,0.0852890616951,0.304544303907,1.0,-0.18998,-0.249688,2.117
0.278796581355,-0.022613077959,-0.127942725982,-2.15673095601,0.00905549988968,2.12785810355,-0.0282102402313,-0.386539451785,-0.65027993547,-0.00568349894213,-0.814694123993,-0.0977260245877,0.114634628296,-0.332476979017,0.57377991008,0.818991481761,0.00321161830623,0.0,0.818959271987,-0.573710495793,-0.0119467462106,0.0,-0.00794189715657,0.00948517017534,-0.99992347598,0.0,0.524511871604,0.0810406998145,0.304445556528,1.0,-0.18998,-0.249688,2.134
0.272505375539,-0.0331950053427,-0.128112047786,-2.16904056168,0.00744429062495,2.12999228855,-0.0336136911258,-0.396763365357,-0.641674462869,-0.0156612989498,-0.793158654364,-0.105497462054,0.126453694283,-0.33846523213,0.573921306531,0.818891279879,0.00348605052147,0.0,0.8188637325,-0.573852260327,-0.0116840838589,0.0,-0.00756766211499,0.0095605290854,-0.999925660624,0.0,0.521564927248,0.0769877514989,0.304577438924,1.0,-0.18998,-0.249688,2.15
0.26532958119,-0.0448456988475,-0.128211181544,-2.18301051387,0.005761533999,2.13199634078,-0.0399085492195,-0.401780080361,-0.648207842341,-0.000894760576331,-0.779296392953,-0.0877785781065,0.110651305903,-0.345796118315,0.573946120425,0.818874537148,0.00333018916909,0.0,0.818843021719,-0.573875214533,-0.0120037838916,0.0,-0.00791863241265,0.00961661250673,-0.999922405002,0.0,0.518067694907,0.0724812739748,0.304462845834,1.0,-0.18998,-0.249688,2.168
0.258499447563,-0.0559214106064,-0.128262254593,-2.19568471083,0.00400668653951,2.13400558427,-0.0458671430912,-0.400426287203,-0.639650246706,-0.00679054087597,-0.744607252523,-0.105092411532,0.111530585108,-0.363004485593,0.573877404141,0.81892167378,0.0035726924042,0.0,0.818894846786,-0.573807568417,-0.0116983433308,0.0,-0.0075301339382,0.00963925988803,-0.999925188077,0.0,0.514928473213,0.068282314517,0.304599351877,1.0,-0.18998,-0.249688,2.185
0.251968536195,-0.0661423139752,-0.128340998485,-2.20782116095,0.00243499638003,2.13553912563,-0.0516075162564,-0.401904736432,-0.638719739572,-0.00376486882695,-0.747589917301,-0.0983938639512,0.083348580127,-0.362071682451,0.573831534115,0.818954879154,0.00332013050781,0.0,0.818923224087,-0.573760672285,-0.0120079511742,0.0,-0.0079291625515,0.00960965803943,-0.999922388415,0.0,0.511789534066,0.0643036936842,0.304463296449,1.0,-0.18998,-0.249688,2.201
0.244802703679,-0.0770757946538,-0.128550041341,-2.22018449834,0.000759864156845,2.13725670029,-0.0577980943774,-0.429629896648,-0.633696479458,-0.0108341336308,-0.720161563582,-0.0883170099712,0.106804893783,-0.365588901822,0.573979656818,0.818850183619,0.00353231482741,0.0,0.818821932562,-0.57390879829,-0.0118355777716,0.0,-0.00766448603884,0.00968590420467,-0.999923716547,0.0,0.508639048499,0.0599753747518,0.304568847625,1.0,-0.18998,-0.249688,2.218
0.23761577587,-0.0878396167049,-0.128626115123,-2.23268415847,-0.000862855235956,2.13872661499,-0.0640825839961,-0.417194825741,-0.632455106306,-0.00501788519645,-0.733878323457,-0.0904077995277,0.0782208592162,-0.371706470173,0.573965323967,0.818860818695,0.00339313883367,0.0,0.818829269713,-0.573893133672,-0.0120849114978,0.0,-0.0079487144821,0.00971490857827,-0.999921216141,0.0,0.505333320438,0.055756196645,0.304468522929,1.0,-0.18998,-0.249688,2.235
0.230763834746,-0.0980453243359,-0.12866606421,-2.2440031721,-0.00248102031347,2.14010780345,-0.0701099155825,-0.428452260683,-0.634838563248,-0.00721693374087,-0.700849434687,-0.102261057986,0.0884896407458,-0.380460064143,0.573853173195,0.818938723291,0.00355668518105,0.0,0.818910319465,-0.573781653421,-0.0118848547874,0.0,-0.00769235520385,0.00973295522008,-0.999923045666,0.0,0.502344933771,0.0518126836281,0.304580301073,1.0,-0.18998,-0.249688,2.251
0.223326506521,-0.108697670592,-0.128801027482,-2.25608257565,-0.00413943413884,2.14136416911,-0.0765385014547,-0.442994666796,-0.622768143966,-0.0148457290302,-0.705774231153,-0.0932949699691,0.0705389373692,-0.38699927768,0.57392947966,0.81888565243,0.00346230010935,0.0,0.818855125528,-0.573857176878,-0.012040383841,0.0,-0.0078729833902,0.00974564105722,-0.999921516227,0.0,0.499072740057,0.0475546240318,0.304525050707,1.0,-0.18998,-0.249688,2.268
0.214324222628,-0.121263169784,-0.128990713309,-2.26989297955,-0.00612248156627,2.14282508607,-0.0843259144952,-0.448940354434,-0.623009955659,-0.00452976866022,-0.683710005379,-0.0956627174971,0.0789521901765,-0.389358583967,0.574036784567,0.818809776517,0.0036147954546,0.0,0.818781872992,-0.573964706731,-0.0118956626168,0.0,-0.00766566742366,0.00978846536995,-0.999922708757,0.0,0.495319792439,0.0424867253107,0.304610228376,1.0,-0.18998,-0.249688,2.288
0.208514784228,-0.129287733649,-0.12902022794,-2.2788066729,-0.00732497755261,2.14361652578,-0.0894750881174,-0.449809357094,-0.617228552629,-0.00157047398012,-0.683565201706,-0.0978197233697,0.0534676447608,-0.389998251563,0.573952587969,0.818868871607,0.0035978853275,0.0,0.818839914232,-0.573879524009,-0.0120097329552,0.0,-0.00776979334677,0.00983929886045,-0.999921406166,0.0,0.492827625017,0.0393120793291,0.30458426962,1.0,-0.18998,-0.249688,2.301
0.2002471864,-0.140406009808,-0.129107485038,-2.29096247142,-0.00909704698528,2.14466388482,-0.0967248522622,-0.458663653417,-0.628972887111,-0.00101692644536,-0.655204969768,-0.0903274797713,0.0678534063177,-0.395642450301,0.573898466642,0.818906759676,0.00360774768613,0.0,0.818877947417,-0.573825395044,-0.0120029220536,0.0,-0.00775920615309,0.00984295308914,-0.999921452412,0.0,0.489404809359,0.0348302631793,0.304597764436,1.0,-0.18998,-0.249688,2.319
0.192301909752,-0.150846924353,-0.129304695392,-2.30219405696,-0.0107320361787,2.14566004128,-0.103652887069,-0.473611761333,-0.60908394431,-0.0160982754861,-0.666602778796,-0.101224802228,0.0501284553301,-0.402127460541,0.573992353704,0.818840203067,0.00377447099096,0.0,0.81881405333,-0.573919302071,-0.0118712965317,0.0,-0.0075545985553,0.00990481402739,-0.99992240834,0.0,0.486225241722,0.0305462045959,0.304657764553,1.0,-0.18998,-0.249688,2.336
0.185220233108,-0.159982880437,-0.129373881861,-2.3121213627,-0.0122240667869,2.14623617373,-0.109908059034,-0.470801346621,-0.615976755099,-0.00152911581672,-0.657916601,-0.100714190535,0.0389908237574,-0.4178247636,0.573897187599,0.818907573442,0.00362644822014,0.0,0.818878816903,-0.57382380777,-0.0120194744153,0.0,-0.00776204574452,0.00986775417625,-0.999921185931,0.0,0.48331316205,0.0268209777232,0.304611980552,1.0,-0.18998,-0.249688,2.351
0.176609965691,-0.170900092367,-0.129413009234,-2.32356457646,-0.0138160510874,2.14705594047,-0.117518763872,-0.485314625223,-0.601414617644,-0.000641851702725,-0.645454629473,-0.0885578423119,0.0374998901336,-0.433258547583,0.573837027371,0.818948408684,0.00391367267014,0.0,0.818923727634,-0.57376306304,-0.0118584446986,0.0,-0.00746607734157,0.0100100067905,-0.999922025687,0.0,0.479969652186,0.0224110528875,0.304724256364,1.0,-0.18998,-0.249688,2.369
0.168292424933,-0.18106186235,-0.129575530352,-2.33446862967,-0.0154933888031,2.14758866812,-0.124798813525,-0.496966167155,-0.59549998814,-0.010872561574,-0.644826247725,-0.100657193939,0.0220155409905,-0.433501416567,0.573864755847,0.818929628411,0.00377526280856,0.0,0.81890249317,-0.573790419273,-0.0120003471873,0.0,-0.00766137773833,0.00997834054896,-0.999920864874,0.0,0.476689502802,0.0181346160672,0.30465868524,1.0,-0.18998,-0.249688,2.386
0.160318592912,-0.190627940051,-0.129709640313,-2.34439811869,-0.0169851624333,2.14807312182,-0.131792622759,-0.493563237972,-0.592667791021,-0.00604836960671,-0.609383711828,-0.0971391933605,0.0347895509743,-0.441741241012,0.573911350578,0.818896404284,0.00389713087537,0.0,0.818871074806,-0.573836853788,-0.0119237151623,0.0,-0.00752811509138,0.0100345964184,-0.999921314083,0.0,0.473681210188,0.0141185496058,0.304717205325,1.0,-0.18998,-0.249688,2.402
0.151793744427,-0.200654225384,-0.129768569588,-2.35485290073,-0.0185847446497,2.1485215674,-0.139371212346,-0.507545776069,-0.580703879416,-0.00750137582813,-0.626579763513,-0.0986456522068,0.0158366629808,-0.4493448187,0.573799507155,0.818974624662,0.00392895005237,0.0,0.818949806061,-0.573725044405,-0.0118968683098,0.0,-0.00748924040648,0.0100442234387,-0.999921509346,0.0,0.470461828289,0.00992191485727,0.304721318206,1.0,-0.18998,-0.249688,2.419
0.143105121848,-0.210623961515,-0.129930730764,-2.36526076739,-0.0201293894246,2.1487252876,-0.147022314285,-0.518460686013,-0.588258010592,-0.0138760638653,-0.605273411295,-0.0946384479749,0.016550140883,-0.460036972831,0.573858284089,0.818933781197,0.00385729160637,0.0,0.818906623838,-0.573782212355,-0.0121103724522,0.0,-0.0077044961278,0.0101085938234,-0.999919225273,0.0,0.467168475493,0.00566924738199,0.304665861213,1.0,-0.18998,-0.249688,2.436
0.13425948595,-0.220563249896,-0.130075023349,-2.37520833265,-0.0216734713208,2.14904208704,-0.154767263529,-0.515112523775,-0.585680608455,0.00213020528645,-0.592474149623,-0.100372953348,0.0119873046963,-0.454835025804,0.57395241482,0.818866619911,0.00410258675579,0.0,0.81884370549,-0.573876840304,-0.0118787643424,0.0,-0.00737288603217,0.0101774187674,-0.999921027231,0.0,0.464022084024,0.00141190283519,0.304782471188,1.0,-0.18998,-0.249688,2.453
0.125922669724,-0.229745336178,-0.130129323908,-2.38466874447,-0.0232030475489,2.14913195255,-0.162236913719,-0.531543343205,-0.574916423493,-0.00608800360758,-0.582607342501,-0.100400966864,0.00280841746063,-0.468415068446,0.573801787138,0.818972832801,0.00396927099735,0.0,0.81894765411,-0.573725991717,-0.0119988815305,0.0,-0.00754962941188,0.0101357999832,-0.999920131138,0.0,0.460749812419,-0.00277019591744,0.304716757792,1.0,-0.18998,-0.249688,2.47
0.116259462304,-0.240029661105,-0.130313125343,-2.39500217989,-0.0248562674166,2.14916802522,-0.170767228259,-0.542989763501,-0.57423187552,-0.0169939494597,-0.559582651867,-0.0842502638496,0.00437660413149,-0.477998304191,0.573861850498,0.818930553562,0.00400897578003,0.0,0.81890588269,-0.573785887953,-0.0119856990933,0.0,-0.00751530615848,0.0101613049476,-0.999920130838,0.0,0.457527728189,-0.00705046696197,0.304735927475,1.0,-0.18998,-0.249688,2.487
0.107565543116,-0.249158804262,-0.130446346496,-2.40394335317,-0.0262365342546,2.14923002217,-0.178516563757,-0.533515550915,-0.55890258127,-0.00645469519297,-0.569134178173,-0.0821016885071,0.00167602638384,-0.48556077706,0.573885702264,0.81891265828,0.00424331795321,0.0,0.818891700321,-0.573809836117,-0.011806863351,0.0,-0.00723407155169,0.0102508052792,-0.999921291502,0.0,0.454547574633,-0.0110477384219,0.304826557981,1.0,-0.18998,-0.249688,2.503
0.0982677422252,-0.258631979307,-0.130577691822,-2.41355295087,-0.0277715915441,2.14911715914,-0.186849260137,-0.555268356322,-0.557261864903,-0.00958839424773,-0.561249594964,-0.0949843624835,-0.00799818275385,-0.488164371001,0.573828431863,0.818953351529,0.00413348597514,0.0,0.818929928244,-0.573751510234,-0.0119884958365,0.0,-0.00744656839388,0.0102645727641,-0.99991959035,0.0,0.451259524216,-0.0152623736205,0.304727222285,1.0,-0.18998,-0.249688,2.52
0.0887116123929,-0.26811842678,-0.130775843359,-2.4226911417,-0.0292927032088,2.14900366835,-0.195291424386,-0.566345380136,-0.563881555872,-0.0152447438207,-0.530394771924,-0.0857198157235,-0.0016229490144,-0.508688458716,0.573953343222,0.818864871853,0.004316057222,0.0,0.818844834857,-0.573877190068,-0.0117836347738,0.0,-0.00717245588027,0.0102976359983,-0.999921254184,0.0,0.448093920528,-0.0195673734982,0.304816815027,1.0,-0.18998,-0.249688,2.537
0.0797371096994,-0.276919267861,-0.130872178845,-2.43122602951,-0.0306903674317,2.14879823159,-0.203401505623,-0.553828965678,-0.542407333905,-0.00410134216484,-0.540217351612,-0.0884260414455,-0.0111702513552,-0.513760708759,0.573857716261,0.818931486876,0.00439183242833,0.0,0.818912730553,-0.573781761572,-0.0117122468493,0.0,-0.00707171053202,0.0103178893666,-0.999921762974,0.0,0.445079490502,-0.0235110079602,0.304841018703,1.0,-0.18998,-0.249688,2.553
0.0694153630669,-0.286658537471,-0.131014897056,-2.44079960921,-0.0322770647583,2.14838125519,-0.212661303694,-0.581457361795,-0.54069763754,-0.00903073067242,-0.527259747932,-0.079469281034,-0.0317454833959,-0.513152294466,0.573835196464,0.818947822728,0.00428693931085,0.0,0.818926734717,-0.573758200493,-0.0118860184083,0.0,-0.0072745023685,0.0103315038337,-0.999920167635,0.0,0.441607095639,-0.0279954345405,0.304763738058,1.0,-0.18998,-0.249688,2.571
0.0593977528829,-0.295861166259,-0.131215748829,-2.4494167542,-0.0336552098874,2.14804072358,-0.221581553555,-0.590530459107,-0.541034411021,-0.00666161276788,-0.492097900251,-0.0780402593263,-0.0107305648188,-0.523580753901,0.573999769456,0.818831095378,0.00454409602391,0.0,0.818813981483,-0.573922814188,-0.0117052972166,0.0,-0.00697683528929,0.01043980826,-0.999921163979,0.0,0.438438834836,-0.0323100788636,0.304860161747,1.0,-0.18998,-0.249688,2.588
0.0501246957316,-0.304369561205,-0.131297819516,-2.45745014998,-0.0350396561434,2.14761741512,-0.230091570253,-0.581855223562,-0.532257005365,-0.00454708611199,-0.503923945614,-0.0882517167965,-0.0319857426762,-0.537173203215,0.573805359249,0.818967090859,0.00458919244756,0.0,0.818951064711,-0.573729052424,-0.0116135659905,0.0,-0.00687830774818,0.0104224511109,-0.999922027658,0.0,0.43542993068,-0.0362135388864,0.304887466427,1.0,-0.18998,-0.249688,2.604
0.0398917000482,-0.313248516219,-0.131476847834,-2.46598362684,-0.0364911962494,2.14695966754,-0.239198190615,-0.606599060404,-0.521845472075,-0.00908551956544,-0.497933727137,-0.0885147952326,-0.0286143280043,-0.550665456294,0.573930081107,0.818880367735,0.00446679305203,0.0,0.818861465397,-0.573852230367,-0.0118433564446,0.0,-0.00713515029886,0.010455144523,-0.999919886583,0.0,0.432130522915,-0.0404954349223,0.30480310684,1.0,-0.18998,-0.249688,2.621
0.0295616249501,-0.322083631259,-0.131624304098,-2.47411006733,-0.0379119891841,2.14640418583,-0.248530953482,-0.600346324691,-0.516890022175,-0.00663846740104,-0.466972653273,-0.0836768422816,-0.0319709866511,-0.560646537808,0.573942853084,0.818870720648,0.00459251132107,0.0,0.818854319855,-0.573865881894,-0.0116747314345,0.0,-0.00692474350655,0.0104614278177,-0.999921300131,0.0,0.428951685279,-0.0447575182226,0.304868092526,1.0,-0.18998,-0.249688,2.638
0.0198927149841,-0.330281662429,-0.131719056226,-2.48161060321,-0.0391563131309,2.14586063218,-0.257487451158,-0.614901547886,-0.502160284145,-0.00738454665062,-0.481974369891,-0.080692288934,-0.0372249698506,-0.566494976094,0.573775580089,0.81898699912,0.0047566656832,0.0,0.81897331298,-0.573699044506,-0.0115267454364,0.0,-0.00671148931402,0.010509549644,-0.999922249616,0.0,0.425973374977,-0.048665455101,0.304922582076,1.0,-0.18998,-0.249688,2.654
0.00918232118598,-0.338802869852,-0.131913806623,-2.48959362794,-0.0405151050912,2.14500500404,-0.267060193294,-0.63576404198,-0.498998405962,-0.0113126849857,-0.461442909207,-0.0741199369133,-0.0423810165729,-0.564321800214,0.573967333726,0.818853081913,0.00467728117177,0.0,0.818836908372,-0.573888761958,-0.0117708659882,0.0,-0.00695450468601,0.0105862268389,-0.999919780115,0.0,0.422484677392,-0.0532291224505,0.304846578993,1.0,-0.18998,-0.249688,2.672
-0.00202140910349,-0.347767815866,-0.132020329367,-2.49776075427,-0.0419573382493,2.14414534284,-0.277404447525,-0.618288883682,-0.49756343881,-0.00864933216059,-0.441607085911,-0.0711924938497,-0.0488625351749,-0.576712746752,0.573793153503,0.818975110338,0.00468321905974,0.0,0.818958976007,-0.573714533299,-0.011771864796,0.0,-0.00695416732228,0.0105901836033,-0.999919740563,0.0,0.419260366392,-0.0573890015355,0.304848609479,1.0,-0.18998,-0.249688,2.689
-0.0115981806401,-0.355170837127,-0.132190058509,-2.50422306694,-0.0431158970973,2.14347654712,-0.286134941955,-0.648132801913,-0.487239160367,-0.0108204745086,-0.423322843536,-0.0772880173007,-0.0466750988188,-0.582440658521,0.573864445286,0.818923858003,0.00490511281445,0.0,0.818911901936,-0.573787163262,-0.0115036970305,0.0,-0.00660628837774,0.0106186224206,-0.999921797848,0.0,0.416299976218,-0.0614211274195,0.30496411148,1.0,-0.18998,-0.249688,2.705
-0.0233100707366,-0.363806714588,-0.132364941431,-2.51210472672,-0.0445909645934,2.14243730956,-0.296797208689,-0.638341724321,-0.482721776939,-0.00597903197905,-0.439877100634,-0.0859317049767,-0.0656923423189,-0.601311221366,0.573875184501,0.818917214871,0.0047554918722,0.0,0.818902499354,-0.57379705598,-0.0116782704889,0.0,-0.00683498110183,0.010596357824,-0.999920496957,0.0,0.413009979844,-0.0656960954512,0.304894329244,1.0,-0.18998,-0.249688,2.722
-0.0342741860019,-0.371872761888,-0.132476019191,-2.51933973533,-0.0458066250104,2.141468111,-0.307002147821,-0.647573445561,-0.474143472176,-0.00346860719177,-0.433523050041,-0.0678246114796,-0.0563187807044,-0.589732509318,0.573748720126,0.819005583274,0.00479662599095,0.0,0.818990634462,-0.573669290201,-0.0117742534846,0.0,-0.00689163500053,0.0106840603321,-0.999919174845,0.0,0.40976654646,-0.0698429202141,0.304868673762,1.0,-0.18998,-0.249688,2.739
-0.0449879465511,-0.379339886411,-0.132683140267,-2.52580808248,-0.046989058131,2.14053015251,-0.316687845395,-0.676222041488,-0.461714707175,-0.00431095682087,-0.395811713791,-0.0761853900305,-0.0503416908781,-0.608386463583,0.573954742575,0.818860556036,0.00490817124145,0.0,0.818847406306,-0.573875465706,-0.0116885391605,0.0,-0.00675473466883,0.0107279423219,-0.999919639178,0.0,0.406750418183,-0.0739156806589,0.304924594136,1.0,-0.18998,-0.249688,2.755
-0.0562634475332,-0.387081486551,-0.132792296714,-2.53250052593,-0.0482392948985,2.13958425281,-0.327201022419,-0.668231245465,-0.45434639492,-0.0154675652846,-0.397550365093,-0.0679799850832,-0.0599962007513,-0.626335982696,0.573824209292,0.818951522479,0.00499275085858,0.0,0.818940333205,-0.573746085257,-0.0115285386276,0.0,-0.00657686962641,0.0107043257055,-0.999921077984,0.0,0.403588050767,-0.078110401015,0.304974578365,1.0,-0.18998,-0.249688,2.772
-0.0685056909935,-0.395169736813,-0.133016741566,-2.53962851716,-0.0495610899022,2.1383673591,-0.338501570232,-0.677512466603,-0.448057533432,-0.0102647093248,-0.394091536152,-0.0719747953726,-0.0770867782941,-0.620396534317,0.573872510268,0.818917935996,0.00495004688351,0.0,0.818905128842,-0.573792793477,-0.0117032905983,0.0,-0.00674386319228,0.0107700228913,-0.999919260199,0.0,0.400100886142,-0.0826310774607,0.304923073922,1.0,-0.18998,-0.249688,2.79
-0.0794113253513,-0.40217146265,-0.133098356887,-2.54571942875,-0.0507446913383,2.13730401059,-0.348617997969,-0.675547272408,-0.432360573575,-0.00159413745073,-0.377473994842,-0.0707342700913,-0.062249532601,-0.632368033311,0.573788812492,0.818977004386,0.00487973853256,0.0,0.8189630939,-0.573709036803,-0.0117532472546,0.0,-0.00682622056094,0.0107404143375,-0.999919019827,0.0,0.397050895234,-0.0865772766922,0.304899309052,1.0,-0.18998,-0.249688,2.806
-0.0911370082475,-0.409439077043,-0.133273488399,-2.55185477044,-0.0518615310984,2.13622571104,-0.359594264537,-0.698440312569,-0.421835884892,-0.016054665242,-0.350957812273,-0.0634124564172,-0.0579061722443,-0.646893721389,0.573765603208,0.818992471719,0.00501106218484,0.0,0.818980565546,-0.57368588564,-0.0116655379793,0.0,-0.00667934073411,0.010797454862,-0.99991939744,0.0,0.393874091088,-0.0908085886216,0.304943293859,1.0,-0.18998,-0.249688,2.823
-0.103164909031,-0.416611386104,-0.133425522667,-2.5578119108,-0.0529590478373,2.13514400112,-0.370701460177,-0.697604204711,-0.425006658195,0.00136111309827,-0.359968584003,-0.0584101110556,-0.0676682015017,-0.654400814761,0.573877008417,0.818913442259,0.00516722348646,0.0,0.818904336765,-0.573798077914,-0.0114978220032,0.0,-0.00645090229027,0.0108300059278,-0.999920545259,0.0,0.390685969735,-0.0951009102962,0.305013651338,1.0,-0.18998,-0.249688,2.84
-0.114360854239,-0.423170487935,-0.133535624583,-2.56344080239,-0.0540626372836,2.13392797039,-0.381289524202,-0.70394566681,-0.403284427133,-0.00743478112589,-0.353003494706,-0.0683595507027,-0.0719228861812,-0.648577816509,0.573710072264,0.819031022606,0.00506792784136,0.0,0.81901965289,-0.573629856764,-0.0116765795344,0.0,-0.00665649431302,0.0108499126844,-0.999918981957,0.0,0.387605604594,-0.099019190887,0.304962885989,1.0,-0.18998,-0.249688,2.856
-0.126615540446,-0.429972530858,-0.133741150992,-2.56920506412,-0.0551910165596,2.13272783592,-0.392618472858,-0.713612148734,-0.400677833738,-0.00480611056401,-0.331188665107,-0.0657714690407,-0.0673525749226,-0.668300211506,0.573853539792,0.818930511786,0.00506740905586,0.0,0.818918587984,-0.573772411288,-0.0117606632571,0.0,-0.00672375592025,0.0108989035468,-0.999917999142,0.0,0.384335543031,-0.103308557664,0.304932364982,1.0,-0.18998,-0.249688,2.873
-0.138776060833,-0.436498555461,-0.133847788365,-2.57469103414,-0.0562395233823,2.1315434469,-0.404163588408,-0.72329682475,-0.383192519039,-0.00672222994491,-0.31720428521,-0.0677184770343,-0.0718535916561,-0.684102680999,0.573713732302,0.819028433654,0.00507199523508,0.0,0.819016141404,-0.5736319203,-0.0118206190135,0.0,-0.00677209509281,0.0109359079691,-0.9999172689,0.0,0.381131325316,-0.10748363499,0.304908836801,1.0,-0.18998,-0.249688,2.89
-0.150602125375,-0.44258614273,-0.134050318466,-2.57952673336,-0.0572585502164,2.13042930179,-0.415170587179,-0.740272930361,-0.379605586896,-0.00754703149439,-0.297083391867,-0.0721010547929,-0.0674987552137,-0.694799037653,0.573851121016,0.818931521207,0.00517700530932,0.0,0.818921687905,-0.573770736547,-0.0116257413537,0.0,-0.00655039801794,0.0109112167094,-0.999919015539,0.0,0.378130123538,-0.111575640838,0.304999356406,1.0,-0.18998,-0.249688,2.906
-0.164447133682,-0.449612509575,-0.13417343605,-2.5852559763,-0.0583373738415,2.12907808701,-0.428325952492,-0.734953783583,-0.358238986715,-0.0100028919647,-0.303305507534,-0.0547933573232,-0.0755117560713,-0.701920002573,0.573751524967,0.819000766738,0.00526104380685,0.0,0.818991975017,-0.573670815331,-0.0116054898881,0.0,-0.0064869227199,0.0109676313402,-0.999918812152,0.0,0.374545405497,-0.116230719834,0.305019598006,1.0,-0.18998,-0.249688,2.925
-0.17723352133,-0.455666241928,-0.134388034081,-2.59032466146,-0.0593432115122,2.12776572305,-0.440317218203,-0.75861741542,-0.355172627909,-0.00737803769151,-0.285853131643,-0.0625246364471,-0.08121444704,-0.694840507391,0.573867707443,0.818919552101,0.0052314857233,0.0,0.818908858688,-0.573784536849,-0.0118462372495,0.0,-0.00669949867574,0.0110824963875,-0.99991614398,0.0,0.37122372767,-0.120516311475,0.304949319328,1.0,-0.18998,-0.249688,2.942
-0.189113533636,-0.461137214191,-0.134465852792,-2.59470879158,-0.0602039967681,2.12669243699,-0.451718805969,-0.742994117954,-0.33774671521,-0.00943404420429,-0.26848094438,-0.0585186504134,-0.0627384585366,-0.712891973068,0.573718195634,0.819023842943,0.00530316791225,0.0,0.819014498061,-0.573635499757,-0.0117606243796,0.0,-0.00659027328235,0.011090869138,-0.999916776997,0.0,0.36824304991,-0.124440714993,0.304977644175,1.0,-0.18998,-0.249688,2.958
-0.201342802062,-0.466360390828,-0.134668847531,-2.59899576519,-0.0611510009798,2.1255983935,-0.4632344913,-0.763082922799,-0.319102065129,-0.00749399670714,-0.267289394153,-0.0655194780276,-0.071268612983,-0.722153442611,0.573818741464,0.818953563204,0.00527827254819,0.0,0.818943517751,-0.573735481307,-0.0118262049806,0.0,-0.00665690863326,0.0111089190276,-0.999916135226,0.0,0.365181591931,-0.128499379464,0.304940921613,1.0,-0.18998,-0.249688,2.974
-0.215000837272,-0.472162906761,-0.134766399001,-2.60351340305,-0.0620756115185,2.12435159194,-0.476285506029,-0.751137313447,-0.319771009359,-0.00814036974936,-0.246091065007,-0.0559529209044,-0.0707476865691,-0.730155460465,0.573749028593,0.819001863889,0.00536153299606,0.0,0.818993533311,-0.573666565731,-0.0117051552188,0.0,-0.00651093707608,0.0111070961347,-0.999917116622,0.0,0.361813232733,-0.132944118528,0.305001784085,1.0,-0.18998,-0.249688,2.992
-0.226621724979,-0.476846608117,-0.13496817507,-2.6071304053,-0.0628513934049,2.12334445446,-0.487301863008,-0.77925766753,-0.307722307291,-0.0120280624872,-0.24125096315,-0.0492514854678,-0.0629852437549,-0.740332808157,0.573863057872,0.818921269721,0.00546733114115,0.0,0.818914868826,-0.573781195776,-0.0115898183947,0.0,-0.00635421933417,0.0111284616458,-0.999917887248,0.0,0.358969098311,-0.136741847399,0.305053739033,1.0,-0.18998,-0.249688,3.007
-0.240495353544,-0.48215395939,-0.135050739737,-2.61138887551,-0.0637820074872,2.12211440841,-0.500710207755,-0.766930480417,-0.292822203821,-0.00453178538018,-0.232736431736,-0.0512415070084,-0.0691588984773,-0.754352829218,0.573674449867,0.819053682732,0.00542561283279,0.0,0.819046381276,-0.573592129713,-0.0116550826341,0.0,-0.00643417341201,0.0111302659673,-0.999917355881,0.0,0.355548929316,-0.141169716617,0.305027767916,1.0,-0.18998,-0.249688,3.025
-0.25547016435,-0.487425503905,-0.135257989471,-2.61562464042,-0.0647133919472,2.12082045473,-0.514928366218,-0.788723657919,-0.27475190356,-0.00864861802453,-0.2186998729,-0.0502692756368,-0.0692539112105,-0.749087610711,0.573813748483,0.818956107587,0.00542427862124,0.0,0.818947789267,-0.573729688105,-0.0118114496848,0.0,-0.0065611154991,0.0112199892235,-0.999915528235,0.0,0.351894414419,-0.145952609422,0.304981421639,1.0,-0.18998,-0.249688,3.044
-0.266423605069,-0.491089336394,-0.135325249611,-2.61855586879,-0.0652661062595,2.11993488644,-0.525544361656,-0.782082921554,-0.257763853912,-0.0113652229494,-0.206571800323,-0.0363562748719,-0.0602810254974,-0.763086869027,0.573741151683,0.819006566421,0.00548469928332,0.0,0.818998336965,-0.573655693268,-0.0119002744149,0.0,-0.00660020099259,0.0113198546822,-0.999914145433,0.0,0.349257787737,-0.149389820236,0.304953130453,1.0,-0.18998,-0.249688,3.058
-0.279138868614,-0.495151227301,-0.135488332583,-2.62170542033,-0.0659869065493,2.11897948398,-0.537730937697,-0.801696312165,-0.250874126763,-0.00863348590649,-0.195036743309,-0.0497409832574,-0.0635240645254,-0.758008186042,0.573808020314,0.818959364229,0.00553736999232,0.0,0.818951980092,-0.573722631765,-0.0118635157051,0.0,-0.00653894868935,0.0113424389575,-0.999914291941,0.0,0.346228856037,-0.153408822564,0.304962392707,1.0,-0.187638857143,-0.246611069388,3.074
-0.293269493686,-0.499455601592,-0.135493731186,-2.62502671017,-0.0666438826728,2.1178672098,-0.551343788015,-0.789226580395,-0.236514019006,0.00159665899983,-0.180952247251,-0.0304017458669,-0.0598263367306,-0.749384321321,0.573769301575,0.818986114285,0.00559285980269,0.0,0.818979129438,-0.57368315409,-0.0118983679436,0.0,-0.00653619451843,0.0114075733483,-0.999913568981,0.0,0.342880432909,-0.157768151973,0.304969809346,1.0,-0.184666285714,-0.242704261225,3.092
-0.305941237547,-0.50301514157,-0.135569147978,-2.6277221579,-0.0672564062849,2.11698776026,-0.563448996545,-0.797826181993,-0.219632305982,-0.00569002813353,-0.165784305978,-0.033838732963,-0.0532347338939,-0.754506862588,0.573873481142,0.81891277526,0.00564278814911,0.0,0.818906815302,-0.573787789313,-0.0118299445774,0.0,-0.00645005399093,0.0114100288274,-0.999914100333,0.0,0.339922300831,-0.161701147881,0.304996541692,1.0,-0.182024,-0.239231542857,3.108
-0.319143381107,-0.506476588862,-0.135508075247,-2.63033998301,-0.0677575845821,2.11616558617,-0.576213620957,-0.774995461309,-0.20580113327,-0.000482272271428,-0.148959226246,-0.0315654594242,-0.0461404517992,-0.753824077403,0.573825959768,0.818945505281,0.0057248736022,0.0,0.818941175174,-0.573740992476,-0.0117205826964,0.0,-0.00631404542109,0.0114141290877,-0.999914921625,0.0,0.336889458873,-0.165728400771,0.305026682645,1.0,-0.179216571429,-0.235541779592,3.125
-0.33234881055,-0.509702340076,-0.135523248216,-2.63277645171,-0.0682976271966,2.11534458215,-0.588861506391,-0.77705968478,-0.186416170921,-0.00217586656246,-0.138649519247,-0.0338890420333,-0.0431426435362,-0.750431647169,0.57392420847,0.818876338586,0.0057699166272,0.0,0.818872902679,-0.573839630622,-0.0116616673818,0.0,-0.00623857677331,0.0114179614294,-0.999915351576,0.0,0.333844450938,-0.169761329633,0.305046344745,1.0,-0.176409142857,-0.231852016327,3.142
-0.344471369574,-0.512457598915,-0.135433538579,-2.6349152717,-0.0687015073903,2.11456415304,-0.600707884875,-0.752050340055,-0.167442379827,0.00439898349245,-0.1288724667,-0.0138363243998,-0.0481017417253,-0.743517133163,0.573791677018,0.818969029102,0.0057954859539,0.0,0.81896536406,-0.573706010754,-0.0117427678552,0.0,-0.00629217920632,0.0114844258354,-0.999914254546,0.0,0.330874111076,-0.173614833322,0.305027444833,1.0,-0.173601714286,-0.228162253061,3.159
-0.357449211508,-0.515104995931,-0.135407583663,-2.63701022648,-0.0691244490202,2.11380038447,-0.613148218988,-0.76357573208,-0.14960403419,-0.00157592971986,-0.114615417486,-0.0191067976134,-0.0441149985284,-0.722401048571,0.573927220181,0.818873823787,0.00582696782791,0.0,0.818869746567,-0.573839915917,-0.0118674327239,0.0,-0.0063743060099,0.0115827933471,-0.999912599741,0.0,0.327884947417,-0.177522286809,0.304988486608,1.0,-0.170794285714,-0.224472489796,3.176
-0.370834916137,-0.517595586108,-0.135282738777,-2.63896491896,-0.0695166288311,2.11312498856,-0.626165309804,-0.734165202207,-0.134959448871,0.00648194373885,-0.102920047249,-0.0150949609178,-0.0379076083226,-0.722736267426,0.573848919862,0.818928615547,0.00583838269878,0.0,0.818924483456,-0.573761218202,-0.0118954523043,0.0,-0.00639181177946,0.0116076104744,-0.999912200206,0.0,0.3250263408,-0.181273212252,0.304967341193,1.0,-0.167986857143,-0.220782726531,3.193
-0.382715227983,-0.519631274373,-0.135224606593,-2.64050927156,-0.0698556649238,2.11253587795,-0.637635836892,-0.743027019911,-0.126332110594,-0.000720796829849,-0.091969683768,-0.0276418056879,-0.0340670959451,-0.718477563594,0.5739099534,0.818885652136,0.00586523790499,0.0,0.818881753662,-0.573821925092,-0.0119087659017,0.0,-0.00638643838453,0.0116377196471,-0.999911884561,0.0,0.322337805426,-0.184816889727,0.30496586742,1.0,-0.165344571429,-0.217310008163,3.209
-0.395020232265,-0.521569422599,-0.135079128655,-2.64194710081,-0.070159207507,2.11195767983,-0.649687971796,-0.713234780514,-0.108682569743,0.00342442188597,-0.0796594214592,-0.0121338098389,-0.0289915111133,-0.716090427483,0.57380153574,0.818961534065,0.00587794221263,0.0,0.818957872193,-0.573713610122,-0.0118930246233,0.0,-0.00636779684313,0.0116382469131,-0.999911997314,0.0,0.319576967064,-0.188451663809,0.304978924313,1.0,-0.162537142857,-0.213620244898,3.226
-0.407313097234,-0.523335592785,-0.13499785651,-2.64324422131,-0.0704238895441,2.11140912638,-0.661570422834,-0.731878862074,-0.0955498929119,0.00318454342269,-0.074308255416,-0.017836789272,-0.0349233537027,-0.693682405819,0.573892279749,0.818897546454,0.00593351136885,0.0,0.818894565307,-0.573804043105,-0.0118894040858,0.0,-0.00633165292533,0.0116823823508,-0.99991171216,0.0,0.316810791027,-0.192084074246,0.304992673723,1.0,-0.159729714286,-0.209930481633,3.243
-0.418686008714,-0.524787515096,-0.134879629167,-2.64427675086,-0.0706509518075,2.11097651412,-0.672673851889,-0.694011599761,-0.0846699226102,0.0108497053319,-0.0633101613156,-0.0151815807358,-0.0221258363654,-0.693369100335,0.573872560834,0.818911125549,0.00596651273755,0.0,0.818908958877,-0.573784916506,-0.0118208951813,0.0,-0.00625688802948,0.0116699428057,-0.99991232805,0.0,0.314279375058,-0.195435651053,0.305021521022,1.0,-0.157087428571,-0.206457763265,3.259
-0.430549710475,-0.526052001824,-0.134765521707,-2.64523486918,-0.0708562147805,2.11060371634,-0.684258803591,-0.704312943189,-0.0687621989784,0.000839304031637,-0.049169951178,-0.0155909405116,-0.0251550965186,-0.671555130967,0.573877503865,0.818907406062,0.00600147943464,0.0,0.818905758358,-0.573789847307,-0.0118032604274,0.0,-0.00622230921003,0.0116884967391,-0.999912327113,0.0,0.31164276351,-0.198925386429,0.30501998212,1.0,-0.15428,-0.202768,3.276
-0.44233486251,-0.52716136444,-0.134670154939,-2.64609835004,-0.0710478920776,2.11023872229,-0.695702422112,-0.679684391046,-0.0624213025501,0.0103463682006,-0.0456575892224,-6.92855573152e-05,-0.0219921954714,-0.673718047893,0.573935722502,0.818866341658,0.00603720441756,0.0,0.818864895531,-0.573847423546,-0.0118390987024,0.0,-0.00623032519562,0.0117387624398,-0.999911688353,0.0,0.308856588431,-0.202573246227,0.305003001397,1.0,-0.151307428571,-0.198861191837,3.294
-0.453056233183,-0.528013488419,-0.134511565224,-2.64677598183,-0.0711797444998,2.10996453307,-0.706320619806,-0.673500282749,-0.0529711794624,0.00779715755653,-0.0466794635963,-0.0160478348043,-0.0151489296774,-0.668496664482,0.573825293917,0.818943625667,0.00605119343446,0.0,0.818942245966,-0.573736745856,-0.0118528953737,0.0,-0.00623518112895,0.011757295478,-0.999911440338,0.0,0.306475365397,-0.205689272113,0.304990800874,1.0,-0.148665142857,-0.195388473469,3.31
-0.464574959677,-0.52874880437,-0.134409354626,-2.64734617281,-0.0713271523732,2.10968954793,-0.717428645339,-0.671633859337,-0.0365558083096,0.0093750419271,-0.0299453894349,-0.016506508498,-0.00861061007209,-0.656707491821,0.573998735889,0.818821854477,0.00608019164522,0.0,0.818820568634,-0.573909503287,-0.0118956008395,0.0,-0.00625101852397,0.0118068731437,-0.999910757275,0.0,0.303913911035,-0.20905184826,0.30497565484,1.0,-0.145857714286,-0.191698710204,3.327
-0.475556244946,-0.529268736384,-0.134222233614,-2.64774547507,-0.0713836392456,2.1094834977,-0.728365405089,-0.648480855271,-0.0225819643703,0.00709127662638,-0.0241193089166,-0.00371356837124,-0.0166926476211,-0.639961081047,0.573872282307,0.818910172922,0.00612202459341,0.0,0.818909336354,-0.573782728841,-0.0119006645815,0.0,-0.00623298331732,0.0118430726571,-0.999910441764,0.0,0.301499352548,-0.212236377509,0.30497189383,1.0,-0.143050285714,-0.188008946939,3.344
-0.486591803742,-0.529680141537,-0.134110068393,-2.64805287461,-0.0714476293895,2.10927384589,-0.739112692259,-0.647703279571,-0.0240855387839,0.00470602193084,-0.00773576209731,-0.00182384639043,-0.00839705382335,-0.615992253417,0.573974142758,0.81883838219,0.00617528944204,0.0,0.818838007001,-0.573883909956,-0.0119299239451,0.0,-0.00622490022135,0.0119042587628,-0.999909765549,0.0,0.299193546224,-0.215252969967,0.304967687659,1.0,-0.140408,-0.184536228571,3.36
-0.497274214228,-0.529905372428,-0.133901026519,-2.64822174536,-0.071492557716,2.1091254997,-0.749697750491,-0.612004385277,-0.00889710768516,0.0135180904286,-0.00388827986612,-0.00100969758249,-0.00435380229862,-0.618194772041,0.573877610859,0.818906013604,0.0061786356826,0.0,0.818905584209,-0.57378719781,-0.01194331123,0.0,-0.00623534738375,0.0119139475581,-0.999909585061,0.0,0.29684678524,-0.218339267602,0.304965720222,1.0,-0.137600571429,-0.180846465306,3.377
-0.507775173143,-0.53005735052,-0.133758162299,-2.64836868445,-0.0715140357735,2.10900837517,-0.760080811628,-0.627128293034,-0.00465667230876,0.00746157688633,-0.00922726933114,0.000424529929275,-0.0140473921479,-0.609798841043,0.573856077967,0.818920739134,0.00622669237177,0.0,0.818920633641,-0.573764890688,-0.0119830260116,0.0,-0.00624061120154,0.0119759297455,-0.999908811782,0.0,0.294507334482,-0.221367543459,0.304947980604,1.0,-0.134793142857,-0.177156702041,3.394
-0.518268757896,-0.530084166569,-0.133624905474,-2.64840188638,-0.0715327794712,2.1089023479,-0.770272779075,-0.599577651569,-0.000979205181005,0.0158554429459,0.000568704340695,-0.00296422767235,-0.00524676807278,-0.595474517161,0.573999332457,0.818820027252,0.00626707349628,0.0,0.818820161687,-0.573907391476,-0.0120247962839,0.0,-0.00624954454155,0.0120340628664,-0.999908058035,0.0,0.292165250037,-0.224396075247,0.304936974517,1.0,-0.131985714286,-0.173466938776,3.411
-0.527616759333,-0.529973497701,-0.13344427828,-2.64834428925,-0.0715315897486,2.10891121796,-0.779672369553,-0.582453796863,0.0098490077187,0.00674730519591,0.00343524276801,-0.000573622784039,0.000935896543445,-0.595382728724,0.573833746674,0.818935989239,0.00627882226059,0.0,0.818936390448,-0.573742010057,-0.0120017163982,0.0,-0.00622633326278,0.0120291775246,-0.999908261623,0.0,0.290102622765,-0.227087005612,0.304928110181,1.0,-0.129343428571,-0.169994220408,3.427
-0.538235376174,-0.529797791803,-0.133304176325,-2.64820168005,-0.0715355446327,2.10889919249,-0.790015960266,-0.588714989392,0.0137380138768,0.0035593458849,0.0136562857953,-0.00039598012766,-9.25190612512e-05,-0.576540774854,0.573966594143,0.818842647531,0.00630985680528,0.0,0.818843596374,-0.573874973841,-0.0119760585326,0.0,-0.00618555765794,0.0120408751904,-0.999908373903,0.0,0.287731240294,-0.230151130835,0.3049313293,1.0,-0.126370857143,-0.166087412245,3.445
-0.546795581858,-0.529530443092,-0.13312581431,-2.64797324823,-0.0715288870287,2.10891753883,-0.798480580665,-0.553608194541,0.0185072996805,0.0131732048627,0.0213347294062,4.35344099785e-05,0.000366594806205,-0.553869611635,0.573934796641,0.818865028293,0.00629774115979,0.0,0.818866067941,-0.573843718667,-0.0119371781234,0.0,-0.00616113711641,0.0120083996381,-0.999908915216,0.0,0.285839697791,-0.232615075202,0.304943666796,1.0,-0.123893714286,-0.162831738776,3.46
-0.556716226104,-0.529056158522,-0.132930805946,-2.64766130476,-0.0715328145288,2.10894124826,-0.808440869049,-0.550839500567,0.0224002878197,0.0068199009183,0.0180265143906,-0.000500936445885,0.00108911568689,-0.548066856537,0.573781242581,0.818972848376,0.00626946454082,0.0,0.818973093453,-0.573689491503,-0.0120077658617,0.0,-0.00623742837582,0.0120245850966,-0.999908247711,0.0,0.28362620548,-0.235464174876,0.304919237367,1.0,-0.120921142857,-0.158924930612,3.478
-0.566134896027,-0.528554962108,-0.13278269288,-2.64727863351,-0.0715263621121,2.10901381725,-0.817613776844,-0.550809822133,0.0361610236676,0.00663268272243,0.0242336499857,-0.000862877777423,0.00616399789636,-0.532629871628,0.573902490943,0.818887969943,0.00625863191468,0.0,0.818888187413,-0.573810978997,-0.0119934898939,0.0,-0.00623017283575,0.0120084446693,-0.999908486914,0.0,0.281520560237,-0.238183356778,0.304920053787,1.0,-0.118113714286,-0.155235167347,3.495
-0.574563105203,-0.527898044086,-0.132573050176,-2.64678944368,-0.0714834960044,2.10915354261,-0.826105243768,-0.513358421416,0.0446687360995,0.0132290513066,0.0318979224648,0.00758409388836,0.00836824007253,-0.528875943589,0.573748754196,0.818995960964,0.00622333386675,0.0,0.818995915995,-0.573657804132,-0.0119649590238,0.0,-0.00622930900668,0.0119619956601,-0.999909049049,0.0,0.279676343134,-0.240620765272,0.304919603933,1.0,-0.115471428571,-0.15176244898,3.511
-0.58392077427,-0.527123687435,-0.132393541127,-2.64622287725,-0.0714552356933,2.10923671338,-0.835370890928,-0.526414488661,0.0382798427842,0.00779436997693,0.0275873470486,0.00625331645889,0.00615585025466,-0.505854419647,0.573741574744,0.819001219875,0.00619307306919,0.0,0.819000397775,-0.573650023133,-0.0120310558924,0.0,-0.00630091425502,0.011975076818,-0.999908443816,0.0,0.277584399103,-0.243320109329,0.304905632715,1.0,-0.112498857143,-0.147855640816,3.529
-0.592137869039,-0.526349807777,-0.132243455784,-2.64562435166,-0.0714042770488,2.10936412111,-0.843408956237,-0.513189921129,0.0524881466674,0.0103500733803,0.0413944768294,0.00314660429496,0.00988209590201,-0.50273083912,0.573837515312,0.818934112172,0.00617841754629,0.0,0.818933137459,-0.573746078933,-0.0120291388734,0.0,-0.00630635073908,0.0119627123475,-0.999908557546,0.0,0.275757845702,-0.245704865431,0.304909230327,1.0,-0.109856571429,-0.144382922449,3.545
-0.599954482156,-0.525449082054,-0.132030865764,-2.64497149547,-0.0713081415114,2.1095078928,-0.851287614416,-0.477374030527,0.0572895797542,0.0148137105521,0.0443871961405,0.00560152277106,0.00183127162053,-0.483502772977,0.573714269225,0.819020586971,0.00616135585275,0.0,0.819019052778,-0.573622295861,-0.0120830368313,0.0,-0.00636208731798,0.0119787091073,-0.999908012956,0.0,0.274039750706,-0.247960977794,0.304893879295,1.0,-0.107214285714,-0.140910204082,3.561
-0.608583485368,-0.524438103754,-0.131835831218,-2.64422650938,-0.0711964845364,2.10967525363,-0.859904251216,-0.485101266287,0.0564879183087,0.00704156845869,0.0419352786457,0.0110230051248,0.00585502601842,-0.476678399679,0.573675887931,0.819047448065,0.00616444050886,0.0,0.819045660607,-0.573583357468,-0.0121278513419,0.0,-0.00639758838151,0.0120066453012,-0.999907451383,0.0,0.272120840525,-0.250452924062,0.304881321039,1.0,-0.104241714286,-0.137003395918,3.579
