nelsonifechukwu/NELSON_IML_WORK/CNN-GradCAM/train2dof/data_sample_2022-02-22-09-11-27/robot_state.csv
position_joint1,position_joint2,position_joint3,position_joint4,position_joint5,position_joint6,position_joint7,velocity_joint1,velocity_joint2,velocity_joint3,velocity_joint4,velocity_joint5,velocity_joint6,velocity_joint7,ee_T_00,ee_T_10,ee_T_20,ee_T_30,ee_T_01,ee_T_11,ee_T_21,ee_T_31,ee_T_02,ee_T_12,ee_T_22,ee_T_32,ee_T_03,ee_T_13,ee_T_23,ee_T_33,v_x,v_y,time
0.465063764066,0.547815458709,-0.123992047172,-1.35584451113,0.0795389068673,1.89410583623,0.159152490366,-0.000628980384287,0.00114839988845,-3.72175923504e-05,-0.000373788080543,-2.00694602185e-05,0.000263047456966,0.000526240935832,0.573821887839,0.818966095058,0.00192952910119,0.0,0.818922332118,-0.573763058864,-0.0119546284992,0.0,-0.00868351008509,0.00844012446381,-0.999926677788,0.0,0.661675794655,0.260886709418,0.303185270507,1.0,0.0,0.0,0.0
0.465066033509,0.547810101461,-0.1239937166,-1.35584474072,0.0795398739405,1.89410512416,0.159154028918,-0.000129222382851,-0.000813038343985,0.000187535304227,-0.000830749967115,0.0002031772579,0.000158048901312,0.000782723869171,0.573822710123,0.818965509355,0.00193358110805,0.0,0.818921798169,-0.573763862932,-0.0119526138437,0.0,-0.00867952662654,0.00844229552709,-0.999926694045,0.0,0.661675479697,0.260887397481,0.303188951555,1.0,-0.00026,-0.000341714285714,0.014
0.465063356019,0.547809097293,-0.123991670052,-1.35584834024,0.079538906849,1.89410542299,0.159152866477,0.000282556276662,-0.000842366626627,0.00130828451588,-0.00187051674555,3.82712715875e-06,0.000196775263365,7.92879088438e-05,0.573822461547,0.818965687893,0.00193172963143,0.0,0.818921947427,-0.573763617184,-0.0119541841987,0.0,-0.00868187765782,0.00844167772284,-0.999926678851,0.0,0.661675023024,0.260886259196,0.303187906179,1.0,-0.00058,-0.000762285714286,0.03
0.465063080871,0.547777214116,-0.123991749087,-1.35586996985,0.0795394962736,1.8941095612,0.159153200536,-0.00108492051875,0.000189462033592,5.27044139389e-05,0.000927132975021,0.000117649550169,0.000220586223595,0.00207410691373,0.573824325841,0.818964348713,0.00194563894208,0.0,0.818920768748,-0.573765402456,-0.0119492409279,0.0,-0.00866982892461,0.00845025195148,-0.999926710969,0.0,0.661671792701,0.260884262713,0.303200561077,1.0,-0.00092,-0.00120914285714,0.047
0.465065260491,0.547696172577,-0.123991749412,-1.35598237908,0.0795361701995,1.89413762595,0.159149041762,-0.000147139546928,-0.00856562026865,-0.000137625668937,-0.0124885992064,0.000129002587763,0.00204046674025,0.000808140595646,0.57382444348,0.818964266917,0.00194537384927,0.0,0.818920633458,-0.573765472429,-0.0119551514838,0.0,-0.00867482054234,0.00845342768657,-0.999926640834,0.0,0.661653379805,0.260874792157,0.303206901716,1.0,-0.00126,-0.001656,0.064
0.465059128572,0.547567293566,-0.123991749087,-1.35617584175,0.07953250258,1.89417798378,0.159143729705,0.00014753169681,-0.00927691325963,-0.000115303884301,-0.00554240947452,-0.000204630536643,0.00742621682075,0.00778942381902,0.573834756299,0.818957076672,0.00193026783335,0.0,0.818913129943,-0.57377573465,-0.0119765952904,0.0,-0.00870094414353,0.00845347106833,-0.999926413491,0.0,0.661622280558,0.260851604529,0.303209617692,1.0,-0.0016,-0.00210285714286,0.081
0.465043159392,0.547407716889,-0.123991776416,-1.35638194328,0.07953151824,1.89427294215,0.159147542335,-0.000157256057369,-0.0115734325644,0.000469336018053,-0.012275946119,0.000584134748118,0.00781360832369,0.00183319893677,0.573862346085,0.81893763171,0.00197737603229,0.0,0.818894224188,-0.573803048922,-0.0119606663633,0.0,-0.00866058213207,0.00848320119977,-0.999926512107,0.0,0.661602410367,0.260824952809,0.303232806141,1.0,-0.00192,-0.00252342857143,0.097
0.465026821774,0.547206757502,-0.123992463273,-1.35660783055,0.0795312279707,1.89439860827,0.159132526107,-0.00200276720981,-0.00742543808772,0.000401591632024,-0.0151809338407,-0.000120623628521,0.0087868885449,-0.00252034710781,0.573876678368,0.818927359577,0.0020699426311,0.0,0.818885104519,-0.573816942049,-0.0119184527697,0.0,-0.00857274395801,0.00853493159845,-0.999926828825,0.0,0.661585428324,0.260798077632,0.303278573643,1.0,-0.00228,-0.00299657142857,0.115
0.465004009847,0.546996465735,-0.123996668284,-1.35688851692,0.0795255465656,1.89452783364,0.159114875073,-0.00142671726291,-0.0124433615991,-0.00136670440502,-0.0213540192636,0.000136901759583,0.0011641830239,-0.0036948909072,0.573898177224,0.818912153299,0.00212467875675,0.0,0.818870569462,-0.57383817365,-0.0118948657735,0.0,-0.00852179243735,0.00856644361981,-0.999926994884,0.0,0.661559614492,0.260757858852,0.303305276357,1.0,-0.00262,-0.00344342857143,0.132
0.464968681544,0.546787512362,-0.12399486338,-1.35720784865,0.0795208441363,1.89463582806,0.159095064984,-0.00450952108969,-0.0169045481432,-0.00093659703342,-0.0231833880865,0.00017822510266,0.00518299432591,-0.00600715621473,0.573926179451,0.818892511339,0.00213127065029,0.0,0.818850860007,-0.573865991479,-0.0119096511298,0.0,-0.00852982460358,0.00858061857992,-0.99992680486,0.0,0.66152247035,0.260706939643,0.303310586023,1.0,-0.00292,-0.00383771428571,0.147
0.464934507888,0.546489542588,-0.123994857655,-1.35762431775,0.0795116022011,1.89480332872,0.159002788239,-0.00156619298061,-0.0119520367284,-0.000719772353274,-0.0228398322953,-0.00277778479813,0.0137618448364,-0.00530298913621,0.573899491661,0.818911080437,0.00218236354218,0.0,0.818869968803,-0.573838973632,-0.011897623035,0.0,-0.00849093355584,0.00861527764824,-0.999926837843,0.0,0.661477606098,0.260648695222,0.303337909531,1.0,-0.00328,-0.00431085714286,0.165
0.464895062845,0.546199422023,-0.123992676495,-1.35809511953,0.0795002375079,1.89496812186,0.158932632347,-0.00230095606853,-0.0154996331905,-0.00167151828564,-0.0287636541388,0.000171025503948,0.0108686439067,-0.00197562821469,0.573896105954,0.818913462833,0.00217872938787,0.0,0.818872121177,-0.573835417773,-0.0119209634412,0.0,-0.00851216924906,0.00862566132415,-0.999926567775,0.0,0.661420476165,0.260581132833,0.303333484112,1.0,-0.00362,-0.00475771428571,0.182
0.464847622092,0.545916048327,-0.123993150021,-1.3585689003,0.0794781238933,1.89512599363,0.158899970961,-0.00495575848661,-0.0179838273989,0.00151670067281,-0.0373594761219,-0.00347013481795,0.0137411891855,-0.00168300995787,0.573933001981,0.81888768551,0.00214817556088,0.0,0.818845811269,-0.573872297975,-0.0119528191064,0.0,-0.00855540264584,0.00861930786018,-0.99992625359,0.0,0.661358926359,0.260498637304,0.303317637818,1.0,-0.00394,-0.00517828571429,0.198
0.46477469004,0.545536307681,-0.123992678877,-1.35920798494,0.0793907667889,1.89534097197,0.158798756647,-0.00402237414939,-0.0237011973272,0.0003750996973,-0.0336150437755,-0.00204358909479,0.0111159315201,-0.00709148257875,0.573918015266,0.818898340976,0.00208945008839,0.0,0.818856148659,-0.573858002905,-0.0119309348414,0.0,-0.00857134011787,0.00855850227433,-0.999926639393,0.0,0.661294225954,0.260385694021,0.303305474724,1.0,-0.00428,-0.00562514285714,0.215
0.464714818028,0.545146060329,-0.12399740411,-1.35991143152,0.0793356009444,1.89555869175,0.158719321046,-0.0065217320805,-0.0221814157972,-0.000239933510777,-0.0398433859935,-0.000615343009125,0.0138752926867,-0.00129553619252,0.573929735582,0.818890351198,0.00199955780105,0.0,0.818847054768,-0.573870162106,-0.0119701647085,0.0,-0.00865493245684,0.00850752927853,-0.999926354333,0.0,0.661206027519,0.260270820391,0.303265883322,1.0,-0.00462,-0.006072,0.232
0.464651263015,0.544743771982,-0.123998379,-1.36058436492,0.0793239883436,1.89578940835,0.158654381865,-0.000858304856523,-0.0213594889689,-0.000601662680599,-0.0462994401579,0.000371323278289,0.0174248036856,-0.00736629562657,0.573963682635,0.818866603749,0.00198070229416,0.0,0.818822768343,-0.573903897314,-0.0120140580892,0.0,-0.00870134570655,0.00851764115102,-0.999925865438,0.0,0.661125338307,0.260167411198,0.303250388403,1.0,-0.00494,-0.00649257142857,0.248
0.464570681326,0.544180173302,-0.124001425144,-1.3615266054,0.0792904447817,1.89612666448,0.158510070333,-0.00335272242411,-0.0280975878458,0.000721787717156,-0.0470694493589,-0.000274064695772,0.0156534439575,-0.0118314092954,0.573957251013,0.818871169293,0.00195678606497,0.0,0.818826790706,-0.573897343694,-0.0120529093388,0.0,-0.00874695404472,0.0085202876064,-0.999925444968,0.0,0.661014233072,0.260025380458,0.303230113955,1.0,-0.00536,-0.00704457142857,0.269
0.464518454203,0.543783928323,-0.12399952195,-1.36216596403,0.0792603497676,1.89634817623,0.158456132726,-0.00115082113354,-0.0289822788439,0.000997163482267,-0.0499146527912,-0.00198977057316,0.018570708859,-0.00745431698604,0.573982053599,0.81885381668,0.00194318187397,0.0,0.818809145458,-0.573922090419,-0.012073290575,0.0,-0.00877119393673,0.00852111126544,-0.999925225614,0.0,0.660936519547,0.259931428703,0.303225307805,1.0,-0.00562,-0.00738628571429,0.282
0.464418383017,0.543156235045,-0.124008063744,-1.36316427118,0.0792029034467,1.89669313128,0.158320517895,-0.00533854116836,-0.0277270829674,-0.00144748342701,-0.055181737916,-0.00016356632209,0.0220219185308,-0.00333282542036,0.573999061795,0.818841946396,0.00192114071636,0.0,0.818796959119,-0.573939165638,-0.0120880430887,0.0,-0.00879574817642,0.00851171344529,-0.999925089968,0.0,0.660823125383,0.25976419213,0.303224371211,1.0,-0.00602,-0.007912,0.302
0.464362993177,0.542709996767,-0.124002953061,-1.36385734145,0.0791653009043,1.89694468489,0.158232481606,-0.00995429132648,-0.0326305462695,-0.00290774498675,-0.0533313713777,-0.000751713695917,0.0174530588695,-4.3573735825e-05,0.574002019943,0.818839868242,0.00192306514907,0.0,0.818794837769,-0.573942048819,-0.0120948394853,0.0,-0.00880017824955,0.00851722209509,-0.999925004083,0.0,0.660733919489,0.259656296139,0.303229129051,1.0,-0.0063,-0.00828,0.316
0.464260813711,0.541981541521,-0.124007631571,-1.36499805265,0.0790991768917,1.89736340348,0.158079357277,-0.00385830260112,-0.0409555870651,-0.000276798801685,-0.0549410955372,-0.000655977796123,0.0158251910387,-0.00518505337564,0.574004547615,0.818838069924,0.00193428560977,0.0,0.818793158836,-0.57394450051,-0.0120921577049,0.0,-0.00879151575204,0.00852489746827,-0.999925014876,0.0,0.660611645515,0.259486779816,0.303240407796,1.0,-0.0067,-0.00880571428571,0.336
0.464203188635,0.541487876979,-0.124010926552,-1.36573878914,0.0790463137301,1.897640411,0.157971674143,-0.00321131497777,-0.0417127829966,-0.000548220370928,-0.0554665104437,-0.00358113012906,0.0178341438383,-0.00469127045378,0.573992864957,0.81884621073,0.00195475127718,0.0,0.818801658476,-0.573932818762,-0.0120710615486,0.0,-0.0087626158056,0.00852942100681,-0.999925229975,0.0,0.660527655952,0.259375605347,0.303260976601,1.0,-0.00696,-0.00914742857143,0.349
0.464079621181,0.540642432073,-0.124010631448,-1.36705319473,0.0789735804026,1.89812246079,0.157812616202,-0.00165307268219,-0.0385783004198,0.000743763574473,-0.0614955719154,-0.00780514193309,0.0311847452521,-0.0033340548423,0.574007270319,0.818836066577,0.00197397964215,0.0,0.818791673651,-0.573947049205,-0.0120717343434,0.0,-0.00875198017842,0.00854570590471,-0.999925184078,0.0,0.660384276163,0.259188703326,0.30327571594,1.0,-0.00736,-0.00967314285714,0.369
0.464015145475,0.540070619699,-0.124013735361,-1.36790554709,0.0789239564229,1.89843492171,0.157702647293,-0.00594898492026,-0.0476179672151,-0.00241581634987,-0.0667738622233,-0.00134488128226,0.0203337595655,-0.0114803123051,0.574015839688,0.818830002916,0.00199725127373,0.0,0.81878591768,-0.573955520424,-0.0120593733215,0.0,-0.00872841134673,0.00855775728359,-0.999925287022,0.0,0.660279247823,0.259045313595,0.303300376101,1.0,-0.00764,-0.0100411428571,0.383
0.463891825139,0.539192546486,-0.124008804569,-1.36926465038,0.0788469558964,1.89894541447,0.157542699442,-0.00911399391457,-0.0450067866437,0.0062810942563,-0.0688405206536,0.000129766557738,0.0223631357073,-0.0045726983691,0.57403702405,0.818815082339,0.00202555056293,0.0,0.81877129661,-0.573976511475,-0.0120530089224,0.0,-0.00870673467892,0.0085775011769,-0.999925306833,0.0,0.66012501692,0.258839133566,0.303317992929,1.0,-0.00804,-0.0105668571429,0.403
0.463801707902,0.538569957025,-0.124025683967,-1.37024133118,0.0787902572525,1.89933739841,0.157420346714,-0.0067289513392,-0.0440739641933,-0.000911216523924,-0.0781158746383,-0.00534357911322,0.023631976666,-0.00705051820364,0.574061493187,0.818797858672,0.0020531866136,0.0,0.818754534256,-0.574000958814,-0.0120274194195,0.0,-0.00866966109902,0.008585699502,-0.999925558599,0.0,0.660023915409,0.258679513121,0.303327456637,1.0,-0.00832,-0.0109348571429,0.417
0.463688816492,0.537787376163,-0.124027440874,-1.37145620699,0.078722289138,1.89981304767,0.15726893118,-0.00369053674356,-0.0459669323519,-6.92207063842e-05,-0.0732288989404,7.64283326454e-05,0.0249190605247,-0.0094827654284,0.574080204375,0.818784643709,0.00209118924999,0.0,0.818741803224,-0.574019495114,-0.0120094040026,0.0,-0.00863289839001,0.00860667086675,-0.99992569638,0.0,0.659891414015,0.258491325054,0.303343199811,1.0,-0.00866,-0.0113817142857,0.434
0.463588153306,0.537004107151,-0.124034565719,-1.3726828895,0.0786498242636,1.90025558904,0.157123217229,-0.00308307496146,-0.0488029583233,-5.86918437821e-05,-0.0756134334105,-0.000515017921377,0.0357924650722,-0.0104757600873,0.574096432554,0.818773269709,0.00208945922465,0.0,0.818730398477,-0.574035720375,-0.012011379808,0.0,-0.0086353387449,0.00860655978435,-0.999925676265,0.0,0.659747634865,0.258303745754,0.303350966482,1.0,-0.00898,-0.0118022857143,0.45
0.463472537003,0.536161381336,-0.124036084985,-1.37399743909,0.078569093847,1.90075186287,0.156956894185,-0.00707774141018,-0.051732989095,-0.000443566431497,-0.0714690028383,-0.0144843901429,0.0378129648546,-0.0160049606168,0.574106735755,0.818765997028,0.00210831040086,0.0,0.81872339239,-0.57404596378,-0.0119993801191,0.0,-0.00861458320832,0.00861521386441,-0.999925780769,0.0,0.659598524799,0.258102226027,0.303363209245,1.0,-0.00932,-0.0122491428571,0.467
0.463353652106,0.535261172597,-0.124041676623,-1.37541100262,0.0784975956109,1.90125912075,0.15678377937,-0.00408154012593,-0.0563953416248,0.000175109746019,-0.083077859856,-0.0125564417521,0.0323062881061,-0.00699679028437,0.574124672165,0.818753417157,0.00210940897727,0.0,0.818710689851,-0.574063756318,-0.0120148619049,0.0,-0.00862644008593,0.00862519039288,-0.999925592543,0.0,0.659431066978,0.257887442127,0.303369836015,1.0,-0.00966,-0.012696,0.484
0.46323549548,0.534421788357,-0.124039687095,-1.37678267423,0.0784220114004,1.90176241643,0.156620414504,-0.00583467030555,-0.0535961546825,-0.000289468396084,-0.0848995060211,-0.0064003135122,0.0286585403469,-0.0111392838348,0.574141263633,0.818741838212,0.00208773964693,0.0,0.818698723025,-0.574080332378,-0.0120382638182,0.0,-0.00865786666769,0.00862105976557,-0.999925356551,0.0,0.659268913572,0.257680800648,0.303352730348,1.0,-0.00998,-0.0131165714286,0.5
0.463107477475,0.533498164685,-0.124048145499,-1.37826354818,0.0783339548426,1.90230394883,0.156427518974,-0.00664747929708,-0.0566509025201,-0.000796374829629,-0.0862037691334,-0.00201683834706,0.0291081564221,-0.0125939794948,0.574151546962,0.818734666246,0.00207227139127,0.0,0.818691345764,-0.574090676849,-0.0120466604361,0.0,-0.00867351381796,0.00861332521244,-0.999925287602,0.0,0.659096473454,0.257450335805,0.303346535052,1.0,-0.01032,-0.0135634285714,0.517
0.462982178128,0.532548771905,-0.124042911363,-1.37978702959,0.0782544746699,1.90287943106,0.156233496048,-0.00978675225023,-0.0603973052281,0.000111176211166,-0.0938117219491,-0.00392635441627,0.0349744413515,-0.00665682703989,0.574153674244,0.818733154884,0.00207998713312,0.0,0.818689788061,-0.574092624794,-0.0120596842084,0.0,-0.00867972513768,0.0086271423229,-0.99992511459,0.0,0.65891687663,0.257228596984,0.303340558556,1.0,-0.01066,-0.0140102857143,0.534
0.462851150123,0.531573742205,-0.124041777701,-1.38135136066,0.078165254031,1.90344499557,0.156037581567,-0.00504826929648,-0.0584324647951,0.00113909938096,-0.0887127349511,-0.00727362245853,0.0289621789001,-0.00919807795911,0.574161083041,0.818728003916,0.00206233503234,0.0,0.818684306663,-0.574100009319,-0.0120802410908,0.0,-0.00870661274306,0.00862457168386,-0.999924903009,0.0,0.658728982767,0.256993979303,0.303332263379,1.0,-0.011,-0.0144571428571,0.551
0.462714437158,0.530572152245,-0.12404560552,-1.38299427445,0.078055823774,1.90402667147,0.155828452126,-0.0115638046017,-0.0561071982709,-0.00278291965667,-0.0947763301646,-0.00612566398175,0.0393561230139,-0.0103060751305,0.574164388116,0.818725830188,0.0020043211656,0.0,0.818681412599,-0.574103602884,-0.0121055657529,0.0,-0.0087606200375,0.00859165065235,-0.999924714704,0.0,0.65852991837,0.256741621477,0.303306609373,1.0,-0.01134,-0.014904,0.568
0.462574432596,0.52952657916,-0.124049168334,-1.38463898281,0.0779579147809,1.90463476505,0.155606822383,-0.00903315829336,-0.0589617015899,-0.000642613899856,-0.0921726382131,-0.00679546481594,0.0339766261795,-0.0156998512376,0.574163114721,0.818726705664,0.00201147395052,0.0,0.818682359701,-0.574102276968,-0.0121043957695,0.0,-0.00875556886924,0.00859682133259,-0.999924714504,0.0,0.658336559725,0.25649128272,0.303313135388,1.0,-0.01168,-0.0153508571429,0.585
0.46244604752,0.528494937894,-0.124049272048,-1.38623445864,0.0778531880433,1.90523630028,0.155388194314,-0.010823996836,-0.067702627399,0.000282383841744,-0.0974704777215,-0.00718335361288,0.0394418615691,-0.0103966764372,0.574147655871,0.818737479501,0.00203858264414,0.0,0.818693559252,-0.574086772694,-0.0120822331377,0.0,-0.00872202170084,0.00860612600908,-0.999924927648,0.0,0.658149193468,0.256254750865,0.303332330613,1.0,-0.012,-0.0157714285714,0.601
0.462307664035,0.527379899461,-0.124051528407,-1.38796865482,0.0777525758611,1.90591605037,0.155139200358,-0.00849597902859,-0.0711717130517,-0.000518688413508,-0.104898911422,-0.00658489453058,0.0454406752983,-0.017099939194,0.574125715754,0.818752734134,0.00209039661667,0.0,0.818709495059,-0.574064617271,-0.0120550736226,0.0,-0.00867026868452,0.00863272153717,-0.999925148479,0.0,0.65794951344,0.256000983921,0.303350838285,1.0,-0.01234,-0.0162182857143,0.618
0.462158469262,0.526223123473,-0.124049701259,-1.38978114714,0.0776359386956,1.90658645183,0.154898814669,-0.00473944745193,-0.0641390310419,0.00238087205212,-0.106425374092,-0.00387983307559,0.0430730991117,-0.0114230873511,0.574116166815,0.818759407711,0.00209909197119,0.0,0.818716307856,-0.574055058117,-0.0120475890383,0.0,-0.00865924921922,0.00863544272557,-0.99992522047,0.0,0.657732875258,0.255730574648,0.303360201353,1.0,-0.01268,-0.0166651428571,0.635
0.462013596591,0.52511139402,-0.124055997181,-1.39152692289,0.0775255760751,1.90720475377,0.154671132101,-0.00734230493628,-0.0659711699611,0.00166165636245,-0.112652688474,-0.00479458141977,0.0452346537057,-0.0159239779391,0.574116910875,0.818758928829,0.0020823093769,0.0,0.818715613155,-0.574055876876,-0.0120557829199,0.0,-0.00867558500633,0.00862641413165,-0.999925156801,0.0,0.657520149502,0.255463139426,0.303365085065,1.0,-0.013,-0.0170857142857,0.651
0.461843198561,0.523871528264,-0.124064015171,-1.39352979729,0.0774035855944,1.9079290033,0.154395231405,-0.00834440745915,-0.066731173898,-0.000143987109385,-0.113089733893,-0.0129553000467,0.0470478797802,-0.0132261898636,0.574110908011,0.818763228555,0.00204640416969,0.0,0.818719421491,-0.574050006596,-0.0120766593818,0.0,-0.00871335405759,0.00860893847014,-0.999924979006,0.0,0.657278471239,0.255154416766,0.303346686659,1.0,-0.01336,-0.0175588571429,0.669
0.461686068476,0.522643073349,-0.124065855032,-1.39545438728,0.0772880739914,1.90866968929,0.15412870593,-0.00902715924518,-0.0736057215807,0.000874441260075,-0.114364353112,-0.0024084810006,0.0448361765436,-0.0173920343717,0.574094869753,0.818774381955,0.0020829974908,0.0,0.818731063131,-0.574033823549,-0.0120566408345,0.0,-0.00867612467595,0.00862723650073,-0.999925145024,0.0,0.657052397485,0.254869326483,0.303358386664,1.0,-0.0137,-0.0180057142857,0.686
0.461548010727,0.521559271086,-0.124070696441,-1.39719396372,0.0771834362641,1.90935230913,0.153908205206,-0.00651080915576,-0.0739533519453,-0.000731148476861,-0.117575295424,-0.00717602557968,0.0418747922574,-0.0151705813399,0.574095933378,0.818773587001,0.00210223904018,0.0,0.818730560966,-0.574034846539,-0.0120420264347,0.0,-0.00865310131293,0.0086346119975,-0.999925280865,0.0,0.656849153017,0.254612921186,0.303351280677,1.0,-0.014,-0.0184,0.701
0.461349989138,0.5201210522,-0.124074915855,-1.39946631303,0.0770346029069,1.91018019938,0.153579359507,-0.0108558412566,-0.0792535720008,-0.00562770995021,-0.117540369289,-0.012654600117,0.0422706469983,-0.0182165904861,0.574072709616,0.818789901612,0.00208997458784,0.0,0.818746771916,-0.574011734062,-0.0120415754123,0.0,-0.00866001714192,0.00862406581214,-0.999925312007,0.0,0.656575396166,0.254261729798,0.303351736704,1.0,-0.01438,-0.0188994285714,0.72
0.46118666065,0.518863660705,-0.124076239576,-1.4014303513,0.0769115942361,1.91088541876,0.153325771663,-0.00932190437958,-0.0764250652768,0.00135877212212,-0.120662468447,-0.00724169427868,0.0445400087415,-0.0159372425565,0.574070821883,0.818791232858,0.00208694957554,0.0,0.818748038965,-0.574009834834,-0.0120459580353,0.0,-0.00866536208461,0.00862408494245,-0.999925265537,0.0,0.656333544881,0.253965132625,0.303360821108,1.0,-0.0147,-0.01932,0.736
0.461015792282,0.517591789341,-0.124091190549,-1.40341417122,0.0767798793594,1.911592584,0.153058777665,-0.0103438891679,-0.075109980865,-0.00257934230786,-0.121154839977,-0.00839991471291,0.0446401131952,-0.0276794152971,0.574072131273,0.81879034731,0.00207416210764,0.0,0.818747085745,-0.57401129717,-0.0120410633784,0.0,-0.00866868088263,0.00861081888239,-0.999925351099,0.0,0.65609258532,0.253652274959,0.303370879838,1.0,-0.01502,-0.0197405714286,0.752
0.460836262695,0.516231878615,-0.124090402844,-1.40555760948,0.0766384538655,1.91239965034,0.152762285449,-0.010234803847,-0.0864952448647,-2.23810466776e-05,-0.131403386045,-0.0127174390478,0.0511360918528,-0.0150862096402,0.57405101823,0.818805116789,0.00208712463088,0.0,0.818762101256,-0.573990208233,-0.0120253607163,0.0,-0.00864860429668,0.00861219492358,-0.999925513097,0.0,0.655834505268,0.253330348048,0.303374521873,1.0,-0.01536,-0.0201874285714,0.769
0.460635866124,0.51478482614,-0.124100366141,-1.4078978238,0.0765015810382,1.91327217038,0.152431607005,-0.0125535408668,-0.07935502349,-0.000223251354638,-0.13297622126,-0.0100840470595,0.0459138989972,-0.0224465474191,0.574038080244,0.818814234538,0.00206848953115,0.0,0.818770929628,-0.573977305081,-0.0120401391323,0.0,-0.00867153821461,0.00860528312807,-0.999925373979,0.0,0.655551709655,0.252971470669,0.303351269184,1.0,-0.01572,-0.0206605714286,0.787
0.460455965413,0.513445986431,-0.124103487845,-1.41002712031,0.0763804459363,1.91400162865,0.152141444368,-0.0101756875232,-0.0768082540396,0.000260850960918,-0.13053105278,-0.0071841671307,0.0500791408776,-0.0278077570881,0.574029985206,0.818820004395,0.0020306126115,0.0,0.818776020994,-0.573969191828,-0.0120806117117,0.0,-0.00872650546762,0.00859741580327,-0.999924963457,0.0,0.655294936736,0.252667835579,0.303346829141,1.0,-0.01602,-0.0210548571429,0.802
0.460258989815,0.512019569855,-0.12410970466,-1.41231428153,0.0762391598946,1.91482204335,0.151825349068,-0.0126211861093,-0.0848580002829,-0.000560567515277,-0.134912995636,-0.00733979753033,0.0476672348657,-0.0242311064535,0.574017477223,0.818828883586,0.00198548473588,0.0,0.818784251669,-0.573956824301,-0.012110324478,0.0,-0.00877686994039,0.00857738668013,-0.99992469466,0.0,0.654994727074,0.252294122295,0.303321425463,1.0,-0.01638,-0.021528,0.82
0.460060811193,0.510559193303,-0.124111987717,-1.4146462408,0.0760917167024,1.91571150852,0.151495469533,-0.00943771286401,-0.0924091777226,-0.00147950802478,-0.139722502828,-0.0107765897929,0.0538765457735,-0.02097383238,0.573993482562,0.818845680381,0.00199514382968,0.0,0.818801221953,-0.573932836623,-0.0120997882129,0.0,-0.00876294946795,0.00857899095246,-0.999924802988,0.0,0.654713174991,0.251941985004,0.303311240896,1.0,-0.01672,-0.0219748571429,0.837
0.459873668261,0.509153195994,-0.124115941398,-1.41686835812,0.0759668089658,1.9165166997,0.151189744247,-0.0114720464725,-0.0966033355747,-0.000617482972549,-0.141241838315,-0.00941408588866,0.0449073498759,-0.0237463585428,0.573981254885,0.818854261615,0.00199102399841,0.0,0.818809596814,-0.573920479316,-0.0121191785307,0.0,-0.00878132060731,0.0085866161776,-0.999924576371,0.0,0.65443504837,0.251606432191,0.303307553673,1.0,-0.01704,-0.0223954285714,0.853
0.459663039108,0.507636911772,-0.124111407279,-1.4192454467,0.0758071825591,1.91736856903,0.150851301449,-0.0141978559022,-0.0941623347394,0.000688115761185,-0.137567694105,-0.0126493919591,0.0502067561778,-0.0163940354443,0.57395329125,0.818873894757,0.0019775869155,0.0,0.818829071605,-0.573892595286,-0.0121238389623,0.0,-0.00879314203834,0.00857798808588,-0.99992454654,0.0,0.654137047174,0.251241240433,0.303310500407,1.0,-0.01738,-0.0228422857143,0.87
0.459445079351,0.506066882811,-0.124119882418,-1.42168622565,0.075653070262,1.91827676699,0.150516617616,-0.0133435470203,-0.0923843024384,0.00117564008444,-0.147615096654,-0.0111263248108,0.0558759464711,-0.0230689721908,0.573948950881,0.818876868579,0.00200568969548,0.0,0.818832419018,-0.573888138155,-0.0121087303563,0.0,-0.00876468641893,0.00859228225768,-0.999924673642,0.0,0.653822696237,0.250840570149,0.303322160805,1.0,-0.01774,-0.0233154285714,0.888
0.45922884971,0.504527235727,-0.124125795656,-1.42401543383,0.0755021781324,1.91918122118,0.150202881376,-0.0154848719727,-0.0984885454941,0.00405505146628,-0.153537113396,-0.0116500787304,0.0589297399879,-0.0237807084866,0.573952236206,0.818874341247,0.00209540031122,0.0,0.818831245799,-0.573891216446,-0.0120419886904,0.0,-0.00865851042575,0.00862747169006,-0.999925295674,0.0,0.653565917523,0.250497597562,0.303371278052,1.0,-0.01804,-0.0237097142857,0.903
0.458995685876,0.502859173672,-0.124138980523,-1.42647213173,0.075347797973,1.92012236101,0.149857971767,-0.0152303174284,-0.100933530661,-0.00110030798057,-0.149314651562,-0.00273992779689,0.058743353658,-0.0156109594706,0.573954717321,0.818872271535,0.00222087314656,0.0,0.818830938708,-0.573893301071,-0.0119632646853,0.0,-0.00852200558149,0.00868505905832,-0.999925969845,0.0,0.653277036843,0.25010692166,0.303448858434,1.0,-0.01838,-0.0241565714286,0.92
0.458759832852,0.501149563468,-0.124137897803,-1.42903888931,0.0751818441728,1.92102186446,0.149490469874,-0.0162143809734,-0.102471731433,-0.000556402984185,-0.154766563236,-0.00875595681119,0.0483187960922,-0.0232612900566,0.573932139043,0.818887999175,0.00225643115634,0.0,0.818847090281,-0.573870540472,-0.0119495781607,0.0,-0.00849063025472,0.00870608666036,-0.999926053892,0.0,0.65295138163,0.249705888726,0.303498373994,1.0,-0.01872,-0.0246034285714,0.937
0.458534645121,0.499532763974,-0.124135567643,-1.43148628599,0.0750272300948,1.92191222516,0.149151857787,-0.00943621765257,-0.102938168755,0.000225421338002,-0.15668222506,-0.00657958476637,0.0527524612433,-0.025185365609,0.573915513045,0.81889950273,0.0023098088542,0.0,0.818859273362,-0.573853685243,-0.0119241462107,0.0,-0.00843934756284,0.00873502906648,-0.999926235619,0.0,0.652627082851,0.249304565346,0.303539210454,1.0,-0.01906,-0.0250502857143,0.954
0.458260663997,0.497770635627,-0.124141536612,-1.43428474093,0.0748576624251,1.9229493694,0.148744982418,-0.0139053152573,-0.100274925657,-0.000715579580883,-0.156061701969,-0.00553052995784,0.0651691330806,-0.025255222242,0.573912423904,0.818901675769,0.00230694863794,0.0,0.818861343229,-0.573850539755,-0.011933377109,0.0,-0.00844858145242,0.00873795267506,-0.999926132099,0.0,0.652301830073,0.248878791316,0.303525404627,1.0,-0.0194,-0.0254971428571,0.971
0.457995761277,0.496089698233,-0.124141540552,-1.43695981577,0.0746891290377,1.92389310764,0.148345890276,-0.0166857448343,-0.0966926660338,-0.00145972493421,-0.159020494445,-0.0104804702849,0.0587578750398,-0.0251958740709,0.57389212812,0.818916021173,0.00226328301211,0.0,0.818875018817,-0.573830319338,-0.0119672497618,0.0,-0.00850159582777,0.00872142426711,-0.999925827063,0.0,0.651962109601,0.248447904746,0.303505457294,1.0,-0.01974,-0.025944,0.988
0.457740142114,0.49451850918,-0.124146265741,-1.43954349182,0.0745228486286,1.92478602935,0.147977067945,-0.0165299604829,-0.093194589112,-0.000991182174191,-0.160165536985,-0.0123040342423,0.0518724416462,-0.0292030718055,0.573887814062,0.818919330722,0.00215720696577,0.0,0.818876852767,-0.573826351675,-0.0120318338931,0.0,-0.00861540502936,0.00867157665768,-0.999925286486,0.0,0.651628878611,0.248026803489,0.303447793884,1.0,-0.0218468571429,-0.0287130122449,1.004
0.45742335346,0.49211798164,-0.124222975238,-1.4431592693,0.0743193365453,1.92612046498,0.147467022422,-0.0214020175239,-0.146274927475,-0.00490718361244,-0.223636189666,-0.00947224964917,0.0941137144479,-0.0358144865745,0.573911618772,0.818902387313,0.00225406151761,0.0,0.818861298998,-0.573849880224,-0.0119680771667,0.0,-0.00850735782444,0.00871455006473,-0.99992583799,0.0,0.651186937096,0.247436099699,0.303515640376,1.0,-0.033048,-0.0434345142857,1.022
0.457020608892,0.489063679155,-0.124251163245,-1.44803956055,0.0740631673153,1.92796368128,0.146735559479,-0.0253426756738,-0.193842303491,-0.000836930799673,-0.31444244333,-0.0190678301224,0.113699786735,-0.0465982098663,0.573838529523,0.818953522507,0.00228405553866,0.0,0.818912485856,-0.573776329264,-0.011992138552,0.0,-0.00851063096273,0.00875216125772,-0.99992548164,0.0,0.650566372332,0.246702728851,0.303477777531,1.0,-0.0436268571429,-0.057338155102,1.039
0.456488257093,0.485581168721,-0.124306772796,-1.45355053482,0.0737423584835,1.93004610115,0.145916853098,-0.0340275322501,-0.247061373642,-0.00918947457962,-0.387718620039,-0.0248987515192,0.146122178902,-0.0630817756239,0.573831520679,0.818958316666,0.00232558373994,0.0,0.818917831461,-0.573769162324,-0.0119699867056,0.0,-0.00846873497797,0.00877338658188,-0.999925651344,0.0,0.6498878578,0.245806160008,0.303456388243,1.0,-0.0529611428571,-0.0696060734694,1.054
0.455763169297,0.480776858566,-0.124446048277,-1.46114012052,0.0732874904779,1.93270660926,0.144750118596,-0.0498423799272,-0.298497032475,-0.0107401355838,-0.484383397782,-0.0304915034942,0.172350566013,-0.0748162359241,0.57382003412,0.818966701693,0.0022038288352,0.0,0.818924675057,-0.573758226146,-0.0120258643768,0.0,-0.0085844828384,0.00870561932994,-0.99992525663,0.0,0.648916028193,0.244525257294,0.303411944246,1.0,-0.06354,-0.0835097142857,1.071
0.454862504455,0.475043606619,-0.124589348075,-1.47009856548,0.07274221925,1.93587691091,0.143447579801,-0.0541316739104,-0.357476918113,-0.0123176423465,-0.548249145886,-0.0329239088362,0.202373337493,-0.0829899132924,0.573879567668,0.818925102596,0.0021598730438,0.0,0.818882587231,-0.573818022419,-0.0120387864541,0.0,-0.00861965630851,0.00867766306365,-0.999925197047,0.0,0.64769866527,0.242905113859,0.303409957832,1.0,-0.0747411428571,-0.0982312163265,1.089
0.453868417775,0.468881777993,-0.124685542876,-1.47957468268,0.0721963461513,1.93933323594,0.14202084955,-0.058396908951,-0.397768872467,-0.0051889252632,-0.612745031168,-0.0323820844076,0.237460128651,-0.098510956326,0.573904510058,0.818907322222,0.00227108952687,0.0,0.818865980567,-0.57384221517,-0.012015192884,0.0,-0.00853624673486,0.00875545990745,-0.999925234412,0.0,0.646561916389,0.241406348975,0.30344804493,1.0,-0.0840754285714,-0.110499134694,1.104
0.452540371033,0.461049066513,-0.124737076097,-1.49161288747,0.0714383019348,1.94368887544,0.140089973899,-0.0754697660185,-0.447878054428,-0.00250419459582,-0.71031901592,-0.0423757036569,0.245538028941,-0.0981740897482,0.573809509943,0.818973532324,0.0023971968283,0.0,0.818933645596,-0.573746515977,-0.0119735715871,0.0,-0.00843081720827,0.00883386446177,-0.9999254393,0.0,0.645000537747,0.239372757289,0.303497389317,1.0,-0.0952765714286,-0.125220636735,1.122
0.450997788263,0.452289392745,-0.124886326477,-1.50516653147,0.0705452140348,1.94830799352,0.138010157197,-0.0946561425185,-0.508158261588,-0.0114249243323,-0.745470908341,-0.0502754770492,0.276126856803,-0.129098324629,0.573858976545,0.818939370008,0.00222040330749,0.0,0.818897124321,-0.573796652009,-0.0120685053876,0.0,-0.00860947997425,0.00874407038393,-0.999924706209,0.0,0.643186244115,0.236978621897,0.303473176833,1.0,-0.106477714286,-0.139942138775,1.14
0.449597886366,0.44418336964,-0.124990034749,-1.51730285447,0.0697123745267,1.95274789235,0.13613761572,-0.101584021275,-0.543643888629,-0.00714584605098,-0.835353356356,-0.0573055740405,0.299039841026,-0.126619353729,0.573868123768,0.818932079137,0.00252451648112,0.0,0.818894475334,-0.573805287923,-0.0118354011893,0.0,-0.00824396751896,0.00885944264553,-0.999926770957,0.0,0.641601255996,0.234862960453,0.303639876311,1.0,-0.115812,-0.152210057143,1.155
0.447812043702,0.434364539508,-0.125059365191,-1.53220409191,0.0687340748563,1.95787145195,0.133730001632,-0.109602807973,-0.616546705846,-0.00233952731163,-0.875712694621,-0.0624719667101,0.325518599147,-0.144978992597,0.573792221465,0.818985038834,0.00259608428357,0.0,0.818947898188,-0.573728618913,-0.011855749427,0.0,-0.00822039182226,0.00892896647865,-0.999926346646,0.0,0.639429647098,0.232088066171,0.303717209814,1.0,-0.127013142857,-0.166931559184,1.173
0.445835055188,0.423805136516,-0.125156653045,-1.54809633397,0.0676121441253,1.96351139576,0.131089380987,-0.118361924842,-0.626221056413,0.000535998498747,-0.960863554893,-0.0772375555543,0.342455219968,-0.165923208404,0.573700691384,0.819048578923,0.00277289955337,0.0,0.819014224416,-0.573636994902,-0.0117066299475,0.0,-0.00799781483826,0.00898731890549,-0.99992762891,0.0,0.637383037527,0.229407322782,0.303817701951,1.0,-0.136969714286,-0.180017338775,1.189
0.443747780469,0.413191394588,-0.125285596583,-1.56399916097,0.0664636452195,1.96909737131,0.128464028394,-0.135600863043,-0.682174744965,-0.00667220627592,-1.01318993734,-0.0726056654598,0.367286970721,-0.174169658676,0.573700559671,0.819048004717,0.0029632250992,0.0,0.819016757859,-0.573636959359,-0.0115297920421,0.0,-0.00774378682294,0.00904175324274,-0.999929137721,0.0,0.635190978075,0.226480090899,0.303933726925,1.0,-0.146926285714,-0.193103118367,1.205
0.441157619772,0.400639013116,-0.125388177861,-1.58306126132,0.0651927431232,1.97550015072,0.125257292772,-0.151309186129,-0.713246634099,-0.00332787634489,-1.065728814,-0.0714807494533,0.349578684956,-0.181031502576,0.573692028772,0.819054248297,0.00288814316053,0.0,0.819021083386,-0.57362758551,-0.011687814728,0.0,-0.00791638813351,0.00907083092514,-0.999927522786,0.0,0.632443385321,0.222956629671,0.303896291138,1.0,-0.158127428571,-0.207824620408,1.223
0.438430430205,0.387997912034,-0.12553002728,-1.60199510962,0.0638071240073,1.98198029196,0.12201836635,-0.162629904366,-0.764728101267,-0.00780792629938,-1.14991949331,-0.081177909619,0.378907340892,-0.193092629627,0.573728524251,0.819028317566,0.00299038247185,0.0,0.818996813675,-0.573664121199,-0.0115949187444,0.0,-0.0077812414718,0.00910162457064,-0.999928303785,0.0,0.629726134308,0.219343725739,0.303946990525,1.0,-0.168706285714,-0.221728261224,1.24
0.435672629247,0.375501876648,-0.125667482201,-1.62061361138,0.0623946069613,1.98818402048,0.118646808597,-0.178923500378,-0.790784366934,-0.00969109112576,-1.18809913826,-0.0802857857223,0.397084145186,-0.214821926822,0.573626959807,0.819099431175,0.00299662010163,0.0,0.819068309826,-0.573562903164,-0.0115519199314,0.0,-0.00774357000735,0.00908110411142,-0.9999287828,0.0,0.626976168199,0.215745832436,0.303986440231,1.0,-0.178662857143,-0.234814040816,1.256
0.432189921365,0.360783133827,-0.125850917313,-1.6424075687,0.0607402124143,1.99540517012,0.114767635111,-0.199675845133,-0.862793817134,-0.0129184838228,-1.22502373339,-0.100119259602,0.420296878651,-0.221428521244,0.573753056665,0.819010892902,0.00305518850279,0.0,0.818980786783,-0.573689102583,-0.0114904899421,0.0,-0.0076582555221,0.00909501951794,-0.999929313373,0.0,0.62372923242,0.211385526175,0.30403970448,1.0,-0.189864,-0.249535542857,1.274
0.428780774546,0.347217980025,-0.126034887785,-1.66264094321,0.0592110570888,2.00184532749,0.110941514002,-0.224958689779,-0.862349266899,-0.0108745415332,-1.2611685569,-0.0944295646229,0.406579306402,-0.248078163981,0.573807722707,0.81897339986,0.00283100415926,0.0,0.818939905832,-0.573743931105,-0.0116652928593,0.0,-0.00792944576447,0.00901223092329,-0.999927949196,0.0,0.620618521644,0.207231184777,0.303952496989,1.0,-0.199820571429,-0.262621322449,1.29
0.425177874559,0.333041893487,-0.126180458679,-1.68342452367,0.0576065777046,2.00861118879,0.107008519036,-0.225499203669,-0.891374459384,-0.00407902293772,-1.32409781993,-0.0999107369937,0.413903863895,-0.252523272067,0.573865233553,0.818932768229,0.00292604520781,0.0,0.818900383101,-0.573800970629,-0.0116342409887,0.0,-0.00784884471335,0.00907280064336,-0.999928037373,0.0,0.617393530034,0.202963191444,0.303982572665,1.0,-0.209777142857,-0.275707102041,1.306
0.42115049539,0.317359465745,-0.126318709316,-1.70606697037,0.0557163511406,2.01586756783,0.102544996787,-0.243633358088,-0.941354969942,-0.0116070045824,-1.35743176289,-0.116058303536,0.429570643313,-0.26316860819,0.573757250104,0.819007856514,0.00308152927692,0.0,0.818978121365,-0.573693250396,-0.0114733637742,0.0,-0.00762906940786,0.0091068060409,-0.999929429202,0.0,0.613793504835,0.198274019045,0.304098544626,1.0,-0.220356,-0.289610742857,1.323
0.416526945691,0.300245545429,-0.126442414888,-1.73081263272,0.053660441452,2.02360968544,0.0974360010795,-0.269233846275,-0.958730411037,-0.0111235365926,-1.39863992415,-0.115468230575,0.424000164687,-0.290940268072,0.573563339881,0.819143561341,0.0031093342691,0.0,0.819114136724,-0.573499221801,-0.011463878651,0.0,-0.00760750806941,0.00912233581591,-0.999929451917,0.0,0.609748065595,0.193066388992,0.304118744746,1.0,-0.231557142857,-0.304332244898,1.341
0.412023488257,0.28449308118,-0.126593525343,-1.75335954611,0.0518282988159,2.03050571117,0.0927797325633,-0.284040632921,-0.980552215743,-0.0102159158136,-1.41766541785,-0.111551238528,0.426197263835,-0.293061881295,0.573620739156,0.819103006442,0.00320302184925,0.0,0.819074234779,-0.57355565342,-0.0114916166104,0.0,-0.00757585228343,0.00921551971162,-0.999928837797,0.0,0.606238831901,0.188476274415,0.304170871017,1.0,-0.240891428571,-0.316600163265,1.356
0.406859831343,0.267240737424,-0.126790390275,-1.77789591497,0.0497088437155,2.03785835068,0.0874194672649,-0.31479161851,-1.02579774255,-0.0127253821639,-1.45070098533,-0.120637398329,0.426840772657,-0.321340314334,0.573590270962,0.819124454208,0.0031743468657,0.0,0.819095128538,-0.573525055824,-0.0115294253438,0.0,-0.0076236135569,0.00921343564816,-0.999928494003,0.0,0.60183012595,0.182686372513,0.304180447791,1.0,-0.252092571429,-0.331321665306,1.374
0.401239253285,0.249460116148,-0.127030220113,-1.80295426374,0.0474517131616,2.04523895331,0.0818898202674,-0.338795592773,-1.0598994326,-0.0134998434348,-1.49712498493,-0.134931481538,0.431661118603,-0.337487544756,0.573737463397,0.819021387415,0.00316811514698,0.0,0.818992251891,-0.573672575528,-0.0114984491183,0.0,-0.00760016130074,0.00919192976176,-0.999928870458,0.0,0.59750707654,0.176903864508,0.304210312829,1.0,-0.262671428571,-0.345225306122,1.391
0.395660668766,0.232271820871,-0.127229181651,-1.82693667718,0.0452825850406,2.05219388341,0.0762736610996,-0.356289008131,-1.10254055735,-0.0165575750684,-1.51338568906,-0.146473643006,0.455693940306,-0.357180830678,0.573695759965,0.819050305124,0.00324338937681,0.0,0.819022066661,-0.573630555624,-0.0114711324007,0.0,-0.00753507231606,0.00923752534164,-0.999928942881,0.0,0.593265562198,0.171329194779,0.304253180673,1.0,-0.272628,-0.358311085714,1.407
0.389394330568,0.213553955525,-0.127400046469,-1.85282368592,0.0428446001201,2.05953340669,0.0700331180961,-0.376076859515,-1.13246862595,-0.0185034286388,-1.54486589191,-0.16275770918,0.452465689002,-0.372049332062,0.573573756043,0.819135496821,0.00330622556648,0.0,0.819108142122,-0.573508469547,-0.0114295130273,0.0,-0.00746631521717,0.0092640033588,-0.999929213684,0.0,0.588567123669,0.165248883859,0.304292644131,1.0,-0.283206857143,-0.372214726531,1.424
0.382198813092,0.193207703291,-0.127630743458,-1.88069214686,0.0401743694009,2.0671070801,0.0630291378147,-0.409268410255,-1.1619333582,-0.0205705457492,-1.57869811112,-0.162577193926,0.436070047822,-0.397338753272,0.573525642883,0.819169271558,0.00328456881372,0.0,0.819141317725,-0.573460032315,-0.0114821528973,0.0,-0.00752240271629,0.00927601374034,-0.99992868197,0.0,0.583380266336,0.158487579365,0.304315809751,1.0,-0.294408,-0.386936228571,1.442
0.375692338614,0.175909101145,-0.12794781044,-1.90411671966,0.0379593930706,2.07334338648,0.0568681077684,-0.442164769295,-1.16666327989,-0.0217749208061,-1.57439283803,-0.153665136813,0.441266547193,-0.418762617105,0.573691130358,0.819053075465,0.00336056850478,0.0,0.819025502469,-0.573624520125,-0.0115274940206,0.0,-0.00751406960324,0.00936579270365,-0.999927907744,0.0,0.578966408723,0.152550641724,0.304352478516,1.0,-0.303742285714,-0.399204146939,1.457
0.367519321914,0.154610454129,-0.128223842136,-1.9326597616,0.0350245573693,2.08072134223,0.0490704453626,-0.461542325386,-1.19933486793,-0.00745759744659,-1.58216828669,-0.17242321787,0.423269634809,-0.450181780151,0.573602073009,0.819115391488,0.0033740432113,0.0,0.819088153076,-0.57353563396,-0.0114987377777,0.0,-0.00748380317062,0.00935951884836,-0.99992819347,0.0,0.573421486305,0.145310675835,0.304390245331,1.0,-0.314943428571,-0.41392564898,1.475
0.358755255911,0.132853918494,-0.128528492793,-1.96150903319,0.0319887141199,2.08788240631,0.0408721797024,-0.49633629937,-1.23300795434,-0.0221691514557,-1.61799715629,-0.176975063184,0.391002193945,-0.479110167012,0.573576624634,0.819133323485,0.00334677927161,0.0,0.819105643329,-0.573510160749,-0.011523345218,0.0,-0.00751988892917,0.00935106727998,-0.999928001814,0.0,0.567667179723,0.137804332879,0.304403256063,1.0,-0.326144571429,-0.42864715102,1.493
0.351448731992,0.115602855102,-0.128859401035,-1.98404581242,0.0295579650003,2.09335091305,0.0341293096779,-0.539062183974,-1.2602148994,-0.0281288285914,-1.62496466106,-0.197379854087,0.400772264641,-0.50073445501,0.573650778196,0.819081067457,0.00342585885037,0.0,0.819054626644,-0.573584338895,-0.0114573840501,0.0,-0.00741965022547,0.00937868338679,-0.999928491988,0.0,0.56310632253,0.131718084186,0.304453856296,1.0,-0.334856571429,-0.440097208163,1.507
0.341494322207,0.0929716130123,-0.129252032603,-2.01331682513,0.0262652257969,2.10011941474,0.0249230540971,-0.554227844912,-1.26814959775,-0.0141587202145,-1.6599848522,-0.183434639204,0.372304521489,-0.519891105098,0.57358159147,0.819129619513,0.00340165604383,0.0,0.819103122605,-0.573515556168,-0.0114336465214,0.0,-0.00741487862623,0.00934461616838,-0.99992884633,0.0,0.556668935805,0.123250003517,0.304473370239,1.0,-0.34668,-0.455636571429,1.526
0.330298207919,0.0688298191454,-0.129660984141,-2.0442055193,0.022836459385,2.10687427573,0.0146917962609,-0.597421737545,-1.26721620487,-0.0202604644542,-1.61356418854,-0.176693688152,0.337482905707,-0.541032745321,0.57360632569,0.819112213044,0.00342234876831,0.0,0.819084999279,-0.573538985886,-0.0115560601761,0.0,-0.00750300403904,0.0094320053508,-0.999927368465,0.0,0.550384216185,0.115016574561,0.304467990973,1.0,-0.34998,-0.459973714286,1.544
0.321528371059,0.0510726688693,-0.130053508709,-2.06663424709,0.0201385887397,2.11150649236,0.00691737157505,-0.635444834269,-1.25425300011,-0.0281400371649,-1.60752753578,-0.198638875524,0.315665278537,-0.551857297579,0.573818487398,0.818964237916,0.00326610420754,0.0,0.818934977628,-0.57375158528,-0.0116347628865,0.0,-0.00765466962997,0.00935114905547,-0.999926978356,0.0,0.54511941814,0.107939699459,0.304427425391,1.0,-0.34998,-0.459973714286,1.559
0.309976364483,0.0284713072114,-0.130393531955,-2.0947014573,0.0168199091044,2.11700568465,-0.00324609575527,-0.645365746846,-1.2539436632,-0.0196611059515,-1.52590612967,-0.184782119279,0.290225482258,-0.56138272114,0.573946099023,0.818874530997,0.00333538623017,0.0,0.81884536293,-0.573877962569,-0.0117090813953,0.0,-0.0076743116361,0.0094517291132,-0.999925882132,0.0,0.539152427304,0.100090638776,0.304466424472,1.0,-0.34998,-0.459973714286,1.576
0.29933567315,0.00862987807967,-0.130709732572,-2.11897335356,0.0137092855304,2.12158073157,-0.0126222050401,-0.668545285033,-1.22827837748,-0.0199560889088,-1.52767808061,-0.197189195267,0.277205806671,-0.590235442983,0.57398736972,0.818845538687,0.00335113066574,0.0,0.818817177649,-0.573919921088,-0.0116232812257,0.0,-0.00759453754768,0.00941576125446,-0.999926830543,0.0,0.533576090603,0.092660215758,0.304501093309,1.0,-0.34998,-0.459973714286,1.592
0.288419124071,-0.0110878978045,-0.130979566792,-2.14260043321,0.0107901650486,2.12576752126,-0.0222903629012,-0.68689292403,-1.24138417526,-0.00371645508472,-1.47918666965,-0.191175141911,0.270519710666,-0.603317804254,0.573996326283,0.818838248925,0.00358976498812,0.0,0.818812619784,-0.573927676234,-0.0115612731288,0.0,-0.00740668976799,0.00957565753849,-0.99992672118,0.0,0.528008829482,0.0853162074499,0.304609737478,1.0,-0.34998,-0.459973714286,1.608
0.275783641346,-0.0329435162916,-0.131274471712,-2.16859093431,0.00732943789685,2.13000070853,-0.0333932138514,-0.709096701458,-1.2207840618,-0.0230628118652,-1.44100561168,-0.201281912687,0.236707355717,-0.616353520304,0.573956143482,0.818866375864,0.00359871379618,0.0,0.818841097466,-0.573887776203,-0.0115249436998,0.0,-0.0073722729609,0.00956177108783,-0.999927108406,0.0,0.521706561669,0.0770568735029,0.304644132573,1.0,-0.34998,-0.459973714286,1.626
0.262662058851,-0.0545962395164,-0.131599050996,-2.19389157896,0.00400306352723,2.13378971731,-0.0448830649434,-0.729983947502,-1.22000719515,-0.00538485877967,-1.39033421957,-0.195547158445,0.220659589784,-0.644350309999,0.574008990435,0.818828746943,0.00372947463631,0.0,0.818804683063,-0.573939599832,-0.0115314196916,0.0,-0.00730190534051,0.00967303610896,-0.999926554578,0.0,0.515408909293,0.0687753494222,0.304700537894,1.0,-0.34998,-0.459973714286,1.644
0.251481487951,-0.0723298064422,-0.13180505163,-2.21443077006,0.00120536230065,2.13655110748,-0.054770535058,-0.760880748376,-1.20325583799,-0.0165490286857,-1.34564983209,-0.182006292124,0.184250864517,-0.658474256279,0.573883748943,0.818916647817,0.00370317813466,0.0,0.818891683999,-0.573813718483,-0.0116177992671,0.0,-0.00738921708054,0.00969995473092,-0.999925652411,0.0,0.510143335053,0.061950804647,0.304690568166,1.0,-0.34998,-0.459973714286,1.659
0.237561269736,-0.0933694488742,-0.132174149475,-2.2384794469,-0.00212226422682,2.1394989669,-0.0669765543528,-0.765303863078,-1.16496929488,-0.00586454370137,-1.30625488124,-0.180209621198,0.144103013172,-0.690507617517,0.573922242838,0.818889718586,0.00369254262903,0.0,0.818863753447,-0.573851112005,-0.0117388858971,0.0,-0.00749402755826,0.00976108497059,-0.999924277519,0.0,0.50383692056,0.0536582169939,0.30466642476,1.0,-0.34998,-0.459973714286,1.677
0.224129434441,-0.11301475197,-0.132440596803,-2.26064339108,-0.0053889319242,2.1419217988,-0.0788200780018,-0.807763796742,-1.1368714513,-0.0241684535786,-1.30631470729,-0.196100962864,0.125297466557,-0.700959715476,0.573757191559,0.819005888329,0.00357588007762,0.0,0.81897833962,-0.573686387776,-0.0117963814356,0.0,-0.00761001864828,0.00969701370924,-0.999924024885,0.0,0.497854991262,0.0459193070762,0.304621236184,1.0,-0.34998,-0.459973714286,1.694
0.211783467537,-0.130230214573,-0.132795661128,-2.27960361737,-0.00814937734345,2.14374446573,-0.0895888036698,-0.832822717693,-1.13656640262,-0.0153875725991,-1.25188096881,-0.187051460039,0.104321023568,-0.72064638924,0.573867962516,0.818927862182,0.00366947425647,0.0,0.818901246299,-0.573796460853,-0.0117947964526,0.0,-0.00755370153441,0.00977378102601,-0.999923704488,0.0,0.492625003866,0.0389768279143,0.304663619948,1.0,-0.34998,-0.459973714286,1.709
0.195804168296,-0.15172094349,-0.133196040879,-2.30309994279,-0.0116607879678,2.14569717551,-0.103722271104,-0.85875104698,-1.11619437245,-0.0241183469014,-1.22396302732,-0.178480340555,0.0909924854648,-0.754372103528,0.573762438455,0.819001755278,0.00367912633073,0.0,0.818974812261,-0.573690333904,-0.0118492433717,0.0,-0.00759401811537,0.00981195147726,-0.999923025286,0.0,0.486310291848,0.0307407169384,0.304646272161,1.0,-0.34998,-0.459973714286,1.727
0.181877420972,-0.169636202074,-0.133572368445,-2.32225445899,-0.0145759791246,2.14693056779,-0.115917809292,-0.876971843032,-1.13080935521,-0.0213796737438,-1.18234884906,-0.175654521811,0.0845781206692,-0.776584443332,0.573871998287,0.81892479053,0.00372343097599,0.0,0.818897737839,-0.573798833382,-0.0119222763288,0.0,-0.0076270941402,0.00989116017965,-0.99992199315,0.0,0.480347011639,0.0228962017071,0.304658153508,1.0,-0.34998,-0.459973714286,1.744
0.16755636467,-0.187234093146,-0.133984276125,-2.34100756483,-0.0175311070057,2.14779789219,-0.128540603983,-0.913428710647,-1.10822567772,-0.0378484184878,-1.15414290989,-0.192840588917,0.0523728376121,-0.791612866659,0.573906406775,0.818901365097,0.00356895035177,0.0,0.818870995263,-0.573832157487,-0.0121529853034,0.0,-0.00790426995632,0.00989737660883,-0.999919779009,0.0,0.474683927097,0.0154976342928,0.304579120889,1.0,-0.34998,-0.459973714286,1.76
0.151972251524,-0.205816328605,-0.134372430079,-2.36023246797,-0.0205692365675,2.14859726581,-0.142396285069,-0.92182963036,-1.09368249409,-0.0183772502414,-1.12767415386,-0.172874767523,0.0306108678739,-0.816126308487,0.573855884703,0.818935961037,0.00374996174637,0.0,0.81890806056,-0.57378107906,-0.0120668373746,0.0,-0.00773045880003,0.00999569198609,-0.999920159887,0.0,0.468757568761,0.0077043240392,0.304639186241,1.0,-0.34998,-0.459973714286,1.777
0.1349423283,-0.225187513533,-0.134878566318,-2.37989480613,-0.0238094193747,2.14902942405,-0.157422428695,-0.943981310926,-1.06844291645,-0.0278461062687,-1.08969499257,-0.183959789179,0.0214902384978,-0.841399210011,0.573977420403,0.818850065471,0.00390359411482,0.0,0.818824482741,-0.573902440833,-0.011966694237,0.0,-0.00755879169911,0.0100651645064,-0.999920775427,0.0,0.462489322345,-0.000615396370348,0.304718579276,1.0,-0.34998,-0.459973714286,1.795
0.120490874921,-0.240983678113,-0.135184560483,-2.39578558597,-0.0264469512262,2.14910371589,-0.170372766287,-0.973357997479,-1.04066712782,-0.0248417376792,-1.031929996,-0.164117862706,0.00553742395113,-0.881603823976,0.573853324256,0.818936824697,0.00394794836276,0.0,0.818911605808,-0.573777917302,-0.0119762427838,0.0,-0.00754268586801,0.0101058220354,-0.999920486964,0.0,0.45725641461,-0.00743293342473,0.304735903161,1.0,-0.34998,-0.459973714286,1.81
0.103547960568,-0.258626819656,-0.135639834994,-2.41331251211,-0.0294099381891,2.1490675777,-0.185508657997,-1.00052483843,-1.03569564921,-0.0213715731502,-1.01799593597,-0.173430168673,-0.00985566543461,-0.903719006599,0.573874082558,0.818921648989,0.00407640596057,0.0,0.81889825374,-0.573798418602,-0.0119067935625,0.0,-0.00741183842547,0.0101713577847,-0.99992080093,0.0,0.451333768029,-0.0152673038803,0.304748573435,1.0,-0.34998,-0.459973714286,1.827
0.085182553914,-0.277008894925,-0.136172821734,-2.43117446531,-0.0325458538086,2.14875844828,-0.20196684725,-1.03731823842,-0.99882521312,-0.0243554452718,-0.988429904664,-0.169017635889,-0.0392038999637,-0.918554402347,0.573910486425,0.818895167287,0.00426678644829,0.0,0.818875174179,-0.573835479639,-0.0117063368598,0.0,-0.007137966661,0.0102125516007,-0.999922373598,0.0,0.445089850743,-0.0235548245973,0.304810934023,1.0,-0.34998,-0.459973714286,1.845
0.069534500193,-0.2919892293,-0.136524514495,-2.44567145344,-0.0350143341341,2.14810321569,-0.216145808937,-1.05312253006,-0.993174226141,-0.0242394517281,-0.949843406851,-0.168726157959,-0.0353635332287,-0.944335200896,0.573816534962,0.818960892854,0.00428801610493,0.0,0.818940078012,-0.573739906729,-0.0118496815775,0.0,-0.00724435932104,0.0103113699925,-0.999920594301,0.0,0.439811509694,-0.0303784533736,0.304774916018,1.0,-0.34998,-0.459973714286,1.86
0.0501668281808,-0.309611593157,-0.137082581255,-2.46231399356,-0.0380855411877,2.1471857947,-0.233624466009,-1.08266168401,-0.968252483498,-0.0296161526164,-0.916805576641,-0.159980143226,-0.0562510168742,-0.97731173261,0.573854533856,0.818933784736,0.00437916559023,0.0,0.818914724511,-0.573778417188,-0.0117366456052,0.0,-0.0070990015824,0.0103214891964,-0.99992153244,0.0,0.433545852327,-0.0386968213051,0.304810609473,1.0,-0.34998,-0.459973714286,1.878
0.0303210338612,-0.32692301363,-0.137648986438,-2.47829908777,-0.0409488527097,2.14600213545,-0.25162037888,-1.10986705755,-0.963511989999,-0.026070190018,-0.885383712497,-0.158712454377,-0.0644975327714,-1.01563915987,0.573947770095,0.818867066238,0.00462946377562,0.0,0.818851462207,-0.573871166311,-0.0116152580459,0.0,-0.00685476847886,0.0104575959775,-0.999921822362,0.0,0.427277659737,-0.0469763584205,0.304888437656,1.0,-0.34998,-0.459973714286,1.896
0.0122754788127,-0.34183447384,-0.138093767071,-2.49201770153,-0.0435119364631,2.14471424395,-0.268129912118,-1.14739573648,-0.944972541668,-0.0343735741037,-0.826933500744,-0.152379724724,-0.0799753343436,-1.02506043603,0.57387941551,0.818914760182,0.00466678809708,0.0,0.818899378607,-0.57380230908,-0.0116389309114,0.0,-0.00685361048324,0.0105011749215,-0.999921373583,0.0,0.421671512605,-0.0543003096139,0.304878894159,1.0,-0.34998,-0.459973714286,1.912
-0.00852314128698,-0.358110947268,-0.138598145235,-2.50659094943,-0.0463384148575,2.14302830779,-0.287208819826,-1.16256335658,-0.881022965991,-0.0226603485904,-0.78656766126,-0.149387844662,-0.0957248892574,-1.07646408166,0.573828360402,0.818950020221,0.00475647772333,0.0,0.818936253732,-0.573751694789,-0.0115391486295,0.0,-0.00672107825004,0.01051694527,-0.999922107451,0.0,0.415430648724,-0.0625562269952,0.304944200838,1.0,-0.34998,-0.459973714286,1.93
-0.0274688760818,-0.372211749561,-0.139090732989,-2.51921006017,-0.0488461260096,2.14142387993,-0.30468407963,-1.19739475047,-0.844333194876,-0.0263485947262,-0.798354351445,-0.154821519815,-0.0970689856666,-1.09817693432,0.573762832409,0.818995952609,0.00475275258892,0.0,0.818982035807,-0.573686028844,-0.011554749499,0.0,-0.00673683501923,0.0105223073783,-0.999921945004,0.0,0.409806871241,-0.06991115417,0.304921748475,1.0,-0.34998,-0.459973714286,1.946
-0.0467947399661,-0.385853045318,-0.139628707925,-2.53105040048,-0.0512154305016,2.13965814032,-0.322505485102,-1.20341212838,-0.860133878962,-0.0367421110304,-0.732403821847,-0.152621303913,-0.100593977957,-1.12862606133,0.573832690154,0.81894623821,0.00488359844742,0.0,0.818934353982,-0.573756037079,-0.0114577784001,0.0,-0.00658143714017,0.0105743979321,-0.999922430388,0.0,0.404254443076,-0.0772774153937,0.304986450197,1.0,-0.34998,-0.459973714286,1.962
-0.0690382415466,-0.400616820274,-0.140158781501,-2.54394203947,-0.0537133645408,2.13754759698,-0.343195474164,-1.2566487096,-0.803483947567,-0.0480462028364,-0.70748432634,-0.135012278742,-0.125832771361,-1.16156526366,0.573812949809,0.818959632209,0.00495644485505,0.0,0.818947542509,-0.573734240192,-0.0116056516412,0.0,-0.00666100632164,0.0107187479054,-0.999920366548,0.0,0.397933954712,-0.0855130300178,0.304939289489,1.0,-0.34998,-0.459973714286,1.98
-0.0904323879595,-0.414028258768,-0.140607434713,-2.55528287401,-0.0561062486932,2.1354431091,-0.363206333264,-1.27132136066,-0.781408853062,-0.0274876281992,-0.649680253814,-0.147487476219,-0.115711035889,-1.18623457051,0.573688760123,0.819046356402,0.0050019469979,0.0,0.81903536573,-0.57361076179,-0.0115113224137,0.0,-0.00655926233851,0.010700893797,-0.999921230372,0.0,0.392035383499,-0.0932748256345,0.304988743521,1.0,-0.34998,-0.459973714286,1.997
-0.109769047495,-0.425327472408,-0.141111953389,-2.56485129216,-0.0581553331726,2.13354108969,-0.381324534814,-1.28886452163,-0.739233567988,-0.0347627372418,-0.629469168299,-0.117442138996,-0.135771587173,-1.20648090407,0.573693975762,0.819042617474,0.00501595828659,0.0,0.819031394717,-0.573615261182,-0.0115695076815,0.0,-0.00659881667939,0.0107457910605,-0.999920488635,0.0,0.38678398959,-0.100191030366,0.304966267214,1.0,-0.34998,-0.459973714286,2.012
-0.132021334525,-0.437559133929,-0.141590020113,-2.57522678035,-0.0603547038791,2.13120621137,-0.40224569234,-1.3126628043,-0.703582560861,-0.0174916710665,-0.588462951951,-0.128949204206,-0.134684320141,-1.24710511285,0.573652009721,0.819072527481,0.00493085903398,0.0,0.819058202705,-0.573570386878,-0.0118919627984,0.0,-0.00691231838579,0.0108607179995,-0.999917128896,0.0,0.380776227831,-0.107943826314,0.304866790133,1.0,-0.34998,-0.459973714286,2.029
-0.154744061033,-0.44931930891,-0.14214059446,-2.5846388633,-0.0624880182737,2.12908061116,-0.423722059333,-1.34870312232,-0.667012435476,-0.0189987676489,-0.552708429557,-0.135123308466,-0.126421737117,-1.28967503092,0.573627738033,0.819088385265,0.00511685300767,0.0,0.819078249904,-0.573548370349,-0.0115686777612,0.0,-0.00654113282027,0.0108274259242,-0.999919987014,0.0,0.374566133463,-0.116237759999,0.30499009549,1.0,-0.34998,-0.459973714286,2.047
-0.179231122554,-0.460958569085,-0.142694416242,-2.59418254232,-0.0646386186939,2.12656982137,-0.446972988135,-1.3683341873,-0.627617705986,-0.0227032317272,-0.509936366054,-0.126718482711,-0.132919287705,-1.31778754298,0.573627720886,0.819088544755,0.0050931899343,0.0,0.81907645852,-0.573545738634,-0.0118231846163,0.0,-0.0067631879112,0.010954029318,-0.999917130832,0.0,0.368554773196,-0.124040084702,0.304931599136,1.0,-0.348490285714,-0.458015804082,2.064
-0.199797760507,-0.469929188853,-0.143022797631,-2.60146199227,-0.0661226894726,2.12469431824,-0.466590044175,-1.38078177324,-0.574104049992,-0.0253584053517,-0.457690986524,-0.0959588526042,-0.126661161718,-1.30837423938,0.573602569355,0.819105245727,0.00523791489239,0.0,0.819094140988,-0.57351860695,-0.0119139658985,0.0,-0.00675488036487,0.0111244410299,-0.999915305615,0.0,0.363374028512,-0.130805250704,0.30489993165,1.0,-0.339156,-0.445747885714,2.079
-0.224467734908,-0.479792409327,-0.14325676046,-2.60907371792,-0.0677783669631,2.12254363034,-0.489863582159,-1.36999307499,-0.526221953315,-0.0135387194441,-0.40242479514,-0.0763392394884,-0.117820359678,-1.3105011415,0.573771770146,0.818985529769,0.00542261138607,0.0,0.81897804902,-0.573689199456,-0.0116792359476,0.0,-0.00645435592112,0.0111424301034,-0.999917090334,0.0,0.357379971608,-0.13880729949,0.305009943679,1.0,-0.327954857143,-0.431026383674,2.097
-0.246074663247,-0.48764758503,-0.143309913961,-2.61529973297,-0.0690907362809,2.12065964892,-0.510409571194,-1.35193584493,-0.467463168347,0.00140188885542,-0.378336602081,-0.074439980148,-0.121687689307,-1.27518011883,0.573757835791,0.818995143089,0.00544503133943,0.0,0.818987257242,-0.573673992337,-0.0117800633417,0.0,-0.00652426740764,0.0112185309222,-0.999915785703,0.0,0.35213450224,-0.145637921216,0.304990680872,1.0,-0.317998285714,-0.417940604082,2.113
-0.268738989462,-0.495069830457,-0.143294885086,-2.62108858258,-0.0702262765842,2.11886394843,-0.531949840032,-1.32721487416,-0.422687684092,-0.00143881961458,-0.321181620033,-0.0498447433571,-0.099839674665,-1.26303453783,0.573843850212,0.818934067445,0.0055655774866,0.0,0.818927415824,-0.573758990659,-0.0118006419929,0.0,-0.00647077220698,0.0113297479576,-0.999914879336,0.0,0.346761481466,-0.152705815653,0.304998413032,1.0,-0.307419428572,-0.404036963265,2.13
-0.290944901064,-0.501573202557,-0.143113580324,-2.62612280818,-0.0712413809981,2.11726705373,-0.55303814027,-1.2974392499,-0.364106457966,0.0105920920198,-0.279294742664,-0.0513586002948,-0.0888566219332,-1.2147829693,0.573898129568,0.818895765208,0.00560441823607,0.0,0.818889817808,-0.57381347384,-0.0117605455204,0.0,-0.00641489373287,0.0113389744155,-0.999915134798,0.0,0.341597583853,-0.159522210955,0.305011121501,1.0,-0.296840571429,-0.390133322449,2.147
-0.31135530343,-0.506905507029,-0.142925277834,-2.63019516136,-0.071925248492,2.11592212384,-0.572540587571,-1.25905376006,-0.316246680436,0.0236207810939,-0.240750366776,-0.0523514420054,-0.0801915350767,-1.18381208775,0.573973107838,0.81884209795,0.00576515444879,0.0,0.818838258557,-0.573887913183,-0.0117182049565,0.0,-0.00628692811783,0.0114468839343,-0.999914718055,0.0,0.336925918509,-0.165717679244,0.305035359177,1.0,-0.286884,-0.377047542857,2.163
-0.333801038292,-0.512112550819,-0.142661098955,-2.63418365772,-0.0726027148061,2.11458143167,-0.593985352039,-1.23301425536,-0.267765907024,0.014110219798,-0.211875632623,-0.0373026569963,-0.0801452918743,-1.18311497297,0.574077083089,0.818768291955,0.00589352710699,0.0,0.8187661419,-0.573991462216,-0.0116855929543,0.0,-0.00618507782384,0.0115340736356,-0.999914351311,0.0,0.331828813546,-0.172458733942,0.305045225769,1.0,-0.275682857143,-0.362326040816,2.181
-0.35306795868,-0.516006462498,-0.14222103087,-2.63732683425,-0.0731086485582,2.11341416497,-0.612589859594,-1.20414682098,-0.232783514833,0.0255425601013,-0.190680170366,-0.0284070202009,-0.0649500255586,-1.15953377166,0.573903310218,0.818890400918,0.00585223951461,0.0,0.818886181222,-0.573815057469,-0.0119351969892,0.0,-0.00641563861507,0.0116421912762,-0.999911645578,0.0,0.327448363775,-0.178108780534,0.304966712535,1.0,-0.265726285714,-0.349240261225,2.197
-0.371896369597,-0.519284093746,-0.141854801996,-2.63998407249,-0.0735068019554,2.11249196163,-0.630636843792,-1.16130707536,-0.188686039112,0.021751668984,-0.150359036727,-0.00772814997992,-0.0447113260049,-1.11228001993,0.573955020959,0.818853921581,0.00588522963503,0.0,0.818849085918,-0.573864732138,-0.0120909304972,0.0,-0.00652350572286,0.0117589915711,-0.999909580907,0.0,0.323219059464,-0.183630722057,0.304896986786,1.0,-0.255769714286,-0.336154481633,2.213
-0.392366375069,-0.522369124816,-0.141324877086,-2.64238210239,-0.0738652700917,2.11156412249,-0.65032813086,-1.11716190018,-0.158429212144,0.0340887403423,-0.126291446958,-0.0203593710851,-0.0446323049805,-1.08272975703,0.573920455707,0.8188781937,0.00587888631877,0.0,0.818872812958,-0.573829370454,-0.012162101085,0.0,-0.00658592853236,0.0117943658521,-0.999908755077,0.0,0.31868321119,-0.189581789788,0.304875093947,1.0,-0.244568571429,-0.321432979592,2.231
-0.411052679026,-0.524780411952,-0.140873700144,-2.64416610291,-0.07403511397,2.11084165618,-0.668319316668,-1.07959607858,-0.12669662071,0.0249184282109,-0.0958857645924,-0.00538013672878,-0.0385399958584,-1.03868835088,0.573990472624,0.81882831769,0.00598918914241,0.0,0.818824520794,-0.573899156897,-0.0121205924208,0.0,-0.00648761860877,0.0118614278708,-0.99990860449,0.0,0.314578534975,-0.195000389773,0.304898394332,1.0,-0.233989714286,-0.307529338776,2.248
-0.427913277578,-0.52658741042,-0.140333572977,-2.64551031653,-0.0741637916569,2.11031597621,-0.684638639939,-1.03549081589,-0.109197460102,0.031365808999,-0.0792114700665,-0.00658053857068,-0.0306196908446,-1.0041875332,0.573916206479,0.818880256843,0.00600498072854,0.0,0.818877126879,-0.573825685236,-0.0120449549051,0.0,-0.00641768714533,0.0118303639635,-0.999909423788,0.0,0.310907237198,-0.199842323908,0.304918122395,1.0,-0.224033142857,-0.294443559184,2.264
-0.445248406485,-0.528041279843,-0.139836600149,-2.64661323941,-0.0742177944747,2.10984269042,-0.70133888721,-0.995540513494,-0.0752111146553,0.0344614972102,-0.0527426387561,0.00308219955186,-0.0247470341746,-0.975532230491,0.573996039988,0.818823862499,0.00606425447427,0.0,0.8188215114,-0.573905264421,-0.0120344023275,0.0,-0.00637387094582,0.0118734698948,-0.999909193118,0.0,0.307128590861,-0.204816828179,0.304920950958,1.0,-0.213454285714,-0.280539918367,2.281
-0.462776664406,-0.529138471443,-0.139272066194,-2.64744384462,-0.0742302148369,2.10945854518,-0.718197366423,-0.966544346182,-0.0577766046037,0.0300547023108,-0.0403437780316,-0.000738058327667,-0.0190486312827,-0.921784965912,0.574091148798,0.818757008118,0.00608780996325,0.0,0.818755077659,-0.574000466638,-0.012013908902,0.0,-0.00634218845547,0.0118817328425,-0.999909296422,0.0,0.30332502582,-0.209821894092,0.304926179546,1.0,-0.202253142857,-0.265818416327,2.299
-0.476677327385,-0.52971668622,-0.138679237905,-2.64790040878,-0.0742063546222,2.10921150514,-0.731653127988,-0.91247202977,-0.0311833570822,0.0349687694344,-0.0305194707164,0.00137080774617,-0.00809335242601,-0.885962448525,0.57402040395,0.818807033323,0.00603033432059,0.0,0.818804368801,-0.573930004616,-0.0120209123924,0.0,-0.00638194068155,0.0118381409953,-0.999909560536,0.0,0.300335585796,-0.21374877372,0.304924213119,1.0,-0.192918857143,-0.253550497959,2.314
-0.492638677194,-0.530117543687,-0.138057767967,-2.64821244011,-0.0741765331906,2.10900164973,-0.747068655884,-0.865840359588,-0.0157470112079,0.042479394394,-0.00903038203943,0.00277064574996,-0.00823552707208,-0.837168592985,0.574023395514,0.818805391655,0.00596815725101,0.0,0.818802042113,-0.573933484426,-0.0120132504752,0.0,-0.00641131241136,0.0117828530302,-0.999910025676,0.0,0.29689191594,-0.21827196246,0.304927045555,1.0,-0.181717714286,-0.238828995918,2.332
-0.506703098427,-0.53024358691,-0.137320567942,-2.64832956244,-0.0740520476325,2.10888212317,-0.760840001573,-0.809476817415,-0.00447977612878,0.0454357197074,-0.00256824103001,0.00839917179175,-0.00906397514269,-0.785526580431,0.57378985813,0.818969699065,0.00588027398723,0.0,0.818965345339,-0.573700611259,-0.0120049438257,0.0,-0.0064582927935,0.0117042809749,-0.999910646138,0.0,0.293890214163,-0.222195265867,0.304928971642,1.0,-0.171138857143,-0.224925355102,2.349
-0.519541914416,-0.530207761185,-0.136746340686,-2.64833384345,-0.0739008469424,2.10882799683,-0.77310026797,-0.777688309512,0.00616698389984,0.0445126721699,0.00255232762264,0.011096555545,-0.00583463993228,-0.762014184553,0.573923105683,0.818876451122,0.0058628885883,0.0,0.818871931347,-0.5738340117,-0.0120014152776,0.0,-0.00646347591411,0.0116890694811,-0.999910790588,0.0,0.291121348226,-0.225788054581,0.304924425625,1.0,-0.161182285714,-0.21183957551,2.365
-0.532117352851,-0.529982640533,-0.136015140328,-2.64820800292,-0.0735815348158,2.1088247741,-0.785362564522,-0.726083905025,0.0126556682451,0.0415309038342,0.0116094365362,0.0128733239007,0.000724328331291,-0.705923393706,0.573807480659,0.818957277665,0.00589061964725,0.0,0.81895306253,-0.573718195109,-0.0120025361838,0.0,-0.00645013287112,0.0117115115323,-0.999910614147,0.0,0.288449169514,-0.229248266354,0.304918457314,1.0,-0.150603428572,-0.197935934694,2.382
-0.544178314094,-0.52963275756,-0.135402673891,-2.64798727916,-0.0732894767244,2.10883876133,-0.796839023697,-0.6861208379,0.0230966515615,0.0373469502795,0.0131610924765,0.0188545829862,0.00099860301865,-0.649316742529,0.573991602138,0.818827931902,0.00593342340523,0.0,0.818824084718,-0.573901758302,-0.0120265125822,0.0,-0.00644256634002,0.0117617736648,-0.999910072966,0.0,0.285854226172,-0.232583205794,0.304908354462,1.0,-0.140024571429,-0.184032293878,2.399
-0.555129179693,-0.529123168244,-0.134629791609,-2.64765214411,-0.0728842787758,2.10891583392,-0.807576672242,-0.623384213214,0.034333293011,0.0447394274557,0.0236591089927,0.0155923513999,0.0138209953195,-0.625110486288,0.573813138858,0.818952757996,0.00596730645923,0.0,0.818949256823,-0.573723016589,-0.0120317034048,0.0,-0.00642993942035,0.0117910977017,-0.99990980888,0.0,0.283558332197,-0.235557175113,0.30490141995,1.0,-0.129445714286,-0.170128653061,2.416
-0.567312216804,-0.528405106684,-0.133864123789,-2.64715371693,-0.0724713503967,2.10902781933,-0.819118860115,-0.589553654401,0.0362286852218,0.0419255676712,0.0331134854961,0.0180681971354,0.00203311315453,-0.559661434161,0.574002277744,0.818819959825,0.00600045322922,0.0,0.818816793834,-0.573911800003,-0.0120437059687,0.0,-0.0064180194906,0.0118266142322,-0.999909466013,0.0,0.280977844038,-0.238896058606,0.304895145395,1.0,-0.117,-0.153771428572,2.436
-0.574978167607,-0.527797218403,-0.133228467782,-2.64674356936,-0.0721203616792,2.10915566866,-0.826606605546,-0.522704946485,0.0484767715748,0.0459633180136,0.0256532538442,0.0266685488898,0.0122940989495,-0.527960569356,0.573872617111,0.81891077145,0.00600954525631,0.0,0.818907675817,-0.573782039337,-0.01204727034,0.0,-0.00641759387395,0.0118350891598,-0.99990936847,0.0,0.279401932019,-0.240965684935,0.304886747556,1.0,-0.108288,-0.142321371429,2.45
-0.584606631564,-0.526975250571,-0.132405442173,-2.64618275555,-0.0716927218917,2.10928308255,-0.83582712087,-0.494559372772,0.0452765392097,0.0480458289023,0.0299925547577,0.0179334515302,0.00557353947675,-0.473392768304,0.573839731773,0.818933939853,0.00599260356305,0.0,0.818930299351,-0.57374863743,-0.0121001137868,0.0,-0.0064710703153,0.0118512788535,-0.999908832063,0.0,0.277409245241,-0.243552048112,0.304873062237,1.0,-0.0964645714287,-0.126782008163,2.469
-0.591159030592,-0.526389504619,-0.131853846715,-2.64577193077,-0.0713540880048,2.10938407713,-0.841975692082,-0.458239195851,0.0437547117372,0.0355370705635,0.0275017270329,0.0259847157269,0.0147714393029,-0.424716394729,0.573948280195,0.818857654269,0.00602167813863,0.0,0.81885425057,-0.573856776394,-0.0121187214937,0.0,-0.00646805157996,0.0118866249532,-0.999908432036,0.0,0.276050655798,-0.245308152478,0.304868193469,1.0,-0.0877525714287,-0.115331951021,2.483
-0.598621604049,-0.525610861109,-0.131093000642,-2.64522337116,-0.0708900226795,2.10952793702,-0.849136125255,-0.390172713922,0.045033091811,0.0393930850092,0.0289111820967,0.0227030566979,0.0104156991298,-0.372216949619,0.573886599823,0.818900699786,0.00604659701658,0.0,0.818897467972,-0.57379471833,-0.0121369299027,0.0,-0.00646955951767,0.0119169938599,-0.999908060802,0.0,0.27454540506,-0.247282639479,0.30486407637,1.0,-0.0765514285715,-0.10061044898,2.501
-0.604129651557,-0.525027473396,-0.130417031949,-2.644834233,-0.0705096529971,2.10961849963,-0.854411970682,-0.359665155614,0.0353690238496,0.0406496053447,0.024787517545,0.0206172775367,-0.000322382819764,-0.338269766145,0.57378287536,0.818973404414,0.00604331917676,0.0,0.818969790083,-0.573690405988,-0.0121880232211,0.0,-0.00651479806844,0.0119428047823,-0.999907459128,0.0,0.273445870611,-0.248698202645,0.304852021896,1.0,-0.0672171428572,-0.0883425306124,2.516
-0.610104894545,-0.524422896645,-0.129666159755,-2.64437046214,-0.0700539490098,2.10976589412,-0.859814739201,-0.31005382855,0.0341835707619,0.0386166892193,0.0215182321854,0.0262412649307,0.0108698084614,-0.279946242038,0.573940372176,0.818862937489,0.00605687169608,0.0,0.818859913155,-0.57384856979,-0.0121247053295,0.0,-0.00645286889978,0.0119188167945,-0.999908146926,0.0,0.272270894467,-0.25023722187,0.304872653893,1.0,-0.0560160000001,-0.0736210285716,2.534
-0.614796563634,-0.523858992588,-0.128954575275,-2.64394050553,-0.069580095732,2.10989527748,-0.86422234332,-0.263272686985,0.0333590095633,0.0357266205755,0.0252336535024,0.0301666647773,0.00439425041506,-0.245754756871,0.573895057645,0.818894385089,0.00609883442303,0.0,0.818892160449,-0.573803551149,-0.0120772987396,0.0,-0.00639062231439,0.0119256193584,-0.999908465585,0.0,0.271393694237,-0.251419172817,0.304890112169,1.0,-0.0454371428572,-0.0597173877552,2.551
-0.618556747003,-0.523434180981,-0.128290665633,-2.64362223144,-0.0691694119231,2.10997800873,-0.867545005764,-0.219721779911,0.0196436998656,0.0420273693096,0.0155557844223,0.0270026887384,0.00442981854811,-0.198196404739,0.57397593953,0.818837580755,0.00611425270121,0.0,0.818835667942,-0.573884556824,-0.012058658579,0.0,-0.00636533016856,0.0119281777363,-0.999908596397,0.0,0.270700432299,-0.252331151143,0.3049024535,1.0,-0.0354805714287,-0.0466316081634,2.567
-0.621726770449,-0.523088334422,-0.127516897111,-2.64336737441,-0.0687304817079,2.11005156497,-0.870379141622,-0.164105877717,0.013645463433,0.0472139910243,0.0149618758353,0.0240468823307,0.000653197758903,-0.152549308671,0.573904297693,0.818887894263,0.00610087051566,0.0,0.818885966116,-0.573813285248,-0.0120347444224,0.0,-0.00635446830778,0.0119029379604,-0.999908966257,0.0,0.270164625904,-0.253038555408,0.304916693594,1.0,-0.0249017142858,-0.0327279673471,2.584
-0.624320323668,-0.52280201078,-0.126685406781,-2.64316388285,-0.068294900723,2.11011383282,-0.87253945025,-0.129473307421,0.0172756388835,0.0389017717616,0.0106099132917,0.0138225773549,0.00346859639521,-0.113330397885,0.573867206009,0.81891423178,0.00605456501409,0.0,0.818911853043,-0.573776681733,-0.0120184585574,0.0,-0.00636824114199,0.0118553825408,-0.999909443605,0.0,0.269772653152,-0.253563370507,0.304929698006,1.0,-0.0197581818182,-0.0259678961039,2.603
-0.625852914043,-0.522636282257,-0.126277829753,-2.64302069192,-0.0680578386579,2.11014163165,-0.873971609822,-0.102052083575,0.0146720964554,0.0273259240059,0.0110190523392,0.0142984978932,0.000345692642781,-0.096766294184,0.573769498245,0.818982714594,0.00605169242909,0.0,0.818980461017,-0.573679309158,-0.0119917312123,0.0,-0.0063494120948,0.0118369353539,-0.999909781894,0.0,0.269525086534,-0.253898505724,0.304946220093,1.0,-0.0194781818182,-0.0255998961039,2.617
-0.627522505288,-0.522428907761,-0.125963625309,-2.6428260204,-0.0678836191467,2.11019460604,-0.875555530112,-0.0950527424062,0.0166187612958,0.0102033810047,0.00818652645183,0.00957498308561,0.0060559362848,-0.0925556774377,0.573701576428,0.819030411888,0.00603593471852,0.0,0.819028332496,-0.573612173621,-0.0119336392034,0.0,-0.00631184932103,0.0117901761685,-0.999910572153,0.0,0.269232200458,-0.254313208495,0.304970683709,1.0,-0.0191381818182,-0.025153038961,2.634
-0.629113419405,-0.522183690981,-0.125803499992,-2.64264458722,-0.0677555041834,2.1102643064,-0.877091294808,-0.0958090391459,0.0168190710868,0.0133375053425,0.0128606733055,0.00245898310067,0.00274405422114,-0.088974260449,0.573697613939,0.819033023734,0.00605810987884,0.0,0.819031339826,-0.573608323202,-0.0119122976976,0.0,-0.00628170389575,0.0117960657273,-0.999910692527,0.0,0.268920699143,-0.254743677386,0.304972926885,1.0,-0.0187981818182,-0.0247061818182,2.651
-0.630576177987,-0.521959525545,-0.125709094312,-2.64249441706,-0.067718639723,2.11027285817,-0.878389183159,-0.0901405189869,0.015590475764,0.00539276661418,0.00405035610435,0.0037534587193,0.00177048756844,-0.08351143727,0.573789615652,0.818968691013,0.00604210321462,0.0,0.818966467356,-0.573699750468,-0.0119694845465,0.0,-0.00633640197997,0.0118164733663,-0.999910106443,0.0,0.268602560495,-0.255147391152,0.304961827259,1.0,-0.0184781818182,-0.0242856103896,2.667
-0.632018553342,-0.521744813914,-0.125661402548,-2.64232505682,-0.0676790283711,2.11030398827,-0.879864562575,-0.0823589531575,0.0134516742689,0.00390053549971,0.00761035948221,0.00116780690802,0.000961257908128,-0.0862976748434,0.573754635732,0.81899314519,0.00604921558876,0.0,0.818990972869,-0.573664671659,-0.0119740448806,0.0,-0.0063365614013,0.0118246443799,-0.999910008838,0.0,0.268287641649,-0.255563399163,0.304963724438,1.0,-0.0181381818182,-0.0238387532468,2.684
-0.633470071933,-0.52149195182,-0.125590483907,-2.6421595664,-0.0676400631796,2.11035800458,-0.881297699971,-0.0771211190667,0.0158798537978,0.00406230872936,0.00961011588696,0.00126928600767,0.00188366257977,-0.0835731643709,0.573744993196,0.81899994681,0.00604291387381,0.0,0.818997544486,-0.573654781472,-0.0119983633126,0.0,-0.00636023493131,0.0118333603302,-0.999909755425,0.0,0.267976564287,-0.255977945002,0.304952332602,1.0,-0.0177781818182,-0.0233656103896,2.702
-0.634718901771,-0.521276583519,-0.125578899883,-2.64201851473,-0.0676102358307,2.11037909131,-0.882599653091,-0.0793252371108,0.0132945516742,0.000193041756355,0.00640373585596,0.00481135728159,-0.00039489869907,-0.0813746916607,0.57371361167,0.819021785525,0.00606246828813,0.0,0.819019326967,-0.573622746102,-0.0120430108965,0.0,-0.00638604153103,0.0118747465996,-0.999909100302,0.0,0.267693187573,-0.256341802925,0.304939370941,1.0,-0.0174581818182,-0.022945038961,2.718
-0.636035654251,-0.521079256722,-0.125583860294,-2.64186442825,-0.0675847593148,2.11039658449,-0.883901881777,-0.0798160795535,0.00950397148805,-0.000783607328756,0.00450651475857,0.000661820273138,-0.00025368896315,-0.072831888219,0.573748020353,0.818997515552,0.00608486325709,0.0,0.81899521587,-0.573656804616,-0.0120604228639,0.0,-0.00638695611813,0.0119033468159,-0.9999087544,0.0,0.267390823121,-0.256730719331,0.304938248973,1.0,-0.0171181818182,-0.0224981818182,2.735
-0.637335687269,-0.520887913351,-0.125572884039,-2.64171476173,-0.0675575652782,2.11044546448,-0.88515782809,-0.0780119732906,0.00978631761683,0.00154400461943,0.0114656461457,0.00473597750028,0.0017939821661,-0.0724465263923,0.573795822904,0.818963930781,0.00609758962085,0.0,0.818961884315,-0.573704705825,-0.0120453084532,0.0,-0.00636657987501,0.0119054703789,-0.999908859065,0.0,0.267099901381,-0.257114450661,0.304940364777,1.0,-0.0167781818182,-0.0220513246753,2.752
-0.638601568054,-0.520709942431,-0.125566556356,-2.64154968079,-0.0675328707822,2.11050140489,-0.886473004838,-0.0725463519291,0.0156730958813,0.00333943336861,0.00620911070299,0.00133492745189,0.00230595483954,-0.0770106501619,0.573770019663,0.818981931133,0.00610802050198,0.0,0.818980329241,-0.573679442875,-0.0119943336293,0.0,-0.00631921838426,0.0118845664988,-0.999909408176,0.0,0.26682101963,-0.257495143975,0.304954881843,1.0,-0.0164381818182,-0.0216044675325,2.769
-0.639860803395,-0.520521836947,-0.125538285817,-2.64137913813,-0.0675051915389,2.1105308139,-0.887719121158,-0.069113628921,0.0114279535263,0.00134693265134,0.00955517862001,0.00059391335203,-0.00013005373631,-0.0713836238085,0.573781371043,0.818973953336,0.00611137492911,0.0,0.818972514835,-0.57369100329,-0.0119749568232,0.0,-0.00630125823472,0.0118762838943,-0.999909619928,0.0,0.266545112698,-0.257866177131,0.304966402058,1.0,-0.0160981818182,-0.0211576103896,2.786
-0.641060655056,-0.520342729244,-0.125502689007,-2.64123934231,-0.0674832566202,2.1105539627,-0.888936974578,-0.069157507039,0.00952114105904,0.000679573566415,0.00506291348831,0.000592303238843,0.0046803598033,-0.0766247317889,0.573758116846,0.818990251632,0.006110481766,0.0,0.818988743027,-0.573667647525,-0.011983984289,0.0,-0.00630950208591,0.0118805527762,-0.999909517231,0.0,0.266277188372,-0.258211539016,0.304966884626,1.0,-0.0157581818182,-0.0207107532468,2.803
-0.642075309183,-0.520169428056,-0.125449155008,-2.64111030932,-0.0674566600598,2.11057145319,-0.89003420274,-0.0684477775263,0.00886560133955,0.00766646860021,0.00524544458667,0.000380584021511,0.00364970908614,-0.0688945025582,0.573670715986,0.819051514818,0.00610512863427,0.0,0.819049805778,-0.573580041577,-0.0120041018266,0.0,-0.00633031972746,0.011887034974,-0.999909308613,0.0,0.266057729851,-0.258499508962,0.304964547784,1.0,-0.0154581818182,-0.0203164675325,2.818
-0.643286862146,-0.519951398233,-0.125394802352,-2.64094812349,-0.0674281535253,2.11063239704,-0.891198668251,-0.0689317100193,0.0160394668434,0.00589107981844,0.00877737794918,-0.0002664592808,0.00214252317019,-0.0621003642324,0.573691466283,0.819037063198,0.00609405640632,0.0,0.819035298854,-0.573601000689,-0.0119924201291,0.0,-0.00632680152079,0.0118714249598,-0.999909516332,0.0,0.265800930385,-0.258853012386,0.304964537678,1.0,-0.0150981818182,-0.0198433246753,2.836
-0.644432269314,-0.519759029117,-0.125334551804,-2.64081252495,-0.0674008635333,2.11068450942,-0.89238180682,-0.0674068726134,0.00970342611478,0.000826371514034,0.00385206093822,0.00486498048929,0.00526202883892,-0.076442202942,0.573636679905,0.819075516843,0.00608309762475,0.0,0.819073630002,-0.573546309287,-0.011990272687,0.0,-0.00633212251946,0.0118607934255,-0.999909608817,0.0,0.265555020309,-0.259179944478,0.30496125943,1.0,-0.0147581818182,-0.0193964675325,2.853
-0.645497843267,-0.519582783103,-0.125322976712,-2.6406843792,-0.0673785258475,2.11068724967,-0.893430595419,-0.0687350816887,0.00938273850333,-0.000833331688929,0.004539686824,0.00452902614672,0.00476504754653,-0.0603982681372,0.5736585513,0.819060100409,0.00609633823171,0.0,0.819058128069,-0.573567637578,-0.012028918024,0.0,-0.00635586685724,0.0118939760634,-0.99990906401,0.0,0.265309235341,-0.259488112845,0.30495514797,1.0,-0.0144381818182,-0.0189758961039,2.869
-0.64659862945,-0.519412905026,-0.125312966711,-2.6405504492,-0.0673548727933,2.11072038572,-0.894502271791,-0.0678145492987,0.0147534465474,0.000661039816785,0.0118696492738,0.000716990253516,0.0053686762689,-0.0514307605929,0.573692401293,0.81903630839,0.00610746586987,0.0,0.819034497252,-0.573601463741,-0.0120249742828,0.0,-0.00634576135795,0.0119010907429,-0.999909043539,0.0,0.265060026595,-0.259811429575,0.30495655716,1.0,-0.0140981818182,-0.018529038961,2.886
-0.647742065909,-0.519230232158,-0.125295989917,-2.64039086931,-0.0673303813447,2.1107642692,-0.895660048733,-0.0655195726923,0.00868745519525,0.000302925169946,0.0131787327913,0.000436793773876,0.00143492168812,-0.0659237590504,0.573687320863,0.819039829731,0.0061124541332,0.0,0.819038252515,-0.573596680703,-0.0119973207571,0.0,-0.00632032183414,0.0118892734599,-0.999909345245,0.0,0.264808245141,-0.260152052388,0.304965984436,1.0,-0.0137381818182,-0.0180558961039,2.904
-0.648724292289,-0.519076480348,-0.125275356859,-2.64025870255,-0.0673160184247,2.11080968301,-0.896630845314,-0.0593268859731,0.0107738384022,-0.00128081156206,0.00834853856389,-3.73629359298e-05,0.000461779321841,-0.057499592028,0.573695016857,0.819034476022,0.00610750541463,0.0,0.819033022984,-0.573604750765,-0.0119684611968,0.0,-0.00629940950707,0.0118687236804,-0.999909721344,0.0,0.264592504159,-0.260443692286,0.304973804704,1.0,-0.0134181818182,-0.0176353246753,2.92
-0.649718316091,-0.518893069651,-0.125255971452,-2.64011356058,-0.0672953374585,2.11084748207,-0.897612847986,-0.0598699937525,0.0141062663524,0.00115183315483,0.00814399913167,0.000424651033644,1.82425306714e-06,-0.0535973277267,0.573707522895,0.81902570706,0.00610870275707,0.0,0.819024301894,-0.573617310085,-0.0119633347803,0.0,-0.00629434226918,0.0118668596473,-0.999909775379,0.0,0.264374779259,-0.260739666339,0.304975916217,1.0,-0.0130781818182,-0.0171884675325,2.937
-0.650708377512,-0.518712262194,-0.125233534822,-2.63998128409,-0.067280847424,2.1108671374,-0.89862739965,-0.0587053572969,0.00620315986331,0.00199224685621,0.00928999815413,-2.62890473857e-05,0.000681369202588,-0.0549397248201,0.573684719597,0.819041689551,0.0061073873455,0.0,0.819040118418,-0.573594236715,-0.0119867814807,0.0,-0.00631463314975,0.011879057336,-0.999909502608,0.0,0.264152114929,-0.261028570931,0.304971650117,1.0,-0.0127381818182,-0.0167416103896,2.954
-0.651576862716,-0.518564564216,-0.125225313619,-2.63989306316,-0.0672681473906,2.11089120233,-0.899521910474,-0.0598257267672,0.0112541089727,0.0023391595267,0.00721450000138,-8.35438805305e-05,0.00238483383554,-0.0551178636277,0.573667773407,0.819053502801,0.00611491663621,0.0,0.819051828966,-0.573576885065,-0.0120168750969,0.0,-0.00633521077662,0.0119023567922,-0.999909095372,0.0,0.263948980371,-0.26127834524,0.304959591796,1.0,-0.0124381818182,-0.0163473246753,2.969
-0.652597097631,-0.518394360105,-0.125224883697,-2.63976865055,-0.0672592276826,2.11093652145,-0.900503409129,-0.0533114428887,0.0130709799973,-0.000493705768169,0.00188568720276,0.00090312194239,0.0030970190762,-0.0529951878357,0.57370955297,0.819024220926,0.00611729255193,0.0,0.819022609016,-0.573618704025,-0.0120122942621,0.0,-0.00632948838607,0.0119019980276,-0.999909135882,0.0,0.263715018948,-0.261581980234,0.304957307455,1.0,-0.0120781818182,-0.0158741818182,2.987
-0.65352891581,-0.518230663755,-0.125220973669,-2.63963791736,-0.067249036766,2.11096946868,-0.901411543869,-0.0562477685512,0.00759134621856,0.000749172729275,0.00859468306775,6.0934568098e-05,0.00163287860981,-0.0466910553873,0.573737343183,0.819004745932,0.00611833969475,0.0,0.819003178823,-0.57364654259,-0.0120076706224,0.0,-0.00632469658501,0.0119004178197,-0.999909185011,0.0,0.263504383725,-0.261861221775,0.304959310991,1.0,-0.0117381818182,-0.0154273246753,3.004
-0.65435897466,-0.5180708543,-0.125209294041,-2.63952254662,-0.0672386425785,2.11100224934,-0.902268721098,-0.0482264625687,0.00599330411574,-0.000512101495507,0.00536999564008,-0.000708829956842,0.00161573779337,-0.0561080228446,0.57371736714,0.819018747337,0.0061172751251,0.0,0.819017119269,-0.57362648667,-0.012014950508,0.0,-0.00633156057856,0.0119035680031,-0.999909104074,0.0,0.263318404387,-0.26210787762,0.304955928257,1.0,-0.0114181818182,-0.0150067532468,3.02
-0.655288167129,-0.517899276449,-0.125180716841,-2.63939040693,-0.0672249748439,2.11102047,-0.903156537493,-0.0507184425692,0.00937503204805,0.00260511373609,0.00972689109284,0.00133747944231,0.000421660984235,-0.0514504330061,0.573743732315,0.819000327261,0.00611068553563,0.0,0.818998516966,-0.573652693209,-0.0120317780297,0.0,-0.0063487411619,0.0119080288909,-0.999908942021,0.0,0.26311146767,-0.262378548574,0.304954978418,1.0,-0.0110581818182,-0.0145336103896,3.038
-0.656091925729,-0.517762670611,-0.125149005276,-2.63928748391,-0.0672126168023,2.11105596843,-0.903910420001,-0.0506020511929,0.0105026580931,0.00210461621193,0.00612826206379,-0.00050348209597,0.000937884924859,-0.0473554215161,0.573777042827,0.818977038008,0.0061043625307,0.0,0.818975183174,-0.573686094484,-0.0120275201655,0.0,-0.00634839716651,0.0119006654995,-0.999909031869,0.0,0.262923696803,-0.262623700871,0.30495474282,1.0,-0.0107181818182,-0.0140867532468,3.055
-0.656863945387,-0.517628744133,-0.125134140116,-2.63917931967,-0.0672000778909,2.11108907387,-0.904668045719,-0.046845149381,0.00844444104709,-0.000865983727485,0.00881138669741,0.00330430372753,0.00244231529033,-0.0518202725081,0.57378494404,0.818971544992,0.00609863816231,0.0,0.81896970184,-0.573694179911,-0.0120150866061,0.0,-0.00634138291318,0.0118889045716,-0.999909216285,0.0,0.262763073163,-0.26283976247,0.304958146551,1.0,-0.0104181818182,-0.0136924675325,3.07
-0.657699924922,-0.517466115182,-0.125136109418,-2.63906037545,-0.0671833141087,2.11111080529,-0.905547948083,-0.0429560308936,0.0092290734524,-0.000860270247121,0.00247906253253,0.00151111372826,0.00237582272215,-0.0462146310691,0.57376378695,0.818986275928,0.0061109350516,0.0,0.818984472016,-0.573672748433,-0.0120315918477,0.0,-0.00634815391596,0.0119082818897,-0.999908942736,0.0,0.262571226729,-0.263089093509,0.304954057661,1.0,-0.0100581818182,-0.0132193246753,3.088
-0.65843093876,-0.517320065579,-0.12513315786,-2.63895819929,-0.0671728739202,2.11114243549,-0.906267234551,-0.0442889617066,0.00849364650559,0.00248550297094,0.00659082729571,0.00369116893537,-8.18061647286e-05,-0.0424408930507,0.573776797028,0.818977131802,0.00611487367255,0.0,0.818975330222,-0.573685647115,-0.0120388405651,0.0,-0.00635164214511,0.01191576748,-0.999908831408,0.0,0.26239803509,-0.26331997418,0.304949584261,1.0,-0.00971818181819,-0.0127724675325,3.105
-0.659192972606,-0.517170022397,-0.125111396691,-2.63886994652,-0.0671568253357,2.11118168677,-0.907004196654,-0.041943530775,0.00696331652355,0.000672839666841,0.00364415438981,0.00256756945268,0.00089167938778,-0.0471042516996,0.573797851863,0.818962382835,0.00611454009255,0.0,0.818960456126,-0.57370647252,-0.0120582582397,0.0,-0.006367431266,0.0119267988462,-0.999908599467,0.0,0.2622338337,-0.263527035064,0.304938059704,1.0,-0.00939818181819,-0.0123518961039,3.121
-0.659926730939,-0.51701909956,-0.125083018916,-2.63879076743,-0.0671439622911,2.11120740355,-0.907721436408,-0.0431058823141,0.00817917397155,0.00226831438112,0.000593042265636,-0.000364506649533,0.000754627000779,-0.0476034890204,0.573801083196,0.818960138872,0.00611185434569,0.0,0.818957911238,-0.573709217674,-0.0121004164383,0.0,-0.00640345483787,0.0119488135799,-0.999908106588,0.0,0.262066504922,-0.263733485296,0.304921253753,1.0,-0.00905818181819,-0.011905038961,3.138
-0.660605866677,-0.516883916194,-0.125048602202,-2.63871454421,-0.0671248335492,2.11122496702,-0.908404938192,-0.0423046780872,0.00506243912697,0.000608260625848,0.00359687432349,-0.000353883110042,0.00036237645321,-0.0393001542522,0.573785387522,0.818971135961,0.00611182706181,0.0,0.818968667645,-0.573693077678,-0.0121375838456,0.0,-0.00643414182969,0.0119699935756,-0.999907656273,0.0,0.261913733893,-0.26392193418,0.304908353457,1.0,-0.00871818181819,-0.0114581818182,3.155
-0.661215669127,-0.516773208441,-0.125013429616,-2.63865443342,-0.0671069825826,2.11124356003,-0.909053681719,-0.037022689054,0.0106686426429,3.93658293109e-05,-8.22678968401e-05,-0.000289947825993,0.000814474285193,-0.0438999113734,0.573739428107,0.819003338859,0.00611117619364,0.0,0.819000677383,-0.57364678782,-0.0121655320973,0.0,-0.00645807915146,0.0119851336213,-0.999907320598,0.0,0.261776239105,-0.264088502629,0.304897259689,1.0,-0.00839818181819,-0.0110376103896,3.171
-0.661876181957,-0.516637601478,-0.124994515108,-2.63857400987,-0.067090761321,2.11126577453,-0.909699920814,-0.0353932556224,0.00691203988652,-0.00112726122322,0.00491059724297,0.00435382865205,0.000919727883906,-0.0413818493086,0.57374895253,0.818996639728,0.00611477609903,0.0,0.818993834988,-0.573655941201,-0.0121945183329,0.0,-0.00647961665214,0.0120047871769,-0.999906945497,0.0,0.261626117246,-0.264277302893,0.304886131144,1.0,-0.00803818181819,-0.0105644675325,3.189
-0.662513746842,-0.516529911912,-0.124980739349,-2.63847353279,-0.0670684950798,2.11128867473,-0.910333627746,-0.037323340995,0.00239982919286,8.25299530475e-05,0.00429426468997,0.00301223679784,0.00193655430232,-0.0388172239429,0.57375696314,0.818990979908,0.00612119092193,0.0,0.818988382535,-0.573664150456,-0.0121745083872,0.0,-0.00645942912793,0.011998624223,-0.999907150085,0.0,0.261486613274,-0.264466309018,0.304894344486,1.0,-0.00767818181819,-0.0100913246753,3.207
-0.663044811245,-0.516456734448,-0.124981767317,-2.63839568238,-0.0670505935373,2.111310341,-0.910824441904,-0.0345065994207,0.00791217865156,-0.000229916635545,0.00697538982929,0.00333666763801,0.000102129271997,-0.0297990433977,0.5738022202,0.818959195832,0.00613144006105,0.0,0.818956919922,-0.573709701331,-0.0121444971703,0.0,-0.006428304755,0.0119901555543,-0.999907452251,0.0,0.261366929848,-0.264625596297,0.304904550346,1.0,-0.00737818181819,-0.00969703896105,3.222
-0.663652948692,-0.516376413361,-0.124978809527,-2.63830150084,-0.0670259759792,2.11132712066,-0.911435683554,-0.0287366428643,0.00459171519417,0.000817381897487,0.00480140374009,0.00496510336059,5.44331050831e-05,-0.0368217620387,0.573812795984,0.818951682721,0.0061451961115,0.0,0.818949800219,-0.573720614004,-0.0121090333737,0.0,-0.00639121062187,0.011981156099,-0.999907797912,0.0,0.261231011627,-0.264806853635,0.304919219063,1.0,-0.00701818181819,-0.0092238961039,3.24
-0.664163924085,-0.516327414317,-0.124969598518,-2.63822643463,-0.0670097816917,2.11134992434,-0.911953021237,-0.0305799520527,0.00561235588274,0.00107465084634,0.00254943832233,0.00303416788276,-0.000822131478243,-0.0368784823163,0.57381162871,0.818952477759,0.0061482380065,0.0,0.818950964479,-0.573720052973,-0.0120567614776,0.0,-0.00634666944412,0.0119536455304,-0.999908410878,0.0,0.261118646474,-0.264958598187,0.30493741431,1.0,-0.00669818181819,-0.00880332467533,3.256
-0.664676718933,-0.516248665645,-0.124941689516,-2.63814724145,-0.0669852194632,2.11136710143,-0.912460180053,-0.0331486547784,0.0044991146796,-0.00230542439614,0.00491272830295,-1.35131571458e-05,-0.000123309718804,-0.0318661963515,0.57381091419,0.818952960719,0.00615059245528,0.0,0.818951610977,-0.573719578981,-0.0120353842002,0.0,-0.00632782004039,0.0119433023559,-0.999908653939,0.0,0.261010022205,-0.265105649912,0.304946472882,1.0,-0.00635818181819,-0.00835646753247,3.273
-0.665129306548,-0.516181454238,-0.124889304059,-2.63807958224,-0.0669603038679,2.11138954159,-0.91290542098,-0.0289142885398,0.0050383469186,0.000576894414397,0.00145962468003,-0.000115208723656,0.00157134015289,-0.0238954826894,0.573793770963,0.818965044112,0.00614099563288,0.0,0.818963740779,-0.573702803849,-0.0120096230307,0.0,-0.00631247657684,0.0119205291494,-0.999909022674,0.0,0.26092122603,-0.265229578355,0.304955571997,1.0,-0.00603818181819,-0.0079358961039,3.289
-0.665555313894,-0.516089963267,-0.124839836343,-2.63802020157,-0.0669351496461,2.11141536296,-0.913337446718,-0.022421938338,0.00109407511971,0.00336249226246,0.00175172036927,0.000887952095427,0.000430438914871,-0.0252416412,0.573767587115,0.81898343297,0.00613509551374,0.0,0.818982035764,-0.57367661836,-0.0120128907067,0.0,-0.00631891928202,0.0119173697748,-0.99990901964,0.0,0.26083692184,-0.265345059774,0.304952168861,1.0,-0.00571818181819,-0.00751532467533,3.305
-0.665947675609,-0.515991197137,-0.124800749607,-2.63797146827,-0.0669155774741,2.11142809776,-0.913741217435,-0.0214566637007,0.00648758917719,0.00465529289463,0.00272428136959,4.82981628952e-05,0.00282451126001,-0.0248156949178,0.573741533816,0.819001700054,0.00613307303538,0.0,0.819000057369,-0.573650166573,-0.0120473782053,0.0,-0.0063487070953,0.0119352982093,-0.999908617112,0.0,0.260754077012,-0.265449774965,0.304939877094,1.0,-0.00539818181819,-0.00709475324676,3.321
-0.666412250218,-0.515877896079,-0.124775790787,-2.63793052566,-0.0668866526885,2.1114539611,-0.914220729994,-0.0227669092291,0.0030232481164,0.00239461604915,0.00169370957063,0.000341186213299,0.00268145105382,-0.021256664335,0.573726321239,0.819012250625,0.00614723886198,0.0,0.819010509592,-0.573634364169,-0.0120891820964,0.0,-0.00637504352034,0.0119707656782,-0.999908025565,0.0,0.26064969086,-0.265574999183,0.304919473047,1.0,-0.00499818181819,-0.00656903896105,3.341
-0.666745395958,-0.515820688988,-0.124756562278,-2.63791621441,-0.0668669279384,2.11145858078,-0.914571047862,-0.0227077593213,0.00139727943725,0.00306935284807,0.00115375976896,0.000197324907222,0.000172478757457,-0.0257717164884,0.573707946072,0.819025034687,0.00615890179102,0.0,0.819023209753,-0.573615498611,-0.0121238830933,0.0,-0.00639704541226,0.0120000826201,-0.999907533639,0.0,0.260569964873,-0.265659095114,0.30490571909,1.0,-0.00469818181819,-0.00617475324676,3.356
-0.667109388906,-0.515762838069,-0.124740611581,-2.63790201106,-0.0668491754858,2.11146334934,-0.914937534185,-0.0190697871368,0.00396102167139,0.000609275878327,0.00183248240794,0.000169884687791,0.000297310953737,-0.0305292178415,0.573709705621,0.819023694004,0.00617326798899,0.0,0.819021793213,-0.573616699741,-0.0121626856299,0.0,-0.00642056171887,0.0120341235048,-0.999906973802,0.0,0.260474251611,-0.265758055067,0.304890599899,1.0,-0.00433818181819,-0.00570161038962,3.374
-0.667454259699,-0.515717604481,-0.12471714575,-2.63787282686,-0.0668291735872,2.11146486103,-0.91527155226,-0.0180824766362,0.00461746169675,0.00344353947653,0.00118399688768,0.00174046414609,-0.00034385099441,-0.0169450706565,0.573705390062,0.819026683347,0.00617772452458,0.0,0.819024785119,-0.573612260728,-0.0121705630626,0.0,-0.0064245210609,0.0120422589812,-0.999906850425,0.0,0.260402292507,-0.265841882842,0.304888866317,1.0,-0.00401818181819,-0.00528103896105,3.39
-0.667760356039,-0.515679305059,-0.12469864757,-2.63782742798,-0.066808672895,2.11146806504,-0.915551392107,-0.0220148182795,0.000971987573532,0.000410077568187,0.0065141110445,-3.18516455342e-05,-0.000485691290345,-0.0162132073859,0.573724768224,0.819013064668,0.00618361793787,0.0,0.81901132343,-0.573631758303,-0.0121575022628,0.0,-0.006410156972,0.0120397450812,-0.999906972886,0.0,0.260336788452,-0.265927169974,0.304896071828,1.0,-0.00369818181819,-0.00486046753247,3.406
-0.668069140351,-0.515640141267,-0.12467561075,-2.6377692188,-0.0667903252022,2.11147335739,-0.915840642729,-0.0164439518706,0.000382596806695,5.90434094909e-05,-0.000270949451515,0.000254831971885,0.00106351203802,-0.00933800019871,0.573735083913,0.819005841212,0.00618323932932,0.0,0.819004266686,-0.573642396213,-0.0121309240448,0.0,-0.00638845242425,0.0120242676218,-0.999907298035,0.0,0.260274550957,-0.266015999753,0.304909059867,1.0,-0.00333818181819,-0.00438732467533,3.424
-0.668321615311,-0.515610647129,-0.124647362988,-2.63771340877,-0.0667698461085,2.11148393381,-0.916090306916,-0.0119596525129,0.00040681320775,-1.17286173984e-05,0.00327351849342,0.00104519424279,0.00010314094945,-0.0139336381264,0.57372874768,0.819010298623,0.00618075530546,0.0,0.819008941781,-0.573636543694,-0.0120919775969,0.0,-0.00635806948429,0.0119998400599,-0.999907785144,0.0,0.260229119293,-0.266089126386,0.304925101397,1.0,-0.00299818181819,-0.00394046753247,3.441
-0.668554250833,-0.515589230452,-0.124621539746,-2.63768491667,-0.0667551866186,2.11149665109,-0.916307967147,-0.0140822298305,0.00106136072592,0.00289247098406,-0.000671321031046,0.000144375525861,0.000241270871892,-0.0197241964758,0.573730319074,0.819009219269,0.00617791464043,0.0,0.819007964945,-0.573638390744,-0.0120704980014,0.0,-0.00634208223653,0.0119852027193,-0.999908062228,0.0,0.260182233238,-0.266151510422,0.30493183771,1.0,-0.00267818181819,-0.0035198961039,3.457
-0.668775178582,-0.515574745977,-0.124601144245,-2.63766018512,-0.0667375974401,2.11150300929,-0.916510779563,-0.00831424039319,0.000731433145359,0.00151481777318,-0.000389660811545,0.00095032868092,6.12974748041e-05,-0.0106980582591,0.573739369085,0.819002855597,0.00618108298845,0.0,0.819001759167,-0.573647645633,-0.0120517235803,0.0,-0.0063247540945,0.0119770967207,-0.999908269113,0.0,0.260135822401,-0.266209947599,0.304938756681,1.0,-0.00233818181819,-0.00307303896105,3.474
-0.668966325757,-0.515558577672,-0.124574447035,-2.63764444033,-0.0667277315771,2.11151322363,-0.916680245728,-0.0146249092809,0.00115547023175,0.00116771410353,-5.19826687446e-05,-0.000427967478361,0.000642503735861,-0.0120626843636,0.573743156573,0.819000245913,0.00617530407452,0.0,0.81899914928,-0.57365159948,-0.0120408800928,0.0,-0.00631913236023,0.0119661717218,-0.999908435458,0.0,0.260096567716,-0.266258221697,0.304941443689,1.0,-0.00201818181819,-0.00265246753247,3.49
-0.669199021548,-0.515538002241,-0.124545373332,-2.63762240181,-0.0667065843519,2.11152818576,-0.916883339756,-0.00973239965897,0.00271443691905,0.00216615003505,0.00153429276368,0.000324548587441,0.00444552153509,-0.00304057804506,0.57375686388,0.818990631429,0.00617686676395,0.0,0.818989673132,-0.573665520773,-0.0120221662073,0.0,-0.00630270735099,0.011956820678,-0.999908650987,0.0,0.260049858756,-0.266317905401,0.30494583018,1.0,-0.00159818181819,-0.00210046753247,3.511
-0.669339999776,-0.51551167986,-0.124520943345,-2.63760698505,-0.0666998204439,2.11153772355,-0.917009517458,-0.0112005135521,0.00134227946702,0.0023450694456,0.000859438612463,-2.04080322832e-05,-0.000245037265155,-0.00955294240639,0.573755336921,0.818991754477,0.00616979378988,0.0,0.818990706215,-0.573664028482,-0.0120229971263,0.0,-0.00630746818847,0.0119514926435,-0.999908684665,0.0,0.260022755749,-0.266353559721,0.304944506274,1.0,-0.00131818181819,-0.00173246753247,3.525
-0.669468159457,-0.515480824383,-0.12449854035,-2.63759454415,-0.0666893873297,2.11154370376,-0.917104307092,-0.00992385108642,0.000519055608568,0.00200033153301,-0.000248770519714,0.000958356192059,-0.000194998092488,-0.0064582469514,0.573773732052,0.818978892571,0.00616642781832,0.0,0.818977765775,-0.573682368406,-0.012029390965,0.0,-0.00631436794656,0.0119525459493,-0.999908628527,0.0,0.259996085747,-0.266386567377,0.304941805853,1.0,-0.00101818181819,-0.00133818181819,3.54
-0.669621329511,-0.515455778568,-0.124477200279,-2.6375809082,-0.0666768564154,2.11154541968,-0.917172573062,-0.00858519852028,0.00265365995976,-0.000347472238212,-0.000718525036061,9.27152759617e-05,-0.000118988711068,-0.00563998081812,0.573832374566,0.818937796401,0.00616753008205,0.0,0.81893660177,-0.573740838187,-0.0120432461519,0.0,-0.00632422734727,0.0119618509662,-0.999908454945,0.0,0.259965510969,-0.266421931063,0.304937409512,1.0,-0.000658181818187,-0.000865038961046,3.558
-0.669699699609,-0.515435043659,-0.124467209218,-2.63757162616,-0.0666703705911,2.11154860465,-0.917233657902,-0.00231918386079,-2.28491327823e-05,0.0011031359161,4.94490922684e-06,-0.000318229504801,3.53159345215e-05,-0.000665679415263,0.573842721231,0.818930542257,0.00616807498535,0.0,0.81892930717,-0.573751090371,-0.0120508529874,0.0,-0.00632999369526,0.0119667420426,-0.999908359933,0.0,0.259949581818,-0.266442024564,0.304934480409,1.0,-0.000318181818187,-0.000418181818189,3.575
