nelsonifechukwu/NELSON_IML_WORK/CNN-GradCAM/train2dof/data_sample_2022-02-22-15-04-35/robot_state.csv
position_joint1,position_joint2,position_joint3,position_joint4,position_joint5,position_joint6,position_joint7,velocity_joint1,velocity_joint2,velocity_joint3,velocity_joint4,velocity_joint5,velocity_joint6,velocity_joint7,ee_T_00,ee_T_10,ee_T_20,ee_T_30,ee_T_01,ee_T_11,ee_T_21,ee_T_31,ee_T_02,ee_T_12,ee_T_22,ee_T_32,ee_T_03,ee_T_13,ee_T_23,ee_T_33,v_x,v_y,time
0.465041817113,0.547780482345,-0.123986075818,-1.3558486635,0.0794967027494,1.89410602745,0.159146523692,0.00356290679867,-0.000564932989855,0.00106756219688,0.000356380951223,-0.000230369048732,-0.000471108198996,-0.000594662374512,0.573819787067,0.818967553366,0.00193530490012,0.0,0.818924221004,-0.573761279883,-0.011910535739,0.0,-0.00864410572281,0.0084195312414,-0.999927192815,0.0,0.661682534759,0.260868789325,0.303207812324,1.0,0.0,0.0,0.0
0.465048051671,0.547780321442,-0.123984987114,-1.35584795707,0.0794958936813,1.89410481862,0.15914711994,0.00134408461269,6.30899647321e-05,0.00141116961954,0.000653401422411,-1.31731435487e-05,-0.000144507566543,-0.0012529641017,0.573814147101,0.81897150609,0.00193486424529,0.0,0.818928168648,-0.573755643083,-0.0119106475944,0.0,-0.00864450815313,0.00841917501899,-0.999927192335,0.0,0.661680628828,0.26087341736,0.303208119989,1.0,-8e-05,-0.000105142857143,0.005
0.465049890888,0.547782094774,-0.123991087952,-1.35585444886,0.0794973086114,1.89410962094,0.159145442122,0.000885562293477,0.000169253302127,-0.000139075695656,-0.00318601308135,0.000178194957125,0.000263295975699,-0.00132897912617,0.573816295201,0.8189700098,0.00193114227305,0.0,0.818926641386,-0.573757823448,-0.0119106239454,0.0,-0.00864660229583,0.0084161359983,-0.999927199812,0.0,0.66168089256,0.260870864358,0.303204395772,1.0,-0.00036,-0.000473142857143,0.019
0.465041808281,0.547773980781,-0.123987817873,-1.35586071437,0.0794967028033,1.894107688,0.159150144744,-0.00346541447641,-0.00471806130186,0.000621939594487,0.000680140868675,-0.000136419380415,7.9543462281e-05,0.00107650435173,0.573824634631,0.818964164695,0.00193197753903,0.0,0.818920787848,-0.573766139582,-0.0119124808855,0.0,-0.00864755815578,0.0084179736321,-0.999927176077,0.0,0.661680676931,0.260866542245,0.303206884459,1.0,-0.0007,-0.00092,0.036
0.46504138352,0.547728621135,-0.12399133674,-1.35591011347,0.0794937643929,1.89411435614,0.159148441742,-0.000683568878346,-0.00295886243676,0.000334586629341,-0.0083280553916,5.04698623895e-05,-0.00019814865093,0.0012779598397,0.573827930967,0.81896184988,0.00193416252618,0.0,0.81891850425,-0.573769429106,-0.0119110252086,0.0,-0.00864507835489,0.00841896252516,-0.999927189194,0.0,0.661672965903,0.260858934301,0.303216196254,1.0,-0.00104,-0.00136685714286,0.053
0.465040974907,0.54759718979,-0.123990684954,-1.35605651465,0.079493844863,1.8941401622,0.159140912894,-0.000839796540009,-0.0106823159443,0.000295894600274,-0.011162599253,-0.00361876524798,-0.000578233970689,-0.00132161582208,0.573829605087,0.818960638076,0.00195051526889,0.0,0.818917383717,-0.573770916311,-0.0119164231951,0.0,-0.008640098959,0.00843546968592,-0.999927093113,0.0,0.661647976998,0.260845158089,0.303241840732,1.0,-0.00138,-0.00181371428571,0.07
0.465034411199,0.547455359844,-0.123988552788,-1.35627560906,0.0794904787981,1.894174881,0.159136527193,0.000327029822093,-0.00813159337765,-0.000134619125205,-0.00781869037622,0.000251386224822,-0.00015822737567,-0.000975660381101,0.57384095328,0.818952754343,0.00192182041251,0.0,0.818908961937,-0.573782223448,-0.0119506910019,0.0,-0.00868451212669,0.0084317542133,-0.999926739701,0.0,0.66160981807,0.260819709292,0.303240968196,1.0,-0.00174,-0.00228685714286,0.088
0.465018452491,0.547281218356,-0.123993921495,-1.35647167867,0.079486654584,1.89429823007,0.159138005461,-0.00044949920347,-0.00873355998511,-0.00161981348452,-0.0114127896853,-0.000344440878269,0.014430607505,-0.000440875141753,0.573869223804,0.818932732382,0.00201015040125,0.0,0.818890118718,-0.573810150199,-0.0119009199368,0.0,-0.0085927736156,0.00847582717337,-0.999927159645,0.0,0.661599681017,0.260792833698,0.303281880813,1.0,-0.00206,-0.00270742857143,0.104
0.465000153305,0.54708130653,-0.123982889584,-1.35670029229,0.0794868517635,1.89442699243,0.159127134669,0.000381314050207,-0.0134302524717,0.00147409093623,-0.0136076921603,-0.00121117394863,0.00692167952693,0.000842670492787,0.573880660089,0.818924479502,0.00210517217618,0.0,0.818882984703,-0.573821081643,-0.0118646756378,0.0,-0.0085084449599,0.00853296184767,-0.999927394827,0.0,0.661580449445,0.260771395032,0.303325486215,1.0,-0.0024,-0.00315428571429,0.121
0.46497285749,0.54689188367,-0.12398354148,-1.35696132766,0.079478986234,1.89454448126,0.159112887336,-0.000611798960504,-0.0138061041319,0.000790995524091,-0.0206340055678,-0.000651758352072,0.0119697408397,-0.000702800607992,0.573904432384,0.818907709189,0.00214784112991,0.0,0.818866732966,-0.573844643764,-0.011846744966,0.0,-0.00846902670839,0.0085578598596,-0.999927516684,0.0,0.661556719041,0.260731172916,0.30334561534,1.0,-0.0027,-0.00354857142857,0.136
0.464927743452,0.54661721919,-0.123985988046,-1.35735509726,0.0794660991935,1.89468157162,0.159078669901,5.73230418331e-05,-0.0202822867384,0.00111126163619,-0.0183834642361,-0.00284188554999,0.00625040935243,-0.00193734465578,0.573933585998,0.818887220864,0.00216916348348,0.0,0.81884642727,-0.573873613276,-0.0118470010164,0.0,-0.00845669486943,0.00857576865541,-0.999927467621,0.0,0.661514013789,0.260664000977,0.303364677856,1.0,-0.00306,-0.00402171428571,0.154
0.464881052246,0.546335015186,-0.123988445017,-1.35778646555,0.0794519612458,1.89484291346,0.15893155734,-0.00237774457505,-0.0168111367714,-0.000160864192496,-0.026718498591,-0.00266431054099,0.0107922928178,-0.00597459599304,0.573873458435,0.818929313182,0.00218646192901,0.0,0.818888642868,-0.573813321368,-0.0118494600647,0.0,-0.0084494118882,0.00859072486772,-0.999927400807,0.0,0.661468168717,0.26059286056,0.303373271609,1.0,-0.0034,-0.00446857142857,0.171
0.464839524966,0.546055596631,-0.123991034852,-1.35825704246,0.0794304574889,1.89501265913,0.158907744254,-0.00117410137875,-0.0220216954019,-0.000703062608037,-0.0273866737245,-0.000272379680609,0.0104815787396,-0.000806482019489,0.573910348876,0.818903484245,0.00217757763738,0.0,0.818862637241,-0.573850180397,-0.0118616479011,0.0,-0.00846410443529,0.0085908248521,-0.999927275688,0.0,0.661411201285,0.260517287983,0.303365927244,1.0,-0.00374,-0.00491542857143,0.188
0.464788367659,0.545728040895,-0.123991749087,-1.35881289372,0.0793873453437,1.89520290928,0.158865172093,-0.00033483047816,-0.0154363052236,-0.00124871487768,-0.0291761889368,-0.00706238959559,0.01301439304,-0.00154799443686,0.573937501715,0.81888457496,0.00213164689294,0.0,0.818843197641,-0.573877581667,-0.0118779559445,0.0,-0.00850353426049,0.00856285377978,-0.999927181069,0.0,0.6613488194,0.260429742726,0.303345751978,1.0,-0.00406,-0.005336,0.204
0.464730392371,0.545353227052,-0.123989268766,-1.35945701198,0.0793354925841,1.89540839135,0.158765421319,-0.00203819472714,-0.025217055505,-0.00223012261628,-0.0392531299001,-0.00133452027956,0.0114614802325,-0.0125528992239,0.573923606269,0.818894469582,0.00207093136002,0.0,0.818852350235,-0.573863982416,-0.0119039951747,0.0,-0.0085598477005,0.00852793504017,-0.999926999001,0.0,0.661269127618,0.260326846856,0.303322190547,1.0,-0.0044,-0.00578285714286,0.221
0.464671128501,0.544964751153,-0.123991620264,-1.36011318994,0.0793110942509,1.89561931548,0.158672262815,-0.00274233530048,-0.0267610792477,-0.000497778226295,-0.042110974987,-5.66463620722e-05,0.0157522330351,-0.00530184999303,0.573920379639,0.818896821711,0.00203473044223,0.0,0.818854002976,-0.573860679237,-0.0119494576333,0.0,-0.00861788700446,0.00852434854911,-0.999926531054,0.0,0.661182301763,0.260220335639,0.303305373601,1.0,-0.00474,-0.00622971428571,0.238
0.464601253536,0.544505337171,-0.123992201632,-1.3608703767,0.0792788598563,1.8958917915,0.15861514581,-0.00492739592973,-0.022316009241,-0.000150783882424,-0.0441784790428,-0.00103013931784,0.0101761060293,-0.00664741032691,0.573971998875,0.818860690628,0.00201513074685,0.0,0.818817529033,-0.573912287634,-0.0119702611865,0.0,-0.00864563450062,0.00852078317056,-0.999926321915,0.0,0.661100392926,0.26010676235,0.303291603065,1.0,-0.00508,-0.00667657142857,0.255
0.46455507859,0.544149228333,-0.123989942847,-1.36147241246,0.0792536903497,1.8961066,0.158518802722,-0.00509957168805,-0.0310069668436,0.00201143740189,-0.0427331558795,-0.000103496000421,0.0189106957448,-0.0113296958791,0.573956204188,0.8188718113,0.00199480152092,0.0,0.818828248747,-0.573896447006,-0.0119964189794,0.0,-0.00867888692894,0.00851898295408,-0.999926049191,0.0,0.661027010543,0.260021260313,0.303275604287,1.0,-0.00534,-0.00701828571429,0.268
0.464481755567,0.543610061109,-0.123987565888,-1.36234692748,0.0792089956322,1.89640943857,0.158411309996,-0.00247405433501,-0.0283556558139,0.00162542267933,-0.0474586830732,-0.00367656751433,0.00955607070114,-0.00599979015001,0.573963271354,0.818866913039,0.00197199601323,0.0,0.818822926991,-0.573903487077,-0.0120228389009,0.0,-0.00871353735085,0.00851554744477,-0.999925777105,0.0,0.660921336936,0.259890761461,0.303267012262,1.0,-0.0057,-0.00749142857143,0.286
0.464409108754,0.543034333854,-0.12399870584,-1.36326206013,0.079153162119,1.89674167742,0.158284727567,-0.00481180565135,-0.0296957993636,-0.0018396540451,-0.0507338029549,-0.00573566118041,0.0115772172584,-0.008795683413,0.573962940301,0.818867167856,0.00196251588759,0.0,0.818823100908,-0.573903238495,-0.0120228601067,0.0,-0.00871899904934,0.0085077932837,-0.999925795501,0.0,0.660816549832,0.259748738466,0.303267861862,1.0,-0.00606,-0.00796457142857,0.304
0.464335279757,0.542416108421,-0.123992490939,-1.36422585872,0.0790993868153,1.89707917667,0.158163452211,-0.00139510998796,-0.0364199070749,0.000374075123583,-0.0578745872309,0.000298026037091,0.0171002918345,-0.00626211561632,0.573958850637,0.818870040432,0.00195998954822,0.0,0.81882583187,-0.573899054228,-0.0120365908364,0.0,-0.00873173558983,0.00851356182678,-0.999925635264,0.0,0.660698779664,0.259611470549,0.303275418351,1.0,-0.00642,-0.00843771428571,0.322
0.464271104453,0.541954910814,-0.123995267193,-1.36494437454,0.0790542322825,1.89734912918,0.158078854358,-0.00260461039914,-0.0375351883325,0.000492057443316,-0.0540288044399,-0.00585620461556,0.0234247181482,-0.0135363697555,0.573969298424,0.818862696259,0.00196876686156,0.0,0.818818626644,-0.573909486767,-0.0120293208606,0.0,-0.00872063603423,0.00851668780526,-0.999925705508,0.0,0.6606252538,0.259508246211,0.303282301817,1.0,-0.00666,-0.00875314285714,0.334
0.464168353961,0.541265956134,-0.123994197316,-1.36598297687,0.0789925627804,1.89774470487,0.157929445975,-0.00293065538887,-0.0369492296082,0.000462561766852,-0.0605217320948,-0.00124205341622,0.0267050870902,-0.0132788476166,0.573974227278,0.81885914503,0.0020084627815,0.0,0.818815594899,-0.573914246997,-0.0120085613471,0.0,-0.00868080200521,0.00853732973724,-0.999925876092,0.0,0.660506160353,0.259334620067,0.303310043465,1.0,-0.00704,-0.00925257142857,0.353
0.464085579799,0.540661964188,-0.123997069018,-1.36691637842,0.0789395381515,1.89808236804,0.157826569347,-0.00599342179216,-0.0401285825756,-0.0001171940781,-0.0624852720564,-0.00250697835461,0.01541991684,-0.00644831765224,0.573997299023,0.818842952675,0.00201654910014,0.0,0.818799475142,-0.573937249155,-0.0120083488308,0.0,-0.00867574620506,0.0085440736393,-0.999925862369,0.0,0.660398973296,0.259189755698,0.30332207555,1.0,-0.00734,-0.00964685714286,0.368
0.463959408336,0.539764802099,-0.12400415937,-1.36828344176,0.0788572354443,1.89859782665,0.157651503898,-0.00326736266197,-0.0422668186294,-0.000287258143935,-0.0691839724982,-0.00818814010463,0.0204441480205,-0.0110711058913,0.57401595705,0.818829781743,0.00205340799889,0.0,0.818786823618,-0.573955787547,-0.0119849201901,0.0,-0.00863521043284,0.00856100367191,-0.999926068446,0.0,0.660248416323,0.258973501214,0.303350319841,1.0,-0.00776,-0.0101988571429,0.389
0.463873063663,0.539177250349,-0.124005233681,-1.3691741335,0.0788069940562,1.89893424459,0.15753872307,-0.00644017355574,-0.0481668836589,-0.000936875681296,-0.068185364153,-0.000819491929878,0.0260448051517,-0.00380316503268,0.574030898505,0.818819231841,0.00208327357835,0.0,0.818776641228,-0.573970580549,-0.0119721069453,0.0,-0.00860741938677,0.00857826020815,-0.999926160165,0.0,0.660150410664,0.258832562347,0.303370696028,1.0,-0.00802,-0.0105405714286,0.402
0.463741113968,0.538272558324,-0.124008756724,-1.37058901819,0.078731004764,1.8994756871,0.157367380711,-0.00443841080639,-0.0503124224183,0.00149843097084,-0.0721702119963,0.000406016035614,0.0262726632845,-0.00618638948532,0.574059055631,0.818799416004,0.00211279459353,0.0,0.818757155786,-0.5739985572,-0.0119634060162,0.0,-0.00858305406149,0.00859773278493,-0.999926202364,0.0,0.659993936367,0.258611794128,0.303383358006,1.0,-0.00842,-0.0110662857143,0.422
0.463651137778,0.537621184871,-0.124017318992,-1.3716202791,0.0786732990334,1.89986958608,0.157235318923,-0.0107645016921,-0.0443836648341,-3.10779833623e-06,-0.0731371815447,-0.000622573980383,0.032591123835,-0.006428661273,0.574072141475,0.818790212362,0.00212401100514,0.0,0.818748105773,-0.574011602512,-0.0119568547351,0.0,-0.00857111368746,0.00860329283026,-0.999926256962,0.0,0.659879202027,0.25845097603,0.30338693502,1.0,-0.0087,-0.0114342857143,0.436
0.463497422477,0.536493756647,-0.124030091504,-1.37337942615,0.0785637034304,1.90052293861,0.15702112548,-0.00190913734399,-0.0489406366761,-0.000440544896579,-0.0739641916066,-0.00191885208668,0.0229651298914,-0.00343926656994,0.5740991045,0.818771274448,0.0021366451595,0.0,0.818729412431,-0.57403859054,-0.0119412181865,0.0,-0.00855077428611,0.00860494257536,-0.999926416904,0.0,0.659680035271,0.25817473937,0.303402624882,1.0,-0.00916,-0.0120388571429,0.459
0.463425544864,0.535991325495,-0.124033299513,-1.37416861959,0.0785219451612,1.90081221508,0.156927613725,-0.0100041931788,-0.0518177112805,-0.00199287908419,-0.0804938070962,-0.00995004613745,0.028076106749,-0.00936488907032,0.574115838662,0.818759529439,0.00214094634383,0.0,0.818717674184,-0.574055255356,-0.0119449017976,0.0,-0.00855114531094,0.00861075370812,-0.999926363706,0.0,0.659589418291,0.25805125397,0.303406800194,1.0,-0.00936,-0.0123017142857,0.469
0.463293369512,0.534926676331,-0.124034594769,-1.37583873569,0.0784339162827,1.90141405954,0.156723912288,-0.0088001996241,-0.0529117873423,0.000581082039803,-0.0843923033685,-0.00509164681552,0.0308450328166,-0.00717811327336,0.574126190746,0.818752261054,0.00214453263481,0.0,0.818710300696,-0.574065438488,-0.0119608849224,0.0,-0.00856206435337,0.00862297427574,-0.999926164959,0.0,0.659388848322,0.257805662095,0.30341535258,1.0,-0.00976,-0.0128274285714,0.489
0.463209195877,0.534256964512,-0.124040031253,-1.37696957415,0.078375413227,1.9018222455,0.156588245203,-0.00761414048434,-0.0544735975183,-5.7754155594e-07,-0.0936311247186,-0.00369140787192,0.0244551229179,-0.0150330135269,0.574134196433,0.818746757522,0.00210200743676,0.0,0.818704142599,-0.574073519266,-0.0119945099708,0.0,-0.0086139251847,0.00860754626191,-0.999925852471,0.0,0.65925115819,0.257639791899,0.303385143578,1.0,-0.01002,-0.0131691428571,0.502
0.463055596254,0.533125083408,-0.124037152052,-1.37879355101,0.0782603074637,1.90250162047,0.156349319214,-0.0090813008669,-0.0557897379497,0.000247406304819,-0.0875632866466,-0.00664325933792,0.0313177453527,-0.00809375643278,0.57413128661,0.818748835143,0.00208748410527,0.0,0.818706037502,-0.574070677366,-0.012001185257,0.0,-0.00862775914631,0.00859945733882,-0.9999258028,0.0,0.659037246207,0.25736604565,0.303374029027,1.0,-0.01044,-0.0137211428571,0.523
0.462960842092,0.532394928629,-0.124042882417,-1.37999058976,0.0782089141513,1.90294814954,0.156207788127,-0.00766649672043,-0.0576390995396,-0.00112498227823,-0.0929737705463,-0.0030538436015,0.034018117701,-0.0121599992292,0.574148753775,0.818736608761,0.00207868087124,0.0,0.818693519123,-0.574088003064,-0.0120263620811,0.0,-0.00865324375744,0.00860688906823,-0.999925518643,0.0,0.658895193859,0.257189734654,0.303358003229,1.0,-0.0107,-0.0140628571429,0.536
0.4627944283,0.531122506771,-0.124032663244,-1.382047284,0.078077614758,1.90369456791,0.155950478067,-0.00634868281911,-0.0568647990767,-0.00161348228653,-0.0926329354576,-0.00146661806207,0.0376960279861,-0.00329838821324,0.574143901882,0.818740098985,0.00204380714372,0.0,0.818696508794,-0.574083255277,-0.0120494564236,0.0,-0.00869222503904,0.0085915451137,-0.999925312499,0.0,0.658645588577,0.256888031143,0.303340262523,1.0,-0.01114,-0.0146411428571,0.558
0.462703108163,0.530400267331,-0.124037871114,-1.3832054996,0.0780080046756,1.90410060299,0.155791663207,-0.00178292374344,-0.0629810550986,-0.000842533393612,-0.0959140664284,-0.00560964559478,0.0373021507674,-0.00968727730194,0.574136482751,0.818745366768,0.00201754098945,0.0,0.818701400924,-0.574075917733,-0.0120666360162,0.0,-0.0087214485506,0.00857982478369,-0.99992515867,0.0,0.658503642035,0.256713160793,0.303333236102,1.0,-0.01138,-0.0149565714286,0.57
0.462516812211,0.529096513087,-0.124035116285,-1.38524596589,0.077874075918,1.90485224634,0.155515039251,-0.00873830866045,-0.0642658526849,0.00100656282542,-0.0976865834879,-0.00695077179863,0.0339652033832,-0.0193577423191,0.574135269944,0.818746199236,0.00202483180409,0.0,0.818702376702,-0.574074721033,-0.0120573609902,0.0,-0.00870968141886,0.00858045601773,-0.999925255819,0.0,0.658265511363,0.25639637095,0.303345383881,1.0,-0.0118,-0.0155085714286,0.591
0.462424484787,0.528317914596,-0.124038108851,-1.38644371346,0.0778018099978,1.90531941634,0.155359063251,-0.00749601464432,-0.0671141143873,0.000601720939465,-0.0979960026986,-0.00649326026874,0.0382634972293,-0.0165413238172,0.574129187844,0.818750364386,0.00206479652076,0.0,0.818707105829,-0.574068510691,-0.0120319075349,0.0,-0.00866596086155,0.00859849843263,-0.999925480697,0.0,0.658114661096,0.256207779319,0.303366173326,1.0,-0.01206,-0.0158502857143,0.604
0.462235987003,0.526907604422,-0.12404570783,-1.38861409204,0.0776693657341,1.90615109704,0.15505274312,-0.0154457852954,-0.0636626696073,0.000109700949266,-0.105909537676,-0.00563185284803,0.0456543066693,-0.0172110380391,0.574121604928,0.818755535958,0.0021217901472,0.0,0.818713075503,-0.574060743043,-0.0119962576911,0.0,-0.00860413162306,0.00862461410626,-0.999925789722,0.0,0.657879149589,0.255889348227,0.303396073344,1.0,-0.01246,-0.016376,0.624
0.462130354231,0.526018126098,-0.124049936492,-1.39001188722,0.0775820212994,1.9066587473,0.154873379368,-0.00730874660449,-0.0684256081353,0.000474098665358,-0.108313203202,-0.00382236227685,0.0475360530993,-0.0158350026524,0.574116033332,0.818759450956,0.0021186415917,0.0,0.818716958354,-0.574055194238,-0.0119967901371,0.0,-0.00860643379593,0.00862228337167,-0.99992579001,0.0,0.657708755545,0.255683494399,0.303400751074,1.0,-0.01272,-0.0167177142857,0.637
0.461943810863,0.524641627122,-0.124053930502,-1.39216980818,0.0774439682581,1.90743879258,0.154579116899,-0.0135984458082,-0.0695664394648,-0.000126291904025,-0.114551357,-0.00764794193632,0.0315933466452,-0.0159190501164,0.574109447022,0.818764084275,0.00211282832559,0.0,0.818721539731,-0.574048656969,-0.0119969459997,0.0,-0.00860996801139,0.00861754400817,-0.99992580044,0.0,0.65744998712,0.255351062089,0.303409548187,1.0,-0.01312,-0.0172434285714,0.657
0.461815499233,0.523728487658,-0.124065220012,-1.39361942535,0.0773561915063,1.90796946987,0.154376653191,-0.00658144895471,-0.0714090062389,5.77607223352e-06,-0.113890218431,-0.00830549184643,0.0393653211261,-0.0206747339397,0.574111093693,0.818762954609,0.00210313113925,0.0,0.81872030369,-0.574050364122,-0.0119996115852,0.0,-0.00861770015678,0.00861115208743,-0.999925788898,0.0,0.65726521943,0.255105956025,0.303406182151,1.0,-0.0134,-0.0176114285714,0.671
0.461621941957,0.522217490054,-0.12406594716,-1.39601893093,0.0772017567407,1.90889733409,0.154056920181,-0.011099682415,-0.0751954402876,-0.000165702328168,-0.110357818303,-0.00573615347792,0.0414697324923,-0.02111951144,0.574095257362,0.818773987993,0.00213048390957,0.0,0.818731793818,-0.574034516071,-0.0119737651626,0.0,-0.00858100136433,0.00861854263927,-0.999926040834,0.0,0.656997118428,0.254767271884,0.303408321922,1.0,-0.0138,-0.0181371428571,0.691
0.461495461453,0.521267574626,-0.124073771555,-1.39755417013,0.0771178959049,1.90948932514,0.153851490161,-0.0109614021971,-0.0748349610309,-0.000581875015524,-0.117617695426,-0.00573498146148,0.0492650663224,-0.0148389538663,0.574095861232,0.818773546996,0.00213723087954,0.0,0.818731399696,-0.574035050625,-0.0119750869346,0.0,-0.00857820412594,0.0086248319313,-0.999926010607,0.0,0.65681688191,0.254536454656,0.303396577857,1.0,-0.01406,-0.0184788571429,0.704
0.46129597407,0.519742755535,-0.124077663953,-1.39995184302,0.0769649675395,1.91036787522,0.153526201161,-0.0110784981317,-0.0840345888089,0.000738594530225,-0.117695435436,-0.00598942575182,0.049342345948,-0.0160940170441,0.574082038799,0.818783239579,0.00213687033846,0.0,0.81874111769,-0.574021261704,-0.0119716421619,0.0,-0.0085757360541,0.00862241435754,-0.999926052627,0.0,0.656526276447,0.25417354055,0.303402469192,1.0,-0.01446,-0.0190045714286,0.724
0.461157628237,0.518626818208,-0.124078729413,-1.40166508438,0.0768538119358,1.91097534564,0.153311864497,-0.00942732247189,-0.0793793327586,0.000330597827217,-0.122647871013,-0.00766252187108,0.0475652345805,-0.0118600597849,0.574081350364,0.81878370725,0.0021426167758,0.0,0.818741665892,-0.574020555252,-0.0119680232614,0.0,-0.00856948137218,0.00862503464214,-0.999926083651,0.0,0.656313303077,0.253916709966,0.303423027567,1.0,-0.01474,-0.0193725714286,0.738
0.460944847691,0.517041499245,-0.124084434297,-1.4041607885,0.0766926149484,1.91187645301,0.152955591065,-0.0064065356137,-0.0829418687549,-0.000145987903213,-0.120959907468,-0.00713836243954,0.0524714533255,-0.0185657961665,0.574056449654,0.818801201899,0.00212868042944,0.0,0.818759010908,-0.573995747531,-0.0119712477933,0.0,-0.00858038376599,0.00861521415866,-0.999926074817,0.0,0.656008080852,0.253533512567,0.303425798272,1.0,-0.01514,-0.0198982857143,0.758
0.460809296973,0.51602176754,-0.12408525959,-1.40580818454,0.0765962337433,1.91250428932,0.152726122763,-0.00910820043853,-0.082206572133,-0.000844145831928,-0.125259817087,-0.0098004330706,0.0530078054618,-0.0185262231472,0.574041401685,0.818811751282,0.00212885317306,0.0,0.818769522856,-0.573980660897,-0.0119756527377,0.0,-0.00858404990924,0.00861772649833,-0.999926021702,0.0,0.655809456582,0.253288999483,0.303411400246,1.0,-0.0154,-0.02024,0.771
0.460586558347,0.51431676532,-0.124085059375,-1.4085477678,0.0764287696455,1.91350025455,0.152360547663,-0.0115845932698,-0.0783777998723,0.0012399765017,-0.133422377735,-0.00288711587126,0.0392107377142,-0.0179357735567,0.574023394615,0.81882446318,0.00209471555334,0.0,0.818781708838,-0.573962717736,-0.0120024507123,0.0,-0.00862577770239,0.00860496795414,-0.999925772488,0.0,0.655468087218,0.252880888241,0.303389143313,1.0,-0.01582,-0.020792,0.792
0.460439174494,0.513253612153,-0.124090845764,-1.41028782595,0.076320829294,1.91410313529,0.152119228213,-0.00685891719551,-0.0845561628479,-0.00161690744389,-0.136633560992,-0.00790189621323,0.0525818460448,-0.0149108526472,0.574012645048,0.818832162836,0.00202961362392,0.0,0.818788498328,-0.573952185326,-0.0120428761925,0.0,-0.00869636061653,0.00857475259912,-0.999925420684,0.0,0.655247041697,0.252611906428,0.303358438134,1.0,-0.01608,-0.0211337142857,0.805
0.460209789515,0.511566018246,-0.124094015427,-1.4129968168,0.076162452433,1.91508830853,0.151737368035,-0.0140468455655,-0.0841207605937,-0.000851383043254,-0.131399622305,-0.00794473506705,0.0504542782849,-0.0115301235197,0.573989190559,0.818848674234,0.00200118176694,0.0,0.81880450355,-0.573928723545,-0.0120727858483,0.0,-0.00873741721143,0.00856839018809,-0.999925117311,0.0,0.654910183008,0.252201756376,0.303336678264,1.0,-0.01648,-0.0216594285714,0.825
0.460056017679,0.510435800127,-0.124091510054,-1.41478143559,0.0760475058725,1.91576724178,0.15148688556,-0.0107552751491,-0.0909009492805,0.000129117635757,-0.139142939592,-0.00839170583668,0.0557706587994,-0.0221357524336,0.573970421965,0.81886178882,0.00201802413103,0.0,0.818817873007,-0.573909918861,-0.0120599659767,0.0,-0.00871744908537,0.00857462307521,-0.999925238166,0.0,0.654694255556,0.251933099623,0.303337328884,1.0,-0.01674,-0.0220011428571,0.838
0.459798709475,0.508582366575,-0.124094705426,-1.41769292242,0.075867580718,1.91681449047,0.151083746947,-0.0097967228082,-0.0879982583126,0.000152251119081,-0.13888558374,-0.00709510039521,0.0446589297283,-0.0198188339031,0.57395598015,0.81887193666,0.00200776035456,0.0,0.818827817239,-0.573895454838,-0.0120730912486,0.0,-0.00873423923152,0.00857359801805,-0.999925100436,0.0,0.654331827558,0.25148375399,0.303339442794,1.0,-0.01716,-0.0225531428571,0.859
0.459634342304,0.507413915737,-0.12410324288,-1.41953310534,0.0757485638283,1.91748207268,0.150828983479,-0.00918489266325,-0.0954686135347,-0.000547130060445,-0.142566792743,-0.0131116879637,0.0522336731515,-0.0168737894749,0.573951195113,0.818875312384,0.00199882402381,0.0,0.818831118579,-0.573890750637,-0.0120727992409,0.0,-0.0087391788866,0.00856606178716,-0.999925121866,0.0,0.654105246268,0.251194363263,0.30333897454,1.0,-0.01742,-0.0228948571429,0.872
0.459358401771,0.505466442016,-0.124114930717,-1.42255126658,0.0755660275205,1.91861894192,0.150412490589,-0.0109452936783,-0.0980419623395,-0.00157946312373,-0.148500945893,-0.0119788887689,0.0511598816617,-0.0167512269591,0.573951305913,0.818875101152,0.00205281666862,0.0,0.818831626759,-0.57389064334,-0.0120433967944,0.0,-0.00868411268567,0.00859339997954,-0.999925367047,0.0,0.6537419525,0.250722238406,0.303362770896,1.0,-0.01784,-0.0234468571429,0.893
0.459187703483,0.504216980418,-0.124120586362,-1.42444762737,0.0754525606257,1.91934740202,0.150152160177,-0.00920992080437,-0.0945473079739,-0.0011329957471,-0.145331290199,-0.00559885987557,0.0595534519761,-0.0225323800054,0.573949151203,0.818876435295,0.00212189874943,0.0,0.818833879808,-0.573888214023,-0.0120059146338,0.0,-0.00861379373639,0.00862843322313,-0.999925673587,0.0,0.653515275008,0.250429874283,0.303396456023,1.0,-0.0181,-0.0237885714286,0.906
0.458906426458,0.5022234401,-0.124124493138,-1.42737361425,0.0752595654724,1.92043231722,0.149745434375,-0.0214942403063,-0.107601429196,1.30068593854e-05,-0.146271132109,-0.0138508436348,0.0556771783942,-0.014491898031,0.573946871805,0.818877701937,0.00224599995568,0.0,0.818836883376,-0.573885545418,-0.0119283730677,0.0,-0.00847909506477,0.00868552723499,-0.999926330568,0.0,0.65316255625,0.249965430598,0.303489885601,1.0,-0.0185,-0.0243142857143,0.926
0.458727200548,0.500924136639,-0.12412130408,-1.42934761848,0.075134067637,1.92112917716,0.149454838012,-0.00810045110197,-0.0974500178626,-6.62309742178e-05,-0.156143996705,-0.011034120226,0.0536214433852,-0.023612030675,0.57392008763,0.818896420003,0.00226566174895,0.0,0.818855799949,-0.573858626368,-0.0119248787873,0.0,-0.0084652339908,0.00869934523178,-0.999926327889,0.0,0.652911317901,0.249660299436,0.303517417408,1.0,-0.01876,-0.024656,0.939
0.458423527164,0.498817765141,-0.124128128469,-1.43257936147,0.0749249606437,1.9223052372,0.149009962821,-0.0201295302433,-0.103365171653,6.28918359348e-05,-0.153030829531,-0.00302954618876,0.0544648073435,-0.0219261836061,0.573917173866,0.818898358313,0.00230286677289,0.0,0.818858266139,-0.573855609044,-0.0119007077745,0.0,-0.00842411923523,0.00871590987403,-0.999926530866,0.0,0.65251049558,0.249148634301,0.30355062503,1.0,-0.01918,-0.025208,0.96
0.458231113606,0.497554236577,-0.124128445165,-1.43458418831,0.0748067021573,1.92305528652,0.148707775423,-0.0166795471893,-0.0942332227077,0.000249773693284,-0.155322419905,-0.0114545368038,0.0505793279651,-0.0336967459925,0.573897519166,0.818912106544,0.00231217475221,0.0,0.818872060632,-0.573835842289,-0.0119046764725,0.0,-0.00842223709549,0.00872560759289,-0.999926462143,0.0,0.652263397654,0.248833586737,0.303542385078,1.0,-0.01944,-0.0255497142857,0.973
0.457930044261,0.49556441658,-0.124126423878,-1.43776261834,0.0746097042798,1.92415588121,0.148243920478,-0.0113903706505,-0.101078308758,-0.000389650448674,-0.160117573703,-0.0124959210265,0.0498254648825,-0.0211157442122,0.57386984533,0.818931702345,0.00223928923522,0.0,0.818890515435,-0.573808268542,-0.0119641792566,0.0,-0.00851308691023,0.00869978191327,-0.999925917829,0.0,0.651851074051,0.248330821601,0.303511508435,1.0,-0.01984,-0.0260754285714,0.993
0.45770276324,0.494184592287,-0.124126179897,-1.44004216644,0.0744772033665,1.92495536578,0.147934608205,-0.0147913253207,-0.0996338218475,-0.00370768415786,-0.16734820145,-0.00750584102175,0.0600592582829,-0.0236490306042,0.573881531659,0.818923730823,0.00215815131387,0.0,0.818881276907,-0.573820077894,-0.0120299392197,0.0,-0.00861337798652,0.00867119659621,-0.999925307245,0.0,0.651557672885,0.24796370083,0.303456944416,1.0,-0.0251948571429,-0.0331132408163,1.007
0.457310795039,0.490934833112,-0.124233253507,-1.44487475762,0.0742091012242,1.92679443203,0.147212548754,-0.0232289483615,-0.185541497068,-0.00376632263619,-0.285720423436,-0.00760705977596,0.118461905074,-0.0444434832766,0.57385887179,0.818939023638,0.00237017557854,0.0,0.818899581399,-0.573796812921,-0.0118928536485,0.0,-0.00837968409703,0.00876592413741,-0.999926467031,0.0,0.650971350705,0.247196886917,0.303580733755,1.0,-0.0425777142857,-0.0559592816327,1.027
0.4569397309,0.488029048555,-0.124251594444,-1.44952686237,0.0739716780371,1.92857417824,0.146503118517,-0.0328608237325,-0.240701523558,-0.00145738342643,-0.386204335229,-0.0137342151065,0.144227815101,-0.0576419567559,0.573764163101,0.819005241641,0.00241789315,0.0,0.818966036687,-0.573701525453,-0.0119137461549,0.0,-0.00837043271665,0.0088160226979,-0.99992610407,0.0,0.650377523898,0.246513741155,0.303541655712,1.0,-0.0538765714286,-0.0708092081633,1.04
0.456056876997,0.482074824837,-0.124393770355,-1.45898113396,0.0734132466437,1.93203339224,0.145056022097,-0.0473326624505,-0.325333456702,-0.0113857563557,-0.526156270682,-0.0351133359275,0.182049751629,-0.0870384146476,0.573720948759,0.819035663937,0.00236665482525,0.0,0.818995877536,-0.573658609697,-0.0119289144569,0.0,-0.00841271642641,0.00878231775212,-0.999926045814,0.0,0.64918805315,0.244959504776,0.303479454692,1.0,-0.0712594285714,-0.0936552489796,1.06
0.455254826209,0.47683769171,-0.124532613295,-1.46730601934,0.0729212986796,1.93491090562,0.143831166758,-0.0647429731708,-0.392779302657,-0.0110839394366,-0.62290858039,-0.0429972893916,0.221329284195,-0.0892294922189,0.573747440882,0.81901762601,0.00217928140826,0.0,0.818975228044,-0.573685693667,-0.0120435723054,0.0,-0.00861384127499,0.00869491368164,-0.999925097302,0.0,0.648102821599,0.243557196099,0.303399669316,1.0,-0.0834274285714,-0.109647477551,1.074
0.453832239862,0.46787229393,-0.124707333166,-1.48112417842,0.072116543096,1.93990055727,0.141757525881,-0.0771242403239,-0.483696867516,-0.00658473946634,-0.730409253826,-0.0416872009173,0.27855471318,-0.117080918805,0.573786847854,0.818989687485,0.0023004180357,0.0,0.818948619442,-0.573724334985,-0.0120122046805,0.0,-0.00851822995186,0.00877653820941,-0.99992520327,0.0,0.646333704977,0.241225778934,0.303457164846,1.0,-0.100810285714,-0.132493518367,1.094
0.452751057076,0.461243770084,-0.124792504672,-1.49135278107,0.0714637082999,1.94362754565,0.140093825798,-0.0843705519096,-0.516887936099,-0.00237886760688,-0.787862839353,-0.0506928042987,0.287553478254,-0.120486147184,0.573676061396,0.819067032423,0.00239162735482,0.0,0.819027270452,-0.57361331374,-0.0119517135549,0.0,-0.00841754732544,0.00881538970705,-0.999925714141,0.0,0.645008865591,0.239503901386,0.303483582751,1.0,-0.112109142857,-0.147343444898,1.107
0.450632039158,0.448997127552,-0.125015878769,-1.51012609663,0.070214282259,1.95023442494,0.137178713816,-0.101300281528,-0.627479900433,-0.0119342917782,-0.918549369992,-0.0785917062689,0.347691745469,-0.150126799084,0.573708807541,0.819044060938,0.0024035999837,0.0,0.819004935387,-0.573646512513,-0.0118887086642,0.0,-0.00835872040678,0.00878938634321,-0.999926436535,0.0,0.642533536815,0.236202942668,0.30354167327,1.0,-0.130361142857,-0.171331787755,1.128
0.44899551009,0.439924053587,-0.125133106886,-1.52407481475,0.0693009657216,1.95508476128,0.135023251618,-0.117682396567,-0.662202960548,-0.0112441390586,-1.01512971067,-0.0682681905688,0.354570787346,-0.159493114619,0.573730058189,0.819029348855,0.00234370331261,0.0,0.818989183194,-0.573667726225,-0.011950087894,0.0,-0.00844312831266,0.00877576124503,-0.99992584705,0.0,0.640493301845,0.233564345851,0.303530506611,1.0,-0.143398285714,-0.188466318367,1.143
0.446480086232,0.426304320843,-0.125310984086,-1.54458841657,0.0679228127028,1.9622049173,0.131662210852,-0.144881401448,-0.731946112121,-0.0120226541533,-1.11571807957,-0.0829031513325,0.392068629694,-0.184082132659,0.573696040091,0.81905262363,0.00252986384188,0.0,0.819014967412,-0.573633074983,-0.0118458998223,0.0,-0.00825136061809,0.00886811291005,-0.999926633119,0.0,0.637835237941,0.230066190278,0.303680601368,1.0,-0.159042857143,-0.209027755102,1.161
0.444529943029,0.416328491186,-0.125442756382,-1.55953914202,0.0668657393081,1.96740841668,0.129154552231,-0.159492981813,-0.772138056883,-0.00807529249217,-1.16558225217,-0.0766926402874,0.423493732088,-0.191727878831,0.573673939259,0.819067627427,0.00267955521514,0.0,0.81903230698,-0.573610850793,-0.0117225797953,0.0,-0.00806471894439,0.00891975255186,-0.999927696547,0.0,0.63577412908,0.227313215671,0.303791031433,1.0,-0.170341714286,-0.223877681633,1.174
0.440619495922,0.397152315685,-0.125678417212,-1.58806952935,0.0649143211825,1.97730274941,0.12432193004,-0.174448499083,-0.864030227109,-0.0104372086184,-1.26613501839,-0.0871788436874,0.454173843774,-0.219793177854,0.573709729073,0.819041037236,0.00311014318718,0.0,0.819011237364,-0.573645127325,-0.0115155490233,0.0,-0.00764773597442,0.0091540009733,-0.99992885567,0.0,0.631760806689,0.221985708471,0.304023333372,1.0,-0.190332,-0.250150628571,1.197
0.438518739918,0.38751185343,-0.125785047507,-1.60262399445,0.0638270654839,1.98224301513,0.121816930456,-0.195553566998,-0.861991509669,-0.011547551923,-1.35092646015,-0.107799839575,0.459417376243,-0.235305361908,0.573717553185,0.81903567206,0.00307960407839,0.0,0.819005749036,-0.57365337015,-0.0114952539403,0.0,-0.00764854503642,0.00911741794739,-0.999929183717,0.0,0.629655797411,0.219201913329,0.304002640154,1.0,-0.199892571429,-0.26271595102,1.208
0.434363950738,0.368828975443,-0.125993737021,-1.63038949981,0.0617506136078,1.9914332097,0.116810999618,-0.220843003902,-0.952671065559,-0.00702414539253,-1.42610109422,-0.116820546922,0.469222052004,-0.253682361048,0.57362148116,0.819102873178,0.00310264487205,0.0,0.819073312124,-0.573557316101,-0.011474380747,0.0,-0.00761930026729,0.00912342054527,-0.999929352235,0.0,0.625525724191,0.213816445778,0.30407069877,1.0,-0.217275428571,-0.285561991837,1.228
0.431132426237,0.355095900397,-0.126147142514,-1.65068200718,0.0601778383317,1.99810224317,0.113120912455,-0.236015652817,-0.990795588254,-0.0120557327965,-1.4712076127,-0.111459469915,0.463240218024,-0.27804498649,0.57362765813,0.819098443315,0.0031299981765,0.0,0.819069483391,-0.57356370702,-0.0114281349254,0.0,-0.00756565983267,0.00911935583933,-0.999929796606,0.0,0.622453967196,0.209776623853,0.304111930248,1.0,-0.229443428571,-0.301554220408,1.242
0.425947152894,0.334469181459,-0.126415210987,-1.68107298927,0.0578675146579,2.00794890472,0.107345381506,-0.268491047724,-1.04961089808,-0.0161208161187,-1.57457004655,-0.131086138647,0.497248203298,-0.298461194147,0.573698004977,0.819049092267,0.00315126052809,0.0,0.819020036876,-0.573633534004,-0.0114671166178,0.0,-0.00758460877069,0.00915978379463,-0.999929283535,0.0,0.617760379989,0.203538937993,0.304110866691,1.0,-0.246826285714,-0.324400261224,1.262
0.42209177072,0.319362604835,-0.126522648606,-1.70304649882,0.0561019116768,2.01492913693,0.103033800752,-0.276798012617,-1.08888747189,-0.00636891276078,-1.59008294829,-0.115557771521,0.488846030749,-0.308849941287,0.573576205755,0.819134202667,0.00320017404256,0.0,0.819105617998,-0.573511406872,-0.0114629687996,0.0,-0.0075545189384,0.00919634374573,-0.999929175745,0.0,0.614244532498,0.199036177695,0.304151509822,1.0,-0.258994285714,-0.340392489796,1.276
0.415987755884,0.296862171336,-0.126771227958,-1.73573708565,0.0533578877633,2.02505580936,0.0963536367822,-0.329357985069,-1.14384779701,-0.0227346969882,-1.64762599454,-0.138924217178,0.503412144539,-0.346534099078,0.573429158105,0.819237761009,0.00303948561466,0.0,0.81920715207,-0.573364940355,-0.0115340396521,0.0,-0.00770653470645,0.00910409828348,-0.999928859828,0.0,0.6088889044,0.19209856711,0.304097608497,1.0,-0.276377142857,-0.363238530612,1.296
0.411666542369,0.281619428474,-0.126934902976,-1.75740337761,0.0515776007346,2.03170522437,0.0918206595577,-0.332396596211,-1.18150297715,-0.013148231092,-1.71102381922,-0.135742531894,0.497931183293,-0.358912164043,0.573432984043,0.819234449834,0.00320560729389,0.0,0.819205628113,-0.573367813601,-0.0114993954389,0.0,-0.00758285484387,0.00922036169839,-0.999928740082,0.0,0.605274604338,0.187390555991,0.304190997548,1.0,-0.287676,-0.378088457143,1.309
0.403925554607,0.25619419811,-0.127313495849,-1.79337754938,0.0484248990607,2.04244229339,0.083877742766,-0.384601356192,-1.22647619508,-0.0274446770892,-1.71374042278,-0.151603811154,0.501920693568,-0.378648392158,0.573482673813,0.81919947969,0.00325303137678,0.0,0.819171444775,-0.573417565519,-0.0114536683974,0.0,-0.00751763859687,0.0092334485628,-0.999929111756,0.0,0.59914593032,0.179226144855,0.304256078987,1.0,-0.305928,-0.4020768,1.33
0.398695855952,0.239874938312,-0.127569069011,-1.81626982387,0.0463391689281,2.04916621166,0.0786893510639,-0.413712542288,-1.25735155694,-0.0208123209142,-1.78464290914,-0.167264490761,0.498981896639,-0.410294989341,0.573575445621,0.819134368829,0.00329254981514,0.0,0.819107172411,-0.573510614085,-0.0113913361137,0.0,-0.00744286594944,0.00923091958052,-0.999929694464,0.0,0.595154522827,0.173896703955,0.304282968277,1.0,-0.317226857143,-0.416926726531,1.343
0.390175415971,0.214024801232,-0.127857351953,-1.85192215288,0.0430914109583,2.05944611042,0.0700959478961,-0.446392658842,-1.31454498171,-0.0177325422281,-1.80478925482,-0.17864683037,0.5302747347,-0.442989912496,0.573425362183,0.819238037817,0.00362467944058,0.0,0.819214976651,-0.57335945744,-0.011247288388,0.0,-0.00713609962433,0.00941905344672,-0.999930176319,0.0,0.588749405439,0.16555460832,0.304424715089,1.0,-0.334609714286,-0.439772767347,1.363
0.384150935971,0.196819295346,-0.128091519419,-1.87559776919,0.0408156006639,2.06584173146,0.0641643658694,-0.473078739049,-1.34006544837,-0.0181507537232,-1.80464790029,-0.171836480795,0.501850020514,-0.457743446204,0.573363704629,0.819281722075,0.00350271167055,0.0,0.819256758437,-0.573297702978,-0.0113514059476,0.0,-0.00729204325223,0.00937828493687,-0.999929434449,0.0,0.584340378754,0.15982526842,0.304402610049,1.0,-0.345908571429,-0.454622693878,1.376
0.372396763674,0.165238960912,-0.128708836588,-1.91846454757,0.0365901760512,2.07715161518,0.0529203064584,-0.528286484041,-1.40476550199,-0.0255552265869,-1.90337065711,-0.206925707969,0.470407015581,-0.504822495313,0.573513055447,0.819177559053,0.00341304518422,0.0,0.81915106805,-0.573446817993,-0.0114464643768,0.0,-0.00741962969828,0.00936067658879,-0.99992866087,0.0,0.576187895441,0.149026136164,0.304382416324,1.0,-0.365898857143,-0.480895640816,1.399
0.366372744486,0.149757229258,-0.128947388613,-1.9390072794,0.0344510593798,2.08249194158,0.0471554653722,-0.549540378665,-1.4055409385,-0.0235433314447,-1.88705255151,-0.210936472002,0.488528745833,-0.52521235445,0.573442637609,0.81922620265,0.00356611341945,0.0,0.819202123116,-0.57337653866,-0.0113125283316,0.0,-0.00722293292243,0.00940863491438,-0.99992965094,0.0,0.5721915468,0.143742695949,0.304467700493,1.0,-0.375459428571,-0.493460963265,1.41
0.35456470079,0.120982102314,-0.129502033542,-1.97694494656,0.0304292174457,2.09172489241,0.036115040679,-0.619854018431,-1.46159556381,-0.0303052071184,-1.87589721699,-0.201488972732,0.446097536499,-0.556878853388,0.573503311201,0.819183893533,0.00352810410895,0.0,0.819159041252,-0.573436941724,-0.0113703958906,0.0,-0.00729144032915,0.00941121926736,-0.999929129414,0.0,0.564565037704,0.133683063683,0.30449464975,1.0,-0.392842285714,-0.516307004082,1.43
0.346239995482,0.101793433982,-0.129946798561,-2.00184876749,0.0276653115945,2.09754929696,0.028470523587,-0.655480032583,-1.46326239134,-0.0310131097226,-1.90053357105,-0.208322965544,0.419869634578,-0.586825541524,0.573624677682,0.819098890904,0.00353312546806,0.0,0.819074274991,-0.573558499713,-0.0113457637945,0.0,-0.00726698830983,0.00940228330398,-0.999929391482,0.0,0.559438194298,0.126830928795,0.304530846593,1.0,-0.404141142857,-0.531156930612,1.443
0.332019102578,0.0703328721354,-0.130510727468,-2.04210449174,0.023111056018,2.10658573834,0.0152643638798,-0.700805825138,-1.4856859865,-0.0270020278883,-1.91457391896,-0.229982173467,0.437814671488,-0.645414101315,0.573456743364,0.81921597647,0.00364613324894,0.0,0.819192599789,-0.573389996837,-0.0113200211649,0.0,-0.00718302415569,0.00947861034006,-0.999929277554,0.0,0.550870814816,0.115657905868,0.30457168528,1.0,-0.40998,-0.538830857143,1.464
0.322567665618,0.050962781263,-0.130945214175,-2.06648889567,0.020202840758,2.11159494485,0.00686550605857,-0.737909060423,-1.49957118142,-0.0351669336338,-1.88290536792,-0.225300562328,0.373240738246,-0.648670230035,0.573644267768,0.819084977991,0.0035776790058,0.0,0.819060563473,-0.573577479569,-0.0113760799712,0.0,-0.00726603999979,0.00945634091144,-0.999928888611,0.0,0.545525796673,0.108515818672,0.304584887834,1.0,-0.40998,-0.538830857143,1.477
0.305203203268,0.0172299420744,-0.131499004728,-2.1081511901,0.015115372339,2.11963642464,-0.00848440830393,-0.772398501586,-1.44187810422,-0.0287759178235,-1.76150171373,-0.225688352487,0.326388397223,-0.680067883765,0.573791416067,0.818981777091,0.00360645836262,0.0,0.818957187038,-0.573723813816,-0.0114393251525,0.0,-0.0072996283364,0.00951750481538,-0.999928063677,0.0,0.536088106356,0.096064438669,0.30464324405,1.0,-0.40998,-0.538830857143,1.5
0.29734171703,0.00261799466231,-0.131807178391,-2.12579246189,0.0128726492732,2.12289570091,-0.015418744221,-0.797994409798,-1.4748189576,-0.0398434404381,-1.76880843159,-0.213899388283,0.311903181961,-0.693668113215,0.573880514138,0.818918713617,0.00374738344886,0.0,0.818896254194,-0.573812922097,-0.0113314695953,0.0,-0.00712939272026,0.00957181215363,-0.999928773549,0.0,0.532002067246,0.090603946673,0.304726069549,1.0,-0.40998,-0.538830857143,1.51
0.279572352101,-0.0287962841631,-0.132258554452,-2.16316846525,0.00804229934838,2.12922327084,-0.0311759673094,-0.810824537151,-1.41113257533,-0.0147787262729,-1.6478037193,-0.208545384554,0.265643280099,-0.726787484332,0.57379634991,0.818976481009,0.00400240992537,0.0,0.818957310852,-0.573728124825,-0.0112119885376,0.0,-0.00688619235693,0.00971138794185,-0.999929132138,0.0,0.523060381424,0.0788249009348,0.304872730022,1.0,-0.40998,-0.538830857143,1.532
0.269361677721,-0.0456963699758,-0.132664710662,-2.1832460902,0.00534513892618,2.13229884814,-0.0400428379229,-0.867903896051,-1.39982298459,-0.0376569488534,-1.63104565102,-0.219312972253,0.239201870334,-0.745001083855,0.573992546781,0.818839461523,0.00390376669758,0.0,0.818818556229,-0.573923896073,-0.0113260934224,0.0,-0.00703392267149,0.00969775653161,-0.99992823615,0.0,0.518108955257,0.0722207079175,0.30480914451,1.0,-0.40998,-0.538830857143,1.544
0.251148128927,-0.0750105090866,-0.133144353498,-2.21706863171,0.000677522043934,2.1370408057,-0.0561036359444,-0.876899825734,-1.39409168099,-0.0290738311763,-1.58068334552,-0.218827120799,0.223195974603,-0.777371689118,0.573906219466,0.81889922668,0.00405643968327,0.0,0.818880362014,-0.573837294109,-0.0112454212601,0.0,-0.00688126288762,0.00977574421136,-0.99992853897,0.0,0.509512741453,0.060966803631,0.30489211793,1.0,-0.40998,-0.538830857143,1.565
0.239352124994,-0.092789781512,-0.133559910674,-2.23747823792,-0.00218643407782,2.13944046948,-0.0664476109576,-0.909211215634,-1.35452887634,-0.0245392174714,-1.54368418195,-0.216890998566,0.168244757741,-0.80116528291,0.573998423957,0.818835285894,0.00391545300207,0.0,0.81881344391,-0.573928245783,-0.0114743045836,0.0,-0.00714851403224,0.00979244683901,-0.999926500665,0.0,0.504136212007,0.0538871357954,0.304815749506,1.0,-0.40998,-0.538830857143,1.578
0.220762325718,-0.119774546009,-0.134025546041,-2.26775638657,-0.00665299131717,2.14272173039,-0.0827571993579,-0.949494768396,-1.34665001417,-0.0304026767685,-1.45955893083,-0.201497330111,0.154174880444,-0.834339314664,0.573929693689,0.818883641149,0.0038776104842,0.0,0.81886118666,-0.5738594665,-0.0115072408154,0.0,-0.00719802635902,0.00977976020956,-0.999926269635,0.0,0.49594804446,0.043187892194,0.304795208475,1.0,-0.40998,-0.538830857143,1.598
0.208221729157,-0.137061444298,-0.134352250619,-2.28702191264,-0.00955571225908,2.14441598265,-0.0938147583799,-0.960913016582,-1.30933582518,-0.0253991124576,-1.46013186909,-0.2319034919,0.130503429297,-0.867250429431,0.57382451543,0.818958343956,0.00366104600908,0.0,0.818932038222,-0.573753591551,-0.0117422253836,0.0,-0.00751599986421,0.00973631211521,-0.999924354125,0.0,0.490141769221,0.0356735053021,0.304674553705,1.0,-0.40998,-0.538830857143,1.612
0.18730313671,-0.164638033033,-0.134972895592,-2.31692282525,-0.0141349308619,2.14661297562,-0.112316883738,-1.00746962644,-1.30497874516,-0.0254546632003,-1.38687184785,-0.210964292013,0.0885904930524,-0.880821841073,0.573801774807,0.818974351891,0.00364432089657,0.0,0.818946843765,-0.573729641425,-0.0118790798955,0.0,-0.00763795389157,0.00980093092135,-0.999922798727,0.0,0.481924964979,0.0249202341917,0.304642075174,1.0,-0.40998,-0.538830857143,1.632
0.173991778456,-0.181566957663,-0.13529319849,-2.33493277585,-0.016945594274,2.14758479899,-0.124184840296,-1.03689581455,-1.2864896354,-0.0282754147041,-1.38147915122,-0.219193289181,0.0707749190245,-0.91810272148,0.5736412913,0.819086876694,0.00361997850497,0.0,0.819058240258,-0.57356823339,-0.0119928150727,0.0,-0.00774700191845,0.00984473669036,-0.999921529482,0.0,0.47654137457,0.0180138776698,0.304620013524,1.0,-0.40998,-0.538830857143,1.645
0.151527925004,-0.208373676977,-0.136026432767,-2.36295905397,-0.0214519875284,2.14864945092,-0.144103976036,-1.07671380364,-1.27876295957,-0.0343439982121,-1.32186698947,-0.200293646375,0.0306894564079,-0.962252758433,0.57368669141,0.819055071542,0.00362170975276,0.0,0.819025134241,-0.573611944623,-0.0121619640451,0.0,-0.0078840141486,0.00994361967599,-0.999919480133,0.0,0.467890136441,0.00666130241075,0.304575577148,1.0,-0.40998,-0.538830857143,1.666
0.138229822476,-0.223544749831,-0.136540587562,-2.37827161492,-0.0240487807249,2.14898378236,-0.155799698594,-1.12009847157,-1.2663526082,-0.0452956569387,-1.28330598723,-0.209601196315,0.014353026511,-0.980017656896,0.573872681568,0.818924018238,0.00378742707414,0.0,0.818896834589,-0.573798029115,-0.0120226031024,0.0,-0.00767252797167,0.0100011480771,-0.99992055152,0.0,0.46300889345,0.000109676875035,0.304671176133,1.0,-0.40998,-0.538830857143,1.678
0.114321917013,-0.249535662612,-0.137327704349,-2.40422580186,-0.0284493747133,2.14911292249,-0.177083663616,-1.16466942509,-1.2333489801,-0.053853329023,-1.20603278812,-0.197207517529,-0.00909617830333,-1.03394181331,0.573977678136,0.818849330128,0.00401826467069,0.0,0.818825255703,-0.573902308881,-0.0119200413613,0.0,-0.00745477003906,0.0101322893383,-0.999920878428,0.0,0.454427961493,-0.0112361326613,0.304751478902,1.0,-0.40998,-0.538830857143,1.699
0.099105832555,-0.265198668797,-0.137785740003,-2.4197235729,-0.0311721801578,2.14890121225,-0.190749773055,-1.17848151051,-1.18997561645,-0.0335982008782,-1.15915781534,-0.197856091621,-0.017748787232,-1.04458387649,0.573933268193,0.818880351573,0.00403984786236,0.0,0.818856363441,-0.573857564325,-0.0119372869749,0.0,-0.00745705607176,0.0101594568573,-0.999920585722,0.0,0.449099617478,-0.0182189159191,0.304734516877,1.0,-0.40998,-0.538830857143,1.712
0.0737076362889,-0.290057047771,-0.138586901036,-2.44367149727,-0.0354716806456,2.1481510673,-0.213630053105,-1.22890598037,-1.16713126617,-0.0340836882874,-1.11656822404,-0.201771370234,-0.0528660615406,-1.1153995586,0.573934909611,0.818878133805,0.00425069493277,0.0,0.818857436757,-0.573859245437,-0.0117818332351,0.0,-0.00720872381594,0.0102429157578,-0.999921555412,0.0,0.440534972379,-0.0295356628442,0.304801190852,1.0,-0.40998,-0.538830857143,1.733
0.0574859151641,-0.305036066117,-0.139120385263,-2.45775920203,-0.0381074851854,2.14748278471,-0.228309956079,-1.24547602902,-1.135743158,-0.0414827081384,-1.09425884149,-0.199235471829,-0.066176116287,-1.14469931976,0.573950262659,0.818866404484,0.00443333992282,0.0,0.818849149995,-0.573875583672,-0.0115598840323,0.0,-0.00692194840688,0.0102652327416,-0.999923352876,0.0,0.43528265383,-0.036568302759,0.304880515298,1.0,-0.40998,-0.538830857143,1.746
0.0305870172314,-0.328627652176,-0.139936389145,-2.47969711178,-0.0421990995987,2.14580875374,-0.25272277423,-1.28981972445,-1.11379452919,-0.0360784600295,-1.01576851512,-0.205442004126,-0.087506262265,-1.19228773853,0.573984589439,0.818841555676,0.00457653641174,0.0,0.818825957052,-0.573909189286,-0.0115343578912,0.0,-0.00681842653337,0.0103681301046,-0.999923002505,0.0,0.426692496255,-0.0478444893009,0.30491909212,1.0,-0.40998,-0.538830857143,1.767
0.0148218267266,-0.341646453751,-0.140328611978,-2.49177562135,-0.0445340528073,2.14461870777,-0.267225378847,-1.33673146091,-1.08429694308,-0.0361638214934,-0.989270302879,-0.204516655276,-0.103224705799,-1.19747071268,0.573837595989,0.818945145878,0.00447307200047,0.0,0.818927425579,-0.573761360491,-0.0116841663401,0.0,-0.00700235024823,0.0103681348802,-0.999921731372,0.0,0.42132405432,-0.0547824240476,0.304849106232,1.0,-0.40998,-0.538830857143,1.78
-0.0136653067448,-0.363871579156,-0.141246365911,-2.51174678636,-0.0484484911492,2.14227417318,-0.293342011323,-1.37061785146,-1.03886764479,-0.0459675061526,-0.936630702558,-0.182215753313,-0.117501548873,-1.26236522512,0.573886387035,0.818910147741,0.00461861495121,0.0,0.818893889259,-0.573809045768,-0.0116929051739,0.0,-0.00692536900034,0.0104927566826,-0.999920967538,0.0,0.413131061103,-0.0655690550001,0.304880846265,1.0,-0.40998,-0.538830857143,1.8
-0.031744165752,-0.377090839134,-0.141813895493,-2.52357168645,-0.0508983101673,2.14060410516,-0.310070607117,-1.39650009256,-1.00470307005,-0.051035039283,-0.897413141766,-0.180103100198,-0.135933610337,-1.28567032815,0.573822066373,0.818955696126,0.00453330202729,0.0,0.818937441028,-0.573743686093,-0.0118489346338,0.0,-0.00710293584961,0.0105118733037,-0.999919521173,0.0,0.407752588825,-0.0725655239202,0.304821649049,1.0,-0.40998,-0.538830857143,1.813
-0.0602985082929,-0.396774617,-0.142724245704,-2.54052249733,-0.0543243629646,2.13797276222,-0.336491058482,-1.43862508902,-0.95034182923,-0.0435020184336,-0.854739413267,-0.169078670413,-0.13353202559,-1.3499951433,0.57396933768,0.818850864775,0.00481742276559,0.0,0.818836381803,-0.573890106509,-0.0117419073441,0.0,-0.00685033160891,0.0106843815159,-0.999919455231,0.0,0.399188934372,-0.0838771892279,0.304900330519,1.0,-0.40998,-0.538830857143,1.834
-0.0808299376734,-0.409839211853,-0.143283891235,-2.55175599902,-0.0567910848259,2.13585133013,-0.35559832493,-1.46912237583,-0.903538058437,-0.030051592909,-0.789296267784,-0.171121566643,-0.148163816321,-1.37727382464,0.573927935504,0.818880330893,0.00474082545223,0.0,0.818864295093,-0.573848106453,-0.0118475247668,0.0,-0.00698132570467,0.0106819237825,-0.999918575483,0.0,0.393835386731,-0.0908826415082,0.304883865027,1.0,-0.40998,-0.538830857143,1.847
-0.112298617691,-0.428564718794,-0.144190710651,-2.56741501394,-0.0601741933429,2.13286770212,-0.385186559324,-1.50963329983,-0.871461666545,-0.0442228792505,-0.746319088812,-0.151152604486,-0.157611786633,-1.4228556607,0.573876082636,0.818915229346,0.00498355539474,0.0,0.818903124803,-0.573796688464,-0.0116524416941,0.0,-0.0066829430475,0.0107683140014,-0.999919687618,0.0,0.385290648845,-0.102172272565,0.304949685987,1.0,-0.40998,-0.538830857143,1.868
-0.130664037192,-0.438635056049,-0.144649931556,-2.57586335193,-0.0620853791157,2.13089987706,-0.402471122617,-1.5234229172,-0.822060001734,-0.0263282641703,-0.693489102195,-0.170539016306,-0.159608509923,-1.44342217949,0.573827155024,0.818950015722,0.00490049049912,0.0,0.818935572377,-0.573746042192,-0.0118639902833,0.0,-0.00690451093362,0.0108212741264,-0.999917610484,0.0,0.380333384097,-0.108582099961,0.304896654547,1.0,-0.40998,-0.538830857143,1.88
-0.1635080053,-0.455328247046,-0.145541257277,-2.58930542832,-0.0652144756309,2.12778386774,-0.433631848408,-1.56236954683,-0.783952233552,-0.0464228479308,-0.628117951033,-0.141647443487,-0.16104757239,-1.51352933751,0.57377567257,0.818984743757,0.00511995715787,0.0,0.818974597067,-0.573696184572,-0.0115777401366,0.0,-0.00654481866048,0.0108363491174,-0.999919866233,0.0,0.371816696024,-0.119881588744,0.305003186693,1.0,-0.407751428572,-0.535901877551,1.901
-0.184095567887,-0.464715292293,-0.145839566836,-2.59698819992,-0.0668961704434,2.12571355432,-0.45325989299,-1.5814145808,-0.700252915702,-0.00398546982453,-0.585826762548,-0.134779196265,-0.154608563019,-1.51239361357,0.573624683281,0.819090620497,0.00510147493356,0.0,0.819078742247,-0.573542835738,-0.0118057813994,0.0,-0.00674422025921,0.0109508081253,-0.999917294227,0.0,0.366544672488,-0.126704306819,0.30494683522,1.0,-0.396452571429,-0.521051951021,1.914
-0.215736238082,-0.477761956053,-0.146244678419,-2.60724322368,-0.0691848966657,2.12293223251,-0.483135056285,-1.57058425824,-0.621682836655,-0.0204638845441,-0.478073343583,-0.0992563831289,-0.125216015701,-1.48606318951,0.573791993932,0.818972194704,0.00529517732735,0.0,0.818963654608,-0.573710846608,-0.0116251372936,0.0,-0.00648288835136,0.0110071804056,-0.99991840374,0.0,0.358768749218,-0.137052449991,0.305023809102,1.0,-0.379069714286,-0.498205910204,1.934
-0.23760091882,-0.485861474444,-0.146295529626,-2.61364620668,-0.0704953454113,2.12100343145,-0.503792788013,-1.55056276312,-0.553548667284,0.0143318343181,-0.440036843012,-0.0912889635625,-0.149826302895,-1.46379724543,0.573880594981,0.818909619934,0.0053706596814,0.0,0.818901306614,-0.573797905012,-0.0117201165063,0.0,-0.00651616833647,0.0111242018397,-0.999916892388,0.0,0.353462112792,-0.143984455569,0.305016859764,1.0,-0.366901714286,-0.482213681633,1.948
-0.268185988455,-0.495941308115,-0.146214860939,-2.62163459163,-0.0719945272772,2.11857164735,-0.532803479304,-1.50965095096,-0.475401469224,0.00285063347024,-0.378735506337,-0.0572024269673,-0.088657641856,-1.43873287391,0.573996672904,0.818827158309,0.00553635365483,0.0,0.818819714095,-0.573911170965,-0.0118739442764,0.0,-0.00654545886118,0.011349098531,-0.999914173782,0.0,0.346178816563,-0.153484459253,0.304972662701,1.0,-0.349518857143,-0.459367640816,1.968
-0.287553739286,-0.501626410134,-0.145981300461,-2.62603660995,-0.0727725294511,2.11715640633,-0.551239469198,-1.47112515979,-0.432105060248,0.0342283922205,-0.32445156017,-0.0596937342764,-0.106757295186,-1.42637938031,0.573995152653,0.818827545584,0.00563579857244,0.0,0.818821240043,-0.573909013428,-0.0118729971396,0.0,-0.00648762641486,0.0114299744437,-0.999913629464,0.0,0.341678424266,-0.159382629298,0.30498255559,1.0,-0.33822,-0.444517714286,1.981
-0.317974413849,-0.509352888771,-0.145585316589,-2.63190887701,-0.0738417065147,2.11528361026,-0.580245237064,-1.42533036176,-0.33938062772,0.0164174029493,-0.25768991782,-0.0499431155273,-0.0767166040485,-1.36029318995,0.57405807777,0.818782324606,0.00579440782707,0.0,0.818779098556,-0.57397319265,-0.0116751354446,0.0,-0.00623367979709,0.0114467662141,-0.999915052782,0.0,0.334772797769,-0.168590734893,0.305037085712,1.0,-0.319968,-0.420529371429,2.002
-0.336267633255,-0.513411317884,-0.145255910122,-2.63505664611,-0.0743132323171,2.11416282362,-0.597686868511,-1.39538661116,-0.294781759359,0.0345926770626,-0.231622182202,-0.0402427864948,-0.0830711151294,-1.33966533038,0.574128122065,0.818732607714,0.00587906628247,0.0,0.818729878567,-0.574041815464,-0.0117527418612,0.0,-0.00624764339628,0.0115611694258,-0.999913649429,0.0,0.330624760352,-0.174018087555,0.305021472683,1.0,-0.308669142857,-0.405679444898,2.015
-0.363318083435,-0.518505102021,-0.144510356325,-2.63917019818,-0.0748645397619,2.11265250917,-0.623661113255,-1.32638100502,-0.228818370274,0.0444697282078,-0.198881608388,-0.0342606536351,-0.0727826186711,-1.28890860591,0.573994833802,0.818826104744,0.00587263641277,0.0,0.81882136848,-0.573905064837,-0.0120536291541,0.0,-0.00649961556482,0.0117275868395,-0.999910105312,0.0,0.324542289455,-0.18189155036,0.304921175624,1.0,-0.291286285714,-0.382833404082,2.035
-0.380245647402,-0.521204724647,-0.143974747846,-2.641286189,-0.0750545173142,2.11187927426,-0.639899789854,-1.28733526929,-0.205950249796,0.041363949105,-0.155027123804,-0.012166193812,-0.0642931632318,-1.23684933435,0.573969321842,0.818843556416,0.00593250382943,0.0,0.818839170848,-0.57387852858,-0.0121075852122,0.0,-0.00650980690028,0.0118073763187,-0.999909100008,0.0,0.320812552636,-0.186781917575,0.304900276307,1.0,-0.279987428572,-0.367983477551,2.048
-0.406430282218,-0.52470060448,-0.143040565877,-2.64394746694,-0.0752726661134,2.11082963238,-0.665077065265,-1.22534859084,-0.151843959077,0.0473978635748,-0.111693708855,-0.00372668560204,-0.0506429854514,-1.17721095858,0.573877470439,0.818907681756,0.0059669577289,0.0,0.818903732558,-0.57378652527,-0.0121015339219,0.0,-0.0064864040314,0.0118313894227,-0.99990896825,0.0,0.315102931224,-0.1942969134,0.304908205041,1.0,-0.261735428572,-0.343995134694,2.069
-0.421941584036,-0.526324526082,-0.142479954503,-2.6452037175,-0.0753573079479,2.11034145294,-0.680001254368,-1.17461086947,-0.117424020318,0.0413247986658,-0.0861024654555,0.00247599774396,-0.0398747569217,-1.13677636269,0.573849528267,0.818927231427,0.00597121727784,0.0,0.818923396507,-0.573758677894,-0.012091199145,0.0,-0.00647589919081,0.0118287261996,-0.999909067849,0.0,0.31174389965,-0.198737089162,0.304904928128,1.0,-0.250436571429,-0.329145208163,2.082
-0.445783559094,-0.528300391255,-0.141492954115,-2.64674514929,-0.0753623827908,2.10968496786,-0.70288031951,-1.10459048695,-0.074691868551,0.0524779356919,-0.0561172517056,0.00830104228703,-0.0241537733719,-1.05995411162,0.573845572786,0.818930097757,0.00595822809192,0.0,0.818925982629,-0.57375457676,-0.0121106367805,0.0,-0.00649932945763,0.011829210844,-0.999908910095,0.0,0.306599330606,-0.20549118704,0.304896919682,1.0,-0.232184571429,-0.305156865306,2.103
-0.458664896032,-0.529085437382,-0.140929359644,-2.64737971562,-0.0753422220189,2.10939834719,-0.715254825616,-1.07349617059,-0.0623859650338,0.0381756183973,-0.0508125385322,0.00141367054165,-0.0313339599879,-1.01994802436,0.573833406764,0.818938872426,0.00592380055528,0.0,0.818934179147,-0.573742327456,-0.0121366721313,0.0,-0.00654058339875,0.0118158581529,-0.999908798974,0.0,0.303824285212,-0.209122442398,0.304885736516,1.0,-0.221754857143,-0.291449240816,2.115
-0.480022305961,-0.529963465727,-0.139887412697,-2.64804415134,-0.0751963393422,2.10907272565,-0.735748069139,-0.985666637548,-0.0364178205218,0.0553549468969,-0.0241854280155,0.00202580448183,-0.0108933742985,-0.945121351013,0.573828292954,0.81894287194,0.00586597005143,0.0,0.818937946473,-0.573738401235,-0.0120678778467,0.0,-0.00651749574502,0.0117289810316,-0.999909972574,0.0,0.29927471933,-0.215118673438,0.304904191129,1.0,-0.203502857143,-0.267460897959,2.136
-0.492496518393,-0.530230593204,-0.139259110562,-2.64823583276,-0.0750223716147,2.10892014191,-0.747616839174,-0.933473023521,-0.0178813707609,0.051895237731,-0.0116623966588,0.00990424028968,-0.0167410885507,-0.905078505945,0.573943561607,0.81886207864,0.00586780678924,0.0,0.818857340752,-0.573853933673,-0.0120443017932,0.0,-0.00649548305232,0.0117178717371,-0.999910246063,0.0,0.296624670698,-0.218605540662,0.304918276059,1.0,-0.192204,-0.252610971429,2.149
-0.51104743522,-0.530327855467,-0.138051981413,-2.64831588507,-0.074552378768,2.10882746486,-0.76549695173,-0.856594573228,-0.00146563262796,0.0531484385441,0.000121155732045,0.0163701228094,-0.000670593220759,-0.827740149724,0.573837054866,0.81893659724,0.00588481643163,0.0,0.818932582053,-0.573748287549,-0.011961416623,0.0,-0.00641936206982,0.0116833969438,-0.999911141065,0.0,0.292744364992,-0.223699754781,0.304941676857,1.0,-0.173952,-0.228622628572,2.17
-0.52100089126,-0.530236760325,-0.137379433193,-2.64829140967,-0.074288197759,2.10881694253,-0.774974434835,-0.810613193882,0.00682207911178,0.0593051288502,-0.00059490496345,0.0234412396945,-0.000477193573338,-0.770211758578,0.573850607191,0.818927143601,0.00587886050558,0.0,0.818923096697,-0.573761944234,-0.0119557494588,0.0,-0.00641794488568,0.0116753735238,-0.999911243879,0.0,0.290486527892,-0.226629659226,0.304934932083,1.0,-0.162653142857,-0.213772702041,2.183
-0.536906018228,-0.529864664696,-0.136121095966,-2.64809639669,-0.0736576222762,2.10883379193,-0.790243112691,-0.730329652675,0.0201014333423,0.0553280167181,0.0157229772659,0.0272225481475,0.0036714925626,-0.690353033034,0.573796224486,0.818964849995,0.00593415033064,0.0,0.818961324862,-0.573706989333,-0.0119743756542,0.0,-0.00640225250421,0.0117309170142,-0.999910694387,0.0,0.287197563572,-0.230883111024,0.304924445456,1.0,-0.144401142857,-0.189784359184,2.204
-0.54600098357,-0.529504802025,-0.135391143289,-2.64790828374,-0.0732935367771,2.10883342216,-0.798843694675,-0.674016963012,0.0331070241582,0.0594452980583,0.0156560631851,0.0245256701035,0.00601972068885,-0.653446389696,0.573837407002,0.818935981822,0.00593589954533,0.0,0.818931875155,-0.57374705277,-0.0120685621656,0.0,-0.00647779965427,0.0117867166955,-0.99990955162,0.0,0.285447551354,-0.233117627776,0.304897398054,1.0,-0.133971428572,-0.176076734694,2.216
-0.55914712139,-0.528807323584,-0.134134477345,-2.64753252095,-0.0726111000399,2.10894667571,-0.811389610107,-0.601538457597,0.0390008780836,0.0569240818518,0.0212195176143,0.0362058034727,0.0081229647242,-0.563894206911,0.573755475094,0.818993128137,0.00597141240053,0.0,0.818988863088,-0.573663855205,-0.0121560795625,0.0,-0.00653028789635,0.0118653659027,-0.99990828001,0.0,0.282756445053,-0.236577561057,0.30485596223,1.0,-0.115719428572,-0.152088391837,2.237
-0.566637529296,-0.528378194576,-0.133469322281,-2.6472497979,-0.0722134359652,2.10901617761,-0.818297064597,-0.564719356655,0.0329223587104,0.0488623365778,0.0206708294716,0.0342725021663,0.00728182275848,-0.510051469947,0.573949174477,0.818857058989,0.00601738830468,0.0,0.81885328859,-0.573857119533,-0.0121673755531,0.0,-0.00651034558571,0.0119110426807,-0.999907866987,0.0,0.281212036894,-0.238562423911,0.304850877531,1.0,-0.104420571429,-0.137238465306,2.25
-0.57701359766,-0.52760107705,-0.132236323225,-2.64675344335,-0.0715249595057,2.10917638255,-0.828124212685,-0.459429471204,0.0352434083725,0.0532674549875,0.0237339034504,0.0366975629351,0.00822997232399,-0.424606946814,0.573850151008,0.818926374263,0.00602865034823,0.0,0.818922604981,-0.573757799947,-0.0121860967228,0.0,-0.00652065638805,0.011930221186,-0.99990757116,0.0,0.279155660819,-0.241239736063,0.304837798168,1.0,-0.0861685714287,-0.113250122449,2.271
-0.582729166742,-0.527176936947,-0.131521128319,-2.64645607838,-0.0711118109862,2.10925300554,-0.833334674816,-0.4194573474,0.0251923992306,0.0577735271265,0.02652301868,0.0308955832856,0.00849494411947,-0.381531045408,0.573951549179,0.818855207502,0.00604278446257,0.0,0.818851656327,-0.573859175184,-0.0121802663837,0.0,-0.00650629251587,0.011939256694,-0.999907556881,0.0,0.278026203924,-0.242699415103,0.304842627761,1.0,-0.0748697142858,-0.0984001959185,2.284
-0.590205807077,-0.526556874659,-0.130365578341,-2.64599932692,-0.0704447089763,2.1093971732,-0.840040985463,-0.340730278411,0.035209423621,0.055902573389,0.0239752453327,0.0329581470483,0.00698413827738,-0.305287414181,0.574075779342,0.818768079294,0.00604804135527,0.0,0.818764995978,-0.57398409078,-0.0121198924915,0.0,-0.00645202579969,0.0119098905858,-0.999908258726,0.0,0.276614917199,-0.244558584888,0.304864913108,1.0,-0.057486857143,-0.0755541551022,2.304
-0.594174698204,-0.526155610461,-0.12961451154,-2.64574152303,-0.0699905939465,2.1094768966,-0.843646025449,-0.285228569569,0.0279304047744,0.0588643592963,0.0157493923007,0.0314086035711,0.00536326239649,-0.270075346625,0.574051050464,0.81878529441,0.00606465340181,0.0,0.818782304435,-0.573959066503,-0.0121356839006,0.0,-0.00645578100404,0.0119323627141,-0.999907966571,0.0,0.27589988411,-0.245503337954,0.304860888306,1.0,-0.0461880000001,-0.0607042285716,2.317
-0.599108082629,-0.525683148208,-0.1282621068,-2.64545390768,-0.06924735718,2.10956255856,-0.847955155754,-0.210264033123,0.0212115515415,0.0647354390481,0.0109169971667,0.0363612120927,0.00112507912235,-0.178105538866,0.573939356639,0.818863844812,0.0060303782722,0.0,0.818860245577,-0.573847249242,-0.0121646887234,0.0,-0.00650083295676,0.0119200601506,-0.99990782142,0.0,0.275098317978,-0.246551616893,0.304859546656,1.0,-0.0279360000001,-0.0367158857145,2.338
-0.601374280109,-0.525503887166,-0.127427817262,-2.64533223822,-0.0688018668651,2.10957402718,-0.849794275978,-0.16001442893,0.00740164340331,0.0647576501962,0.0133687959457,0.0304472352817,-0.000603090427287,-0.131607037366,0.573895903272,0.818894535699,0.00599820900071,0.0,0.818890493438,-0.573803905048,-0.0121731347515,0.0,-0.00652684344442,0.0118982175698,-0.999907912127,0.0,0.274775240847,-0.246967426091,0.304870712747,1.0,-0.0199030769231,-0.0261583296703,2.351
-0.60408403394,-0.525233905148,-0.126568992137,-2.64513562949,-0.0683119794109,2.10964529971,-0.852060528946,-0.112580493846,0.0158085146819,0.0326254433906,0.0105520335725,0.0156768117754,0.00412167350814,-0.100400430742,0.57387133213,0.818911854015,0.00598468169002,0.0,0.818907906234,-0.573779892612,-0.0121335420736,0.0,-0.00650253661186,0.0118642235286,-0.99990847442,0.0,0.27437638702,-0.247519219732,0.304888274263,1.0,-0.0194830769231,-0.0256063296703,2.372
-0.605372017408,-0.525103794023,-0.126254836264,-2.6450158901,-0.0681634425564,2.10968077067,-0.853243933023,-0.109774677121,0.0106644901394,0.0194336722343,0.0120709000321,0.0140432997372,0.00495514010022,-0.105815061969,0.573804442988,0.818958960298,0.00595226480162,0.0,0.818954883266,-0.573713691884,-0.0120932138448,0.0,-0.00648907495741,0.0118140036161,-0.999909156486,0.0,0.274166388241,-0.247818026565,0.304905681738,1.0,-0.0192430769231,-0.0252909010989,2.384
-0.607806959822,-0.524798084976,-0.125917882203,-2.6447563303,-0.0679442699064,2.10974747863,-0.85547935283,-0.0961582783604,0.0135277553736,0.0121852345256,0.00596318733668,0.00733961723183,0.000556008320377,-0.0885227823472,0.573836660906,0.818936303329,0.00596360559269,0.0,0.818932653754,-0.5737463657,-0.0120483759079,0.0,-0.0064453794854,0.0117978182989,-0.9999096302,0.0,0.27371662004,-0.248453991905,0.304925511177,1.0,-0.0187430769231,-0.0246337582418,2.409
-0.608645279098,-0.524708009051,-0.125846742378,-2.64469236915,-0.0679128575022,2.10975722817,-0.856286845608,-0.0958887894706,0.0089860400776,0.0105798654809,0.0059193953118,0.000338648222642,0.00153658484118,-0.0876532127589,0.573828430704,0.81894212066,0.00595667912364,0.0,0.818938322932,-0.573738060401,-0.0120585315128,0.0,-0.00645779017481,0.0117979081727,-0.999909549064,0.0,0.273540488348,-0.248679697231,0.304924114183,1.0,-0.0185630769231,-0.0243971868132,2.418
-0.610807582839,-0.52450206431,-0.125745002692,-2.64448761949,-0.0678575202486,2.10977081238,-0.858338516234,-0.0858349305554,0.00901065881574,0.00377919314346,0.00708987777618,0.00591990899561,0.000107450400764,-0.0743975489007,0.573881283919,0.818905101854,0.00595424448758,0.0,0.81890145083,-0.573791239179,-0.0120322305089,0.0,-0.00643688555751,0.0117812381677,-0.999909880405,0.0,0.273074374667,-0.249291080514,0.304945295906,1.0,-0.0180630769231,-0.023740043956,2.443
-0.611848797541,-0.524377215213,-0.125701236403,-2.64436250531,-0.0678158488419,2.10981989571,-0.859401702009,-0.0826621600707,0.0105671938577,0.00145624192301,0.0135160563883,0.00982477437697,0.00958571011377,-0.078591331986,0.573856550354,0.818922368342,0.00596331671594,0.0,0.818919187169,-0.573767119013,-0.0119751796108,0.0,-0.0063853103333,0.0117557360735,-0.999910511237,0.0,0.272862338173,-0.249596629896,0.304961645586,1.0,-0.0178030769231,-0.0233983296703,2.456
-0.613447235911,-0.524196516019,-0.125683369396,-2.64418040743,-0.0677864746276,2.10990070255,-0.861044689779,-0.0797161321293,0.00839023031092,0.00242179372433,0.0100451509816,0.000299911027177,0.00046928397393,-0.0734391879545,0.573829332319,0.818941369104,0.00597312663392,0.0,0.818938884453,-0.573740919451,-0.011883087949,0.0,-0.00630464653121,0.0117107155535,-0.999911551375,0.0,0.272521690527,-0.250078487172,0.304985491828,1.0,-0.0174030769231,-0.0228726153846,2.476
-0.614247168673,-0.524113890202,-0.125688928981,-2.64409152407,-0.0677725681278,2.10990060892,-0.861800469943,-0.0781116271679,0.00856820784109,-0.00126530702004,0.0102720473875,0.000889993497143,-0.000307979003779,-0.078966484076,0.573879917819,0.818905820044,0.00598704628628,0.0,0.81890357208,-0.573791543999,-0.0118722605755,0.0,-0.00628706779528,0.0117162910883,-0.999911596743,0.0,0.272340837534,-0.250316911434,0.304995456017,1.0,-0.0172030769231,-0.0226097582418,2.486
-0.616041861987,-0.523890053349,-0.125691145943,-2.64390153196,-0.06773702019,2.10990757444,-0.863601462491,-0.0723842984767,0.00685386673595,-0.000809110894928,0.00953266639633,0.002320057076,0.000711510152832,-0.0769560588455,0.5739014667,0.818890486191,0.00601872470808,0.0,0.81888851539,-0.57381271283,-0.0118876767526,0.0,-0.00628120557579,0.0117512459126,-0.999911223397,0.0,0.271934902713,-0.25084661176,0.305000269619,1.0,-0.0167430769231,-0.0220051868132,2.509
-0.61679702683,-0.523793946387,-0.125686089718,-2.64382388441,-0.067723265616,2.10992841068,-0.864297529264,-0.0731227890067,0.0115336744364,0.00217507406824,0.00488254492798,-0.000197316912442,0.000239558201571,-0.079197019153,0.573956241357,0.818852040976,0.0060261844037,0.0,0.818850205954,-0.573867519509,-0.0118809580067,0.0,-0.00627063594589,0.0117539186407,-0.999911258323,0.0,0.271767265258,-0.251069902336,0.305002212393,1.0,-0.0165430769231,-0.0217423296703,2.519
-0.618487412257,-0.523561844366,-0.125610441012,-2.64364486847,-0.0676915632172,2.10997322849,-0.865991283761,-0.0767352540994,0.0149387974464,0.000905868426956,0.00772365351779,0.000589958047793,0.00619591140594,-0.0772150808541,0.573922970702,0.818875459062,0.0060127486964,0.0,0.818873475633,-0.573834357648,-0.0118788799342,0.0,-0.00627712232744,0.0117414685432,-0.999911363898,0.0,0.271405485878,-0.251555617305,0.305004065139,1.0,-0.0160830769231,-0.0211377582418,2.542
-0.619268676994,-0.523440630234,-0.125538367813,-2.64358572969,-0.0676774383706,2.10998974833,-0.866828318691,-0.0718856372525,0.0079585476907,0.00489428194659,0.00701060534032,-0.000274111005742,0.000830156287298,-0.0690614039031,0.573835677642,0.81893678944,0.00599139944671,0.0,0.81893429103,-0.573746724432,-0.0119193154405,0.0,-0.00632374186353,0.0117465170679,-0.999911010853,0.0,0.271239146923,-0.251765012691,0.30498959629,1.0,-0.0158630769231,-0.0208486153846,2.553
-0.620627192436,-0.523230443959,-0.125423380125,-2.64349393595,-0.0676425542147,2.11002637194,-0.868224570441,-0.0670621599514,0.00947190773713,0.00371123952255,0.00930160585258,-0.000270720257169,0.011298743191,-0.0640874471502,0.573743565283,0.819001493966,0.00596833967271,0.0,0.81899825316,-0.573653906542,-0.0119918193019,0.0,-0.00639767972996,0.0117685155071,-0.999910281844,0.0,0.270946929687,-0.252128416952,0.304960058707,1.0,-0.0154630769231,-0.0203229010989,2.573
-0.621493917063,-0.523091884086,-0.125371048765,-2.64343917535,-0.0676205220601,2.11003063003,-0.869119551491,-0.0682935300084,0.0115836573314,0.00557183729663,0.00346169181683,0.000737905449341,-0.00111751262312,-0.0774306753089,0.573696005421,0.819034824956,0.00596621945586,0.0,0.819031081675,-0.573605494536,-0.0120652720891,0.0,-0.00645974612216,0.0118085449273,-0.99990941087,0.0,0.27075169954,-0.252361187761,0.304935709514,1.0,-0.0152030769231,-0.0199811868132,2.586
-0.622878918686,-0.522878395627,-0.125357432795,-2.64336010546,-0.0675883511087,2.11005527909,-0.870560022001,-0.0654921450162,0.0107701125894,0.000636514613521,-0.000518879568081,0.000740994563368,-0.000248414759722,-0.0644356901761,0.573659367505,0.819060276444,0.00599504175911,0.0,0.819056222652,-0.573567487153,-0.0121650613542,0.0,-0.00652548311438,0.0118891065621,-0.999908029378,0.0,0.270425373263,-0.252749197275,0.304895726077,1.0,-0.0147830769231,-0.0194291868132,2.607
-0.623741931049,-0.522751364424,-0.125362655084,-2.64329557427,-0.0675682022814,2.11007869162,-0.871358514042,-0.0714707883129,0.0118610876663,-0.000494447937558,0.000933142556396,0.000604948517119,0.000669033475183,-0.0622672623207,0.573728117055,0.819011965263,0.00601625786392,0.0,0.819007952884,-0.573635698629,-0.0121985766547,0.0,-0.00653976586719,0.0119262590694,-0.999907493625,0.0,0.270223911326,-0.252998816024,0.304880305568,1.0,-0.0145230769231,-0.0190874725275,2.62
-0.625071483691,-0.522584395906,-0.125369766023,-2.64316249528,-0.0675336346463,2.11009528591,-0.872682643036,-0.0689522709623,0.00690744298968,-5.39739277689e-05,0.00309227053137,0.000401745849958,3.96007709121e-05,-0.0697047969646,0.573759344877,0.818989841006,0.00604990880037,0.0,0.818986181151,-0.573666609745,-0.0122066722986,0.0,-0.00652663559219,0.0119587142482,-0.999907191784,0.0,0.269919032163,-0.253388751793,0.304880750443,1.0,-0.0141230769231,-0.0185617582418,2.64
-0.625971093222,-0.522483223608,-0.125370175862,-2.64303013063,-0.0675137136785,2.11011567782,-0.873574738845,-0.0680334907914,0.00577218593419,-0.000565265533528,0.00477715213253,0.000235540083504,0.0050855871535,-0.0539305685677,0.573780936959,0.818974629469,0.00606131746369,0.0,0.81897147948,-0.573688809728,-0.0121495799074,0.0,-0.00647301232731,0.0119354732686,-0.999907818046,0.0,0.269724766394,-0.253663833183,0.304905495909,1.0,-0.0138430769231,-0.0181937582418,2.654
-0.627182444253,-0.522317225976,-0.125347931755,-2.64284653673,-0.067483258317,2.11020133743,-0.874785664719,-0.0576655574513,0.00948042717639,0.000504976776349,0.00675704099338,0.00167146641298,0.000318165334573,-0.052501067159,0.573785557218,0.818971356396,0.00606618762715,0.0,0.818969009313,-0.573694778119,-0.0120337128374,0.0,-0.0063752487034,0.0118730188895,-0.99990918969,0.0,0.269467055431,-0.254051899124,0.304936613494,1.0,-0.0134230769231,-0.0176417582418,2.675
-0.627934945232,-0.52220017079,-0.125305281664,-2.64274370803,-0.067461711426,2.1102128917,-0.875589639834,-0.0585270644653,0.0121190505251,0.00251043849759,0.00407361625562,0.000249928513897,-0.000270718339117,-0.0606265174119,0.573730026994,0.819010321661,0.00605772561444,0.0,0.819007849379,-0.573639267441,-0.0120366277338,0.0,-0.0063832959664,0.0118673280651,-0.999909205907,0.0,0.269320919239,-0.25425389027,0.304941577117,1.0,-0.0131830769231,-0.0173263296703,2.687
-0.629087216555,-0.522018420977,-0.125222966473,-2.642606118,-0.0674327170696,2.1102250832,-0.876776912349,-0.0540861486933,0.0063985566168,0.000797853672185,0.00768322094189,0.00446856845146,-0.000855137738531,-0.0535351107371,0.573662717152,0.819057597365,0.00604036841834,0.0,0.819054753423,-0.573571775489,-0.0120613498396,0.0,-0.00641447888091,0.011866767659,-0.999909013004,0.0,0.269077914862,-0.254576083488,0.304940352871,1.0,-0.0127830769231,-0.0168006153846,2.707
-0.629819983937,-0.521911136432,-0.125182536198,-2.64252184911,-0.0674225749881,2.1102478392,-0.87748149666,-0.0590618318704,0.00866829441462,-0.000153154733668,0.00631344904381,0.000185922037678,0.0012050435149,-0.0537146588862,0.573665923475,0.81905545349,0.00602654577552,0.0,0.819052468183,-0.573575111581,-0.0120578869824,0.0,-0.00641952502057,0.0118534842793,-0.999909138177,0.0,0.268921772592,-0.254785736351,0.304942141545,1.0,-0.0125230769231,-0.0164589010989,2.72
-0.630986883833,-0.521754171836,-0.125138693927,-2.64238845756,-0.0673975152716,2.11028525798,-0.878642467867,-0.0553888836997,0.00857201241747,0.00204847811459,0.00393657910618,0.000448386161164,0.000311941729212,-0.0508446707801,0.57365735848,0.819061481967,0.00602251786547,0.0,0.819058581663,-0.573566819381,-0.0120370433005,0.0,-0.00640488542131,0.0118381613259,-0.999909413587,0.0,0.268669516438,-0.255123226628,0.304949337981,1.0,-0.0121030769231,-0.0159069010989,2.741
-0.631677283283,-0.521672663242,-0.12514186465,-2.64228813765,-0.0673853451214,2.11030417336,-0.879403745251,-0.0534181620313,0.00632010640603,0.00223329938897,0.00994356950278,-0.000267998652933,0.000497121119092,-0.0501094423616,0.573611789956,0.81909333624,0.00603057634814,0.0,0.819090795667,-0.57352169865,-0.0119948544282,0.0,-0.00636636151243,0.0118202070737,-0.999909872011,0.0,0.268518382924,-0.255334652101,0.304966525187,1.0,-0.0118430769231,-0.0155651868132,2.754
-0.63281188621,-0.521535191769,-0.125140510052,-2.64211871604,-0.067357654123,2.11036433533,-0.880497368096,-0.0567675289051,0.00625305179325,-0.00104979618246,0.0121911603415,-0.000281114013482,0.00103708151203,-0.0461826401225,0.573664710762,0.819056190612,0.00604178349709,0.0,0.819054413082,-0.573575714722,-0.0118959990341,0.0,-0.0062781922395,0.0117730909498,-0.999910985354,0.0,0.268277387154,-0.25568476617,0.30499818666,1.0,-0.0114230769231,-0.0150131868132,2.775
-0.633441103147,-0.521480027376,-0.125136247296,-2.64200819324,-0.0673520239099,2.11039340633,-0.881086441909,-0.0542192851896,-0.000470535101388,0.001691056975,0.00589781364998,0.00205506775324,0.00204630322888,-0.0463556537491,0.573702359037,0.819029867013,0.00603548486354,0.0,0.819028563469,-0.573614425396,-0.0118088992412,0.0,-0.00620991955329,0.0117182534626,-0.99991205585,0.0,0.268147095917,-0.255883001136,0.305030729415,1.0,-0.0111830769231,-0.0146977582418,2.787
-0.634498291658,-0.521410045132,-0.12511562574,-2.64179423126,-0.0673314170035,2.11043533972,-0.8821647122,-0.0467091730523,0.000513448250794,0.000672215407549,0.0121319455079,0.00171670904803,0.00132830551936,-0.0523386599249,0.573689525493,0.819038934418,0.00602487738465,0.0,0.819038679881,-0.573603888212,-0.0116175379612,0.0,-0.00605943948143,0.0115996907899,-0.999914361516,0.0,0.267937715705,-0.256218369818,0.3051063399,1.0,-0.0107630769231,-0.0141457582418,2.808
-0.635134389339,-0.521373026472,-0.125093259139,-2.64164476044,-0.0673262250798,2.11048274243,-0.882805665162,-0.0511856491905,0.00114810485582,0.00182783976533,0.00998559005819,0.000424097258793,0.000290929045092,-0.0443647884954,0.573679015009,0.819046463346,0.00600212629486,0.0,0.819046917331,-0.573595384928,-0.0114555008927,0.0,-0.00593990991123,0.0114880246879,-0.999916367882,0.0,0.267821532833,-0.25642699926,0.305165260432,1.0,-0.0105030769231,-0.013804043956,2.821
-0.636125853548,-0.521405099985,-0.125065135275,-2.64128657584,-0.067327068475,2.11066087735,-0.883742927911,-0.0478427149819,-0.00282246461475,0.00279609904267,0.0190800061907,-0.000225219514996,0.00297525361993,-0.0451775916203,0.573719529016,0.819018594308,0.00593220897983,0.0,0.819021520071,-0.573642725399,-0.0108866963857,0.0,-0.00551354439649,0.0111047309395,-0.999923139936,0.0,0.267685722784,-0.25680202927,0.305355827099,1.0,-0.0100830769231,-0.013252043956,2.842
-0.636735824024,-0.521443269449,-0.125043878654,-2.64097869218,-0.0673225209752,2.11076447277,-0.884304431192,-0.0461057036178,-0.00320472929329,0.0025114826194,0.0230976096824,0.00331812585136,0.0143719309091,-0.0376734906025,0.573760195062,0.81899048812,0.00587927140814,0.0,0.81899523842,-0.573688595306,-0.0104375266355,0.0,-0.00517546372213,0.0108039406163,-0.999928242147,0.0,0.267622986356,-0.257052939886,0.305519294242,1.0,-0.00982307692308,-0.0129103296703,2.855
-0.637546687017,-0.521522364682,-0.125024081595,-2.64061053224,-0.0673006066732,2.11079831824,-0.885110114472,-0.0470387774276,-0.0030641442538,-0.00181392042756,0.0162957104625,0.00095264635582,0.000189891276978,-0.0476517257244,0.573776489745,0.818979342583,0.00584150146565,0.0,0.818986102043,-0.573710223892,-0.00995442429089,0.0,-0.0048012311864,0.0104959252216,-0.999933389648,0.0,0.267513256676,-0.257362393631,0.305719310191,1.0,-0.00946307692308,-0.0124371868132,2.873
-0.638194673138,-0.521535841567,-0.125024520053,-2.64039448643,-0.0672875661961,2.11082238667,-0.885770175245,-0.0395505481221,0.00186751950668,-0.00108119508954,0.00674161300246,-6.18770224191e-05,-4.74126814276e-05,-0.0507437737994,0.573782444304,0.818975271086,0.00582742303759,0.0,0.818983087727,-0.573718911508,-0.00969842758021,0.0,-0.00459955811034,0.0103375474255,-0.99993598754,0.0,0.267401714787,-0.257592686893,0.305824665421,1.0,-0.00916307692308,-0.0120429010989,2.888
-0.639058037688,-0.521516783047,-0.125025972905,-2.6402227092,-0.0672728592992,2.11082055227,-0.886585174174,-0.0436172308383,-0.000635094178908,-0.000314037256548,0.00461009871626,-2.58179668693e-05,-0.00100556356313,-0.0441329926116,0.57383742266,0.818936760579,0.00582592729645,0.0,0.81894526905,-0.573775492345,-0.00954345771034,0.0,-0.0044728001544,0.0102477060731,-0.999937487336,0.0,0.26721927028,-0.257865221224,0.305895657755,1.0,-0.00876307692308,-0.0115171868132,2.908
-0.639603314371,-0.521578450578,-0.125052071473,-2.64019014521,-0.0672638744012,2.11093108475,-0.887128589689,-0.0344618306617,-0.00344432017807,-0.0111911168657,-0.00443433797294,0.0029290944509,0.0193984378686,-0.041625287448,0.57386242563,0.818919180416,0.00583432074951,0.0,0.818928688783,-0.573802579561,-0.00933537781811,0.0,-0.00429725439109,0.0101353103363,-0.999939402709,0.0,0.267100296336,-0.258040290677,0.305942076088,1.0,-0.00848307692308,-0.0111491868132,2.922
-0.640420492335,-0.521276304166,-0.124943782888,-2.6400813867,-0.0671115321746,2.11083992685,-0.887890942563,-0.0398104956663,0.00250523411749,0.00878433192396,0.00942157052876,0.00748178473154,-0.0130240180143,-0.0421301031665,0.573901859739,0.81889093059,0.00591997358463,0.0,0.818900139011,-0.573838878015,-0.0096047544077,0.0,-0.00446822130243,0.0103602530753,-0.999936348052,0.0,0.266930247895,-0.258229063864,0.305875136018,1.0,-0.00808307692308,-0.0106234725275,2.942
-0.640824791126,-0.521237311773,-0.124931249029,-2.64007003639,-0.0671057219773,2.11091298405,-0.888346784325,-0.0296456595911,0.0059475573796,-0.00415639475144,0.00247134759249,0.0139716785708,-0.00340056548948,-0.0331749047765,0.573853915719,0.818924564034,0.00591512782027,0.0,0.81893393193,-0.573791450761,-0.00955683359958,0.0,-0.00443236135233,0.0103285241228,-0.999936835886,0.0,0.266842464823,-0.258345984613,0.305872513508,1.0,-0.00782307692308,-0.0102817582418,2.955
-0.641522424977,-0.521123187125,-0.124893443616,-2.64001531991,-0.0671184253345,2.11088099386,-0.889088794572,-0.0353246054382,0.00480780929538,-0.000486492230983,0.00471536795897,-0.000112895211697,-0.00510048283183,-0.0417644092583,0.573788483648,0.818970578872,0.00589184827202,0.0,0.818979302233,-0.573725200751,-0.00964590268499,0.0,-0.00451949568731,0.0103602091278,-0.999936118072,0.0,0.26667427546,-0.258532638776,0.305853521246,1.0,-0.00742307692308,-0.00975604395605,2.975
-0.642010993283,-0.521024172897,-0.124885841394,-2.63996057499,-0.0671224471682,2.11089656356,-0.889553733254,-0.0331959201005,0.0147562663739,-0.00104940598205,0.00746601241901,-0.00189176903415,-0.00014300472652,-0.0337174516611,0.573803740358,0.818959953176,0.00588298789116,0.0,0.81896846306,-0.573740216965,-0.00967299601998,0.0,-0.00454657715422,0.0103685824755,-0.999935908513,0.0,0.266562185939,-0.258676087482,0.305843479295,1.0,-0.00714307692308,-0.00938804395605,2.989
-0.642651655901,-0.520885631025,-0.124799211059,-2.6398693823,-0.0670941732677,2.11091210973,-0.89020193869,-0.0320822544778,0.00138250800878,0.00645681691578,0.00175017405621,0.00114266604445,-0.00499911632811,-0.0289982019143,0.573753071827,0.818995615219,0.00586018108749,0.0,0.819003756993,-0.573689361964,-0.00970097432243,0.0,-0.00458322012554,0.0103656737159,-0.999935771388,0.0,0.266438168788,-0.258847923753,0.305837350634,1.0,-0.00672307692308,-0.00883604395605,3.01
-0.643034948058,-0.520808128257,-0.124781824273,-2.63985495504,-0.0670879533165,2.110936511,-0.890592059013,-0.0269039022609,0.00274676497656,0.000650905492787,2.48202229479e-05,0.00330728147679,0.00419177037843,-0.0339994460492,0.57373882119,0.819005610508,0.00585849102169,0.0,0.819013566297,-0.573674741421,-0.0097373599121,0.0,-0.0046141729147,0.0103850849673,-0.999935427624,0.0,0.266348776487,-0.25895136268,0.305817873039,1.0,-0.00646307692308,-0.00849432967034,3.023
-0.643505479358,-0.520741392884,-0.124729384773,-2.63981655163,-0.0670887952233,2.11094767392,-0.891039628591,-0.0241448183881,0.00262953741894,0.00174704077645,0.00518431833708,0.00358157802666,-0.00269007967391,-0.0320613362404,0.573722192429,0.819017450661,0.00583166607216,0.0,0.819025052922,-0.57365807116,-0.00975330610207,0.0,-0.00464283497758,0.0103721684701,-0.999935429018,0.0,0.266247366829,-0.259075432077,0.305812961676,1.0,-0.00614307692308,-0.00807375824176,3.039
-0.643983239535,-0.520679921838,-0.124721773987,-2.63977117297,-0.0670874888406,2.11094586546,-0.891508451866,-0.0282858639167,-0.0021570943197,0.000404063084993,0.00266812965065,0.00489176850114,-0.00450777962113,-0.030798202222,0.573727064706,0.81901405374,0.00582939969871,0.0,0.819021560002,-0.573662791427,-0.0097689756767,0.0,-0.00465690832627,0.0103793296095,-0.999935289267,0.0,0.266134162025,-0.259211085942,0.305810991687,1.0,-0.00580307692308,-0.00762690109891,3.056
-0.644546528081,-0.520592359323,-0.124724735077,-2.63970406986,-0.0670851711643,2.11098143448,-0.89202667527,-0.0266440338224,-0.000736595970479,-0.000495416342044,0.00274342393631,-0.00192076163455,0.00774121634776,-0.0219818026686,0.573770559497,0.81898359648,0.00582757678936,0.0,0.818991168296,-0.573706475925,-0.00975154529228,0.0,-0.00464312648627,0.0103680831391,-0.999935470032,0.0,0.266006880315,-0.259381973177,0.305812252524,1.0,-0.00540307692308,-0.00710118681319,3.076
-0.64493516864,-0.52054389804,-0.124733164936,-2.63962298765,-0.0670742218635,2.11097367825,-0.892393448993,-0.023549956538,0.00425301968602,-1.12111536361e-05,0.00160950605307,-0.00164274866111,-0.000530057204129,-0.0270320660882,0.573803088856,0.818960748501,0.00583562636156,0.0,0.818968532274,-0.573739250369,-0.0097243319817,0.0,-0.00461580717289,0.010359245532,-0.99993568811,0.0,0.26592158438,-0.259504845594,0.305830440553,1.0,-0.00512307692308,-0.00673318681319,3.09
-0.645354429483,-0.520539941726,-0.124754706642,-2.6395695773,-0.0670612558357,2.11100498771,-0.89275211452,-0.0217908014902,0.00635917831091,-0.000194231772221,0.00225956841748,0.00010511686111,0.00416881063769,-0.0283480618301,0.573875970939,0.818909576276,0.00585002247066,0.0,0.818917897006,-0.573812931347,-0.00964078230553,0.0,-0.00453819778483,0.0103235001647,-0.999936413031,0.0,0.265826414793,-0.259637632973,0.305855479292,1.0,-0.00480307692308,-0.00631261538462,3.106
-0.645753512067,-0.520433777641,-0.124716436433,-2.63951352097,-0.067050012843,2.11100609693,-0.893104973136,-0.0143535507944,0.00178802627333,-0.000156319720182,0.00588349981612,-0.000180597538243,0.0017093259165,-0.015247423597,0.573894574298,0.818896614125,0.00583950918508,0.0,0.818904612364,-0.57383109504,-0.00968798822763,0.0,-0.00458265703747,0.0103420840025,-0.99993601823,0.0,0.265742860114,-0.25974684757,0.305842874993,1.0,-0.00446307692308,-0.00586575824176,3.123
-0.646117769348,-0.520391708366,-0.124658017618,-2.6394702438,-0.0670413612527,2.11101923761,-0.893536377605,-0.0149226249009,0.0145980456503,0.00228854064184,0.001387363909,-0.000473200432413,-0.00376648479254,-0.0275353691838,0.573804051958,0.818960214202,0.00581587590338,0.0,0.818968034926,-0.573740845919,-0.00967193855243,0.0,-0.00458421556843,0.0103130125491,-0.999936311342,0.0,0.265672819208,-0.25984208924,0.305849581455,1.0,-0.00404307692308,-0.00531375824176,3.144
-0.646354354782,-0.520358464099,-0.124603872905,-2.63943649032,-0.0670310602513,2.11102735272,-0.893771115835,-0.0189730928106,-0.00178456720988,0.000616559797231,0.00136153513717,0.000490328899473,0.00882399052592,-0.0119729759582,0.573773279092,0.818981919141,0.00579544835059,0.0,0.818989570742,-0.573710264607,-0.00966241178146,0.0,-0.00458852068082,0.0102906435755,-0.999936522052,0.0,0.265632352066,-0.259901186398,0.305854673483,1.0,-0.00378307692308,-0.00497204395605,3.157
-0.646695322979,-0.520303724178,-0.124577651848,-2.63942681257,-0.0670132728718,2.11101875768,-0.8941267809,-0.0213469493875,0.00436921661141,0.00164783947629,0.00047142393148,0.000414841057737,-0.000206211187278,-0.0149963575129,0.573755400635,0.818994390175,0.00580310309318,0.0,0.81900185369,-0.57369175662,-0.0097200277932,0.0,-0.0046315449992,0.0103298695131,-0.99993591924,0.0,0.265554313795,-0.259979789756,0.30583697354,1.0,-0.00338307692308,-0.00444632967034,3.177
-0.646901459832,-0.52028248559,-0.124577964461,-2.63942171419,-0.0670052144137,2.11103937659,-0.894292892843,-0.0116700812111,0.00175814491319,-0.000693968219193,-0.000162911752972,-0.000563739994224,-0.000563601953,-0.0170462329819,0.573787672618,0.818971740255,0.00580881369939,0.0,0.818979325991,-0.573724138135,-0.00970689554258,0.0,-0.0046171053953,0.0103271941605,-0.999936013652,0.0,0.26550171394,-0.26004236407,0.305835054387,1.0,-0.00312307692308,-0.00410461538462,3.19
-0.647249071931,-0.520236801561,-0.124577243158,-2.63940832531,-0.0669880946885,2.11102655201,-0.894603434596,-0.0186614740731,0.000152901796407,0.000410710170828,0.00148931972845,0.00201956412098,0.000709490158686,-0.010278731934,0.573825636058,0.818945011101,0.00582710024248,0.0,0.81895259535,-0.57376158439,-0.00974873067888,0.0,-0.00464039742854,0.0103663900346,-0.999935500255,0.0,0.265413040323,-0.260133617909,0.305823236714,1.0,-0.00270307692308,-0.00355261538462,3.211
-0.64746513929,-0.520240375868,-0.124595310643,-2.63939645858,-0.0669752109583,2.11104442381,-0.894777062198,-0.0144320148408,0.000897121927357,-0.00130826957972,0.00237918226987,0.00178679252688,0.00120371200858,-0.0096558080025,0.573879198415,0.818907351091,0.00584490011219,0.0,0.81891528831,-0.573815433564,-0.0097131703409,0.0,-0.00460038127414,0.0103608639486,-0.999935742431,0.0,0.265359680847,-0.260199199344,0.305831070819,1.0,-0.00242307692308,-0.00318461538462,3.225
-0.647720963712,-0.520219650996,-0.12457131396,-2.63934934506,-0.0669630455088,2.11106076986,-0.895008230039,-0.0110185449775,-0.000933061761745,0.000878456281294,0.000554239319955,8.29810683809e-05,0.000586820768,-0.0158755511667,0.573889822058,0.818899957289,0.00583772147633,0.0,0.818908023185,-0.573826546342,-0.00966908359402,0.0,-0.00456826054207,0.0103297444969,-0.999936211653,0.0,0.26531237582,-0.260274543605,0.305846852131,1.0,-0.00202307692308,-0.00265890109891,3.245
-0.647834771983,-0.520200525653,-0.124512752802,-2.63932225853,-0.0669484598499,2.11106013121,-0.895143927403,-0.0100878600626,0.00512925894985,0.0111370894842,0.0010899627332,1.07982093689e-05,0.00103576326466,-0.00412829103312,0.573837929992,0.818936453105,0.00581917348018,0.0,0.818944360402,-0.573774821686,-0.00966102826382,0.0,-0.00457296103743,0.0103096422569,-0.999936397629,0.0,0.265302508176,-0.260296915198,0.305853466855,1.0,-0.00176307692308,-0.00231718681319,3.258
-0.648047062454,-0.520165485443,-0.124401302501,-2.63929425216,-0.0669312742564,2.11106569703,-0.895333227256,-0.0118297143493,0.00137744028551,-9.16199443615e-05,0.000925410282681,0.000604203847276,-0.000350167395325,-0.0104775819508,0.573786513689,0.818972778306,0.00577685059893,0.0,0.818980240513,-0.573723586632,-0.00966223019766,0.0,-0.00459887660719,0.0102753817054,-0.999936631425,0.0,0.265279600252,-0.260334383185,0.305856413796,1.0,-0.00134307692308,-0.00176518681319,3.279
-0.648126222206,-0.520152931299,-0.124388698153,-2.6392931395,-0.0669228412815,2.1110709664,-0.895415623175,-0.00533117301955,0.00103410449837,0.00162148359341,0.000324671999067,0.00126325480498,-0.000186411148976,-0.0104442550054,0.573778619436,0.818978299175,0.0057782574931,0.0,0.818985751328,-0.573715632429,-0.00966742618819,0.0,-0.00460242421594,0.0102794709178,-0.999936573073,0.0,0.265263307474,-0.260352575004,0.305853046951,1.0,-0.00110307692308,-0.00144975824176,3.291
-0.648258203233,-0.520141592277,-0.124398961977,-2.63929811526,-0.0669039386736,2.11106755543,-0.895528028365,-0.00353218882649,0.00285592004072,-0.00030162191761,0.00104550918097,0.00385120070748,-0.000678696275047,-0.0108174692983,0.573809787458,0.818956294216,0.00580197237154,0.0,0.818963914335,-0.57374651585,-0.0096844962959,0.0,-0.00460240637519,0.010308863243,-0.999936270566,0.0,0.265226467331,-0.260385982682,0.305846079459,1.0,-0.000683076923082,-0.000897758241765,3.312
-0.648343832146,-0.520151858136,-0.124407073023,-2.63929505412,-0.0668942530071,2.11107386217,-0.89554887976,-0.00399572024293,0.000133531893976,-0.0010994056206,-0.000990630409035,0.00013920897219,0.000532169216184,-0.00130880320276,0.573872794492,0.818912066654,0.00581289356222,0.0,0.818919899255,-0.573809686765,-0.00966379225393,0.0,-0.00457838960043,0.0103062801043,-0.999936407448,0.0,0.265205191373,-0.260411320807,0.305851613541,1.0,-0.000423076923082,-0.000556043956051,3.325
-0.648408498353,-0.520149738424,-0.124412478939,-2.63928698133,-0.0668790034217,2.11106993385,-0.895572068412,-0.00165456923737,0.000241068831392,-0.0023067064108,0.000487249521579,0.00593262460158,0.00277514626407,0.000291860609163,0.573917460387,0.818880656249,0.00582806872013,0.0,0.818888665132,-0.573854320583,-0.0096602157234,0.0,-0.00456618928868,0.0103169045217,-0.999936353673,0.0,0.265189719568,-0.260429585012,0.305854051612,1.0,-2.30769230821e-05,-3.03296703364e-05,3.345
-0.648409081009,-0.520152582715,-0.124403601383,-2.63928322925,-0.0668695326276,2.11107395084,-0.89558868922,-0.00191700717463,7.09443797122e-05,-0.00511943376496,0.00088220892442,-2.37763324527e-05,-0.000725136966428,-0.0010026825414,0.57390221858,0.81889131922,0.00583075596498,0.0,0.818899406359,-0.573839183319,-0.00964887840553,0.0,-0.00455555423396,0.0103125138699,-0.999936447472,0.0,0.265193906075,-0.260428397226,0.305857368049,1.0,0.0,0.0,3.359
-0.648393199428,-0.520148548588,-0.124388354967,-2.63928360263,-0.0668573344351,2.11107814108,-0.895600624783,0.00106886063017,0.000233695827984,-0.000492993666117,0.000366870599374,-0.00024241049692,-0.00170376716099,-0.00102158661831,0.573873816567,0.818911204748,0.00583337783054,0.0,0.818919319776,-0.573810775954,-0.0096482121329,0.0,-0.004553861638,0.0103141207035,-0.999936438609,0.0,0.265202942864,-0.260420027445,0.305856437716,1.0,0.0,0.0,3.379
-0.648393136478,-0.52014842529,-0.124381725656,-2.63928586104,-0.0668543979269,2.11107501723,-0.895598213904,-0.000306960331353,0.000523359985457,0.00141225829272,-0.000406589248518,-0.000120380613689,-0.000496095979276,0.00180495713142,0.573872186128,0.818912348412,0.00583322459744,0.0,0.818920437463,-0.573809091246,-0.00965353873536,0.0,-0.00455833253299,0.0103170428521,-0.999936388092,0.0,0.265203649695,-0.260417242994,0.305855254263,1.0,0.0,0.0,3.392
-0.648392146408,-0.520135207359,-0.124354015051,-2.63928533907,-0.0668502168281,2.11107746846,-0.895607009933,0.000909915075553,0.00193537275467,0.00167228835708,3.21882652822e-05,-2.63227040372e-05,-0.000458566060925,-0.000649501708755,0.573846390654,0.818930495681,0.00582323608751,0.0,0.818938432509,-0.573783234497,-0.00966387453335,0.0,-0.00457285436587,0.0103146499433,-0.999936346474,0.0,0.265210538901,-0.260410736308,0.305851484996,1.0,0.0,0.0,3.412
-0.648386789614,-0.520142285984,-0.124344338354,-2.6392960796,-0.0668488900163,2.11107501111,-0.895607838449,0.00269463094217,-0.000890670183663,0.00037807656075,-0.00135069943488,-3.80588834023e-05,-0.000183452560814,3.03082504296e-05,0.573834501309,0.81893884177,0.00582112090074,0.0,0.818946728273,-0.573771292525,-0.00966990311368,0.0,-0.00457915535571,0.0103163105684,-0.999936300507,0.0,0.265211458647,-0.260404088796,0.305849223791,1.0,0.0,0.0,3.426
-0.648395300116,-0.520142974426,-0.124346105966,-2.63928360263,-0.0668420526069,2.11107466348,-0.895607288806,0.00047913774443,-0.00516826681857,0.00141712684207,0.0021473572319,0.0024726468081,-0.00010288279504,-0.00415307299157,0.573846654936,0.818930290851,0.00582599755683,0.0,0.818938289487,-0.573783561346,-0.00965658543687,0.0,-0.00456529658999,0.0103127302768,-0.999936400808,0.0,0.265212291617,-0.26040918729,0.305855089437,1.0,0.0,0.0,3.446
-0.648400460096,-0.520150796648,-0.124356375989,-2.63926968653,-0.0668410668591,2.11108050474,-0.895606388566,-0.000594445786902,-0.00126560139459,-0.00159398681373,0.00117132176183,0.000272069649855,-0.000251263283804,0.0017368554857,0.573859921381,0.818920973297,0.0058289817255,0.0,0.81892912956,-0.573797099201,-0.009628946365,0.0,-0.00454078074776,0.0102993876298,-0.999936649956,0.0,0.265213087331,-0.260417206191,0.305864567342,1.0,0.0,0.0,3.459
-0.648401242998,-0.520140495627,-0.12435143718,-2.63927573934,-0.0668379905224,2.11107907859,-0.895617330876,4.99522468622e-05,-0.000314274429178,-0.000577200038616,-0.00146213136506,-0.000219896351257,-0.000451919173211,-0.00130057974454,0.573849176966,0.818928490443,0.00583065497506,0.0,0.818936583834,-0.573786167393,-0.00964638103895,0.0,-0.00455423477406,0.0103107029997,-0.999936472157,0.0,0.265212395913,-0.260414104774,0.30585801068,1.0,0.0,0.0,3.48
-0.648395953618,-0.520140607885,-0.124348922749,-2.63928102873,-0.0668373801708,2.11107790549,-0.89561349075,0.0011487255378,-0.000757230971378,0.000101894936145,-0.000619314443751,8.70764823861e-05,-4.03936070392e-05,0.00147681292706,0.573846222655,0.818930559759,0.00583077514494,0.0,0.818938625496,-0.573783147633,-0.00965267136384,0.0,-0.00455935482907,0.0103143945675,-0.999936410752,0.0,0.265212978065,-0.260410575981,0.305855603467,1.0,0.0,0.0,3.493
-0.648391036136,-0.520135131209,-0.124348892515,-2.63927880231,-0.0668373670071,2.11107706674,-0.895619919816,-0.00187471095019,0.000564744854805,-0.000349374265791,-0.000274044393148,0.000402126086884,0.000327053688138,0.000100400029856,0.573837043539,0.8189369915,0.00583080762871,0.0,0.818945038303,-0.573773926297,-0.00965674075007,0.0,-0.00456278467869,0.0103167051676,-0.999936371271,0.0,0.265214526098,-0.26040962507,0.305854526568,1.0,0.0,0.0,3.514
-0.648398146299,-0.520134492915,-0.124346319558,-2.63927074039,-0.0668378325578,2.11108105945,-0.895620872538,0.000399917470267,0.00191401952384,0.000559904951233,0.000327996550198,-0.00013372883569,0.000377344156657,-0.00144065467161,0.573840438048,0.818934636007,0.00582756460524,0.0,0.818942700726,-0.573777451204,-0.00964553357979,0.0,-0.00455542407137,0.0103076371651,-0.999936498348,0.0,0.265215662495,-0.260413599386,0.305858363764,1.0,0.0,0.0,3.527
-0.648393160534,-0.52014721811,-0.124345736684,-2.63926233987,-0.066831871458,2.11108187328,-0.895614231004,0.00222524220411,-0.000925049898227,-0.000907293808538,0.000220924315872,0.000261320991476,-0.000408140743278,0.00157732268225,0.573844244058,0.818931948267,0.00583048627198,0.0,0.818940144817,-0.573781473886,-0.00962321845239,0.0,-0.00453542335016,0.010297246044,-0.999936696326,0.0,0.265219952291,-0.260414010852,0.305866966044,1.0,0.0,0.0,3.547
-0.648400281312,-0.52013451952,-0.124343265665,-2.63927013424,-0.066832582017,2.1110794493,-0.895613541031,-0.00157758048615,0.00125373196123,0.000643927124948,-0.000401072166268,-1.00108536796e-05,-0.000550467082467,0.000554165582799,0.573848286566,0.818929115372,0.00583051472674,0.0,0.818937208399,-0.573785280229,-0.00964612842241,0.0,-0.00455411957029,0.0103104382289,-0.999936475412,0.0,0.265216125138,-0.260412892732,0.305858586542,1.0,0.0,0.0,3.561
