nelsonifechukwu/NELSON_IML_WORK/CNN-GradCAM/train2dof/data_sample_2022-02-21-15-15-14/robot_state.csv
position_joint1,position_joint2,position_joint3,position_joint4,position_joint5,position_joint6,position_joint7,velocity_joint1,velocity_joint2,velocity_joint3,velocity_joint4,velocity_joint5,velocity_joint6,velocity_joint7,ee_T_00,ee_T_10,ee_T_20,ee_T_30,ee_T_01,ee_T_11,ee_T_21,ee_T_31,ee_T_02,ee_T_12,ee_T_22,ee_T_32,ee_T_03,ee_T_13,ee_T_23,ee_T_33,v_x,v_y,time
0.465075835303,0.547863117376,-0.123953649408,-1.35585343205,0.0794608748268,1.89409314601,0.159168476671,0.00307391720576,0.000947769148255,-0.000843909094871,6.95765108235e-06,2.50970477383e-05,-0.000171491076071,0.00289225571777,0.573778062744,0.818997014654,0.00183619253839,0.0,0.818952527918,-0.573720109955,-0.0119473575196,0.0,-0.00873155766608,0.00835904711114,-0.999926940447,0.0,0.661662355969,0.260901707104,0.303144745751,1.0,0.0,0.0,0.0
0.465071224545,0.547861160796,-0.123951239998,-1.35585335897,0.0794605044751,1.8940923322,0.159166828709,-0.00555829184435,-0.000337859458022,0.000956378756247,-0.000925958393344,-0.000150803131689,-0.000173425240902,0.000968409549294,0.573778694782,0.818996568416,0.00183772646186,0.0,0.818952091722,-0.573720725858,-0.0119476812424,0.0,-0.00873093627604,0.00836049584436,-0.999926933761,0.0,0.661662932859,0.260899970123,0.303146015454,1.0,-4e-05,-5.25714285714e-05,0.003
0.465075046517,0.54786232225,-0.123950849339,-1.35585431015,0.0794601600599,1.8940923322,0.159162144219,0.000947754855957,0.000169818257089,0.00128352281825,-0.00118276755993,-2.21236335434e-05,-0.000221146470108,-0.00112833647695,0.573771417676,0.819001670749,0.00183588358845,0.0,0.818957169459,-0.573713456935,-0.0119486746173,0.0,-0.0087328814898,0.00835947894746,-0.999926925276,0.0,0.66166161606,0.260902540551,0.303144726432,1.0,-0.00034,-0.000446857142857,0.018
0.465075461279,0.547851700629,-0.123954092568,-1.35586226216,0.079460517402,1.89409080633,0.159162856783,0.00116281785809,-0.00224238133514,0.00458669517747,-0.00148180855214,-0.000293204957466,-0.000330649760894,-0.000895912672243,0.57377442712,0.818999560268,0.00183683592551,0.0,0.818955074783,-0.573716465205,-0.0119478006794,0.0,-0.00873158859843,0.00835978954478,-0.99992693397,0.0,0.661660386982,0.260900088414,0.303148441798,1.0,-0.00064,-0.000841142857143,0.033
0.465069458678,0.547815989024,-0.123953725575,-1.35589368304,0.0794605127442,1.89409560956,0.1591660007,-0.00470949420485,-0.00184421365718,0.000267931901185,-0.00538418801976,-0.000242552083905,0.00148964855782,0.000366490697309,0.573783346648,0.818993289982,0.00184634078323,0.0,0.818948901004,-0.573725316988,-0.0119459236543,0.0,-0.00872450683814,0.00836659189127,-0.999926938891,0.0,0.661656570592,0.26089339654,0.303159190837,1.0,-0.001,-0.00131428571429,0.051
0.465076879442,0.547716294789,-0.123949047774,-1.3560144836,0.0794577672679,1.89412369649,0.15915807542,0.000844764796772,-0.00569497877373,-0.00092249162168,-0.0100130408044,0.000321776866734,-0.000345062342981,-0.00139446931237,0.57378236622,0.818993960387,0.00185363568373,0.0,0.818949578069,-0.573724220826,-0.0119521512505,0.0,-0.00872543199102,0.00837612905342,-0.999926850974,0.0,0.661632851621,0.260884913968,0.30317527796,1.0,-0.00134,-0.00176114285714,0.068
0.465071246504,0.547580065497,-0.123951587036,-1.35619917666,0.079454290774,1.89415710999,0.159160791186,0.000490252354156,-0.00558768200798,0.000910771741492,-0.0132552355821,-0.000545953624739,-1.66102936896e-05,-0.00499113488725,0.573786013308,0.818991428878,0.00184316511947,0.0,0.818946776705,-0.573727784303,-0.0119730256825,0.0,-0.00874849880731,0.00837957013981,-0.999926620594,0.0,0.661601135991,0.26086739446,0.303179011713,1.0,-0.00166,-0.00218171428571,0.084
0.465052334326,0.547413272817,-0.123951758006,-1.35642854756,0.0794502116327,1.89428005206,0.15914873413,-0.00368830673664,-0.0059256066308,0.00124927335427,-0.00975041985863,-0.00039388268424,0.00399192694266,-0.000903222048308,0.573808885985,0.818975262572,0.00190487826428,0.0,0.818931407234,-0.573750384584,-0.0119412451905,0.0,-0.00868682702696,0.00841211919699,-0.999926884971,0.0,0.66158596436,0.260835875461,0.30320583298,1.0,-0.002,-0.00262857142857,0.101
0.465030024576,0.547218015641,-0.123947358287,-1.35665143196,0.0794455794037,1.8943985839,0.159137917278,-0.00125989608298,-0.0131387586259,0.000666812346437,-0.0187941069989,-7.38226799107e-05,0.00593571160804,0.00123602512747,0.573826635628,0.818962628755,0.00198792541205,0.0,0.818919804049,-0.573767735904,-0.0119032211351,0.0,-0.00860785153643,0.00845849967831,-0.999927176686,0.0,0.661568728632,0.260807087927,0.303248194343,1.0,-0.00234,-0.00307542857143,0.118
0.465004112631,0.54702096272,-0.123948466516,-1.35692331237,0.0794405484368,1.89453016102,0.159116504635,-0.00252828546462,-0.010712925008,0.000533495349904,-0.019320069376,-0.000188026092339,0.0140883465003,-0.00129364554411,0.573845154061,0.818949521665,0.00204132941831,0.0,0.818907337486,-0.573785979229,-0.0118814794302,0.0,-0.00855921048812,0.00848995249085,-0.999927327671,0.0,0.661545113144,0.260767750292,0.303269815323,1.0,-0.00266,-0.003496,0.134
0.464962336061,0.54677253167,-0.123946986547,-1.35731496038,0.0794329530899,1.89466914421,0.159081836689,-0.00148691189817,-0.0102548799208,0.00133043440587,-0.0229363173584,9.25274052536e-05,0.008612406358,-0.00424690529683,0.573869806881,0.818932233174,0.00204673380677,0.0,0.818889957431,-0.573810446317,-0.0118977399972,0.0,-0.0085691705296,0.00850396724217,-0.999927123273,0.0,0.661500513995,0.26070594975,0.303271362935,1.0,-0.00302,-0.00396914285714,0.152
0.464926452802,0.546480552095,-0.123951998143,-1.35774269145,0.079414316516,1.8948243508,0.15895138373,-0.00346635899873,-0.0172245382744,-0.00014223553168,-0.028182216834,-2.60273694787e-06,0.00386422807987,-0.00972219907122,0.573814794751,0.818970728591,0.00206735036743,0.0,0.818928669015,-0.573755304942,-0.0118925194001,0.0,-0.00855363672139,0.00851728004744,-0.999927142966,0.0,0.661452567952,0.260639897206,0.303288163949,1.0,-0.00336,-0.004416,0.169
0.46487961256,0.546226189401,-0.123952028384,-1.3581632608,0.0793942350779,1.89497560711,0.158933253803,-0.000278470772674,-0.0166402884331,-0.00035289921574,-0.0256591954261,-0.000390864536225,0.0140469743189,0.000335803752028,0.573856512295,0.818941524392,0.00205665362714,0.0,0.81889927128,-0.573797007009,-0.0119048370921,0.0,-0.00856942872823,0.00851602440954,-0.999927018447,0.0,0.661406239996,0.260569329875,0.303281209769,1.0,-0.00366,-0.00481028571429,0.184
0.464823501782,0.545893070869,-0.123947261634,-1.35872131007,0.0793335222774,1.8951581605,0.158881252551,-0.00393784720125,-0.023290928192,0.00139094365764,-0.0293640894486,-0.00478555456242,0.0178957838491,-0.00807296118488,0.573869913921,0.818932297979,0.00199000630218,0.0,0.818889415483,-0.573810916856,-0.0119123384711,0.0,-0.00861367721759,0.00846589074523,-0.99992706397,0.0,0.661335949481,0.260466703113,0.303258841272,1.0,-0.00402,-0.00528342857143,0.202
0.46475586776,0.545517098997,-0.123960483104,-1.35938712486,0.0792724297051,1.89538445197,0.158763671085,-0.00259740933993,-0.0194224424373,-0.0026235376214,-0.0411511673127,-0.00736831324188,0.0134426966662,-0.00750902452643,0.573860724544,0.818938864117,0.00193715408965,0.0,0.818895458888,-0.573802110199,-0.0119211008207,0.0,-0.00865127622458,0.00842754049778,-0.999927063331,0.0,0.661266360062,0.260354647037,0.303236312045,1.0,-0.00436,-0.00573028571429,0.219
0.464703958667,0.545134110476,-0.123960109404,-1.3600400575,0.0792587884042,1.89558415672,0.158710129352,-0.000646124338544,-0.0245983828495,-0.000654838922657,-0.0421014320819,0.000247737110265,0.00919606642848,-0.00845129190834,0.57389170932,0.818917257266,0.00189172591964,0.0,0.818872958602,-0.573832990625,-0.0119801270077,0.0,-0.00872536599925,0.0084245409655,-0.999926444844,0.0,0.661180402014,0.260259403176,0.303213968675,1.0,-0.00468,-0.00615085714286,0.235
0.464625603693,0.544701670501,-0.12395815075,-1.36075364184,0.0792316972162,1.89583711226,0.15861196483,-0.00680782369963,-0.0243049986703,-0.000764137954725,-0.0390790131665,-0.00380187131783,0.0119045635997,-0.00523552240599,0.573906677704,0.818906802275,0.00187653285643,0.0,0.818862124375,-0.573847847808,-0.0120089854673,0.0,-0.00875756415682,0.00842882091431,-0.999926127295,0.0,0.661099622347,0.260142490525,0.303202272027,1.0,-0.00502,-0.00659771428571,0.252
0.464566466269,0.544227619721,-0.12395907393,-1.36152148565,0.079197835593,1.89612952289,0.158521475476,-0.00218462816693,-0.0272665406664,0.00147966356207,-0.0428971957435,-0.000128300009571,0.020939179168,-0.00409973440125,0.573915525336,0.818900591992,0.00188072204181,0.0,0.818855861653,-0.573856573154,-0.0120190759412,0.0,-0.00876333241876,0.00843813701119,-0.999925998186,0.0,0.66101127847,0.260032310163,0.30319766306,1.0,-0.00536,-0.00704457142857,0.269
0.464496252224,0.543741594486,-0.123961816389,-1.3623133188,0.0791537063845,1.89639333234,0.158409284374,-0.00268260634945,-0.0337729912828,-0.00377265080183,-0.0520688461591,-0.00216027428027,0.0149218325232,-0.00411518442686,0.573915246116,0.818900865108,0.0018467004189,0.0,0.818855619629,-0.573856373681,-0.0120450607603,0.0,-0.00880413937822,0.00842518723751,-0.999925748918,0.0,0.660915782834,0.259907461402,0.303187617775,1.0,-0.00568,-0.00746514285714,0.285
0.464423425308,0.54319994273,-0.123964772624,-1.36316607114,0.0790962203496,1.89668815559,0.158304343246,-0.00648659507216,-0.0336734864941,0.000385506737454,-0.0507790214689,-0.00220309195788,0.0172061393541,-0.0122841325941,0.573922933172,0.818895489511,0.00184145026904,0.0,0.818850217997,-0.573864123404,-0.0120430584745,0.0,-0.00880543355217,0.00841982150596,-0.999925782719,0.0,0.660812360036,0.259767208527,0.303197552723,1.0,-0.00604,-0.00793828571429,0.303
0.464339602471,0.542585839484,-0.123960433301,-1.36411547176,0.0790519350939,1.8970327823,0.158181928678,-0.00793651229984,-0.0353944910842,0.00143247754751,-0.0500840284348,-0.00391721045085,0.0205931754948,-0.008246650852,0.57392927916,0.818891033089,0.00184535895807,0.0,0.818845642958,-0.573870289231,-0.0120603087795,0.0,-0.00881725179624,0.00843299082798,-0.999925567598,0.0,0.66070465174,0.259632938715,0.303202765672,1.0,-0.00638,-0.00838514285714,0.32
0.464274335491,0.542062506751,-0.123967978686,-1.36494093765,0.0790006574551,1.89734746819,0.158061761342,-0.00801046235194,-0.026403348635,-3.76257950668e-05,-0.0558325563519,-0.00577859921774,0.0199380733914,-0.0128959320328,0.573921847141,0.818896225314,0.0018526849291,0.0,0.818850986451,-0.573862879233,-0.0120500924454,0.0,-0.00880475762937,0.00843304655854,-0.999925677222,0.0,0.660612394244,0.25950739407,0.303207477265,1.0,-0.00668,-0.00877942857143,0.335
0.464192524347,0.541369822007,-0.123966138034,-1.36598746526,0.078936097083,1.8977304674,0.157933734022,-0.00380357277969,-0.0432265435248,0.000941802343049,-0.0588730890925,-0.00450363216306,0.00913688581189,-0.0113924436087,0.573923465898,0.818895034273,0.00187750816656,0.0,0.818850109374,-0.573864379789,-0.0120382261368,0.0,-0.00878077760252,0.0084465808581,-0.999925773853,0.0,0.6604899685,0.259354843278,0.303232240615,1.0,-0.00704,-0.00925257142857,0.353
0.464115900814,0.540691815184,-0.123973960034,-1.36705454666,0.078872770269,1.89811929492,0.157788750179,-0.00359178539746,-0.0380373215589,-0.00103964515786,-0.0643552591582,-0.00422990621222,0.0247745899281,-0.00333041581695,0.573915154604,0.8189008632,0.00187575767282,0.0,0.818855924095,-0.573856085455,-0.0120380920951,0.0,-0.0087817581286,0.00844498136049,-0.999925778753,0.0,0.660364172802,0.259198080906,0.303237573088,1.0,-0.00738,-0.00969942857143,0.37
0.464015718734,0.539955359016,-0.123969459536,-1.36815735141,0.0788086523807,1.89853773143,0.157654449889,-0.00179938439474,-0.0397237077965,-0.000298050198729,-0.06128769644,-0.000530533671555,0.023632505995,-0.0133703542554,0.573927978589,0.818891767212,0.00192246863053,0.0,0.8188474002,-0.573868669546,-0.012017994856,0.0,-0.0087383607713,0.00847183504358,-0.999925931788,0.0,0.660240705836,0.259031330033,0.303269259407,1.0,-0.00772,-0.0101462857143,0.387
0.463909415383,0.539206916495,-0.123969349225,-1.3693270699,0.0787475868729,1.89898488094,0.157526787683,-0.00677019433534,-0.0466794189527,0.00191539597675,-0.0687885015169,-0.00278607239663,0.0277509978748,-0.00651325009962,0.573962026493,0.818867840316,0.00194913852145,0.0,0.818823715811,-0.573902496198,-0.0120164131656,0.0,-0.0087214067485,0.00849312921754,-0.999925899165,0.0,0.660103491286,0.258839148685,0.303277676454,1.0,-0.00808,-0.0106194285714,0.405
0.463800181622,0.538389099904,-0.123975094218,-1.37059531951,0.0786735868069,1.89946802545,0.157349564016,-0.00536842994992,-0.0481427917912,0.000687978787323,-0.0702717406737,-0.0104808184835,0.0278172136431,-0.00991211057005,0.573957498544,0.818870950593,0.00197561156004,0.0,0.818827210821,-0.573897894264,-0.0119980281549,0.0,-0.00869120473888,0.00850420646294,-0.999926067983,0.0,0.659968062237,0.258658227331,0.30329621105,1.0,-0.00842,-0.0110662857143,0.422
0.463701201286,0.537747273395,-0.123979697385,-1.37161209603,0.0786128307813,1.899858321,0.15723116304,-0.00962455694016,-0.0507993171867,-0.000280945461767,-0.0776402783263,-0.00160697150686,0.0265479415986,-0.00589181958194,0.573984728036,0.818851837971,0.00198653829704,0.0,0.818808267885,-0.573925100635,-0.0119894205351,0.0,-0.00867760192003,0.00850850208225,-0.999926149582,0.0,0.659857313544,0.258494622903,0.30329951229,1.0,-0.0087,-0.0114342857143,0.436
0.463576176259,0.536819666761,-0.1239836892,-1.37305707325,0.0785324815373,1.90039934065,0.157055083413,-0.00867082277075,-0.0539428149853,1.01246336758e-05,-0.0747862368689,-0.000423508772686,0.0326497044109,-0.00726708897149,0.574003795438,0.81883841805,0.00200869364938,0.0,0.81879508835,-0.573944024395,-0.0119836161564,0.0,-0.00865993430973,0.00852351375504,-0.9999261749,0.0,0.659692337457,0.258274185275,0.303313713672,1.0,-0.00908,-0.0119337142857,0.455
0.4634588021,0.536007500179,-0.123994569137,-1.37432388031,0.0784539323606,1.90087585076,0.15689329648,-0.0119120048831,-0.0540458341991,-0.0015388062221,-0.0899564855453,-0.00712782491118,0.0329094194743,-0.0195728014027,0.574023697818,0.818824431444,0.00202279878482,0.0,0.818781356375,-0.57396393474,-0.0119682484491,0.0,-0.0086390470104,0.00852645232449,-0.999926330525,0.0,0.659551953866,0.258070364559,0.303325672755,1.0,-0.0094,-0.0123542857143,0.471
0.463337277634,0.535105661683,-0.123993842322,-1.37574247653,0.0783765875274,1.90137794812,0.156719287071,-0.0112556248931,-0.0592076467193,-0.000633807905067,-0.0874296304381,-0.00846073401663,0.0308744283991,-0.0174569410795,0.57403717996,0.818814998263,0.00201532752311,0.0,0.818771696516,-0.573977319123,-0.0119872022532,0.0,-0.00865871541035,0.00853135716721,-0.999926118567,0.0,0.659381818226,0.257855656397,0.303330361827,1.0,-0.00974,-0.0128011428571,0.488
0.463228304317,0.53426934944,-0.12399925042,-1.37713148484,0.0782926058754,1.90188494575,0.15655871224,-0.00492765195734,-0.0547068174617,-0.000123134919505,-0.082403247671,-0.00820591643838,0.0323868131964,-0.0108610447428,0.574052337891,0.818804473996,0.00197322763651,0.0,0.818760616936,-0.573992647614,-0.012009976722,0.0,-0.00870137204549,0.00851012013847,-0.999925929247,0.0,0.659215994335,0.257647585048,0.303303367676,1.0,-0.01006,-0.0132217142857,0.504
0.463082612317,0.533240915849,-0.12399742662,-1.37877827588,0.0782083906667,1.90250872779,0.156347346311,-0.00530641945756,-0.0554927361235,0.001207712689,-0.086229919899,-0.000602194530163,0.0357087090846,-0.00857888386666,0.57406491114,0.818795630746,0.00198488540739,0.0,0.818751773346,-0.574005020302,-0.0120215312072,0.0,-0.00870401061798,0.00852643185168,-0.999925767324,0.0,0.659025992693,0.257399328034,0.303298904708,1.0,-0.01044,-0.0137211428571,0.523
0.462981367028,0.532448268115,-0.123997057696,-1.38006260634,0.0781299822902,1.90299284174,0.15618459605,-0.00872697440779,-0.0598643600468,0.00070016031179,-0.0911181221676,-0.00213716556602,0.040979276512,-0.0134233360677,0.574063450369,0.818796675239,0.00197647888486,0.0,0.818752704807,-0.574003592425,-0.0120262693715,0.0,-0.00871273114376,0.00852225320325,-0.999925727,0.0,0.658874515478,0.257210941975,0.303288425949,1.0,-0.01072,-0.0140891428571,0.537
0.4628313216,0.531408379327,-0.123995012032,-1.38173690052,0.0780257764498,1.90360141581,0.155973389807,-0.0121855864243,-0.0550759275192,0.000940248596309,-0.0986334406228,-0.0128653313969,0.0347914178062,-0.00946299299449,0.574075122178,0.818788549763,0.00195237662855,0.0,0.818744239119,-0.574015341389,-0.0120418296675,0.0,-0.00873918636943,0.00851157582906,-0.999925587081,0.0,0.658676682058,0.256952640771,0.303277170357,1.0,-0.01108,-0.0145622857143,0.555
0.46269850158,0.530369811443,-0.124000672789,-1.38339129531,0.0779258995653,1.90417461854,0.155756290693,-0.0115981175692,-0.0628363725047,-0.000682309039724,-0.102055662663,-0.00740322960031,0.0375626645185,-0.0161750517907,0.574072974615,0.818790142535,0.00191551683612,0.0,0.818745293149,-0.574013298307,-0.0120675272445,0.0,-0.00878140928485,0.00849612523175,-0.999925348567,0.0,0.658473003975,0.256701893652,0.303271394554,1.0,-0.01142,-0.0150091428571,0.572
0.462571589911,0.529378959441,-0.124000625823,-1.38492954794,0.0778396540183,1.90474954454,0.155543368586,-0.00448363637291,-0.0661591725866,0.00190884933933,-0.0964403632669,-0.00347440500644,0.0375671189763,-0.0157027385048,0.574062855384,0.818797173911,0.00194241214317,0.0,0.818752599413,-0.574002989157,-0.0120621845084,0.0,-0.00876170090025,0.00851497101201,-0.999925361148,0.0,0.65829155502,0.256473839118,0.303287017285,1.0,-0.01174,-0.0154297142857,0.588
0.46243110798,0.528281617578,-0.124005265303,-1.38663627517,0.0777235215874,1.9054060487,0.155312019126,-0.00539566810619,-0.0649925192988,-0.000368501873294,-0.105400110174,-0.00645772276972,0.0394837733755,-0.011125108383,0.574053025157,0.818803992592,0.00197304984234,0.0,0.818759971467,-0.573993177406,-0.0120286456018,0.0,-0.00871675372052,0.00852069867869,-0.999925705189,0.0,0.658095526036,0.256216262322,0.303304394129,1.0,-0.01208,-0.0158765714286,0.605
0.462278757624,0.527065296752,-0.124007064409,-1.38850369985,0.0776069305259,1.90611990808,0.155044570154,-0.00969887313838,-0.0718463344234,-0.0020933493858,-0.109121639635,-0.00459007367582,0.044665594604,-0.0118649160589,0.574037141308,0.818814976679,0.00203501008556,0.0,0.818771817238,-0.573977084685,-0.011990181585,0.0,-0.00864985763528,0.00854918306495,-0.999926042981,0.0,0.657870429749,0.255922259416,0.303340230647,1.0,-0.01246,-0.016376,0.624
0.462134383388,0.525959407478,-0.124004432859,-1.39020780547,0.0774994743454,1.90675454179,0.154825822665,-0.0120031690859,-0.0766212673303,0.00228335536528,-0.111300942836,-0.00550083040303,0.0387163291343,-0.00929202465604,0.57402982616,0.818820061099,0.00205258918979,0.0,0.818777135712,-0.573969701396,-0.0119804347047,0.0,-0.00863186246261,0.00855790471463,-0.99992612388,0.0,0.657676558662,0.255683361536,0.303355568949,1.0,-0.01276,-0.0167702857143,0.639
0.461980594171,0.524803056519,-0.124015488266,-1.39203864044,0.0773869758412,1.90740414268,0.154569824559,-0.0112319517215,-0.0658132294017,-0.000609793823798,-0.107379370125,-0.00305082704451,0.0446852860991,-0.0167782456345,0.574021957302,0.818825637576,0.00202846838844,0.0,0.818782393376,-0.573961930695,-0.011993386181,0.0,-0.00865639511621,0.00854550573974,-0.999926017841,0.0,0.65745461158,0.255399577782,0.303354164209,1.0,-0.0131,-0.0172171428571,0.656
0.461822035416,0.523600064379,-0.124021883554,-1.39396440785,0.0772568837039,1.90810188043,0.154310234186,-0.0115899082384,-0.0738161269577,4.36890704524e-05,-0.112535222653,-0.00724129306253,0.046638157041,-0.028845809658,0.574011903613,0.818832760938,0.00199775523365,0.0,0.818789211063,-0.573952101576,-0.011998326748,0.0,-0.00867817428469,0.00852308690431,-0.999926020404,0.0,0.657221693893,0.255105182531,0.303344077633,1.0,-0.01344,-0.017664,0.673
0.461673946082,0.522445278994,-0.124021900028,-1.39578758006,0.0771523381061,1.90880756661,0.154067945356,-0.00790129170627,-0.0689940323707,-0.00111688222712,-0.111992210117,-0.00247052562712,0.0422881812314,-0.0160971225354,0.574004466356,0.818837893231,0.00203079126032,0.0,0.818794733582,-0.57394448573,-0.0119857606555,0.0,-0.00864900007842,0.00854284581412,-0.999926104561,0.0,0.657007128227,0.254837576765,0.303349134068,1.0,-0.01376,-0.0180845714286,0.689
0.461500509814,0.52120619353,-0.124019803601,-1.39777833252,0.0770288106679,1.90957598473,0.15379383134,-0.0124086779621,-0.0750690252889,0.000554445048989,-0.122283344785,-0.00917942239508,0.0509085199613,-0.0172861619054,0.573993791732,0.818845349596,0.00204142101808,0.0,0.818802350673,-0.573933789674,-0.0119775833935,0.0,-0.00863631423573,0.00854674338742,-0.999926180902,0.0,0.656774197228,0.254537003989,0.303338721238,1.0,-0.0141,-0.0185314285714,0.706
0.461302268653,0.519677849426,-0.124030415874,-1.40018437489,0.0768753580314,1.91044950091,0.153471065708,-0.0084604351239,-0.0804833742199,0.004318070202,-0.118554798889,-0.0119172404696,0.0441517179199,-0.0265810918242,0.573979386304,0.818855474234,0.00203059512445,0.0,0.818812365784,-0.573919462736,-0.0119794337579,0.0,-0.00864419327553,0.00853878883258,-0.999926180779,0.0,0.656495262195,0.254189820198,0.303340107568,1.0,-0.01448,-0.0190308571429,0.725
0.461170290815,0.518630144312,-0.124030904226,-1.4017795277,0.0767756594521,1.91100745739,0.153253889464,-0.0102020403192,-0.0862105602959,0.00110331225218,-0.122368642703,-0.0125359565299,0.0361761908814,-0.0146656186971,0.573973999526,0.818859225398,0.00204052676793,0.0,0.818816223096,-0.573914011885,-0.0119769218884,0.0,-0.00863649235567,0.00854542270539,-0.999926190651,0.0,0.65628270496,0.253928952445,0.303367425166,1.0,-0.01476,-0.0193988571429,0.739
0.460959316087,0.517037114739,-0.124035074334,-1.40428058268,0.0766129093888,1.91191976149,0.152907016318,-0.0075902886451,-0.0871471178425,0.000743129770865,-0.125560148671,-0.00372317622663,0.0409866964703,-0.0200848273801,0.573954029625,0.818873230647,0.00203737792498,0.0,0.818830239132,-0.573894108953,-0.0119723888206,0.0,-0.0086347957698,0.00854003188341,-0.999926251359,0.0,0.655977894628,0.253547819121,0.303373983367,1.0,-0.01516,-0.0199245714286,0.759
0.460803136226,0.515934151894,-0.124041063391,-1.40606557525,0.076494648017,1.91259748686,0.152666965217,-0.00627837666067,-0.0790235282101,-0.000706485884174,-0.127094051072,-0.00399137264233,0.0487704926111,-0.0173575580757,0.573952039028,0.81887465697,0.002024838076,0.0,0.818831605784,-0.573892273675,-0.0119668912997,0.0,-0.00863751137965,0.00852658723875,-0.999926342641,0.0,0.655766328041,0.253271413536,0.303356934679,1.0,-0.01544,-0.0202925714286,0.773
0.460627062493,0.514626352753,-0.124047347829,-1.40815404178,0.0763701464387,1.91337205526,0.152371588402,-0.0141459517057,-0.0830776350626,0.000162078190427,-0.131929971436,-0.00691149581139,0.0458295734129,-0.0229673337692,0.573935279368,0.818886418968,0.00201862031626,0.0,0.818843252077,-0.573875507992,-0.0119740033707,0.0,-0.00864707846455,0.00852540073457,-0.99992627007,0.0,0.655512270188,0.25295407123,0.303347163827,1.0,-0.01576,-0.0207131428571,0.789
0.46042143546,0.513142204605,-0.124053083222,-1.41056373801,0.0762237773303,1.91420215369,0.152047443313,-0.010943518921,-0.0819953292883,-0.00147507550004,-0.135142524542,-0.0116499047573,0.0453608493016,-0.0218075456164,0.573928983369,0.818891028457,0.00193712731539,0.0,0.818846676411,-0.573869439957,-0.012030515979,0.0,-0.00874019171109,0.00849103554799,-0.999925752926,0.0,0.655205238608,0.252582249924,0.303312491361,1.0,-0.01612,-0.0211862857143,0.807
0.46023049433,0.511717475777,-0.124048562734,-1.41285833056,0.0760922571325,1.91503299439,0.151716683549,-0.00674240720148,-0.0841172152526,0.00217829251682,-0.136893327898,-0.00823861147519,0.0545179113492,-0.0183945753186,0.573895871717,0.818914299713,0.00190920222987,0.0,0.818869403003,-0.573836279139,-0.0120653417153,0.0,-0.0087850804979,0.00848780050791,-0.999925387018,0.0,0.654916410731,0.252241377867,0.303290241123,1.0,-0.01646,-0.0216331428571,0.824
0.460033813423,0.510320678647,-0.124054240929,-1.41503880849,0.0759584879645,1.91586799301,0.151417250617,-0.011374046854,-0.0869432168944,0.00156612488394,-0.131576085163,-0.0114557048661,0.0449466305397,-0.0180498824468,0.573893608272,0.818915790585,0.00194967074243,0.0,0.818871458253,-0.573833875156,-0.0120401612893,0.0,-0.00874125937994,0.00850646510629,-0.999925612451,0.0,0.654657917946,0.251903915363,0.303302903779,1.0,-0.01678,-0.0220537142857,0.84
0.459834830546,0.508811685676,-0.124063410935,-1.41741074436,0.0758037196273,1.91672607508,0.151073609646,-0.00824696031147,-0.0954280596232,4.66406356921e-08,-0.137014432708,-0.0108286465156,0.0540381535842,-0.0214738281523,0.573863018605,0.818937253365,0.00193851244813,0.0,0.818892830987,-0.573803391569,-0.0120393556058,0.0,-0.0087473202078,0.00849653848126,-0.999925643847,0.0,0.654362862981,0.251539990904,0.303304595921,1.0,-0.01712,-0.0225005714286,0.857
0.459659936724,0.507575945709,-0.124061337579,-1.41938310169,0.0756807312693,1.91742593795,0.1508060124,-0.0134866515165,-0.0954581153804,0.00140850566898,-0.145229618878,-0.00730087951895,0.0542292563346,-0.0163230520993,0.573854472427,0.818943316465,0.00190677597423,0.0,0.818898402997,-0.573794910047,-0.0120645627657,0.0,-0.00878626385724,0.0084849224622,-0.999925401047,0.0,0.654113400509,0.251236683263,0.303290837867,1.0,-0.0174,-0.0228685714286,0.871
0.459374064854,0.505523561693,-0.124080080941,-1.42255609834,0.0754806958172,1.91862309343,0.150375454792,-0.0111143118981,-0.101145345656,-0.000919103031067,-0.147944534346,-0.0130585790436,0.0519111354041,-0.0255718592666,0.573859344464,0.818939768717,0.00196338635027,0.0,0.818895716273,-0.573799654937,-0.0120211798666,0.0,-0.00871819970173,0.00850643884486,-0.999925813994,0.0,0.653732875313,0.250738241914,0.303319762444,1.0,-0.01784,-0.0234468571429,0.893
0.459195822337,0.504187287256,-0.124081888832,-1.42459164803,0.0753571436172,1.91940226182,0.150089788319,-0.0124537655439,-0.0948190025007,-0.00121083522631,-0.145910905245,-0.000768422801528,0.0583827622843,-0.0239639812531,0.573844211027,0.8189502079,0.0020310964854,0.0,0.818907042259,-0.573784239306,-0.0119853979199,0.0,-0.0086501995096,0.00854119487307,-0.999926108289,0.0,0.653486739833,0.250429657243,0.303352139799,1.0,-0.01812,-0.0238148571429,0.907
0.45890918463,0.502084971544,-0.124085689732,-1.42767136359,0.0751486075269,1.9205531113,0.149662046635,-0.0137627031249,-0.102809009556,-0.000183247632561,-0.152500100274,-0.010201585634,0.0518215544574,-0.0245887001998,0.573832532685,0.818958035932,0.0021694965348,0.0,0.818916851332,-0.573772170618,-0.0118925913957,0.0,-0.00849490010883,0.00860115871102,-0.999926925701,0.0,0.653115143002,0.249946960303,0.303454011552,1.0,-0.01854,-0.0243668571429,0.928
0.458749388986,0.500896602731,-0.124081570715,-1.42948848995,0.0750376104383,1.92118526253,0.149408376016,-0.009605973549,-0.0953138079282,0.000276152239733,-0.150902178572,-0.00484444311919,0.0528715166842,-0.0260866130424,0.573815257666,0.818970122881,0.00217595938159,0.0,0.818928907899,-0.573754755731,-0.0119025621153,0.0,-0.00849953935716,0.00861199359462,-0.999926793019,0.0,0.65287993634,0.249670171611,0.30347315442,1.0,-0.01878,-0.0246822857143,0.94
0.458440892866,0.498770602326,-0.12408889922,-1.43272054544,0.0748284609945,1.9223707775,0.148954185736,-0.018116127896,-0.100488872232,0.00107076027915,-0.153098498296,-0.00655372510765,0.0531491294249,-0.0205585221357,0.573808914174,0.818974401149,0.0022376724866,0.0,0.818934050739,-0.573748229095,-0.0118632647604,0.0,-0.00843201186871,0.00863991960964,-0.999927123827,0.0,0.652482706299,0.249155919542,0.303520695807,1.0,-0.0192,-0.0252342857143,0.961
0.458229781678,0.497404466495,-0.12408837854,-1.43490711469,0.0746997168029,1.9231752116,0.148625086868,-0.0174087854694,-0.099710962891,0.000394239109188,-0.156742472138,-0.00587502088052,0.0610732475274,-0.0250313870192,0.573788162083,0.81898897041,0.00222672419604,0.0,0.818948365905,-0.573727408811,-0.0118819721536,0.0,-0.0084538341999,0.00864147348075,-0.999926926142,0.0,0.652210192241,0.248810999979,0.303502177722,1.0,-0.01948,-0.0256022857143,0.975
0.457982909949,0.495823492398,-0.124084322413,-1.43744399621,0.0745435867839,1.92405491791,0.14825077645,-0.0154322790219,-0.0983471684486,0.00212597250181,-0.162550406893,-0.0138648814726,0.0545999212735,-0.0208436316695,0.573766603292,0.81900424117,0.00216443831057,0.0,0.818962655334,-0.573705930795,-0.0119340286663,0.0,-0.00853243327207,0.00862010720133,-0.999926442962,0.0,0.651882188805,0.248407033181,0.303472586216,1.0,-0.0198,-0.0260228571429,0.991
0.457699342735,0.494143543443,-0.124089311884,-1.44018933797,0.074370557513,1.92502523883,0.147867443638,-0.0145253830641,-0.102199707921,0.000115595848474,-0.164433682774,-0.0100676151765,0.0555601085227,-0.0263628691475,0.573779737322,0.81899525829,0.00208010569104,0.0,0.818952487978,-0.573719326307,-0.0119876585328,0.0,-0.00862460471102,0.00858194852409,-0.999925980437,0.0,0.651535198802,0.247953990616,0.303420331641,1.0,-0.021744,-0.0285778285714,1.008
0.457402085368,0.491999050132,-0.124149087691,-1.44353096622,0.0741654321383,1.92627481434,0.147393680367,-0.016387064973,-0.127996629981,-0.00261048791692,-0.200741795785,-0.0132624792958,0.0741370614316,-0.0327691595384,0.573790490346,0.818987645879,0.00211092072975,0.0,0.818945495392,-0.573730167686,-0.0119464289474,0.0,-0.00857304387367,0.00858364160805,-0.9999264093,0.0,0.651127303759,0.247409138319,0.303432604224,1.0,-0.02628,-0.0345394285714,1.026
0.457086659679,0.489979472891,-0.124147691803,-1.44682262977,0.0739712141465,1.92745580111,0.146910649787,-0.0216212360268,-0.14449336027,0.000661601626256,-0.228646451835,-0.0110260883933,0.0858192544033,-0.029788965349,0.57376408091,0.819006332026,0.00203824937093,0.0,0.818962995799,-0.573703828431,-0.0120114802471,0.0,-0.00866829380347,0.00856117156441,-0.999925780758,0.0,0.650702801681,0.246889989278,0.303373134105,1.0,-0.03006,-0.0395074285714,1.041
0.456607754504,0.486919669415,-0.124180266467,-1.45163680682,0.0736854495553,1.92923973589,0.146219462612,-0.028242461869,-0.167708482236,-0.00412604288817,-0.263431879538,-0.0145016531217,0.102249402961,-0.0336213382063,0.573775683312,0.818998144778,0.00206179307158,0.0,0.818955051428,-0.573715266182,-0.0120068310805,0.0,-0.00865085677455,0.00857790870994,-0.999925788326,0.0,0.650104893177,0.246104188595,0.303363909593,1.0,-0.034848,-0.0458002285714,1.06
0.456108925814,0.483774477238,-0.12423169161,-1.45646401184,0.0733899867787,1.93101131353,0.145469110553,-0.0308914087261,-0.189644748377,-0.00391328655781,-0.294780301585,-0.0211949827937,0.102275740989,-0.047158428119,0.573764756339,0.819005622669,0.00213103730453,0.0,0.818963513789,-0.573704132772,-0.0119615226053,0.0,-0.00857413443935,0.00860850764243,-0.999926186183,0.0,0.64950909841,0.245292080446,0.30340485292,1.0,-0.039132,-0.0514306285714,1.077
0.455621695258,0.480703147602,-0.124291155194,-1.46129143978,0.073093928822,1.93268214108,0.144743362703,-0.0323015771953,-0.209627101611,-0.00705290268011,-0.336941575244,-0.0216816809761,0.114876173577,-0.0491477005045,0.573768003403,0.819003548182,0.0020526172031,0.0,0.818960353236,-0.57370764395,-0.0120094130561,0.0,-0.00865831642443,0.00857179409455,-0.999925776197,0.0,0.648885923061,0.244475609126,0.30338388722,1.0,-0.042912,-0.0563986285714,1.092
0.454962849283,0.476637261594,-0.124345791877,-1.46752641169,0.0727161671708,1.93494033521,0.143852735135,-0.03557703191,-0.232703451518,-0.0025527731583,-0.352477632621,-0.0186809035344,0.135658879756,-0.0503761725487,0.573818094399,0.81896826656,0.00212598441777,0.0,0.818925981561,-0.573757374421,-0.011977433857,0.0,-0.00858950438065,0.00861405799501,-0.999926006472,0.0,0.648099688662,0.243424254061,0.303429857515,1.0,-0.047448,-0.0623602285714,1.11
0.454301491708,0.472704228032,-0.124384111671,-1.47357213399,0.0723592696828,1.93713242201,0.142969954877,-0.0434776050717,-0.250963440799,-0.00378562639609,-0.383994862596,-0.023097491463,0.137921288057,-0.0598015249493,0.573858975352,0.818939425636,0.002200101839,0.0,0.818897902158,-0.573797737778,-0.0119636475717,0.0,-0.00853525354289,0.00866727218933,-0.999926011183,0.0,0.647332681463,0.24240123738,0.303464018886,1.0,-0.05148,-0.0676594285714,1.126
0.453593607079,0.46844659137,-0.12441355859,-1.48000112298,0.0719540945717,1.93951064726,0.141953347093,-0.0477260658917,-0.274681941841,-0.000847921526751,-0.405405680231,-0.03217934669,0.153642741706,-0.0711381574003,0.573827434563,0.818960976934,0.00239593464063,0.0,0.818922067578,-0.573765486505,-0.0118558268698,0.0,-0.00833491542384,0.00876545122908,-0.999926845349,0.0,0.646471628,0.24124752122,0.303560873088,1.0,-0.055764,-0.0732898285714,1.143
0.452783600955,0.463594995893,-0.12442739625,-1.48741073558,0.0714775979243,1.94215406955,0.1407927877,-0.0520630631265,-0.288843553259,-0.000620452355378,-0.453534906742,-0.0306898880686,0.156759242172,-0.0675044889757,0.573765877334,0.819003963838,0.00244379340667,0.0,0.818965510185,-0.573703576251,-0.0118510178991,0.0,-0.00830417749901,0.00880126164782,-0.999926786535,0.0,0.645550625632,0.240078138234,0.303600490484,1.0,-0.059796,-0.0785890285714,1.159
0.45183735593,0.458117109091,-0.12446044614,-1.49586777499,0.0709120816492,1.94504392433,0.13954235861,-0.0549193093245,-0.313047133309,0.000124655169602,-0.48412300176,-0.0307844335224,0.161962772005,-0.0746242839343,0.573778588217,0.818995315849,0.00235610314684,0.0,0.818955570584,-0.573716470036,-0.0119135351853,0.0,-0.00840555616449,0.00876544395821,-0.99992625409,0.0,0.644413819752,0.23862831954,0.303597996345,1.0,-0.064332,-0.0845506285714,1.177
0.450930743053,0.452991033635,-0.124485337782,-1.50376652214,0.0703740565415,1.94787912124,0.138274797553,-0.0607083101946,-0.333019281238,0.00187055072856,-0.493209376085,-0.0301481294512,0.180160195449,-0.0751739104146,0.573716152863,0.819038956911,0.00238954113195,0.0,0.818999762758,-0.573654032061,-0.0118822137481,0.0,-0.00836138703154,0.00877422051017,-0.999926547433,0.0,0.643372775534,0.237272306737,0.303607604856,1.0,-0.068364,-0.0898498285714,1.193
0.449888972864,0.447118887243,-0.124532883424,-1.51247791438,0.0697972570122,1.95115731864,0.136946969527,-0.0630946731436,-0.344125947338,-0.000724551084236,-0.525560128132,-0.0341913504721,0.191418007302,-0.0752507396011,0.573753944172,0.819011375885,0.00274310382427,0.0,0.818977156843,-0.573690930411,-0.0116567505893,0.0,-0.00797347106739,0.00893481802073,-0.999928293822,0.0,0.64226135984,0.235755260775,0.303773648914,1.0,-0.072648,-0.0954802285714,1.21
0.448787497194,0.441069573427,-0.124562037573,-1.52193730158,0.0691537360505,1.95431387187,0.13547051745,-0.0621233412672,-0.367273040381,-0.00572816966741,-0.573355366844,-0.0431780511698,0.189338711454,-0.0943827906294,0.573712056996,0.819041443418,0.00251724489027,0.0,0.81900394453,-0.573649482876,-0.0118134051679,0.0,-0.00823181067867,0.00883929665733,-0.999927049403,0.0,0.640938441901,0.234110667417,0.303686726577,1.0,-0.076932,-0.101110628571,1.227
0.447660474492,0.435017044444,-0.124579805191,-1.53117349378,0.0685439580863,1.95747954865,0.133969517264,-0.074678602845,-0.392709410081,-0.00136824991868,-0.577408804732,-0.035731688952,0.205074842813,-0.0970892070966,0.573656203389,0.819080600254,0.00250549453584,0.0,0.819042566497,-0.573593271647,-0.0118650701123,0.0,-0.00828147338573,0.00885874830689,-0.999926467185,0.0,0.639660813929,0.232491247673,0.303699355526,1.0,-0.080964,-0.106409828571,1.243
0.446376362349,0.428345884151,-0.124609305315,-1.54129490819,0.067811645372,1.96114350747,0.132333817696,-0.07996458173,-0.395562085117,-0.00360239447301,-0.609030328134,-0.0438578350367,0.206504915112,-0.0977503824159,0.573623637001,0.819102969822,0.00264476908716,0.0,0.819067221079,-0.57356070558,-0.0117367486692,0.0,-0.00809682595622,0.00889889145602,-0.999927622951,0.0,0.63830009464,0.230685852788,0.303746235372,1.0,-0.085248,-0.112040228571,1.26
0.444888972811,0.420982561028,-0.12472040743,-1.55265803393,0.0669971052928,1.96488651785,0.130456518667,-0.0846399092173,-0.41527670225,-0.00840566146681,-0.635469627266,-0.0437243086884,0.205682984097,-0.0969273566187,0.5736399548,0.81909233058,0.00238812549067,0.0,0.819053288443,-0.573578028086,-0.0118618416988,0.0,-0.00834632794499,0.00876059704096,-0.999926792695,0.0,0.636699316972,0.228564853057,0.303671041117,1.0,-0.089784,-0.118001828571,1.278
0.443588182968,0.414498272872,-0.124815178793,-1.5623115547,0.0663198869765,1.96835658876,0.128913793459,-0.0872720981718,-0.435434040937,-0.00649348929953,-0.646242198495,-0.0383658348935,0.237786604792,-0.108975138877,0.573725708757,0.819031593439,0.00260901539365,0.0,0.818995883526,-0.573663444082,-0.0116936988659,0.0,-0.00808096764262,0.00884591884864,-0.999928221265,0.0,0.635393195975,0.226766579727,0.303775694148,1.0,-0.093564,-0.122969828571,1.293
0.441900210399,0.406533309848,-0.124852742532,-1.57443957958,0.065504354176,1.97243977612,0.126859121448,-0.0923034496715,-0.447035386682,-0.00529575719729,-0.69415966102,-0.0472637559411,0.225106009449,-0.114603187862,0.573720946447,0.81903511691,0.00254946606372,0.0,0.818998020331,-0.573658232641,-0.0117992252965,0.0,-0.00820161558035,0.00885764090055,-0.999927135195,0.0,0.633660851504,0.224513278999,0.303744980066,1.0,-0.0981,-0.128931428571,1.311
0.44009122689,0.398192005389,-0.124965737382,-1.5868901341,0.0646300940567,1.97674688271,0.124763901287,-0.0977102627562,-0.483475052337,-0.00657520824717,-0.683341243749,-0.0498248380961,0.259582607796,-0.12217597236,0.573822598017,0.818963452519,0.00269004525966,0.0,0.818928351207,-0.57375954503,-0.0117084148654,0.0,-0.00804547961781,0.00892167913586,-0.999927834346,0.0,0.631916493836,0.222118530019,0.303818906729,1.0,-0.102636,-0.134893028571,1.329
0.438512704229,0.391059874249,-0.125006201521,-1.59758317284,0.0638040207666,1.98043687753,0.122924859925,-0.110716807016,-0.48863238988,-0.0079647357976,-0.711597983109,-0.053322210828,0.240637567719,-0.125117790609,0.573820827302,0.818964502204,0.00274757806377,0.0,0.818930617497,-0.573758099667,-0.0116203998499,0.0,-0.0079404026873,0.00891827496027,-0.999928704647,0.0,0.630390025542,0.220073491695,0.303845155429,1.0,-0.106416,-0.139861028571,1.344
0.43663200792,0.382736174219,-0.125057563121,-1.61018187678,0.0628540746161,1.98446225003,0.120656357695,-0.115079351613,-0.501043071242,-0.004802265003,-0.747122252815,-0.0584305746853,0.250727624274,-0.137423496703,0.573749292234,0.819015385577,0.00250893405836,0.0,0.818978128015,-0.573687119575,-0.0117754646366,0.0,-0.00820510153017,0.0088110962603,-0.999927517819,0.0,0.628501599281,0.217639475801,0.303779444157,1.0,-0.1107,-0.145491428571,1.361
0.434657493592,0.37412615159,-0.125104586026,-1.62300404947,0.0619440100925,1.98885450737,0.118395977269,-0.122775533614,-0.507634877373,-0.00326233703002,-0.746290335602,-0.0600322691758,0.261847792055,-0.149153689575,0.573769145354,0.819001019213,0.00265429242796,0.0,0.818965418174,-0.573706187477,-0.0117303532337,0.0,-0.00808454291734,0.00890445989627,-0.999927672764,0.0,0.62662250922,0.215164578118,0.303811976541,1.0,-0.114984,-0.151121828571,1.378
0.432657205919,0.365801479797,-0.125205524261,-1.63544523318,0.0609633514986,1.99284734341,0.11625618475,-0.12889112629,-0.527155413798,-0.0071574036726,-0.774269797262,-0.0626885366173,0.256326402276,-0.13766925674,0.573896365529,0.818912374322,0.00249634066517,0.0,0.8188749305,-0.573834196813,-0.0117859945458,0.0,-0.00821936938502,0.00880829980974,-0.999927425277,0.0,0.624748798529,0.21265567331,0.303784241331,1.0,-0.119016,-0.156421028571,1.394
0.430467704244,0.356660783773,-0.125301577163,-1.64892312787,0.0599193948575,1.9972827778,0.113725789403,-0.131622148312,-0.541142832287,-0.000796886063586,-0.816444720079,-0.0571054052867,0.264206337413,-0.15894815538,0.573861195694,0.818936897311,0.00253637541956,0.0,0.818900175905,-0.573799101297,-0.0117405346544,0.0,-0.00815954418282,0.00881464524131,-0.999927859332,0.0,0.622712984512,0.209953255306,0.303823697691,1.0,-0.1233,-0.162051428571,1.411
0.427949596709,0.346742948086,-0.125366845596,-1.66357095474,0.0588449382143,2.00198557125,0.110971963237,-0.145594664205,-0.569711249475,-0.00924375915427,-0.823906881201,-0.0577719258536,0.279109655055,-0.153445724668,0.573906710716,0.818905055022,0.00251895928422,0.0,0.818867410238,-0.573843924592,-0.0118347606659,0.0,-0.00824621461792,0.00885491271595,-0.999926792553,0.0,0.620456161847,0.206968566521,0.303820816873,1.0,-0.127836,-0.168013028571,1.429
0.425818546548,0.338268703171,-0.125431541932,-1.67590171082,0.0578605792681,2.00608413228,0.108653090097,-0.140901280466,-0.563954136521,-0.00212408559526,-0.846613918188,-0.0671863967678,0.269882728881,-0.16579339474,0.573907735305,0.818903865739,0.00266775870792,0.0,0.818868553626,-0.57384483743,-0.0117107360664,0.0,-0.0080592426388,0.00890559718956,-0.999927866872,0.0,0.618432512199,0.204283280352,0.303888153031,1.0,-0.131868,-0.173312228571,1.445
0.423177608579,0.327839911418,-0.125423352502,-1.69114427903,0.0565969115357,2.01086081642,0.10567312064,-0.147571029334,-0.5919567196,-0.00241480692155,-0.833406931239,-0.0815329725659,0.276794025138,-0.172635069103,0.57374618596,0.81901726777,0.00260309277507,0.0,0.818980984921,-0.573683397918,-0.0117580692789,0.0,-0.00813686732668,0.0088782018207,-0.999927481832,0.0,0.616112895521,0.201381408611,0.30389785382,1.0,-0.136152,-0.178942628571,1.462
0.420511669993,0.317772596922,-0.125438703633,-1.70574949283,0.0554126813082,2.01554974801,0.102856394358,-0.159096212857,-0.603939295418,-0.00631901612566,-0.848497056578,-0.078342156594,0.28160598892,-0.161148672615,0.573730808512,0.819027735157,0.00269727813056,0.0,0.818992634928,-0.573667638687,-0.0117154239447,0.0,-0.00804807091412,0.00893072251925,-0.999927732764,0.0,0.613778601486,0.198369131201,0.303934989235,1.0,-0.140436,-0.184573028571,1.479
0.417886927395,0.308060018591,-0.125474756998,-1.71972626087,0.0542486313726,2.0199483972,0.0999675295505,-0.163299210135,-0.621140346147,-0.00902103006026,-0.862436891586,-0.0749849235453,0.279716025713,-0.183605578718,0.573605753939,0.819115074471,0.00277141176365,0.0,0.819081004219,-0.573542416173,-0.0116684308927,0.0,-0.00796841885723,0.00896326240053,-0.999928079528,0.0,0.611511240487,0.195436013498,0.30398863399,1.0,-0.144468,-0.189872228571,1.495
0.414928621562,0.297626574768,-0.125542035199,-1.73497333001,0.0529757554346,2.02456630073,0.0968843938732,-0.178667013196,-0.61796734618,-0.00762562797914,-0.913400880568,-0.0746000394317,0.265886900692,-0.177043501502,0.573604011492,0.819116944273,0.00257225693451,0.0,0.819079920818,-0.573540986186,-0.0118138638137,0.0,-0.00820179915824,0.00888353471657,-0.999926903979,0.0,0.608978525673,0.192168027572,0.303901055144,1.0,-0.148752,-0.195502628571,1.512
0.41160229868,0.286204555007,-0.12568678313,-1.75114515494,0.0516758803178,2.02960881214,0.0934839990328,-0.179434274004,-0.632465603275,-0.0104136298337,-0.918755994482,-0.0769109612102,0.287175044799,-0.195820978637,0.573704364992,0.81904590665,0.00280201540135,0.0,0.819011727606,-0.573640337696,-0.0117175045058,0.0,-0.00798997887243,0.00901744057011,-0.999927420368,0.0,0.606330008578,0.188585967032,0.304015624811,1.0,-0.153288,-0.201464228571,1.53
0.408736660753,0.276670042963,-0.125775875375,-1.76496314532,0.0504809160215,2.0336336472,0.0905220375473,-0.194051900058,-0.638182095846,-0.00554226907756,-0.921217151626,-0.0722342020105,0.259567311828,-0.193936162189,0.57368624248,0.819059419493,0.00255135825727,0.0,0.81902157707,-0.573622695134,-0.0118914600184,0.0,-0.00827645468719,0.00891175605801,-0.999926037716,0.0,0.603964353106,0.185520694,0.303919100877,1.0,-0.157068,-0.206432228571,1.545
0.404641637832,0.263518346994,-0.12594563075,-1.78346738743,0.0488771545901,2.03927817426,0.0864590932462,-0.214374713908,-0.656099341514,-0.0127603081874,-0.923418152802,-0.0735149026781,0.27318748107,-0.205032519101,0.5738072787,0.818974026484,0.00273820325203,0.0,0.818938955179,-0.573743393603,-0.0117580988561,0.0,-0.00805870669285,0.00898947709288,-0.999927120618,0.0,0.60085678976,0.181278490953,0.30401431108,1.0,-0.162108,-0.213056228571,1.565
0.401633130633,0.254174081611,-0.126094006996,-1.79664377177,0.0476800548565,2.0431459542,0.0835565487554,-0.214770862174,-0.681642457286,-0.0051177088656,-0.936437507776,-0.0814188438209,0.275021986157,-0.201995127976,0.573943725972,0.81887850875,0.00270817737382,0.0,0.818843356757,-0.573880275249,-0.0117359991925,0.0,-0.00805634305027,0.00895354853955,-0.999927462022,0.0,0.598594639215,0.178191937859,0.304027915243,1.0,-0.165636,-0.217693028571,1.579
0.397902827288,0.242676692959,-0.126152497889,-1.81292011561,0.0462139015045,2.04788712293,0.0798559540916,-0.222403324426,-0.692556729906,-0.00615597352017,-0.964241506244,-0.0796268356212,0.280916231248,-0.219945771138,0.573914027291,0.818899557316,0.00263651445057,0.0,0.818863237907,-0.573850580063,-0.0118006892735,0.0,-0.00815077080287,0.0089316978284,-0.999926892182,0.0,0.595724173893,0.17446988207,0.303978704523,1.0,-0.16992,-0.223323428571,1.596
0.394051949993,0.230909351747,-0.126183030126,-1.82910606837,0.0447875896394,2.05266971979,0.0760577199776,-0.225246700358,-0.688317221241,-0.00178832029789,-0.953680783647,-0.0890234541271,0.273349890352,-0.223438425191,0.573869704559,0.818929626826,0.00292837807851,0.0,0.81889692075,-0.573805027476,-0.0116777793214,0.0,-0.00788311317236,0.00909973875852,-0.999927523014,0.0,0.592859528331,0.170742130202,0.304104258503,1.0,-0.174204,-0.228953828571,1.613
0.390009644578,0.219051770731,-0.126220145392,-1.84569248646,0.0431787039969,2.05726479495,0.0720327381692,-0.244846767756,-0.722246206516,-0.00241100630844,-0.965122472277,-0.0931690111215,0.272832768452,-0.24839937892,0.573716367054,0.819037679927,0.00274880616651,0.0,0.819002631956,-0.573652327902,-0.0117661566468,0.0,-0.00806022176955,0.00900188944498,-0.999926996741,0.0,0.589825119945,0.166855529194,0.304044243957,1.0,-0.178488,-0.234584228571,1.63
0.386016334733,0.207614499528,-0.12633487593,-1.86132047447,0.0417576819164,2.0616760278,0.0682052253484,-0.257185290687,-0.715909041666,-0.00522998642627,-0.98004314532,-0.090317409321,0.265597327083,-0.243258972752,0.573771789256,0.81899827489,0.00291658749168,0.0,0.818965193429,-0.573706909314,-0.0117107240472,0.0,-0.00791794884187,0.00910804208738,-0.999927172176,0.0,0.586980073419,0.163090439314,0.304120982315,1.0,-0.18252,-0.239883428571,1.646
0.381622722383,0.19527007438,-0.126458170056,-1.87812302545,0.0401361389359,2.06624900036,0.0639402155644,-0.259951330034,-0.739812821236,-0.00768567385083,-0.993548438805,-0.092653758361,0.277416060538,-0.247421635333,0.573728353556,0.819028531979,0.00296429279164,0.0,0.81899609913,-0.573663349508,-0.0116832334401,0.0,-0.00786854689533,0.00913092231736,-0.999927353475,0.0,0.583851932738,0.15899882207,0.304176314738,1.0,-0.186804,-0.245513828571,1.663
0.376915413499,0.182810891769,-0.126631581941,-1.89515249879,0.0385692538695,2.07074405448,0.0595194351378,-0.285358755601,-0.74318478225,-0.0105620514055,-1.00451204384,-0.089743181753,0.265474529744,-0.263553290312,0.573854686009,0.818940204375,0.00291340099562,0.0,0.818906153938,-0.573788742099,-0.0118295132533,0.0,-0.0080161416444,0.00917440025346,-0.999925783172,0.0,0.580637655212,0.154719325966,0.304146190381,1.0,-0.191088,-0.251144228571,1.68
0.372333938999,0.170891149556,-0.126752492448,-1.91118785198,0.0369466122181,2.07499604065,0.0552780096245,-0.286893345379,-0.727622583068,-0.00688446003365,-1.01925122143,-0.102507227099,0.250927955408,-0.276720123126,0.573909532465,0.818901663434,0.0029429700016,0.0,0.818868222632,-0.573843733462,-0.0117877237299,0.0,-0.00796433501546,0.00917516827954,-0.999926190103,0.0,0.577389555149,0.150395465862,0.304180252663,1.0,-0.195372,-0.256774628571,1.697
0.36708194346,0.157248434218,-0.126796762476,-1.92936396099,0.0351110071694,2.07972236767,0.0502266215582,-0.293541027347,-0.762772127577,0.00174974235123,-1.01013661285,-0.105862389687,0.279271729846,-0.279116972266,0.573726389256,0.819029457242,0.00308631538223,0.0,0.818997881046,-0.573660117749,-0.0117169555398,0.0,-0.00782618636905,0.00925019044805,-0.999926589697,0.0,0.574041456188,0.146100912624,0.304258983286,1.0,-0.199656,-0.262405028571,1.714
0.361860203186,0.144338764488,-0.126871839389,-1.94679895094,0.0332685958986,2.08403267421,0.0453949622201,-0.316093036622,-0.766681808968,-0.00772356256867,-1.0299713198,-0.106602777898,0.244010643138,-0.285693328566,0.573671356247,0.819068866377,0.00284851821175,0.0,0.819033904645,-0.573605598527,-0.0118670671025,0.0,-0.008086174889,0.00914100546545,-0.999925525124,0.0,0.570560673017,0.141639882188,0.30415264218,1.0,-0.20394,-0.268035428571,1.731
0.356714604574,0.131861810445,-0.127017998407,-1.96307748816,0.0316055492359,2.08815986267,0.0406197530903,-0.330328226013,-0.758644236742,-0.00302313824777,-1.02735804011,-0.111313740017,0.252619440829,-0.303951339364,0.573683343803,0.819059591417,0.00309089811215,0.0,0.819027907016,-0.573616864162,-0.0117357393744,0.0,-0.00783942954773,0.00926430838453,-0.999926355255,0.0,0.567332496676,0.137340604965,0.304265433891,1.0,-0.207972,-0.273334628571,1.747
0.350607702087,0.117707774968,-0.127238731217,-1.98154816677,0.0295545185884,2.09265044489,0.0351223474444,-0.349183029466,-0.780310274671,-0.0091996346564,-1.02548782083,-0.115636132873,0.263366637801,-0.314920939231,0.573797556695,0.8189794252,0.00313240031006,0.0,0.818949047556,-0.573731836195,-0.0116182849331,0.0,-0.00771812713261,0.00923199750265,-0.999927597747,0.0,0.563608881042,0.132306210654,0.304320030688,1.0,-0.212508,-0.279296228571,1.765
0.344630142377,0.104205468681,-0.127373069133,-1.99921455109,0.0276561813926,2.09670560421,0.0296302901601,-0.352110614353,-0.82721525139,-0.00446500721886,-1.03208431411,-0.114029538738,0.227835476535,-0.329325905522,0.573758655004,0.819007089429,0.00302327204823,0.0,0.818974683751,-0.573692583833,-0.0117487672055,0.0,-0.00788804674971,0.00921711759744,-0.999926409023,0.0,0.559932648526,0.127515803224,0.304275697406,1.0,-0.216792,-0.284926628571,1.782
0.338883843441,0.0913394307385,-0.127475529861,-2.01576889276,0.0258379261343,2.10056876549,0.0243433445775,-0.36351314623,-0.773711575038,-0.00962887808388,-1.03979956967,-0.112975389658,0.229428518322,-0.323760034156,0.573662671413,0.819073920129,0.00313044617398,0.0,0.819042957447,-0.573596307212,-0.0116900432215,0.0,-0.00777954694297,0.00927028979764,-0.999926767507,0.0,0.556461301649,0.123013775708,0.304311673842,1.0,-0.220824,-0.290225828571,1.798
0.332833395069,0.0782224483483,-0.127638611038,-2.03239151009,0.0240194502028,2.10419658289,0.018808006219,-0.382030685904,-0.814644798936,-0.00493455942212,-1.02884600821,-0.130286818036,0.239648712105,-0.351855603091,0.573633742868,0.819093797287,0.00322911608357,0.0,0.819063702959,-0.57356655682,-0.0116962512309,0.0,-0.00772836263606,0.00935439624893,-0.999926381131,0.0,0.552909472353,0.118352979878,0.304388030227,1.0,-0.224856,-0.295525028571,1.814
0.326098960811,0.064287890451,-0.127838297502,-2.05026877691,0.0219683765234,2.1079820094,0.0128162244004,-0.406379722411,-0.799307730717,-0.010511731737,-1.05854839933,-0.121360399738,0.209402623358,-0.365570569021,0.573706526136,0.819043446787,0.00306611235976,0.0,0.819010753306,-0.573639321991,-0.0118347427615,0.0,-0.00793447865131,0.0093010272245,-0.999925264678,0.0,0.549022928268,0.113249575516,0.304306587614,1.0,-0.22914,-0.301155428571,1.831
0.319455314491,0.0509531560833,-0.128050126218,-2.06687210026,0.0200175014089,2.1114910545,0.0069571040877,-0.414199909299,-0.818507692893,-0.00702024560688,-1.04131749311,-0.129144480095,0.213631098588,-0.363110552422,0.573827648702,0.818958010941,0.00321757713349,0.0,0.818927750523,-0.573760455189,-0.0117058270095,0.0,-0.00774061131418,0.00935227045323,-0.999926306272,0.0,0.545181204307,0.108043453957,0.30439722994,1.0,-0.22998,-0.302259428571,1.848
0.311941698446,0.0361381982007,-0.128163646904,-2.08538784334,0.0179323283386,2.11518168522,0.000275497133959,-0.422390162,-0.827405225926,-0.00909678658765,-1.00173251937,-0.113068228655,0.216497307986,-0.384818200236,0.573825232687,0.818959608081,0.00324184589951,0.0,0.818928538671,-0.573756598667,-0.0118389584562,0.0,-0.0078357491631,0.00944851512917,-0.99992466046,0.0,0.541239853974,0.102966606706,0.304380666801,1.0,-0.22998,-0.302259428571,1.865
0.304648400156,0.0222247224157,-0.128306911069,-2.10267487029,0.0157433771675,2.11844483307,-0.00617950038106,-0.428106298559,-0.815719396145,-0.00762466235432,-1.01467966949,-0.130408765928,0.182328441162,-0.385061998657,0.573770734817,0.818998441802,0.00307296174811,0.0,0.818965336121,-0.573702909704,-0.0118952314599,0.0,-0.00797936256165,0.00934196470824,-0.999924525886,0.0,0.537281815478,0.0978138267958,0.304335158202,1.0,-0.22998,-0.302259428571,1.882
0.297547488275,0.00915197961306,-0.128503757151,-2.11850233133,0.0137676674224,2.1214157103,-0.0123929149261,-0.455004753051,-0.797051219848,-0.0116865433669,-1.00580591736,-0.132458546054,0.173273477236,-0.394513542282,0.573853073528,0.818940136845,0.00323251722858,0.0,0.818909603027,-0.573785261073,-0.0117593854911,0.0,-0.00777561172596,0.00939547979939,-0.999925629645,0.0,0.533881353719,0.0932264641307,0.304435005234,1.0,-0.22998,-0.302259428571,1.897
0.289892856229,-0.0045881409809,-0.128614380786,-2.13504776442,0.0118212805983,2.12435382783,-0.01913875947,-0.449083922022,-0.78205544401,-0.00704632944961,-0.947255781828,-0.114880454698,0.175374942592,-0.405699966562,0.573877242944,0.818922699,0.00335708129724,0.0,0.818892983986,-0.573808022213,-0.011805986744,0.0,-0.00774201940703,0.00952446081923,-0.999924670054,0.0,0.529757534464,0.0877942436733,0.304477602162,1.0,-0.22998,-0.302259428571,1.915
0.28214463495,-0.0181766365819,-0.128681899503,-2.15146373197,0.00967206262272,2.12714401394,-0.0259490110876,-0.460267248244,-0.803418932169,-0.00552105489982,-0.970375262101,-0.128299958881,0.149885526286,-0.40292025226,0.573769133727,0.818998805629,0.00326870928428,0.0,0.818968084721,-0.573700411552,-0.0118262797826,0.0,-0.00781059953359,0.00946270507453,-0.99992472304,0.0,0.525818542782,0.0827055792342,0.304442935102,1.0,-0.22998,-0.302259428571,1.932
0.274164903711,-0.0318242727991,-0.128850359245,-2.16742414432,0.00760168795192,2.12975715199,-0.032902502219,-0.475811953045,-0.789912304007,-0.00821621495725,-0.955608591753,-0.130194578895,0.155386543597,-0.396913904644,0.573821419197,0.818961313855,0.0034773813191,0.0,0.818933850542,-0.573752663255,-0.0116609067347,0.0,-0.00755482016091,0.00953920698437,-0.99992596137,0.0,0.52195930547,0.077550470496,0.304574195446,1.0,-0.22998,-0.302259428571,1.949
0.264494768435,-0.0475708535619,-0.129053116562,-2.18606949899,0.00528914772555,2.1325143511,-0.0413227030025,-0.480367310871,-0.808863337604,-0.0045086578203,-0.907799403473,-0.117954674204,0.137868727112,-0.422850158833,0.57394150778,0.818877291409,0.00344589059775,0.0,0.818847899763,-0.573870937542,-0.0118748052462,0.0,-0.00774666103524,0.00963728945406,-0.999923553025,0.0,0.517323973246,0.0714511426833,0.304526422267,1.0,-0.22998,-0.302259428571,1.969
0.258193271885,-0.05775910217,-0.129133282098,-2.1978425445,0.00362843621165,2.13433238202,-0.0468566663072,-0.491034710124,-0.759403041937,-0.0124941390449,-0.929020103556,-0.122046682376,0.135476726339,-0.436772346171,0.573852886666,0.81893895432,0.00354971319433,0.0,0.818912032798,-0.573783389331,-0.011681248521,0.0,-0.0075296079494,0.00961040606153,-0.999925469772,0.0,0.514386446069,0.0675609645162,0.304589358452,1.0,-0.22998,-0.302259428571,1.982
0.249736315504,-0.0709255125418,-0.129281551227,-2.21318694,0.00160040601049,2.13633854747,-0.0542564938451,-0.5075432056,-0.765568428044,-0.00920509610556,-0.895486717383,-0.117778834664,0.120426615015,-0.4356799407,0.573856570738,0.81893680504,0.00344854647512,0.0,0.818907600563,-0.573786193234,-0.0118529783308,0.0,-0.00772826064325,0.00962613575026,-0.999923802846,0.0,0.510439433743,0.0624228111792,0.30453371428,1.0,-0.22998,-0.302259428571,1.999
0.241023666945,-0.0840752056833,-0.129473815384,-2.2282265585,-0.000414498932904,2.13827056063,-0.0618201370971,-0.513802773803,-0.758187853259,-0.00355945982961,-0.897625252665,-0.108005354431,0.106594854013,-0.436828304023,0.573953863464,0.818868361284,0.00350947350112,0.0,0.818839560391,-0.573882770279,-0.0118780140411,0.0,-0.00771265201057,0.00969131437587,-0.99992329377,0.0,0.506536394891,0.0572277576704,0.304546904668,1.0,-0.22998,-0.302259428571,2.016
0.232309641894,-0.0971480454525,-0.129544346058,-2.24301304122,-0.00245781921722,2.14002318089,-0.0695258086941,-0.521898712319,-0.764535392723,-0.00388071046961,-0.8471093175,-0.129114760316,0.108023125416,-0.452499423312,0.573801191902,0.818975198331,0.00354451581374,0.0,0.818946735625,-0.573729848471,-0.0118765349857,0.0,-0.00769314119145,0.00971772668182,-0.999923187733,0.0,0.502612737715,0.0521780604753,0.304567003371,1.0,-0.22998,-0.302259428571,2.033
0.223873874351,-0.109311222835,-0.129679845008,-2.25675797215,-0.00441481757424,2.14149235439,-0.0768300254174,-0.526725453226,-0.760789055098,-0.0120048835218,-0.883947130863,-0.127886456768,0.0925084272899,-0.45686979729,0.573827950003,0.818956829746,0.00345567768087,0.0,0.818926833144,-0.573756450893,-0.0119634408205,0.0,-0.00781497466811,0.00969509056112,-0.999922462689,0.0,0.498898298748,0.047347107982,0.304528470586,1.0,-0.22998,-0.302259428571,2.049
0.214630465582,-0.122215984413,-0.129888145246,-2.2709404453,-0.00644370064568,2.14293940975,-0.0848481102823,-0.541287167056,-0.771287103733,-0.010249328532,-0.807605644316,-0.113876576482,0.089268990114,-0.48241389534,0.573931486798,0.818883686597,0.00359210073169,0.0,0.818855759285,-0.573859850684,-0.0118686207767,0.0,-0.00765780498338,0.00975337532338,-0.99992311189,0.0,0.49503003879,0.0421424996142,0.30460770521,1.0,-0.22998,-0.302259428571,2.066
0.205384447897,-0.134930829936,-0.130004161341,-2.28506979072,-0.00845929050399,2.14416617816,-0.0930511407388,-0.548061454574,-0.732901870346,-0.0111179693113,-0.813046488062,-0.124959859746,0.0675052893529,-0.490666713232,0.573805943653,0.818972182273,0.00347139619078,0.0,0.818941580324,-0.573733384583,-0.0120597815983,0.0,-0.00788512158054,0.0097630330113,-0.999921250921,0.0,0.49082541349,0.0367632692648,0.304536175736,1.0,-0.22998,-0.302259428571,2.084
0.19642424293,-0.146886056131,-0.130169444986,-2.29788830092,-0.0103276740126,2.14532851872,-0.100888343647,-0.561249755412,-0.755595922827,-0.0129820806082,-0.776150768294,-0.108211396285,0.0687643030163,-0.491148965934,0.573827312567,0.818956104768,0.00372299832951,0.0,0.818929704961,-0.57375501155,-0.0118351998448,0.0,-0.00755656570183,0.00984042430287,-0.99992302922,0.0,0.487457490177,0.0322288752208,0.304654477123,1.0,-0.22998,-0.302259428571,2.099
0.186145983533,-0.160138804942,-0.130344110056,-2.31231672133,-0.0125012464921,2.14625058939,-0.109891062956,-0.563746401197,-0.729061592306,-0.00395483712979,-0.810275350564,-0.117088693285,0.040058097614,-0.507713887231,0.573809454892,0.818969367329,0.00355411804867,0.0,0.818939909118,-0.573736663454,-0.0120172028342,0.0,-0.00780274339838,0.00980638252262,-0.999921472945,0.0,0.483253850602,0.0267730711991,0.30458958371,1.0,-0.22998,-0.302259428571,2.117
0.176332683145,-0.172598685834,-0.13048230935,-2.32544287485,-0.0143588914736,2.14714517274,-0.118567554839,-0.583119352382,-0.709708560066,-0.0138034751748,-0.77364448492,-0.120071238833,0.0508388541764,-0.522581267405,0.573790369713,0.818981591414,0.00380938980673,0.0,0.818955428194,-0.573716611155,-0.0119165271246,0.0,-0.00757405196215,0.0099575006776,-0.999921737896,0.0,0.479403696164,0.0217041964654,0.304678919668,1.0,-0.22998,-0.302259428571,2.134
0.166803749496,-0.184160253644,-0.130684618207,-2.33780798047,-0.0162878830215,2.14772235369,-0.126875736429,-0.599842097541,-0.710783489025,-0.0176349517831,-0.762223709091,-0.103767391257,0.0360084607049,-0.533205156057,0.573854696885,0.818937207491,0.00365840824546,0.0,0.81890837458,-0.573780575202,-0.0120694848669,0.0,-0.00778517653412,0.00992222276322,-0.999920467098,0.0,0.475670721224,0.0168148798,0.304610583643,1.0,-0.22998,-0.302259428571,2.15
0.155987287373,-0.197197613475,-0.130815587236,-2.35117107918,-0.0183629787568,2.14840326422,-0.136472849614,-0.596902280574,-0.707870971275,-0.00723463214606,-0.7502612963,-0.124472954988,0.0331346299358,-0.537338926429,0.57375554119,0.81900549199,0.00391534743986,0.0,0.818981301806,-0.573682213454,-0.0117937339153,0.0,-0.00741311038732,0.0099735085495,-0.99992278448,0.0,0.471609572715,0.0114235397222,0.304748360799,1.0,-0.22998,-0.302259428571,2.168
0.145529662213,-0.209218440655,-0.131036410428,-2.36382018986,-0.0202425386983,2.14870068249,-0.145709448376,-0.621574662824,-0.712158360871,-0.0136815782285,-0.741115982962,-0.104959487996,0.0125625791086,-0.536413498502,0.573814068703,0.818965024534,0.00380132215247,0.0,0.818937424674,-0.573738594633,-0.0120940646015,0.0,-0.00772379939061,0.0100529829411,-0.999919636999,0.0,0.467626229828,0.00627399865223,0.304649084778,1.0,-0.22998,-0.302259428571,2.185
0.135433303223,-0.220587035081,-0.131250425562,-2.37520834719,-0.0220852891306,2.14902970936,-0.154508668794,-0.626344541778,-0.708064290783,-0.00515129258337,-0.715992669035,-0.127210710957,0.01956229585,-0.550317503447,0.573955771781,0.818864669822,0.00402137518084,0.0,0.818841199491,-0.573881162905,-0.0118426255649,0.0,-0.00738985848543,0.0100902052404,-0.999921785816,0.0,0.464020142802,0.00137888367308,0.304776106163,1.0,-0.22998,-0.302259428571,2.201
0.124785855248,-0.23241790537,-0.13138988885,-2.38733270185,-0.0239633217626,2.14915859643,-0.164126377649,-0.636927993131,-0.700462545065,-0.0157106104169,-0.715315738687,-0.119350032455,0.00423195979511,-0.563753765989,0.573770607642,0.818994596858,0.00398585322038,0.0,0.818969731136,-0.573694886916,-0.0119792784049,0.0,-0.00752444554421,0.0101378461747,-0.999920300221,0.0,0.460070146037,-0.00364745601643,0.304723494882,1.0,-0.22998,-0.302259428571,2.218
0.113646053076,-0.244164676112,-0.131624599817,-2.39896494497,-0.025899199758,2.14922791548,-0.173935072323,-0.653274156231,-0.689275117789,-0.018642493069,-0.679608669831,-0.110300856805,0.00817692887893,-0.576054773216,0.573876566354,0.818919683412,0.00412136038797,0.0,0.818897477523,-0.573801582843,-0.0118072746416,0.0,-0.00730450713177,0.0101510852948,-0.999921796764,0.0,0.456219837148,-0.0088642834766,0.304803630411,1.0,-0.22998,-0.302259428571,2.235
0.103203157215,-0.255036963968,-0.131719164658,-2.40986692915,-0.0275763158492,2.14919838698,-0.183320278537,-0.651338769441,-0.693213115976,-0.0065655919418,-0.677243313516,-0.104978081002,-0.000391509003521,-0.596313538573,0.573769408133,0.818994488548,0.00417623280427,0.0,0.818972381341,-0.5736933983,-0.0118688773185,0.0,-0.00732480894483,0.0102304150062,-0.999920839758,0.0,0.452536041395,-0.0135978059019,0.304770851832,1.0,-0.22998,-0.302259428571,2.251
0.0918225561757,-0.266493323139,-0.131952893583,-2.42114895342,-0.0294709363455,2.14903914166,-0.193490080812,-0.673802723305,-0.673531637218,-0.0200227344233,-0.644855126977,-0.103750295343,-0.00308395044384,-0.601778223217,0.573774150134,0.818990950536,0.00421835037497,0.0,0.818969582805,-0.57369826493,-0.0118266714919,0.0,-0.00726601652916,0.0102407361968,-0.999921163055,0.0,0.448638070531,-0.0187439943841,0.304774851983,1.0,-0.22998,-0.302259428571,2.268
0.0801621744149,-0.277794891658,-0.132126263517,-2.43208615573,-0.0313133840804,2.14879154524,-0.203878034598,-0.676158847483,-0.654289587959,0.000601004020951,-0.643852282592,-0.108248190531,-0.0174271032276,-0.619875880705,0.573800048405,0.818972252012,0.00432455612397,0.0,0.818952900142,-0.57372471954,-0.0116978818236,0.0,-0.00709927255448,0.0102540503584,-0.999922224366,0.0,0.444777031941,-0.0238985318917,0.304817494811,1.0,-0.22998,-0.302259428571,2.285
0.0699120097393,-0.28764584492,-0.132282042541,-2.44170946145,-0.0328786607621,2.14838392128,-0.213231269133,-0.695940295141,-0.648372321617,-0.0038328921099,-0.635181723606,-0.110285481805,-0.0280579298983,-0.613504781087,0.573656946635,0.819072640305,0.0042970201739,0.0,0.819051984007,-0.573580372121,-0.0118385434949,0.0,-0.00723207988733,0.0103109441303,-0.999920687581,0.0,0.441290333498,-0.0283441876659,0.30476401593,1.0,-0.22998,-0.302259428571,2.3
0.0563513190682,-0.300052286233,-0.132573901508,-2.45330021059,-0.0349024330181,2.1478900767,-0.225318579846,-0.715334932091,-0.651151927057,-0.0108638585527,-0.60264681981,-0.108108092043,-0.0328734431828,-0.653613383753,0.573809435795,0.818964518737,0.00453820929502,0.0,0.818948481068,-0.573734261281,-0.0115381840341,0.0,-0.0068457689794,0.0103374775081,-0.999923133049,0.0,0.437003658622,-0.034190486366,0.304891304471,1.0,-0.22998,-0.302259428571,2.319
0.0435719906603,-0.311506220287,-0.132765177481,-2.4642455005,-0.0367531532024,2.14712600831,-0.23692616087,-0.717850837517,-0.629890323832,-0.0102385108237,-0.609269856367,-0.104820263678,-0.0440929357497,-0.659597748632,0.573720902707,0.819026915469,0.00447039534326,0.0,0.81900890479,-0.573644316381,-0.0117200281576,0.0,-0.00703473707103,0.0103855186818,-0.999921323643,0.0,0.432822766912,-0.0395442522077,0.304829361024,1.0,-0.22998,-0.302259428571,2.337
0.0332427811093,-0.320322321317,-0.133017941454,-2.47249750759,-0.0382033915416,2.14649568169,-0.246156740445,-0.74193650521,-0.623678316016,-0.0184044098286,-0.578731654725,-0.101439620974,-0.0484283768289,-0.661252471988,0.573880174525,0.818915180682,0.00449655835811,0.0,0.818897217863,-0.573803046678,-0.0117540248321,0.0,-0.00704554613229,0.0104278217193,-0.999920807271,0.0,0.429588076759,-0.0438569246422,0.304825461996,1.0,-0.22998,-0.302259428571,2.351
0.0200531512835,-0.331497165387,-0.133167589846,-2.48271529365,-0.0399441970398,2.145766284,-0.258289020034,-0.739780866042,-0.612992552716,-0.0174055879013,-0.575228904762,-0.0999017735792,-0.0497618130882,-0.67614248157,0.573715284053,0.819029482246,0.004714547447,0.0,0.819015317435,-0.573638984312,-0.0115313652538,0.0,-0.00674020967432,0.0104772087847,-0.999922395824,0.0,0.425533533421,-0.049203417537,0.304903422828,1.0,-0.22998,-0.302259428571,2.369
0.00719150228014,-0.341850657131,-0.13344452512,-2.4922731045,-0.041685102668,2.14475205297,-0.269910352774,-0.758932214271,-0.61294989218,-0.021630268903,-0.558960324432,-0.103694068937,-0.0577370106556,-0.689383680854,0.573810793996,0.818962941604,0.00464971775034,0.0,0.81894719702,-0.573733535141,-0.0116647352613,0.0,-0.00688541946597,0.0105014265056,-0.999921152412,0.0,0.421575390705,-0.0543913640102,0.304866961679,1.0,-0.22998,-0.302259428571,2.386
-0.0049851763048,-0.351453679012,-0.133596591962,-2.5008885231,-0.0432045996448,2.14379347662,-0.281061826209,-0.76720012253,-0.601407627591,-0.0127660162743,-0.520944358456,-0.0846848915883,-0.0509090819192,-0.707312742149,0.573757619878,0.818999655571,0.00474391283768,0.0,0.818985334877,-0.573680392581,-0.0116006605644,0.0,-0.00677957775543,0.0105413653924,-0.999921455386,0.0,0.417927101521,-0.0591816459736,0.304915996682,1.0,-0.22998,-0.302259428571,2.402
-0.0189987408731,-0.362001854114,-0.133890198575,-2.51035210466,-0.0450135779472,2.14267478177,-0.293874361727,-0.78383399161,-0.581225523503,-0.0198806857339,-0.5349691227,-0.0964530591714,-0.0702933891949,-0.719037060967,0.573785075225,0.818980362768,0.00475391951012,0.0,0.818966486751,-0.573708304701,-0.0115508266697,0.0,-0.00673266673808,0.0105211952747,-0.999921984781,0.0,0.413796931718,-0.0646741963115,0.304927613343,1.0,-0.22998,-0.302259428571,2.42
-0.0314922837325,-0.371204680416,-0.134036961995,-2.51865498531,-0.0464485409836,2.14155981358,-0.305468584416,-0.793958513741,-0.563084035584,-0.0114050531754,-0.517328891345,-0.0880286715277,-0.0728213412976,-0.729500579805,0.57365739656,0.81906979419,0.0047550518882,0.0,0.819054877166,-0.573579002409,-0.0117039774165,0.0,-0.00685910851438,0.010608925909,-0.999920198477,0.0,0.410084947744,-0.0694197708242,0.304878327423,1.0,-0.22998,-0.302259428571,2.436
-0.0451537724229,-0.380765252525,-0.134314912546,-2.52698654172,-0.0480762320524,2.14032754889,-0.317912148263,-0.81528454368,-0.557687610604,-0.013810382548,-0.471412660929,-0.0969033422462,-0.0612626371677,-0.737668015599,0.573793526175,0.818974215318,0.00479279303081,0.0,0.818960195009,-0.573715624241,-0.011633073291,0.0,-0.00677761731486,0.0106002929475,-0.999920845714,0.0,0.406199428336,-0.0746213649916,0.304922545801,1.0,-0.22998,-0.302259428571,2.453
-0.058862778351,-0.390087644609,-0.134487116891,-2.5351452832,-0.0495858677695,2.13913743924,-0.330681039503,-0.808147363764,-0.541937236821,-0.00998541060395,-0.48363281833,-0.0889772281532,-0.0746319852267,-0.757835608044,0.573674163972,0.819057481852,0.00485200114857,0.0,0.819044367658,-0.573596319691,-0.0115902004378,0.0,-0.00671007957259,0.0106232072887,-0.999921058034,0.0,0.402320564443,-0.0797074690627,0.304925261963,1.0,-0.22998,-0.302259428571,2.47
-0.0729104777693,-0.399206831811,-0.134768998128,-2.54312194309,-0.0511927370102,2.13773412622,-0.343626851108,-0.832950627956,-0.528501967807,-0.0127245272573,-0.469656102467,-0.0998135193087,-0.0804391216294,-0.761877092317,0.573726637092,0.819021315444,0.00475159344824,0.0,0.819006180322,-0.573647974935,-0.0117313404183,0.0,-0.00688260841358,0.0106223714008,-0.999919894255,0.0,0.398355828358,-0.084893325116,0.304880092309,1.0,-0.22998,-0.302259428571,2.487
-0.08609807096,-0.4075890279,-0.1349210156,-2.55033317939,-0.0524743813051,2.13642787765,-0.356011034981,-0.82903476927,-0.521534131141,-0.0144815562062,-0.445277835996,-0.0750496559096,-0.078554329545,-0.793192889343,0.573607680662,0.819104228875,0.00482056269411,0.0,0.81908925599,-0.573527674638,-0.0118128763521,0.0,-0.00691138392833,0.0107246341993,-0.999918604184,0.0,0.394683509946,-0.0896296114406,0.304871250099,1.0,-0.22998,-0.302259428571,2.503
-0.100569445631,-0.416253447855,-0.13519519518,-2.55753916441,-0.0539201099501,2.13515730683,-0.369383308938,-0.848865935749,-0.50572082048,-0.00752688083166,-0.413007018839,-0.0983696049609,-0.0858076488737,-0.794006610802,0.573742749558,0.819008711085,0.00497346936616,0.0,0.81899702543,-0.573664296236,-0.0115712774671,0.0,-0.00662400277272,0.0107123994137,-0.999920680397,0.0,0.39084076357,-0.0948497434539,0.304955322429,1.0,-0.22998,-0.302259428571,2.52
-0.114997893661,-0.424676899853,-0.135362425879,-2.56475088772,-0.0553347071438,2.13360912421,-0.383010357764,-0.858424552439,-0.484584453814,-0.0119167344691,-0.424950871836,-0.0753659522792,-0.0902142889403,-0.803974178674,0.573561912651,0.819135912491,0.00488222537616,0.0,0.819121777784,-0.573481764271,-0.0117866921102,0.0,-0.0068551675579,0.0107597419586,-0.999918614004,0.0,0.386883064428,-0.0999038289654,0.304896425993,1.0,-0.22998,-0.302259428571,2.537
-0.128904528444,-0.432361467583,-0.135624034493,-2.57124077704,-0.0566302077102,2.13221791419,-0.395907335692,-0.865725076079,-0.471212544058,-0.00425601697716,-0.392845970037,-0.0873566023852,-0.0856452954361,-0.804904738982,0.573702788153,0.819037240116,0.00488437004983,0.0,0.819022363997,-0.573621404728,-0.0118995047104,0.0,-0.00694449199058,0.0108273957958,-0.999917267343,0.0,0.383166170404,-0.104763999943,0.304863087121,1.0,-0.22998,-0.302259428571,2.553
-0.144622164668,-0.440693651106,-0.135860556378,-2.57807939353,-0.0580001425578,2.13071595496,-0.410788460008,-0.886863022582,-0.465762504869,-0.0240525753267,-0.365303847879,-0.0689114537121,-0.0844771907626,-0.829315745855,0.573627076762,0.819089697976,0.00497899337538,0.0,0.819076336831,-0.573545824132,-0.0118274665366,0.0,-0.00683220667557,0.0108629398551,-0.999917655355,0.0,0.379074636474,-0.110182205601,0.304897539796,1.0,-0.22998,-0.302259428571,2.571
-0.160645072104,-0.448818404043,-0.136075223138,-2.58456278896,-0.0593150258872,2.12922224141,-0.425828390904,-0.880439757437,-0.441269387122,-0.0136858830005,-0.362379935812,-0.0656304770853,-0.0897508329906,-0.83301389233,0.573690353242,0.819044423119,0.0051340485712,0.0,0.819034221205,-0.573610443116,-0.0116082274855,0.0,-0.0065628364633,0.0108646987789,-0.999919440504,0.0,0.374993178095,-0.115639343102,0.304992052187,1.0,-0.22998,-0.302259428571,2.589
-0.174103195755,-0.45526612983,-0.136340619686,-2.58998133182,-0.0604228381371,2.12781359763,-0.438580982601,-0.907732526434,-0.423828553579,-0.0236372796174,-0.355673779936,-0.0745439420291,-0.0946135617927,-0.855324529219,0.573705192302,0.819034319258,0.00508754416393,0.0,0.819021687448,-0.573622453562,-0.0118955101199,0.0,-0.00682463286265,0.0109915365481,-0.999916301753,0.0,0.371466451773,-0.120163485336,0.304907052603,1.0,-0.22998,-0.302259428571,2.604
-0.189434154695,-0.462300471931,-0.136512960976,-2.59568261197,-0.0616467970104,2.12637143162,-0.453226060627,-0.909401932192,-0.399953557639,-0.00760436973131,-0.326149380897,-0.0734513108534,-0.0779610862048,-0.867028434977,0.573565490653,0.819132157834,0.00508751753534,0.0,0.819119535134,-0.57348279211,-0.0118920653133,0.0,-0.00682370073751,0.0109883748351,-0.999916342864,0.0,0.367579464702,-0.125249875556,0.304905811764,1.0,-0.22998,-0.302259428571,2.621
-0.20515780056,-0.469021100082,-0.1367707874,-2.6011147514,-0.062822290867,2.12498160878,-0.46804488406,-0.922076244457,-0.384484831547,-0.0027524014518,-0.309134590375,-0.0725925703995,-0.0790431453449,-0.873165576187,0.573699148135,0.819038284656,0.00513055536544,0.0,0.819026111695,-0.573616093654,-0.0118975780342,0.0,-0.00680173373212,0.0110279015162,-0.99991605738,0.0,0.363656520416,-0.130446474242,0.30489380923,1.0,-0.22998,-0.302259428571,2.638
-0.221739735892,-0.475874688449,-0.136972000227,-2.60636035397,-0.0639799760007,2.12351543139,-0.483933608209,-0.927928353455,-0.372974030094,-0.0178668004139,-0.289117517325,-0.0619048035619,-0.0772642675596,-0.887689955701,0.573630230639,0.819085771138,0.00525403817079,0.0,0.819076516738,-0.573548937856,-0.0116628690222,0.0,-0.00653956796137,0.0109938451965,-0.999918181362,0.0,0.359603078827,-0.135861183574,0.304997919326,1.0,-0.22998,-0.302259428571,2.656
-0.235773585671,-0.481281839499,-0.137164161459,-2.61068854612,-0.0649379199779,2.1222814768,-0.49736254471,-0.926285463141,-0.356826486865,-0.00356981869188,-0.284099366298,-0.0575833837271,-0.0784057290901,-0.903501370255,0.573617007349,0.819094962303,0.00526483715383,0.0,0.819085428861,-0.573534977879,-0.0117233219776,0.0,-0.00658307245732,0.0110372607685,-0.999917417606,0.0,0.356136934324,-0.140384640944,0.304976335204,1.0,-0.22914,-0.301155428571,2.671
-0.254588892448,-0.487976351603,-0.137379518588,-2.61606653145,-0.0660371409616,2.12061046012,-0.51532590445,-0.953613134357,-0.315946214752,-0.0127447705586,-0.256455132873,-0.0523370660462,-0.0857019721376,-0.904137243496,0.5737021095,0.819035037144,0.00531454489825,0.0,0.819024449623,-0.573617050751,-0.0119656553714,0.0,-0.00675190741612,0.0112176799135,-0.999914284028,0.0,0.351533094276,-0.146362244015,0.304916748326,1.0,-0.2241,-0.294531428571,2.691
-0.26669090259,-0.49198874898,-0.137402378179,-2.61924291952,-0.0666424346923,2.11967311319,-0.526953702167,-0.923565325613,-0.307289829555,0.00066540306198,-0.240650646229,-0.0406019373821,-0.0613013930932,-0.902937154168,0.57367058623,0.819056673906,0.00538240892743,0.0,0.819046656958,-0.573584753357,-0.0119938043789,0.0,-0.00673646752282,0.0112891541788,-0.999913583768,0.0,0.348647704516,-0.150147399066,0.304903984645,1.0,-0.220824,-0.290225828571,2.704
-0.283490325055,-0.497193357701,-0.137478939209,-2.62326812904,-0.0675338926059,2.1184425132,-0.542948478289,-0.932646602932,-0.278456886564,0.00268581984092,-0.217240601369,-0.0448995153474,-0.0717807267586,-0.886648085282,0.57377593463,0.818982554953,0.00543124511523,0.0,0.81897352036,-0.573690481555,-0.0119311032165,0.0,-0.00665563991178,0.0112940432765,-0.99991406983,0.0,0.344690935189,-0.155406338545,0.304920690232,1.0,-0.216288,-0.284264228571,2.722
-0.299921633923,-0.501995387884,-0.137444263762,-2.62693142288,-0.0682151049955,2.11720266019,-0.558750908299,-0.916377137997,-0.251709708776,-0.00168786953122,-0.195908700539,-0.0408550018885,-0.063009699216,-0.881775280326,0.573766549606,0.818988394396,0.00554105587586,0.0,0.818980596226,-0.573680355753,-0.0119322810044,0.0,-0.00659373170494,0.0113845801342,-0.999913453274,0.0,0.34083972025,-0.160448402525,0.304945626866,1.0,-0.211752,-0.278302628571,2.74
-0.313612199679,-0.505591755656,-0.137419668826,-2.62966304684,-0.0687963970766,2.11630983563,-0.571839058006,-0.893420595167,-0.234123041292,0.0109220877709,-0.178039740555,-0.0260524507262,-0.0567881509898,-0.868389431722,0.573837513634,0.818938348503,0.00558893535955,0.0,0.818931539602,-0.573751764199,-0.0118656405132,0.0,-0.00651069187428,0.0113861243067,-0.999913979833,0.0,0.337687853249,-0.164651553805,0.304968114842,1.0,-0.207972,-0.273334628571,2.755
-0.329755307011,-0.509580076993,-0.137367554575,-2.63267598215,-0.0693705640856,2.11532261142,-0.587333491341,-0.899327079935,-0.217994506107,-0.00234801002219,-0.163859488357,-0.0377544467398,-0.0557716474363,-0.851005712762,0.573913126047,0.818884586756,0.00570124764999,0.0,0.818879642838,-0.573827672461,-0.0117762373283,0.0,-0.00637196824912,0.0114273928302,-0.999914402693,0.0,0.333983804553,-0.169555869741,0.304996907425,1.0,-0.203436,-0.267373028571,2.773
-0.344709066904,-0.512930786329,-0.137250097854,-2.63527834013,-0.0698859258423,2.11436112046,-0.601852898963,-0.861871150252,-0.190089471959,0.00789290031803,-0.146699488271,-0.0202737246067,-0.0497404051881,-0.848547723491,0.573815259173,0.818953080795,0.00571372890762,0.0,0.8189476256,-0.573728574698,-0.0118766999345,0.0,-0.0064484546114,0.0114944976779,-0.999913143206,0.0,0.330539236659,-0.174036732749,0.304975615882,1.0,-0.199152,-0.261742628571,2.79
-0.357866907419,-0.515552723422,-0.137179496677,-2.63737392328,-0.0702816930558,2.11362017319,-0.614460526991,-0.873072021436,-0.164578060921,0.00430638915213,-0.134018706975,-0.0337797539799,-0.0529379039539,-0.830266766196,0.573926216774,0.818875067115,0.00575057023688,0.0,0.818869246972,-0.573837864968,-0.0120003330692,0.0,-0.00652700426543,0.0115964941464,-0.999911455849,0.0,0.327526247153,-0.177970346081,0.304930137298,1.0,-0.195372,-0.256774628571,2.805
-0.37488762431,-0.518618024024,-0.136963154429,-2.63982856386,-0.0707165189211,2.1127771674,-0.630975428448,-0.847799816576,-0.147064652526,0.00892004899452,-0.109139503371,-0.0128952626102,-0.0477470682858,-0.81975417674,0.573859842281,0.818921368346,0.00578107126211,0.0,0.818915207105,-0.573770068893,-0.0121053094104,0.0,-0.00659641789175,0.0116811830179,-0.999910014568,0.0,0.323671693034,-0.182999641297,0.304877671803,1.0,-0.190332,-0.250150628571,2.825
-0.386783439844,-0.520549994401,-0.136890295908,-2.6412789505,-0.0710044513062,2.1122246666,-0.642401319898,-0.840975300914,-0.132309250258,0.00896445724581,-0.0969920160333,-0.028831154367,-0.036238587654,-0.803975694898,0.573979031507,0.818837447156,0.00583553129488,0.0,0.818831992295,-0.573888998752,-0.0120967932668,0.0,-0.00655648633804,0.0117218510819,-0.999909801279,0.0,0.320813181802,-0.186782028752,0.304884661847,1.0,-0.186552,-0.245182628571,2.84
-0.403168068191,-0.522988454621,-0.136626315907,-2.64307060164,-0.0713128248683,2.11150466969,-0.658447981967,-0.81567214617,-0.120104166723,0.0104319593691,-0.0832731945659,-0.0159246259093,-0.0373986201957,-0.791413788098,0.573839320964,0.818934913684,0.00589811553706,0.0,0.81893049159,-0.573749445669,-0.0120486695922,0.0,-0.00648316049351,0.0117443731491,-0.999910015116,0.0,0.317345690026,-0.191342286518,0.304909859633,1.0,-0.181764,-0.238889828571,2.859
-0.414651977326,-0.524465949807,-0.136521576343,-2.64412672452,-0.0715400986123,2.11106252811,-0.669484712227,-0.804502255958,-0.101253574355,0.0171507827691,-0.0653358844555,-0.0112500472693,-0.0271015197111,-0.786442951069,0.573972330169,0.818841373813,0.0059426957833,0.0,0.818837979738,-0.573883060844,-0.0119725651484,0.0,-0.00639334234004,0.0117382521234,-0.999910665315,0.0,0.314615000111,-0.194967004322,0.304943254197,1.0,-0.177984,-0.233921828571,2.874
-0.429664412796,-0.526125932301,-0.136292895551,-2.64533331182,-0.0717452514247,2.11055707672,-0.684167773459,-0.792072627804,-0.0822709629596,0.00857707973483,-0.0536039004453,-0.0121933122988,-0.0284863838349,-0.765404965471,0.573925049557,0.818874056818,0.00600528625132,0.0,0.818871683889,-0.573835920005,-0.0119268242872,0.0,-0.00632063971998,0.011762888557,-0.999910838008,0.0,0.311297323594,-0.199352479044,0.304960678439,1.0,-0.173196,-0.227629028571,2.893
-0.441441331681,-0.527217408296,-0.136134114888,-2.64616180024,-0.0719050768036,2.11018254194,-0.695517096748,-0.772600169211,-0.0659090148325,0.0178509269851,-0.0501793285873,-0.0130461888418,-0.0304049724409,-0.742253391148,0.574044067498,0.818790425413,0.00603280401714,0.0,0.818788171361,-0.573954356641,-0.0119613474804,0.0,-0.00633140454277,0.0118061564349,-0.999910259967,0.0,0.308854269473,-0.202556049691,0.304952979212,1.0,-0.169668,-0.222992228571,2.907
-0.456514283359,-0.528333301601,-0.135856158626,-2.64705049313,-0.0720328631232,2.10981989867,-0.710347619003,-0.755415501791,-0.0484817776287,0.0129890069966,-0.0433682828924,-0.00286600662912,-0.0142356711028,-0.736229218733,0.573940497332,0.818862717952,0.00607466644141,0.0,0.818860795348,-0.573850236897,-0.0119854226425,0.0,-0.00632858882934,0.0118534538416,-0.999909718222,0.0,0.305527214464,-0.206919167821,0.304932942919,1.0,-0.164628,-0.216368228571,2.927
-0.467789602425,-0.528973971737,-0.135677787606,-2.64754790243,-0.0721309860011,2.10954782102,-0.72124951469,-0.732956855859,-0.0344176903966,0.016392409562,-0.0258631243822,-0.0124774762073,-0.013961922937,-0.723670765728,0.574049762995,0.818785980819,0.00609377716909,0.0,0.818783992909,-0.573958811182,-0.0120334086627,0.0,-0.00635533157476,0.0118974916569,-0.999909025588,0.0,0.303032736638,-0.210188862833,0.304922095025,1.0,-0.160848,-0.211400228571,2.942
-0.480719082908,-0.529492267659,-0.135416170054,-2.64797787366,-0.0721681630039,2.10932336559,-0.734032643575,-0.718959812785,-0.0213074911282,0.00975118120175,-0.0240666027059,-0.00277580496808,-0.0185220915978,-0.708871424072,0.573944517522,0.818859452328,0.0061347404384,0.0,0.818857678135,-0.573852812147,-0.0120747609833,0.0,-0.00636721670206,0.0119539523287,-0.999908276581,0.0,0.300192455737,-0.21391651778,0.304903378752,1.0,-0.156312,-0.205438628571,2.96
-0.49145327562,-0.529787323763,-0.135266741314,-2.64821328606,-0.0721836137044,2.1091478486,-0.744399201647,-0.7078096787,-0.0153546839373,0.0193846882773,-0.0101921424103,-0.0010972382804,-0.0154498987436,-0.681872679336,0.574120001675,0.818735942867,0.0061989059599,0.0,0.818734681681,-0.574027366846,-0.0121181692493,0.0,-0.00636336157508,0.0120327743157,-0.999907355694,0.0,0.297819052225,-0.217023411476,0.304892878826,1.0,-0.152532,-0.200470628571,2.975
-0.505079372264,-0.529981012968,-0.134915302316,-2.6483714963,-0.0721970749062,2.10899515039,-0.757922553131,-0.684147352814,-0.00974204267915,0.0183424518013,-0.00656330051849,-0.00209268502093,-0.0125040642669,-0.673776127355,0.573941546299,0.818861102891,0.00619213256207,0.0,0.81885965256,-0.573848789823,-0.0121318889664,0.0,-0.00638110705808,0.0120337143176,-0.999907231293,0.0,0.294834635665,-0.220926967561,0.304887590536,1.0,-0.147492,-0.193846628572,2.995
-0.513940091,-0.530035950275,-0.134786383473,-2.64841139941,-0.0721971197288,2.10893837258,-0.766479119209,-0.683424027988,-0.00105218634201,0.00532059338499,-7.41230967958e-05,-0.000877721656049,-0.000682768057856,-0.655698101182,0.574097372825,0.818751529858,0.00623584565171,0.0,0.818750737579,-0.574004553573,-0.012114003998,0.0,-0.00633907755354,0.0120604532975,-0.999907176473,0.0,0.292870575755,-0.223484710946,0.304887946594,1.0,-0.144216,-0.189541028572,3.008
-0.527498915405,-0.529918147951,-0.134410227017,-2.64833168303,-0.0721913706558,2.10891029262,-0.779933268843,-0.637871952822,0.00818702904678,0.0117802365309,0.00705158527558,-0.000172455311774,0.000677231262228,-0.639532391073,0.573925040273,0.818872604055,0.00620107862996,0.0,0.818871595055,-0.573832861695,-0.0120790956304,0.0,-0.00633297972719,0.0120106138365,-0.999907815012,0.0,0.289897721146,-0.227358215894,0.304888419639,1.0,-0.138924,-0.182585828572,3.029
-0.536398328671,-0.529775299866,-0.134238644296,-2.6482164446,-0.0721833320548,2.10890018916,-0.788585261597,-0.640626805214,0.0118414742682,0.0130334160733,0.0109366449265,0.00384929923935,-0.00100995249986,-0.613554996348,0.574016683395,0.81880829611,0.00621033874441,0.0,0.818807553545,-0.573924721546,-0.0120561667821,0.0,-0.0063075438856,0.0120057442925,-0.999908034268,0.0,0.287920321803,-0.229911159261,0.304892194947,1.0,-0.135396,-0.177949028572,3.043
-0.54806843755,-0.529410700517,-0.133912033164,-2.64794442437,-0.0721507607717,2.10892114657,-0.800076450745,-0.590365917603,0.0235161809764,0.0237717135127,0.0188744089813,0.0112632792357,0.00101291008409,-0.601142813732,0.573980605214,0.818833866512,0.00617339393527,0.0,0.818832743779,-0.573889003453,-0.0120455939098,0.0,-0.00632061903366,0.0119691448201,-0.999908390478,0.0,0.285475010312,-0.233068728666,0.30489351328,1.0,-0.13086,-0.171987428572,3.061
-0.556289856316,-0.529018665801,-0.133659022066,-2.64767713027,-0.0721177036799,2.10894176474,-0.808268867854,-0.589680107127,0.0293561249064,0.0166212524019,0.0199294040059,0.000851698084474,0.00560819571985,-0.574763806513,0.573830330747,0.81893944023,0.0061393526611,0.0,0.818937631013,-0.573738450995,-0.0120869045507,0.0,-0.0063761829223,0.0119638097007,-0.999908101552,0.0,0.28366607837,-0.235402213057,0.304879870654,1.0,-0.127332,-0.167350628572,3.075
-0.567945497007,-0.528386570226,-0.133397429624,-2.64719957366,-0.0720346709286,2.10902611548,-0.819595514851,-0.574124508174,0.0304264525688,0.0119247698269,0.0219263075334,0.00500798589365,0.00627623848632,-0.557472162875,0.573984750143,0.818831169576,0.00614566802512,0.0,0.818829465291,-0.5738928524,-0.0120850170758,0.0,-0.00636875633194,0.0119691000118,-0.99990808557,0.0,0.280942868033,-0.238907541864,0.304879574007,1.0,-0.12204,-0.160395428572,3.096
-0.574540086781,-0.527865376325,-0.133150644748,-2.64682116703,-0.0719357567698,2.10913117977,-0.826212681666,-0.540627100105,0.0428800266654,0.019153194112,0.0337468961413,0.0115303780549,0.00560989513217,-0.554420188898,0.573855822085,0.818921629905,0.00613240851012,0.0,0.818919810979,-0.573764118761,-0.0120758481832,0.0,-0.00637073996846,0.0119519767171,-0.999908277756,0.0,0.279516747716,-0.240784666919,0.30487640838,1.0,-0.119016,-0.156421028572,3.108
-0.583696167182,-0.527077401022,-0.132884562015,-2.64624639662,-0.0717849704365,2.10926218946,-0.835270893844,-0.537213957042,0.0419438413335,0.0166014280213,0.0353151360051,0.0136678594679,0.00287527543159,-0.518241684913,0.573845019504,0.818929010469,0.00615762163802,0.0,0.818927365673,-0.573752918091,-0.0120956866008,0.0,-0.00637267796941,0.0119839251079,-0.999907883014,0.0,0.277509629876,-0.243401900808,0.304867575842,1.0,-0.114732,-0.150790628572,3.125
-0.59370376946,-0.526120073029,-0.132607165162,-2.64552319672,-0.0716062448046,2.10940078784,-0.845010085546,-0.516980658904,0.0558497372112,0.0159906072959,0.0404787401732,0.0138543163005,0.0121038045325,-0.511926722946,0.573985832337,0.818830058036,0.00619251435601,0.0,0.818828662857,-0.573893159269,-0.0121247486541,0.0,-0.00637438974325,0.012030273818,-0.999907315538,0.0,0.275306226549,-0.24626622759,0.304864968573,1.0,-0.109944,-0.144497828572,3.144
-0.60106806968,-0.525246296284,-0.132285544927,-2.64489804388,-0.0714186424727,2.10954690759,-0.852400430715,-0.478692520571,0.0601146262637,0.0242874170222,0.040601493698,0.0113986873325,0.0153770292066,-0.48382644248,0.573852522203,0.818923461491,0.00619627966781,0.0,0.818921779007,-0.573759227185,-0.0121743989285,0.0,-0.00641485178427,0.0120608101082,-0.999906688915,0.0,0.273720639125,-0.248355142884,0.304849864954,1.0,-0.106164,-0.139529828572,3.159
-0.609247691256,-0.524295140071,-0.131983038384,-2.64419706155,-0.0712382788374,2.10970924654,-0.860483126323,-0.481328325326,0.0488541174644,0.0158591247386,0.0369006599402,0.0132421997171,0.00659574325991,-0.45894134611,0.573834241749,0.818936216103,0.00620353545025,0.0,0.818934410672,-0.573740508498,-0.0122068352914,0.0,-0.00643752386272,0.0120852213996,-0.99990624846,0.0,0.271929320385,-0.250680553232,0.304841502641,1.0,-0.10188,-0.133899428572,3.176
-0.617194501658,-0.523337868601,-0.131688068963,-2.64342782946,-0.0710470425376,2.10988927391,-0.868231315733,-0.464206183629,0.0546115398037,0.0194393189085,0.0463131290228,0.00852816093637,0.0121214885226,-0.460589038462,0.573912330211,0.818881433555,0.00621143402153,0.0,0.818880019265,-0.57381908597,-0.0121621349218,0.0,-0.00639523021506,0.0120666507249,-0.999906744137,0.0,0.270195479887,-0.252950200167,0.304862935309,1.0,-0.0975960000001,-0.128269028572,3.193
-0.624240402907,-0.522324241359,-0.131407799626,-2.64264644514,-0.0708262334175,2.11008583266,-0.8752259003,-0.420566384118,0.0659037074723,0.0221685360378,0.048402100484,0.0175483756761,0.00885703969749,-0.434206466712,0.573893396441,0.818894482654,0.00624040883925,0.0,0.818893504441,-0.573800134514,-0.0121482886585,0.0,-0.00636754171965,0.0120822855241,-0.999906732045,0.0,0.26867642679,-0.25497059872,0.304869964717,1.0,-0.0935640000001,-0.122969828572,3.209
-0.63136064646,-0.521288369061,-0.131074136518,-2.64184583913,-0.0706093932869,2.11029172715,-0.882362179323,-0.415981232126,0.0685299475069,0.0200887797387,0.0465396730237,0.0146778173081,0.0180551198006,-0.409530461728,0.573780581606,0.818973546977,0.00623862363837,0.0,0.818972660164,-0.573687569961,-0.0121285150344,0.0,-0.00635403447715,0.0120686009653,-0.999906983232,0.0,0.267139975533,-0.256996292208,0.304879335607,1.0,-0.0892800000001,-0.117339428572,3.226
-0.638338501096,-0.520269819868,-0.130792076882,-2.64102286692,-0.0703991974236,2.11048622978,-0.88913045537,-0.404489482312,0.0607223651122,0.020449259403,0.0507116352802,0.0119381071231,0.0115398584318,-0.394363421837,0.573886969386,0.818898909867,0.00625049509929,0.0,0.818898463684,-0.573794426138,-0.0120834436455,0.0,-0.00630874104295,0.0120532837506,-0.999907454786,0.0,0.265617388599,-0.258991425276,0.304902624245,1.0,-0.0849960000001,-0.111709028572,3.243
-0.644531449459,-0.519256269653,-0.130559619689,-2.64023534512,-0.0701844355594,2.11069034119,-0.895250540943,-0.382106903314,0.0673688241363,0.0105979712362,0.0473113966869,0.0131217416442,0.0183893451466,-0.374281313225,0.573916495085,0.818877937553,0.00628704698623,0.0,0.818878070458,-0.57382398054,-0.0120620057212,0.0,-0.00626977275279,0.012071141359,-0.999907484468,0.0,0.264268061447,-0.260772966323,0.304910906339,1.0,-0.0809640000001,-0.106409828572,3.259
-0.650716875916,-0.518185662758,-0.130255331423,-2.63943903037,-0.0699409831516,2.1109008482,-0.901417713773,-0.352319044036,0.059873763633,0.0152015759086,0.0439499837321,0.0110249992993,0.00615229446994,-0.356197758704,0.573863058621,0.818915184181,0.00631331680111,0.0,0.818915510218,-0.573770151176,-0.0120808793435,0.0,-0.00627094353237,0.012103076442,-0.999907091088,0.0,0.262929107233,-0.262529319523,0.304904171618,1.0,-0.0766800000001,-0.100779428572,3.276
-0.657272301949,-0.517034680457,-0.129871155543,-2.63860027188,-0.0696829394837,2.11113204529,-0.907883907254,-0.342652114854,0.0587332054736,0.0162131479571,0.0425166171454,0.012560615393,0.0112397250802,-0.330994835506,0.573819400949,0.818945790445,0.00631144257516,0.0,0.81894586659,-0.573726077094,-0.0121162270897,0.0,-0.00630161530737,0.0121214893558,-0.999906675215,0.0,0.261511016421,-0.264369518129,0.304890446815,1.0,-0.0718920000001,-0.0944866285715,3.295
-0.661919954596,-0.516185672338,-0.129626603583,-2.63794742402,-0.0694966886589,2.1113147202,-0.912424186929,-0.32234156195,0.0648539287809,0.0153542493976,0.0465046056656,0.0106556838831,0.00972005292121,-0.326634379136,0.573848450539,0.818925394477,0.00631672344595,0.0,0.818925653497,-0.573755316036,-0.0120978620383,0.0,-0.00628311375439,0.0121154995223,-0.999906864239,0.0,0.260507426176,-0.265692561437,0.304895631271,1.0,-0.0683640000001,-0.0898498285715,3.309
-0.667465793036,-0.515089491619,-0.129335839769,-2.63712093746,-0.0692436903939,2.111545305,-0.917890944833,-0.301693729728,0.0568609480837,0.0118911472368,0.0401199846121,0.0101602161331,0.0205233786635,-0.301340192617,0.573859245376,0.818917608129,0.00634543096949,0.0,0.81891822681,-0.573765950633,-0.0120962223218,0.0,-0.00626513784207,0.0121381517884,-0.999906702307,0.0,0.259314715767,-0.267276377621,0.304893462985,1.0,-0.0638280000001,-0.0838882285715,3.327
-0.672470776923,-0.514112791943,-0.129103167785,-2.63640450518,-0.0690255551279,2.11173153936,-0.922789240597,-0.288266626244,0.0532312094125,0.0145834368094,0.0431389330547,0.0135576295119,0.00749089738062,-0.287761570041,0.573913032273,0.818879608735,0.00638472287046,0.0,0.818880479199,-0.573819040298,-0.012133288072,0.0,-0.00627214739724,0.0121920118066,-0.99990600309,0.0,0.258213020835,-0.268697932182,0.304879847638,1.0,-0.0595440000001,-0.0782578285715,3.344
-0.676782385881,-0.513245216292,-0.128771215732,-2.63575643864,-0.0688146916948,2.11191301327,-0.926990342182,-0.258557559954,0.052419346977,0.0227826776408,0.0410442283347,0.0107558723383,0.00706631331727,-0.261733866502,0.573892256978,0.818894305453,0.00636716413572,0.0,0.818894906523,-0.573798272417,-0.0121417273185,0.0,-0.00628944466954,0.0121823161215,-0.999906012613,0.0,0.257299303643,-0.26989941106,0.304877210214,1.0,-0.0555120000001,-0.0729586285715,3.36
-0.681057470299,-0.51236043049,-0.128410846025,-2.63509429086,-0.0686039700882,2.11210396766,-0.93122020915,-0.246527266642,0.0502459883378,0.0213473157147,0.0386425197502,0.014392735969,0.015660777128,-0.240385617569,0.573798227796,0.818960452957,0.00633381175709,0.0,0.818960615009,-0.573704410213,-0.012145273432,0.0,-0.00631288443528,0.01215631279,-0.999906181374,0.0,0.256400760768,-0.271087244898,0.304875833717,1.0,-0.0512280000001,-0.0673282285715,3.377
-0.685073269018,-0.511503183753,-0.128114610787,-2.63444813482,-0.0683821974613,2.1122892379,-0.935113658503,-0.229593171762,0.050351681611,0.0167719921987,0.0383587846459,0.012971785171,0.0108048357609,-0.220800451601,0.573816623971,0.818947520759,0.00633933741433,0.0,0.818947775589,-0.573722816786,-0.0121415508854,0.0,-0.00630639189546,0.0121588441085,-0.999906191566,0.0,0.255550136399,-0.272213818074,0.304875095671,1.0,-0.0469440000001,-0.0616978285715,3.394
-0.688552715337,-0.510765950832,-0.127866467537,-2.63389838388,-0.0681873940224,2.11245782245,-0.938413386358,-0.208282211512,0.0440427154781,0.0195419748588,0.0331290779389,0.00633920614478,0.00394615473308,-0.19696386624,0.573899461065,0.818889388482,0.006350190675,0.0,0.818889828227,-0.57380566937,-0.0121346580894,0.0,-0.00629328849669,0.0121644144914,-0.999906206371,0.0,0.254806713836,-0.273187954023,0.304872194817,1.0,-0.0429120000001,-0.0563986285715,3.41
-0.691933600557,-0.510070421048,-0.127596001888,-2.63337094659,-0.0679735936368,2.11260966168,-0.941734772988,-0.194783890344,0.0349584004715,0.0204562354701,0.0281830087363,0.0123711282202,0.0111159320431,-0.188016890714,0.573874692472,0.818906591218,0.00637017280861,0.0,0.818907345152,-0.573780918243,-0.0121229046696,0.0,-0.00627256370146,0.0121738438762,-0.999906221838,0.0,0.254087160637,-0.274120832607,0.304873549697,1.0,-0.0386280000001,-0.0507682285715,3.427
-0.695013700932,-0.509435132955,-0.127337691227,-2.63288105554,-0.0677666663591,2.11275485687,-0.944608736014,-0.172132906477,0.0358269761548,0.0153861501035,0.0314531061657,0.0131420847943,0.00596425449749,-0.166288345031,0.573973556409,0.818837158247,0.00638840506438,0.0,0.818838303195,-0.573879975151,-0.0120976957366,0.0,-0.00623998519771,0.012175062617,-0.999906410838,0.0,0.253435718335,-0.274968913522,0.304879163901,1.0,-0.0343440000001,-0.0451378285715,3.444
-0.697750793936,-0.508832937708,-0.127043533432,-2.63241844506,-0.067563578341,2.11289260932,-0.947273570493,-0.152612842759,0.0332175885021,0.0127960865532,0.0262805974713,0.0111200413151,0.0134240262772,-0.148698651226,0.573938257981,0.818861909518,0.00638717988384,0.0,0.818863235974,-0.573845075855,-0.0120655123473,0.0,-0.00621485641033,0.0121553199543,-0.999906807536,0.0,0.252848000763,-0.275756936775,0.304888891834,1.0,-0.0298080000001,-0.0391762285715,3.462
-0.700141653783,-0.508305036846,-0.12671697524,-2.63201554283,-0.0673656300147,2.11300275949,-0.949563276682,-0.133477245421,0.0307576154049,0.0186172527469,0.0203533261487,0.0111520529993,0.00202958413197,-0.127971941857,0.573889665188,0.818896087102,0.00637162623236,0.0,0.818897176699,-0.573796497111,-0.012072315383,0.0,-0.00623007496464,0.0121461176163,-0.999906824656,0.0,0.252405029984,-0.276345033032,0.304889058991,1.0,-0.0257760000001,-0.0338770285715,3.478
-0.702221908522,-0.507846204433,-0.126403683732,-2.63167078868,-0.0671761460457,2.11307803311,-0.951469970652,-0.11850588001,0.0259856539829,0.015926963646,0.0183283994755,0.0126483659311,0.00600249802152,-0.112180978249,0.573907330137,0.81888378175,0.00636202037267,0.0,0.818884625393,-0.573813966539,-0.0120933453245,0.0,-0.00625254858901,0.0121504541311,-0.999906631691,0.0,0.251996583307,-0.276881252265,0.3048892154,1.0,-0.0214920000001,-0.0282466285715,3.495
-0.703913486219,-0.50748320007,-0.126131359267,-2.63139200334,-0.0669958028007,2.1131928384,-0.953047047703,-0.102735835887,0.0174521062032,0.0133873775683,0.0170784570449,0.0169562959633,0.00859961676117,-0.0853631056155,0.573898334489,0.818890111863,0.0063587156061,0.0,0.81889120907,-0.573805565133,-0.0120460794656,0.0,-0.00621586863395,0.0121205546115,-0.999907223263,0.0,0.251678193068,-0.277318381961,0.304897320728,1.0,-0.01978,-0.0259965714286,3.511
-0.705645307374,-0.507082255229,-0.125923200536,-2.63110802795,-0.0668415683209,2.113237688,-0.954718993741,-0.0953349619873,0.0223767939481,0.0110192422472,0.0215847790519,0.00630151083934,0.00423268105655,-0.0876232310512,0.573879657726,0.818903034951,0.00638002333647,0.0,0.818904048796,-0.573786092925,-0.0121006335715,0.0,-0.00624859719842,0.0121691686882,-0.999906428805,0.0,0.251320244173,-0.277771476841,0.30488614144,1.0,-0.01942,-0.0255234285714,3.529
-0.707073202574,-0.506748948989,-0.125779005766,-2.63084766733,-0.0667457267984,2.11330149303,-0.956096987135,-0.0873145159073,0.0175391255395,0.0107778389059,0.0153117507013,0.00322298857738,0.000998409069369,-0.0771309911231,0.573872009623,0.818908432253,0.00637519076752,0.0,0.818909393992,-0.573778489749,-0.0120994228756,0.0,-0.00625049242912,0.0121644579324,-0.99990647428,0.0,0.251024739681,-0.278164477002,0.304889394181,1.0,-0.0191,-0.0251028571429,3.545
-0.708440878978,-0.506409351161,-0.125688139195,-2.63058232392,-0.0667014621896,2.11338380632,-0.957429625397,-0.0825975225732,0.0187984622669,0.000284565178922,0.0214306369254,0.000409168083833,0.00794553294267,-0.089776434755,0.573868389817,0.818911173476,0.00634886021692,0.0,0.818911895244,-0.573775190758,-0.0120865710316,0.0,-0.00625513001536,0.012135491855,-0.99990679725,0.0,0.250731718018,-0.278562135281,0.304892827979,1.0,-0.01878,-0.0246822857143,3.561
-0.709897026109,-0.506049971695,-0.12565038167,-2.63029961098,-0.066636671358,2.11341959677,-0.958989582852,-0.0796674839526,0.0222034042161,0.00218596889447,0.0210040509407,0.00470528413816,0.000369782674595,-0.0871127781174,0.573798689651,0.818959813768,0.00637448741552,0.0,0.818960658561,-0.573704979633,-0.012115402431,0.0,-0.00626507316776,0.0121724908094,-0.999906285272,0.0,0.250399245169,-0.27898814872,0.304891554384,1.0,-0.01842,-0.0242091428572,3.579
-0.711247875416,-0.505713071547,-0.125632947508,-2.63003252092,-0.0665960217029,2.11350237793,-0.960333265089,-0.074674407904,0.0172362829101,-0.000311923600194,0.0182706253203,0.00553465943476,0.00781065404405,-0.0734114723116,0.573823171558,0.81894261702,0.00638002455362,0.0,0.81894366141,-0.573729678712,-0.012094713828,0.0,-0.00624458738471,0.0121653419362,-0.999906500421,0.0,0.250092552598,-0.279397209626,0.304895023959,1.0,-0.01808,-0.0237622857143,3.596
