nelsonifechukwu/NELSON_IML_WORK/CNN-GradCAM/train2dof/data_sample_2022-02-21-14-14-31/robot_state.csv
position_joint1,position_joint2,position_joint3,position_joint4,position_joint5,position_joint6,position_joint7,velocity_joint1,velocity_joint2,velocity_joint3,velocity_joint4,velocity_joint5,velocity_joint6,velocity_joint7,ee_T_00,ee_T_10,ee_T_20,ee_T_30,ee_T_01,ee_T_11,ee_T_21,ee_T_31,ee_T_02,ee_T_12,ee_T_22,ee_T_32,ee_T_03,ee_T_13,ee_T_23,ee_T_33,v_x,v_y,time
0.465088207924,0.547802650845,-0.123978558994,-1.35576491419,0.0794823237054,1.8940865042,0.159169282562,-0.000348082993935,-0.00198595040452,-0.000240959250933,-0.000520617576446,-0.000266679173989,-0.00306575738461,0.00011142821243,0.573786702392,0.818990668658,0.00196257759707,0.0,0.8189478467,-0.573728238244,-0.0118777071846,0.0,-0.00860191077553,0.00842268129727,-0.999927530159,0.0,0.661684238819,0.260909837999,0.303229996829,1.0,0.0,0.0,0.0
0.465089698637,0.54780527764,-0.12397862511,-1.35576180551,0.0794824419408,1.89408519872,0.159172373758,0.000748203449438,0.000285273610314,-0.00113869653279,0.00164916983735,-0.000256500510777,0.000386479199557,0.00131077364825,0.573787916397,0.818989820034,0.00196177948416,0.0,0.81894698864,-0.573729456309,-0.0118780327025,0.0,-0.00860262281568,0.00842222719017,-0.999927527859,0.0,0.661684241098,0.260911050947,0.303229504544,1.0,-0.00032,-0.000420571428571,0.017
0.465085027824,0.547799160996,-0.123976599476,-1.35577840917,0.0794830523284,1.89408685322,0.15917233448,-0.000811666776651,-0.00231815090299,-0.000108453657121,-0.00190562653889,-0.000207003290676,2.06203073399e-05,-0.000314162594897,0.573791362998,0.818987419926,0.00195567188544,0.0,0.818944478054,-0.573732897289,-0.0118849204385,0.0,-0.00861173283151,0.00842121352345,-0.999927457979,0.0,0.661681644449,0.26090745147,0.303226012947,1.0,-0.00066,-0.000867428571429,0.034
0.465087128691,0.547764253482,-0.123979545577,-1.355808912,0.0794840199064,1.89409247537,0.159165728077,-0.000130993506606,-0.00535111686023,-0.000900112142249,-0.00450863117206,0.000235306117167,-0.000295854338476,-0.00178697328071,0.573788189691,0.818989619109,0.00196572239445,0.0,0.818946789932,-0.573729665287,-0.0118816384107,0.0,-0.00860331090539,0.00842752809512,-0.999927477276,0.0,0.661676772305,0.260904515199,0.303236811752,1.0,-0.001,-0.00131428571429,0.051
0.465088808832,0.547660930556,-0.123978970367,-1.35593711227,0.079481361445,1.89412450815,0.159165197139,0.000176271170074,-0.0080003123397,-0.000125325618658,-0.0120452524363,0.000297365249706,0.00107783684492,-0.00166918544601,0.573792310983,0.818986707567,0.00197574993867,0.0,0.818943940031,-0.573733677357,-0.0118843365347,0.0,-0.00859972494369,0.00843733180882,-0.999927425448,0.0,0.661656082768,0.260893845135,0.303251746996,1.0,-0.00132,-0.00173485714286,0.067
0.465080988973,0.547534456143,-0.123978971341,-1.356131455,0.0794769744844,1.89416650208,0.159167538846,-0.000420273345175,-0.00526475817509,-0.00137581496182,-0.0105448436002,-0.000384054310212,0.00216624373533,0.000975038341309,0.573810146393,0.818974252665,0.00195863969639,0.0,0.818931156133,-0.573751477106,-0.01190592015,0.0,-0.00862703573542,0.00843589127229,-0.999927202347,0.0,0.661625526761,0.260869397797,0.303252480027,1.0,-0.00166,-0.00218171428571,0.084
0.465061929429,0.547376662936,-0.123981755401,-1.35633228239,0.0794741184476,1.89426818724,0.15915546737,-0.00136791485493,-0.0139460093062,-0.00347890356006,-0.00498412081252,0.000326994177077,0.0127584656523,0.00124102947003,0.573828446427,0.818961300083,0.00201244591286,0.0,0.818918872319,-0.573769522388,-0.0118811884752,0.0,-0.00857571853911,0.00846595685791,-0.999927389677,0.0,0.661609706416,0.260839864056,0.303277586827,1.0,-0.00198,-0.00260228571429,0.1
0.465042815348,0.54718728651,-0.12398133897,-1.35656238549,0.0794705900714,1.89438855462,0.159148272073,-0.00311329643586,-0.0121660945361,-0.000548106178299,-0.0141506365792,0.000117823126906,0.0046775467014,0.00116767299722,0.573850034455,0.818945990754,0.00208544584261,0.0,0.818904467656,-0.573790767585,-0.0118479866763,0.0,-0.00850641539114,0.00850691226442,-0.999927634052,0.0,0.66159104382,0.260810249165,0.303312640632,1.0,-0.00232,-0.00304914285714,0.117
0.46501910639,0.546977083304,-0.123976465688,-1.3568489964,0.0794641645888,1.89452168497,0.159126480683,-0.00342180199156,-0.0161648487698,-0.000449672514498,-0.0119704795163,8.95536309171e-05,0.00349780002734,-0.000440702382225,0.573862678776,0.818936989064,0.00214026893304,0.0,0.818896094683,-0.573803107467,-0.0118290690984,0.0,-0.00845933213462,0.00854108359339,-0.999927742185,0.0,0.661562839011,0.260774131925,0.303336497866,1.0,-0.00266,-0.003496,0.134
0.464981420964,0.546740289671,-0.123981102316,-1.35722189614,0.0794598236186,1.89465559788,0.1590895254,-0.00182865447985,-0.01222276873,-0.00117636037571,-0.0212805565273,0.000143981583514,0.00961348039123,0.00122697020394,0.573886216445,0.818920476941,0.00214707279563,0.0,0.818879524936,-0.5738264677,-0.011842951892,0.0,-0.00846655162091,0.00855486551138,-0.999927563266,0.0,0.661521384171,0.260713750526,0.30333849172,1.0,-0.003,-0.00394285714286,0.151
0.464939917296,0.546457184551,-0.123979235746,-1.35763594433,0.0794440810817,1.89481472419,0.158947012822,-0.00452260549573,-0.0125576198738,-0.000140887106688,-0.0262886462365,0.000355028572753,0.0112671398139,-0.00386953653944,0.573821194294,0.818965958558,0.00217775206548,0.0,0.818925312661,-0.573761238067,-0.0118372664365,0.0,-0.00844497112444,0.00857605577054,-0.999927564242,0.0,0.66147685659,0.260650202451,0.303355637104,1.0,-0.00334,-0.00438971428571,0.168
0.464894100484,0.546151076213,-0.123973961455,-1.35815572299,0.0794209486153,1.89499310533,0.158936522162,-0.00356310857605,-0.0214420985438,0.000449679815941,-0.0319491310997,-0.00494987302334,0.0104105211422,0.00128129286545,0.573869324906,0.818932299918,0.00215243656604,0.0,0.818891204244,-0.573809341204,-0.0118651784897,0.0,-0.00848185300349,0.00857183837582,-0.999927288235,0.0,0.661413220407,0.260573627458,0.303340274911,1.0,-0.0037,-0.00486285714286,0.186
0.464840849428,0.545816674201,-0.123984711677,-1.35870610072,0.0793542275412,1.89517579697,0.158859515851,-0.000183261115748,-0.0252277378637,-0.0024239288665,-0.035712512626,-0.00987010983296,0.00412880288752,-0.00558811602134,0.57387032537,0.818931727002,0.00210310994056,0.0,0.818890309428,-0.573810860824,-0.0118534394296,0.0,-0.00850053395922,0.00852471761944,-0.99992753243,0.0,0.66135217198,0.260472833267,0.303331182795,1.0,-0.00404,-0.00530971428571,0.203
0.464785480545,0.545497950787,-0.123979661986,-1.35926077489,0.0792918335245,1.89536130465,0.158757545334,-0.00217605509049,-0.022193119655,-0.000522751810693,-0.0370277132462,-2.6325726997e-05,0.0163052264931,-0.0067969155003,0.573842966042,0.818951044885,0.0020453133888,0.0,0.818909074328,-0.573783935889,-0.0118604299975,0.0,-0.00853970798872,0.00848111330993,-0.999927569429,0.0,0.661286907888,0.260379965319,0.303308654656,1.0,-0.00434,-0.005704,0.218
0.464720521495,0.545091992961,-0.12398284915,-1.35996263299,0.0792768730093,1.89558745042,0.158700857773,-0.0035368515924,-0.024476197513,0.000616964147938,-0.0392082952496,-2.74336180821e-05,0.0107969234771,-0.0160001780002,0.573887022918,0.818920284957,0.00199967820524,0.0,0.818877436809,-0.573827893629,-0.0119180065345,0.0,-0.00861259199401,0.00847724386558,-0.999926977132,0.0,0.661199888374,0.260270102081,0.303281690437,1.0,-0.00468,-0.00615085714286,0.235
0.464652750297,0.544684865487,-0.123977568884,-1.36063840473,0.0792549785995,1.89582059623,0.158605050559,-0.00402185577943,-0.0212418365516,0.000874321201847,-0.0466024922296,-0.000634621164008,0.0192973348102,-0.00360626484601,0.573892178283,0.818916717661,0.00198094445661,0.0,0.818873394451,-0.573832899488,-0.0119546738266,0.0,-0.00865331775268,0.00848299983843,-0.999926576707,0.0,0.661119390756,0.260165758299,0.303268249152,1.0,-0.005,-0.00657142857143,0.251
0.4645919927,0.544213885103,-0.123986042904,-1.36140368547,0.0792180771131,1.89609143177,0.158518530828,-0.00163823521084,-0.0275904289311,-0.000316892680401,-0.0449534437198,-0.00157061204171,0.00622525782339,-0.00633799843297,0.573909808063,0.818904404574,0.00196348664423,0.0,0.818860787369,-0.573850535528,-0.011971661762,0.0,-0.00867706574505,0.00847863956357,-0.999926407893,0.0,0.661029589686,0.260048433412,0.303261053211,1.0,-0.00534,-0.00701828571429,0.268
0.464512461892,0.54370062184,-0.1239868167,-1.36223290619,0.0791750909986,1.89639006589,0.158409906118,-0.00405433385308,-0.0256022433249,0.000455314810668,-0.0483982843258,-0.00614561145824,0.0134219657874,-0.00604542091039,0.573921247851,0.818896414761,0.00195193706142,0.0,0.818852565794,-0.573861943595,-0.0119871634206,0.0,-0.00869627018259,0.00847819969118,-0.999926244788,0.0,0.660935079775,0.259917032924,0.303255441167,1.0,-0.00568,-0.00746514285714,0.285
0.464440061217,0.543195773111,-0.123997155119,-1.36303306808,0.079126701266,1.89666763789,0.15830486289,-0.00213324551668,-0.0353661483755,0.00023720254742,-0.0483234249817,-0.000128864272985,0.0131259796332,-0.00558905526575,0.57393328566,0.818888019396,0.00193447731407,0.0,0.818843962591,-0.573874073573,-0.0119941448053,0.0,-0.00871188283827,0.00846803704214,-0.999926194999,0.0,0.66084336109,0.259785846424,0.303256123223,1.0,-0.006,-0.00788571428571,0.301
0.464364712947,0.542586974839,-0.123995636031,-1.36399272155,0.0790706036374,1.89700610586,0.158186313195,-0.010116638613,-0.0335641804003,0.000505046528752,-0.0532386457759,-0.00661766775848,0.0201840285723,-0.00232488853899,0.573935145888,0.818886737056,0.00192538057273,0.0,0.818842504037,-0.573875916564,-0.0120055349842,0.0,-0.00872641183934,0.00846714494078,-0.999926075864,0.0,0.660728129391,0.25964490866,0.303259243495,1.0,-0.00636,-0.00835885714286,0.319
0.464288391461,0.541990710836,-0.123993156854,-1.36492779275,0.079013831004,1.89736764244,0.158050370465,-0.0103279133905,-0.0332014047275,0.000596929390404,-0.0560987975638,-0.00897743308011,0.0296217069612,-0.0167737881724,0.573921496896,0.818896258532,0.00194423857584,0.0,0.818852272907,-0.573862190049,-0.0119953694746,0.0,-0.00870740581992,0.00847660778256,-0.999926161376,0.0,0.660622756285,0.259508103276,0.303267087684,1.0,-0.0067,-0.00880571428571,0.336
0.464215536902,0.541417397338,-0.12400126622,-1.36578492397,0.0789656701117,1.8976762193,0.157944440863,-0.00795128867334,-0.0339047155161,-0.0012934951054,-0.0552716187298,-0.000703871190248,0.02122920074,-0.0123810117452,0.573934709143,0.818886946732,0.00196596385106,0.0,0.818843236021,-0.573875300102,-0.0119850597443,0.0,-0.00868635812468,0.00848862141236,-0.999926242524,0.0,0.660525099434,0.259374210836,0.303291480145,1.0,-0.007,-0.0092,0.351
0.464129694334,0.540691183985,-0.123997043732,-1.36691181595,0.0788965663144,1.8981014325,0.157803933928,-0.00585928321,-0.0394240821975,-3.74480841655e-06,-0.0610230870214,-0.00362063955338,0.0266383959442,-0.00508593386988,0.573931043724,0.81888946596,0.00198657745762,0.0,0.818846013288,-0.573871537479,-0.0119754705397,0.0,-0.00866671327606,0.00849995898775,-0.999926316674,0.0,0.660394011765,0.259213405437,0.303305175588,1.0,-0.00736,-0.00967314285714,0.369
0.464033532279,0.539952648481,-0.12400461276,-1.36801786192,0.078835978578,1.89850451003,0.157666504353,-0.00827502032601,-0.04424236194,-0.000947613546567,-0.0658251786962,-0.00426161933393,0.0238010985304,-0.00573318284823,0.573947514083,0.818877842775,0.00201905705844,0.0,0.818834780135,-0.573887836543,-0.0119624750562,0.0,-0.00863725977513,0.00851927098566,-0.999926407175,0.0,0.660268334494,0.259041472841,0.303335855705,1.0,-0.0077,-0.01012,0.386
0.463934036831,0.539248214988,-0.124004899339,-1.36911005361,0.0787726986021,1.898929414,0.157532991611,-0.00871068958228,-0.0446805061024,0.000816067598506,-0.0689140971489,-0.00357476754591,0.0287319292941,-0.0150291436444,0.573963470607,0.818866579673,0.00205085436602,0.0,0.818823928703,-0.57390365592,-0.0119463134767,0.0,-0.00860560972257,0.00853620052152,-0.999926535682,0.0,0.660148447727,0.258873810809,0.303350572762,1.0,-0.00802,-0.0105405714286,0.402
0.463828361111,0.538485320118,-0.124010598368,-1.37030919176,0.0787026903757,1.89939013517,0.157391885678,-0.00528208217844,-0.0475404970351,-0.00146613243413,-0.0700019532347,-0.00710539420841,0.0315968315772,-0.0163187139761,0.573986080489,0.818850682791,0.00207016876123,0.0,0.818808302756,-0.573926202282,-0.0119341766925,0.0,-0.00858434991336,0.00854528719667,-0.999926640811,0.0,0.660015484491,0.258688354356,0.30335885136,1.0,-0.00836,-0.0109874285714,0.419
0.463703985027,0.537655503041,-0.124016262809,-1.37161392549,0.0786330393563,1.89988342461,0.157211364336,-0.00801274582963,-0.0414613157846,-0.000644297290172,-0.0752356222204,-0.000966351221852,0.0220032792923,-0.0213006143606,0.573997487287,0.818842640211,0.00208855514735,0.0,0.818800445269,-0.573937477712,-0.011931027059,0.0,-0.00857109864426,0.00855865421783,-0.999926640162,0.0,0.659870863192,0.258481200298,0.303366828645,1.0,-0.00872,-0.0114605714286,0.437
0.463604940872,0.53686728141,-0.12402539555,-1.37284290142,0.0785557080953,1.9003398927,0.157072222356,-0.00882195274643,-0.049180533971,-0.00412708795856,-0.0767432679981,-0.00274487607013,0.0264407127921,-0.00687648848731,0.574018037085,0.81882821234,0.00209730252114,0.0,0.818786195471,-0.573958053186,-0.0119191522565,0.0,-0.00855613919505,0.00855921552547,-0.999926763474,0.0,0.659729743705,0.258293476615,0.303378241706,1.0,-0.00904,-0.0118811428571,0.453
0.463477148627,0.535964537347,-0.124031792522,-1.37425303816,0.0784745085767,1.90086906762,0.156889579974,-0.011601109996,-0.0535898684286,0.000586217591246,-0.0826538299119,-0.000958637992973,0.0331613544335,-0.00743205411971,0.574033450494,0.818817359611,0.00211570690388,0.0,0.818775573297,-0.573973380441,-0.0119107522121,0.0,-0.00853853562689,0.00856962431525,-0.999926824797,0.0,0.65957083599,0.258072692296,0.303390340425,1.0,-0.0094,-0.0123542857143,0.471
0.463370026903,0.535118813681,-0.124033708103,-1.37557906806,0.0783829257392,1.90134037179,0.156728886437,-0.00812013984363,-0.0557061302371,0.000903917144268,-0.0780142287187,-0.0109186265776,0.0232880128277,-0.0124947747428,0.574039008082,0.81881350022,0.00210141818158,0.0,0.818771597586,-0.573979065456,-0.0119100925713,0.0,-0.00854613908195,0.00855760400795,-0.999926862786,0.0,0.659412286736,0.25787180569,0.303396863055,1.0,-0.00972,-0.0127748571429,0.487
0.463255563655,0.534271847718,-0.124038860375,-1.37696983482,0.0783242849214,1.90185201163,0.156573671124,-0.00499547732219,-0.0554401739852,0.00157530567154,-0.0877618894349,-0.00862853652671,0.0282885349825,-0.00172268626624,0.57406987379,0.818791902567,0.00208499380319,0.0,0.818749557491,-0.574009766308,-0.0119455929695,0.0,-0.0085843132637,0.00856485770213,-0.999926473686,0.0,0.659247261364,0.25766458277,0.303376980857,1.0,-0.01004,-0.0131954285714,0.503
0.463122414601,0.533302149086,-0.124051022066,-1.37854487508,0.0782318104618,1.90243916664,0.156366882394,-0.00940918848963,-0.0555205114936,-0.00096066079604,-0.0927665530807,-0.0026701693837,0.0383741180152,-0.00554717191586,0.574079602699,0.818785128602,0.00206636049113,0.0,0.818742556962,-0.574019587306,-0.0119534810681,0.0,-0.0086013667402,0.00855423163002,-0.999926418099,0.0,0.65906557786,0.257420387498,0.303362509748,1.0,-0.0104,-0.0136685714286,0.521
0.462993206294,0.532349923587,-0.124048525271,-1.38008637787,0.0781391301493,1.90301584727,0.156161799956,-0.00715841701962,-0.0539065109876,-0.000509627169015,-0.0913114551096,-0.0154215764779,0.0352069764656,-0.0151173203232,0.574075114795,0.818788304047,0.00205490366286,0.0,0.8187455492,-0.574015113927,-0.0119633419082,0.0,-0.00861606455751,0.0085504647302,-0.999926323778,0.0,0.658884378829,0.257190338473,0.303350084485,1.0,-0.01074,-0.0141154285714,0.538
0.462878022679,0.531480736901,-0.124041780955,-1.38146752314,0.0780591227457,1.90352132077,0.155996139816,-0.00312081016422,-0.0583657442589,0.000875707309801,-0.0981160484558,-0.00196392772242,0.0363763383964,-0.0105927502916,0.574082816817,0.818782910611,0.0020522251062,0.0,0.818740027982,-0.574022734046,-0.0119755700853,0.0,-0.0086275343711,0.00855537256587,-0.999926182901,0.0,0.658718515848,0.256987190254,0.303348945559,1.0,-0.01104,-0.0145097142857,0.553
0.462744373252,0.530462168487,-0.12404423607,-1.38310901353,0.0779685576976,1.90409272078,0.155786085071,-0.00467900727839,-0.0583730306866,0.00112171106874,-0.0964089517084,-0.00394654076809,0.0309228514506,-0.00759493393483,0.574086794382,0.81878021972,0.00201276242112,0.0,0.818736675095,-0.574026731957,-0.0120131075827,0.0,-0.00868088256521,0.00854465334622,-0.999925812837,0.0,0.65851601438,0.25674038497,0.303334994966,1.0,-0.01138,-0.0149565714286,0.57
0.462599425106,0.529346246659,-0.124046690441,-1.3848518047,0.0778547571615,1.90474668987,0.155546774795,-0.00857920504319,-0.0662276794909,0.00287822273378,-0.0964948591497,-0.00400825791175,0.0366248235514,-0.0119086076939,0.574075314466,0.818788226303,0.00202994803285,0.0,0.818744981969,-0.57401525575,-0.0119953144619,0.0,-0.00865656777877,0.00854838827038,-0.999925991708,0.0,0.658312591085,0.256477264214,0.303348272451,1.0,-0.01174,-0.0154297142857,0.588
0.462465077339,0.528315080789,-0.124048917027,-1.3864540554,0.0777477153595,1.90535914416,0.155326444716,-0.00989400276519,-0.0651870654304,8.19168934966e-05,-0.103768555137,-0.00508431493982,0.0329176996212,-0.0157906759893,0.574064577342,0.818795683976,0.00205811661641,0.0,0.818752914894,-0.574004508699,-0.0119680928676,0.0,-0.0086182204956,0.00855571187646,-0.999926260316,0.0,0.658127891131,0.256235126754,0.303364882213,1.0,-0.01206,-0.0158502857143,0.604
0.462321271969,0.527190361375,-0.124049972139,-1.38821386107,0.0776502789191,1.90603271978,0.15507797102,-0.00680155720446,-0.0690355404904,-0.000657790510651,-0.11417757118,-0.00257532855691,0.0415172690013,-0.00833434405409,0.574048740133,0.818806695229,0.00209444542095,0.0,0.818764327733,-0.573988450871,-0.0119574578997,0.0,-0.0085888244651,0.0085791860155,-0.999926312116,0.0,0.657922102273,0.255975679103,0.30337740465,1.0,-0.0124,-0.0162971428571,0.621
0.462162019571,0.526015144553,-0.124052479741,-1.39003078067,0.0775268246802,1.90670286794,0.154835587109,-0.00509949607721,-0.0677464878692,-0.00123059770701,-0.10966516078,-0.00771214604424,0.0436489143782,-0.0110012069285,0.574047103421,0.8188078009,0.00211072054724,0.0,0.818765750544,-0.57398685238,-0.0119367471502,0.0,-0.00856254069624,0.00858060602215,-0.999926525349,0.0,0.657708720789,0.255694742454,0.303397676698,1.0,-0.01274,-0.016744,0.638
0.462014264196,0.52491285077,-0.124058429915,-1.39175879595,0.077414596821,1.90732479236,0.154603422083,-0.0109235731116,-0.0706779324345,0.000116526459679,-0.107942305033,-0.00990353717193,0.044645450278,-0.0166828324054,0.574044810987,0.818809429849,0.00210225363817,0.0,0.818767313269,-0.573984639155,-0.0119359807765,0.0,-0.00856679725579,0.00857320945278,-0.999926552335,0.0,0.657501330242,0.255427543364,0.303404621267,1.0,-0.01306,-0.0171645714286,0.654
0.461857338576,0.523729125323,-0.124072672656,-1.39366127094,0.0773006367276,1.90800730622,0.154328661397,-0.0121534338975,-0.0734968762639,-0.000636685775046,-0.115316258151,-0.00568079024402,0.0463821735076,-0.0141940333997,0.574029781166,0.81882005218,0.00206866698721,0.0,0.818777486132,-0.573969738092,-0.0119547003099,0.0,-0.00860156168945,0.00855629669348,-0.999926398753,0.0,0.657270925433,0.255133705406,0.303391063557,1.0,-0.0134,-0.0176114285714,0.671
0.461693228402,0.52243059154,-0.124074837943,-1.39571534675,0.0771753508528,1.90879639381,0.154057118245,-0.00843581687538,-0.0764226442398,-3.41994754866e-05,-0.113028109584,-0.00538295938624,0.046938600945,-0.0200861244165,0.574019815578,0.818826973506,0.00209420238698,0.0,0.818784763398,-0.573959691347,-0.0119386279172,0.0,-0.00857384788278,0.00856787495938,-0.999926537627,0.0,0.657028191111,0.25483109783,0.303394550254,1.0,-0.01376,-0.0180845714286,0.689
0.461531766058,0.521262467062,-0.124081146698,-1.39758764494,0.0770601469915,1.90952794023,0.15380466158,-0.0118646082606,-0.0728146196541,0.000664828012685,-0.115569290853,-0.00587934182193,0.0435654323938,-0.0185939356319,0.574019053923,0.818827460982,0.00211229158214,0.0,0.818785552123,-0.573958921278,-0.0119215443864,0.0,-0.00854948392706,0.00857287251368,-0.999926703405,0.0,0.656812414263,0.254545438506,0.303387735464,1.0,-0.01408,-0.0185051428571,0.705
0.461370527131,0.519978414138,-0.124087135064,-1.39963008483,0.0769306137196,1.91026490419,0.153522704368,-0.0144509206189,-0.0716075634967,-9.3747883848e-05,-0.122460916376,-0.0149484218508,0.0400855839316,-0.0181035810894,0.57399822436,0.818842121007,0.00208954477114,0.0,0.818799927527,-0.573938199212,-0.0119318510397,0.0,-0.00857119767192,0.00855994522279,-0.999926628262,0.0,0.656560601663,0.254239589269,0.303381467792,1.0,-0.01442,-0.018952,0.722
0.46119791684,0.518612890722,-0.124087619865,-1.40170723905,0.0768016821147,1.91100496484,0.153253796421,-0.00453041735623,-0.0832306535108,0.000595422407945,-0.123734736622,-0.00849757304317,0.0418930566863,-0.017329787622,0.573995024364,0.818844301573,0.00211392718722,0.0,0.818802382594,-0.573934856522,-0.011924161553,0.0,-0.00855093987388,0.00857546312288,-0.999926668741,0.0,0.656304233073,0.253926797611,0.303415516368,1.0,-0.01476,-0.0193988571429,0.739
0.461029032899,0.517352143718,-0.124089762793,-1.40370948024,0.076667947096,1.91172238712,0.152976604517,-0.00980269700771,-0.0803226334729,-0.000122039732364,-0.127985099877,-0.0137098528368,0.0515033632932,-0.0155635837755,0.573977653919,0.818856547848,0.00208656385743,0.0,0.818814317047,-0.573917645102,-0.011933052466,0.0,-0.00857410741037,0.00855797858606,-0.99992662015,0.0,0.65605726796,0.253620750664,0.303409430934,1.0,-0.01508,-0.0198194285714,0.755
0.460842135857,0.515913170549,-0.124096786626,-1.40598524563,0.0765275346644,1.91258291684,0.152662062696,-0.00900644844667,-0.0780773113842,0.000388920436439,-0.129560322558,-0.00768750537035,0.0452190967278,-0.0144366442553,0.573960626995,0.81886844188,0.00210248743995,0.0,0.818826452666,-0.573900589143,-0.0119206164498,0.0,-0.00855496254759,0.00856370170172,-0.999926735131,0.0,0.655784029871,0.25327854452,0.303410363405,1.0,-0.01544,-0.0202925714286,0.773
0.460647580055,0.514509592186,-0.124098002239,-1.40821919304,0.0763952015443,1.91340514927,0.152355983846,-0.0116729193906,-0.0842927743782,0.000239048115801,-0.134455825846,-0.0122201143964,0.0480906772237,-0.0180977417281,0.573952187642,0.818874372378,0.00209653616684,0.0,0.818832227419,-0.573892096986,-0.0119327808518,0.0,-0.00856842786231,0.00856572197057,-0.999926602532,0.0,0.655511428717,0.252937988013,0.303402435985,1.0,-0.01578,-0.0207394285714,0.79
0.46047891656,0.51328212372,-0.1240979027,-1.41021510402,0.0762722655505,1.91408536943,0.152085313057,-0.00700439594641,-0.0745202188831,0.000637016984156,-0.13671128035,-0.0103831370134,0.0429888607755,-0.0137644965672,0.573939913548,0.818883163244,0.00202175501127,0.0,0.818839922981,-0.573880015763,-0.0119856139215,0.0,-0.00865473927426,0.00853468025468,-0.999926124632,0.0,0.655254234223,0.252633124309,0.303371639509,1.0,-0.01608,-0.0211337142857,0.805
0.460263857967,0.511768689536,-0.124108856622,-1.41264162741,0.0761245578304,1.91496705444,0.151731388191,-0.0157402180947,-0.0826339807797,-0.000931244703626,-0.136677161557,-0.0130273025757,0.0527004844096,-0.0223522351076,0.573921172117,0.818896370744,0.00199225483644,0.0,0.818852717642,-0.573861373863,-0.0120040534313,0.0,-0.0086869649426,0.00852090775639,-0.999925962645,0.0,0.654957063425,0.252253746746,0.303353629542,1.0,-0.01644,-0.0216068571429,0.823
0.460052789634,0.510214808938,-0.124106797576,-1.41510167509,0.0759745076101,1.91591120133,0.151386419512,-0.0102000266862,-0.0882101351771,0.00117316959138,-0.140097367624,-0.0114356321588,0.0465080404467,-0.0133753110257,0.573898214509,0.818912385048,0.00202284418887,0.0,0.818869119448,-0.573838278353,-0.0119892623319,0.0,-0.00865753666889,0.00853722525333,-0.99992607869,0.0,0.654660601645,0.251885016636,0.303352437587,1.0,-0.0168,-0.02208,0.841
0.459876314044,0.508879347453,-0.124115938132,-1.41720065506,0.0758344824037,1.91667179641,0.151097845777,-0.0123296297596,-0.0868452154502,-0.000490034862353,-0.137947056323,-0.00959068747259,0.0521141695873,-0.0152343753396,0.57388410345,0.81892230074,0.00201197894158,0.0,0.818878977984,-0.573824298158,-0.0119850389967,0.0,-0.00866046004625,0.00852575476603,-0.999926151242,0.0,0.65440028053,0.25156169221,0.303354141839,1.0,-0.0171,-0.0224742857143,0.856
0.45966729576,0.507374772017,-0.124116699591,-1.41960006826,0.0756864662059,1.91752540944,0.150762797269,-0.00847808536282,-0.0946264668128,0.000121756576334,-0.142428302059,-0.0115904018963,0.0479470119148,-0.0176150931845,0.573865714795,0.818935273163,0.00197652574225,0.0,0.81889139891,-0.573805974852,-0.0120136138452,0.0,-0.00870439744227,0.00851292492678,-0.99992587904,0.0,0.654096999416,0.251193640486,0.303338560432,1.0,-0.01744,-0.0229211428571,0.873
0.459441866484,0.505817384823,-0.124122008405,-1.42203700031,0.0755350459654,1.91844709022,0.150427882241,-0.0132267090529,-0.0874640306195,-0.000113064742824,-0.142623650554,-0.00994091431906,0.0563682599079,-0.0224884078699,0.573865038244,0.81893566913,0.0020086337161,0.0,0.818892242389,-0.573805190063,-0.0119935863628,0.0,-0.00866957813826,0.00852771864966,-0.999926055481,0.0,0.653804063779,0.250812523882,0.303347523451,1.0,-0.01778,-0.023368,0.89
0.459233163346,0.504274658657,-0.124124519891,-1.42437385817,0.0753919631504,1.91934384584,0.150113520445,-0.016219328187,-0.0930283291625,-0.000778034155578,-0.146223176523,-0.00868050226099,0.0528791406432,-0.0170823017764,0.573862188827,0.818937449891,0.00209482741605,0.0,0.81889517091,-0.573802004776,-0.0119459313752,0.0,-0.00858111961913,0.00857092739835,-0.99992644909,0.0,0.653523512523,0.250455376281,0.303390993988,1.0,-0.0181,-0.0237885714286,0.906
0.458984861642,0.50249808259,-0.1241280147,-1.42699871557,0.0752185499329,1.92033229347,0.149737598469,-0.0131379966548,-0.0988829398692,0.000526167744164,-0.151015062134,-0.00876724318866,0.0550461930879,-0.0243746663622,0.573847834337,0.818947211188,0.00220798901091,0.0,0.818906526994,-0.573787315741,-0.0118727942131,0.0,-0.00845643843471,0.00862147984948,-0.999927076708,0.0,0.653208941352,0.250042158069,0.303467978191,1.0,-0.01846,-0.0242617142857,0.924
0.458752956949,0.500791355237,-0.124129139827,-1.4295671048,0.0750590544733,1.92123512008,0.149381710012,-0.0123526067684,-0.0924477545787,0.000653667684183,-0.152018005478,-0.00164979333229,0.0534348456804,-0.0171703797502,0.573834898741,0.818956173802,0.002245279509,0.0,0.818915889222,-0.573774146363,-0.0118634837084,0.0,-0.00842755214867,0.00864654251093,-0.999927104177,0.0,0.652882420579,0.249643447666,0.303514940023,1.0,-0.0188,-0.0247085714286,0.941
0.458516894645,0.499179841762,-0.124129141539,-1.43202310428,0.0748976084979,1.92213838415,0.149034691641,-0.0153827583211,-0.0956631745409,0.00146636008866,-0.150205024598,-0.00995985518588,0.0598785140348,-0.0260626987253,0.573825282059,0.818962786774,0.00229051297075,0.0,0.818923136106,-0.573764400452,-0.0118345606296,0.0,-0.00837801125476,0.00866689102113,-0.999927344324,0.0,0.652580366494,0.249254539844,0.303548358849,1.0,-0.01912,-0.0251291428571,0.957
0.458267178,0.497496313553,-0.124131659352,-1.43466951307,0.0747407591261,1.92311682553,0.148645768159,-0.0146089737889,-0.0981203274739,-2.90877286615e-05,-0.153102712643,-0.00854015938988,0.053370599873,-0.0245531740511,0.573805185296,0.818976823839,0.00230613163929,0.0,0.818937280168,-0.573744145903,-0.011837782485,0.0,-0.00837190115821,0.00868132528713,-0.999927270286,0.0,0.652251843819,0.248839525856,0.303547471553,1.0,-0.01946,-0.025576,0.974
0.458001980399,0.495813258387,-0.124127588011,-1.43738021056,0.0745737297645,1.92404578859,0.148246006253,-0.0177716616793,-0.0969675103776,0.000834057567845,-0.160382830782,-0.00677899106242,0.0537544760606,-0.0200267562996,0.573783618232,0.818992158291,0.00222508588774,0.0,0.818951363777,-0.573722699732,-0.0119027089876,0.0,-0.00847180614911,0.00865198312942,-0.999926683157,0.0,0.651899490649,0.248405941266,0.303510573705,1.0,-0.0198,-0.0260228571429,0.991
0.457747228352,0.494237374516,-0.124132327091,-1.43995146355,0.0744162022671,1.92495853306,0.14789240104,-0.0135921699456,-0.104578386238,0.00169951779671,-0.162806230619,-0.00964644119916,0.0619791777796,-0.0229106113996,0.573792943202,0.818985815528,0.00215387923964,0.0,0.818943980107,-0.573732197597,-0.0119528150662,0.0,-0.00855360080866,0.00862251338367,-0.999926241368,0.0,0.651572521886,0.247989632971,0.303463703646,1.0,-0.0210908571429,-0.0277194122449,1.007
0.457445246085,0.492201269242,-0.124164108671,-1.44314969443,0.0742101009494,1.92615776935,0.147428865493,-0.0162490314846,-0.119810900373,-0.00363446769903,-0.185611989595,-0.00622794709717,0.0693151878617,-0.035030089612,0.573788283815,0.818989031663,0.00217215858056,0.0,0.818947613052,-0.57372764457,-0.0119224089321,0.0,-0.00851825872319,0.00861998860629,-0.999926564836,0.0,0.651181673075,0.247470103278,0.303463639244,1.0,-0.0244234285714,-0.0320993632653,1.025
0.457142647145,0.490202087382,-0.124168948619,-1.44640685768,0.0740249912044,1.92730445961,0.146964941194,-0.0184489731988,-0.124712172649,-0.000184722341493,-0.211743132434,-0.0114758524849,0.0730058372376,-0.0363995824448,0.573772380384,0.81900039834,0.00208564812274,0.0,0.81895754951,-0.573711796943,-0.0120022102446,0.0,-0.00863342025906,0.00859475949338,-0.999925794329,0.0,0.650756151565,0.246958592821,0.30340371862,1.0,-0.0273857142857,-0.0359926530612,1.041
0.456772969692,0.487897196239,-0.124194494578,-1.45004166251,0.0738054479798,1.92863597935,0.146433360152,-0.0214449014493,-0.151216618909,-0.00200945315119,-0.231057920365,-0.016326479348,0.0891549596792,-0.0366382880008,0.573779598874,0.818995344953,0.00208416972402,0.0,0.818952441944,-0.573718986013,-0.0120070738569,0.0,-0.00863817616619,0.00859641541379,-0.99992573902,0.0,0.650304548185,0.246357709327,0.303392064693,1.0,-0.030348,-0.0398859428571,1.057
0.456344476977,0.485153515125,-0.124222380703,-1.4542151665,0.0735480704857,1.93024272741,0.145812990172,-0.0205894375958,-0.165231358382,0.000750155325975,-0.255055090126,-0.0171983320677,0.100384265018,-0.0415427354715,0.573779608969,0.81899495958,0.00222787243021,0.0,0.818954072383,-0.573718548061,-0.0119164524456,0.0,-0.0084815060484,0.00866210939648,-0.999926513258,0.0,0.649802267364,0.245671868568,0.303451099869,1.0,-0.0334954285714,-0.0440225632653,1.074
0.455823256238,0.481989833521,-0.124278828311,-1.4591423535,0.0732445250237,1.93192964357,0.145059765029,-0.0287416321586,-0.180088471441,-0.00451571403273,-0.287694465422,-0.0208037484885,0.1027578238,-0.0477928189313,0.573789418343,0.81898827306,0.00215844583007,0.0,0.818946393194,-0.573728549572,-0.0119625825645,0.0,-0.00855901762806,0.00863182090833,-0.999926114713,0.0,0.649170196026,0.244824193532,0.303448882162,1.0,-0.036828,-0.0484025142857,1.092
0.455358104961,0.479109913371,-0.124325019273,-1.46363628409,0.0729632423717,1.93354402586,0.144390367488,-0.0290654210873,-0.193812218499,-0.0028279600043,-0.297376938263,-0.0223726722293,0.116541993274,-0.0431906918599,0.573797593683,0.818982523385,0.00216674302802,0.0,0.818940781136,-0.57373671951,-0.0119549395941,0.0,-0.00854791113256,0.00863431603696,-0.999926188177,0.0,0.648564954391,0.244021351995,0.303457770584,1.0,-0.0397902857143,-0.0522958040816,1.108
0.454737938408,0.475385299544,-0.124355955086,-1.46931635753,0.0726201972375,1.93564168231,0.143597251622,-0.0341416317301,-0.219188135782,-0.00155804465917,-0.330780185832,-0.0213660311017,0.119993586691,-0.0489791356759,0.573861314071,0.818937590607,0.00227196065463,0.0,0.818897169391,-0.57379995513,-0.011907323735,0.0,-0.00844786673602,0.00869382197767,-0.999926522804,0.0,0.647892415286,0.243109174381,0.30350516054,1.0,-0.0429377142857,-0.0564324244898,1.125
0.454067090199,0.471412082545,-0.124383285956,-1.47546730547,0.0722459125881,1.93781957228,0.142680166155,-0.0342510687909,-0.234627744902,0.00030297314211,-0.347597300482,-0.0278209907652,0.129199124344,-0.0519705504938,0.573872829212,0.818929506166,0.00227743830096,0.0,0.8188889007,-0.573811183796,-0.011934846542,0.0,-0.00846714143603,0.00871422087371,-0.999926182211,0.0,0.647096261978,0.242071300978,0.303514333717,1.0,-0.0462702857143,-0.0608123755102,1.143
0.453469133183,0.467813427661,-0.124391211923,-1.48081909174,0.0719124054128,1.93984572887,0.14180838401,-0.0406174343139,-0.246895321934,0.0010854073382,-0.359083074261,-0.0197011526968,0.145766633945,-0.0604496267083,0.573818498971,0.818966891378,0.00251156635928,0.0,0.818929356988,-0.573755973758,-0.0118126094368,0.0,-0.00823326834334,0.00883525934573,-0.999927073083,0.0,0.646428500846,0.241178268545,0.303627507025,1.0,-0.0490474285714,-0.0644623346939,1.158
0.452752749107,0.463565732553,-0.124404036085,-1.48735183273,0.0714706699324,1.94213975876,0.140800575127,-0.0414499087693,-0.249813984353,-0.000740791316865,-0.395447529197,-0.030155943227,0.131411661856,-0.0562084855736,0.573775356408,0.818997132032,0.00250699083357,0.0,0.818959531735,-0.573712847052,-0.0118153040641,0.0,-0.00823856591182,0.00883262439494,-0.999927052728,0.0,0.645565889467,0.240077246747,0.303646497941,1.0,-0.0521948571429,-0.068598955102,1.175
0.451973426592,0.459081645051,-0.124423598489,-1.49429816977,0.0710055676242,1.94452696422,0.139783067842,-0.0491634827942,-0.268500354953,-0.00446616785083,-0.425180735869,-0.0282540901012,0.147480269228,-0.0611842160714,0.573790094006,0.818987028675,0.00243347159324,0.0,0.818948344056,-0.573727727312,-0.0118680909322,0.0,-0.00832382266129,0.00880285002537,-0.999926609211,0.0,0.644634320294,0.238889981484,0.303635430688,1.0,-0.0553422857143,-0.0727355755102,1.192
0.4511466592,0.454429724855,-0.124437077495,-1.50156278672,0.0705162914337,1.94711424989,0.138634011845,-0.0495727261815,-0.274496293821,-0.000477703980589,-0.432842383789,-0.0267361631185,0.159707455226,-0.0632294728879,0.573736337292,0.819024793367,0.00239792054503,0.0,0.818985616291,-0.57367408453,-0.01188915259,0.0,-0.00836204686522,0.00878527043957,-0.999926444893,0.0,0.643669511314,0.237651320841,0.30360077308,1.0,-0.0584897142857,-0.0768721959184,1.209
0.450258360712,0.449417863707,-0.12448938532,-1.50903002005,0.0700004376803,1.94994134454,0.137450460417,-0.051890658746,-0.293702322318,-0.000236767829782,-0.453051037534,-0.0331191603941,0.16021190891,-0.0707263193671,0.573731327105,0.819027423535,0.0026815476596,0.0,0.81899250818,-0.573668644165,-0.0116749795404,0.0,-0.00802396308881,0.00889464019857,-0.999928248122,0.0,0.642725935442,0.236344012931,0.303732397766,1.0,-0.0616371428571,-0.0810088163265,1.226
0.449305547862,0.444231838267,-0.124526391251,-1.51702786813,0.0694734311144,1.95261647682,0.136269220067,-0.0591130773581,-0.308283893238,-0.00132298231008,-0.480262266482,-0.0319766984988,0.157954977418,-0.0698819474697,0.573785202098,0.818990059858,0.00256331989695,0.0,0.818953283758,-0.573722580585,-0.0117756719946,0.0,-0.00817368117426,0.00885611608986,-0.999927377435,0.0,0.641623384084,0.234935288746,0.303711747148,1.0,-0.0647845714286,-0.0851454367347,1.243
0.44842406141,0.439503028753,-0.124538184612,-1.52441243315,0.0689558565182,1.95508837522,0.135087509058,-0.0641696281443,-0.318049635237,-0.000508953754427,-0.496194836723,-0.0367103782685,0.166695931314,-0.0774072046589,0.573718221886,0.819037524296,0.00238381459376,0.0,0.818998191422,-0.573656055956,-0.0118928050759,0.0,-0.00837332516081,0.00877562778041,-0.999926435186,0.0,0.640519756662,0.233558170926,0.303640451216,1.0,-0.0677468571429,-0.0890387265306,1.259
0.44729495998,0.433500933075,-0.124558576389,-1.53337987064,0.0683653808919,1.95836382305,0.133620908124,-0.0640424872041,-0.34624304916,-0.00155263248496,-0.506767278387,-0.0415532856341,0.186449104265,-0.0771180290651,0.573700333532,0.819049227625,0.00265272166955,0.0,0.819013441817,-0.573637209214,-0.0117507970214,0.0,-0.00810293737569,0.00891422250163,-0.999927436889,0.0,0.639399430702,0.232062247442,0.303758979707,1.0,-0.0708942857143,-0.0931753469388,1.276
0.446141306695,0.427747555211,-0.12460334345,-1.542251144,0.0677179419769,1.9614520836,0.132184035848,-0.069370198827,-0.343097775284,-0.00292690668492,-0.532758701186,-0.036703580416,0.175976909075,-0.0830273596338,0.573709117211,0.819043324632,0.00257451065516,0.0,0.819006794809,-0.57364657371,-0.011756931119,0.0,-0.00815273370025,0.00885377075579,-0.999927569215,0.0,0.638109680896,0.230339477816,0.303722594476,1.0,-0.0742268571429,-0.0975552979592,1.294
0.444998980117,0.422062226758,-0.124704493632,-1.55102613065,0.0670827002497,1.96430676521,0.130736171786,-0.0741725978449,-0.354961862431,-0.00610687687105,-0.55695805343,-0.0377676441173,0.178311838577,-0.0937429070279,0.573721097267,0.819035595334,0.00235436353788,0.0,0.818996303589,-0.57365949012,-0.0118571077619,0.0,-0.0083609513022,0.00873105601025,-0.999926928907,0.0,0.636946806439,0.228795388117,0.30366398051,1.0,-0.077004,-0.101205257143,1.309
0.443643353942,0.415366018332,-0.124763154245,-1.56097735235,0.0663905640821,1.96786968246,0.129151852545,-0.0746230127909,-0.37353779731,0.00130727228872,-0.554130444039,-0.0335886853381,0.204181081257,-0.0857622930005,0.573800047219,0.818979568858,0.00259200816843,0.0,0.818943629772,-0.573737824586,-0.0117041358919,0.0,-0.00809847095942,0.00883871247789,-0.999928143383,0.0,0.635595104688,0.226955138406,0.30377920181,1.0,-0.0803365714286,-0.105585208163,1.327
0.44228143344,0.408913227985,-0.124778886824,-1.57074048819,0.0657299101513,1.97123739515,0.127481532251,-0.0845205405192,-0.381050292851,-0.00111158229909,-0.57642257707,-0.0393286650515,0.193632601533,-0.101152328913,0.573775314601,0.818996731516,0.00264367564843,0.0,0.818961116942,-0.573712530831,-0.0117204012397,0.0,-0.00808241607199,0.00889011563272,-0.999927817592,0.0,0.634220021676,0.225151792189,0.303791088164,1.0,-0.083484,-0.109721828571,1.344
0.440920620439,0.402739398452,-0.124851399522,-1.58032699474,0.0650364945703,1.97438929669,0.125911311185,-0.0862089274019,-0.393039785481,-0.00475915911553,-0.600409866803,-0.0403626418966,0.207047675035,-0.104014714667,0.573848109846,0.818946490253,0.00239579414094,0.0,0.818907524342,-0.573786102155,-0.0118626494574,0.0,-0.00834036233437,0.00876946165699,-0.999926764767,0.0,0.632836794915,0.223318315345,0.303672551374,1.0,-0.0864462857143,-0.113615118367,1.36
0.439423198304,0.395758547516,-0.124914254543,-1.5905033435,0.0642958254911,1.97802050721,0.124152103314,-0.0869036780076,-0.411189867193,-0.000704798757551,-0.60776350916,-0.0436016506532,0.211953061164,-0.106524973646,0.573873959805,0.818927322549,0.00273231437293,0.0,0.818893214058,-0.573811248379,-0.0116319432729,0.0,-0.00795803665612,0.00891291464616,-0.999928612254,0.0,0.631427827211,0.221374034219,0.303845334479,1.0,-0.0895937142857,-0.117751738776,1.377
0.437839449436,0.38873842787,-0.124948663882,-1.60119982125,0.0634784089221,1.98151885532,0.122342431925,-0.0889942058506,-0.41167621759,-0.0047882563293,-0.634260021698,-0.0495850865137,0.212065956363,-0.103586541966,0.573893907904,0.818914028625,0.00251854976344,0.0,0.818877058968,-0.57383185663,-0.0117520004058,0.0,-0.00817881137738,0.00880695362285,-0.999927769698,0.0,0.629752657041,0.219193062356,0.303758420422,1.0,-0.0929262857143,-0.122131689796,1.395
0.436317244141,0.381865237741,-0.125007767612,-1.61142162072,0.0627138342506,1.98485475199,0.120471510632,-0.0944235004307,-0.446541173897,-0.00419396321722,-0.628008107921,-0.040281086508,0.215891423466,-0.110162364104,0.573821782146,0.81896459175,0.002511313458,0.0,0.818927557394,-0.57375979814,-0.0117514543802,0.0,-0.00818329188999,0.00879999371843,-0.999927794315,0.0,0.628333850441,0.21734485686,0.303804556754,1.0,-0.0957034285714,-0.12578164898,1.41
0.434492832954,0.374015871256,-0.125015918829,-1.62313011,0.0618778021312,1.98888159785,0.11840452436,-0.102135159676,-0.438022114464,-0.00120810869445,-0.652918956164,-0.0502617477332,0.221434399785,-0.119170185482,0.573826053507,0.818961164698,0.00264913828621,0.0,0.818925653282,-0.573763279208,-0.0117141252425,0.0,-0.0080735908235,0.00889148874858,-0.999927876679,0.0,0.626616893662,0.215092896605,0.303825361051,1.0,-0.099036,-0.1301616,1.428
0.432664885228,0.366391817324,-0.125106154772,-1.63453879368,0.0609870552407,1.99250445394,0.116451359959,-0.105845779099,-0.462544453849,-0.00481804047585,-0.663415052463,-0.0508097304136,0.214524977411,-0.117957550157,0.57394582225,0.818877791757,0.00247026115783,0.0,0.818840005343,-0.573883741092,-0.0118001805476,0.0,-0.0082454218243,0.00879558232896,-0.999927322734,0.0,0.624889035604,0.212796399811,0.30379060901,1.0,-0.102183428571,-0.134298220408,1.445
0.431027686451,0.359455383427,-0.125151195677,-1.64467407196,0.0601890102298,1.9959474724,0.114554900702,-0.110199837729,-0.457892924489,-0.00150278132883,-0.689750373726,-0.0536275889451,0.220268576268,-0.130390028466,0.573879410618,0.818923813097,0.00263767191947,0.0,0.818888590453,-0.573817151999,-0.0116661647423,0.0,-0.00804031352722,0.00885510167485,-0.999928467708,0.0,0.623275187242,0.210656500484,0.303873827794,1.0,-0.105145714286,-0.138191510204,1.461
0.428927997294,0.351065966951,-0.125170191069,-1.6572982395,0.0592624844422,1.99989483387,0.112225405885,-0.117267231531,-0.462952767511,-0.00301720863987,-0.702599235131,-0.0555700679481,0.221334153983,-0.133011151065,0.573887185184,0.818919081551,0.00240488127297,0.0,0.818879889142,-0.573824774467,-0.0118996751259,0.0,-0.0083650516239,0.00879854937213,-0.999926303005,0.0,0.621398953163,0.208271050445,0.303764927936,1.0,-0.108293142857,-0.142328130612,1.478
0.426751006734,0.342340667789,-0.125247155663,-1.66982394208,0.058299366276,2.00412846891,0.109866259505,-0.122245797759,-0.479973391259,-0.001057979243,-0.703992727752,-0.0514284557659,0.229085526929,-0.132100279787,0.573935796769,0.818883963051,0.00273918716351,0.0,0.818849470818,-0.573872524268,-0.0116883246149,0.0,-0.00799959134703,0.0089515022042,-0.999927935977,0.0,0.619512377512,0.205706818331,0.303929487488,1.0,-0.111625714286,-0.146708081633,1.496
0.424873332084,0.335032539055,-0.125244714302,-1.68068122248,0.0574243441216,2.00755584717,0.107760922442,-0.129331584109,-0.490157149259,0.000208959169289,-0.744181677866,-0.0555533243976,0.221156698423,-0.138339279881,0.573842004572,0.818950105599,0.0026125140628,0.0,0.818913723671,-0.573778927943,-0.0117814231943,0.0,-0.00814954915493,0.00890027047961,-0.999927182366,0.0,0.617783576402,0.203516700814,0.303868590031,1.0,-0.114402857143,-0.150358040816,1.511
0.422677693961,0.326450558277,-0.125255401258,-1.69305867063,0.05636858792,2.01150314912,0.105349059555,-0.131318666158,-0.508997339038,0.000622967440133,-0.728130220406,-0.0603544692872,0.245196828663,-0.147197211871,0.573747760913,0.819015907045,0.00268286330417,0.0,0.818980848142,-0.573684893243,-0.0116944663399,0.0,-0.00803899058402,0.00890705903038,-0.999928016874,0.0,0.615817001692,0.200985239837,0.30394766145,1.0,-0.117550285714,-0.154494661224,1.528
0.42035322611,0.317808354884,-0.125268543257,-1.70567654142,0.0553740887173,2.01553371626,0.102916554271,-0.137169248656,-0.518602066295,-0.00664895716973,-0.739170893091,-0.0660625149087,0.235612653141,-0.141039464944,0.573761210257,0.81900637385,0.00271663358599,0.0,0.818971428267,-0.5736978604,-0.0117180013579,0.0,-0.00803874569593,0.00894835221243,-0.999927650163,0.0,0.613795490128,0.198373371388,0.303941064449,1.0,-0.120697714286,-0.158631281633,1.545
0.417919285595,0.308938987693,-0.12534647521,-1.71842074902,0.054312471184,2.01953274202,0.100261964613,-0.14599806255,-0.538425471505,-0.0056174232862,-0.747867670514,-0.0706631478157,0.244830452855,-0.155417304625,0.573698915982,0.819049802705,0.00277873904964,0.0,0.819015854432,-0.573635571256,-0.0116622673873,0.0,-0.00795814745953,0.00896663413044,-0.999928131098,0.0,0.611744111664,0.195646448292,0.303999571935,1.0,-0.123845142857,-0.162767902041,1.562
0.41537999171,0.299995024095,-0.125396500128,-1.73144085641,0.0532297889046,2.02355609973,0.0976122107401,-0.152160290608,-0.536776259913,-0.00433762122862,-0.79839291896,-0.064322788506,0.227458444928,-0.151202574366,0.573692709842,0.819054405477,0.00270230359373,0.0,0.819019305387,-0.573629454781,-0.0117206190806,0.0,-0.00804985874047,0.00893744460715,-0.999927658312,0.0,0.609605086805,0.192855368433,0.303957335354,1.0,-0.126992571429,-0.166904522449,1.579
0.412695407723,0.290788867267,-0.125497428937,-1.74457226149,0.0521909710179,2.02756088563,0.0949211336877,-0.157613424836,-0.55637502362,-0.0112325830823,-0.759113020391,-0.0597150005392,0.251773690276,-0.168254085584,0.573815947225,0.818967845929,0.00277000810145,0.0,0.818933147977,-0.573751902581,-0.0117473541927,0.0,-0.00803156257264,0.00900944408762,-0.999927159307,0.0,0.607439996342,0.189957516245,0.304007503692,1.0,-0.13014,-0.171041142857,1.596
0.410130548871,0.28209811459,-0.12557283897,-1.75707948147,0.0511273526375,2.03139421995,0.092262283936,-0.165737013946,-0.552397622151,-0.00192769727816,-0.775034010853,-0.066006029999,0.243583407978,-0.163389354377,0.573804882949,0.818975669246,0.00274888848286,0.0,0.818940674005,-0.573740889696,-0.0117605634359,0.0,-0.00805462066321,0.00899961858322,-0.999927062316,0.0,0.605349144479,0.187209119697,0.303986427252,1.0,-0.133102285714,-0.174934432653,1.612
0.407236749966,0.272578095793,-0.125618282708,-1.77057570404,0.049942680076,2.03543275,0.0893487873904,-0.173727137592,-0.568552592777,-0.00326428306417,-0.811519945305,-0.0631882967768,0.246774005311,-0.177446398866,0.573801812835,0.818977779713,0.00276094639018,0.0,0.81894295852,-0.573737796205,-0.0117523954054,0.0,-0.00804104621317,0.00900477676374,-0.99992712513,0.0,0.603061232376,0.184196142715,0.304020939269,1.0,-0.136249714286,-0.179071053061,1.629
0.404222657982,0.262991736413,-0.125750669336,-1.78418443521,0.0487449090852,2.03954523083,0.0863641672449,-0.180438870726,-0.573322493249,-0.00591814362112,-0.786060081768,-0.0726301110583,0.241889022467,-0.173351909367,0.573890419702,0.818915613579,0.00278404594371,0.0,0.818881348152,-0.573826596974,-0.0117098742114,0.0,-0.00799199308573,0.00900016120255,-0.999927559949,0.0,0.600759285288,0.181069508368,0.304028069249,1.0,-0.139397142857,-0.183207673469,1.646
0.401284120909,0.253776310446,-0.125873611216,-1.79709391643,0.0475933352352,2.04330931794,0.0835134869092,-0.186228059769,-0.587780926359,-0.00125827596227,-0.791341748721,-0.0704658872921,0.241125199381,-0.173693834135,0.573999738633,0.818838935147,0.00280093525058,0.0,0.818804984127,-0.573935950179,-0.0116905928705,0.0,-0.00796530853972,0.00900399035022,-0.999927738398,0.0,0.598531273086,0.178067597716,0.304075379186,1.0,-0.142359428571,-0.187100963265,1.662
0.397899006523,0.243328740653,-0.125892866727,-1.81187751316,0.0462593561624,2.04762396741,0.0801116143575,-0.193081262896,-0.586069108973,-0.00148740154137,-0.83645775277,-0.0721556081973,0.236004759661,-0.189181119184,0.573908981754,0.818902726195,0.00274819817343,0.0,0.818867862782,-0.573845134825,-0.0117444217552,0.0,-0.00804065364908,0.00899081339664,-0.999927253936,0.0,0.595920262022,0.174708573436,0.304034163043,1.0,-0.145692,-0.191480914286,1.68
0.394595610475,0.233211655997,-0.125908989516,-1.82576290862,0.0450524971147,2.05171708596,0.0768791325524,-0.196351256678,-0.592323802365,-0.000819502562733,-0.805367464491,-0.069918566998,0.242605798574,-0.189937342917,0.573892369441,0.818913416872,0.00301842112502,0.0,0.818881803147,-0.573827297953,-0.0116435174957,0.0,-0.00780313049297,0.00915403222121,-0.999927654807,0.0,0.593464932616,0.171515480685,0.304158823495,1.0,-0.148839428571,-0.195617534694,1.697
0.391391144276,0.223665542056,-0.125909935977,-1.83916303415,0.0437526061451,2.05545655798,0.073658832907,-0.203563208459,-0.596763654495,-0.00593756564022,-0.825041292745,-0.0855710366836,0.227041854393,-0.203131145375,0.573726589834,0.819030119154,0.00286547329287,0.0,0.818996527439,-0.57366206908,-0.0117160335515,0.0,-0.00795212412066,0.00906878725449,-0.999927257764,0.0,0.591015928815,0.168421862986,0.304100902612,1.0,-0.151801714286,-0.19951082449,1.713
0.387573850449,0.212659184532,-0.126006275807,-1.85418740615,0.042397838076,2.05971186043,0.0700113072867,-0.214602485973,-0.606587813011,-0.0141927650535,-0.852906449621,-0.0722020528591,0.240147388525,-0.203506156963,0.573790199398,0.818984890533,0.00305009101537,0.0,0.818953498438,-0.573724813614,-0.0116512892357,0.0,-0.00779246696908,0.00918345509134,-0.999927468175,0.0,0.588298408581,0.164812618534,0.304197271012,1.0,-0.155134285714,-0.20389077551,1.731
0.383852698793,0.202263839878,-0.126105560664,-1.86868869835,0.0410082141722,2.06354737307,0.0664056610476,-0.218129817751,-0.616433528041,-0.00971666036574,-0.841471008358,-0.0832647521078,0.21424891248,-0.218063375336,0.573764906016,0.819003533624,0.00279131449306,0.0,0.818968259488,-0.573699833839,-0.0118421917676,0.0,-0.00809757614607,0.00908080685229,-0.999925981364,0.0,0.585580391592,0.161304141305,0.304097085194,1.0,-0.158281714286,-0.208027395918,1.748
0.380177081171,0.192219934116,-0.126196116121,-1.88223954743,0.0397151480201,2.06734778477,0.0629458479433,-0.236468023422,-0.612438946458,-0.00743129988858,-0.84875824345,-0.078401225272,0.228800370566,-0.217603877271,0.573813116052,0.818969023252,0.00299895021385,0.0,0.81893670898,-0.573747597013,-0.0117093342763,0.0,-0.00786909308085,0.00917509665554,-0.999926944819,0.0,0.583086311379,0.157951692979,0.304193026296,1.0,-0.161244,-0.211920685714,1.764
0.376319957011,0.182141660212,-0.126360141979,-1.89604116583,0.0384181548856,2.07093967944,0.0593227548434,-0.242944750916,-0.632545116132,-0.00756596585886,-0.866109581291,-0.0842315664185,0.227337836868,-0.234303688147,0.573921206913,0.818893686437,0.00288538915781,0.0,0.818859221933,-0.57385529963,-0.0118497528834,0.0,-0.00804804691215,0.00916372842735,-0.999925624745,0.0,0.580473946402,0.15444433269,0.304147754514,1.0,-0.164206285714,-0.21581397551,1.78
0.371911168362,0.170637531132,-0.126463654629,-1.91153013852,0.036834524944,2.07507307504,0.0552498033825,-0.242963768041,-0.63722614543,-0.00210324400104,-0.885363302769,-0.0945440276767,0.225699087582,-0.227864299453,0.573965976816,0.818862121904,0.00293763008936,0.0,0.818828780612,-0.573900383831,-0.0117696381269,0.0,-0.00795195691461,0.00916096428519,-0.99992641885,0.0,0.577525040552,0.150531259778,0.304185256313,1.0,-0.167538857143,-0.220193926531,1.798
0.368128432001,0.160931525659,-0.126479959285,-1.92459825477,0.035526496785,2.07839923451,0.0516168474545,-0.250741671055,-0.652742673092,-0.00171913262718,-0.863647142428,-0.0949259955624,0.230586000056,-0.241349500592,0.573829822749,0.818957702499,0.00289187541024,0.0,0.818923340868,-0.573763924986,-0.011843439834,0.0,-0.0080401772885,0.0091645196984,-0.999925680802,0.0,0.57496314216,0.147259008121,0.3041727688,1.0,-0.170316,-0.223843885714,1.813
0.363426078185,0.149166039229,-0.126537664213,-1.94024844212,0.0338760432859,2.08246881906,0.0472746269654,-0.267559742574,-0.664219400922,-0.00490461999831,-0.902597801588,-0.0880208612738,0.216301812319,-0.256161911957,0.573790601248,0.818984894788,0.00297236093352,0.0,0.818952077346,-0.573724993583,-0.0117419611037,0.0,-0.00791132333907,0.00917182466867,-0.999926641607,0.0,0.571903478644,0.143249012181,0.304213201195,1.0,-0.173648571429,-0.228223836735,1.831
0.358517179904,0.137170795864,-0.126654764173,-1.95603830339,0.0322919868563,2.0863964936,0.0427694247474,-0.278300562701,-0.676418430552,-0.00940452774786,-0.860570709643,-0.0846205972834,0.232300472773,-0.256723219124,0.573839815468,0.818950032504,0.00307527996967,0.0,0.818918170685,-0.573773398606,-0.0117415363049,0.0,-0.00785136886189,0.00925634188692,-0.999926335358,0.0,0.568760151026,0.139121242416,0.304271368058,1.0,-0.176981142857,-0.232603787755,1.849
0.354268281374,0.127183287838,-0.12678851539,-1.96930172213,0.0308495532869,2.08961672449,0.0388094672932,-0.290240335592,-0.676759679654,-0.0142828014846,-0.886740513576,-0.100029028395,0.207952261091,-0.255398566347,0.573804701003,0.818975021212,0.00297096595297,0.0,0.818941928828,-0.573738798851,-0.0117751773115,0.0,-0.00793917050478,0.00918987761809,-0.999926255141,0.0,0.566085410258,0.135576616831,0.304230088478,1.0,-0.179758285714,-0.236253746939,1.864
0.348923794966,0.114933783158,-0.126973158114,-1.98515611363,0.0291606253601,2.09349704893,0.0340651882499,-0.299838967626,-0.685283990307,-0.0100020429832,-0.893939220107,-0.0925802118249,0.215807941924,-0.272529130337,0.573983270536,0.818849206483,0.00315104565498,0.0,0.818818803909,-0.573917144885,-0.0116457749153,0.0,-0.0077278432075,0.00926479378408,-0.999927219369,0.0,0.562890347228,0.131227159393,0.304324032177,1.0,-0.183090857143,-0.240633697959,1.882
0.343776529555,0.103337361684,-0.127066951588,-2.00033934415,0.0275013756082,2.09691743853,0.029350473651,-0.305445232362,-0.685866756907,-0.00566165120623,-0.877941387932,-0.0996539823189,0.195926053934,-0.281510378155,0.573929052146,0.818887820599,0.00298785522123,0.0,0.818854778364,-0.573862877263,-0.0117896968036,0.0,-0.00793997279599,0.00921324642008,-0.999926033726,0.0,0.559707908916,0.127117726306,0.304269555972,1.0,-0.186238285714,-0.244770318367,1.899
0.339131262855,0.0929557785737,-0.127100308956,-2.01363391789,0.0260632199714,2.1000247397,0.0250876725307,-0.315662077084,-0.685872073668,-0.00407413487181,-0.905531832256,-0.0815910050363,0.200642595832,-0.28860928684,0.573832636584,0.818954850237,0.00313135202489,0.0,0.818923632794,-0.57376592898,-0.0117255828813,0.0,-0.00780621016273,0.00929303923584,-0.99992634854,0.0,0.556920423141,0.123515338108,0.304327807266,1.0,-0.189015428571,-0.248420277551,1.914
0.333310706342,0.080363554645,-0.127197056187,-2.02973422682,0.0243178643113,2.10351019969,0.0197666252492,-0.32938252966,-0.715161421654,-0.00503330805475,-0.866684387569,-0.0977126378563,0.195332356801,-0.302092178718,0.57377425995,0.818995932154,0.0030836073572,0.0,0.818963170623,-0.573706636538,-0.0118645377767,0.0,-0.00794807519577,0.00933310693191,-0.999924857785,0.0,0.553645270871,0.119296710438,0.304318724451,1.0,-0.192162857143,-0.252556897959,1.931
0.327602683654,0.0683716270733,-0.127369482736,-2.04494921005,0.0225821909728,2.10691459365,0.0146849306071,-0.344574340932,-0.700872343791,-0.0118016417661,-0.917909472886,-0.108284806466,0.188058461432,-0.308102811201,0.573835214354,0.818952685662,0.00322371148212,0.0,0.818922225447,-0.573767661521,-0.0117390869707,0.0,-0.00776424488915,0.00937645099504,-0.999925896588,0.0,0.550211160465,0.114714283186,0.304375033273,1.0,-0.195495428571,-0.25693684898,1.949
0.322298954501,0.0576479894994,-0.127543287417,-2.05838684346,0.0209663722177,2.10967611085,0.00998640926339,-0.34978853838,-0.724185620595,-0.0116634455772,-0.892351651878,-0.10159389676,0.202577237439,-0.312023912489,0.57390310617,0.818905090307,0.00322873016607,0.0,0.818875099234,-0.573836015898,-0.0116852734012,0.0,-0.00771651678183,0.00935032145919,-0.999926510728,0.0,0.547088675389,0.110495250098,0.304433691124,1.0,-0.198457714286,-0.260830138775,1.965
0.316237612877,0.0455022865125,-0.127626571967,-2.07370850011,0.0192456472343,2.1128651267,0.00459340382427,-0.353442420181,-0.714542573153,-0.00703556054095,-0.912837750308,-0.104172610933,0.186422653217,-0.317118180627,0.573891026915,0.818913665886,0.00320061754456,0.0,0.818882460001,-0.573823009921,-0.0118074929248,0.0,-0.00783288013018,0.00939732473596,-0.999925165338,0.0,0.543660951278,0.10610268645,0.304372028051,1.0,-0.19998,-0.262830857143,1.982
0.309631910038,0.0326018006691,-0.127690579947,-2.08965964826,0.0173362011444,2.11607793105,-0.00127445825621,-0.370844002739,-0.731817831861,-0.00269159396426,-0.893090418498,-0.117370912858,0.18000366902,-0.330247415497,0.573827547743,0.818957684013,0.00331725030574,0.0,0.818928337497,-0.573759558103,-0.0117087331305,0.0,-0.00768580087323,0.00943556556127,-0.999925946542,0.0,0.540290845091,0.101683705182,0.304435075118,1.0,-0.19998,-0.262830857143,1.999
0.303610394521,0.0212640710174,-0.127796671125,-2.10379774303,0.0156360883756,2.11866395393,-0.00659491274477,-0.378920712567,-0.718180504765,-0.00777225827739,-0.893057331866,-0.100366467069,0.158500752088,-0.337997378491,0.573820962199,0.818962996455,0.00314017186983,0.0,0.818930572472,-0.573752656631,-0.0118892127905,0.0,-0.00793529615884,0.00939404313469,-0.999924388656,0.0,0.537028818017,0.0974633505053,0.304360906636,1.0,-0.19998,-0.262830857143,2.015
0.296990513688,0.00921030464723,-0.128012585672,-2.11836412045,0.0138028028569,2.12140745611,-0.0123331382658,-0.391151955177,-0.7007941986,-0.0182395709264,-0.87969935328,-0.107933189038,0.161982812131,-0.336317414857,0.573974804001,0.818854680826,0.00326847999109,0.0,0.818824595584,-0.573906829434,-0.0117464759326,0.0,-0.00774300288866,0.00941867436667,-0.999925664477,0.0,0.533695727242,0.0928858625695,0.304450692039,1.0,-0.19998,-0.262830857143,2.032
0.290349930142,-0.0027440790442,-0.12808855664,-2.13285666242,0.0121157580773,2.12393220406,-0.0181879804296,-0.391475031905,-0.701636855589,-0.00604507911885,-0.827679108815,-0.0966788149425,0.146571419457,-0.337423337239,0.573976290309,0.81885345313,0.00331471891442,0.0,0.818822911154,-0.573906866426,-0.0118615234908,0.0,-0.00781065990399,0.00952258438109,-0.999924154113,0.0,0.530272313625,0.0884465566246,0.304457582104,1.0,-0.19998,-0.262830857143,2.049
0.284028396513,-0.0139180555504,-0.128111968328,-2.14622187914,0.0104181321123,2.12633130107,-0.0237525497864,-0.400042903858,-0.698473148604,-0.00462682632677,-0.862308042637,-0.103194657946,0.13709396137,-0.35293431285,0.573885279629,0.81891670513,0.00344423938752,0.0,0.818888318069,-0.57381600322,-0.0117415450382,0.0,-0.00763913477338,0.00955893129566,-0.999925132424,0.0,0.527104497532,0.0843104022867,0.304510147368,1.0,-0.19998,-0.262830857143,2.065
0.276326949758,-0.027162488131,-0.128215608853,-2.16191515589,0.00837090329545,2.12879408926,-0.0305071130599,-0.416637988381,-0.70142906265,-0.0064737325163,-0.793529344665,-0.103236086173,0.140106822585,-0.352859280664,0.573838960407,0.81894924638,0.00342436470533,0.0,0.818920593504,-0.573769747676,-0.0117509611931,0.0,-0.00765879139591,0.0095476259531,-0.999925090071,0.0,0.523287837381,0.0793177831235,0.304556953263,1.0,-0.19998,-0.262830857143,2.084
0.269217670983,-0.0388569592457,-0.128395686108,-2.17579833686,0.00658585520271,2.13100098332,-0.0366360015329,-0.425138728801,-0.685916586417,-0.00540465463715,-0.822963833091,-0.11159244274,0.122547926171,-0.363407100695,0.573977591965,0.818852046715,0.0034345908575,0.0,0.818823325901,-0.573908074702,-0.0117741094608,0.0,-0.00767026188012,0.00957058236826,-0.999924782689,0.0,0.519893072575,0.0747685822694,0.304543590755,1.0,-0.19998,-0.262830857143,2.101
0.262537946524,-0.0498263557307,-0.128447837181,-2.18860562364,0.00499493757912,2.13292481306,-0.042495231943,-0.41711559758,-0.691884270567,-0.000623182416928,-0.804623921571,-0.110552028406,0.134466582409,-0.364209783648,0.573949249247,0.818871435709,0.00354654343409,0.0,0.8188436456,-0.573878695662,-0.0117929482089,0.0,-0.00762176945369,0.00967280455723,-0.999924169866,0.0,0.516697484228,0.0706291063717,0.304577928281,1.0,-0.19998,-0.262830857143,2.117
0.255723879551,-0.0606438820095,-0.128501222456,-2.20127933643,0.00326753255805,2.13476557129,-0.0484973448644,-0.42596890768,-0.680547403577,-0.00772224853101,-0.800481322223,-0.10139681201,0.110720087339,-0.377015185064,0.573838208855,0.818949461953,0.00349796046168,0.0,0.818921176409,-0.573768008748,-0.0117951628723,0.0,-0.00765277181873,0.00963325450212,-0.999924314881,0.0,0.513495715079,0.0664585836358,0.30455002965,1.0,-0.19998,-0.262830857143,2.133
0.248336817082,-0.0721601153702,-0.128648273105,-2.21457654272,0.00147305595673,2.13649957997,-0.0549541000267,-0.436693578711,-0.685707856152,-0.0142710136187,-0.772805389069,-0.0979692553251,0.0956260738753,-0.36957665263,0.573848560021,0.818942357193,0.0034630417878,0.0,0.818913291198,-0.573778070274,-0.0118530364447,0.0,-0.00772008480719,0.00963796440435,-0.999923752059,0.0,0.510074422094,0.0619732630183,0.304548858748,1.0,-0.19998,-0.262830857143,2.15
0.24117554333,-0.0828749138278,-0.128814810469,-2.22686540033,-0.000157622664519,2.13809061119,-0.0611775821153,-0.446792843092,-0.675150535536,-0.0030595118597,-0.762383288725,-0.0999233437059,0.0978739824025,-0.384267951449,0.573942529584,0.818876325399,0.00350475919788,0.0,0.818847402709,-0.573871378852,-0.0118877463646,0.0,-0.00772346176743,0.00969293280483,-0.999923194646,0.0,0.506890046168,0.0577037940179,0.30454592859,1.0,-0.19998,-0.262830857143,2.166
0.233134925244,-0.0948940394162,-0.128868506268,-2.24051964221,-0.00197929557101,2.13968166738,-0.0682412068451,-0.449445391778,-0.669856249677,-0.00257456568804,-0.731109552901,-0.0997428552968,0.0943278171724,-0.394195848738,0.573862318323,0.818932500978,0.00351359524914,0.0,0.818903006758,-0.573790286766,-0.0119716012852,0.0,-0.00778801649909,0.00974753225184,-0.999922163178,0.0,0.503265285555,0.0530464122972,0.304542792446,1.0,-0.19998,-0.262830857143,2.184
0.225348991347,-0.106171260615,-0.128997401505,-2.25319066984,-0.00381559941467,2.14110525119,-0.0749890209148,-0.455757797193,-0.657092640338,-0.0103716754563,-0.757761730747,-0.0993400675803,0.0764895906927,-0.402968397266,0.573876680207,0.818922498336,0.00349921933214,0.0,0.818893166996,-0.573805137216,-0.0119328309162,0.0,-0.00776434316477,0.00971364721039,-0.999922677027,0.0,0.499869540155,0.0485680964171,0.304555392026,1.0,-0.19998,-0.262830857143,2.201
0.21780969641,-0.116716692826,-0.129207526547,-2.26500414905,-0.00548576788001,2.142260144,-0.0815041407425,-0.476184736795,-0.670186398632,-0.00987137924151,-0.706426512839,-0.104503613042,0.069103655116,-0.404949862743,0.574011646771,0.818828164005,0.00343716530158,0.0,0.818797413197,-0.573939555696,-0.012038664813,0.0,-0.00788502449099,0.00972486310564,-0.999921623642,0.0,0.496642182118,0.0442706155394,0.304530855699,1.0,-0.19998,-0.262830857143,2.217
0.209793299424,-0.12785240235,-0.129273556682,-2.27725878983,-0.00715721047675,2.14350052064,-0.0885607527137,-0.466695879332,-0.640684593627,-0.0033394148399,-0.720154549371,-0.10653998738,0.0606371104984,-0.420038123717,0.573955246961,0.818867087114,0.00357980845299,0.0,0.818837997117,-0.573882380132,-0.0120039640409,0.0,-0.00777541177337,0.00982121041807,-0.999921540321,0.0,0.493265144281,0.0398632376655,0.304569404957,1.0,-0.19998,-0.262830857143,2.234
0.201598330016,-0.13889070164,-0.129374085015,-2.28940658924,-0.00894420237764,2.14452244145,-0.0957383472183,-0.483675767608,-0.648127379589,-0.00950006294133,-0.707117619043,-0.101767895792,0.0639313804046,-0.424652488596,0.573906685635,0.81890141174,0.00351296670466,0.0,0.818871213045,-0.573833780241,-0.0120613432708,0.0,-0.00786134342313,0.00979894150765,-0.999921086899,0.0,0.489841253318,0.0353998269532,0.304550143239,1.0,-0.19998,-0.262830857143,2.251
0.193767571149,-0.149277322925,-0.129541874772,-2.30048793825,-0.0105519373679,2.14556083346,-0.102602834445,-0.494648919642,-0.640990089276,-0.01097875282,-0.698043589785,-0.0982930139397,0.0574645322033,-0.43225876027,0.573950996052,0.818869179509,0.00377728495015,0.0,0.818843351242,-0.573878314774,-0.0118318578894,0.0,-0.00752118664648,0.00988410158751,-0.999922865169,0.0,0.486722919634,0.0311835964005,0.30466075002,1.0,-0.19998,-0.262830857143,2.267
0.185309036324,-0.160173721682,-0.129647664794,-2.31234571474,-0.0123294302139,2.14625191716,-0.110017616237,-0.493587273144,-0.637012252453,-0.000387865510988,-0.698035889146,-0.0941300133374,0.0438518585496,-0.433338715908,0.573905052501,0.818902190537,0.00359721394021,0.0,0.818873102929,-0.573831844343,-0.0120250828788,0.0,-0.00778332065407,0.00984710714933,-0.999921224097,0.0,0.483248019591,0.0267197017155,0.30460055686,1.0,-0.19998,-0.262830857143,2.284
0.176732014996,-0.171026759187,-0.129723258347,-2.32372510667,-0.0139255777346,2.1470577886,-0.117578185729,-0.512899754601,-0.621495409391,-0.0104892884441,-0.673775947821,-0.0924140997301,0.044707473172,-0.450611736267,0.573886666393,0.818913819059,0.00387272410875,0.0,0.818888612958,-0.57381284656,-0.0118744933135,0.0,-0.00750211226283,0.0099861353206,-0.999921994664,0.0,0.479921429055,0.0223097858033,0.30470870623,1.0,-0.19998,-0.262830857143,2.301
0.168502473743,-0.181107125773,-0.12988531838,-2.33453241194,-0.0155986650302,2.14758505388,-0.124786855703,-0.524289176637,-0.628535030848,-0.0208304708524,-0.673113520494,-0.105731505976,0.02761008066,-0.454117389152,0.573903402821,0.818902721958,0.00373672333814,0.0,0.818875158192,-0.573829298435,-0.0120066004673,0.0,-0.00768814449318,0.00995073036153,-0.999920934574,0.0,0.476669536196,0.0180774809999,0.304647339244,1.0,-0.19998,-0.262830857143,2.317
0.159056952979,-0.192456874155,-0.130032453978,-2.34626010116,-0.0173704065162,2.1481804505,-0.133068838352,-0.522886050886,-0.626105639775,-0.0069831211034,-0.638254985758,-0.0902566321066,0.0376095409853,-0.459755127604,0.573948012169,0.81887057437,0.00392538646405,0.0,0.818846033111,-0.573873973807,-0.0118567763442,0.0,-0.00745663168954,0.0100196532574,-0.999921999554,0.0,0.473118648087,0.0133322238382,0.304739153296,1.0,-0.19998,-0.262830857143,2.335
0.150076684122,-0.202980990307,-0.130129509802,-2.35728569507,-0.0190293871307,2.14857468716,-0.141055857091,-0.534752880011,-0.618754946407,-0.0112649192782,-0.654943518699,-0.0977361061597,0.0191215160337,-0.467586497261,0.573863630203,0.818929818395,0.00390299553989,0.0,0.818904360841,-0.573788847308,-0.0119479454955,0.0,-0.00754517879103,0.0100528649923,-0.999921001971,0.0,0.469696788588,0.0089120504744,0.304705898151,1.0,-0.19998,-0.262830857143,2.352
0.141434074827,-0.21284325859,-0.130317418376,-2.36748890431,-0.020574062676,2.14879355538,-0.148670536154,-0.544797215248,-0.614569762138,-0.0164786691165,-0.617814434084,-0.101794477855,0.0186848288776,-0.479667717109,0.573936095786,0.818879077425,0.00389376564961,0.0,0.818852619854,-0.573860167968,-0.0120682011802,0.0,-0.00764806768787,0.0101149912167,-0.999919593774,0.0,0.466466639958,0.00468283597268,0.304686576532,1.0,-0.19998,-0.262830857143,2.368
0.132177044292,-0.223247971982,-0.130417838439,-2.37796662347,-0.0222431824185,2.1490924138,-0.156878649665,-0.538843851143,-0.603814622274,-0.00450445569558,-0.62112783492,-0.09136946061,0.0177993562349,-0.499961868246,0.573880856411,0.818917013925,0.00405386853844,0.0,0.818893647134,-0.573805711038,-0.0118721339533,0.0,-0.00739630196851,0.010133072686,-0.999921304681,0.0,0.463132741815,0.000260515857992,0.304768957517,1.0,-0.19998,-0.262830857143,2.385
0.122736301823,-0.233484266721,-0.130522657302,-2.38851080021,-0.0238843849424,2.14914522111,-0.165276533602,-0.563508947051,-0.598001458556,-0.00630825960381,-0.613820662099,-0.0995437004226,0.000187828560985,-0.496403520523,0.573823140898,0.818958014857,0.00393951438842,0.0,0.818932029036,-0.57374689221,-0.0120657531943,0.0,-0.00762120787847,0.0101499983257,-0.999919444118,0.0,0.459675329652,-0.00417615430841,0.30468853005,1.0,-0.19998,-0.262830857143,2.402
0.113053994433,-0.243747431356,-0.130738544859,-2.39858065549,-0.0255616528991,2.14922282912,-0.173824624449,-0.577142942327,-0.615965887516,-0.0172135829761,-0.585293675113,-0.0940915475975,0.00759254574485,-0.509956352515,0.573910496265,0.818895884119,0.00412554845163,0.0,0.818873573225,-0.573835271872,-0.0118278793444,0.0,-0.00731855740054,0.0101666424458,-0.999921535971,0.0,0.456346305275,-0.00871360076881,0.304801401148,1.0,-0.19998,-0.262830857143,2.419
0.103404375276,-0.253808779308,-0.130839934255,-2.40868398852,-0.0270844512877,2.14920189874,-0.182510145711,-0.568822607368,-0.582537292603,-0.013281182768,-0.600462550636,-0.0887300421381,-0.00310241467643,-0.510882123927,0.573828884817,0.818952755113,0.00418840585597,0.0,0.818930604126,-0.573752541028,-0.0118926107256,0.0,-0.00733651906726,0.0102545347198,-0.999920506843,0.0,0.453140288059,-0.0128361354758,0.304773128849,1.0,-0.19998,-0.262830857143,2.435
0.0934534931778,-0.26378332247,-0.131017848428,-2.41861126263,-0.0287227156886,2.1490465974,-0.191324207896,-0.594083064006,-0.584044961716,-0.0121809832615,-0.579464190556,-0.0972313295192,-0.00577234431279,-0.522900824577,0.573883921918,0.818914362901,0.00415419049594,0.0,0.818891345661,-0.573807105025,-0.0119631569618,0.0,-0.00741323976728,0.0102674917621,-0.999919808029,0.0,0.449510120885,-0.0175947832634,0.304729986008,1.0,-0.19998,-0.262830857143,2.453
0.0839111659716,-0.273144496729,-0.131198029008,-2.42749195348,-0.030200372359,2.14892491617,-0.199797076949,-0.595856343201,-0.586351712459,-0.00419717530587,-0.560309068765,-0.0916952994694,-0.0199092599961,-0.524077834549,0.573978824211,0.818846461168,0.0044191959139,0.0,0.818828350262,-0.57390318956,-0.011662277707,0.0,-0.007013559232,0.0103126618962,-0.999922226471,0.0,0.44640943772,-0.0218530385087,0.30486416111,1.0,-0.19998,-0.262830857143,2.469
0.0738917161627,-0.282872512824,-0.131298785706,-2.43707228043,-0.0318059227601,2.14856360059,-0.208951103379,-0.605113223471,-0.576802787822,-0.0112783952443,-0.547862741074,-0.0979485244594,-0.0259445684039,-0.535596934699,0.573757029949,0.819002456505,0.00431204406558,0.0,0.818982313814,-0.573680844264,-0.0117900587373,0.0,-0.00718248827328,0.0102963151461,-0.999921195773,0.0,0.442971241013,-0.026216201233,0.304795968394,1.0,-0.19998,-0.262830857143,2.486
0.0634076868462,-0.29252607009,-0.131495028083,-2.44636330467,-0.0332698567039,2.14815344488,-0.21828700874,-0.62188927084,-0.568600611869,-0.00492829303971,-0.541471136228,-0.0767800202381,-0.0302395944501,-0.550121240527,0.573903593402,0.818899250616,0.00440791574415,0.0,0.818879672144,-0.573826078108,-0.0118516468342,0.0,-0.00717606586849,0.0104114557581,-0.999920049638,0.0,0.439565483079,-0.0307442668818,0.304789975608,1.0,-0.19998,-0.262830857143,2.503
0.0535766782999,-0.301592683374,-0.1316123502,-2.45474763155,-0.0347400574549,2.14780143306,-0.227161475583,-0.601178063671,-0.554943288272,-0.00485353031873,-0.526603878612,-0.0930053098538,-0.0328125388276,-0.56473734153,0.573846660101,0.818938028599,0.00461117190608,0.0,0.818922800152,-0.573771062329,-0.011530929109,0.0,-0.00679749022209,0.0103933790711,-0.999922882926,0.0,0.436455966035,-0.0349229529644,0.304915412204,1.0,-0.19998,-0.262830857143,2.519
0.042992778069,-0.310993638746,-0.131765825626,-2.46380692328,-0.0362411408059,2.1471295639,-0.236724096671,-0.635429111806,-0.553829249337,-0.00644905910449,-0.532999871719,-0.0925819679975,-0.0433268785626,-0.564666731432,0.573827516764,0.818952066324,0.00449899644006,0.0,0.818933905456,-0.573750049703,-0.0117849845972,0.0,-0.00707017417917,0.0104471303115,-0.999920431887,0.0,0.43298237479,-0.0393476185839,0.304825415753,1.0,-0.19998,-0.262830857143,2.536
0.0320340400672,-0.320294196874,-0.131980438413,-2.47247771832,-0.0378088949861,2.14650154083,-0.246478375496,-0.64300315158,-0.543810390323,-0.00334866834892,-0.49727677016,-0.0903923166291,-0.0311891074038,-0.572202680508,0.573978785543,0.818845957683,0.00451644052864,0.0,0.818828397249,-0.573901791434,-0.0117275977359,0.0,-0.0070112376771,0.0104297828707,-0.999921027969,0.0,0.429589588107,-0.0439129059783,0.304842282081,1.0,-0.19998,-0.262830857143,2.553
0.0212936079515,-0.329500088675,-0.132077277953,-2.48083500271,-0.0391984815701,2.14593745367,-0.256455658737,-0.633914761487,-0.535114464289,-0.0158194285907,-0.501332141053,-0.0803039894197,-0.0353740584915,-0.589225346125,0.573759231486,0.81899842448,0.0047615004107,0.0,0.818985172616,-0.573683268205,-0.0114691637577,0.0,-0.00666176219003,0.0104803385982,-0.999922888741,0.0,0.426289775742,-0.0482603274845,0.304940813888,1.0,-0.19998,-0.262830857143,2.57
0.0100840651914,-0.338477152187,-0.132298773454,-2.48925778647,-0.0406066813766,2.14503592182,-0.266538373594,-0.671750639131,-0.536887248221,-0.0119158122782,-0.481304862027,-0.0817192797486,-0.0535691006637,-0.57717782547,0.573940527009,0.818871776166,0.0046938850358,0.0,0.818855956011,-0.573862115412,-0.0117449010719,0.0,-0.00692405851512,0.0105846942175,-0.999920007632,0.0,0.422617265517,-0.0530526498798,0.304858639452,1.0,-0.19998,-0.262830857143,2.588
-0.00179060685692,-0.347908447298,-0.132418671734,-2.49784626333,-0.0421770505219,2.14412413419,-0.277413256847,-0.651787364774,-0.52463563657,-0.00389819366641,-0.465887194909,-0.0829840089223,-0.0532523686867,-0.611355043514,0.573801407475,0.81896943041,0.00466516190627,0.0,0.818953341466,-0.573723271068,-0.0117379571431,0.0,-0.0069366496787,0.0105560094971,-0.999920223595,0.0,0.419218966387,-0.057467613306,0.304859142118,1.0,-0.19998,-0.262830857143,2.605
-0.0125208717729,-0.35619518286,-0.132613661811,-2.50511489291,-0.0434512597063,2.14337539701,-0.287235716996,-0.67917594481,-0.51337133964,-0.0146919541433,-0.448589481773,-0.082615045018,-0.0451944247643,-0.620837810393,0.573843981537,0.818938228041,0.00490004160816,0.0,0.818926325457,-0.573766908877,-0.0114871516257,0.0,-0.00659591286243,0.0106048100696,-0.999922012927,0.0,0.416102597522,-0.0616859964724,0.304968162504,1.0,-0.19998,-0.262830857143,2.621
-0.0241620118043,-0.364739782027,-0.132785572359,-2.51294432549,-0.0449310507479,2.14231126038,-0.297836382116,-0.678580543211,-0.496596130585,0.000962927467028,-0.455987340824,-0.0794897745918,-0.0581726027004,-0.620261134678,0.57385805185,0.818929397124,0.00472501370221,0.0,0.818914165169,-0.573779835978,-0.0117062723508,0.0,-0.00687562534883,0.0105873231358,-0.999920314008,0.0,0.412632198455,-0.0661854672522,0.304881597928,1.0,-0.19998,-0.262830857143,2.638
-0.0357166787684,-0.37317863907,-0.132933847155,-2.52053604316,-0.0462083038212,2.14128748387,-0.308597338203,-0.683893060141,-0.490825773298,-0.0120948388281,-0.440700186557,-0.0778867383282,-0.0652600798859,-0.640195268742,0.573744778643,0.81900853719,0.00476360064537,0.0,0.818992772587,-0.573664864247,-0.0118409830102,0.0,-0.00696528995994,0.0106952625931,-0.999918544729,0.0,0.409215432802,-0.0705588032032,0.304840039975,1.0,-0.19998,-0.262830857143,2.655
-0.0463285502985,-0.380545051341,-0.133146178717,-2.52684639363,-0.0474250726105,2.14037753835,-0.318164463061,-0.71191897753,-0.483083306508,-0.00794279899832,-0.401550086242,-0.0870685818521,-0.0553642013154,-0.639765847918,0.573957555722,0.818858759432,0.00487885561224,0.0,0.818845470691,-0.573878753745,-0.0116626768393,0.0,-0.00675034347488,0.0106891161107,-0.999920084637,0.0,0.406256637979,-0.0745990981784,0.304925235915,1.0,-0.19998,-0.262830857143,2.67
-0.0581920961874,-0.388678158224,-0.13327179656,-2.53393296133,-0.0487333072433,2.13935265605,-0.32926679562,-0.703154407239,-0.473866264828,-0.0147829517551,-0.424490541984,-0.0807233959099,-0.065772491338,-0.652353435971,0.573794609397,0.818972576516,0.00494085451715,0.0,0.818960498955,-0.57371629462,-0.0115784860764,0.0,-0.00664794182177,0.0106902433965,-0.999920758643,0.0,0.402898888529,-0.0789978796553,0.30494592147,1.0,-0.19998,-0.262830857143,2.687
-0.0711514046763,-0.397140658198,-0.133518679096,-2.54135576395,-0.0501489015019,2.13804096879,-0.341181161047,-0.728100697622,-0.458883996801,-0.0119825471114,-0.407494165745,-0.0745358472859,-0.0646210815219,-0.672347096054,0.573887385094,0.818907943332,0.00487816343037,0.0,0.818894003875,-0.573807584412,-0.0117564191539,0.0,-0.00682842932436,0.0107417662416,-0.999918990224,0.0,0.399229446821,-0.0837801094462,0.304899339646,1.0,-0.19998,-0.262830857143,2.705
-0.0826054660098,-0.404510270316,-0.13360423251,-2.5477220725,-0.0513458306879,2.13692036554,-0.351893613294,-0.716222511398,-0.458391013924,-0.0113244219231,-0.383339249349,-0.0712953520351,-0.065010342116,-0.668544653574,0.573747310738,0.819006185431,0.00486194889535,0.0,0.818991837822,-0.573667277877,-0.0117885866671,0.0,-0.00686591660002,0.0107457732483,-0.999918690468,0.0,0.396025449422,-0.0879021779596,0.30488935384,1.0,-0.19998,-0.262830857143,2.721
-0.0958436471292,-0.412575576763,-0.133851764429,-2.55442306303,-0.0525678329658,2.13576141392,-0.364157718853,-0.740546975481,-0.453722478568,-0.012376915471,-0.369114231868,-0.0678301998548,-0.0574539649438,-0.668760897793,0.573887266549,0.818906676891,0.00509968021678,0.0,0.818896342512,-0.573807944747,-0.0115745266645,0.0,-0.00655234629635,0.0108187912419,-0.999920007058,0.0,0.39250230227,-0.0926878238846,0.304981976241,1.0,-0.19998,-0.262830857143,2.739
-0.107659706807,-0.41959954864,-0.133940640052,-2.56033161052,-0.0536905183072,2.13461810067,-0.375248057563,-0.741731594725,-0.436687649803,-0.0102444721552,-0.370104458064,-0.0734113109405,-0.0752829492508,-0.707876526331,0.573780381933,0.818981341981,0.00513631154506,0.0,0.818971704207,-0.573701337644,-0.0115269161577,0.0,-0.00649374548452,0.0108206205054,-0.99992036955,0.0,0.389320097082,-0.0968525119237,0.305004269921,1.0,-0.19998,-0.262830857143,2.755
-0.121143812005,-0.427225730171,-0.134177507033,-2.56690522575,-0.0550133315795,2.1331570897,-0.387844396339,-0.765620491954,-0.42577664351,-0.0113683202525,-0.361641129016,-0.070032548582,-0.0798709144179,-0.712201189232,0.57379372646,0.818972784582,0.00500844195887,0.0,0.818959850905,-0.573712415128,-0.0118141540029,0.0,-0.0068021962323,0.0108808098195,-0.999917665663,0.0,0.385638803624,-0.101589076529,0.304917052715,1.0,-0.19998,-0.262830857143,2.773
-0.133178122948,-0.433833352114,-0.134276839346,-2.57245194428,-0.0560778514169,2.13204610588,-0.399142138918,-0.741444664915,-0.411445514965,-0.0107435455523,-0.346298496208,-0.0681082936224,-0.0615737400215,-0.719721237778,0.573738373263,0.81901135642,0.0050422219305,0.0,0.818998969092,-0.573657129191,-0.0117870121852,0.0,-0.00676132045688,0.0108924454731,-0.999917816212,0.0,0.382462874335,-0.10573796147,0.304910034764,1.0,-0.19998,-0.262830857143,2.789
-0.14544226096,-0.440230624802,-0.134478932332,-2.57767125402,-0.0571378823989,2.13084943168,-0.410654322384,-0.786628364457,-0.401953314633,-0.0134448520929,-0.315653716638,-0.0800765409711,-0.0713298468762,-0.714627091749,0.57378504385,0.818978279963,0.00510365591499,0.0,0.81896689023,-0.573703909953,-0.0117389655428,0.0,-0.00668609918339,0.0109155782309,-0.999918069759,0.0,0.379295146702,-0.10997812221,0.30494573037,1.0,-0.19998,-0.262830857143,2.805
-0.158587802047,-0.446969733117,-0.134591628809,-2.58301707363,-0.0582124107569,2.12961864425,-0.42302037977,-0.763749597072,-0.392385391522,-0.00838098790042,-0.317766147779,-0.0576417986748,-0.0683405648668,-0.715466579134,0.57377146392,0.818987035867,0.00522390410442,0.0,0.818978468416,-0.573692056449,-0.0115082379029,0.0,-0.00642830912467,0.0108815729953,-0.999920130916,0.0,0.375952584752,-0.114443656274,0.305043555672,1.0,-0.19998,-0.262830857143,2.822
-0.171796092311,-0.453383202568,-0.134818810773,-2.58842815282,-0.0592474425628,2.12825115714,-0.435549363031,-0.788730072944,-0.377622950869,-0.0155717674494,-0.316777892279,-0.0566419834831,-0.0746928533241,-0.746079871207,0.573772984211,0.818986061346,0.00520968432273,0.0,0.818975481474,-0.573690563068,-0.0117917552754,0.0,-0.00666866486932,0.0110326067519,-0.999916901796,0.0,0.372484873431,-0.118877630828,0.304957235418,1.0,-0.19998,-0.262830857143,2.839
-0.185174626623,-0.459632623862,-0.134941617924,-2.5934740407,-0.0602779191037,2.12695328384,-0.448238724102,-0.781872178275,-0.366886919289,-0.00967708966396,-0.286186242427,-0.056093451868,-0.0706798775649,-0.744669022285,0.573721418227,0.819022050403,0.00523088154764,0.0,0.819011685982,-0.573638834258,-0.0117937677033,0.0,-0.00665884721661,0.0110507030087,-0.999916767395,0.0,0.369087023789,-0.123318624581,0.304968909002,1.0,-0.19998,-0.262830857143,2.856
-0.197906739997,-0.465186424082,-0.135135597153,-2.59801577036,-0.0612524682253,2.12583748529,-0.460319507036,-0.804953664736,-0.340495712122,-0.0186068131054,-0.289266264202,-0.0556940238014,-0.0744315051814,-0.749569731568,0.573739105879,0.819009590396,0.00524176739899,0.0,0.818999241074,-0.573656271385,-0.011809840079,0.0,-0.00666552787628,0.0110689837214,-0.999916520684,0.0,0.365896076653,-0.127543562554,0.304944238492,1.0,-0.19998,-0.262830857143,2.872
-0.211544880636,-0.47095970387,-0.135264833138,-2.60258457871,-0.0622242755071,2.12459386127,-0.473269671248,-0.800614872624,-0.336735615054,-0.00482134747355,-0.263327831501,-0.0546988317433,-0.0710201350738,-0.767926006972,0.57373573866,0.819011721564,0.00527721775286,0.0,0.819002116345,-0.573653256439,-0.011756772499,0.0,-0.00660176844008,0.0110675461465,-0.99991695959,0.0,0.362519524283,-0.132004025543,0.304972182668,1.0,-0.19998,-0.262830857143,2.889
-0.225319524039,-0.476562142276,-0.135510356041,-2.60687922248,-0.0631307150797,2.12339339877,-0.486391312367,-0.823687323631,-0.321523003346,-0.0186446812674,-0.247301400484,-0.0650341056294,-0.0739503326011,-0.772135354732,0.573828054982,0.818946012614,0.00543494620251,0.0,0.818939231727,-0.573746370484,-0.0115924110963,0.0,-0.00637540093266,0.0111031551497,-0.999918033745,0.0,0.359152854894,-0.13651340202,0.30505023964,1.0,-0.19998,-0.262830857143,2.906
-0.238350625318,-0.481554789314,-0.135586128132,-2.61088936184,-0.0640319922993,2.12223723959,-0.498892670314,-0.805997894938,-0.312540076258,-0.00643758473176,-0.249979598788,-0.0534824908341,-0.0678628989742,-0.784313883584,0.573712559234,0.819027329739,0.00537395755798,0.0,0.819019479093,-0.573630607643,-0.0116518557565,0.0,-0.00646064615481,0.0110864053534,-0.999917672445,0.0,0.355940393372,-0.140678807174,0.305024607241,1.0,-0.19998,-0.262830857143,2.922
-0.252344174224,-0.486591666606,-0.135799671553,-2.61493245647,-0.0648738265203,2.12101539499,-0.512287415442,-0.831503965227,-0.29435146475,-0.0148578292168,-0.227036976046,-0.0519062048926,-0.0705721966605,-0.798738447725,0.573775717071,0.818982762061,0.00542299255262,0.0,0.818974505623,-0.573691802711,-0.0117992179072,0.0,-0.00655235585133,0.0112116132187,-0.999915679626,0.0,0.352506042388,-0.145147418301,0.304984125645,1.0,-0.19998,-0.262830857143,2.939
-0.267204569215,-0.491572057058,-0.135899753654,-2.61890145296,-0.0656770623026,2.1198262366,-0.526589628025,-0.834648716519,-0.270199463256,-0.0079664716031,-0.209770460511,-0.0472512898314,-0.0561186112311,-0.798968871744,0.573742233372,0.819005878246,0.00547429868058,0.0,0.818997653229,-0.573657052693,-0.0118817844442,0.0,-0.00659100815448,0.0113007368901,-0.999914422317,0.0,0.348933029254,-0.14982477207,0.304953892383,1.0,-0.197840571429,-0.260019036735,2.957
-0.280538370034,-0.495736954782,-0.136014964486,-2.62215874112,-0.0663821211799,2.11882660779,-0.539314764708,-0.832127883152,-0.256575719988,-0.0120500140318,-0.200080711819,-0.0401566125086,-0.0683513891726,-0.794690683913,0.573840390243,0.818936757075,0.00552642181105,0.0,0.818929083413,-0.573754781053,-0.0118892581675,0.0,-0.0065658660048,0.0113485025887,-0.999914046752,0.0,0.345772326791,-0.15401585684,0.304949594524,1.0,-0.194878285714,-0.256125746939,2.973
-0.294408235411,-0.499970769834,-0.136004683475,-2.62539822123,-0.0670459256914,2.11773496964,-0.552704943681,-0.812797650796,-0.245996297734,-0.00130504232144,-0.186677679482,-0.0357166337766,-0.0587921145994,-0.791669000247,0.573759821495,0.818992929703,0.00556733650258,0.0,0.818985712699,-0.573673944986,-0.0118892447469,0.0,-0.00654349747532,0.0113813591235,-0.999913819939,0.0,0.342486737439,-0.1582878754,0.304969128655,1.0,-0.191730857143,-0.251989126531,2.99
-0.308443706635,-0.503822903175,-0.136052385107,-2.62832652761,-0.0676639684868,2.11676909784,-0.566060161835,-0.811765525505,-0.217817394063,0.000664781231138,-0.163186388593,-0.0366115771248,-0.0557521696482,-0.791730245002,0.57392131,0.818879261966,0.00564191025753,0.0,0.8188732126,-0.57383547427,-0.011843017197,0.0,-0.00646059731986,0.0114171889381,-0.999913950537,0.0,0.339225839616,-0.162625648284,0.30499178742,1.0,-0.188583428571,-0.247852506123,3.007
-0.321301810231,-0.507157561352,-0.135975356666,-2.63081697591,-0.0681474404273,2.11599547869,-0.578561295276,-0.790982028654,-0.204460594112,-0.0039641096001,-0.14862075212,-0.0264055419165,-0.0426711319773,-0.787063353768,0.573810391059,0.81895641581,0.00572459752537,0.0,0.81895230377,-0.573725828947,-0.0116852150373,0.0,-0.00628545337876,0.0113934895017,-0.999915337153,0.0,0.336287033075,-0.166543637663,0.305036386806,1.0,-0.185621142857,-0.243959216327,3.023
-0.335026829568,-0.510448190497,-0.135981833721,-2.63331343478,-0.0686848169325,2.11511514191,-0.591681122685,-0.803821490727,-0.190814021242,0.000283393562289,-0.145692685898,-0.0310222959251,-0.0526144896556,-0.772310119596,0.573938704184,0.81886617331,0.00577069745606,0.0,0.818862644518,-0.573853932438,-0.0116782078864,0.0,-0.00625147233517,0.0114282041094,-0.999915154023,0.0,0.33311786343,-0.170721412176,0.305047274205,1.0,-0.182473714286,-0.239822595918,3.04
-0.348354970864,-0.513416628102,-0.135850097532,-2.63562734997,-0.0690797671095,2.11426350331,-0.604677656764,-0.782574693911,-0.169348271093,0.00940086781234,-0.132997805194,-0.0248268534517,-0.0445795797993,-0.754729531425,0.573815944147,0.818951879158,0.00581625031763,0.0,0.818948222908,-0.573729722236,-0.0117796825264,0.0,-0.00631015895176,0.0115227993618,-0.999913699771,0.0,0.330046475585,-0.174690199134,0.305024819304,1.0,-0.179326285714,-0.23568597551,3.057
-0.361033923989,-0.515879768994,-0.135828464805,-2.63763438344,-0.0695252117734,2.11354570234,-0.616800453657,-0.778227973759,-0.147821127615,0.00623323149172,-0.120914709267,-0.0250897350261,-0.041512870888,-0.757655647253,0.573934630679,0.818868821516,0.00579997907589,0.0,0.818863939035,-0.573846608013,-0.0119443174965,0.0,-0.00645265510654,0.0116048745933,-0.999911841178,0.0,0.326949974435,-0.178725633744,0.304960374188,1.0,-0.176178857143,-0.231549355102,3.074
-0.37481046899,-0.518383693691,-0.135653834515,-2.63961277355,-0.0698821156321,2.11287664518,-0.630266024843,-0.766311052145,-0.130407591995,0.00565063069439,-0.109093264934,-0.0161557573909,-0.0387353109227,-0.746313291738,0.573816960884,0.818951079824,0.00582847821508,0.0,0.818946246947,-0.573728270527,-0.0119859547608,0.0,-0.00647207247538,0.0116511788151,-0.99991117721,0.0,0.32401138847,-0.182570166379,0.304932245839,1.0,-0.173031428571,-0.227412734694,3.091
-0.387124327699,-0.52038451894,-0.135604064721,-2.64111094778,-0.0702381844728,2.11229583066,-0.642103125972,-0.764394180487,-0.12097193894,0.00605586153152,-0.0889499737219,-0.0243468711183,-0.0398989263581,-0.735774916923,0.573929066745,0.818872398187,0.00584540289068,0.0,0.818867879812,-0.57384045606,-0.0119696826177,0.0,-0.00644743818325,0.0116565858712,-0.999911273337,0.0,0.321072172012,-0.186475119626,0.304942979034,1.0,-0.169884,-0.223276114286,3.108
-0.399731959088,-0.52229790696,-0.135430277508,-2.64253315553,-0.0704803272445,2.11174279352,-0.654542046016,-0.74308702113,-0.105626466133,0.0109028533574,-0.0800629608826,-0.0164220639739,-0.0272347307374,-0.724262255911,0.57376326988,0.818988143069,0.00590580648712,0.0,0.818984457119,-0.573674536018,-0.0119470759624,0.0,-0.00639662591614,0.0116917821925,-0.999911188759,0.0,0.318422362204,-0.189958125134,0.304952484489,1.0,-0.166921714286,-0.21938282449,3.124
-0.412499902065,-0.524071507133,-0.135375271636,-2.64375061753,-0.0707553021736,2.11120818623,-0.666780229214,-0.745294505443,-0.102497444881,0.00217970411338,-0.0680837522426,-0.0227618981753,-0.0324223148664,-0.722553480017,0.573969696939,0.81884294312,0.00598066883317,0.0,0.818840816283,-0.573881710025,-0.0118426090566,0.0,-0.00626516102079,0.0116947396404,-0.999911986538,0.0,0.315567485652,-0.193749464559,0.305005292843,1.0,-0.163774285714,-0.215246204082,3.141
-0.424774336261,-0.525505552617,-0.135211869663,-2.64482753179,-0.0709604924189,2.1107901761,-0.678877677404,-0.724903125737,-0.0812413721306,0.00771330444554,-0.0566221393079,-0.0102265918683,-0.0205359069701,-0.715050132361,0.573849332162,0.81892703742,0.00601649906736,0.0,0.818925500557,-0.573761465947,-0.0118131974517,0.0,-0.00622223126404,0.011706285361,-0.999912119499,0.0,0.312839625711,-0.197345141686,0.305009516067,1.0,-0.160626857143,-0.211109583674,3.158
-0.436382293642,-0.526669279214,-0.135134441499,-2.6457006503,-0.0711438214101,2.11041351723,-0.690073740671,-0.720957834855,-0.0731508938057,0.00261739326795,-0.0490546074964,-0.0135910680527,-0.0288464940138,-0.686330574691,0.574003257619,0.818818752586,0.00607104250437,0.0,0.818817821055,-0.57391495589,-0.0118214309212,0.0,-0.00619546651152,0.0117568440091,-0.999911692508,0.0,0.310248766941,-0.200759163989,0.305008226385,1.0,-0.157664571429,-0.207216293878,3.174
-0.448267785591,-0.527682797282,-0.134936173637,-2.64649174377,-0.0712897519884,2.11007267161,-0.70179734125,-0.69303647446,-0.0497521048571,0.00679368692139,-0.0384534455772,0.000703916774631,-0.0205563831515,-0.679583707592,0.573888064617,0.818899377108,0.00608657246618,0.0,0.818898436577,-0.57379932635,-0.0118503398034,0.0,-0.00621188430063,0.0117852801546,-0.999911255895,0.0,0.307612432005,-0.204209371464,0.304995089428,1.0,-0.154517142857,-0.203079673469,3.191
-0.460797411481,-0.528564992508,-0.134812824073,-2.647173647,-0.0714453922292,2.10977267726,-0.713969883152,-0.704290993394,-0.0530907239717,-0.00176666604865,-0.041815240712,-0.00379728273073,-0.0134846521746,-0.669328016154,0.573987817478,0.81882917771,0.00612454238186,0.0,0.818828617831,-0.57389869429,-0.0118629766188,0.0,-0.00619900386389,0.0118243822876,-0.999910874196,0.0,0.304824010078,-0.207867816888,0.304984881109,1.0,-0.151184571429,-0.198699722449,3.209
-0.471639839137,-0.529115770711,-0.134594559191,-2.64764024145,-0.0715444036941,2.10952469811,-0.724615891131,-0.670059623151,-0.0311538744762,0.011880375202,-0.0285418669063,-0.00528109532873,-0.0147577220736,-0.667929828704,0.573925902486,0.818872698874,0.00610805981714,0.0,0.818871433011,-0.573835925325,-0.0119437810728,0.0,-0.00627553290817,0.0118567893066,-0.999910013068,0.0,0.302427997044,-0.210996616813,0.304958223245,1.0,-0.148222285714,-0.194806432653,3.225
-0.482945952798,-0.529563329618,-0.134445300036,-2.64800455454,-0.0716092205666,2.10931403778,-0.735771005202,-0.670326455828,-0.0295579630597,0.006646196959,-0.023195983968,-0.00412186744992,-0.0120571002013,-0.659642626769,0.573895838441,0.818893429296,0.00615345238905,0.0,0.818892395273,-0.573804999806,-0.0119922501178,0.0,-0.00628961417164,0.011921547329,-0.999909154605,0.0,0.299922003799,-0.21427540398,0.304941757316,1.0,-0.145074857143,-0.190669812245,3.242
-0.494132647597,-0.529833438683,-0.134268870464,-2.64820948744,-0.071657105197,2.10914458645,-0.746704937214,-0.63925909859,-0.00946703878255,0.0170552060193,-0.00940288901745,0.00272569183157,-0.00261721213005,-0.647489517904,0.573946208578,0.818857928922,0.0061797089431,0.0,0.818857054459,-0.573854901902,-0.0120176049225,0.0,-0.00629457599823,0.0119579872723,-0.999908688258,0.0,0.297457447075,-0.217518156249,0.304937157069,1.0,-0.141927428571,-0.186533191837,3.259
-0.504239342824,-0.529981338259,-0.134088836553,-2.64834496953,-0.0716744990836,2.10903241473,-0.756760738989,-0.631163761863,-0.0105320607916,0.0122809771321,-0.00726871696897,-0.00309087858263,-0.00792042318209,-0.616220047569,0.573845910895,0.818927999882,0.00620874063154,0.0,0.818927290109,-0.573754094684,-0.012044884755,0.0,-0.00630172434873,0.0119966459768,-0.999908180162,0.0,0.295224187591,-0.220430212076,0.304924523974,1.0,-0.138965142857,-0.182639902041,3.275
-0.515707518255,-0.53004353847,-0.13394875021,-2.64841317351,-0.0716919448395,2.10892963365,-0.767878166591,-0.62907397315,-0.0012797247531,0.00756690669592,-0.000665663240967,-0.00100814653459,-0.0108246975414,-0.604116330155,0.574023174593,0.818803348878,0.00626241147677,0.0,0.818803102983,-0.573930635049,-0.0120769035035,0.0,-0.00629454042633,0.0120603366365,-0.999907459239,0.0,0.292667583894,-0.223742819908,0.304910980296,1.0,-0.135632571429,-0.17825995102,3.293
-0.525361562402,-0.529973137172,-0.133743687935,-2.648357673,-0.0716914460689,2.10891966183,-0.777545996937,-0.594789943566,0.00797965379766,0.0112278239551,0.00863750954035,-0.000114573884783,-0.00041401019079,-0.605540538901,0.573870711297,0.818910167625,0.00626825145508,0.0,0.818910258805,-0.573778680193,-0.0120316698943,0.0,-0.00625638821779,0.0120379901503,-0.999907967965,0.0,0.290543373041,-0.226519369792,0.304914879793,1.0,-0.132670285714,-0.174366661225,3.309
-0.534994531897,-0.529833540976,-0.13359101023,-2.64824785383,-0.0716934052733,2.10890953723,-0.786967809367,-0.595147072383,0.0115564489097,0.00830722037595,0.00918142402151,-0.000315026625742,0.000102682238134,-0.587581507386,0.5739562102,0.818850059713,0.00629248618542,0.0,0.818850621871,-0.57386435527,-0.0120044871796,0.0,-0.00621896125025,0.0120428880559,-0.999908142465,0.0,0.288263041662,-0.229468944247,0.304916798443,1.0,-0.129522857143,-0.170230040816,3.326
-0.545629029809,-0.529570014465,-0.133396128275,-2.64800965112,-0.0716954481238,2.10892433447,-0.797380834866,-0.570059977495,0.0178373716658,0.0185143926546,0.0173569103434,0.00230412838404,0.00162048670821,-0.572353402985,0.573997857881,0.818820937393,0.00628319469322,0.0,0.818821765966,-0.573906785121,-0.0119442234579,0.0,-0.00617433105653,0.01200100631,-0.999908922594,0.0,0.286038433738,-0.232356159502,0.304935162282,1.0,-0.126375428571,-0.166093420408,3.343
-0.55516151149,-0.529139934641,-0.133183309173,-2.647693095,-0.0716903453988,2.10893596422,-0.807000684801,-0.565236680987,0.0234852679101,0.00922131458179,0.0198822832959,-0.000225577951462,-0.00104308327274,-0.560898731322,0.573796541291,0.818962264511,0.00625183265931,0.0,0.818962474945,-0.573705238159,-0.0119796178158,0.0,-0.00622426562605,0.0119941105401,-0.999908695747,0.0,0.283923138837,-0.23509206725,0.304928418337,1.0,-0.123228,-0.1619568,3.36
-0.563634534123,-0.528713905955,-0.133026763404,-2.64738142433,-0.0716736278887,2.10897044774,-0.815266196258,-0.563139115851,0.0325358635883,0.00989847205583,0.0243145546782,0.00907603557597,0.000414192761966,-0.547080388885,0.573880990689,0.818903151575,0.00624369819012,0.0,0.81890312046,-0.573789443203,-0.0120042105497,0.0,-0.00624783803353,0.0120022032534,-0.999908451628,0.0,0.282026087861,-0.237523594281,0.304921409982,1.0,-0.120450857143,-0.158306840816,3.375
-0.573432936315,-0.528028177505,-0.132799603504,-2.64685688985,-0.0716388439087,2.10911985792,-0.824971545687,-0.523378898481,0.04336866104,0.0201424507945,0.0302637130606,0.00214653038799,0.0066950316252,-0.536690997206,0.573841445687,0.818931172803,0.0062029287008,0.0,0.818930976241,-0.573750780007,-0.0119517988596,0.0,-0.00622888540215,0.0119384378446,-0.999909333234,0.0,0.279870936178,-0.240354774559,0.304927804211,1.0,-0.117118285714,-0.153926889796,3.393
-0.582341379369,-0.527280862452,-0.132609359171,-2.64631329902,-0.0715943252559,2.10922354795,-0.833867836557,-0.529650234672,0.0418692461361,0.00700171236659,0.0316601743002,-0.00160005433467,0.00841346209386,-0.522084493739,0.57376696867,0.81898354362,0.00617801289384,0.0,0.818982772719,-0.573675946136,-0.0119947370044,0.0,-0.00627943572312,0.0119420999431,-0.999908973325,0.0,0.277892682035,-0.242924316867,0.304915356097,1.0,-0.113970857143,-0.149790269388,3.41
-0.590689697773,-0.526527991743,-0.132423383142,-2.6457393584,-0.0715259222046,2.10934660646,-0.842002618555,-0.516185654535,0.0491136527191,0.0126578119415,0.0378554805954,0.00794056435323,0.00462397672834,-0.50332752856,0.57387197833,0.818910072536,0.00616380455014,0.0,0.818909118302,-0.573780996773,-0.0119987751763,0.0,-0.00628936502106,0.011933586356,-0.999909012563,0.0,0.276039936283,-0.245331350908,0.304916057414,1.0,-0.111008571429,-0.145896979592,3.426
-0.59960994611,-0.525515173364,-0.132174023489,-2.64500676486,-0.0713997331988,2.10950853548,-0.850952068367,-0.484803958142,0.0609940431567,0.0188283664591,0.0419404045337,0.00413454583409,0.00488911343301,-0.485162016039,0.573767020289,0.818983676489,0.00615556450425,0.0,0.818982231224,-0.573675370623,-0.0120590621853,0.0,-0.00634500149613,0.0119606204087,-0.999908338057,0.0,0.274081040334,-0.247900917154,0.304898453064,1.0,-0.107676,-0.141517028571,3.444
-0.607774839471,-0.524540706875,-0.131952604558,-2.64430103924,-0.0712635018599,2.10966241559,-0.85915997611,-0.488645771514,0.0564642667725,0.00858631687688,0.0423623465495,0.00533185585959,0.0113985728757,-0.483599271477,0.573673020421,0.819049441253,0.00616646785878,0.0,0.819047723187,-0.573580562196,-0.0121207555328,0.0,-0.00639065498542,0.0120042130144,-0.999907524924,0.0,0.272275764119,-0.250247362263,0.304880989056,1.0,-0.104528571429,-0.137380408163,3.461
-0.615396241746,-0.523623217585,-0.131748629377,-2.64355509965,-0.0711084572403,2.10982936045,-0.866622473239,-0.470142330241,0.0544921420978,0.00743011227495,0.0504369996447,0.00381212722751,0.00585403887768,-0.459318263614,0.573766231711,0.818983979666,0.0061886427318,0.0,0.818982819701,-0.573674162818,-0.0120765413058,0.0,-0.00634035149251,0.0119977346653,-0.999907922914,0.0,0.270598685699,-0.252448414072,0.304903082688,1.0,-0.101566285714,-0.133487118367,3.477
-0.623195802143,-0.522513589645,-0.131547188921,-2.64269650976,-0.0709448551593,2.11002779699,-0.874340222575,-0.4488300814,0.0666128198288,0.0158260070073,0.0489718101832,0.0151702857804,0.0142954517087,-0.444984892988,0.573808018274,0.818954558795,0.00620771253613,0.0,0.818953612701,-0.573715790968,-0.0120796663604,0.0,-0.00633135702506,0.0120154693588,-0.999907766954,0.0,0.268885898099,-0.25471551035,0.304908208756,1.0,-0.0984188571429,-0.129350497959,3.494
-0.630575112562,-0.521411100125,-0.131298794652,-2.64186440902,-0.0707708205729,2.1102324943,-0.881814488913,-0.439334115367,0.0653066152858,0.0143997730166,0.0456220719092,0.0102309570264,0.0149465214217,-0.438115656547,0.573674651119,0.819047949201,0.00621276703859,0.0,0.819046937948,-0.5735821816,-0.0120971604145,0.0,-0.00634474411285,0.0120286136875,-0.999907524062,0.0,0.267268371986,-0.25684165537,0.304905242147,1.0,-0.0952714285715,-0.125213877551,3.511
-0.63752586491,-0.520382824966,-0.131097312392,-2.64104087526,-0.0706053331702,2.11041609333,-0.888628160998,-0.424530593757,0.0648162527697,0.0117778193387,0.051473609097,0.0140304769106,0.014285091707,-0.414065921548,0.573759892069,0.818988120732,0.00622826250394,0.0,0.81898744767,-0.573667594517,-0.012074703344,0.0,-0.00631620783798,0.012029080896,-0.999907699106,0.0,0.265730703461,-0.258851067685,0.304922309027,1.0,-0.0923091428572,-0.121320587755,3.527
-0.645019926909,-0.519169130426,-0.130921407426,-2.6400856532,-0.0704168614863,2.1106695156,-0.896035330807,-0.414935702572,0.0650331196149,0.00821247391884,0.0516876547301,0.00770723479796,0.0170293753005,-0.402033331796,0.573839010949,0.818932425333,0.00626251966316,0.0,0.818932440238,-0.573747008556,-0.0120322650129,0.0,-0.00626063058306,0.0120333952444,-0.999907996719,0.0,0.264069926007,-0.261038696958,0.304935980983,1.0,-0.0889765714286,-0.116940636735,3.545
-0.651712279149,-0.517948583163,-0.13067227517,-2.63918315192,-0.0702073187317,2.11091633137,-0.902847693622,-0.384063962198,0.0715439710771,0.0177774954789,0.0496268711077,0.0160771185036,0.0109478660025,-0.405488889973,0.57370294981,0.819027612406,0.00628031830628,0.0,0.819027661981,-0.573610519729,-0.0120585018367,0.0,-0.00627391011294,0.0120619847235,-0.999907569016,0.0,0.262607270134,-0.262972699275,0.30492397628,1.0,-0.0858291428572,-0.112804016327,3.562
-0.657845071919,-0.516873001852,-0.13044192354,-2.63836678867,-0.0700253574911,2.11112460575,-0.908921819973,-0.382580102845,0.06706745061,0.00945666071233,0.0495546762506,0.00735437388275,0.0149490967691,-0.378670743141,0.573709668181,0.81902284839,0.0062878734437,0.0,0.819022915566,-0.573617047733,-0.0120703450313,0.0,-0.00627917786092,0.0120750185648,-0.999907378637,0.0,0.261250052783,-0.264733919459,0.304922045209,1.0,-0.0828668571429,-0.108910726531,3.578
-0.664564106388,-0.51561503483,-0.130184864672,-2.63738760116,-0.0698140401776,2.11138302576,-0.91556960822,-0.366533245039,0.0689806714038,0.0121520892181,0.054280488318,0.0142607565572,0.013172403344,-0.360749727817,0.57373786893,0.81900307324,0.00629052307474,0.0,0.819003310756,-0.573645492116,-0.0120487860797,0.0,-0.00625958313956,0.0120650363625,-0.999907621991,0.0,0.259849638464,-0.266575686336,0.304931608553,1.0,-0.0797194285715,-0.104774106123,3.595
