nelsonifechukwu/NELSON_IML_WORK/CNN-GradCAM/train2dof/data_sample_2022-02-21-16-36-32/robot_state.csv
position_joint1,position_joint2,position_joint3,position_joint4,position_joint5,position_joint6,position_joint7,velocity_joint1,velocity_joint2,velocity_joint3,velocity_joint4,velocity_joint5,velocity_joint6,velocity_joint7,ee_T_00,ee_T_10,ee_T_20,ee_T_30,ee_T_01,ee_T_11,ee_T_21,ee_T_31,ee_T_02,ee_T_12,ee_T_22,ee_T_32,ee_T_03,ee_T_13,ee_T_23,ee_T_33,v_x,v_y,time
0.465067387502,0.547825080111,-0.123898720825,-1.35585678311,0.0795218823883,1.8940983243,0.159162856728,-0.00145246431851,-0.00149071818863,-0.00118952959541,0.000619142892238,2.07832354361e-05,-0.000164025358919,-0.000821354460737,0.573758324562,0.81901065411,0.00191842391478,0.0,0.818966395775,-0.573699210421,-0.0120002272353,0.0,-0.00872788371106,0.00845651780609,-0.99992615295,0.0,0.661649796865,0.260938257325,0.303168841496,1.0,0.0,0.0,0.0
0.465074398588,0.547836719448,-0.123895747209,-1.35585177177,0.0795224927399,1.89409803218,0.159158177529,0.00135911870379,0.00197202469745,0.000958561670137,0.000685882727432,0.000263674503786,-0.00026261111039,-0.00195308105213,0.573746579041,0.819018894542,0.00191319718239,0.0,0.818974550178,-0.573687471482,-0.0120049209576,0.0,-0.00873484801063,0.00845480491413,-0.999926106622,0.0,0.66164803115,0.260945136355,0.303162858567,1.0,-0.00028,-0.000368,0.015
0.465068746695,0.547818972593,-0.123896090288,-1.35585807661,0.0795224927399,1.89410186871,0.159162856728,-0.000242179469653,-0.00320080801313,-0.000565529236985,0.00132643421757,0.000212681571649,-0.000113510643026,-0.00072345771185,0.573755620222,0.819012529455,0.00192659318263,0.0,0.81896836247,-0.573696456712,-0.0119976552266,0.0,-0.00872111818077,0.00846170389366,-0.999926168107,0.0,0.661649377055,0.260940947237,0.303172774394,1.0,-0.00062,-0.000814857142857,0.032
0.465069062569,0.547792456425,-0.123895862631,-1.35589048367,0.0795182343192,1.89410528805,0.159160976534,0.000301527217828,-0.00261270281973,0.000156631869668,-0.000356310080755,0.000216964218697,-8.25429965017e-05,-0.0011374574941,0.573753001638,0.81901435818,0.00192901742273,0.0,0.818970248424,-0.573693852948,-0.0119934226913,0.0,-0.00871628776579,0.00846123305191,-0.999926214209,0.0,0.66164318346,0.260935231926,0.30318226228,1.0,-0.00098,-0.001288,0.05
0.465074016876,0.547680102807,-0.123890645781,-1.35600271228,0.0795192593253,1.89412301867,0.159158244079,0.000792091178251,-0.00682184243455,0.000724666954621,-0.00725915162882,-1.1347919416e-05,0.00282783190614,-0.000972283569158,0.573750659026,0.819015957932,0.00194648949923,0.0,0.818971930839,-0.57369129486,-0.0120008999798,0.0,-0.0087124122527,0.00847980779845,-0.999926090635,0.0,0.661621668492,0.260933157757,0.303203962659,1.0,-0.00128,-0.00168228571429,0.065
0.465068083907,0.547545812896,-0.123890563825,-1.35619816806,0.079517254785,1.8941573362,0.159161976777,0.000438791552258,-0.0033880094886,0.000425539890854,-0.0119845100356,0.000328777228507,0.00920273480823,0.00123132228124,0.573768649868,0.819003392393,0.0019304349415,0.0,0.818959013454,-0.573709213975,-0.0120257633165,0.0,-0.00874180094615,0.00848111636473,-0.99992582304,0.0,0.661588886331,0.260909843536,0.303209038863,1.0,-0.00162,-0.00212914285714,0.082
0.465043483917,0.547366496265,-0.123900835097,-1.35642176938,0.0795120031858,1.89427020312,0.159144862764,-0.000498106141195,-0.0139484477907,-0.00102346930386,-0.0127708250826,2.81445546014e-05,0.00881416681084,-0.00118123816275,0.573793238956,0.818986021999,0.00199037705905,0.0,0.818942449873,-0.573733568072,-0.0119918124061,0.0,-0.00867934771143,0.00851098900924,-0.999926113265,0.0,0.661573943616,0.260870266555,0.303239766238,1.0,-0.00198,-0.00260228571429,0.1
0.465028576524,0.547188208406,-0.12389589001,-1.35662694292,0.0795109186013,1.89438674234,0.159138819426,0.000604448319225,-0.00885575200147,-0.00410708611444,-0.0123875221923,-1.15520492478e-06,0.0120355436126,0.000665765262209,0.573808442416,0.818975163827,0.00207348685413,0.0,0.818932611591,-0.573748358243,-0.0119560021376,0.0,-0.0086021747495,0.00855866574951,-0.999926373205,0.0,0.661557668194,0.260849010271,0.303278352932,1.0,-0.0023,-0.00302285714286,0.116
0.464992720724,0.54697101091,-0.123888807915,-1.35690455766,0.0795079406504,1.89452083066,0.159120886515,-0.00207967871772,-0.0110513687323,0.000907493852505,-0.0217740851211,0.00017023375954,0.00634532623973,0.000347009286722,0.573833065775,0.818957726817,0.00214504357768,0.0,0.818915998026,-0.57377257479,-0.0119317851391,0.0,-0.00854102489901,0.00860362899531,-0.999926511531,0.0,0.661534371217,0.260807925611,0.303311462803,1.0,-0.00264,-0.00346971428571,0.133
0.464962180281,0.546726150141,-0.123891602986,-1.3572767852,0.0795011860965,1.89465101059,0.159074168269,-0.000701827630277,-0.0153957793994,8.87879397964e-05,-0.017089712728,-0.00114653039281,0.0018941118352,-0.0102517778836,0.57384074714,0.818952316526,0.00215570870121,0.0,0.818910587778,-0.57378007155,-0.0119425968154,0.0,-0.00854367912676,0.00861864729458,-0.999926359521,0.0,0.661490386919,0.260752882858,0.303319100711,1.0,-0.00298,-0.00391657142857,0.15
0.464921142576,0.546464669858,-0.123896547142,-1.35766604983,0.0794927969511,1.8947924428,0.158955404302,-0.00561869794362,-0.0148721077196,-0.00520316090938,-0.0241266313518,0.000113418784006,0.00971647063027,-0.00509359702186,0.573800064218,0.818980769195,0.00217552142103,0.0,0.818939178109,-0.573739190933,-0.0119461394281,0.0,-0.00853564089529,0.00863648157451,-0.999926274293,0.0,0.661448474401,0.260688350076,0.303331430477,1.0,-0.0033,-0.00433714285714,0.166
0.464873899694,0.546179971733,-0.12389671056,-1.35814599109,0.0794730699176,1.8949617042,0.158934250161,-0.00808527753347,-0.0141900894443,-0.00221924382163,-0.0262790676029,-0.000420151776846,0.0145103456259,0.00152572064159,0.573859375565,0.81893926089,0.00215660611599,0.0,0.818897342556,-0.573798490942,-0.0119658283826,0.0,-0.00856199416159,0.0086329080313,-0.999926079845,0.0,0.661391837535,0.260603158957,0.303318493941,1.0,-0.00366,-0.00481028571429,0.184
0.464816064194,0.545837962486,-0.123894424136,-1.35873310856,0.0794468794518,1.89515658533,0.158871440352,-0.00543321174794,-0.0128762676786,0.000404677734748,-0.0332475104298,-0.00129502401453,0.0128471778744,-0.00216126578304,0.573863237675,0.818936650585,0.0021198290001,0.0,0.818894100142,-0.573802352119,-0.0120025145719,0.0,-0.00861310204468,0.00862388337046,-0.999925718796,0.0,0.661322105841,0.260518924911,0.303298781006,1.0,-0.004,-0.00525714285714,0.201
0.464755025426,0.545498287092,-0.12389703497,-1.3593094349,0.0793783448032,1.89535863812,0.158781920045,-0.00701732413036,-0.0260981451799,-0.000311443442211,-0.0356150585244,-0.0125536464812,0.0132091664648,-0.0032251147174,0.573855697211,0.818942060346,0.00207062219853,0.0,0.818899160831,-0.573795310931,-0.0119938502946,0.0,-0.00863432140095,0.00857853526721,-0.99992592587,0.0,0.661259300096,0.260415712871,0.303282460787,1.0,-0.00432,-0.00567771428571,0.217
0.464693576013,0.545105294246,-0.123899775558,-1.36000734935,0.0793301999766,1.89557377831,0.158708512265,-0.00386167255846,-0.0256173991902,-0.000467358793587,-0.0431341803877,-0.000235722836843,0.0176488853201,-0.000526638427294,0.573873774161,0.818929593167,0.00198989128628,0.0,0.818885634475,-0.573813722626,-0.0120364561905,0.0,-0.0087153510422,0.00853706429503,-0.999925577825,0.0,0.661171483453,0.260302609544,0.303247167966,1.0,-0.00466,-0.00612457142857,0.234
0.464621500284,0.544678871313,-0.123900151746,-1.36071926282,0.0793105650667,1.89582024518,0.158617603666,-0.00307354706291,-0.0288806704462,-0.000438137867816,-0.0443845293513,-0.000282909046702,0.0153700941378,-0.00837492892722,0.57389304236,0.818916141005,0.00196896728746,0.0,0.81887166231,-0.573832837622,-0.0120756794165,0.0,-0.00875927934534,0.00854264438702,-0.999925146325,0.0,0.66108812595,0.260189383309,0.303231533421,1.0,-0.005,-0.00657142857143,0.251
0.464570989579,0.544247787226,-0.123903673063,-1.36144538463,0.0792807846198,1.8960809372,0.158527923301,-0.0014007368763,-0.0285273897697,-0.000973886577817,-0.0465222206446,9.40512762477e-05,0.0105713733301,-0.00210584175398,0.573895989818,0.8189141313,0.00194559209967,0.0,0.818869211994,-0.573835755404,-0.0121031553733,0.0,-0.00879516399044,0.00853930221041,-0.999924859881,0.0,0.661000048929,0.260086293323,0.303213716452,1.0,-0.00532,-0.006992,0.267
0.464490462519,0.543701504541,-0.123905416996,-1.36231234508,0.0792479573758,1.89638669953,0.158418342455,-0.00421926424806,-0.0351579648107,0.0023365674797,-0.0480825163481,-0.00180554525766,0.0158672099122,-0.000525345739931,0.573912884908,0.818902296663,0.0019431822902,0.0,0.818857144387,-0.573852463478,-0.0121274131038,0.0,-0.00881623623892,0.0085514319836,-0.99992457065,0.0,0.660899054264,0.259951762686,0.303214179754,1.0,-0.00568,-0.00746514285714,0.285
0.464417454763,0.54316745736,-0.123909324984,-1.36316534952,0.0791887639412,1.89668531831,0.158306757413,-0.00378282023926,-0.0309047775311,0.000830338620074,-0.0531010952624,-0.0046542598514,0.0152961110584,-0.00495325247728,0.573915626614,0.81890042832,0.00192065805854,0.0,0.818855038133,-0.573855359591,-0.0121325881098,0.0,-0.00883337174866,0.00853598677943,-0.99992455139,0.0,0.660799408264,0.259817698893,0.303211966099,1.0,-0.00602,-0.007912,0.302
0.464342723956,0.542621694766,-0.123906276878,-1.3640210197,0.0791384287157,1.89699193612,0.158206214522,-0.00046561847585,-0.0277410326569,0.000961177611844,-0.053075680366,-0.00198784829393,0.0187002461026,-0.00831326944982,0.573926440807,0.818892852649,0.00191919876871,0.0,0.818847393981,-0.573866131184,-0.0121390177574,0.0,-0.00883936189245,0.00853859856117,-0.999924476156,0.0,0.660699285368,0.259688350706,0.30321718665,1.0,-0.00634,-0.00833257142857,0.318
0.464272808003,0.5420547647,-0.123905026067,-1.36489336312,0.0790922982945,1.89732482747,0.158082101771,-0.00162197318962,-0.0329300921924,0.00154591782652,-0.0541872285542,-0.000322047810559,0.0244537518515,-0.00688074975531,0.573924677608,0.818894010433,0.00195218104341,0.0,0.818848942608,-0.573864182622,-0.0121266646016,0.0,-0.00881033585623,0.00855849823271,-0.9999245622,0.0,0.660595884008,0.259551872172,0.303236358281,1.0,-0.00668,-0.00877942857143,0.335
0.464175381731,0.541332228298,-0.123907469708,-1.36598273635,0.0790317705989,1.89773024987,0.157932768105,-0.003779069069,-0.0364609165247,-0.00332485939658,-0.0615947579137,-0.00666444576251,0.0244736739776,-0.00460860619007,0.573920869935,0.818896608628,0.00198149725522,0.0,0.818851869624,-0.573860193102,-0.0121178086939,0.0,-0.00878629920942,0.00857738118058,-0.999924611897,0.0,0.660477688265,0.259394047251,0.303259290448,1.0,-0.00704,-0.00925257142857,0.353
0.464087559269,0.540635019219,-0.12391016817,-1.36705204426,0.0789690547489,1.89811740688,0.157819058969,-0.00658694211112,-0.043287144781,0.000454365840413,-0.0645914878101,-0.0110534236697,0.0184492202712,-0.0082470601115,0.573943994014,0.818880369763,0.00199465597335,0.0,0.818835782498,-0.573883236634,-0.0121135838169,0.0,-0.00877504531599,0.00858597966915,-0.999924636927,0.0,0.660353254967,0.259232840557,0.303276813205,1.0,-0.00738,-0.00969942857143,0.37
0.464007569054,0.539983743187,-0.123910431288,-1.36802455852,0.0789039812109,1.89848224821,0.157687032089,-0.00031624332914,-0.0379898791888,0.000169921804385,-0.070826329835,-0.000565913388449,0.0257349525121,-0.0127025806198,0.573937988735,0.818884495635,0.00202849630394,0.0,0.818840414832,-0.573877147509,-0.0120889000845,0.0,-0.00873547336079,0.00859945932178,-0.99992486758,0.0,0.660242885516,0.259087220838,0.303305808019,1.0,-0.00768,-0.0100937142857,0.385
0.463908837723,0.53923869521,-0.123916037769,-1.36918171145,0.0788418402723,1.89893088006,0.157541802894,-0.00159303266725,-0.0412609819353,-0.00195809009004,-0.0704197365343,-2.54325845878e-05,0.0275693919591,-0.00791639912489,0.57395135636,0.818875044623,0.0020612442518,0.0,0.818831371527,-0.573890352042,-0.0120745905873,0.0,-0.00870482031139,0.00861820502995,-0.999924973508,0.0,0.6601147346,0.258911603936,0.303320547407,1.0,-0.00802,-0.0105405714286,0.402
0.463792141663,0.538471021973,-0.123918917614,-1.37037502582,0.0787694580764,1.89938654756,0.157398326337,-0.00904051201559,-0.0522521192542,-0.00167960054653,-0.0729471646001,-0.00758232272248,0.023337326464,-0.0110673791087,0.573978064466,0.818856264442,0.00208484943169,0.0,0.818812930273,-0.573916985889,-0.0120592464913,0.0,-0.00867842611859,0.00862901076755,-0.999925109742,0.0,0.659984567433,0.258720550784,0.303334435756,1.0,-0.00836,-0.0109874285714,0.419
0.463673844923,0.537588796369,-0.123925293193,-1.37176208674,0.078700393291,1.89992112789,0.15722445309,-0.00401220651315,-0.050092139531,-1.88307815924e-05,-0.0744739442232,-0.00712646546917,0.0248094137433,-0.0161989123349,0.573995204344,0.818844172407,0.00211509012575,0.0,0.818801150353,-0.573933912154,-0.0120535290221,0.0,-0.00865620670505,0.00865067263442,-0.99992511517,0.0,0.65982903514,0.258510818517,0.303343849772,1.0,-0.00874,-0.0114868571429,0.438
0.463571889794,0.536854509871,-0.123925477885,-1.37291284409,0.0786269110326,1.9003470063,0.157086606974,-0.00687008515337,-0.0526132107617,-0.00017432398379,-0.0764314759319,-0.00108692899542,0.0308347812465,-0.00893064336589,0.574009613576,0.818834058291,0.00212023737966,0.0,0.818791129918,-0.573948324159,-0.0120479734856,0.0,-0.00864855084388,0.00865185073954,-0.999925171224,0.0,0.659697000547,0.258333503797,0.303351464225,1.0,-0.00904,-0.0118811428571,0.453
0.463476770571,0.53611062488,-0.123931021482,-1.37407786287,0.0785621552193,1.90078931389,0.156942128243,-0.00752335878618,-0.0495205171488,-0.0037050600561,-0.0833251689259,-0.00406830940613,0.036438384504,-0.00606716499182,0.574019885691,0.818826808556,0.00213900041377,0.0,0.818784107451,-0.573958497806,-0.0120405599366,0.0,-0.0086316019869,0.00866306717397,-0.999925220561,0.0,0.659563932374,0.258158553457,0.303360563709,1.0,-0.00934,-0.0122754285714,0.468
0.4633529441,0.535158646171,-0.123926644612,-1.37558144435,0.0784792409254,1.90132221889,0.156759834512,-0.00691509594058,-0.0579621868761,0.00071389290869,-0.0926076310286,-0.00690869158557,0.0321570330984,-0.0112785834971,0.57402910862,0.818820370166,0.00212855789008,0.0,0.818777386225,-0.573967616994,-0.0120628914442,0.0,-0.00865578458849,0.00866743276371,-0.999924973687,0.0,0.659381653393,0.257936206241,0.303362752939,1.0,-0.0097,-0.0127485714286,0.486
0.463225809703,0.534270404261,-0.123927733824,-1.37704513641,0.0783915747955,1.90185847414,0.156579366256,-0.0106849966963,-0.0530444591734,0.00147819861095,-0.0886258188881,-0.00331051656619,0.0339411692268,-0.00867880999297,0.574042945718,0.818810759656,0.00209362003801,0.0,0.818767282429,-0.573981565005,-0.0120849972511,0.0,-0.00869379385614,0.00865166158127,-0.999924780521,0.0,0.659209612111,0.257711877984,0.303339245619,1.0,-0.01004,-0.0131954285714,0.503
0.463105104812,0.533391555811,-0.123932453338,-1.37844396627,0.0783147127668,1.90237792589,0.156409540011,-0.00841635298579,-0.050926625764,0.000400534980158,-0.0888630770524,-0.00526572190114,0.0346722616255,-0.00640515248242,0.57406200217,0.818797395551,0.00209513823528,0.0,0.818753876495,-0.574000551116,-0.0120914822878,0.0,-0.00869803116795,0.00865682975407,-0.999924698941,0.0,0.659047282029,0.257497880906,0.303338473257,1.0,-0.01036,-0.013616,0.519
0.462968012071,0.532395661324,-0.123935215629,-1.3800747622,0.0782343491738,1.90299216558,0.156214998652,-0.00502518987316,-0.0553432970074,0.000169964171867,-0.095859822845,-0.0049686967046,0.0322405853163,-0.00562607269618,0.574084599661,0.818781579233,0.00208442844211,0.0,0.818737755611,-0.574023028436,-0.0121159920986,0.0,-0.00872400918174,0.00866237151531,-0.999924424636,0.0,0.658856497497,0.257254095048,0.303317824283,1.0,-0.01072,-0.0140891428571,0.537
0.462834699808,0.531414072544,-0.123932798906,-1.38165614693,0.0781297565295,1.90356264972,0.156009673611,-0.00465103573416,-0.056493920328,0.000545764230991,-0.094916622249,-0.0108233617815,0.029386057867,-0.0079308346364,0.574081935806,0.818783522849,0.00205440814935,0.0,0.818739326283,-0.574020515177,-0.0121289180812,0.0,-0.00875185435089,0.00864518396195,-0.999924330057,0.0,0.658666851331,0.257014658315,0.30330636683,1.0,-0.01106,-0.014536,0.554
0.462703970044,0.530457802023,-0.123935906198,-1.38320528116,0.0780354659102,1.90410337532,0.155804689211,-0.00695130625228,-0.0574538830854,0.000358516612653,-0.0951038549154,-0.00543654430824,0.0272704756182,-0.0091246164966,0.574082075847,0.818783537427,0.00200896293521,0.0,0.818738687416,-0.574020797287,-0.0121586558548,0.0,-0.00880229021674,0.00862504812819,-0.999924061233,0.0,0.658477720589,0.256776883373,0.30328982522,1.0,-0.01138,-0.0149565714286,0.57
0.462566501495,0.529407749376,-0.123936231968,-1.38484525904,0.0779425070094,1.90471708533,0.15558038497,-0.00702154837662,-0.0624168083536,0.000699402462716,-0.102472673631,-0.00490632462161,0.0375719056646,-0.0123086087583,0.574075307985,0.818788225783,0.00203198969046,0.0,0.818743610604,-0.574013863168,-0.0121545006943,0.0,-0.00878574095938,0.00864144367994,-0.99992406522,0.0,0.658285001218,0.256531911385,0.303302122381,1.0,-0.01172,-0.0154034285714,0.587
0.462430154601,0.528319429029,-0.123939112547,-1.38654361572,0.0778259478057,1.90536565682,0.155347849556,-0.00410262141468,-0.0637547850909,0.000332881301744,-0.0999111746268,-0.00666735528127,0.0449537992825,-0.012812932224,0.574059307054,0.818799385961,0.00205534316777,0.0,0.818755225249,-0.573997908576,-0.0121255506857,0.0,-0.00874879921769,0.00864377460203,-0.999924368976,0.0,0.658087706352,0.256278353287,0.303316395925,1.0,-0.01206,-0.0158502857143,0.604
0.462291249717,0.527251230965,-0.123941776079,-1.38818264389,0.0777250593356,1.90599762831,0.155113177843,-0.00592039878526,-0.0704335952609,-0.000735105634264,-0.108271068372,-0.0035174017914,0.0448311335343,-0.0124164341315,0.57404435747,0.818809740513,0.00210508903884,0.0,0.818766280303,-0.5739827949,-0.012094473886,0.0,-0.00869495553906,0.00866650727,-0.999924641861,0.0,0.65789972606,0.256031438164,0.303343043729,1.0,-0.01238,-0.0162708571429,0.62
0.462138601526,0.526080431703,-0.123944893415,-1.3899939702,0.077619913886,1.90667275327,0.154883682108,-0.0138116348554,-0.0704772722907,-0.000384055431064,-0.111836656225,-0.00813945598579,0.0407932529891,-0.00901012705895,0.574053064,0.818803556813,0.00213587549525,0.0,0.818760460667,-0.573991329932,-0.0120833816657,0.0,-0.00866810875807,0.00868543989472,-0.999924710678,0.0,0.657686001534,0.255758388814,0.303363378846,1.0,-0.01272,-0.0167177142857,0.637
0.461967062434,0.524848203466,-0.123945850373,-1.39194009194,0.0774842678355,1.90736792152,0.154604303842,-0.00885057475633,-0.0698403670386,-0.000338133742709,-0.109437461787,-0.00478391408492,0.0314770347801,-0.0184659314508,0.574033372057,0.818817428143,0.00211045867978,0.0,0.81877409324,-0.573971842788,-0.0120853145036,0.0,-0.00868448948595,0.00866552956705,-0.999924741288,0.0,0.657451637185,0.255455494721,0.303364088393,1.0,-0.01308,-0.0171908571429,0.655
0.461830339669,0.523794940754,-0.123956564268,-1.39361135156,0.0773884378481,1.90796882627,0.154378613535,-0.0098670743123,-0.0737076581195,-0.00107012296221,-0.103723072177,-0.00303557081682,0.0410472977579,-0.00670208992703,0.574031949635,0.81881846148,0.00209638720128,0.0,0.818774889432,-0.573970428055,-0.0120985559295,0.0,-0.00870342426091,0.00866159360943,-0.999924610759,0.0,0.657248914537,0.255200131424,0.303361661604,1.0,-0.01338,-0.0175851428571,0.67
0.461663143383,0.522497447603,-0.123954712219,-1.39567051228,0.0772645296984,1.90876154171,0.154108855966,-0.0105994298132,-0.0729461753366,5.75027148907e-05,-0.112169430349,-0.00783759611358,0.0490034307646,-0.018585235482,0.574023797376,0.818824112089,0.00212141664728,0.0,0.818780862042,-0.573962164056,-0.0120864009125,0.0,-0.00867919070708,0.00867502412068,-0.999924704968,0.0,0.657005504435,0.254897705158,0.30336221593,1.0,-0.01374,-0.0180582857143,0.688
0.461496942009,0.521264709024,-0.1239605021,-1.39765737943,0.0771415282695,1.90953436282,0.15384029556,-0.0106739700093,-0.0736320242447,0.00178634267916,-0.119052130171,-0.010215195303,0.0481851359073,-0.0102817273493,0.57401737178,0.818828590343,0.0021315329352,0.0,0.818785541197,-0.573955764758,-0.0120732982091,0.0,-0.00866272292172,0.00867571828911,-0.999924841747,0.0,0.656774176116,0.254598048119,0.303349850714,1.0,-0.01408,-0.0185051428571,0.705
0.461343185656,0.520039725144,-0.123970721832,-1.3995735748,0.0770258757909,1.91022560185,0.153582481166,-0.0132781197329,-0.0769992485032,-0.00194048273015,-0.121036096647,-0.00739157187738,0.0364812240723,-0.010965791036,0.574010203908,0.818833619335,0.00212991979749,0.0,0.81879053469,-0.573948590248,-0.012075717603,0.0,-0.00866570592754,0.00867571032779,-0.999924815969,0.0,0.656539798701,0.254308007797,0.303358365166,1.0,-0.0144,-0.0189257142857,0.721
0.461172493187,0.518691554168,-0.123964062441,-1.401649268,0.0768880156211,1.91097298855,0.153302621474,-0.00833167170599,-0.082153438936,0.000410159226704,-0.122945235479,-0.0128610528577,0.0466763065593,-0.0174953710213,0.57398891194,0.818848510646,0.00214300821446,0.0,0.818805610869,-0.573927259119,-0.0120673008522,0.0,-0.00865152706821,0.00868137117962,-0.999924889616,0.0,0.656283188793,0.253999666774,0.303381365721,1.0,-0.01474,-0.0193725714286,0.738
0.460999427674,0.517354389106,-0.123970051569,-1.40377689314,0.0767467885181,1.91172989566,0.15300369207,-0.0128047626971,-0.0777421984191,-2.78588445345e-05,-0.129558966526,-0.00862862560047,0.0515911075206,-0.0116906147327,0.573964464103,0.818865740933,0.00210693483103,0.0,0.818822415868,-0.573903014505,-0.012080071006,0.0,-0.00868294721756,0.0086589036604,-0.999924812081,0.0,0.65601878606,0.253676251414,0.303372794157,1.0,-0.01508,-0.0198194285714,0.755
0.46082157537,0.516069144807,-0.123967618506,-1.40579837475,0.0766280201108,1.91249454942,0.152736830175,-0.0100812491586,-0.0827961857462,2.69186800995e-05,-0.130019620945,-0.00844435079519,0.0495191694581,-0.0119350817782,0.573964771783,0.818865458722,0.00213264274587,0.0,0.818822412136,-0.573903154797,-0.0120736572501,0.0,-0.00866293727103,0.00867627665075,-0.999924835046,0.0,0.655777064515,0.253370659925,0.303378351622,1.0,-0.0154,-0.02024,0.771
0.460635693702,0.514688572253,-0.123978824428,-1.40800869645,0.0764867345107,1.91332195245,0.152422346763,-0.00749517762421,-0.0800281774734,-0.00136686099079,-0.129184945157,-0.00635807656195,0.0447898312496,-0.0191664887853,0.573945827252,0.818878762782,0.00212276851529,0.0,0.818835669512,-0.573884337203,-0.012068999495,0.0,-0.00866499059995,0.00866531731189,-0.999924912288,0.0,0.655511145771,0.253031388492,0.303366362004,1.0,-0.01574,-0.0206868571429,0.788
0.460447432858,0.513305140635,-0.123974362986,-1.41028416342,0.0763567117271,1.91409514173,0.152119325642,-0.00844753111913,-0.0796711456912,0.000165823040899,-0.133061438611,-0.00640287565442,0.0479849811029,-0.0176189629012,0.573930231497,0.818889935184,0.00202739455013,0.0,0.818845333847,-0.573868898271,-0.0121471698509,0.0,-0.00878390557243,0.00863191676295,-0.999924163632,0.0,0.655198030909,0.252666167029,0.303319575816,1.0,-0.0161,-0.02116,0.806
0.460261957766,0.511935551043,-0.12398212978,-1.41242717977,0.0762283663967,1.91487182683,0.151810039869,-0.0121716551833,-0.0853847788075,-0.00153133123337,-0.134668390216,-0.0096224697864,0.0590439489734,-0.0228791698256,0.573914478937,0.818900966491,0.00203097206099,0.0,0.818856355994,-0.573853076935,-0.012151594205,0.0,-0.00878564182336,0.00863721653059,-0.999924102614,0.0,0.654950932647,0.252359911497,0.303326770359,1.0,-0.0164,-0.0215542857143,0.821
0.460057563031,0.510392264302,-0.123985923221,-1.41489492233,0.0760665023374,1.91581621117,0.151461639551,-0.0104242817763,-0.0888682879782,0.000153224559225,-0.13274625552,-0.011416615791,0.0541284137891,-0.0172850756432,0.573884538479,0.818921930982,0.00203822299106,0.0,0.818877531402,-0.573823222584,-0.0121344423123,0.0,-0.00876775005105,0.00863299004926,-0.999924296155,0.0,0.654652787356,0.251989228874,0.303314776932,1.0,-0.01676,-0.0220274285714,0.839
0.459847758407,0.508892034136,-0.123983249008,-1.4172757403,0.0759135847029,1.91667882206,0.151135824579,-0.0136975206931,-0.0856546323722,-0.000288590619487,-0.139158981723,-0.0120493000837,0.0525300291485,-0.0241666038043,0.57387001868,0.818932152905,0.00201928225214,0.0,0.818887482244,-0.573808765098,-0.0121465806753,0.0,-0.00878871281735,0.00862428948274,-0.999924187205,0.0,0.6543563071,0.251624568402,0.303306182864,1.0,-0.0171,-0.0224742857143,0.856
0.459651266446,0.50747080669,-0.123986753573,-1.41953301649,0.0757783503141,1.91747806789,0.15080833345,-0.0135614111453,-0.0883468452575,0.000815158465955,-0.141573661489,-0.00754784716113,0.0443291104088,-0.0221482726786,0.573845604624,0.818949333235,0.00198961016877,0.0,0.818904158101,-0.57378437218,-0.0121746042178,0.0,-0.00882894676962,0.00861580903968,-0.999923905872,0.0,0.654070779492,0.251277268866,0.303295353369,1.0,-0.01742,-0.0228948571429,0.872
0.459435782587,0.505904353418,-0.123996057422,-1.42196751003,0.0756259829373,1.91839102907,0.150479853516,-0.0117082874759,-0.0914856428477,-0.000339977148489,-0.142617570749,-0.00523262185555,0.0563235359995,-0.0277433074991,0.573844436918,0.818950069503,0.00202306230222,0.0,0.818905387007,-0.57378310976,-0.0121514191006,0.0,-0.00879077578768,0.00862988702116,-0.999924120777,0.0,0.653775433165,0.250900018137,0.303311207708,1.0,-0.01776,-0.0233417142857,0.889
0.459217083973,0.504264865226,-0.123999766667,-1.42444724456,0.0754745698239,1.91934581783,0.150140121171,-0.0152826050267,-0.0940258517481,-0.000209054271621,-0.144622734833,-0.00549879573447,0.0509096161414,-0.0206352407283,0.573834982429,0.818956450985,0.00211925284134,0.0,0.818913071896,-0.573773281941,-0.0120974588462,0.0,-0.0086914886427,0.0086775960095,-0.999924575832,0.0,0.653477980995,0.250522562716,0.303359372213,1.0,-0.0181,-0.0237885714286,0.906
0.458994856468,0.502687064545,-0.124002410482,-1.42677191138,0.075318229543,1.9202278996,0.149816793277,-0.0164650357895,-0.100798703888,5.52168260534e-06,-0.14752138277,-0.0103577342486,0.0506558321983,-0.0192170590339,0.573830959753,0.818958983393,0.00222711692369,0.0,0.818917171753,-0.573768962867,-0.0120245565268,0.0,-0.00856993301919,0.00872405506976,-0.99992522076,0.0,0.65320152464,0.250155426964,0.303431220765,1.0,-0.01842,-0.0242091428571,0.922
0.458768954292,0.500981251367,-0.124003790409,-1.42933772216,0.0751522412344,1.92113041487,0.149457954036,-0.0124487448861,-0.0993019249988,0.00259474958331,-0.146689805838,-0.00449066049773,0.0527576819138,-0.0200242506059,0.573808906829,0.818974340073,0.00226177944816,0.0,0.818932961175,-0.573746749009,-0.0120091633505,0.0,-0.00853767240113,0.00874337897224,-0.999925327949,0.0,0.652874572371,0.249759738232,0.303478825346,1.0,-0.01876,-0.024656,0.939
0.458507406219,0.499172408841,-0.124011179617,-1.43209431546,0.0749765551396,1.92213854108,0.149060000043,-0.013248392779,-0.0955317674126,0.000825956256372,-0.151540813319,-0.00723111681324,0.054636146242,-0.0256154083743,0.573795233098,0.818983787275,0.0023094492444,0.0,0.818943065447,-0.573732917791,-0.0119808806043,0.0,-0.00848730332565,0.00876604839639,-0.999925558268,0.0,0.652535003168,0.249321645901,0.303516195493,1.0,-0.01912,-0.0251291428571,0.957
0.458282878602,0.497682845772,-0.12401202582,-1.43443551553,0.0748391604311,1.92301066584,0.14872321119,-0.0183744463439,-0.0968748682787,0.000161135976001,-0.153844417054,-0.010269581001,0.057725093767,-0.0214850411045,0.573785816707,0.81899032736,0.00232962198375,0.0,0.818949778964,-0.573723327811,-0.0119812170589,0.0,-0.00847610559549,0.00878266491746,-0.999925507441,0.0,0.652246255481,0.248953610032,0.303516113189,1.0,-0.01942,-0.0255234285714,0.972
0.457983630636,0.495812347077,-0.12401709259,-1.43744323379,0.0746532400132,1.92404899141,0.148277954301,-0.0189517325727,-0.0960068836203,-0.000898138284011,-0.16191158848,-0.00915881455409,0.0547439661316,-0.0225809436635,0.573771360591,0.819000689092,0.00224587031434,0.0,0.818958881813,-0.573709048056,-0.0120426317755,0.0,-0.00857461269041,0.00874916110873,-0.999924961283,0.0,0.651860391392,0.248464105438,0.303478283181,1.0,-0.0198,-0.0260228571429,0.991
0.457715368283,0.494223779035,-0.124012924956,-1.44002588419,0.0744867898445,1.92495782044,0.147912356351,-0.0147504489142,-0.0956528540348,0.00187621889255,-0.158812718318,-0.011638651972,0.0497867879247,-0.0333456829145,0.573773430251,0.818999442337,0.00217050500526,0.0,0.81895654928,-0.573711333452,-0.0120922769249,0.0,-0.00865849144007,0.008715944309,-0.999924528572,0.0,0.651532021391,0.248041386119,0.303434187319,1.0,-0.0219548571429,-0.028854955102,1.007
0.457455772304,0.492279263082,-0.124081228223,-1.44302530683,0.0743090181923,1.92607699243,0.147494149988,-0.0208602949422,-0.129716731275,-0.0019830324678,-0.200299917371,-0.0119771009463,0.0769074445471,-0.0280027170603,0.573795382246,0.818983947857,0.00221345135904,0.0,0.818941832075,-0.573733319242,-0.0120457864372,0.0,-0.008595540427,0.00872467252136,-0.999924995574,0.0,0.651167300069,0.24754952797,0.303459160443,1.0,-0.0272211428571,-0.0357763591837,1.023
0.457095962753,0.48985232754,-0.124080666762,-1.44695929617,0.0740882531761,1.92752079801,0.146906422464,-0.0211783403767,-0.151831890603,0.00148284248909,-0.250030502389,-0.0128275756903,0.0890839391213,-0.0392944031524,0.573745629799,0.819018918538,0.00217031441778,0.0,0.818975905582,-0.57368341924,-0.0121056791277,0.0,-0.00866987375322,0.00872318365926,-0.999924366818,0.0,0.650662380666,0.246943669029,0.303400188419,1.0,-0.0328165714286,-0.0431303510204,1.04
0.456628314419,0.486861814634,-0.124113045383,-1.45165844916,0.0738108961178,1.92925828855,0.146238822479,-0.0308448466029,-0.180700117712,-0.00663832898247,-0.286776819719,-0.0183795206249,0.110816064171,-0.0389320918906,0.573763809776,0.819006119106,0.00219416485306,0.0,0.818963345383,-0.573701421506,-0.012102263511,0.0,-0.00865319897621,0.00874094969773,-0.999924356112,0.0,0.650078189317,0.246176215846,0.303393454481,1.0,-0.038412,-0.0504843428571,1.057
0.456133241347,0.48360826657,-0.124187627237,-1.45668220594,0.0735099844519,1.93110051687,0.145456736009,-0.0315730533033,-0.215055390569,-0.00429070642729,-0.328377805043,-0.0256615750849,0.1094102779,-0.0525744920189,0.573749028742,0.81901633162,0.00224665467498,0.0,0.81897436695,-0.573686544794,-0.0120615713196,0.0,-0.00858991372036,0.00876043608545,-0.999924731238,0.0,0.649455736173,0.245334972232,0.30342288141,1.0,-0.0436782857143,-0.0574057469388,1.073
0.455510010481,0.479696261421,-0.124264225606,-1.4628260597,0.0731343371823,1.93324160859,0.144534842837,-0.0351188753652,-0.237818314364,-0.00629634067758,-0.367430794661,-0.0290116778532,0.130571429073,-0.0466308866055,0.573758067723,0.819010227819,0.00216179389971,0.0,0.818967080886,-0.573695869493,-0.0121126649592,0.0,-0.00868035138046,0.00872034517517,-0.999924300675,0.0,0.64866570353,0.244294514613,0.303399130571,1.0,-0.0492737142857,-0.0647597387755,1.09
0.454791455784,0.475286778034,-0.124335485405,-1.46959996145,0.0727127217359,1.93571466101,0.143572812669,-0.0422865833853,-0.265821494833,-0.00481101383656,-0.412815561375,-0.0208537877951,0.151781036607,-0.0618270689213,0.573824137271,0.818963724156,0.00224162957349,0.0,0.818921761239,-0.573761733454,-0.0120569106094,0.0,-0.00858817649367,0.00875443411695,-0.999924798726,0.0,0.647817085199,0.24314312896,0.303444501087,1.0,-0.0548691428571,-0.0721137306122,1.107
0.454025312334,0.470755132428,-0.124380510821,-1.47659700947,0.0723057721897,1.93820767675,0.142529399326,-0.0525276712837,-0.298288005132,-0.00307956357368,-0.446588611668,-0.0301909401244,0.154556561265,-0.075233277062,0.573855255781,0.818941818501,0.00227820620548,0.0,0.818899966033,-0.573792318615,-0.0120817064677,0.0,-0.00858716277381,0.00879894314649,-0.999924416761,0.0,0.646916965233,0.241956477599,0.303464543355,1.0,-0.0601354285714,-0.0790351346939,1.123
0.453044346197,0.464792376399,-0.124421006446,-1.48556626169,0.0717324161623,1.941535595,0.141079667482,-0.0515624065588,-0.326472216707,0.000348994364663,-0.495714979031,-0.031211609025,0.173645806032,-0.0816121604689,0.573769765635,0.819000938119,0.00254289288406,0.0,0.818962709176,-0.57370594317,-0.011929738134,0.0,-0.00831175398989,0.00892762938326,-0.999925603322,0.0,0.64577957819,0.240450506717,0.303599561502,1.0,-0.0663891428571,-0.0872543020408,1.142
0.45209948143,0.459398465599,-0.124457316038,-1.4939555308,0.0711913285996,1.94438337825,0.139845426502,-0.0661669784859,-0.331799822078,-0.00462056970885,-0.531724173264,-0.0396736740277,0.18192196289,-0.0685226632652,0.573802573789,0.818978337594,0.00241573295063,0.0,0.818938092995,-0.573738876765,-0.0120352827517,0.0,-0.00847079903998,0.00888438300691,-0.999924653813,0.0,0.644651207145,0.239007016479,0.303569717195,1.0,-0.0716554285714,-0.0941757061224,1.158
0.451030261421,0.453260217485,-0.1245192343,-1.50343125599,0.0705553563455,1.94769941539,0.138344155144,-0.0644834966735,-0.375784373947,-0.00426264410124,-0.565982037272,-0.0415634553939,0.205499548052,-0.0870262370501,0.573755597823,0.819011364257,0.00237614933378,0.0,0.818970650282,-0.573692119381,-0.0120487774477,0.0,-0.00850507125682,0.00885922064008,-0.999924586143,0.0,0.643389106461,0.237368626062,0.303568251098,1.0,-0.0772508571429,-0.101529697959,1.175
0.449871504651,0.446590878185,-0.124570522291,-1.51328595919,0.0698844846129,1.95142933428,0.136817043185,-0.0710782811086,-0.38911368172,-0.00860085200806,-0.596833255805,-0.0365192476694,0.210415417239,-0.0873005646661,0.573754600459,0.819010698884,0.00280721691757,0.0,0.818976269393,-0.573690189399,-0.0117551545885,0.0,-0.00801727892737,0.00904379218383,-0.999926963864,0.0,0.642132278044,0.235665412693,0.303775704854,1.0,-0.0828462857143,-0.108883689796,1.192
0.448619041822,0.43969546296,-0.124588703327,-1.52403569055,0.0691514591886,1.95504208031,0.135127226434,-0.0724436225953,-0.406684673882,-0.000177961767087,-0.644891479051,-0.0434970113027,0.210548983618,-0.101038535729,0.573685614106,0.819059732233,0.0025919304682,0.0,0.819022080673,-0.573621545831,-0.0119121966707,0.0,-0.00827017268004,0.00895687659506,-0.999925686542,0.0,0.640629003367,0.233806811119,0.303691374905,1.0,-0.0884417142857,-0.116237681633,1.209
0.447329791532,0.432693785258,-0.124622050346,-1.53455898181,0.0684528919445,1.95876896252,0.133410182104,-0.0794867989617,-0.447065910989,-0.000211357802797,-0.658574323446,-0.042409700881,0.250818291788,-0.109150364717,0.573627891672,0.819099603492,0.00276194791471,0.0,0.819064073749,-0.573563087549,-0.0118395353034,0.0,-0.00811376351399,0.00905387430008,-0.99992609437,0.0,0.639199535137,0.231959826034,0.303785110337,1.0,-0.093708,-0.123159085714,1.225
0.445838002058,0.425019058239,-0.124653652084,-1.54631994734,0.0676068961229,1.96286976232,0.131481671459,-0.085724049312,-0.462445943723,-0.00244354643244,-0.704640682585,-0.0439482655844,0.240739697375,-0.11906629489,0.573562362079,0.819145575984,0.0027366137129,0.0,0.819109895612,-0.573497859527,-0.0118292404448,0.0,-0.0081205842173,0.00902656825322,-0.999926285872,0.0,0.637575274486,0.229855360411,0.303768510941,1.0,-0.0993034285714,-0.130513077551,1.242
0.444207294373,0.416916311117,-0.124781894522,-1.55867112099,0.0667104871633,1.96704582291,0.129477114034,-0.0946399329989,-0.483160836252,-0.00898305286363,-0.73452478997,-0.049996460285,0.259669635469,-0.117631208326,0.573618898537,0.819106359133,0.00262270288219,0.0,0.819069550068,-0.573555202008,-0.0118426898419,0.0,-0.00819631548178,0.00894153892482,-0.999926431941,0.0,0.635852826234,0.227545433323,0.303755865517,1.0,-0.104898857143,-0.137867069388,1.259
0.44256487938,0.408919598908,-0.124844721592,-1.57072324632,0.0658982941016,1.97127609917,0.127449261809,-0.104974961167,-0.497533667131,-0.00570659686735,-0.750081735076,-0.0481813087007,0.257925845088,-0.129299225554,0.573620222408,0.819104966991,0.00276412657164,0.0,0.819069859355,-0.573555851192,-0.0117897396495,0.0,-0.00807180874517,0.00902701964024,-0.999926676722,0.0,0.634174311859,0.225322467939,0.303800394249,1.0,-0.110165142857,-0.144788473469,1.275
0.440649283672,0.400101626408,-0.12495122492,-1.58411814991,0.0649846403298,1.97572375628,0.125211057071,-0.115341416616,-0.534919015085,-0.00571590827076,-0.797709838866,-0.0542396451144,0.276157967868,-0.132827891469,0.573718027937,0.819036843012,0.0026497377669,0.0,0.818999762852,-0.573653535404,-0.0119061609592,0.0,-0.00823171153253,0.00900108708736,-0.999925606911,0.0,0.632253159364,0.222762584982,0.303763897811,1.0,-0.115760571429,-0.152142465306,1.292
0.438642362225,0.390890271534,-0.125056012591,-1.59781580721,0.0639355165435,1.98051084754,0.122852532091,-0.119900511708,-0.537576047573,-0.00523476706656,-0.797126477218,-0.0669278487864,0.279223119613,-0.137547706269,0.573746287923,0.819016439844,0.00283112358543,0.0,0.818982608941,-0.573682119591,-0.0117072121242,0.0,-0.0079643875543,0.00903578444528,-0.999927458934,0.0,0.630322873428,0.220125798662,0.303856160254,1.0,-0.121356,-0.159496457143,1.309
0.436492543117,0.381327915815,-0.125124917008,-1.61215876267,0.0628566571518,1.98520048903,0.120289927721,-0.127256548866,-0.584038950195,-0.00338371892742,-0.847079981382,-0.0614119599326,0.288106320689,-0.148358521801,0.573697042923,0.819051317697,0.00271823882838,0.0,0.819015931829,-0.573633182805,-0.0117737800825,0.0,-0.00808421374622,0.00898103663707,-0.999926990569,0.0,0.628198363469,0.217351463799,0.303846168875,1.0,-0.126951428571,-0.16685044898,1.326
0.434077876811,0.370881539053,-0.125211290857,-1.62775635817,0.0617060785378,1.99046031642,0.117514938481,-0.134675108855,-0.588182600029,-0.00619263082173,-0.895370041157,-0.0709910624953,0.301692515569,-0.155441050134,0.573714569702,0.819038841174,0.00277777986754,0.0,0.819004224342,-0.573650488288,-0.0117449860844,0.0,-0.00802627954558,0.00901345662036,-0.999927165566,0.0,0.62589647947,0.214306200672,0.303854971363,1.0,-0.132876,-0.174637028571,1.344
0.431628781933,0.360604240224,-0.125337492106,-1.64288045523,0.0605207649175,1.9954474631,0.114839793431,-0.13945925982,-0.616973030351,-0.00562838834444,-0.904119269632,-0.0777768443309,0.300229691111,-0.161033802424,0.57382172443,0.818963583727,0.00283266696507,0.0,0.818930162835,-0.573757983951,-0.0116580938439,0.0,-0.00792244155832,0.00900959739472,-0.999928028447,0.0,0.62363716524,0.211259335255,0.303925383109,1.0,-0.138471428571,-0.181991020408,1.361
0.429327319429,0.35140620631,-0.125420409874,-1.65674565667,0.0594878438043,1.99984755283,0.112243586918,-0.154450580321,-0.612159169406,-0.00108318676382,-0.928714654688,-0.0658323838806,0.286762570389,-0.165340367204,0.573824899181,0.818962139198,0.00259741038524,0.0,0.818925025399,-0.573761297793,-0.0118542326373,0.0,-0.00821803238829,0.00892951013444,-0.999926361185,0.0,0.62149042348,0.208458472321,0.303804797231,1.0,-0.143408571429,-0.188479836735,1.376
0.426417304013,0.339838361551,-0.125539536087,-1.67350786897,0.0582136458801,2.00535968721,0.10908606276,-0.160016064265,-0.634532307921,-0.00420939519945,-0.953563072212,-0.0674400064507,0.310020107382,-0.175033616668,0.573903121621,0.818906524786,0.00283858376685,0.0,0.818872588113,-0.573838676725,-0.0117304915902,0.0,-0.00797744054007,0.00905677854855,-0.99992716495,0.0,0.618929259176,0.20501227014,0.303938071767,1.0,-0.149333142857,-0.196266416327,1.394
0.42406221447,0.330760627183,-0.125556208573,-1.68697513056,0.0571242062616,2.00959213993,0.106463038915,-0.175299752326,-0.658052517112,0.00190062701323,-0.951959726173,-0.0825177796677,0.293023051826,-0.191968426431,0.573807972475,0.818973749448,0.00267494668004,0.0,0.818937390697,-0.573743804078,-0.0118467000656,0.0,-0.00816755953822,0.00898851785638,-0.999926246039,0.0,0.616778557325,0.20227057439,0.303861614252,1.0,-0.153941142857,-0.202322644898,1.408
0.420885762298,0.318613130772,-0.125569395921,-1.70453038751,0.0556696917636,2.01520023584,0.103036818504,-0.181873641399,-0.670658777328,-0.00029547552369,-0.986132926679,-0.0770631306205,0.312077911478,-0.185774715638,0.573723138524,0.81903279649,0.00279025051881,0.0,0.81899810943,-0.573658750447,-0.0117678242063,0.0,-0.00803773709354,0.00903685692445,-0.999926862325,0.0,0.613972162948,0.198660461503,0.303939533459,1.0,-0.159865714286,-0.21010922449,1.426
0.4177381197,0.306829627723,-0.125654032962,-1.72147678982,0.0542571836788,2.020541245,0.0995642178808,-0.188294911429,-0.706501893683,0.000595310153073,-1.00273304468,-0.0875874983866,0.321344652594,-0.204349009262,0.573599818876,0.819118835455,0.00288584307413,0.0,0.819085611974,-0.573535362688,-0.0116916596064,0.0,-0.00792187806785,0.00907026100366,-0.999927484477,0.0,0.611225264097,0.195101521405,0.30401006906,1.0,-0.165461142857,-0.217463216327,1.443
0.414126648211,0.294133484587,-0.125730027545,-1.73988192696,0.0527389999126,2.02609814039,0.0958092897182,-0.202275963006,-0.713913819845,-0.00382207351805,-1.02655848203,-0.0807874639375,0.297039425259,-0.215973352067,0.57360184938,0.819117938141,0.00273289313098,0.0,0.819082115774,-0.573537251451,-0.0118429607223,0.0,-0.00813352214902,0.00903178195016,-0.999926133638,0.0,0.608161800326,0.191142784882,0.303959389343,1.0,-0.171385714286,-0.225249795918,1.461
0.410962666324,0.283280524195,-0.125845306839,-1.75534614698,0.0514512825882,2.03089683676,0.0925393554631,-0.213381511905,-0.710784463152,-0.00788000854431,-1.04167961394,-0.0915602202518,0.311681666784,-0.228708292987,0.57362950278,0.81909815157,0.0028563149649,0.0,0.819063962657,-0.573564482923,-0.0117794696934,0.0,-0.00801041526174,0.00909673113724,-0.999926538667,0.0,0.605603674525,0.18773874779,0.304013161639,1.0,-0.176322857143,-0.231738612245,1.476
0.406974134624,0.269931536091,-0.125986578911,-1.77428305282,0.0498022364385,2.03658207154,0.0884132746433,-0.224507066924,-0.766713684938,-0.00805011914806,-1.05193667827,-0.08401885149,0.320299519252,-0.228062934314,0.573601290741,0.819117827964,0.00287924877235,0.0,0.819084041824,-0.573536312195,-0.0117549106708,0.0,-0.00797745676456,0.00910115388061,-0.999926761909,0.0,0.602394750007,0.183512263242,0.304056247478,1.0,-0.182247428571,-0.239525191837,1.494
0.40290305463,0.257137521645,-0.126169160652,-1.79246859415,0.0481996358601,2.04192024548,0.0844281855169,-0.242676639878,-0.755240261361,-0.0118296450491,-1.06122815935,-0.0908192238423,0.319577469845,-0.239037389209,0.573752964873,0.819011941332,0.0027788766498,0.0,0.818976791496,-0.573688260627,-0.0118127690025,0.0,-0.0080807455409,0.00905362103141,-0.999926364038,0.0,0.599274611663,0.179305981492,0.3040269818,1.0,-0.187842857143,-0.246879183673,1.511
0.398908275706,0.244831156639,-0.126312916519,-1.80980053098,0.0466029888614,2.04699201113,0.0805142634768,-0.24978128547,-0.752216292432,-0.00663133197084,-1.10076526078,-0.102816080771,0.315117758034,-0.24940261122,0.573819284596,0.818965602414,0.00274182229594,0.0,0.818930302937,-0.573755077955,-0.0117905196016,0.0,-0.0080830511469,0.00901116237899,-0.999926728934,0.0,0.59625720387,0.175270383716,0.304025540461,1.0,-0.193109142857,-0.253800587755,1.527
0.394539649779,0.231419886365,-0.126410552093,-1.82834106904,0.045007476566,2.05242328913,0.0761747707111,-0.254893507318,-0.793170152684,-0.00295142115912,-1.08899987477,-0.0969403714395,0.321754635155,-0.258460909526,0.573811562664,0.818970117698,0.00299729409672,0.0,0.818937621234,-0.573745862288,-0.0117305130363,0.0,-0.00788740641297,0.00918587777052,-0.999926701548,0.0,0.592974043068,0.170986330387,0.304129305649,1.0,-0.198704571429,-0.261154579592,1.544
0.389912053276,0.217850180473,-0.126502962327,-1.8472511339,0.0431597671381,2.05772619078,0.0715836223251,-0.278638526826,-0.803791414225,-0.0124469542249,-1.09787360125,-0.112402591921,0.324320737984,-0.275368246458,0.57368595901,0.819058555655,0.00287223693298,0.0,0.819024783581,-0.57362111403,-0.0117459916509,0.0,-0.00797323271648,0.00909111874938,-0.999926886887,0.0,0.58953998566,0.166517081297,0.304096759938,1.0,-0.2043,-0.268508571429,1.561
0.385326371997,0.20483718752,-0.126645166678,-1.86522603386,0.0414956263529,2.06271174126,0.067199178775,-0.286877793459,-0.805505997056,-0.00567547812986,-1.13517575226,-0.109954970736,0.308628801847,-0.279306803155,0.573751453199,0.819012706167,0.00286426087021,0.0,0.818978437869,-0.573686181142,-0.0117996090623,0.0,-0.00802099729848,0.00911598625082,-0.999926278481,0.0,0.586237721976,0.162180690526,0.304083892235,1.0,-0.209566285714,-0.27542997551,1.577
0.380203818077,0.190692655976,-0.126813461163,-1.88443179969,0.0396506870653,2.06796465677,0.0622781849673,-0.311289409714,-0.817332708348,-0.0132506935866,-1.14663780669,-0.115531085329,0.311518204024,-0.299920820623,0.573764054488,0.819003484045,0.00297486164533,0.0,0.818970701602,-0.573698444558,-0.0117401674263,0.0,-0.00790871679404,0.00917258719247,-0.999926655232,0.0,0.582668784316,0.157445108834,0.304155723828,1.0,-0.215161714286,-0.282783967347,1.594
0.374384865382,0.175469582625,-0.12704142964,-1.90494886438,0.0377064422707,2.07342044779,0.0568638328427,-0.32993436591,-0.869135218002,-0.00896518846879,-1.14298497515,-0.109683258773,0.304252616019,-0.301543415733,0.573943677556,0.818877171702,0.00309508649766,0.0,0.818845495745,-0.573877094083,-0.0117423118387,0.0,-0.00783946279645,0.00927400183053,-0.999926265138,0.0,0.578803420683,0.152212756126,0.304224128632,1.0,-0.221086285714,-0.290570546939,1.612
0.369452298749,0.162719430208,-0.12713238612,-1.92235190261,0.0358883861405,2.07780103605,0.0521764764116,-0.337366648726,-0.858509117144,-0.00543395864852,-1.14808551048,-0.113822364838,0.298413907089,-0.327678835573,0.573818989281,0.818965500699,0.00283250876876,0.0,0.81893015677,-0.573753075434,-0.011897632691,0.0,-0.0081187464077,0.00914689052164,-0.999925207378,0.0,0.575170024176,0.147556322083,0.304127507678,1.0,-0.226352571429,-0.29749195102,1.628
0.363299017538,0.147022704009,-0.127271321372,-1.94321156677,0.0337428446995,2.08319919267,0.0463607007432,-0.347334920604,-0.85826256178,-0.00866997521209,-1.18158539142,-0.11907219717,0.284699273014,-0.321311050765,0.57373849798,0.81902153235,0.00293468630826,0.0,0.818987697259,-0.573672421967,-0.011825857813,0.0,-0.00800223765308,0.00918859878975,-0.999925764167,0.0,0.571296569376,0.142540880409,0.304171248256,1.0,-0.231948,-0.304845942857,1.645
0.357127395616,0.131912868409,-0.127422092938,-1.96301447215,0.0317302182501,2.08812571092,0.0406024356745,-0.36721502006,-0.893139953355,-0.00762936760506,-1.16720901776,-0.122846101943,0.293262206405,-0.351045050795,0.573709081414,0.819041478092,0.00311351387955,0.0,0.819009643398,-0.573641994523,-0.0117818946665,0.0,-0.00786396951635,0.00930955709648,-0.999925742308,0.0,0.567339436667,0.137366297865,0.304265786201,1.0,-0.237543428571,-0.312199934694,1.662
0.350947808092,0.117524539413,-0.127647605903,-1.98177100004,0.0296620430676,2.09267237073,0.0350095213979,-0.395661262742,-0.901062298756,-0.0217675904879,-1.17059790108,-0.14296275293,0.285333183156,-0.356091254787,0.573806488315,0.818973021468,0.00317032731008,0.0,0.818942544629,-0.573739933471,-0.0116766535393,0.0,-0.00774406994707,0.00929663446629,-0.999926798305,0.0,0.563552467316,0.132267087215,0.304328205018,1.0,-0.242809714286,-0.319121338775,1.678
0.344113428596,0.102118445153,-0.127804739392,-2.00184328721,0.0274662086065,2.09733558221,0.0287624050455,-0.402396007109,-0.902723407136,-0.00771884860907,-1.16680835182,-0.130517578724,0.274874858109,-0.37292294271,0.573777314965,0.81899364796,0.00312159155447,0.0,0.818962302442,-0.573710646594,-0.0117297938759,0.0,-0.00781588684716,0.00928693424421,-0.999926329669,0.0,0.55938991724,0.126800784617,0.304314226827,1.0,-0.248405142857,-0.326475330612,1.695
0.337090868539,0.0864686483392,-0.127945164995,-2.0220639843,0.0253038439708,2.1019279326,0.0222715410678,-0.416491437366,-0.906735370274,-0.0103588762145,-1.20281632715,-0.126322506726,0.251173842493,-0.393356506047,0.573664560126,0.819072530202,0.00314795565853,0.0,0.81904066551,-0.573596791248,-0.0118260818617,0.0,-0.00788091326011,0.00936268800751,-0.999925112836,0.0,0.55510291859,0.121311159328,0.304293477433,1.0,-0.254000571429,-0.333829322449,1.712
0.32966255031,0.0704991173012,-0.128115710758,-2.04220741294,0.0229578180109,2.10641702516,0.015508404324,-0.436767314383,-0.942728427027,-0.00537941297607,-1.204647002,-0.139414903004,0.268336404931,-0.400505297307,0.573566205843,0.819140722103,0.00332141657919,0.0,0.819111856528,-0.573498763149,-0.0116482643683,0.0,-0.00763688641952,0.00940184351346,-0.999926638961,0.0,0.550795985868,0.115644405507,0.304405053054,1.0,-0.259596,-0.341183314286,1.729
0.321798966724,0.0544572451546,-0.12839504,-2.06237251002,0.0206134935721,2.11062557531,0.00850284857523,-0.466262910719,-0.944783478151,-0.0132719265136,-1.17785242546,-0.140193749653,0.242476871705,-0.417537224562,0.573673455819,0.81906550508,0.00334833956691,0.0,0.81903692872,-0.573605837286,-0.0116447294828,0.0,-0.00761731577151,0.00942286737909,-0.999926590341,0.0,0.54639496428,0.10975745804,0.304446257519,1.0,-0.25998,-0.341688,1.746
0.313771915971,0.0386675462338,-0.128558872695,-2.08227602372,0.0183241911329,2.1145453721,0.00143847920514,-0.478311599231,-0.927758607945,-0.0149267397418,-1.14704320267,-0.134347981389,0.233824096207,-0.420430110078,0.573752316325,0.819010827956,0.00320781929451,0.0,0.818979225421,-0.573683705188,-0.0118651435865,0.0,-0.00787755908154,0.00943497262983,-0.999924459824,0.0,0.541924041201,0.103951962102,0.30436589921,1.0,-0.25998,-0.341688,1.763
0.306019052775,0.0237998370382,-0.128724087348,-2.10064520258,0.0160444582988,2.11811933616,-0.00544027560704,-0.492552573105,-0.92597878102,-0.00965125621823,-1.14477301382,-0.147465978869,0.215822278829,-0.437571148611,0.573716670213,0.819035830634,0.00319958736427,0.0,0.819004425468,-0.573648458064,-0.0118298151608,0.0,-0.00785375533764,0.00940761950013,-0.999924904792,0.0,0.537754967443,0.0984661292048,0.30438102698,1.0,-0.25998,-0.341688,1.779
0.297524249778,0.00810697561882,-0.128949289118,-2.11969227783,0.0136890096377,2.12165073045,-0.0128885622569,-0.509859312499,-0.914141218972,-0.0126689964653,-1.12320334637,-0.150828989689,0.197182799511,-0.447770313609,0.573803990916,0.818974230364,0.00330709978351,0.0,0.818944376021,-0.57373557812,-0.0117618996482,0.0,-0.00773544083704,0.00945753781447,-0.999925356181,0.0,0.533366348488,0.0925955864991,0.304458925924,1.0,-0.25998,-0.341688,1.796
0.288862456656,-0.00747237531201,-0.12909293404,-2.13835706806,0.0114258648974,2.12498428461,-0.0205171783403,-0.502836408348,-0.927041982519,-0.00273498946926,-1.07562069689,-0.143567080719,0.20443050636,-0.449573213338,0.573814972979,0.818965629422,0.00352441650708,0.0,0.818938354572,-0.573745531272,-0.0116954545842,0.0,-0.00755620258395,0.00959749159278,-0.999925393196,0.0,0.528980407716,0.0868056998066,0.304557972824,1.0,-0.25998,-0.341688,1.813
0.280601158223,-0.0218517188705,-0.129232862321,-2.15579977621,0.00916787930102,2.1278201464,-0.0278133492652,-0.522223646075,-0.897275406225,-0.00846454636138,-1.08500392826,-0.145745613398,0.15766414424,-0.463746492344,0.573733944095,0.819023257391,0.00331845549422,0.0,0.81899267294,-0.573664429957,-0.0118688825801,0.0,-0.00781736150134,0.00952755498489,-0.999924054394,0.0,0.524757831538,0.081366454247,0.304463555539,1.0,-0.25998,-0.341688,1.829
0.270932978486,-0.0380747004249,-0.129489613109,-2.17482286718,0.00663972015603,2.13090448961,-0.0361654915903,-0.551293554401,-0.889703856877,-0.0183090790818,-1.05830049482,-0.135033104782,0.150032157648,-0.473828920019,0.573879815074,0.818920356514,0.00348632183587,0.0,0.818892721173,-0.573810658267,-0.0116955790991,0.0,-0.00757740506643,0.00956696453934,-0.999925525288,0.0,0.520139307593,0.0751371787052,0.304568652341,1.0,-0.25998,-0.341688,1.847
0.262205666104,-0.0523823511879,-0.129604964346,-2.19142592614,0.00453907182353,2.13341302234,-0.0438164768957,-0.544615631077,-0.886655837672,-0.00359821027329,-1.02616845604,-0.144614391109,0.168058621738,-0.483782853507,0.573873117918,0.818924127404,0.00369661854017,0.0,0.818898900352,-0.573802875876,-0.0116446356654,0.0,-0.00741508551526,0.00970988717932,-0.999925364514,0.0,0.516007177939,0.0697126738286,0.304654458231,1.0,-0.25998,-0.341688,1.863
0.25278057947,-0.067270296725,-0.129761248567,-2.2089432074,0.00216754357307,2.13578323593,-0.0521251782571,-0.563371352737,-0.873902557382,-0.00596849123409,-1.02126627914,-0.141695180254,0.128473705845,-0.49202265938,0.573778105746,0.818991605333,0.00349036702673,0.0,0.818962861143,-0.573707488255,-0.0118446988032,0.0,-0.00769840740574,0.00965489569575,-0.99992375585,0.0,0.511524748876,0.063932173189,0.304545124649,1.0,-0.25998,-0.341688,1.88
0.242415420028,-0.083006600261,-0.130017563319,-2.22689086686,-0.000297457735043,2.13814025101,-0.0611430522284,-0.5843144648,-0.871078635809,-0.0077677540351,-0.978839700638,-0.140234338727,0.123092844433,-0.506789722892,0.573874558914,0.8189235583,0.0035976650351,0.0,0.818896356902,-0.573803746396,-0.0117798206652,0.0,-0.00758256496775,0.009706441058,-0.999924141978,0.0,0.506894209446,0.0577105258445,0.304598596125,1.0,-0.25998,-0.341688,1.898
0.233180917708,-0.0969121781652,-0.130113013972,-2.24266393093,-0.00244093118676,2.13999164244,-0.0693050386354,-0.580520762976,-0.891444493632,-0.00483641102472,-0.979324149337,-0.142515141281,0.120537466702,-0.518127120181,0.573742558064,0.819015941619,0.00362095859838,0.0,0.818988461901,-0.573670940932,-0.0118447331965,0.0,-0.00762393337028,0.0097615387767,-0.999923291058,0.0,0.502705095627,0.0523436854577,0.304600848925,1.0,-0.25998,-0.341688,1.914
0.223643666765,-0.110628418931,-0.130304412569,-2.25819424047,-0.00468492805992,2.14161664951,-0.0775757088559,-0.608366607418,-0.852630049421,-0.00920188369984,-0.986484164803,-0.145052341752,0.0959141314792,-0.523961584916,0.573777819159,0.818991911648,0.00346551546212,0.0,0.818961893327,-0.573706104986,-0.011977866333,0.0,-0.00782173886071,0.00971094609275,-0.999922255942,0.0,0.498500457305,0.0468621045734,0.30453770908,1.0,-0.25998,-0.341688,1.93
0.212597190847,-0.126045493023,-0.130553571043,-2.27518710099,-0.00710111613219,2.14332548034,-0.0871878834511,-0.61448133923,-0.840309999536,-0.00820893765337,-0.939651515872,-0.129761667733,0.0918618212303,-0.54231812503,0.573874289865,0.818923749333,0.00359709760844,0.0,0.818895403329,-0.573802028928,-0.0119288266715,0.0,-0.00770492590071,0.00979148214829,-0.999922377484,0.0,0.493843343679,0.0406630348298,0.304595096794,1.0,-0.25998,-0.341688,1.948
0.202048905572,-0.140424343311,-0.130741187989,-2.29094487212,-0.00936805537872,2.14465637965,-0.0965099289547,-0.627556510782,-0.868732547534,-0.0138405571878,-0.913951653665,-0.128513342605,0.0823302451756,-0.548869490811,0.573802121742,0.818974268973,0.00360814984867,0.0,0.818945443563,-0.573729039616,-0.0120040189482,0.0,-0.00776103171926,0.00984299892838,-0.999921437793,0.0,0.489404934559,0.0348921846262,0.304599091399,1.0,-0.25998,-0.341688,1.965
0.195040565769,-0.149649305765,-0.13089116405,-2.30090260879,-0.0108920790908,2.14555586267,-0.102633301154,-0.647287169309,-0.822486000345,-0.0179491211368,-0.915728017688,-0.136207368625,0.0801401066405,-0.564658434225,0.573816847715,0.818963527796,0.00370301492017,0.0,0.818936702915,-0.573744402857,-0.0118652311119,0.0,-0.00759275362939,0.00984119381709,-0.999922747514,0.0,0.486589835644,0.0311116851218,0.304639277559,1.0,-0.25998,-0.341688,1.976
0.181508933494,-0.167168456363,-0.131109052215,-2.31962181842,-0.0136459670783,2.14676500315,-0.114541141491,-0.641917201777,-0.831805756802,-0.0108972487883,-0.888456676242,-0.111236261506,0.0647333756711,-0.575813729712,0.573784791417,0.818985449638,0.00382012052335,0.0,0.818959496057,-0.5737110878,-0.0119028758535,0.0,-0.00755678212332,0.00995840484768,-0.999921859555,0.0,0.480860951297,0.0236663889055,0.304699262749,1.0,-0.25998,-0.341688,1.998
0.1695792994,-0.181928298764,-0.131348946272,-2.33535539455,-0.0160656863427,2.14763072697,-0.125078011352,-0.674614407452,-0.802375986724,-0.0197433580612,-0.894818888696,-0.140070145831,0.0510785832654,-0.59749540074,0.57373567899,0.819020277757,0.00372856234468,0.0,0.818992786317,-0.573661861087,-0.0119846567348,0.0,-0.00767689067789,0.00992988201385,-0.999921228294,0.0,0.476418892465,0.0178534086328,0.304650274033,1.0,-0.25998,-0.341688,2.015
0.158663688514,-0.195000413726,-0.131563282826,-2.34887047786,-0.0181992055459,2.14827562664,-0.134643178951,-0.677325454077,-0.808495264179,-0.00434565232464,-0.844393592029,-0.12879733277,0.0316433274988,-0.600158932959,0.57378372824,0.818985935078,0.00387533905049,0.0,0.818961139875,-0.573710417293,-0.0118218173467,0.0,-0.00745872335376,0.00995711022319,-0.999922608706,0.0,0.472312060518,0.0123517828732,0.304740244024,1.0,-0.25998,-0.341688,2.031
0.146999469867,-0.208643243295,-0.131754323583,-2.36318691992,-0.0203339681515,2.14869930088,-0.145069736779,-0.692392846305,-0.798543726965,-0.0164799018239,-0.856432916956,-0.126523259327,0.01201985591,-0.60762416793,0.573681935243,0.819057514542,0.00381732230186,0.0,0.819030325924,-0.573606684749,-0.0120599888168,0.0,-0.00768833089968,0.0100452938555,-0.999919987619,0.0,0.467829179259,0.00661925727322,0.304659094895,1.0,-0.25998,-0.341688,2.048
0.134875224638,-0.222208571852,-0.132062253173,-2.37691302281,-0.0225648924491,2.14903031651,-0.155639061909,-0.70736102579,-0.798776069614,-0.00815876493803,-0.818511101246,-0.136507441044,0.0127996494948,-0.616070672761,0.573878892415,0.818918856548,0.00395855178916,0.0,0.818894174757,-0.573803979392,-0.011919340765,0.0,-0.00748968434048,0.0100820871886,-0.999921124963,0.0,0.463463022259,0.000720707916176,0.304739663916,1.0,-0.25998,-0.341688,2.065
0.123489444409,-0.234816094972,-0.13222783041,-2.38978035174,-0.0246278747166,2.14914130641,-0.165891512033,-0.722130015661,-0.79712503324,-0.018800023151,-0.79839612329,-0.127780851244,0.00160790207174,-0.652878241528,0.57369274967,0.81904952336,0.00390565770753,0.0,0.819023512992,-0.573617202031,-0.0120223791795,0.0,-0.00760671794323,0.0100961716478,-0.999920099388,0.0,0.459257113768,-0.00465211442009,0.304696277595,1.0,-0.25998,-0.341688,2.081
0.110139618983,-0.248884012853,-0.132560727519,-2.40360410274,-0.0268561264682,2.14921627033,-0.177682172316,-0.740282394162,-0.773786777191,-0.0147098126217,-0.77527296007,-0.129945169382,0.00232488692541,-0.660980827296,0.573867528814,0.818925599002,0.0042035192203,0.0,0.81890433157,-0.573792091711,-0.0117931389457,0.0,-0.00724589679519,0.0102101761786,-0.999921621569,0.0,0.454661028028,-0.0108818707514,0.304822543721,1.0,-0.25998,-0.341688,2.099
0.0975114321327,-0.26186505399,-0.132751519791,-2.41660023031,-0.0289776965271,2.14907053238,-0.189069870331,-0.742962123384,-0.766035379238,-0.0135185450832,-0.748464150872,-0.129544010747,-0.0251226409205,-0.675343010013,0.573718538402,0.819030192716,0.00416281343781,0.0,0.819007701816,-0.573642291704,-0.0119017828894,0.0,-0.00736009539784,0.0102378468608,-0.999920504584,0.0,0.450212266198,-0.0166014607602,0.304757093909,1.0,-0.25998,-0.341688,2.116
0.0851910066115,-0.274017982476,-0.133060858073,-2.42825691972,-0.0309719587305,2.14889477817,-0.199979882198,-0.771955509378,-0.768448364319,-0.0177203640794,-0.739692435952,-0.124632308344,-0.00997410709868,-0.687771176388,0.573878073317,0.818917147273,0.00440565198806,0.0,0.818899155447,-0.573802929482,-0.0116240366009,0.0,-0.0069912814798,0.0102787623189,-0.999922731529,0.0,0.446142064753,-0.0221408599142,0.304871800502,1.0,-0.25998,-0.341688,2.132
0.072070816296,-0.286653684823,-0.133232914917,-2.44060617946,-0.0330389804061,2.14843532667,-0.211886657909,-0.778069244733,-0.73179777061,-0.0085075585508,-0.729661934572,-0.121322494905,-0.0288814991181,-0.692952034328,0.573698149382,0.819043440803,0.00436146476972,0.0,0.819024225557,-0.573622223114,-0.0117307289009,0.0,-0.00710628026276,0.0103022411167,-0.999921679237,0.0,0.441696427783,-0.0278498181151,0.304815618487,1.0,-0.25998,-0.341688,2.149
0.0576870251861,-0.299917155368,-0.13356094909,-2.45308875816,-0.0352421675922,2.14786753384,-0.224791692271,-0.805497440995,-0.731242699175,-0.0171330462099,-0.68654496264,-0.130524999153,-0.0279585237856,-0.721935571673,0.573772285225,0.818990563913,0.00453517697999,0.0,0.818974662622,-0.573697390674,-0.0115131584799,0.0,-0.00682748040636,0.0103203249865,-0.999923435271,0.0,0.437080298608,-0.0340631412796,0.304908545512,1.0,-0.25998,-0.341688,2.167
0.0448701558736,-0.31142512612,-0.133743986423,-2.46408493079,-0.0370831518626,2.14714232609,-0.236423998775,-0.802159011921,-0.714994230813,-0.013953574607,-0.678895424858,-0.117820339919,-0.0497733455061,-0.719902091572,0.57368822378,0.819049597604,0.00450837691959,0.0,0.819032316608,-0.573611873663,-0.0116717456391,0.0,-0.00697381430456,0.0103886494304,-0.999921717874,0.0,0.432891799902,-0.0394274701874,0.304850385058,1.0,-0.25998,-0.341688,2.183
0.0299333896336,-0.324199370045,-0.134076822142,-2.47592785169,-0.0392237696826,2.14623856356,-0.249899018353,-0.826209278333,-0.72376688528,-0.0122079162161,-0.645212548253,-0.117407999777,-0.0505046011835,-0.748817965873,0.573766858817,0.818994109779,0.00458113219274,0.0,0.818978117497,-0.57369079206,-0.0115959073461,0.0,-0.00686895870656,0.0104053946884,-0.999922269563,0.0,0.428237801804,-0.0456404553275,0.304889270838,1.0,-0.25998,-0.341688,2.201
0.0166458918649,-0.335295721633,-0.134240726737,-2.48623395663,-0.0409513130916,2.14538701252,-0.262132915323,-0.843775124513,-0.6925431644,-0.00946346583426,-0.642385318868,-0.108330389132,-0.0671998555563,-0.769841405242,0.573606448788,0.819105967194,0.00466940213948,0.0,0.819090641712,-0.573529412827,-0.0116310009527,0.0,-0.0068491146842,0.010496482837,-0.999921453653,0.0,0.424098407451,-0.0509886120984,0.304869013817,1.0,-0.25998,-0.341688,2.217
0.00287027163425,-0.346218569809,-0.134563755966,-2.49626570379,-0.0428716021431,2.14428382608,-0.274585743385,-0.861615375174,-0.679463261664,-0.0151915464832,-0.626125466923,-0.111227269826,-0.077551768442,-0.790123105298,0.573699489549,0.819041368018,0.00456947117371,0.0,0.819024306871,-0.573622087368,-0.0117316895507,0.0,-0.00698772400128,0.0104731739087,-0.99992073903,0.0,0.419896409898,-0.0565323735333,0.304835608589,1.0,-0.25998,-0.341688,2.233
-0.0117859071965,-0.357639690739,-0.134787637779,-2.50636261618,-0.0447278206639,2.1431798498,-0.288103422818,-0.86971228393,-0.661144327374,-0.0153188206142,-0.596111532061,-0.114824643714,-0.0676854916563,-0.794039614605,0.573577782664,0.819125547722,0.0047551240183,0.0,0.819112117154,-0.573501715558,-0.0114834090824,0.0,-0.00667941057148,0.0104818098282,-0.999922755585,0.0,0.415570568232,-0.0622792249144,0.30494409681,1.0,-0.25998,-0.341688,2.25
-0.0277012237348,-0.369423467041,-0.135101319695,-2.51698333963,-0.0466736352371,2.1417684939,-0.302727996236,-0.877507531472,-0.647732631737,-0.0135566114842,-0.58228084729,-0.107173042204,-0.0877625680694,-0.810121675987,0.57357656742,0.819126532977,0.00473193198638,0.0,0.819111769406,-0.573498960576,-0.0116446700333,0.0,-0.00682483151546,0.0105552942706,-0.999921000598,0.0,0.410844348361,-0.0684207278844,0.304895532529,1.0,-0.25998,-0.341688,2.268
-0.041158361317,-0.379031508418,-0.135376101289,-2.52544918748,-0.0482715476214,2.1405103799,-0.315090621489,-0.910803097687,-0.640331545986,-0.03056100066,-0.537772720037,-0.0987651723323,-0.0808225242448,-0.818841807256,0.573616238868,0.819098625707,0.00475381680128,0.0,0.819083757615,-0.573537955981,-0.011694355962,0.0,-0.00685246845697,0.0106020507339,-0.999920316923,0.0,0.406936492864,-0.0735401538073,0.304901303683,1.0,-0.25998,-0.341688,2.283
-0.0575749334612,-0.390257572803,-0.135666564984,-2.53516453467,-0.0501708331692,2.13911049087,-0.330292310599,-0.91165220749,-0.611497107709,-0.0188535152337,-0.538319280283,-0.110317302372,-0.0862091271486,-0.85460366227,0.573568587706,0.819131373631,0.00485950937305,0.0,0.819118887657,-0.573491582264,-0.0115065136578,0.0,-0.00663858643219,0.0105804944076,-0.999921988111,0.0,0.402317757209,-0.0796884257874,0.304957358382,1.0,-0.25998,-0.341688,2.301
-0.0734133785997,-0.40055151558,-0.136003312532,-2.54416583902,-0.0519639510768,2.13752994494,-0.344939636167,-0.930001993348,-0.594328577156,-0.0172981193681,-0.525010604828,-0.105180324561,-0.0914451054528,-0.86789359384,0.573593921052,0.819114041461,0.00479037733554,0.0,0.819099882347,-0.573515891764,-0.0116469538836,0.0,-0.00679295672232,0.0106046236302,-0.999920695704,0.0,0.398108711983,-0.085191636035,0.304918178509,1.0,-0.25998,-0.341688,2.317
-0.0883554891045,-0.40998826203,-0.13620924498,-2.55218907793,-0.0533822929842,2.13606195119,-0.358959255582,-0.944285166947,-0.584023106378,-0.00993817682719,-0.489777716991,-0.0912989204157,-0.0832038020435,-0.884091402448,0.573521171538,0.819164123961,0.00493464438228,0.0,0.819151161006,-0.573441634532,-0.0116967563574,0.0,-0.00675196263047,0.0107507640697,-0.999919412789,0.0,0.393717165487,-0.090898199038,0.304931340364,1.0,-0.25998,-0.341688,2.334
-0.104703819173,-0.419729456494,-0.136553357164,-2.56031051391,-0.0551286192899,2.13456895429,-0.374137112266,-0.95204569182,-0.561477534282,-0.00194360347856,-0.476077250216,-0.0970455876734,-0.0944470233112,-0.907888973517,0.573586310853,0.819118112802,0.00500081824892,0.0,0.819107370848,-0.573508763131,-0.0114699841341,0.0,-0.0065273843416,0.0106754385083,-0.999921711069,0.0,0.389341527442,-0.0967858244435,0.305000909705,1.0,-0.25998,-0.341688,2.351
-0.12117691239,-0.429091334902,-0.13687651338,-2.56830238366,-0.056698022252,2.13279160162,-0.389580376991,-0.982729939712,-0.547817781493,-0.0239164895148,-0.461398840905,-0.0940896283103,-0.102483270909,-0.914180434243,0.573597335527,0.819110698504,0.0049504720432,0.0,0.81909741212,-0.573516892463,-0.0117707441578,0.0,-0.00680249409563,0.0108067943897,-0.999918466311,0.0,0.38485289852,-0.102569188505,0.304925992271,1.0,-0.25998,-0.341688,2.368
-0.13681640088,-0.437583435864,-0.137118012244,-2.57543343964,-0.058145882348,2.13126572003,-0.404330343902,-0.979061348181,-0.5284137334,-0.0149295486793,-0.434298961304,-0.0799341893815,-0.106992066808,-0.920724230631,0.573520192593,0.819164679244,0.004956194895,0.0,0.819151021915,-0.573439037253,-0.0118330364166,0.0,-0.00685126175967,0.0108465662677,-0.99991770272,0.0,0.380699187127,-0.107976358455,0.304896500379,1.0,-0.25998,-0.341688,2.384
-0.153898785483,-0.4463522759,-0.137459372923,-2.58239524829,-0.0596116370581,2.1297098818,-0.420332059438,-1.00847442199,-0.514990438295,-0.0119010436307,-0.402756457221,-0.0885037174277,-0.0844617704987,-0.940046393019,0.573665470639,0.819061630326,0.00516918030442,0.0,0.819052363048,-0.573586257229,-0.0115229772458,0.0,-0.00647318237421,0.010844372296,-0.999920245569,0.0,0.376358207276,-0.113874901009,0.305023993892,1.0,-0.25998,-0.341688,2.401
-0.171022189993,-0.454665644562,-0.137728939587,-2.58933489127,-0.0610521640223,2.12796362779,-0.436574860087,-1.02227413777,-0.487755286862,-0.0227271458535,-0.411477819289,-0.0869007164584,-0.107550149487,-0.96404764349,0.57360175684,0.819106596379,0.00511421743402,0.0,0.819095095375,-0.573520214562,-0.0117700944403,0.0,-0.00670798406546,0.0109405879063,-0.999917649852,0.0,0.371891664637,-0.119633120305,0.304946852455,1.0,-0.25998,-0.341688,2.418
-0.187304804158,-0.462201964585,-0.137987935727,-2.59543929813,-0.0623957322545,2.12637314134,-0.452108554532,-1.01476027525,-0.454572632435,-0.011132731969,-0.379279460965,-0.0698653756438,-0.0950115139883,-0.977581308537,0.573501248385,0.819177001221,0.00510937104963,0.0,0.819165143278,-0.57341926189,-0.0118137645264,0.0,-0.00674788233948,0.010960838402,-0.999917159621,0.0,0.367733037252,-0.125061444704,0.30494193686,1.0,-0.25998,-0.341688,2.434
-0.206056687092,-0.470244338176,-0.13831251324,-2.60193260725,-0.0638452222743,2.12470236613,-0.469804904642,-1.04690989925,-0.446142975727,-0.0170295638527,-0.350076733761,-0.0825624956819,-0.0886520008176,-0.981053809395,0.573628431428,0.819087753235,0.00514023914888,0.0,0.819076236171,-0.573546217766,-0.0118153428836,0.0,-0.00672976750286,0.0109880758947,-0.999916982763,0.0,0.363039670851,-0.131259582922,0.304927922398,1.0,-0.25998,-0.341688,2.452
-0.223819281874,-0.477459430002,-0.138547840611,-2.60746213787,-0.0650308520093,2.12315162884,-0.486784002023,-1.06416612879,-0.403452302031,-0.0226506895939,-0.318120804958,-0.0623590860037,-0.088936939112,-0.997288567845,0.57362731638,0.819087438096,0.00531202001283,0.0,0.819079256387,-0.57354638397,-0.0115958652998,0.0,-0.00645146194159,0.0110028823346,-0.999918654301,0.0,0.358711720381,-0.137051325047,0.305029616755,1.0,-0.256798285714,-0.337506318367,2.469
-0.239464028372,-0.483343753081,-0.138675702144,-2.61219460089,-0.0660220924184,2.1217670151,-0.50179888069,-1.03486674742,-0.385544410954,-0.00339634342058,-0.307629054052,-0.0640376420078,-0.0959204344707,-1.01155784708,0.573548384743,0.819142632814,0.00532394273158,0.0,0.81913375749,-0.573465986872,-0.0117216100468,0.0,-0.00654869652462,0.0110841451274,-0.999917124716,0.0,0.35486613864,-0.142044458371,0.304990910122,1.0,-0.251861142857,-0.331017502041,2.484
-0.258298076624,-0.489830085883,-0.138801074766,-2.61744051217,-0.0671055710981,2.12010777905,-0.519680426634,-1.0440521081,-0.354011113172,-0.00494710261234,-0.284040291227,-0.0662185861089,-0.0836136013797,-0.992730755641,0.573661183095,0.819063695802,0.00531564960484,0.0,0.81905281182,-0.57357561211,-0.0120106429309,0.0,-0.00678868531533,0.0112440538719,-0.999913738782,0.0,0.350283448537,-0.147984482914,0.304911655912,1.0,-0.245936571429,-0.323230922449,2.502
-0.275832090364,-0.495474342858,-0.138823963792,-2.62183189862,-0.0679280434679,2.11883760174,-0.536424310769,-1.03340967134,-0.320406242582,-0.00654743465858,-0.247605964383,-0.0502558088254,-0.0775955044065,-0.986674385845,0.573724056046,0.819018638317,0.00547032955464,0.0,0.819010030243,-0.573638326544,-0.0119326267928,0.0,-0.00663518080378,0.0113265078872,-0.999913838585,0.0,0.346147951712,-0.153451300711,0.304928212149,1.0,-0.240341142857,-0.315876930612,2.519
-0.292102727817,-0.50032255283,-0.138775663658,-2.6255346585,-0.0686877154924,2.11761381235,-0.551970438951,-0.999730235387,-0.296644603875,0.00611189884306,-0.227743939112,-0.0368285280254,-0.0774275796283,-0.968286524289,0.57374561071,0.819003192055,0.00552200103498,0.0,0.81899540659,-0.573659942139,-0.0118971286438,0.0,-0.00657616215286,0.0113486373187,-0.999913977561,0.0,0.342340638924,-0.158470431855,0.304956457116,1.0,-0.235074857143,-0.308955526531,2.535
-0.310238143382,-0.505194489459,-0.138758590561,-2.62925861777,-0.0694268955063,2.11639041599,-0.569304917112,-1.00124194652,-0.259601158635,0.00256284527988,-0.199582163842,-0.0497127518412,-0.0689863462577,-0.958749762183,0.573858864873,0.818923124776,0.00562723858501,0.0,0.818916804676,-0.573772953989,-0.0118579589642,0.0,-0.0064821243037,0.0114132548526,-0.999913856129,0.0,0.338149052605,-0.164040787828,0.304976073261,1.0,-0.229150285714,-0.301168946939,2.553
-0.32601139597,-0.509145787981,-0.138671982441,-2.63221416007,-0.0699819421627,2.11542567444,-0.584490701745,-0.996758271842,-0.235350442835,-0.0029431528648,-0.184703582941,-0.0353027319656,-0.0582308360319,-0.93730200497,0.573898632319,0.818894435416,0.00574546504095,0.0,0.818890311477,-0.57381346838,-0.0117263880311,0.0,-0.00630597009302,0.011434883867,-0.999914735451,0.0,0.334309866266,-0.169137814697,0.305019104343,1.0,-0.223554857143,-0.293814955102,2.57
-0.342563536486,-0.512878080464,-0.138568539955,-2.63512297924,-0.070565989504,2.114354636,-0.600447511063,-0.955814882028,-0.205383747427,0.00823077852797,-0.162268349935,-0.0242792832479,-0.0727504773437,-0.94604308493,0.573865010764,0.818917890497,0.00576063765968,0.0,0.81891314547,-0.573778320379,-0.0118509974604,0.0,-0.00639978805563,0.0115185564589,-0.999913179016,0.0,0.330723767289,-0.173800494511,0.304991566183,1.0,-0.218288571429,-0.28689355102,2.586
-0.35979160036,-0.516299974249,-0.138461949251,-2.6378371404,-0.0710329213604,2.11338084263,-0.616993448017,-0.959853439572,-0.18068122257,0.00660320036587,-0.135043651123,-0.0300628806053,-0.0517419403182,-0.904115776845,0.573990878547,0.818829043016,0.00584949227902,0.0,0.818824362332,-0.573901849608,-0.0120032316708,0.0,-0.00647168486389,0.0116796771474,-0.999910847244,0.0,0.326786074232,-0.17893945054,0.304941064088,1.0,-0.212364,-0.279106971429,2.604
-0.374689629348,-0.518905538179,-0.138261028788,-2.63993023103,-0.0713707546769,2.1126606894,-0.631409607875,-0.924696318048,-0.157054588431,0.0142619481477,-0.125049999614,-0.0213211566589,-0.0442633204512,-0.885429039875,0.573976989422,0.81883841777,0.00589983893337,0.0,0.818833685742,-0.573886477584,-0.0121017702062,0.0,-0.00652368218521,0.0117773512393,-0.999909363677,0.0,0.323425436577,-0.183335288643,0.30489320079,1.0,-0.207097714286,-0.272185567347,2.62
-0.389442905813,-0.521224732767,-0.138101866985,-2.64170841699,-0.0716991125186,2.11197639246,-0.645595623614,-0.903385676299,-0.139506430167,0.0163222442517,-0.105411896731,-0.0229402575597,-0.0441042641531,-0.878401186901,0.57408436292,0.8187627634,0.00595217782537,0.0,0.818758415918,-0.573993064544,-0.0121394036356,0.0,-0.00652290846221,0.0118426654979,-0.999908597292,0.0,0.320116671657,-0.187696643843,0.304883209878,1.0,-0.201831428571,-0.265264163265,2.636
-0.404565884044,-0.523371725268,-0.13785205085,-2.64332300272,-0.0719448122221,2.11133067609,-0.660396067203,-0.888943770174,-0.118094891285,0.0140708170329,-0.0876586717188,-0.0155165205908,-0.035095553514,-0.869803378734,0.573971849658,0.818841129553,0.00602222998776,0.0,0.818837587578,-0.573880071377,-0.0121414886255,0.0,-0.00648603736162,0.0119003300772,-0.999908152514,0.0,0.316747433315,-0.192118744963,0.304888556211,1.0,-0.196236,-0.257910171429,2.653
-0.419552110253,-0.525198759938,-0.137627872307,-2.64464433502,-0.0721623229467,2.11077616292,-0.674854854727,-0.864822174731,-0.0957539010657,0.0195443783397,-0.0723625439074,-0.00647210317805,-0.0317298688438,-0.851003333354,0.574074289395,0.818768776346,0.00609491898922,0.0,0.818766489426,-0.573982740992,-0.0120828695966,0.0,-0.00639482116692,0.0119270098336,-0.999908422156,0.0,0.313432458291,-0.196508001058,0.304915820233,1.0,-0.190640571429,-0.250556179592,2.67
-0.433239041089,-0.526623495053,-0.137447183702,-2.64567814362,-0.0723312046856,2.1103653203,-0.688143845936,-0.857118192748,-0.0813460296344,0.00954479297952,-0.0627977599229,-0.0057688749489,-0.0212130712908,-0.820755127631,0.574139352336,0.818722558209,0.00617443773096,0.0,0.818721712578,-0.574048212258,-0.0120064257088,0.0,-0.00628562764787,0.0119487377638,-0.999908855122,0.0,0.310409025087,-0.200513476147,0.304936843181,1.0,-0.185374285714,-0.24363477551,2.686
-0.448216001705,-0.527905204271,-0.137127898082,-2.64663651665,-0.0724669152098,2.10994859725,-0.702732517825,-0.81626453861,-0.0717537496388,0.0192331297558,-0.0449201692836,-0.000590309947841,-0.0163416334781,-0.78508846637,0.574117563618,0.818737593017,0.00620675658356,0.0,0.818737267635,-0.57402648091,-0.011984686076,0.0,-0.00624959071535,0.0119625520129,-0.999908915834,0.0,0.307112439372,-0.204844209766,0.304942410737,1.0,-0.179449714286,-0.235848195918,2.704
-0.462046980183,-0.528806932603,-0.136875474937,-2.64733344942,-0.0725473239533,2.10962867463,-0.716118801045,-0.824001637938,-0.0474674380905,0.00995538575922,-0.0313465430125,-0.00411255829007,-0.0245781160159,-0.783870504875,0.574228444293,0.818659400381,0.00626313289314,0.0,0.81865967435,-0.574136838787,-0.0119989516916,0.0,-0.0062272791713,0.0120177450766,-0.999908393203,0.0,0.304065647692,-0.208845420232,0.304934170443,1.0,-0.173854285714,-0.228494204082,2.721
-0.474569523389,-0.52940867271,-0.136527902438,-2.6477960787,-0.0725652992875,2.1093846984,-0.728395265958,-0.774170088002,-0.0316015334405,0.0163479086592,-0.0220520528784,0.00765496219534,-0.0203926970843,-0.770492122446,0.574150003694,0.818714281892,0.00628050831667,0.0,0.818714717334,-0.574058215193,-0.0120051693309,0.0,-0.00622354601555,0.0120349443169,-0.999908209582,0.0,0.301334874363,-0.212432586528,0.304931714843,1.0,-0.168588,-0.2215728,2.737
-0.487592026577,-0.529797626777,-0.136251808482,-2.64812260985,-0.0725939821663,2.10917258236,-0.741063029035,-0.768941158227,-0.0174383776848,0.00977809685546,-0.0129096773294,-0.000318154526342,-0.0205008625647,-0.733064416965,0.57421465423,0.818668743952,0.00630598487414,0.0,0.818669165158,-0.574122071075,-0.0120578781669,0.0,-0.006251123231,0.0120865584185,-0.999907414996,0.0,0.298476441786,-0.216183111678,0.30491422473,1.0,-0.162992571429,-0.214218808163,2.754
-0.501521808534,-0.53003241169,-0.135817368007,-2.64831937048,-0.0725938782754,2.1090059492,-0.754793121565,-0.717193585257,-0.0142776478938,0.0183806416406,-0.013582347865,0.00043254279094,-0.016929865163,-0.714327550967,0.574060566954,0.818777037723,0.00627493959109,0.0,0.818776955952,-0.57396796535,-0.0120755147055,0.0,-0.00628566086818,0.0120700851418,-0.999907397468,0.0,0.295440916383,-0.220154039967,0.304907426589,1.0,-0.156738857143,-0.205999640816,2.773
-0.512327339811,-0.530080138824,-0.135556886753,-2.64838881006,-0.0725955161502,2.10891789094,-0.765270746677,-0.722914501155,0.00190412093594,0.0144633310567,-0.00215106619276,-0.00101663122795,-0.0103702793093,-0.69032445402,0.574140931505,0.818720702467,0.00627288005689,0.0,0.818720414022,-0.574047976745,-0.0121058234059,0.0,-0.00631047563402,0.0120864163852,-0.999907043898,0.0,0.293060887294,-0.223245564634,0.30489245739,1.0,-0.151801714286,-0.19951082449,2.788
-0.523391688524,-0.530035845091,-0.135197039104,-2.64836655613,-0.0725791930731,2.10887456989,-0.776119753983,-0.675699211815,0.00161418606909,0.0251441523163,0.00184667526606,-0.000232371857228,-0.000551472374653,-0.658589036993,0.574071920848,0.81876940821,0.00623159483226,0.0,0.818768736153,-0.573979460445,-0.0120864629691,0.0,-0.00631934035988,0.0120409658638,-0.999907536264,0.0,0.290639010694,-0.226386016563,0.304891978033,1.0,-0.146535428571,-0.192589420408,2.804
-0.535374154427,-0.529815646382,-0.13483627846,-2.64822644449,-0.0725531504242,2.10887617715,-0.787853588227,-0.669322961172,0.00955782920254,0.0223618057166,0.00574734998691,-0.000813323609856,-0.000752522454263,-0.650657754175,0.574040569852,0.818791697159,0.0061909392592,0.0,0.818790593042,-0.573948481179,-0.0120769449307,0.0,-0.00633534402642,0.0120019702527,-0.999907903822,0.0,0.288006935487,-0.229793728632,0.304884732228,1.0,-0.140610857143,-0.184802840816,2.822
-0.546347218066,-0.529493113973,-0.13448998756,-2.64798988793,-0.0725117936182,2.10888822126,-0.798529811533,-0.628350217247,0.0234431235125,0.0264414533565,0.0185564065693,0.00522934357258,0.00308986123327,-0.604801128238,0.574070770442,0.818770854757,0.00614693631937,0.0,0.81876925478,-0.573979013942,-0.0120725259027,0.0,-0.00635654228818,0.0119636370526,-0.999908228668,0.0,0.285592074369,-0.232906835212,0.304884469858,1.0,-0.135015428571,-0.17744884898,2.839
-0.556684606856,-0.528993501034,-0.134056314041,-2.64765871595,-0.0724078193177,2.10891862711,-0.808806817025,-0.605359769179,0.0297836597201,0.0209428173724,0.0193101563455,0.00672216459415,-0.000897230582444,-0.593869069655,0.573877958948,0.81890641602,0.00609236699179,0.0,0.818903750566,-0.573785820945,-0.0121336676914,0.0,-0.00644074853087,0.0119525367521,-0.999907822563,0.0,0.2833381349,-0.235809474464,0.30486634656,1.0,-0.12942,-0.170094857143,2.856
-0.566863421434,-0.52840923572,-0.133743524677,-2.64723701154,-0.072275229978,2.10900779967,-0.818646636628,-0.594447112312,0.0376799342246,0.0183608496873,0.0319394932387,0.0108494891413,0.0110703104533,-0.565674643557,0.574015562899,0.818809852523,0.00610785248998,0.0,0.818807362369,-0.573923277549,-0.0121376158207,0.0,-0.00643308455713,0.0119685653966,-0.999907680171,0.0,0.281101154258,-0.238698393733,0.304860302962,1.0,-0.123824571429,-0.162740865306,2.873
-0.575818207017,-0.527702834181,-0.133343506432,-2.64674531795,-0.0720944957085,2.10913765863,-0.827574391325,-0.545849965595,0.0461921323169,0.0304536395153,0.035813955278,0.0128296144056,0.00801548943588,-0.543940081631,0.57386060476,0.818918530298,0.00609868341312,0.0,0.818915790004,-0.573768150727,-0.0121566851431,0.0,-0.00645622872928,0.011970781308,-0.999907504475,0.0,0.279172784319,-0.241219715071,0.304847022383,1.0,-0.118558285714,-0.155819461225,2.889
-0.585580795402,-0.526874952387,-0.132966762089,-2.64613612518,-0.0718970954045,2.10926935323,-0.83714235313,-0.540708222941,0.038148476766,0.0192614346633,0.029215405382,0.0130320335602,0.0112010641045,-0.520773911102,0.573872681721,0.818909977136,0.00611076282329,0.0,0.818907261641,-0.57377992465,-0.0121754589575,0.0,-0.00646449624583,0.0119915422076,-0.999907202296,0.0,0.277047532375,-0.243979854365,0.30484210324,1.0,-0.112633714286,-0.148032881633,2.907
-0.593962457092,-0.526072620617,-0.132669351663,-2.64550971213,-0.0716999908321,2.10940272585,-0.845242212313,-0.519553737015,0.0523079955057,0.0244470408836,0.0413006127115,0.0100737005109,0.00444851338684,-0.505943486783,0.574012531553,0.818811702958,0.00614456026061,0.0,0.818809505491,-0.573919735841,-0.0121604864324,0.0,-0.00643078801547,0.0120117272134,-0.999907177379,0.0,0.275224311153,-0.246364280316,0.304852261645,1.0,-0.107367428571,-0.141111477551,2.923
-0.601201745908,-0.525214504376,-0.132264312011,-2.64490593855,-0.0714588774899,2.10954803792,-0.852465666406,-0.472677619401,0.0601124446741,0.0290326829426,0.0360911910518,0.0107240180652,0.00633811476862,-0.464759816826,0.573876205882,0.818907193827,0.00615265160591,0.0,0.818904729245,-0.57378270768,-0.0122145687217,0.0,-0.00647243771229,0.0120483178194,-0.99990646842,0.0,0.273685973727,-0.248388882479,0.304835235643,1.0,-0.102430285714,-0.134622661225,2.938
-0.609638815235,-0.524259145407,-0.131861401969,-2.64419027798,-0.0712098627623,2.10971524181,-0.860713736478,-0.461086312667,0.0558993573877,0.0224194444923,0.0397189513131,0.0136032424785,0.00302262751545,-0.443731453669,0.573892287722,0.818895805776,0.00616832863715,0.0,0.818893452569,-0.573798539872,-0.0122268508301,0.0,-0.00647326352758,0.0120683316816,-0.999906221718,0.0,0.27186087112,-0.250758614958,0.304834967178,1.0,-0.0965057142858,-0.126836081633,2.956
-0.617683268261,-0.523278001389,-0.131468663608,-2.64340364294,-0.0709523909916,2.10990741366,-0.868506990049,-0.44387131273,0.0556421150771,0.0204049381532,0.039703770394,0.0172691238672,0.0142355027429,-0.426961625886,0.573973386384,0.818838865807,0.00618146167668,0.0,0.818837030626,-0.573880209078,-0.012172502032,0.0,-0.00642002284379,0.0120485339079,-0.999906803726,0.0,0.270133575686,-0.253031135119,0.304859049968,1.0,-0.0905811428572,-0.119049502041,2.974
-0.624275502159,-0.522330797392,-0.131100279413,-2.64268447775,-0.0706893223866,2.11008684459,-0.875004448364,-0.392670097609,0.0562107976656,0.0265451591435,0.0433891881817,0.0172283129219,0.0124815859955,-0.393122600998,0.573942222485,0.818860530953,0.00620507844324,0.0,0.818858982408,-0.57384890394,-0.0121716587833,0.0,-0.00640623685025,0.0120671454431,-0.99990666771,0.0,0.268736277561,-0.254888390717,0.304862912102,1.0,-0.0853148571429,-0.112128097959,2.99
-0.630851063617,-0.521411660159,-0.130673784566,-2.64197340583,-0.0704271952881,2.11027472973,-0.881534956236,-0.386356943186,0.0534400367494,0.0256763910039,0.0384359154153,0.0123815320512,0.0176741003025,-0.375045006453,0.573827957559,0.818940647656,0.00619980978196,0.0,0.81893920609,-0.573735018768,-0.0121429761527,0.0,-0.00638745175163,0.0120454784179,-0.999907049135,0.0,0.267343217536,-0.256720400415,0.304875252298,1.0,-0.0797194285715,-0.104774106123,3.007
-0.637179700956,-0.520505256753,-0.130285268472,-2.64125232779,-0.0701747689582,2.11045698317,-0.887585521076,-0.362070496197,0.0590204519046,0.0276208702676,0.0410068252652,0.0152465807125,0.0196004996803,-0.356369022792,0.573927392587,0.818870973281,0.00619871408612,0.0,0.818869796198,-0.573834963902,-0.01210115609,0.0,-0.00635236889419,0.0120213561508,-0.999907562931,0.0,0.265994394131,-0.258490491837,0.304895090104,1.0,-0.0741240000001,-0.0974201142858,3.024
-0.642657146184,-0.519612693119,-0.129956273853,-2.64056918765,-0.0698912396519,2.11064118654,-0.892964208943,-0.334344614317,0.0560862696845,0.0178053441568,0.0465037670506,0.0135162090071,0.0171839719135,-0.338957932466,0.573933246575,0.818866477299,0.00625041859957,0.0,0.818866044932,-0.573840721954,-0.0120819363346,0.0,-0.00630686935039,0.0120527125553,-0.999907473479,0.0,0.26483727473,-0.260028834177,0.304901217759,1.0,-0.0688577142858,-0.0904987102042,3.04
-0.648085634227,-0.518713959626,-0.129611268086,-2.63993272888,-0.0696264547467,2.1108192954,-0.898195643693,-0.312370514647,0.0545147787673,0.0270451790089,0.0376751129567,0.0150032478671,0.00922150045698,-0.308345296536,0.573997805608,0.818820961905,0.00628477558706,0.0,0.818820687918,-0.573904559034,-0.0121237394383,0.0,-0.00632043231476,0.0121053371682,-0.999906752126,0.0,0.263674335519,-0.261534584405,0.304883454021,1.0,-0.0632622857144,-0.0831447183674,3.057
-0.652994632655,-0.517879566962,-0.12915708807,-2.63933314468,-0.0693536096746,2.11098617521,-0.903090686646,-0.282131498973,0.0489902378557,0.0292982659678,0.0334328841658,0.014445450158,0.0113033465139,-0.277212702782,0.573836099737,0.818934383736,0.00627317095287,0.0,0.818933769659,-0.573742580679,-0.0121523219449,0.0,-0.00635289130423,0.0121109857378,-0.999906478025,0.0,0.262655662864,-0.262864238498,0.304874070258,1.0,-0.0576668571429,-0.0757907265307,3.074
-0.657567245406,-0.51711021785,-0.128743198081,-2.63874423156,-0.069088308846,2.11116872834,-0.907402998631,-0.261692183932,0.0513821144098,0.0216561837627,0.0327577226359,0.0174548516058,0.0162135915152,-0.256301360979,0.573900387024,0.818889390126,0.00626573330223,0.0,0.818888931408,-0.573807369297,-0.0121147785468,0.0,-0.00632546145753,0.0120838483966,-0.999906980246,0.0,0.261711246192,-0.264111974332,0.304883902393,1.0,-0.0520714285715,-0.068436734694,3.091
-0.661502320027,-0.516366002261,-0.128381295705,-2.63820949651,-0.0688492291263,2.11132406625,-0.911189954921,-0.235083929701,0.0470818363788,0.0203197689421,0.0363367210548,0.0139600201711,0.0187884269999,-0.215638892781,0.573895628277,0.81889271869,0.00626657976508,0.0,0.818892125726,-0.573802330455,-0.0121374993069,0.0,-0.00634365386732,0.0120975435305,-0.999906699396,0.0,0.260900368971,-0.2651863504,0.304874575691,1.0,-0.0468051428572,-0.0615153306123,3.107
-0.66480156789,-0.515736154452,-0.128058524533,-2.63776829615,-0.0686238647559,2.1114582306,-0.91434686246,-0.216057543956,0.0449224836882,0.022334840152,0.0282501552974,0.0142113898569,0.00294723986145,-0.200840151913,0.573902935264,0.818887494606,0.0062800457987,0.0,0.818886899623,-0.573809235458,-0.012163627347,0.0,-0.00635721644123,0.0121236220888,-0.999906297403,0.0,0.260222694983,-0.266077177323,0.304862006863,1.0,-0.0418680000001,-0.0550265142858,3.122
-0.668243890632,-0.515167494173,-0.127708995222,-2.63733926303,-0.0683842866253,2.11158167019,-0.917549519642,-0.194465866889,0.0303036307063,0.0190809838998,0.0207068479218,0.011348954024,0.00186598323761,-0.171843787532,0.573975985695,0.818836191258,0.00629338012004,0.0,0.81883585154,-0.573882363997,-0.0121502027818,0.0,-0.0063374879243,0.0121274033778,-0.999906376784,0.0,0.259508134159,-0.266992601451,0.304866087818,1.0,-0.0362725714286,-0.0476725224491,3.139
-0.671708195082,-0.51453854045,-0.127260983255,-2.63687514991,-0.0680968547482,2.11172909894,-0.920816642258,-0.160391801293,0.029689468444,0.0241919783166,0.0213619212508,0.0132944223765,0.00340512943835,-0.140401529397,0.573966442451,0.818842874664,0.00629416027105,0.0,0.818842634109,-0.573872989672,-0.012135863854,0.0,-0.00632543885682,0.0121197387207,-0.999906546011,0.0,0.258821314266,-0.267897552543,0.30486813673,1.0,-0.0296897142858,-0.039020767347,3.159
-0.67388446014,-0.514134968794,-0.126908526212,-2.63656036677,-0.0678855878499,2.11181857293,-0.922874392481,-0.134352073525,0.0245600959365,0.0241686053185,0.0241310963141,0.0124168742979,0.00191975530126,-0.132489363211,0.573919701429,0.818875722185,0.00628289961314,0.0,0.818875476321,-0.573826581113,-0.0121142886641,0.0,-0.00631492365592,0.0120977742661,-0.999906878463,0.0,0.258411635577,-0.268452398032,0.30487820437,1.0,-0.0247525714286,-0.0325319510205,3.174
-0.675868338155,-0.513805055865,-0.126523526809,-2.63629687122,-0.0676614251913,2.11186551256,-0.924606754367,-0.119161966169,0.0173037275801,0.0236005821329,0.018894730791,0.0174767962419,0.00601063802518,-0.098517944444,0.573961427279,0.818846553732,0.00627282538516,0.0,0.818846196264,-0.573868381106,-0.0121134195274,0.0,-0.00631937735278,0.012089347525,-0.999906952244,0.0,0.258044734095,-0.26893039175,0.304889276845,1.0,-0.01995,-0.02622,3.19
-0.677763332201,-0.513472798249,-0.126187317448,-2.63605529082,-0.0674457625541,2.11196423586,-0.926361145684,-0.10228518553,0.0158104824653,0.0189527738146,0.0112822338048,0.00855809578428,0.00228875191582,-0.0979114209069,0.573942265875,0.818859954609,0.00627670942259,0.0,0.818859824254,-0.57384954458,-0.0120845070098,0.0,-0.0062937531922,0.0120757870062,-0.999907277721,0.0,0.257692195294,-0.269397919294,0.30489271785,1.0,-0.01959,-0.0257468571429,3.208
-0.679362059247,-0.513162371992,-0.125990302504,-2.63580640703,-0.0673083578125,2.11204015616,-0.927886919554,-0.0925672934341,0.0173416461998,0.00948475851159,0.0148873542988,0.0129685286395,0.00142058918058,-0.0980274345297,0.573933482709,0.81886608039,0.00628066187111,0.0,0.818866180225,-0.57384108916,-0.0120552966072,0.0,-0.00626769230442,0.0120621921971,-0.999907605508,0.0,0.257378644364,-0.269825158863,0.304902203441,1.0,-0.01925,-0.0253,3.225
-0.680796259694,-0.512854838531,-0.125846746518,-2.6355774158,-0.067233378951,2.11208158292,-0.929327458074,-0.0867597701764,0.0172396954822,0.00940236029781,0.0164729797997,0.00145289111606,0.0011243930949,-0.0831721385608,0.573870192741,0.818910552028,0.00626550563166,0.0,0.818910287364,-0.573777559439,-0.0120830639626,0.0,-0.00630006334555,0.0120652295555,-0.999907365428,0.0,0.257081330511,-0.27021707064,0.304899442711,1.0,-0.01893,-0.0248794285714,3.241
-0.682089103138,-0.512581059065,-0.125741792342,-2.63537449519,-0.0671956765315,2.11214993274,-0.930542464893,-0.0913399677183,0.022201012787,0.0138049713148,0.0162221436511,0.000616626623864,0.0060735133154,-0.078164377373,0.573885955422,0.818899748677,0.00623367362722,0.0,0.818899116705,-0.57379355073,-0.0120807575039,0.0,-0.00631620916575,0.0120379586575,-0.999907592257,0.0,0.256808573164,-0.270581866799,0.304898657887,1.0,-0.01863,-0.0244851428571,3.256
-0.683577839759,-0.512261526676,-0.125683559078,-2.6351336656,-0.0671391854127,2.11219886148,-0.932104620878,-0.0818710963304,0.0145192314127,0.00337012756837,0.0141229722439,0.00300962686006,0.00275007965121,-0.08230193678,0.573821095511,0.818945119865,0.00624402891875,0.0,0.818944483227,-0.573728392717,-0.0121000695888,0.0,-0.00632703807925,0.0120570203583,-0.999907294127,0.0,0.256477765316,-0.271011133251,0.30489538591,1.0,-0.01827,-0.024012,3.274
-0.684924275678,-0.511966644285,-0.125656371776,-2.63488662024,-0.0670933572805,2.1122582152,-0.933436923596,-0.0779540679254,0.0219680403103,0.000859722075784,0.0143033420103,0.000517979174381,0.00121072331653,-0.0716063806369,0.57384706317,0.818926844988,0.0062544024776,0.0,0.818926532995,-0.573754670488,-0.012068908477,0.0,-0.00629518171066,0.0120478357803,-0.999907605902,0.0,0.25616245754,-0.271441283275,0.304908234711,1.0,-0.01791,-0.0235388571429,3.292
-0.686340994421,-0.511659140916,-0.125646139316,-2.6346454734,-0.0670424350897,2.11233305888,-0.934882969782,-0.0809378103003,0.0156375236819,-0.000561578919008,0.0136321708906,0.00138977535696,-0.000471645134609,-0.0844680341972,0.573848569526,0.818925621082,0.00627640737631,0.0,0.818925623992,-0.57375613338,-0.0120610397129,0.0,-0.00627608804416,0.0120613534317,-0.999907562964,0.0,0.255860572844,-0.271839727939,0.304906516863,1.0,-0.01757,-0.023092,3.309
-0.687513120335,-0.511418024064,-0.125642463089,-2.63445988903,-0.0670123706087,2.11235317379,-0.936037329891,-0.0759812645957,0.0138818385496,-0.000523924310588,0.0119367752442,0.00300687145755,0.00639782206849,-0.0691872605057,0.573883012782,0.818901342384,0.00629491716899,0.0,0.818901399336,-0.573790126973,-0.0120886415558,0.0,-0.00628756453103,0.0120926153352,-0.999907113279,0.0,0.255584120548,-0.272183635437,0.304903342769,1.0,-0.01727,-0.0226977142857,3.324
-0.688870357217,-0.51112746637,-0.125632253858,-2.63424169016,-0.0669847229134,2.11242538945,-0.937375919183,-0.0715905270187,0.0169560301247,0.00103199661602,0.00827102553439,0.000114391889444,-1.61211864516e-05,-0.0777915624939,0.573914172588,0.818879462713,0.00630039285584,0.0,0.818879634802,-0.573821339732,-0.0120814186245,0.0,-0.00627804659447,0.0120931936059,-0.999907166091,0.0,0.25527208584,-0.272588792839,0.30490124697,1.0,-0.01691,-0.0222245714286,3.342
-0.6902702873,-0.510846867208,-0.125602171007,-2.63400998121,-0.0669356593538,2.11249377792,-0.938863550239,-0.0749317319957,0.0129970614206,0.0033805352101,0.0101338827782,-0.0008786057987,0.00609230589363,-0.0790712611768,0.57385380828,0.818921666966,0.00631323987769,0.0,0.81892217239,-0.573761251766,-0.0120519061264,0.0,-0.00624739492193,0.0120863170422,-0.999907441215,0.0,0.254956931578,-0.273001407609,0.304909103326,1.0,-0.01653,-0.0217251428571,3.361
-0.691282356728,-0.510627069001,-0.125571231309,-2.63384241229,-0.0669182479416,2.11251882285,-0.939862255922,-0.0754363346725,0.0155875354397,0.00141530492398,0.0145814483645,0.00411004613775,0.00442965938394,-0.0664446820068,0.573858864877,0.818918171596,0.00630700671647,0.0,0.818918459804,-0.573766072238,-0.0120746611731,0.0,-0.0062695336872,0.0120943084337,-0.99990720602,0.0,0.25472504652,-0.27329542591,0.304906642221,1.0,-0.01625,-0.0213571428571,3.375
-0.692487008986,-0.510373323632,-0.125537478637,-2.63363553388,-0.066876035213,2.11256806228,-0.94108148363,-0.0646884924128,0.00771810607438,0.000803695990956,0.0123286807902,0.000206745670807,0.00115729389073,-0.0706876665519,0.573851571898,0.818923224176,0.00631452586673,0.0,0.818923667018,-0.573758856742,-0.0120643610894,0.0,-0.00625689080332,0.01209450011,-0.999907282894,0.0,0.254454665281,-0.273648680772,0.304911580164,1.0,-0.01591,-0.0209102857143,3.392
-0.69372524192,-0.510081398987,-0.125510540321,-2.63341491539,-0.0668440972742,2.11263855225,-0.942355117565,-0.0694760479152,0.0133450618176,0.000189583430535,0.0128614636544,0.000436318077825,0.00194373650083,-0.0666600509618,0.573828469378,0.818939412067,0.00631458600547,0.0,0.818939890429,-0.573735826157,-0.0120583808685,0.0,-0.00625229949637,0.0120909413965,-0.999907354652,0.0,0.254177486587,-0.274018758837,0.304910232086,1.0,-0.01555,-0.0204371428571,3.41
-0.694791644485,-0.509826157608,-0.125494421726,-2.63321791702,-0.0668169101446,2.11268625431,-0.943395888788,-0.0675011328651,0.014836394535,-0.000933881403306,0.014675816556,-6.67898050721e-05,0.00216595044621,-0.0633077030884,0.573859784587,0.818917441106,0.00631816333564,0.0,0.81891793641,-0.573767061245,-0.0120631570122,0.0,-0.00625369606558,0.0120968508671,-0.999907274443,0.0,0.253936167179,-0.274338673724,0.304909531694,1.0,-0.01523,-0.0200165714286,3.426
-0.695946934999,-0.509558127981,-0.125477772389,-2.63302427716,-0.066780698129,2.11273454539,-0.944573588874,-0.0672212047191,0.0125368312107,0.000580659721424,0.0121240810161,0.00212942553523,0.000248753809799,-0.0680105764217,0.57385514084,0.818920585505,0.00633236680492,0.0,0.818921138438,-0.573762108358,-0.0120813465238,0.0,-0.00626051177431,0.0121188851699,-0.99990696498,0.0,0.253670096749,-0.274678907903,0.304902612823,1.0,-0.01489,-0.0195697142857,3.443
-0.696945229745,-0.509321537796,-0.125459293771,-2.6328540181,-0.0667582460695,2.11278120484,-0.945590567675,-0.0649396639704,0.016876480939,-0.00231913225467,0.0136715210548,0.000266676802664,0.00648113470393,-0.0658677296512,0.57384513527,0.818927581524,0.00633433877386,0.0,0.81892806772,-0.573751917239,-0.0120956300195,0.0,-0.00627122676347,0.0121286197706,-0.999906779804,0.0,0.253441221913,-0.274974121665,0.304896611741,1.0,-0.01459,-0.0191754285714,3.458
-0.698049670106,-0.50906074309,-0.125440101092,-2.63265204596,-0.0667267252252,2.11282791631,-0.946666982295,-0.0595635015777,0.0192711900746,-0.000814698086136,0.00897216703269,0.00238694456745,0.00640694972799,-0.0621409326602,0.573878307665,0.818904290013,0.00634024381135,0.0,0.818904815602,-0.57378498291,-0.0121013747855,0.0,-0.00627205179638,0.0121370063465,-0.999906672867,0.0,0.253190205881,-0.275303064043,0.304896040766,1.0,-0.01425,-0.0187285714286,3.475
-0.699117705293,-0.508817950162,-0.125410661633,-2.63245536607,-0.06669735084,2.11289254355,-0.947737274342,-0.0644175238225,0.00817060187442,0.00200948923434,0.0158246083706,0.00340071311298,0.00150097496676,-0.0602681011194,0.573878101224,0.818904468414,0.00633588567661,0.0,0.818905090944,-0.573785093879,-0.012077457045,0.0,-0.006254967211,0.0121197104948,-0.999906989676,0.0,0.252952930429,-0.275622188594,0.304901491401,1.0,-0.01391,-0.0182817142857,3.492
-0.700161737404,-0.508578283554,-0.125369289389,-2.63226335285,-0.0666695921909,2.11292749868,-0.948791381719,-0.0581409107545,0.0107060864744,0.00250329305066,0.0127769136418,0.000982010854407,0.000376802123153,-0.0608556329961,0.573862083011,0.818915741995,0.00632962058808,0.0,0.818916238763,-0.573769021929,-0.0120851258232,0.0,-0.0062650801888,0.0121188578887,-0.999906936696,0.0,0.252719087624,-0.275927105453,0.304903713875,1.0,-0.01357,-0.0178348571429,3.509
-0.701159154725,-0.508331549201,-0.125332578205,-2.63207505059,-0.0666426138425,2.11297355149,-0.949770107585,-0.0585205200634,0.01109581043,0.000774330086336,0.0154390457226,0.00521095757024,0.00404474201096,-0.054388178315,0.573872456502,0.818908518809,0.00632363751302,0.0,0.81890889537,-0.57377933847,-0.0120929206503,0.0,-0.00627474399713,0.0121185104092,-0.999906880311,0.0,0.252497328858,-0.276221636844,0.304902446882,1.0,-0.01323,-0.017388,3.526
-0.702064853474,-0.508080130225,-0.12531581746,-2.63189302084,-0.0666212424516,2.11302156343,-0.950699837776,-0.0596658947712,0.0134690905112,0.000409791583844,0.0132785270768,0.000597524459421,0.00610247676787,-0.0520144385961,0.573859403994,0.818917667339,0.00632340649107,0.0,0.818917933539,-0.573766082699,-0.0121098048198,0.0,-0.006288898024,0.0121279098528,-0.999906677428,0.0,0.252294265403,-0.276496106583,0.304896270569,1.0,-0.01291,-0.0169674285714,3.542
-0.703143904397,-0.507824185983,-0.125288823353,-2.63168060618,-0.0665954945759,2.11308922493,-0.951823656949,-0.0567307891037,0.0114991210042,0.00322122467469,0.0134029517406,-0.000231825320997,0.00967355176851,-0.0575211234248,0.573825314841,0.81894161638,0.00631537086868,0.0,0.818941963872,-0.573732396186,-0.0120807399608,0.0,-0.00627020857024,0.0121043896803,-0.9999070798,0.0,0.252055172093,-0.276822572512,0.304904106916,1.0,-0.01253,-0.016468,3.561
-0.704050403539,-0.507613760362,-0.125286670505,-2.6315088804,-0.0665728567775,2.11312910238,-0.952677887875,-0.0556220017167,0.00996050870243,-6.18002265675e-05,0.0101871257857,0.00604304041224,0.00592111718806,-0.0565661964392,0.573885041471,0.81889971187,0.0063220231781,0.0,0.818900185294,-0.57379215579,-0.012074575802,0.0,-0.00626045987016,0.0121067574795,-0.999907112219,0.0,0.251845402386,-0.277096639082,0.304907400875,1.0,-0.01221,-0.0160474285714,3.577
-0.704987101531,-0.507385006098,-0.125282477495,-2.63132439408,-0.0665432287752,2.11317354697,-0.953594826799,-0.0571742608373,0.00995472810443,0.00204935975565,0.0116938946784,0.00212416521019,0.00472736016713,-0.0602938350428,0.573920339331,0.818874891698,0.00633267323222,0.0,0.818875536749,-0.573827461892,-0.0120683964894,0.0,-0.00624876536852,0.0121122025979,-0.999907119426,0.0,0.251631159003,-0.277380838552,0.304910108379,1.0,-0.01187,-0.0156005714286,3.594
