nelsonifechukwu/NELSON_IML_WORK/CNN-GradCAM/train2dof/data_sample_2022-02-21-09-28-37/robot_state.csv
position_joint1,position_joint2,position_joint3,position_joint4,position_joint5,position_joint6,position_joint7,velocity_joint1,velocity_joint2,velocity_joint3,velocity_joint4,velocity_joint5,velocity_joint6,velocity_joint7,ee_T_00,ee_T_10,ee_T_20,ee_T_30,ee_T_01,ee_T_11,ee_T_21,ee_T_31,ee_T_02,ee_T_12,ee_T_22,ee_T_32,ee_T_03,ee_T_13,ee_T_23,ee_T_33,v_x,v_y,time
0.465091848943,0.547610992411,-0.12397798499,-1.35573929497,0.0794158870929,1.89408522415,0.159172334318,-0.00163050069638,-0.00185698306207,-0.000157790094448,-0.000372437587408,-4.43788228585e-05,0.00230933507195,0.000749168209686,0.573766462065,0.819004469895,0.002114758505,0.0,0.818964251785,-0.573708018569,-0.0117222279894,0.0,-0.00838746469346,0.00845789573845,-0.999929054701,0.0,0.661697593955,0.260907322421,0.303377713926,1.0,0.0,0.0,0.0
0.465096891408,0.547614183751,-0.123977941096,-1.35574221876,0.0794130807983,1.89408603795,0.159166381482,-0.00221184721672,-0.00419836225954,-0.00033539439636,0.000526246729728,-0.00018331718799,-6.4928703541e-05,-0.00235382791187,0.573756854681,0.819011215949,0.00210873355738,0.0,0.818970941708,-0.573698457667,-0.0117227645668,0.0,-0.00839146003429,0.00845317078307,-0.999929061135,0.0,0.661695833284,0.260909895023,0.303374125447,1.0,-0.00016,-0.000210285714286,0.009
0.46509141844,0.547608870217,-0.123976202497,-1.35574525977,0.0794176014794,1.89408522851,0.159166133417,0.00163318684143,-0.000169660678106,0.000451487023538,0.000660671675958,-0.000113309208065,0.00030397100807,0.000412017597784,0.573760613283,0.819008567991,0.00211449848544,0.0,0.818968326679,-0.5737021515,-0.0117246817426,0.0,-0.00838968400115,0.00845903073614,-0.999929026482,0.0,0.661695424489,0.26091133821,0.303376364809,1.0,-0.00052,-0.000683428571429,0.027
0.465085708194,0.547603959655,-0.123979208092,-1.35576103957,0.0794176014073,1.89409080565,0.159167654956,-0.00140481526119,0.000619100222588,-9.33643419009e-05,-0.00386404796769,0.000187002133306,7.61929735419e-05,-0.001229151274,0.573770181972,0.819001880578,0.00210826737729,0.0,0.818961554115,-0.573711738628,-0.0117286291682,0.0,-0.00839639325945,0.00845629042972,-0.999928993345,0.0,0.661695694708,0.260900717967,0.303372874291,1.0,-0.00082,-0.00107771428571,0.042
0.465096040881,0.547493396163,-0.123978968418,-1.35585497964,0.0794122024328,1.89410641182,0.159171622187,0.00183689831064,-0.00596024825445,-0.000198467929463,-0.00933285302161,-0.000180455484679,-0.000105836730954,-0.000613727568329,0.573768406705,0.819003047416,0.00213791759395,0.0,0.818963078131,-0.573709822258,-0.0117159465973,0.0,-0.00836901277319,0.00847327872261,-0.999929079072,0.0,0.661677746694,0.260898183355,0.303407821552,1.0,-0.00118,-0.00155085714286,0.06
0.465092578234,0.547386140689,-0.123979208212,-1.35599374988,0.0794112834341,1.89413930315,0.159166010232,-3.85524886045e-05,-0.00451693000869,-0.0016823276754,-0.0115571382661,0.000396915091337,0.00209927226776,-0.00317159821976,0.573774181637,0.818998985171,0.00214421952265,0.0,0.818959009086,-0.573715482736,-0.011723190993,0.0,-0.00837127076063,0.00848265553113,-0.999928980669,0.0,0.661656335643,0.260882773474,0.303420609477,1.0,-0.00146,-0.00191885714286,0.074
0.465069907441,0.547246599268,-0.123978971341,-1.35618760242,0.0794089487929,1.89420333652,0.159163229443,-0.00410045942099,-0.0138866813763,-0.000863518670122,-0.0163756419386,-0.00138269559372,0.00623315639439,-0.000933387556214,0.573800459931,0.818980537976,0.00215812414084,0.0,0.818940649441,-0.573741610534,-0.0117270599613,0.0,-0.00836618933078,0.00849653156949,-0.999928905386,0.0,0.661634337257,0.260850703501,0.303432733147,1.0,-0.00178,-0.00233942857143,0.09
0.465044729563,0.547034560704,-0.123974670647,-1.35642511601,0.0794025023305,1.89433516847,0.159151482136,-0.00249706506761,-0.0176774451383,-0.000457009029844,-0.0107795064799,0.000240708700596,0.00334932703484,0.000773749396324,0.573820220113,0.818966435763,0.00225366034142,0.0,0.81892775365,-0.573760975281,-0.0116800876255,0.0,-0.00827269665168,0.00854802002899,-0.999929244419,0.0,0.661617712055,0.260819049937,0.303481171473,1.0,-0.00216,-0.00283885714286,0.109
0.465020109026,0.546848195404,-0.123973960395,-1.35665321461,0.079399743991,1.89446012623,0.159132170487,-0.000564307164978,-0.0109738581294,-0.000471494463022,-0.011252742742,-7.35241168191e-06,0.00360601953431,-0.00423000827057,0.573836295399,0.818954958467,0.00233001869477,0.0,0.818917219281,-0.573776719919,-0.0116451941042,0.0,-0.00820013684796,0.00859069287181,-0.999929476389,0.0,0.661601657581,0.260786594266,0.303515427343,1.0,-0.00248,-0.00325942857143,0.125
0.46498467236,0.546607143318,-0.123978941473,-1.3569806346,0.0793863817925,1.89458159388,0.159114564198,-0.00108945166488,-0.0176987890092,-0.000756156656645,-0.0204571361437,-8.38292671415e-05,0.00358836904485,-0.000632514253754,0.573869094773,0.818931881726,0.00236263791524,0.0,0.818894536322,-0.573809367273,-0.0116316513369,0.0,-0.00816998364718,0.00860996227199,-0.999929557477,0.0,0.66156827442,0.260730653144,0.303540990936,1.0,-0.00282,-0.00370628571429,0.142
0.464949752382,0.546319049291,-0.123981454412,-1.35740478316,0.0793721214572,1.89473902365,0.158986080424,-0.00197016410007,-0.0141965571207,0.00290105908296,-0.0224629389061,-0.000158621537059,0.0134043242217,-0.015292732843,0.573804290934,0.818977215732,0.00238803658566,0.0,0.818940054054,-0.573744326798,-0.0116353871476,0.0,-0.00815915161583,0.00863226008025,-0.999929453677,0.0,0.661515171204,0.260671309655,0.303554653004,1.0,-0.0032,-0.00420571428571,0.161
0.464910518445,0.546051001674,-0.12397974383,-1.35783618666,0.0793499369092,1.89488831537,0.158944149138,-0.00388945579756,-0.0224192894567,-0.000708560659859,-0.0323610793721,-0.000920558545703,0.0099254740197,0.000641289101272,0.573828927085,0.818959983562,0.00237795422225,0.0,0.818922685562,-0.573768990121,-0.0116416471563,0.0,-0.00816980406514,0.0086278406677,-0.999929404842,0.0,0.661469354467,0.260601803989,0.303554183429,1.0,-0.0035,-0.0046,0.176
0.464872703201,0.545738235542,-0.123979325239,-1.35834399809,0.0792886256681,1.8950669794,0.158908929798,-0.00129716686812,-0.0241311287065,-0.00072015720152,-0.0311646577977,-0.00511945182395,0.00890876412553,-0.00341738372536,0.573842833833,0.818950329643,0.00234660124002,0.0,0.818912875259,-0.573783271112,-0.0116278728913,0.0,-0.00817636722231,0.00859439896878,-0.999929639187,0.0,0.661409850542,0.260523060275,0.303549312782,1.0,-0.00384,-0.00504685714286,0.193
0.464824185084,0.545448163545,-0.123975355501,-1.35885761943,0.079220858507,1.89523881226,0.158825578405,0.000166843033222,-0.0212388769317,0.000497281987215,-0.0392671765122,-0.00448171537204,0.022260198337,-0.00559820520503,0.573822181611,0.818964980606,0.00228283453795,0.0,0.818926971411,-0.573763135179,-0.0116287190104,0.0,-0.00821386547962,0.00854245615506,-0.999929776963,0.0,0.66134933945,0.260436797482,0.303524866378,1.0,-0.00414,-0.00544114285714,0.208
0.464767471058,0.545060726708,-0.123980378877,-1.35952379603,0.0792117763895,1.8954555661,0.158729592599,-0.00069651118517,-0.0228573801569,-0.000273124098571,-0.0491933592788,-0.00022077877552,0.00900221126767,-0.00651423909855,0.573828188147,0.818960874092,0.00224590635307,0.0,0.818922093501,-0.573768973259,-0.0116840490474,0.0,-0.00828030706012,0.00854402352648,-0.999929215583,0.0,0.661266159986,0.260335632771,0.3035010162,1.0,-0.00448,-0.005888,0.225
0.464700152289,0.544592627641,-0.123984987209,-1.36029908666,0.0791823505001,1.89571681217,0.158661413007,-0.00321491239149,-0.0258303251788,-0.00400202634224,-0.04356188082,-0.00363735361829,0.0161820215773,-0.011535681737,0.573866018771,0.818934450543,0.0022147496058,0.0,0.818895098053,-0.573806743492,-0.0117211948761,0.0,-0.00832821237051,0.00854020745986,-0.999928850336,0.0,0.661172620038,0.260215534684,0.303486100222,1.0,-0.00486,-0.00638742857143,0.244
0.464637868124,0.544238708759,-0.123983917254,-1.36090996171,0.07916049209,1.89592991571,0.15857602369,-0.00796187596908,-0.0275032526328,0.00136688624936,-0.0461159735632,0.000310577697447,0.0198981408122,-0.00595003317254,0.573874577054,0.818928532594,0.00218522647138,0.0,0.818888634687,-0.573815247364,-0.0117563929202,0.0,-0.00837389055784,0.00853631648692,-0.999928502073,0.0,0.661101149088,0.26011803358,0.303464242212,1.0,-0.00514,-0.00675542857143,0.258
0.464570584257,0.543714840676,-0.123989129435,-1.36176150677,0.0791135043408,1.89623476577,0.158460171126,-0.00503072126894,-0.0347107774964,-0.000489400677709,-0.050079837242,-0.0092911578711,0.0128120945362,-0.0133163407209,0.573873357554,0.818929437091,0.0021664385242,0.0,0.818889258936,-0.573814063511,-0.0117706846256,0.0,-0.00839638889819,0.00852911975639,-0.99992837482,0.0,0.661001149575,0.259989418485,0.303456182383,1.0,-0.0055,-0.00722857142857,0.276
0.464492965239,0.543195354886,-0.123992064505,-1.36259584781,0.0790552189787,1.89652000039,0.158359581582,-0.00986798780119,-0.0313468789497,-0.000831944809018,-0.0538577334247,-0.00584797943849,0.0197481079433,-0.00655273282862,0.573898292055,0.818912061833,0.00212891086236,0.0,0.818871380722,-0.573839125316,-0.0117926669145,0.0,-0.00843566724311,0.00851125944645,-0.999928196413,0.0,0.660890427292,0.259836247089,0.303444048168,1.0,-0.00588,-0.007728,0.295
0.464419829619,0.542646839052,-0.123998137422,-1.36349316586,0.079012228496,1.89683537242,0.158245773019,-0.00486920541683,-0.0376081803978,-0.00165031054226,-0.0592089045811,-0.000152335731345,0.021691984799,-0.00614183629596,0.573896711326,0.818913213468,0.00211197494055,0.0,0.818872273286,-0.573837572005,-0.0118062653147,0.0,-0.00845653891047,0.00850517830888,-0.999928071859,0.0,0.660797192295,0.259717403286,0.303439766603,1.0,-0.00618,-0.00812228571429,0.31
0.464335716661,0.542019192876,-0.123998826962,-1.36447106687,0.0789525134129,1.89719877723,0.158110775863,-0.00719378122616,-0.0382028129476,-0.00130590931952,-0.0583434307901,-0.00450015845806,0.0229815483739,-0.00613731149421,0.573893934064,0.818915133114,0.00212228686211,0.0,0.818874328632,-0.573834756221,-0.0118005661294,0.0,-0.00844598282985,0.00851032339964,-0.999928117301,0.0,0.66068613224,0.259568588973,0.303449680441,1.0,-0.00654,-0.00859542857143,0.328
0.464250460034,0.541428444519,-0.12399940487,-1.36537253426,0.0788990944562,1.89753133184,0.157994895273,-0.00866689771209,-0.0349131766089,-0.000635004320825,-0.0526192962142,-0.00806821149102,0.0174672928206,-0.00705107920574,0.573905002117,0.818907326956,0.00214133214301,0.0,0.818866755319,-0.573845733545,-0.0117922867975,0.0,-0.00842815801387,0.00852128214461,-0.999928174372,0.0,0.660585334685,0.259426607159,0.303467124823,1.0,-0.00686,-0.009016,0.344
0.464169263631,0.540806826997,-0.123994232129,-1.3663327194,0.0788439506356,1.89788459818,0.157864748103,-0.0052313533173,-0.0422798310912,0.0021234202762,-0.0632125970723,-0.00418539227982,0.0239240211445,-0.00881467102207,0.573899770245,0.818910953383,0.00215662790648,0.0,0.818870517426,-0.573840378782,-0.0117916186657,0.0,-0.00841888759836,0.00853337054656,-0.999928149378,0.0,0.660473505048,0.259285211332,0.303479972341,1.0,-0.00718,-0.00943657142857,0.36
0.464071146805,0.540058110821,-0.124004434257,-1.36746231589,0.0787740491307,1.89830559503,0.15772095756,-0.00648761567823,-0.0478224576242,-0.000366039072376,-0.0622968305924,-0.00305497482287,0.0192374436857,-0.00277186515205,0.57391131421,0.818902778211,0.00218864386113,0.0,0.818862804135,-0.573851843964,-0.0117692856383,0.0,-0.00838210477275,0.00854688979147,-0.99992834293,0.0,0.660356327313,0.259115557281,0.303508352927,1.0,-0.00752,-0.00988342857143,0.377
0.463964645036,0.539324331413,-0.124010838055,-1.36862064535,0.0787079162469,1.89874232927,0.157586762904,-0.00874769904056,-0.0475505541663,-0.00219478559412,-0.0714191274496,-0.00420655755439,0.0213997148253,-0.00479332017471,0.57394164126,0.818881500439,0.00219717270999,0.0,0.818841649579,-0.573882147174,-0.0117635440968,0.0,-0.00837219163856,0.0085508889633,-0.999928391789,0.0,0.660219379502,0.258924542851,0.30351348983,1.0,-0.00788,-0.0103565714286,0.395
0.463869947367,0.538615482455,-0.124014113961,-1.3697114779,0.0786580035833,1.89916588019,0.157450041589,-0.00357090940548,-0.0434445879085,-0.000196860472063,-0.0692721851669,-0.00441819069979,0.0162514965609,-0.00271588411472,0.573956560933,0.818870928426,0.00223956294007,0.0,0.818831519686,-0.573896791787,-0.0117542182482,0.0,-0.00834007019567,0.00858040060713,-0.999928407415,0.0,0.660098227254,0.258760609721,0.303531873089,1.0,-0.0082,-0.0107771428571,0.411
0.463758699329,0.537840817808,-0.124020076747,-1.37092873015,0.0785781200676,1.89963489193,0.157292887502,-0.000917825053016,-0.046451486212,0.00368249024973,-0.0721059244326,-0.00919051276285,0.0337399132687,-0.0125912639903,0.573969052476,0.818862128487,0.00225571052441,0.0,0.818823026333,-0.573909320471,-0.0117341520455,0.0,-0.00831423950058,0.00858223308387,-0.9999286068,0.0,0.659964947024,0.258568304469,0.303540438516,1.0,-0.00854,-0.011224,0.428
0.463657424909,0.537027196788,-0.124026884439,-1.37219643471,0.078494931701,1.90009914245,0.15713868258,-0.00553623199793,-0.0493773194724,0.000297030675365,-0.075831988861,-0.0047304083315,0.0288544395985,-0.0122111564992,0.57397799821,0.818855849696,0.00225873664507,0.0,0.818816858313,-0.573918327535,-0.0117240250856,0.0,-0.00830411604563,0.0085789892652,-0.999928718759,0.0,0.659817578294,0.258375774249,0.303551965239,1.0,-0.00888,-0.0116708571429,0.445
0.463549675113,0.536238309323,-0.124033213123,-1.37343779748,0.0784365306804,1.90057743297,0.15698284971,-0.00580891388488,-0.0496630875031,-0.0004231896003,-0.079880500838,-0.00125461704572,0.035488198309,-0.00650454044197,0.573995872158,0.818843242548,0.00228687138942,0.0,0.818804512868,-0.573935986639,-0.0117217681672,0.0,-0.00828593239708,0.00860091275058,-0.999928681269,0.0,0.659678383846,0.258187011964,0.303559677063,1.0,-0.0092,-0.0120914285714,0.461
0.463438136318,0.535363125514,-0.124033983145,-1.37480038631,0.078349145645,1.90107339928,0.156817456531,-0.00622766138568,-0.0570069374391,0.00019963704581,-0.0780352877557,-0.00610994944339,0.0379410556528,-0.0123564199372,0.574003650785,0.818837778237,0.00229100838829,0.0,0.818799124576,-0.573943772031,-0.0117169553296,0.0,-0.00827953508039,0.00860161640579,-0.999928728207,0.0,0.659517871803,0.257982262382,0.303571741924,1.0,-0.00954,-0.0125382857143,0.478
0.463333061346,0.534576182306,-0.124036502538,-1.37607404748,0.0782809095824,1.90153107312,0.156652117415,-0.00931530028292,-0.0477920195491,-0.00134914182138,-0.0859405290085,-0.00307983298254,0.0405938057885,-0.017246261291,0.574007599602,0.818835069035,0.00226985003933,0.0,0.818796040321,-0.57394769569,-0.0117402669443,0.0,-0.00831072710145,0.00859771220432,-0.999928503024,0.0,0.659365417546,0.257790666882,0.303560489227,1.0,-0.00984,-0.0129325714286,0.493
0.463210828086,0.533660388254,-0.124044952778,-1.37755067492,0.0781967553051,1.90206945836,0.156475446953,-0.00338640321309,-0.0484335394194,0.00150264573477,-0.0868472595059,-0.00567580287145,0.0285739070043,-0.0102385250462,0.574023118583,0.818824253072,0.00224695675068,0.0,0.818784825827,-0.573963195145,-0.0117646298442,0.0,-0.00834365441008,0.00859310904787,-0.999928268381,0.0,0.659179028312,0.257554908808,0.303545402887,1.0,-0.0102,-0.0134057142857,0.511
0.463075469122,0.532678430554,-0.124040376804,-1.37913753171,0.0781086822989,1.90267753206,0.156275776078,-0.00499823102674,-0.0582461662911,-0.00134644530332,-0.0884260342918,-0.0101536022382,0.0335416608743,-0.0100134973247,0.574034661668,0.818816135699,0.00225610829055,0.0,0.81877680851,-0.573974682522,-0.0117621669513,0.0,-0.00833626354963,0.00859930623547,-0.999928276749,0.0,0.659008014361,0.257329799809,0.303540231116,1.0,-0.01054,-0.0138525714286,0.528
0.462947538442,0.531701669443,-0.124037871114,-1.3806931307,0.0780312936148,1.90325017463,0.156070303281,-0.00371851068413,-0.0613247722253,0.00358418501198,-0.0979815649255,-0.0014234577191,0.0235959330207,-0.0144972483864,0.574033528386,0.818816919959,0.00225981817032,0.0,0.81877745571,-0.573973344108,-0.0117824095709,0.0,-0.0083507216995,0.00861395215599,-0.999928030048,0.0,0.65882203373,0.257101454351,0.30353791571,1.0,-0.01088,-0.0142994285714,0.545
0.462795503541,0.530581770982,-0.124042885453,-1.38251597546,0.0778862796871,1.90388435894,0.15584431521,-0.00484356631568,-0.0611970068936,-0.00108609842701,-0.100695960983,-0.00945843583055,0.0257527395768,-0.00475621064843,0.574036451742,0.818815085236,0.00218063344846,0.0,0.818774839245,-0.57397682611,-0.011794600823,0.0,-0.00840612585648,0.00855614333961,-0.999928062142,0.0,0.658600912135,0.256816338753,0.303514524492,1.0,-0.01126,-0.0147988571429,0.564
0.462672113787,0.529687654415,-0.124040413858,-1.38395907354,0.0778345036997,1.90441414158,0.155652805877,-0.00409135394136,-0.0571276275724,0.00229432518675,-0.100869711212,-0.00261791500968,0.0415151385958,-0.0101400186012,0.574043553557,0.818810098717,0.00218352019449,0.0,0.818769533885,-0.573983553156,-0.0118354547449,0.0,-0.00843784764315,0.00858203154231,-0.999927573108,0.0,0.658427016805,0.256604505079,0.303503419464,1.0,-0.01156,-0.0151931428571,0.579
0.462530272058,0.528612025946,-0.124046769366,-1.38562773094,0.0777248285611,1.90503914497,0.155416717217,-0.00681045126259,-0.068722980779,-0.000489698379194,-0.0979487476465,-0.00855947160253,0.0350356761002,-0.00739433386078,0.574031838521,0.818818256601,0.00220406956885,0.0,0.818778053402,-0.57397185526,-0.0118133626886,0.0,-0.00840808502337,0.00858605540255,-0.999927789272,0.0,0.658233699615,0.256348154469,0.303521019762,1.0,-0.0119,-0.01564,0.596
0.462408786816,0.527637226529,-0.124041558757,-1.38714231764,0.0776013555332,1.90563204604,0.155208357335,-0.00357620467604,-0.066354472867,0.000334826596434,-0.100222256356,-0.0115344679921,0.0384924434036,-0.0134508137173,0.574005804538,0.818836432937,0.00223144614665,0.0,0.818796862984,-0.57394600294,-0.0117656184642,0.0,-0.00835354828956,0.0085807996042,-0.999928291484,0.0,0.658059837731,0.256124523116,0.303537530195,1.0,-0.0122,-0.0160342857143,0.611
0.462262100916,0.52647896846,-0.124045301191,-1.38891787134,0.0775137837851,1.90630435164,0.154970222307,-0.0121312971588,-0.0668751525451,0.000370594474239,-0.104844199193,0.000783297203311,0.0406530116101,-0.00980610868813,0.574006004915,0.818836136501,0.00228796466889,0.0,0.818797140706,-0.573945823191,-0.0117550548558,0.0,-0.00831245597771,0.00862101698557,-0.999928288,0.0,0.657851574217,0.255861707927,0.303565953943,1.0,-0.01254,-0.0164811428571,0.628
0.462108910472,0.525307983145,-0.124050171238,-1.39076147765,0.0773978921307,1.90696965273,0.154716078117,-0.00825202946392,-0.0681940191706,-0.000662042467846,-0.105236798819,-0.00215704894626,0.0332399587002,-0.0132188799519,0.573994765873,0.818844041556,0.0022784337511,0.0,0.818804929246,-0.573934629189,-0.0117590884369,0.0,-0.00832134768233,0.00861541387398,-0.999928262335,0.0,0.657629184099,0.25558107242,0.303570034162,1.0,-0.01288,-0.016928,0.645
0.461955689163,0.524192906742,-0.124053153211,-1.39252475635,0.0772815463733,1.90759800544,0.154470323734,-0.0103528025934,-0.0693255819327,0.00035671685824,-0.114716660567,-0.00152507244734,0.0386565680808,-0.0183005421202,0.573984334365,0.81885141579,0.00225602830135,0.0,0.818812047156,-0.573924320071,-0.0117666122788,0.0,-0.00834047819468,0.00860127986974,-0.999928224628,0.0,0.657415841439,0.255307786959,0.30356945922,1.0,-0.0132,-0.0173485714286,0.661
0.46177423319,0.522855297381,-0.124062632402,-1.39466596641,0.0771521183739,1.90840042811,0.154178428471,-0.00719412584364,-0.0763050341255,8.96623997726e-05,-0.116667894507,-0.012897995573,0.0371813947872,-0.00749780360115,0.57398521866,0.818850785631,0.00225976402539,0.0,0.818811480595,-0.573925205568,-0.011762846637,0.0,-0.0083352411564,0.00860218644518,-0.999928260498,0.0,0.657149288811,0.254963491279,0.303565547818,1.0,-0.0136,-0.0178742857143,0.681
0.461614748977,0.5216253625,-0.124068686048,-1.3966176505,0.0770293340066,1.90917340126,0.153915391497,-0.00986109581911,-0.076133965383,-0.000674783548519,-0.113331725903,-0.00151848025897,0.0412628179219,-0.0113189266577,0.573971746395,0.818860150853,0.00228792169741,0.0,0.818821316425,-0.573911737051,-0.0117352777531,0.0,-0.00829664593175,0.0086092826779,-0.999928520404,0.0,0.656938586661,0.254688669993,0.303562955986,1.0,-0.01392,-0.0182948571429,0.697
0.461438738649,0.520363174525,-0.124074599725,-1.39863064616,0.0768992519759,1.90992136691,0.153642950364,-0.015844850021,-0.0744621778215,-0.000157799065967,-0.115541334314,-0.00282311679722,0.0410340857357,-0.0162884265881,0.57396926098,0.81886191912,0.00227854485741,0.0,0.818823028118,-0.573909354755,-0.0117323505808,0.0,-0.00829965669758,0.00859989916697,-0.999928576166,0.0,0.656699462522,0.254377000174,0.303556393584,1.0,-0.01426,-0.0187417142857,0.714
0.46126960089,0.519035552683,-0.124081232641,-1.40069435032,0.0767751507425,1.91066365817,0.153360648787,-0.00945040279773,-0.0763040896023,-7.70280265857e-05,-0.117451004408,-0.00906052653329,0.0415879141895,-0.0212746636388,0.573957434179,0.81887019424,0.0022837769885,0.0,0.818831327964,-0.573897464963,-0.0117346902733,0.0,-0.00829869405479,0.00860540654516,-0.999928536774,0.0,0.656446316902,0.254064904427,0.303570777012,1.0,-0.0146,-0.0191885714286,0.731
0.461115556646,0.517829241159,-0.124081954739,-1.40255599439,0.0766458400503,1.91132810226,0.153116413595,-0.0142453572512,-0.0839933131477,0.00133368043736,-0.128350079913,-0.013195879851,0.0475747263154,-0.0238631203135,0.57394222816,0.818880832468,0.0022908193392,0.0,0.818842127405,-0.573882306838,-0.0117224223778,0.0,-0.00828476581579,0.00860397825342,-0.999928664562,0.0,0.656201794062,0.253761608109,0.303595780464,1.0,-0.01492,-0.0196091428571,0.747
0.460914692593,0.516420568028,-0.124088333445,-1.40483243383,0.0765060848563,1.91215841647,0.152806340652,-0.0137685384352,-0.0753309801289,2.8743257229e-05,-0.124962704756,-0.00243759654992,0.0506817763532,-0.0155171131146,0.573945432774,0.818878704214,0.00224830672596,0.0,0.818839438967,-0.573885662614,-0.0117459073577,0.0,-0.00832836274846,0.00858267734296,-0.999928485455,0.0,0.65594020274,0.253429104469,0.303565730348,1.0,-0.01526,-0.020056,0.764
0.460729606554,0.515043909324,-0.124088994182,-1.40701223521,0.0763759799653,1.91297670086,0.152503160474,-0.0119615894787,-0.0811738611681,0.00135371386377,-0.126111696261,-0.00327960799542,0.0462103743729,-0.022167930943,0.573929173207,0.818890064692,0.00226119260903,0.0,0.818850922169,-0.573869310234,-0.0117443150122,0.0,-0.00831983401981,0.00859215008344,-0.999928475102,0.0,0.655676756355,0.253101212189,0.303564482175,1.0,-0.0156,-0.0205028571429,0.781
0.460547979002,0.513717279634,-0.124096892129,-1.40913234204,0.0762542722945,1.9137181423,0.152211703223,-0.0083637250079,-0.0813141553242,0.000406522104677,-0.129529738137,-0.00755530013486,0.0504913606115,-0.0148769199784,0.573923333489,0.818894270203,0.00222000127009,0.0,0.818854462807,-0.573863494948,-0.01178154526,0.0,-0.00837402344584,0.00857972686307,-0.999928129426,0.0,0.655410312121,0.252774046439,0.303549743786,1.0,-0.01592,-0.0209234285714,0.797
0.460354748537,0.512335383007,-0.124097524924,-1.41140564122,0.0761209226757,1.91451031807,0.151897491548,-0.00696838024458,-0.0866889438875,0.000706766411168,-0.133109719105,-0.0145965496101,0.0491599437958,-0.0169074611022,0.573907762908,0.81890540012,0.00213827746878,0.0,0.818864365915,-0.573848078938,-0.0118439619574,0.0,-0.00847220110414,0.008548465519,-0.99992757015,0.0,0.655120101818,0.252427705991,0.303504623718,1.0,-0.01626,-0.0213702857143,0.814
0.460150645076,0.510801860218,-0.124100064566,-1.41383799932,0.0759718667018,1.91543725476,0.151545748628,-0.0120245084012,-0.0816503082694,0.000800190837463,-0.137275150993,-0.00861455231568,0.0539662837492,-0.0195755677767,0.573882494368,0.818923049355,0.00216073920073,0.0,0.818882329337,-0.573822746906,-0.0118293166878,0.0,-0.00844758143233,0.00855819368897,-0.99992769523,0.0,0.654811825792,0.252037845121,0.30350006438,1.0,-0.01664,-0.0218697142857,0.833
0.459940268243,0.509313627631,-0.124101358178,-1.41620362283,0.075825124827,1.91630855656,0.151223678447,-0.0107586942194,-0.0854034234678,0.000447241272477,-0.142530594987,-0.0140074336148,0.0443206035126,-0.0238617842941,0.573868809305,0.818932663119,0.00215171669312,0.0,0.818891781865,-0.573809054763,-0.0118391371165,0.0,-0.00846094446544,0.00855629937241,-0.999927598459,0.0,0.654535707648,0.251698649925,0.30349245102,1.0,-0.01696,-0.0222902857143,0.849
0.459732401338,0.507802789932,-0.124107511237,-1.4185767445,0.0756712198125,1.91716206982,0.150881165285,-0.012446855356,-0.087913598854,0.000193399445813,-0.140474484298,-0.00952948311474,0.0491422562046,-0.0200851369931,0.573844318617,0.818949858523,0.00213871863592,0.0,0.818908832567,-0.57378464327,-0.0118428878202,0.0,-0.00847173050238,0.00854755403988,-0.999927581929,0.0,0.6542405196,0.251330427303,0.303494010044,1.0,-0.0173,-0.0227371428571,0.866
0.459534180003,0.506339945747,-0.124110003001,-1.42085721684,0.0755216314443,1.9180081958,0.150578291928,-0.0117023618645,-0.0919952505791,-0.000563226024577,-0.145197705683,-0.00464351993632,0.0584093404208,-0.0169142507807,0.573837877722,0.818954325362,0.00215637731587,0.0,0.818913590678,-0.573778195562,-0.0118262505681,0.0,-0.00844803942126,0.00855240187826,-0.999927740915,0.0,0.653960346966,0.250981259478,0.303504826954,1.0,-0.01762,-0.0231577142857,0.882
0.459326415133,0.504839615885,-0.124118483252,-1.42316214219,0.0753796052892,1.91890949149,0.150260124407,-0.0159831859697,-0.0918640872082,0.000679298235301,-0.144007509704,-0.00614738631427,0.0627486323392,-0.0203673527012,0.573834323328,0.818956606875,0.00223435177091,0.0,0.818916961127,-0.573774415149,-0.0117761709003,0.0,-0.00836232008245,0.00858748495797,-0.999928160772,0.0,0.653688769964,0.250624891062,0.303534669522,1.0,-0.01794,-0.0235782857143,0.898
0.459097202565,0.503176861902,-0.124119577612,-1.42563802421,0.0752293258592,1.91983948666,0.149904023715,-0.014244039817,-0.0946695415531,-8.01575596879e-05,-0.147250844898,-0.0103959247718,0.0577059356671,-0.0194002441846,0.57381782337,0.818967885438,0.0023356167425,0.0,0.818929530367,-0.573757508952,-0.0117257032024,0.0,-0.00826305580235,0.00864128938275,-0.999928522459,0.0,0.653389312983,0.250241419983,0.303598215445,1.0,-0.01828,-0.0240251428571,0.915
0.458868188393,0.501471373,-0.124128715891,-1.42815368254,0.0750636044555,1.92075825172,0.149561778871,-0.0141992162417,-0.0979017720845,-0.0004654052829,-0.144751183971,-0.00852199473206,0.0555953218919,-0.0185002467812,0.573815281268,0.818969414899,0.0024222602602,0.0,0.818932274194,-0.573754744509,-0.0116692047072,0.0,-0.0081670956766,0.00867980219792,-0.999928977269,0.0,0.65308066081,0.249846131471,0.30367123435,1.0,-0.01862,-0.024472,0.932
0.458643659955,0.499853847101,-0.124127032792,-1.43060754832,0.0749136721345,1.92161889053,0.149216257652,-0.0150952656938,-0.0997133293837,-0.00109083880819,-0.157464350606,-0.00529552518427,0.059066247162,-0.0183030889853,0.573799319317,0.818980525258,0.00244689603797,0.0,0.81894358448,-0.573738568402,-0.0116707955586,0.0,-0.00815443264501,0.00870073187565,-0.999928898719,0.0,0.652767465273,0.249465021726,0.303706350613,1.0,-0.01894,-0.0248925714286,0.948
0.458374220647,0.498072818572,-0.124129158717,-1.43339652334,0.074738930372,1.92266451619,0.148803939686,-0.0129014651717,-0.10398113121,0.000203134226146,-0.157346638825,-0.0130093226542,0.0654817171013,-0.0168014672317,0.573778477389,0.818995040413,0.00247579592243,0.0,0.81895847615,-0.573717627384,-0.0116552679774,0.0,-0.00812535534397,0.00871528376575,-0.999929008695,0.0,0.652426910587,0.249023359597,0.303711608856,1.0,-0.0193,-0.0253657142857,0.966
0.458109320338,0.496395594017,-0.124129167597,-1.43606029889,0.0745729900729,1.92360896782,0.148407629029,-0.0136687444475,-0.0999715185369,-0.000653129608853,-0.156359107325,-0.0127451336325,0.0639642933152,-0.0241788721304,0.573760693659,0.819007606652,0.00243999173497,0.0,0.818970479497,-0.573699869268,-0.0116859153122,0.0,-0.00817118791271,0.00870336764353,-0.999928739001,0.0,0.652090255854,0.248594178299,0.303694603924,1.0,-0.01964,-0.0258125714286,0.983
0.457857245845,0.494839694256,-0.124129176494,-1.43862818111,0.0744091770032,1.92449939206,0.14804113677,-0.0221799898312,-0.0951864340403,0.000268975725654,-0.161210823881,-0.0135398849648,0.0618632914824,-0.0219448017184,0.573751982921,0.819014018593,0.00233374008267,0.0,0.818975407873,-0.573691442,-0.0117540450803,0.0,-0.00828804055313,0.00865534905053,-0.99992819408,0.0,0.651758306345,0.248180008969,0.303633540596,1.0,-0.01996,-0.0262331428571,0.999
0.457579521244,0.493105494839,-0.124130580496,-1.44143653838,0.0742352250362,1.92551939843,0.14764635149,-0.0210730196403,-0.101068336295,0.000634631554097,-0.170244508725,-0.0167009515187,0.0619501256377,-0.0228032517741,0.573751244465,0.819014670953,0.00228585672339,0.0,0.818975355354,-0.573690799426,-0.0117890151462,0.0,-0.00834416204079,0.00863618870687,-0.999927893003,0.0,0.651404594099,0.247729348371,0.303592824503,1.0,-0.0214285714286,-0.0281632653061,1.016
0.45730148144,0.491342028597,-0.124135429064,-1.44426252026,0.0740629030383,1.92655220142,0.147248108312,-0.0174131183208,-0.115223358637,-0.000259840129814,-0.17996006825,-0.0137378038683,0.0685928019564,-0.0183247181581,0.573751216965,0.81901476258,0.00225978066166,0.0,0.818975026089,-0.573690787821,-0.0118124304512,0.0,-0.00837830088165,0.00862826639391,-0.999927675931,0.0,0.651049300653,0.247276024013,0.303564580255,1.0,-0.0229737142857,-0.0301940244898,1.032
0.456999861379,0.489475866303,-0.124146564214,-1.44730628535,0.0738722073906,1.92760792967,0.146819128156,-0.0195321583263,-0.114024169013,-0.000872181439014,-0.193741897089,-0.00187800396387,0.0621884793114,-0.0354148027524,0.573754737106,0.81901258405,0.00215307160259,0.0,0.818971347422,-0.573694614357,-0.0118814334655,0.0,-0.00849600151645,0.0085804978871,-0.999927093849,0.0,0.650654946565,0.246778115449,0.303505614805,1.0,-0.0245188571429,-0.0322247836735,1.048
0.456610047976,0.487020665747,-0.124166296637,-1.45109503658,0.0736499433908,1.9290542067,0.146266486487,-0.0226486911571,-0.13095072258,-0.00435977120838,-0.204835247014,-0.0186629994231,0.0843896754198,-0.0305731217337,0.573763955618,0.819005866213,0.00224972059008,0.0,0.818965861417,-0.573703422608,-0.0118341718645,0.0,-0.00840174553601,0.00863263182636,-0.999927441537,0.0,0.650195831273,0.246158592508,0.303534359997,1.0,-0.0263537142857,-0.0346363102041,1.067
0.456250078962,0.484800682654,-0.124189078632,-1.45445840308,0.0734358998915,1.93031902286,0.145758651227,-0.0192115009049,-0.139250617469,-0.000741345810141,-0.217121328966,-0.0170515448738,0.08173170174,-0.0301258728081,0.573767280272,0.81900326834,0.00234551441351,0.0,0.818964631456,-0.573706505858,-0.011769641499,0.0,-0.00829389765951,0.00867409554313,-0.999927983071,0.0,0.649788851483,0.245593368104,0.303585146712,1.0,-0.0278988571429,-0.0366670693878,1.083
0.455839317489,0.482332560757,-0.124232798378,-1.45828573342,0.0731887453445,1.93160593415,0.145181592181,-0.0279836748276,-0.142608007423,-0.000938697389297,-0.232425061124,-0.0129022945716,0.0796505732188,-0.0295058374352,0.573782641704,0.818992703572,0.00227562630956,0.0,0.818953162071,-0.573722136017,-0.0118057561613,0.0,-0.00836341199072,0.00863773562261,-0.999927718819,0.0,0.649295621172,0.24492801155,0.30358869321,1.0,-0.0295405714286,-0.0388247510204,1.1
0.455459080729,0.480029760756,-0.124258429286,-1.46186103404,0.0729773195485,1.93290766651,0.144653885519,-0.0267644271779,-0.159264569456,-0.00031549759355,-0.239701149076,-0.0169024406512,0.0876528225127,-0.0348351953139,0.573797883983,0.818981950836,0.00230205209176,0.0,0.818942664393,-0.573737183081,-0.0118027152829,0.0,-0.00834559858377,0.00865778841744,-0.999927694228,0.0,0.64884713108,0.244327500892,0.303597016576,1.0,-0.0309891428571,-0.0407285877551,1.115
0.454994887318,0.47731402703,-0.124271181166,-1.46601238438,0.0727254537626,1.93444087367,0.144039809051,-0.0311583111108,-0.156830575507,0.0011250297639,-0.245764030573,-0.0139443420802,0.0918354156869,-0.0333008346348,0.573817764519,0.818967777491,0.00238735322361,0.0,0.818929517382,-0.573756651108,-0.0117685075567,0.0,-0.00826842788037,0.00870822038138,-0.9999278974,0.0,0.648331072309,0.243626846933,0.303635386092,1.0,-0.0326308571429,-0.0428862693878,1.132
0.454452615011,0.474106953248,-0.12429094128,-1.47091971523,0.0724197467787,1.9362409356,0.143346668967,-0.0289368960633,-0.173541365307,-0.00202591642446,-0.261779766338,-0.0166797241507,0.0943107891833,-0.0356411980211,0.573861705876,0.818936776209,0.00245886221395,0.0,0.818899364697,-0.573800235693,-0.0117416744816,0.0,-0.00820495130008,0.00875182655251,-0.999928039564,0.0,0.647678116854,0.242758236688,0.303666353144,1.0,-0.0345622857143,-0.0454247183673,1.152
0.454006882863,0.471487291251,-0.124294593961,-1.47501496289,0.0721588888208,1.93764418294,0.1427399622,-0.0316667324106,-0.173913339477,-0.000914925063721,-0.271825080166,-0.0256463914917,0.0969877732097,-0.0383193712118,0.573851911736,0.81894379069,0.00240790112665,0.0,0.818905569112,-0.573790475732,-0.0117858278296,0.0,-0.00827045901816,0.00873533165607,-0.999927644127,0.0,0.647136386568,0.242065002615,0.30365957483,1.0,-0.0360108571429,-0.047328555102,1.167
0.453461904715,0.468171281353,-0.124292568669,-1.47998880459,0.0718458438512,1.93955017812,0.141927200083,-0.0317218248095,-0.189899769656,0.000690869966736,-0.275960790154,-0.0207740024232,0.10843054773,-0.0497561853343,0.57378856655,0.818987518913,0.00262138557559,0.0,0.818952089271,-0.573726381397,-0.0116731173731,0.0,-0.00805633448427,0.00884486076959,-0.999928429395,0.0,0.646550128271,0.241294766555,0.303746343243,1.0,-0.0376525714286,-0.0494862367347,1.184
0.452977316875,0.465320824833,-0.124290033179,-1.48435492374,0.0715558071224,1.94108775252,0.141255868473,-0.0322254073451,-0.196254617645,0.000971982835232,-0.294641015197,-0.0189037026306,0.0970720802545,-0.0451293153766,0.573760139347,0.819007384684,0.0026368978513,0.0,0.818972079392,-0.573697818636,-0.0116744580418,0.0,-0.0080488397683,0.00885805493431,-0.999928372955,0.0,0.645974892526,0.240562810311,0.303767704415,1.0,-0.0391011428571,-0.0513900734694,1.199
0.452395148709,0.462002392647,-0.124301338776,-1.48959201045,0.0712017226476,1.94288846322,0.140484241287,-0.0305872632646,-0.193291770717,0.000844741255832,-0.310861511525,-0.0162059465258,0.11080383888,-0.0497404122442,0.573760985773,0.819007140904,0.00252611455637,0.0,0.818970311498,-0.573698968844,-0.0117417602268,0.0,-0.00816751340633,0.00880594628933,-0.999927870916,0.0,0.645272742641,0.239671460277,0.303718477575,1.0,-0.0407428571429,-0.053547755102,1.216
0.451712422112,0.458150198449,-0.124305739419,-1.49557470382,0.0707986458224,1.94499996763,0.139585330217,-0.0380802272739,-0.207441418117,-0.000336890339733,-0.318975569929,-0.0240609434077,0.112638737015,-0.0471733304541,0.573753988278,0.819012123009,0.00250004015481,0.0,0.818974900989,-0.573692010162,-0.0117616294203,0.0,-0.00819882187243,0.00879592127557,-0.999927702931,0.0,0.644479478166,0.238652332261,0.30370553108,1.0,-0.0425777142857,-0.0559592816326,1.235
0.45108487581,0.454834397956,-0.124328320876,-1.50084974498,0.0704366199975,1.94683356995,0.138764597824,-0.0421350699503,-0.209520308534,-0.0029758111261,-0.334286374283,-0.0271416123679,0.109149330826,-0.050854630928,0.573755149468,0.819011675401,0.00237716571242,0.0,0.818972859819,-0.573693637869,-0.0118241976293,0.0,-0.00832055126164,0.00873119658247,-0.999927264671,0.0,0.643777485001,0.237723295439,0.303634165811,1.0,-0.0441228571429,-0.0579900408163,1.251
0.450409831784,0.451061132668,-0.124379658295,-1.50650731558,0.0700490181722,1.9489227437,0.13786019949,-0.0422130469791,-0.23179340235,-0.00106368942643,-0.337690890649,-0.0291600119725,0.125187087348,-0.0564038978161,0.573756412682,0.819010338352,0.00252813768976,0.0,0.818973843003,-0.57369472111,-0.0117029205303,0.0,-0.00813459027246,0.00878527348453,-0.999928321137,0.0,0.643055745075,0.236721316729,0.303714221868,1.0,-0.0457645714286,-0.060147722449,1.268
0.449698719534,0.447177703428,-0.124411824208,-1.51239801575,0.069660507011,1.9509464167,0.136989046241,-0.0487954214249,-0.230906036364,-0.000993257923041,-0.355399053754,-0.0212191363835,0.114943227226,-0.0549113683803,0.573807770378,0.818974328492,0.00253748412167,0.0,0.818937855267,-0.573745931405,-0.0117107774137,0.0,-0.00813511150383,0.00879794626928,-0.999928205474,0.0,0.642263013713,0.235678486515,0.303749318502,1.0,-0.0474062857143,-0.0623054040816,1.285
0.449012318507,0.443461741753,-0.124416687941,-1.51813691823,0.0692609447669,1.95288850816,0.136116524625,-0.0406355275855,-0.236179235876,0.00101182075628,-0.36238413193,-0.0243346462594,0.122748939839,-0.058405819595,0.573804458035,0.818976888492,0.00245905616809,0.0,0.818939286054,-0.573742788096,-0.0117645980271,0.0,-0.00822422648649,0.00876456524265,-0.999927769639,0.0,0.641470797304,0.234677420222,0.303730869274,1.0,-0.0489514285714,-0.0643361632653,1.301
0.448251796559,0.439439667102,-0.124426231281,-1.52434657663,0.0688393956277,1.95510706197,0.135083371384,-0.042031936946,-0.238418565925,5.22719217479e-05,-0.366770957058,-0.0208589386388,0.137210282185,-0.0625620241718,0.573746923492,0.819017147014,0.00247539514503,0.0,0.818979731608,-0.573685173235,-0.0117587468088,0.0,-0.00821067585217,0.0087740121841,-0.99992779815,0.0,0.640635120207,0.233590709898,0.303718419245,1.0,-0.0505931428571,-0.066493844898,1.318
0.447386622285,0.43500390632,-0.124442932085,-1.53105674206,0.0683896802429,1.9575174493,0.134013377448,-0.0453692322017,-0.252779568643,-0.00170121036724,-0.369894594438,-0.0225515194737,0.134296795644,-0.0547233343559,0.573761390696,0.819006678442,0.0025834307891,0.0,0.818970661474,-0.573699240159,-0.0117040329486,0.0,-0.00810372489073,0.00883124627243,-0.999928166786,0.0,0.639740482588,0.23238928966,0.303762580289,1.0,-0.0523314285714,-0.0687784489796,1.336
0.446634035564,0.431228601368,-0.124462866727,-1.53680691586,0.0679708963683,1.95958303112,0.133090436199,-0.048110375777,-0.251292827802,-0.0031642146512,-0.396344517205,-0.024146400814,0.138226115757,-0.0624860689561,0.57376900127,0.819001184692,0.0026343035986,0.0,0.818966100822,-0.573706969331,-0.0116441378792,0.0,-0.00802539889777,0.00883862087899,-0.999928733337,0.0,0.638972116056,0.231345162303,0.303779275999,1.0,-0.05378,-0.0706822857143,1.351
0.445699296381,0.426584584805,-0.124516316548,-1.54405469346,0.0674400558043,1.96189917485,0.131930521447,-0.0479200600965,-0.262374347659,-0.00590385909736,-0.405883476047,-0.0264703508508,0.13389167213,-0.0721023984029,0.573784881826,0.818990884657,0.00236371272788,0.0,0.818952248399,-0.573723789345,-0.0117887778454,0.0,-0.00829894315387,0.00870015786098,-0.999927714785,0.0,0.637937225414,0.230003120965,0.303693937663,1.0,-0.0555182857143,-0.0729668897959,1.369
0.444787809519,0.422041000591,-0.124560199089,-1.55092256617,0.0669447481937,1.96425783698,0.130780735379,-0.0552257870908,-0.27085740554,-0.00171676912764,-0.407383160176,-0.0345711512651,0.133793443006,-0.0635744969178,0.573773915488,0.818998551367,0.00236931737895,0.0,0.818960151921,-0.573712975255,-0.0117659887044,0.0,-0.00827717894282,0.00869156126859,-0.999927969942,0.0,0.636988607651,0.228734287982,0.303718686006,1.0,-0.05716,-0.0751245714286,1.386
0.443880391055,0.417675627265,-0.124569834305,-1.55744991832,0.0665020519648,1.96660159894,0.129751355572,-0.0627453374018,-0.278879846309,8.02599073126e-05,-0.402338691073,-0.0218807386624,0.148747393736,-0.0719427487069,0.573831264599,0.818957925223,0.00251860757462,0.0,0.818921436203,-0.573769738263,-0.0116925481559,0.0,-0.00813076071175,0.0087722603201,-0.999928466531,0.0,0.636102037281,0.227534270014,0.30377722544,1.0,-0.0587051428571,-0.0771553306122,1.402
0.442836869848,0.412671830774,-0.124583535658,-1.56497155094,0.0659849829884,1.96929821117,0.128455454566,-0.0615935766971,-0.276584914809,0.000203357349631,-0.42791844729,-0.0368451662374,0.150177872188,-0.0780370316654,0.573801398677,0.818978398038,0.00266182731888,0.0,0.818943764509,-0.573739370825,-0.0116185987873,0.0,-0.00798834009143,0.00884682544865,-0.999928957528,0.0,0.635069654446,0.226151916137,0.303820816595,1.0,-0.0604434285714,-0.0794399346939,1.42
0.441816525943,0.407819626267,-0.124618055866,-1.57240259652,0.065454102337,1.97164451052,0.127255674425,-0.0587686435255,-0.288838068505,-0.000623266956651,-0.438499422585,-0.0265854432173,0.142543733988,-0.0727852495676,0.573832270823,0.81895740724,0.00245702870185,0.0,0.8189197864,-0.573770613377,-0.0117649296101,0.0,-0.00822536374824,0.00876337441604,-0.999927770721,0.0,0.63397611841,0.224759170722,0.30376965879,1.0,-0.0620851428571,-0.0815976163265,1.437
0.440903628378,0.403511421762,-0.124637941968,-1.57902345554,0.0650002425786,1.97390508921,0.126164460934,-0.0614716090234,-0.291103175818,-0.00212224351227,-0.441525243037,-0.0273423933718,0.154641255871,-0.0730776937739,0.573840222648,0.81895197454,0.00241022183582,0.0,0.818913504377,-0.573778485005,-0.0118181806758,0.0,-0.0082957486853,0.00875567921415,-0.999927256672,0.0,0.633024891911,0.223537715156,0.303723778086,1.0,-0.0635337142857,-0.0835014530612,1.452
0.439807532464,0.398407736316,-0.124645407441,-1.58645072852,0.0644737861124,1.97663196844,0.124865642937,-0.0617305457946,-0.300337109126,-0.00189399904255,-0.440713686966,-0.0347944598539,0.169070402175,-0.0716036724757,0.573826648317,0.81896045374,0.00273857497441,0.0,0.818926489739,-0.573763992537,-0.0116203344653,0.0,-0.00794545164969,0.00891092073206,-0.999928730105,0.0,0.632007758084,0.222145665855,0.303863541977,1.0,-0.0651754285714,-0.0856591346939,1.469
0.438669622438,0.393268285258,-0.124658288423,-1.5942114882,0.063869657983,1.97920561927,0.12356407249,-0.0687585382808,-0.303527710218,6.11831302346e-06,-0.461899008576,-0.0282058221578,0.142675130874,-0.0715764787468,0.573826819784,0.818960637365,0.00264617549145,0.0,0.818925569895,-0.573764587549,-0.0116557259752,0.0,-0.00802745353749,0.00885555943794,-0.999928566977,0.0,0.630802159264,0.220583008441,0.303842464046,1.0,-0.0669137142857,-0.0879437387755,1.487
0.437523155401,0.38802334179,-0.124669830532,-1.6021837346,0.0632827345033,1.98174566124,0.122199023084,-0.0719459961394,-0.306365843825,0.000947997983293,-0.481757396092,-0.0317339291212,0.157722764083,-0.0786299554581,0.573800179857,0.818979766066,0.00249865382894,0.0,0.818942487211,-0.573738159376,-0.0117674983445,0.0,-0.00820392794363,0.00879861584849,-0.999927637345,0.0,0.629671908967,0.219167430439,0.303797691747,1.0,-0.0684588571429,-0.0899744979592,1.503
0.436192018583,0.38198940893,-0.124673065157,-1.61103038949,0.0626453172563,1.98477100986,0.120591245429,-0.0688583178284,-0.325106223027,-0.00107500597298,-0.459494798616,-0.0306510564211,0.168798315035,-0.0763510121273,0.573723016562,0.819033347456,0.00265007983102,0.0,0.818997949818,-0.57366036393,-0.0117000833972,0.0,-0.00806266794136,0.00888318811801,-0.999928038588,0.0,0.628444719152,0.217579056391,0.30387960249,1.0,-0.0701971428571,-0.0922591020408,1.521
0.435155530673,0.377560903101,-0.124673462811,-1.61765943743,0.0621569224861,1.98707530865,0.119431221503,-0.0754690295435,-0.313882487415,-0.000117270367492,-0.482996448383,-0.0407937042952,0.153495111878,-0.0837336458658,0.573735791708,0.819024072508,0.00274897580244,0.0,0.818989948477,-0.573672781168,-0.0116512377745,0.0,-0.00796578498393,0.00893628773097,-0.999928341948,0.0,0.627417193256,0.216215178539,0.303896206953,1.0,-0.0716457142857,-0.0941629387755,1.536
0.433917128458,0.372381216709,-0.12471447155,-1.6255342475,0.0615260471621,1.98957168686,0.1180266162,-0.0779299555056,-0.328831101003,0.000619789930745,-0.486710462929,-0.0452332761453,0.157528015651,-0.0870885193589,0.573735504968,0.81902493582,0.00254396240784,0.0,0.818988225923,-0.573673304729,-0.011746154374,0.0,-0.0081611471381,0.00882283093728,-0.999927774058,0.0,0.62622351209,0.214650387866,0.303823066975,1.0,-0.0731908571429,-0.0961936979592,1.552
0.432424920285,0.366062553995,-0.124793823181,-1.63490747048,0.0608075789568,1.99263681288,0.116435379449,-0.0780295552524,-0.346710877443,-0.0051934204207,-0.496193303345,-0.0377011000521,0.164386032091,-0.0841003599493,0.573844006715,0.818948993085,0.00251983816182,0.0,0.818912116446,-0.573782039196,-0.0117415474137,0.0,-0.00817004785151,0.00880151207149,-0.999927889252,0.0,0.624819291635,0.212775619977,0.303836972504,1.0,-0.0750257142857,-0.0986052244898,1.571
0.431190490872,0.360991270777,-0.124804445526,-1.64225281874,0.0602369349631,1.9952009505,0.115019875765,-0.080334464132,-0.331035208762,-0.00267451402891,-0.501076859936,-0.0334617423894,0.164836355609,-0.100535981339,0.573798064595,0.818980477512,0.00273960265969,0.0,0.818946767048,-0.573735678555,-0.0115892534889,0.0,-0.00791971704451,0.00889365119351,-0.999929088011,0.0,0.623747068638,0.211310144708,0.303932006085,1.0,-0.0764742857143,-0.100509061224,1.586
0.429656618111,0.354866175468,-0.124827473336,-1.65145234496,0.0595663861803,1.99807855979,0.113316478487,-0.0840955434827,-0.346282732311,-0.00122987343121,-0.519783816038,-0.033922629485,0.163907817154,-0.0957637162698,0.573802191787,0.818978099377,0.00258153894733,0.0,0.818941686033,-0.5737396381,-0.0117511468306,0.0,-0.00814295745258,0.00885713419275,-0.999927619089,0.0,0.622313875165,0.20946552645,0.303865285546,1.0,-0.0782125714286,-0.102793665306,1.604
0.42834591245,0.349721887637,-0.124878184019,-1.6591927892,0.0589760522004,2.00054322331,0.111892310111,-0.0844133706082,-0.344022320012,-0.00675599251737,-0.508730939365,-0.0368310091224,0.164383854398,-0.104296823432,0.573839632431,0.818952252495,0.00245586785135,0.0,0.81891400473,-0.57377732746,-0.0118396896494,0.0,-0.00828717876877,0.00880539726494,-0.999926891151,0.0,0.621115910702,0.20788532824,0.303800227245,1.0,-0.0796611428571,-0.104697502041,1.619
0.426807412359,0.343650304806,-0.124894748818,-1.66783519593,0.0583215704906,2.00351884113,0.110269927338,-0.0921313485469,-0.354872342302,-0.00120627984325,-0.518790542762,-0.0380528252711,0.167812029638,-0.0961050529337,0.57388219317,0.818921377638,0.00278433309709,0.0,0.818887590411,-0.573818905463,-0.0116501032783,0.0,-0.00794296858285,0.00896601526437,-0.999928257337,0.0,0.619826443442,0.206120729461,0.303951150046,1.0,-0.0813028571429,-0.106855183673,1.636
0.425055226145,0.336857240093,-0.124901364467,-1.67790455821,0.057503276723,2.00661242538,0.108333118212,-0.099535500857,-0.368761032256,-0.00160866972809,-0.526752250096,-0.0409705168865,0.161727617531,-0.10887261086,0.573821888028,0.818964219771,0.00260661775064,0.0,0.818927860619,-0.57375894415,-0.0117720011311,0.0,-0.0081454342979,0.00888983496976,-0.999927308725,0.0,0.618214859876,0.204070590627,0.303900220996,1.0,-0.0831377142857,-0.109266710204,1.655
0.423575567001,0.331045880244,-0.124893533753,-1.68646721688,0.0567816119539,2.00929026324,0.106722762046,-0.0878986825562,-0.373174906988,1.59702316811e-05,-0.533828365377,-0.0417619878321,0.16644818873,-0.0983660379091,0.573766035211,0.819003649152,0.00251125770809,0.0,0.818966071805,-0.57370347608,-0.0118170075223,0.0,-0.00823761360592,0.00883700255428,-0.999927021891,0.0,0.616836404826,0.202346729473,0.30387384961,1.0,-0.0846828571429,-0.111297469388,1.671
0.421935486562,0.324759018182,-0.124889793885,-1.69542502968,0.0560934251481,2.01234106496,0.104902515589,-0.100927808381,-0.362921808076,-0.000899335523636,-0.540380457822,-0.0421216644734,0.173998090658,-0.112186232299,0.573693389728,0.819053520277,0.00282354490219,0.0,0.819020078022,-0.57362980714,-0.0116491655855,0.0,-0.00792177308204,0.00899576245462,-0.999928158304,0.0,0.615452488679,0.200516291978,0.303992297991,1.0,-0.0863245714286,-0.11345515102,1.688
0.420210111531,0.318430812555,-0.1249208393,-1.70472975463,0.0553244259486,2.01520278553,0.103156931908,-0.0996731931603,-0.373535120511,-0.00377638492282,-0.55257228771,-0.0438376723577,0.170975353636,-0.1068660236,0.573753966159,0.819011506552,0.0026991393843,0.0,0.818976333639,-0.573690679261,-0.0117267374223,0.0,-0.00805601687963,0.00893896548584,-0.999927595123,0.0,0.613944672639,0.198559522537,0.303948718845,1.0,-0.0879662857143,-0.115612832653,1.705
0.418552402923,0.312365023418,-0.124965990645,-1.71355272657,0.0545952537363,2.01789807384,0.101320841445,-0.106794331157,-0.391647363623,-0.00465024281991,-0.542915485887,-0.0465519818259,0.170878894701,-0.118834758647,0.573686173748,0.819059236304,0.00262457175866,0.0,0.819022987496,-0.573623047105,-0.0117767857984,0.0,-0.00814052706299,0.00890593525326,-0.999927205419,0.0,0.612505077179,0.19668768541,0.30393829966,1.0,-0.0895114285714,-0.117643591837,1.721
0.416715148903,0.305798218784,-0.124975644363,-1.72285956365,0.0537918615342,2.0209381368,0.0994344198665,-0.109039846466,-0.385337382579,0.000120232487351,-0.556583729756,-0.0459745554228,0.175101083068,-0.114949556282,0.573680194273,0.819062738413,0.00283057295518,0.0,0.819029689741,-0.573616933584,-0.0116072274215,0.0,-0.00788353468083,0.00897733261285,-0.999928626143,0.0,0.611026501009,0.19469650035,0.304040497516,1.0,-0.0911531428571,-0.119801273469,1.738
0.414809042828,0.299265174964,-0.12502008143,-1.73249010127,0.0529992303474,2.02377615836,0.0974872295334,-0.114814239443,-0.391295132599,-0.00320019487964,-0.573919734927,-0.0527576589069,0.165433753779,-0.106692708042,0.573713788572,0.819039973127,0.00259963902936,0.0,0.819003450066,-0.573650804384,-0.0117834761786,0.0,-0.00816001009787,0.00888962724784,-0.999927191731,0.0,0.609415374734,0.192605881638,0.303941724467,1.0,-0.0927948571428,-0.121958955102,1.755
0.412850098209,0.292570615814,-0.125115534043,-1.74201539829,0.052256773759,2.02675340391,0.0955165855724,-0.114075875381,-0.40572729534,-0.0022219690497,-0.5528813699,-0.045221223449,0.174380531591,-0.123923782874,0.573819015871,0.818965861632,0.00272055283162,0.0,0.818930710559,-0.573755359225,-0.0117484452529,0.0,-0.00806079901756,0.00896959824913,-0.999927282269,0.0,0.607867127358,0.190489269104,0.303996461155,1.0,-0.0944365714286,-0.124116636735,1.772
0.410846016728,0.285790461814,-0.125151623612,-1.75166272456,0.0514213200764,2.02976985194,0.0934668979746,-0.121464361369,-0.398058148888,-0.0023212627935,-0.577866502601,-0.0407708855713,0.170374745303,-0.112217441472,0.573812199025,0.818970342052,0.0028082006838,0.0,0.818936587192,-0.573748524946,-0.011672325438,0.0,-0.0079482403847,0.00899763424382,-0.999927931429,0.0,0.606277148344,0.1883655962,0.304038379258,1.0,-0.0960782857143,-0.126274318367,1.789
0.409028044843,0.279801413499,-0.125172992404,-1.76040284739,0.0506397719861,2.03226756517,0.091602229086,-0.12316304515,-0.395505864658,0.000157902815734,-0.592027496603,-0.0544465669194,0.164834663574,-0.120456884768,0.57377553454,0.81899682631,0.00256541583417,0.0,0.818959687441,-0.573712484169,-0.0118221299,0.0,-0.00821063385735,0.00888439210458,-0.999926823857,0.0,0.604768524547,0.186436297177,0.303948537003,1.0,-0.0975268571428,-0.128178155102,1.804
0.406905698236,0.272832180661,-0.125216587355,-1.77010971642,0.0498157822902,2.03533645808,0.0895053194468,-0.12322322816,-0.41647301672,-0.00181664715708,-0.561642349155,-0.0461734841793,0.193553386993,-0.124942639037,0.573823237532,0.818962575066,0.00281773169474,0.0,0.818928986014,-0.573759577033,-0.0116623552625,0.0,-0.00793448471515,0.00899982588814,-0.999928020953,0.0,0.603165274576,0.184254309806,0.304062895376,1.0,-0.0991685714286,-0.130335836735,1.821
0.404449418982,0.265069092215,-0.125289302937,-1.78118820369,0.0488419771571,2.03862511124,0.0870939969331,-0.125295703357,-0.413972913701,-0.00665628299475,-0.592651320649,-0.0492648171934,0.165280299039,-0.126085071185,0.573885621002,0.818919059079,0.00275963518022,0.0,0.818884710267,-0.57382214684,-0.0116928177978,0.0,-0.00799208543772,0.00897033576488,-0.999927827219,0.0,0.601275819665,0.181723138876,0.304039969537,1.0,-0.101003428571,-0.132747363265,1.84
0.402339651512,0.258440229078,-0.125372734996,-1.79071207178,0.0479830161869,2.04131103898,0.084991521197,-0.135548010993,-0.413411336609,-0.0039458962527,-0.589164883192,-0.0495376206104,0.173089091853,-0.141914467463,0.573912639369,0.81890079953,0.00255143165086,0.0,0.818863579788,-0.573849733012,-0.0118181437024,0.0,-0.00821390709836,0.0088720273139,-0.999926906759,0.0,0.599606338748,0.1795351552,0.303967489937,1.0,-0.102548571429,-0.134778122449,1.856
0.400056745916,0.251208150767,-0.125366132788,-1.80060411211,0.0470906754394,2.04437344678,0.0827710618248,-0.138287540587,-0.422142944238,0.000421872924712,-0.587167709631,-0.0562320706129,0.17531276399,-0.136768627813,0.573904070078,0.818905809257,0.00285321136481,0.0,0.818872941776,-0.573840576808,-0.0116122580427,0.0,-0.00787220867881,0.00900091303276,-0.999928503392,0.0,0.597918299443,0.1772911177,0.304116771856,1.0,-0.104190285714,-0.136935804082,1.873
0.397728564082,0.244045084301,-0.125368735212,-1.81085526805,0.0462222101721,2.04727277455,0.0804143444923,-0.14050349783,-0.421240510945,-0.00305688220673,-0.615404063396,-0.0558459470249,0.172494039149,-0.146440091282,0.573837577225,0.818952893543,0.00270924763896,0.0,0.818917299699,-0.573773630417,-0.0117908520475,0.0,-0.00810181353312,0.00898485671939,-0.999926813805,0.0,0.596076914061,0.174983660566,0.30402811875,1.0,-0.105832,-0.139093485714,1.89
0.395474461711,0.237135986331,-0.125365740934,-1.82038340418,0.0453732220672,2.05002887033,0.0781733897656,-0.140353540906,-0.444033097739,0.00144134420419,-0.588246978572,-0.0508344491852,0.17763342537,-0.139961103155,0.573779468406,0.818993252211,0.00281449278033,0.0,0.818958861783,-0.57371496555,-0.0117587376733,0.0,-0.00801576450873,0.00905205033518,-0.99992690128,0.0,0.59438265009,0.172799083857,0.304093027406,1.0,-0.107377142857,-0.141124244898,1.906
0.393046720958,0.229734844156,-0.125350239108,-1.83059645525,0.0444184523666,2.05303429694,0.0758168986598,-0.138449896978,-0.436305588962,0.00146005615913,-0.608253849213,-0.0562603879398,0.170448329356,-0.145610571652,0.573728266238,0.819028681956,0.00293965188794,0.0,0.818996143478,-0.573663593988,-0.0116681104776,0.0,-0.00787029740587,0.00910206359689,-0.999927602808,0.0,0.592558770201,0.170465654933,0.304149415164,1.0,-0.109018857143,-0.143281926531,1.923
0.390479529783,0.22234216877,-0.125379961668,-1.84108206204,0.0434138417448,2.05581686923,0.0732951122373,-0.156498054322,-0.435972397186,-0.000273202139168,-0.618462414179,-0.0617747078435,0.158350284916,-0.142273815065,0.573668748998,0.819071362162,0.002648963831,0.0,0.819034639386,-0.573604667939,-0.0118613365774,0.0,-0.00819598088688,0.00897424403388,-0.999926141693,0.0,0.59061862737,0.167990891878,0.304040306764,1.0,-0.110660571429,-0.145439608163,1.94
0.388007274721,0.215192623567,-0.125434919221,-1.8506865927,0.0425754494121,2.05870951957,0.0709337977659,-0.149292807315,-0.442097957389,-0.00178250621145,-0.606281736451,-0.0464941873542,0.180230471686,-0.142424135935,0.573717274173,0.819036133596,0.00300800276596,0.0,0.819004262116,-0.573652116985,-0.0116625132671,0.0,-0.00782662330643,0.00915472866425,-0.999927464825,0.0,0.588924589783,0.165681818124,0.304187449762,1.0,-0.112205714286,-0.147470367347,1.956
0.385272064335,0.207638286943,-0.125470598905,-1.86114768209,0.0415944167776,2.06156855991,0.0683620187471,-0.15974563767,-0.449080171407,-0.00156563994769,-0.618366784956,-0.0535039280595,0.167059939479,-0.149934167076,0.5737427307,0.819018560256,0.00293663525073,0.0,0.818985497044,-0.573677506198,-0.0117312154217,0.0,-0.00792355413048,0.00913593714606,-0.999926873297,0.0,0.586879689283,0.162991193471,0.30416269292,1.0,-0.113944,-0.149754971429,1.974
0.382354421722,0.199543362067,-0.125570060473,-1.87232194929,0.0404883435503,2.06452379182,0.0655415946768,-0.161588266989,-0.453806726356,-0.00405006665534,-0.602293859175,-0.0569696639817,0.178530138746,-0.166342341617,0.573733904579,0.819025228903,0.00279786677813,0.0,0.81899037359,-0.573669187131,-0.011797398222,0.0,-0.00805747195018,0.00906016773994,-0.999926492551,0.0,0.584906363851,0.160400801166,0.304130494861,1.0,-0.115585714286,-0.151912653061,1.991
0.379804666677,0.192719941859,-0.12561398595,-1.88156546513,0.0396154776995,2.06719433801,0.0632159980179,-0.167777434243,-0.453198395621,-0.00492343620831,-0.617330359321,-0.0648858369951,0.17477628523,-0.158413104106,0.573817466838,0.818966044189,0.00297995276922,0.0,0.818933811103,-0.57375239383,-0.0116769220286,0.0,-0.00785339880951,0.00914098188935,-0.999927380652,0.0,0.583221057849,0.158106543974,0.304183846388,1.0,-0.117034285714,-0.153816489796,2.006
0.376624366448,0.184506062441,-0.125765436179,-1.89290586606,0.0385512800398,2.07007462265,0.0602551972874,-0.175444307449,-0.466644776779,-0.0160017054006,-0.630672730412,-0.0639059706591,0.164840931109,-0.160660850082,0.573943153639,0.818878692645,0.002773089275,0.0,0.818843039636,-0.57387796692,-0.011870232721,0.0,-0.00812902232562,0.00908373854356,-0.999925699585,0.0,0.581066781232,0.155201960805,0.304104176632,1.0,-0.118772571429,-0.156101093878,2.024
0.373964954887,0.177505455101,-0.125836186726,-1.90215736337,0.0376328779644,2.07265720993,0.0578001577441,-0.171926993929,-0.465605926248,-0.00238861872217,-0.615877578936,-0.0591530564373,0.168686841396,-0.164644673212,0.573995976731,0.8188408352,0.00300868873244,0.0,0.818808798811,-0.573930577091,-0.011687196913,0.0,-0.00784332662924,0.00917212140609,-0.999927174556,0.0,0.579348586917,0.152846742417,0.304222948278,1.0,-0.120221142857,-0.158004930612,2.039
0.370924754448,0.169591755479,-0.125821819883,-1.91290403004,0.0365279622785,2.07540611016,0.0549254948499,-0.176026627152,-0.471014636964,-0.00196568990095,-0.637896115972,-0.0633319705541,0.152305101669,-0.177653731881,0.573894516827,0.818912328863,0.00290311776577,0.0,0.818878788596,-0.57382934182,-0.0117542739307,0.0,-0.00795997893618,0.00912319056698,-0.999926700378,0.0,0.57725206368,0.150191394862,0.3041909782,1.0,-0.121862857143,-0.160162612245,2.056
0.367599314675,0.1611480653,-0.1258415529,-1.92427313325,0.035412868241,2.07832063248,0.0517613004945,-0.190703682392,-0.484179770334,-0.00094729389726,-0.616746425729,-0.0661522276021,0.173151281845,-0.17572091375,0.573813555868,0.818969112078,0.00288850579115,0.0,0.818934947508,-0.573747947183,-0.0118148954596,0.0,-0.00801891456466,0.00914522158817,-0.99992602823,0.0,0.575031430013,0.147326940206,0.304181145178,1.0,-0.123601142857,-0.162447216327,2.074
0.364583804677,0.153515732677,-0.125829474804,-1.93432115681,0.0343593679153,2.08104129147,0.0489887757322,-0.189710712347,-0.478462410707,0.000609912074218,-0.646872250175,-0.0704248678706,0.158534273486,-0.177563925544,0.573763265818,0.819003613021,0.00308926492947,0.0,0.818972675294,-0.573697690279,-0.0116389085232,0.0,-0.00776015338445,0.0092081790148,-0.999927492101,0.0,0.573089968788,0.144784279967,0.304267366858,1.0,-0.125146285714,-0.16447797551,2.09
0.361055501881,0.144953222401,-0.125860666482,-1.94593853701,0.0331960601528,2.08371066082,0.0457579116823,-0.201682759747,-0.477471241208,-0.0063997461341,-0.643243989831,-0.063724211289,0.150919269567,-0.183643648363,0.573763318855,0.81900467239,0.00278342252411,0.0,0.818968566958,-0.573697461498,-0.0119354893846,0.0,-0.00817853659908,0.00912785729682,-0.99992489406,0.0,0.570724828017,0.141798348891,0.304152422459,1.0,-0.126884571429,-0.166762579592,2.108
0.358069688133,0.137650243935,-0.125940790135,-1.9553291993,0.0322549357823,2.08622464865,0.0430201930449,-0.200120208315,-0.485632400218,-0.00707812049007,-0.628150419968,-0.0678734348002,0.171692832862,-0.182560148988,0.573805670715,0.818973809884,0.0031141421105,0.0,0.818942508071,-0.573739190756,-0.0117156461835,0.0,-0.00780825234884,0.00927298610037,-0.999926518762,0.0,0.568902512655,0.139313735244,0.304297619773,1.0,-0.128333142857,-0.168666416327,2.123
0.354565361113,0.129398524601,-0.125984327559,-1.96624855617,0.0310689177857,2.08883470929,0.0397540796139,-0.203690166411,-0.488531665575,-0.00491494589319,-0.651428113233,-0.077074882755,0.145937896873,-0.185002051846,0.573724377931,0.819031098286,0.00302408811959,0.0,0.818998633398,-0.573658226942,-0.0117568727057,0.0,-0.00789460333137,0.00922210607085,-0.999926311284,0.0,0.566688971579,0.136424874438,0.304280087365,1.0,-0.129974857143,-0.170824097959,2.14
0.35050952721,0.120053292982,-0.126135787583,-1.97846425726,0.0297531387326,2.09178214586,0.0361981043347,-0.215363092391,-0.499731606959,-0.00455494675765,-0.632262374585,-0.0667985365187,0.162014477087,-0.190894588882,0.573898834236,0.818908808465,0.00303947068963,0.0,0.818876779521,-0.573832883117,-0.0117213103386,0.0,-0.0078546872811,0.00921597574489,-0.999926682152,0.0,0.564222645285,0.133087823597,0.304305859556,1.0,-0.131809714286,-0.17323562449,2.159
0.347014398013,0.112194533205,-0.126186181029,-1.9887311803,0.028672904242,2.09431967604,0.0329858066303,-0.223053024074,-0.498894520077,-0.0021985537892,-0.644306415756,-0.0697227120305,0.144622563192,-0.208273973134,0.573870438256,0.818928380431,0.00312645496586,0.0,0.818897516209,-0.573804238633,-0.0116747837561,0.0,-0.00776698818053,0.009260237765,-0.999926958278,0.0,0.562137332137,0.130305564521,0.304314875903,1.0,-0.133354857143,-0.175266383673,2.175
0.343245778856,0.103779905662,-0.126203546808,-1.99978894608,0.027438988302,2.09676195133,0.0295908640783,-0.229136151755,-0.493232535891,0.00125486075177,-0.651620184773,-0.0733379023644,0.148623579024,-0.205651515079,0.573824273781,0.818961450366,0.00293130272377,0.0,0.818927683135,-0.573758326963,-0.0118143529813,0.0,-0.00799379421137,0.00918006421249,-0.999925910093,0.0,0.559802019322,0.127327534666,0.304250549375,1.0,-0.134996571429,-0.177424065306,2.192
0.339443322405,0.0951945573452,-0.126200965157,-2.01065375882,0.0263013769513,2.0993948746,0.0260618076343,-0.228673968699,-0.501161598307,-0.00211316090409,-0.646354819775,-0.0683057677482,0.154380685271,-0.204455165411,0.573706102071,0.819043158718,0.00321861850054,0.0,0.819013262538,-0.573639345749,-0.0116586318394,0.0,-0.00770274473889,0.00932489900024,-0.999926854316,0.0,0.557546568657,0.124402772108,0.304367496314,1.0,-0.136638285714,-0.179581746939,2.209
0.335473715687,0.0866544933663,-0.126238185773,-2.02180819609,0.0251382454114,2.10174410277,0.0225026644043,-0.237829201116,-0.500642655134,-0.00157239106576,-0.665576977998,-0.0686496690997,0.136865872347,-0.217216795868,0.573712614948,0.819039289913,0.00303709226333,0.0,0.819005772142,-0.573644994164,-0.0119043172886,0.0,-0.00800804498498,0.00931723248061,-0.999924527349,0.0,0.555136635768,0.121349246737,0.304279710236,1.0,-0.13828,-0.181739428571,2.226
0.331378786026,0.0779425774841,-0.126369584718,-2.03269035459,0.0238551612243,2.10426794308,0.0188077859207,-0.240390079846,-0.514760844058,-0.0116230617027,-0.634071555223,-0.0795593836881,0.15776352101,-0.215448020915,0.573722564495,0.819031502293,0.0032502525308,0.0,0.819001854064,-0.573655504823,-0.0116649786464,0.0,-0.00768960777736,0.0093546044178,-0.999926677966,0.0,0.552859225221,0.118212463733,0.304407214984,1.0,-0.139921714286,-0.183897110204,2.243
0.326935394035,0.0687677425546,-0.126446543049,-2.04446105618,0.0225680448671,2.10677321976,0.0148903339122,-0.252569744779,-0.51908234431,-0.00203581243369,-0.657053279399,-0.0745520231478,0.132075131506,-0.220325200831,0.573785327914,0.81898779581,0.00318350217293,0.0,0.818956646163,-0.573717719275,-0.0117786755065,0.0,-0.00782031044991,0.00936576177044,-0.999925559855,0.0,0.55030321714,0.114879282078,0.304361139905,1.0,-0.14166,-0.186181714286,2.261
0.32308933593,0.0610508842087,-0.126590038741,-2.05429547869,0.0214221489604,2.10870001557,0.0114936985935,-0.257266655328,-0.515549297053,-0.0102276804425,-0.63916298353,-0.0797660557443,0.132832189739,-0.22607635385,0.573869374529,0.818929560071,0.00301056821714,0.0,0.818895721238,-0.573801858947,-0.0119151713494,0.0,-0.00803037100137,0.00930327247801,-0.99992447828,0.0,0.548136221794,0.111985989825,0.304317671526,1.0,-0.143108571429,-0.18808555102,2.276
0.318438184002,0.0516973569541,-0.126660040704,-2.06590622549,0.0200695600892,2.11131301951,0.00736734070635,-0.254052533663,-0.520285881063,-0.00152265354266,-0.66280602993,-0.0818247136395,0.134268558594,-0.229729750844,0.573871602111,0.81892707396,0.00325249559327,0.0,0.818897157918,-0.573804153673,-0.0117040541399,0.0,-0.00771861993636,0.00938026429707,-0.999926214052,0.0,0.545626449287,0.108608341914,0.304406344323,1.0,-0.144846857143,-0.190370155102,2.294
0.314258047558,0.0433769111354,-0.126648860846,-2.07649332713,0.0188907495225,2.11332198027,0.00367112379489,-0.264969663457,-0.521875510073,0.000623409249142,-0.659184799616,-0.0826381371879,0.124748245558,-0.234016480858,0.5738268675,0.818959098353,0.00307705409695,0.0,0.818925697732,-0.573758611983,-0.0119374901384,0.0,-0.00801098410891,0.00937011164889,-0.999924009683,0.0,0.543211715586,0.105621675609,0.304317107818,1.0,-0.146392,-0.192400914286,2.31
0.309912910944,0.0349047810195,-0.126696394511,-2.08677290999,0.0176603665062,2.11549561125,-0.000237361355388,-0.27056302992,-0.52013156186,-0.00318525161556,-0.638643009072,-0.08052054384,0.142784723296,-0.241329136155,0.573756729456,0.819007236871,0.00333290534251,0.0,0.818977969662,-0.573688545045,-0.0117168849746,0.0,-0.00768431191788,0.00945239964091,-0.999925798993,0.0,0.540937870556,0.102560526376,0.304444928968,1.0,-0.147937142857,-0.194431673469,2.326
0.305186802156,0.025935311737,-0.126807098793,-2.09791471502,0.0163036737117,2.11760863842,-0.00437851591102,-0.278498699521,-0.531766825703,-0.00969457215402,-0.670917082225,-0.0812876599648,0.116275227081,-0.250028418541,0.5737980181,0.818978622357,0.00325537233419,0.0,0.818948250295,-0.573729971161,-0.011765646275,0.0,-0.00776825766505,0.00941726730297,-0.999925481848,0.0,0.538396676235,0.099218267952,0.304421876687,1.0,-0.149578857143,-0.196589355102,2.343
0.300040111726,0.0163350194312,-0.126923628557,-2.10961189416,0.0148833732849,2.11979148367,-0.00889356724185,-0.293625945312,-0.541445712833,-0.00786502320543,-0.636579468836,-0.0872678527336,0.131777980365,-0.24808440731,0.573843497238,0.818946563433,0.00330360725599,0.0,0.818916878799,-0.573775353886,-0.0117360892651,0.0,-0.00771585010344,0.00944024000453,-0.999925671001,0.0,0.535712246839,0.0956456085008,0.304467456437,1.0,-0.14998,-0.197116571429,2.361
0.295353181284,0.00792213838844,-0.127027134169,-2.11995805523,0.0136307838079,2.12166505289,-0.012996794121,-0.289678927054,-0.526455376835,-0.00471948695225,-0.655352295042,-0.079809717383,0.115734963784,-0.259553170899,0.573894615841,0.818910950348,0.00325149343617,0.0,0.818880251784,-0.573826234637,-0.0118039223013,0.0,-0.00780071918217,0.00943697290917,-0.999925043352,0.0,0.533308449206,0.0924421316852,0.304437053308,1.0,-0.14998,-0.197116571429,2.377
0.290077389724,-0.00156247752794,-0.127041786667,-2.13152175716,0.0122685969531,2.12365031503,-0.0176469535369,-0.293434064176,-0.529480541978,-6.42105658426e-05,-0.632016505831,-0.075898334038,0.110872456576,-0.265944721388,0.573849932042,0.818942426058,0.00321017117853,0.0,0.818910314653,-0.573780653311,-0.0119333709477,0.0,-0.00793096233451,0.00947698885867,-0.999923640344,0.0,0.530563536379,0.0889329150006,0.304411650869,1.0,-0.14998,-0.197116571429,2.395
0.28506864718,-0.0105222293347,-0.127034624743,-2.14213303,0.0109165345068,2.12567037401,-0.0220596344994,-0.299585546604,-0.526775091814,-1.5250831644e-05,-0.628179703099,-0.0848673011092,0.118472036689,-0.257573522448,0.573763703413,0.819001814921,0.00346218173293,0.0,0.818974037777,-0.573694857767,-0.0116825733662,0.0,-0.00758195890927,0.00953865716205,-0.999925761204,0.0,0.528231797003,0.085853228524,0.304525218995,1.0,-0.14998,-0.197116571429,2.411
0.280219420574,-0.0188452543077,-0.127053310217,-2.15227478474,0.0096449597674,2.12717465043,-0.0263236806736,-0.304817028044,-0.518619050255,-0.000666193095702,-0.635600107493,-0.081457072654,0.0791457547448,-0.270522818118,0.573692687132,0.819052557673,0.00321798107465,0.0,0.819020539852,-0.573623391929,-0.0119292260418,0.0,-0.00792490646042,0.0094794848498,-0.999923664699,0.0,0.525591094312,0.0825093475702,0.304431166817,1.0,-0.14998,-0.197116571429,2.428
0.274967207276,-0.0277712560579,-0.127188523862,-2.16263037339,0.00831045688585,2.12895916503,-0.0308279195511,-0.316312899884,-0.526349362123,-0.0106655576842,-0.600224542152,-0.0772419045668,0.115456075764,-0.256834610386,0.57382170011,0.818961165465,0.00346595499668,0.0,0.818933246352,-0.573752593822,-0.0117066649114,0.0,-0.00759884957156,0.00955610812393,-0.999925466364,0.0,0.523121387869,0.0791089915652,0.304567018036,1.0,-0.14998,-0.197116571429,2.445
0.269632582243,-0.0365073720413,-0.127314580395,-2.17305726348,0.0069701672047,2.13057371288,-0.0354126173948,-0.311365790639,-0.515285577784,-0.00511273116895,-0.619345605092,-0.0692915749501,0.0833529541479,-0.275983770083,0.573930898555,0.818884912619,0.00340153939845,0.0,0.81885584309,-0.573861600937,-0.0117778651858,0.0,-0.00769285136992,0.00954523493643,-0.99992485144,0.0,0.520563509877,0.0756940676311,0.304531687913,1.0,-0.14998,-0.197116571429,2.462
0.264616498885,-0.0446851447869,-0.127328592901,-2.18284952848,0.00580555760059,2.13197957643,-0.0398786808122,-0.314935026868,-0.508065366664,-0.000453106603322,-0.604846587593,-0.0737615659501,0.0829501702833,-0.276229878357,0.573852507876,0.818940237888,0.00330648951847,0.0,0.818908548148,-0.5737818678,-0.0119960350045,0.0,-0.00792698464754,0.0095918519758,-0.999922576648,0.0,0.518102593058,0.0725788700087,0.304453927778,1.0,-0.14998,-0.197116571429,2.478
0.258882613011,-0.0539659420749,-0.127341777731,-2.1933884655,0.00435894339564,2.13371493521,-0.0448257852059,-0.321025033242,-0.511943594808,-0.00114634699389,-0.591580062269,-0.0848298425771,0.087788198549,-0.277707769017,0.573829607109,0.818955014434,0.00360738690881,0.0,0.81892889099,-0.573759992334,-0.0116485879037,0.0,-0.00747003901108,0.0096386835553,-0.999925644384,0.0,0.515513123361,0.069073128205,0.304613493865,1.0,-0.14998,-0.197116571429,2.496
0.253408531102,-0.0625929769018,-0.127362333578,-2.20363352368,0.00306538364766,2.13499982351,-0.0496418034086,-0.325274186966,-0.513883992174,-0.00298103714814,-0.602384683764,-0.0682408562855,0.0866614594135,-0.280524162773,0.573764288713,0.819001671426,0.00339854374165,0.0,0.818971398195,-0.573693585719,-0.0119275120794,0.0,-0.00781908012509,0.0096270759553,-0.99992308774,0.0,0.512864298697,0.0657499112751,0.30450541986,1.0,-0.14998,-0.197116571429,2.513
0.248816271157,-0.0696638216808,-0.127456790462,-2.21180681355,0.00197188451763,2.13609875666,-0.0536447634722,-0.336019435647,-0.505177123744,-0.0127953732499,-0.576282103728,-0.0767004078068,0.0888736307592,-0.287678028573,0.573794757112,0.818980238378,0.00341946756155,0.0,0.818950232481,-0.573723967459,-0.0119194288137,0.0,-0.00780009633116,0.00963986511283,-0.999923112793,0.0,0.510630869015,0.0627677856204,0.304516123301,1.0,-0.14998,-0.197116571429,2.528
0.243429655512,-0.0777628933227,-0.127600046705,-2.22095509466,0.000745222409702,2.13740127396,-0.0582864694141,-0.336825548003,-0.501728464607,-0.00710169488934,-0.576670662812,-0.0652454028888,0.0720984452638,-0.292587544111,0.573916793083,0.818894024778,0.00358297377395,0.0,0.818866631107,-0.573846022417,-0.0117868535257,0.0,-0.00759625492597,0.0096988375723,-0.999924111851,0.0,0.508446377837,0.0597351053804,0.304585253413,1.0,-0.14998,-0.197116571429,2.543
0.23780112421,-0.0862950649883,-0.127615235027,-2.23085397769,-0.000520394888982,2.13852368222,-0.0632417416564,-0.32938847921,-0.503377146451,0.00067459099043,-0.579260955852,-0.0695988673197,0.0646590427124,-0.290045937695,0.573844369713,0.818945329206,0.0034545653692,0.0,0.818914943894,-0.57377240865,-0.0120118541689,0.0,-0.00785506880843,0.00972211727102,-0.999921886114,0.0,0.505815250062,0.0564472499685,0.304508140068,1.0,-0.14998,-0.197116571429,2.56
0.232049259943,-0.0948420570733,-0.127640700334,-2.24040751785,-0.00181014201814,2.13969937807,-0.0683023079314,-0.342789353101,-0.504650457775,-0.00466919448615,-0.550940832582,-0.0775735488635,0.079236958997,-0.304242202267,0.573776740846,0.818992132065,0.00358973285506,0.0,0.818963811129,-0.573704674311,-0.0119151011911,0.0,-0.00769907584086,0.00977665745915,-0.999922567602,0.0,0.503297931576,0.0531373371683,0.304576806512,1.0,-0.14998,-0.197116571429,2.577
0.225848662853,-0.103787754392,-0.127697386172,-2.25045785498,-0.00325197181645,2.1408176262,-0.0736405765205,-0.345341158474,-0.498260584669,-0.00210835930418,-0.563800337133,-0.078138249075,0.0527939334461,-0.29179015045,0.573791934066,0.818981575253,0.00356969162076,0.0,0.818953269313,-0.573720286715,-0.0118879011672,0.0,-0.00768811554423,0.00974478004317,-0.999922963103,0.0,0.500605723957,0.0495900946806,0.304590733915,1.0,-0.14998,-0.197116571429,2.595
0.220208418812,-0.111696641616,-0.127821642496,-2.25946133043,-0.00448241267914,2.14166861859,-0.0784988674651,-0.35790170276,-0.491258881019,-0.00721514724046,-0.553653086833,-0.0752543141801,0.0540243570004,-0.309258580511,0.573891039224,0.818912757977,0.00342298419648,0.0,0.818881459658,-0.573818574171,-0.0120890804723,0.0,-0.00793588311029,0.00974102079555,-0.999921064021,0.0,0.498141015205,0.0463724803142,0.304516120229,1.0,-0.14998,-0.197116571429,2.611
0.214189786312,-0.120149745482,-0.127908994192,-2.26856761001,-0.00578611128323,2.14275173513,-0.0837341146385,-0.351826047381,-0.490618321187,0.000635251051744,-0.532030338831,-0.0677531909626,0.062386980112,-0.316724301477,0.573918285002,0.818892370457,0.00371949585462,0.0,0.818866351714,-0.573846538722,-0.011781125916,0.0,-0.00751319895844,0.00980736240394,-0.99992368083,0.0,0.495695740257,0.0430150440807,0.304663957291,1.0,-0.14998,-0.197116571429,2.628
0.20782548542,-0.128893777271,-0.1279119686,-2.2783616321,-0.00711291507368,2.14360507301,-0.0893572599114,-0.355635962086,-0.495120711494,-0.00689540372634,-0.532035212841,-0.0749613864902,0.0466346998953,-0.312368957984,0.573814351331,0.81896563405,0.0036231690146,0.0,0.818937331408,-0.573741627963,-0.0119556877572,0.0,-0.00771268300879,0.00982768279251,-0.999921962541,0.0,0.492953196579,0.0395441813746,0.304600970163,1.0,-0.14998,-0.197116571429,2.646
0.202354444566,-0.136218886472,-0.127962951547,-2.28647691724,-0.00830296198385,2.14427324028,-0.0941132106493,-0.367467746226,-0.479460089063,-0.00931896644216,-0.537997753893,-0.0881753398182,0.0438259595026,-0.319920198685,0.573801579112,0.818975004444,0.00352658561916,0.0,0.818945161497,-0.57372885997,-0.0120318161707,0.0,-0.00783060351839,0.00979214387687,-0.999921394694,0.0,0.490663619362,0.0365672993784,0.304565527299,1.0,-0.14998,-0.197116571429,2.661
0.197253176817,-0.143113396416,-0.128037904642,-2.29373632043,-0.00931556655786,2.14501931015,-0.0986176483546,-0.367222185146,-0.493068874369,-0.00287168353388,-0.518326319102,-0.064983610628,0.0523695891678,-0.322222928023,0.573795827672,0.818977706298,0.00382251673745,0.0,0.818952700188,-0.573723325745,-0.0117799512778,0.0,-0.00745459398647,0.00988993770896,-0.999923306139,0.0,0.48864660293,0.0338250424543,0.304698139028,1.0,-0.14998,-0.197116571429,2.675
0.189380926591,-0.15318441253,-0.128212721448,-2.30477074484,-0.0109328072159,2.14579072687,-0.10543580552,-0.37487496165,-0.47644819459,-0.000894677972013,-0.522422807846,-0.0786926541348,0.026519065299,-0.328844354778,0.573910577808,0.818897841777,0.00370409436429,0.0,0.818870586013,-0.573837539301,-0.0119242925437,0.0,-0.00763937611508,0.00987684170626,-0.999922040926,0.0,0.485466367087,0.0296003007826,0.304641352936,1.0,-0.14998,-0.197116571429,2.696
0.183456215773,-0.160864355314,-0.128223068016,-2.31310397186,-0.0121639630656,2.14628787156,-0.110670120214,-0.378226189192,-0.474204915367,0.00020907327143,-0.524630879362,-0.0823940206553,0.0243838117168,-0.328608080777,0.573798530192,0.818976825568,0.00359900453224,0.0,0.818947701742,-0.573725255806,-0.0120307756346,0.0,-0.00778823659009,0.00985082752538,-0.999921149175,0.0,0.483018612189,0.0265146419686,0.304606436039,1.0,-0.14998,-0.197116571429,2.712
0.176628485293,-0.169505146641,-0.128247856681,-2.3220761203,-0.0134046739009,2.14700333102,-0.116690092938,-0.381458040979,-0.470720268455,-0.000893491173658,-0.509547426111,-0.0743725679509,0.0372404064788,-0.341355477398,0.573771342594,0.818994377201,0.00392472073675,0.0,0.818970332592,-0.573698013174,-0.0117868959284,0.0,-0.00740193951138,0.00997740504495,-0.999922828362,0.0,0.480417609988,0.0230225890607,0.304740859941,1.0,-0.14998,-0.197116571429,2.73
0.171237233674,-0.176104386578,-0.12831107247,-2.3292361002,-0.0144402575283,2.14733006708,-0.121379727347,-0.389499379934,-0.473882322227,-0.0121805262115,-0.507013970996,-0.0834316993394,0.019463322787,-0.327792961619,0.573804796047,0.818971537964,0.00379775463067,0.0,0.818944826502,-0.57373055681,-0.0119735638181,0.0,-0.00762726694463,0.00998083201364,-0.999921100783,0.0,0.478262647889,0.0202626222031,0.30466868615,1.0,-0.14998,-0.197116571429,2.744
0.164137084195,-0.184610363555,-0.128486318627,-2.33825603395,-0.0158407892761,2.147749301,-0.127584821929,-0.390472916366,-0.474587669931,-0.00824192041826,-0.495445717502,-0.0739731375899,0.0171780596488,-0.339504761355,0.573881306663,0.818918218761,0.00373413232434,0.0,0.818890455424,-0.573807000819,-0.0120289121172,0.0,-0.00770817242119,0.00996120490733,-0.999920676091,0.0,0.475537936602,0.0166215448347,0.304648251892,1.0,-0.14998,-0.197116571429,2.762
0.157114470524,-0.193119860642,-0.128509924754,-2.34693292571,-0.017115159603,2.14825974325,-0.133816681212,-0.387268892267,-0.478221511246,-0.000954785089209,-0.478049856967,-0.080822485445,0.0209615778304,-0.349099748565,0.573804605059,0.818970712224,0.00399932920499,0.0,0.81894746485,-0.573730788893,-0.0117804326504,0.0,-0.00735343259454,0.0100351002247,-0.999922608902,0.0,0.472921381815,0.0131484471965,0.3047711359,1.0,-0.14998,-0.197116571429,2.78
0.150310318033,-0.200978767561,-0.128563965782,-2.35525020748,-0.0183938066022,2.14849881829,-0.139847236735,-0.412353075957,-0.458958776284,-0.00260978147562,-0.495175224781,-0.0702001563887,0.00651353370926,-0.357135762803,0.573735887868,0.819019513417,0.00386193175781,0.0,0.818993776838,-0.57366161094,-0.0119288111712,0.0,-0.00755463257762,0.010007077812,-0.99992138987,0.0,0.470328426947,0.00979952082217,0.304706089637,1.0,-0.14998,-0.197116571429,2.797
0.143853626455,-0.208374825047,-0.128691022593,-2.36299405712,-0.0195017136293,2.1486895957,-0.14552118425,-0.411991813872,-0.45737350136,-0.0110669211613,-0.486168143879,-0.0670426708009,0.00861478080722,-0.35155405219,0.57381491585,0.818964257065,0.00383860639041,0.0,0.818937077517,-0.573739212875,-0.0120882413501,0.0,-0.00769762679069,0.010080184367,-0.999919564978,0.0,0.467888501931,0.00663616330814,0.30466082329,1.0,-0.14998,-0.197116571429,2.813
0.136826766768,-0.216277077365,-0.128845069194,-2.37086607536,-0.0206882120521,2.14896601036,-0.15165480166,-0.41956752529,-0.462830910505,-0.00305202851027,-0.454787426589,-0.0749387190328,0.0205545264765,-0.365490492187,0.573959971756,0.818861355476,0.00409612382463,0.0,0.818838401143,-0.573884479378,-0.011875354516,0.0,-0.00737370897395,0.0101702374347,-0.99992109423,0.0,0.465415616003,0.00322422652531,0.304780644251,1.0,-0.14998,-0.197116571429,2.83
0.129903888987,-0.224010205482,-0.128846964712,-2.37880830522,-0.0219569412244,2.1491339926,-0.157862635268,-0.411067513952,-0.456301255562,-0.000747836061021,-0.469291245604,-0.0800595373987,0.00413198629138,-0.366489222047,0.573792361379,0.818979018821,0.00405458458084,0.0,0.818955699797,-0.573717279865,-0.0118655574889,0.0,-0.00739159970454,0.0101290864197,-0.99992137984,0.0,0.462865116956,-4.33897142965e-05,0.304763551867,1.0,-0.14998,-0.197116571429,2.847
0.122765954605,-0.231665425693,-0.12889560999,-2.38671805014,-0.0231879240492,2.14915637036,-0.164166368945,-0.420961281344,-0.455234136816,-0.00635903548905,-0.460925907115,-0.0750983321339,0.00283767520392,-0.373547220565,0.5737704803,0.818994961586,0.00392883367707,0.0,0.818969134663,-0.57369467687,-0.0120300083705,0.0,-0.00759871157516,0.0101202520437,-0.999919916834,0.0,0.460268975255,-0.00338828574589,0.304693275559,1.0,-0.14998,-0.197116571429,2.864
0.115537687468,-0.239380364038,-0.129044824123,-2.39439393035,-0.0243859603885,2.14917295241,-0.170538978693,-0.430903313983,-0.448800332684,-0.00913233288085,-0.442022299481,-0.0767702589752,0.00175856309226,-0.376898845606,0.573859177094,0.818932397589,0.00401496519891,0.0,0.818907722705,-0.573783082165,-0.0119942992928,0.0,-0.00751894593365,0.0101711205554,-0.99992000368,0.0,0.457730503471,-0.00677792313927,0.304735099351,1.0,-0.14998,-0.197116571429,2.881
0.109074906681,-0.246139841686,-0.129155661847,-2.40098745181,-0.0254384779877,2.14924551892,-0.176263048484,-0.429574469957,-0.446058427302,0.00031864793865,-0.446793316415,-0.0779479410352,-0.000353535142783,-0.382826254756,0.573908527661,0.8188969161,0.00419399354694,0.0,0.818875502769,-0.573833084753,-0.011800369019,0.0,-0.00725677325935,0.0102068874981,-0.99992157627,0.0,0.455543751568,-0.00976818999269,0.304820802443,1.0,-0.14998,-0.197116571429,2.896
0.101779947366,-0.253650871549,-0.129177716839,-2.40863577955,-0.0265700370903,2.1491880167,-0.182791695331,-0.434974064594,-0.443451056219,-0.00398653039355,-0.440948015764,-0.0645466733668,-0.00435151896493,-0.3905123696,0.573842384557,0.818943527304,0.0041429064502,0.0,0.81892038171,-0.573765640566,-0.0119643230729,0.0,-0.00742119044685,0.0102585437221,-0.999919840894,0.0,0.452947881109,-0.0130502314187,0.304743084311,1.0,-0.14998,-0.197116571429,2.913
0.0943291652744,-0.261129728455,-0.129266924283,-2.41608759604,-0.0277761154964,2.14908663973,-0.189415581462,-0.43975783768,-0.443008704742,-0.0108856493347,-0.435446773194,-0.0739410472205,-0.0117886302397,-0.385104712059,0.573843669208,0.818942747162,0.00411911176215,0.0,0.81891909087,-0.573766734659,-0.0120001544993,0.0,-0.00746417389505,0.0102596294781,-0.999919509816,0.0,0.450384286641,-0.016405579325,0.304716788341,1.0,-0.14998,-0.197116571429,2.93
0.0872072079117,-0.268199961699,-0.129431878853,-2.42277356292,-0.0288526426164,2.14900595294,-0.195756778332,-0.44975902601,-0.44220110261,-0.00669135629934,-0.407582676179,-0.0700032311011,-0.0094713041001,-0.405658604725,0.573939685035,0.818874204361,0.00436145333387,0.0,0.818854779272,-0.573863416787,-0.01176334299,0.0,-0.00712995689302,0.0103230450283,-0.999921296131,0.0,0.448065537399,-0.0196118555665,0.304837573048,1.0,-0.14998,-0.197116571429,2.946
0.0787640186361,-0.276437692341,-0.129460261879,-2.43081911009,-0.0301430355903,2.14881014564,-0.203350750067,-0.443793606169,-0.425174728608,0.00224630034477,-0.42268830559,-0.0626581034243,-0.0234508769928,-0.411095136149,0.573821803041,0.818956714713,0.00438003232514,0.0,0.818937602398,-0.573745596678,-0.0117448104729,0.0,-0.00710560394484,0.0103266003118,-0.999921432773,0.0,0.445068995907,-0.0234869949745,0.304831772179,1.0,-0.14998,-0.197116571429,2.966
0.0715162857773,-0.283276078979,-0.129501423805,-2.43756538327,-0.0312632258096,2.14853337071,-0.209842739494,-0.460235757513,-0.435052131317,-0.0043787383812,-0.418695804121,-0.0708778719425,-0.0125044090063,-0.399613902592,0.573789750721,0.818979656395,0.00428850563269,0.0,0.818958853523,-0.573713133043,-0.0118483800929,0.0,-0.00724334971165,0.0103107872308,-0.999920607624,0.0,0.44278842055,-0.0264301548385,0.304778160955,1.0,-0.14998,-0.197116571429,2.981
0.0637039945959,-0.290569218322,-0.129630369529,-2.44453851947,-0.0323571153672,2.14826324666,-0.216859281589,-0.459910274459,-0.43364292927,-0.00957143884858,-0.400073313616,-0.0511097579158,-0.0163301120224,-0.415724701816,0.573836937884,0.818946000243,0.00440048947386,0.0,0.818926585507,-0.573759836232,-0.0118171391743,0.0,-0.00715291245699,0.0103849887209,-0.999920490765,0.0,0.440246341296,-0.0298016040199,0.304800668878,1.0,-0.14998,-0.197116571429,2.998
0.0567283121626,-0.296928373781,-0.129739479727,-2.45043932632,-0.0333085485603,2.14805987056,-0.223083376356,-0.462358793025,-0.414989817193,-0.00617627510838,-0.399420641917,-0.0637020002049,-0.00664339446617,-0.420022700787,0.573924299872,0.818883625979,0.00460999156646,0.0,0.818867867782,-0.573847908482,-0.0116077537179,0.0,-0.00686009751359,0.0104371468376,-0.999921999472,0.0,0.438074406978,-0.0327856571166,0.304890209173,1.0,-0.14998,-0.197116571429,3.013
0.0488647635171,-0.304046675361,-0.129771837201,-2.45724555165,-0.0344740544602,2.14762673863,-0.23022663952,-0.473211054738,-0.414673391809,-0.00117250096084,-0.401944987685,-0.065875345178,-0.0259386826387,-0.418732318556,0.573796642083,0.818973470949,0.00454029926838,0.0,0.818956648037,-0.573720241058,-0.0116550648501,0.0,-0.00694046094909,0.0104061456947,-0.999921768007,0.0,0.435506599565,-0.0360781484341,0.304867920401,1.0,-0.14998,-0.197116571429,3.03
0.0408090084441,-0.311076480056,-0.129861890261,-2.46401348548,-0.03560075887,2.14713057496,-0.237423011058,-0.474860878516,-0.425811198418,-0.00636035045584,-0.395997757515,-0.0691562795944,-0.0225747986579,-0.436957035262,0.573841873948,0.818942299301,0.00444533696077,0.0,0.818923325232,-0.573764413394,-0.0118208381633,0.0,-0.00713014550886,0.010423882741,-0.999920248667,0.0,0.432903559485,-0.0394327951333,0.304802213068,1.0,-0.14998,-0.197116571429,3.047
0.0326476718328,-0.318084654547,-0.130039914679,-2.47053178912,-0.0366656195781,2.14668190614,-0.244785588567,-0.483021161241,-0.410513339186,-0.00675540606044,-0.37704814068,-0.060638614593,-0.0179628991876,-0.436084825452,0.573936316475,0.818875505549,0.00455608873203,0.0,0.81885791653,-0.573858390218,-0.0117901405241,0.0,-0.0070402430832,0.0104977812646,-0.999920112592,0.0,0.430365512166,-0.0428315361049,0.304826813821,1.0,-0.14998,-0.197116571429,3.064
0.0235663003833,-0.325835997205,-0.130070457654,-2.47750817514,-0.0378822183432,2.14622963037,-0.253097381756,-0.484534717657,-0.410834640692,-0.00031403280079,-0.366519328006,-0.0643778812621,-0.0237593114808,-0.441121972956,0.573802225183,0.818968391638,0.00474623782969,0.0,0.818955016918,-0.573726414788,-0.0114642113309,0.0,-0.00666591304081,0.0104653467441,-0.999923018097,0.0,0.427624308988,-0.0465180604463,0.304947795183,1.0,-0.14998,-0.197116571429,3.083
0.0157409599188,-0.332214992642,-0.130121742052,-2.48356743732,-0.0388856225592,2.14561965997,-0.26016826331,-0.493797481726,-0.394907166819,-0.00211205647655,-0.382157222387,-0.0632492240357,-0.0447008265508,-0.444908904424,0.573796270386,0.818973214221,0.00463264296764,0.0,0.81895718845,-0.573718976501,-0.011679314587,0.0,-0.00690734361305,0.010495685485,-0.99992106148,0.0,0.425166263913,-0.0496532924299,0.304868287498,1.0,-0.14998,-0.197116571429,3.099
0.00731018507852,-0.338992135192,-0.130298988926,-2.48979759662,-0.0398939373898,2.14500749363,-0.267772756479,-0.496644179338,-0.403288299604,-0.00697878153757,-0.35815520204,-0.0627992074962,-0.0225627333613,-0.447040825896,0.573933277021,0.818876782584,0.00470694960937,0.0,0.818861114679,-0.573854797494,-0.0117427918986,0.0,-0.00691492716738,0.0105941210093,-0.999919970989,0.0,0.422599469103,-0.0530464775614,0.304864174476,1.0,-0.14998,-0.197116571429,3.116
-8.72458215851e-05,-0.344892269882,-0.130351072876,-2.49518749702,-0.0407962012418,2.14446656313,-0.274593148034,-0.49805432626,-0.382596270393,-0.000819779557315,-0.357604280328,-0.0617940124164,-0.0345713431082,-0.461804210475,0.573843600412,0.818939430722,0.00474109437563,0.0,0.818924114078,-0.573764883176,-0.0117431306119,0.0,-0.00689677202184,0.0106215213589,-0.999919805694,0.0,0.420356227932,-0.0559560915906,0.304865233252,1.0,-0.14998,-0.197116571429,3.131
-0.00865106006497,-0.351523359558,-0.130427223151,-2.50104003134,-0.0418663441378,2.14383424479,-0.282382285563,-0.500361838688,-0.384692129507,-0.00933744743831,-0.335778374456,-0.0658061089201,-0.0307304033093,-0.460451252847,0.573837315383,0.818943332922,0.00482699052203,0.0,0.81893015971,-0.573759937957,-0.0115617478684,0.0,-0.00669901152807,0.0105877343238,-0.999921508483,0.0,0.417862408241,-0.0593199154843,0.304943412962,1.0,-0.14998,-0.197116571429,3.148
-0.0173009256583,-0.358029390488,-0.130610309957,-2.50689744586,-0.0428798959357,2.14315054928,-0.290258434008,-0.514393865344,-0.378512500265,-0.0180767778765,-0.354166035897,-0.0561218879585,-0.0497490245764,-0.462544619134,0.573934347969,0.818874983254,0.00488599253175,0.0,0.818862359063,-0.573856437038,-0.0115746913919,0.0,-0.00667449545875,0.0106442732631,-0.999921072164,0.0,0.415316681369,-0.0627109440431,0.304946928785,1.0,-0.14998,-0.197116571429,3.165
-0.0259232446087,-0.364465303787,-0.130672205682,-2.51279738525,-0.0439217394456,2.14236612984,-0.298266343968,-0.51156620088,-0.378779956946,0.00258048693314,-0.342093165664,-0.0672738817864,-0.0422262984523,-0.469342858042,0.57379011182,0.818976651333,0.00478529520874,0.0,0.818961846089,-0.573711163028,-0.0117363950404,0.0,-0.00686658843238,0.0106534067319,-0.999919674218,0.0,0.41271644844,-0.0660011197925,0.304882340852,1.0,-0.14998,-0.197116571429,3.182
-0.0352822930295,-0.371220192526,-0.130743832158,-2.51880432403,-0.0449990487649,2.14156690482,-0.306826444131,-0.522611552386,-0.372209149074,-0.00706375968279,-0.325820131936,-0.0636337916172,-0.0465677512348,-0.480609326758,0.573779757436,0.818983880644,0.00478958274368,0.0,0.818969190318,-0.573700888464,-0.011726158225,0.0,-0.00685587868965,0.0106509579875,-0.999919773793,0.0,0.410008832597,-0.069551779195,0.304886228341,1.0,-0.14998,-0.197116571429,3.2
-0.0442265623044,-0.377455795593,-0.130901555019,-2.52426739725,-0.0458999386979,2.14076678215,-0.314937175099,-0.52395113272,-0.365139859528,-0.0109046932756,-0.313410144242,-0.0491509563854,-0.0461007753605,-0.484932460901,0.573959738957,0.818857102906,0.00489999774791,0.0,0.818843444778,-0.573879850519,-0.0117506175476,0.0,-0.00681019778465,0.0107569195195,-0.99991895166,0.0,0.407472811709,-0.0729389186078,0.304907008282,1.0,-0.14998,-0.197116571429,3.217
-0.0531002119367,-0.383621258253,-0.130972343643,-2.52953229502,-0.0468378512254,2.14005663402,-0.323230194314,-0.52153553731,-0.357156570516,-0.0020713942325,-0.312523759584,-0.0519476082807,-0.0532435723751,-0.493409066802,0.57385414408,0.81893023129,0.00504425450016,0.0,0.818919518108,-0.573775551737,-0.0115406235656,0.0,-0.00655682185603,0.0107536801645,-0.999920680079,0.0,0.405006353009,-0.0762482508003,0.304985951626,1.0,-0.14998,-0.197116571429,3.234
-0.0622290761812,-0.389679490587,-0.131048261319,-2.53497148723,-0.0479024926884,2.13916832874,-0.331592111422,-0.538993179118,-0.350371012104,-0.00630371294008,-0.316434685028,-0.056670608373,-0.0556902439764,-0.493053778062,0.573839391947,0.818941534346,0.00488492317395,0.0,0.818928106829,-0.573760246557,-0.011691117075,0.0,-0.00677169700709,0.0107094305901,-0.999919722886,0.0,0.40239208791,-0.0796180678099,0.304914839028,1.0,-0.14998,-0.197116571429,3.251
-0.0708501626646,-0.395383532923,-0.131197851869,-2.53990161765,-0.0487770219833,2.13832061941,-0.339534240516,-0.542846066286,-0.349798507454,-0.013094206439,-0.298222289318,-0.052911162026,-0.0548581599379,-0.493258811327,0.573910336708,0.818891534165,0.00493230103733,0.0,0.818878340556,-0.573830422262,-0.0117327216256,0.0,-0.00677765251574,0.0107726921149,-0.999919002985,0.0,0.399964454847,-0.0827907450937,0.304921290726,1.0,-0.14998,-0.197116571429,3.267
-0.0799198032159,-0.401221484347,-0.131262157282,-2.54495093407,-0.0496467214493,2.13749818216,-0.348067088227,-0.538270566924,-0.341478592615,-0.004395019275,-0.297285096973,-0.0522792442821,-0.0522769394728,-0.502236069623,0.573794907572,0.818972050389,0.00499315808848,0.0,0.818959546186,-0.573714653443,-0.0117262541655,0.0,-0.00673895620078,0.0108178676847,-0.999918776805,0.0,0.397450540254,-0.0860638114327,0.304921501063,1.0,-0.14998,-0.197116571429,3.284
-0.0881944928207,-0.406311603613,-0.131325026812,-2.54931031606,-0.0505173272818,2.13667770412,-0.35569764394,-0.548116052471,-0.33794446637,0.000404893519766,-0.287822048904,-0.052658263818,-0.0566478837315,-0.508965526216,0.573792857366,0.818973819952,0.00493821520683,0.0,0.818960667373,-0.573712886871,-0.0117343783497,0.0,-0.00677716144089,0.0107775140047,-0.999918954353,0.0,0.395195827911,-0.089047164867,0.304923266755,1.0,-0.14998,-0.197116571429,3.299
-0.0976553884701,-0.412008005689,-0.131477997426,-2.55406805008,-0.0514187396512,2.13585600584,-0.364400344127,-0.555925954611,-0.340982275794,-0.00347293370331,-0.27724521958,-0.0516142663203,-0.0476510706323,-0.518604447947,0.573918113641,0.818885378357,0.0050480540352,0.0,0.818874418283,-0.573839013922,-0.0115853391978,0.0,-0.00659042140862,0.0107829659353,-0.999920143807,0.0,0.392685081446,-0.0924620542805,0.304976957854,1.0,-0.14998,-0.197116571429,3.316
-0.108085836518,-0.41828694974,-0.131565257465,-2.55940171073,-0.0523219916404,2.13479643282,-0.374277194594,-0.557013363986,-0.325805520673,-0.00593472163331,-0.281518930363,-0.0491071532189,-0.0641376292462,-0.521848923864,0.573797391295,0.818969560327,0.00511467512994,0.0,0.818958843147,-0.573717087383,-0.0116560618592,0.0,-0.00661171063342,0.0108771357336,-0.999918983319,0.0,0.389833272816,-0.0961244475402,0.304972492957,1.0,-0.14998,-0.197116571429,3.335
-0.117160560015,-0.423486517461,-0.131662867484,-2.56382696669,-0.053132111452,2.13383209419,-0.382661635098,-0.564535254892,-0.318609304676,-0.00683577299709,-0.274591265901,-0.0513601297566,-0.0586823028781,-0.522145721424,0.573875863023,0.81891468755,0.00509659248549,0.0,0.818902925152,-0.573794279083,-0.011784369773,0.0,-0.00672612737847,0.0109365904316,-0.999917571703,0.0,0.387379831382,-0.0993004799332,0.304947502549,1.0,-0.14998,-0.197116571429,3.351
-0.126790359572,-0.428813436429,-0.131789457996,-2.56829523939,-0.0540037252636,2.13294729998,-0.39159167207,-0.556450258505,-0.312585821384,-0.00511167694031,-0.258921067037,-0.0514863506988,-0.0579224069466,-0.525919742866,0.573952251824,0.818860978787,0.00512415335202,0.0,0.818849758404,-0.573870862141,-0.0117496232944,0.0,-0.00668083435612,0.0109398451081,-0.999917839746,0.0,0.384846800385,-0.102669993344,0.304950980792,1.0,-0.14998,-0.197116571429,3.368
-0.136343713801,-0.433989356391,-0.131841095132,-2.57267451063,-0.0548094036999,2.13202608329,-0.400726984852,-0.570703048864,-0.299741097779,-0.00460736382802,-0.254664687128,-0.0540855454492,-0.0552017691899,-0.53385839837,0.573773426475,0.818986288528,0.0051245660097,0.0,0.818974684296,-0.573691431074,-0.01180488439,0.0,-0.00672824838496,0.0109704300103,-0.999917186741,0.0,0.382321557506,-0.105944080472,0.304925150209,1.0,-0.14998,-0.197116571429,3.385
-0.145672697036,-0.4388236303,-0.13196876495,-2.57668377264,-0.0555711235336,2.13108142518,-0.409379509482,-0.582793240571,-0.3032870336,-0.0134900886196,-0.244182427265,-0.0523658297503,-0.0512480448296,-0.544577678849,0.573896816967,0.818899694862,0.00514588479591,0.0,0.818887895361,-0.573813955262,-0.0118704035304,0.0,-0.0067680196262,0.0110265018668,-0.999916301581,0.0,0.379896887034,-0.109153672097,0.304921112976,1.0,-0.14998,-0.197116571429,3.401
-0.155495525176,-0.443926959951,-0.132053428243,-2.58072751569,-0.0563838501604,2.13018065967,-0.418613084565,-0.56866914836,-0.300816291561,-0.00130233512507,-0.237834493125,-0.044607177058,-0.0545745190894,-0.543091248149,0.573890042422,0.818903837872,0.00524122394499,0.0,0.818894493985,-0.573808873437,-0.0116589616617,0.0,-0.0065402335628,0.0109831828932,-0.999918294181,0.0,0.377399411664,-0.112504722505,0.305003861614,1.0,-0.14998,-0.197116571429,3.418
-0.16535051577,-0.448918927403,-0.132135973533,-2.58479303943,-0.0571965414489,2.12922899372,-0.42793754558,-0.582764351441,-0.291693594834,-0.00482013282428,-0.239228545664,-0.0492926089469,-0.0572926754754,-0.547834779671,0.573831521755,0.818944730794,0.0052592249048,0.0,0.818935873537,-0.573750732688,-0.0116137279218,0.0,-0.0064936421667,0.0109715023436,-0.999918726071,0.0,0.374850233014,-0.11582229013,0.305021055871,1.0,-0.14998,-0.197116571429,3.435
-0.174887136686,-0.453396623619,-0.132277106143,-2.58854640492,-0.0579159733702,2.12828413131,-0.436845193372,-0.602583455752,-0.27649620084,-0.00764984274254,-0.225775344729,-0.0454869948108,-0.057451227717,-0.557229269455,0.573951830243,0.818860476486,0.00525009622072,0.0,0.818850490708,-0.573869353751,-0.0117722382619,0.0,-0.00662707889893,0.0110559544245,-0.999916920397,0.0,0.372397720586,-0.11902586667,0.304972172397,1.0,-0.14998,-0.197116571429,3.451
-0.185370868117,-0.45828776962,-0.13229270244,-2.59251896912,-0.0586441414629,2.12729053673,-0.446955217096,-0.585265385684,-0.268104688785,0.0014184524911,-0.213850832535,-0.0427879335552,-0.0589849787345,-0.559912936081,0.573753848184,0.818998958306,0.00528912938198,0.0,0.818989349,-0.573671055844,-0.0117776403213,0.0,-0.00661178201472,0.0110894205919,-0.999916651071,0.0,0.369747498084,-0.122474923725,0.304975980246,1.0,-0.14998,-0.197116571429,3.469
-0.194345722913,-0.46224955982,-0.132397314828,-2.59575609683,-0.0592732750921,2.12647901623,-0.455449607454,-0.597496510077,-0.26014386411,-0.00932189487189,-0.221700838683,-0.0393871125308,-0.0559499287527,-0.555109935623,0.573787350935,0.818975274602,0.00532187925705,0.0,0.818965815472,-0.57370397676,-0.0118104631372,0.0,-0.00661942144176,0.0111353459323,-0.999916090145,0.0,0.367499236718,-0.125446233248,0.304962110089,1.0,-0.14998,-0.197116571429,3.484
-0.204686312746,-0.466661206689,-0.132540693092,-2.5993647369,-0.0600124578468,2.12551108298,-0.46511738879,-0.593753627353,-0.26334135545,-0.00323856763931,-0.202759014766,-0.0371420973952,-0.0582425911723,-0.576967971841,0.573938592878,0.81886930232,0.00532017153505,0.0,0.818859211387,-0.573854174939,-0.0119048197265,0.0,-0.00669561768828,0.011189322379,-0.99991498027,0.0,0.364905954564,-0.128854055789,0.304932962344,1.0,-0.14998,-0.197116571429,3.501
-0.214808166444,-0.471007021565,-0.132592558412,-2.60274278294,-0.0606790893918,2.12459982841,-0.474844119326,-0.609557735102,-0.254786056704,-0.00801473901683,-0.192577084635,-0.0461775740618,-0.0577742294609,-0.583194535565,0.573836468165,0.818940374514,0.00539608157038,0.0,0.818931896656,-0.57375285552,-0.0117879736559,0.0,-0.00655775660803,0.0111836078036,-0.999915957841,0.0,0.36240845027,-0.132139684564,0.304984335705,1.0,-0.14998,-0.197116571429,3.518
-0.224630968486,-0.475017171749,-0.132725744864,-2.60578945394,-0.0613515721374,2.1237420359,-0.484150815696,-0.613700401312,-0.248365026699,-0.00884021959211,-0.184737341143,-0.0404536628502,-0.0529628435296,-0.580135053711,0.573905559217,0.818891461262,0.00547089333951,0.0,0.818884874917,-0.573823272764,-0.0116258405208,0.0,-0.00638109846735,0.0111523810313,-0.999917449583,0.0,0.360020414662,-0.135354605986,0.305055040826,1.0,-0.14998,-0.197116571429,3.534
-0.23617321557,-0.47949013888,-0.132767791437,-2.6093729166,-0.0620819365028,2.12274179344,-0.495266223451,-0.593169062624,-0.231603166359,0.000769936929652,-0.189738208179,-0.0388545082357,-0.054051667974,-0.588581637891,0.573782363164,0.818977793694,0.00546992304973,0.0,0.818971047309,-0.573699845053,-0.0116472467434,0.0,-0.00640086567098,0.0111629082901,-0.999917205771,0.0,0.357190055907,-0.139044313298,0.305042877217,1.0,-0.14998,-0.197116571429,3.553
-0.246010030195,-0.483111806914,-0.132836826994,-2.61234690384,-0.0626839945483,2.12188057947,-0.504661187921,-0.625297506188,-0.224585169341,-0.00463498973261,-0.180354777485,-0.0341959236161,-0.0519313024594,-0.58660364531,0.573777940365,0.818981037537,0.00544813797113,0.0,0.818973151862,-0.573694013252,-0.0117856942429,0.0,-0.00652682162328,0.0112244662002,-0.999915702426,0.0,0.354764612742,-0.142169060766,0.304990355777,1.0,-0.14998,-0.197116571429,3.569
-0.256699729987,-0.486846126466,-0.132973910282,-2.61530892242,-0.0633587056133,2.12095197041,-0.514767639955,-0.624974549898,-0.215596124297,-0.00252223700378,-0.17077249232,-0.0386315444932,-0.0558133386274,-0.598880527184,0.573905980617,0.818891426186,0.00543179831968,0.0,0.818882860961,-0.573821287496,-0.0118632601995,0.0,-0.00659796759006,0.0112566192511,-0.99991487405,0.0,0.352170897671,-0.145587205709,0.304974272906,1.0,-0.14998,-0.197116571429,3.586
