nelsonifechukwu/NELSON_IML_WORK/CNN-GradCAM/train2dof/data_sample_2022-07-06-09-11-44/robot_state.csv
position_joint1,position_joint2,position_joint3,position_joint4,position_joint5,position_joint6,position_joint7,velocity_joint1,velocity_joint2,velocity_joint3,velocity_joint4,velocity_joint5,velocity_joint6,velocity_joint7,ee_T_00,ee_T_10,ee_T_20,ee_T_30,ee_T_01,ee_T_11,ee_T_21,ee_T_31,ee_T_02,ee_T_12,ee_T_22,ee_T_32,ee_T_03,ee_T_13,ee_T_23,ee_T_33,v_x,v_y,w_z,time
0.4651010018691701,0.5472843344179122,-0.12397862286095122,-1.3555594228469419,0.07946194664837858,1.8941825005210353,0.159142981758387,-0.0008110758639475016,-0.0009295022249101967,-0.0004173713717670516,0.00022456444491453502,0.00025791929137617553,-0.0003319453415846627,0.0007936342463477072,0.5737376260906968,0.8190230982905797,0.0026547646824866726,0.0,0.8189897824294146,-0.5736771942236447,-0.011443775824209804,0.0,-0.007849889912020236,0.008740118198966362,-0.9999309924000941,0.0,0.661761998964716,0.2609527911808524,0.30370334172313995,1.0,5e-324,6.92810405792247e-310,6.92789185834347e-310,0.0
0.4651072452570263,0.547289344763822,-0.12397863458853801,-1.355561452353113,0.07946163777705013,1.8941816867192582,0.15914557058612594,0.0012842456844712224,0.0028470312805989016,-0.00033567029753763146,-0.00019567742924582522,-0.00011117652961798095,-0.00033350729397711075,0.0007672050320877882,0.5737346779772357,0.8190251859543665,0.0026478217427446096,0.0,0.8189917796443451,-0.5736742678654381,-0.011447539702935876,0.0,-0.007856987405564786,0.00873656295227647,-0.9999309677256174,0.0,0.6617596313114413,0.2609565036344307,0.30369875447682876,1.0,-0.0001,-0.00013142857142857146,-5e-05,0.006
0.4651059005392592,0.5472839039785752,-0.12398208762447556,-1.3555590236637671,0.07946233815421522,1.8941784669260129,0.15913642233301237,0.004492209523810458,-0.0003835258643643668,-3.732957344835927e-05,0.0011866098609328963,8.650821765070713e-06,-8.609499289954167e-05,0.0010420210178925331,0.5737307178379489,0.819027947702417,0.002651639629959763,0.0,0.8189945990637522,-0.5736703052690787,-0.011444407284536662,0.0,-0.007852273675542809,0.008737854772968692,-0.9999309934650946,0.0,0.6617607924606541,0.2609538695711356,0.3037036010560913,1.0,-0.0003800000000000002,-0.0004994285714285718,-0.0001900000000000001,0.02000000000000001
0.46510069948192684,0.5472715675672322,-0.12397437256164216,-1.3555684444677725,0.07946255802853698,1.8941826848983516,0.15913982827463913,0.0004038042519526893,-0.002330288881576639,0.0014634923053905714,3.5953896053474285e-05,-0.00015212551626547893,0.0017456106002588405,0.0018424054255376562,0.5737329515415281,0.8190263553967219,0.0026601470292323317,0.0,0.8189930758237487,-0.5736724660078485,-0.011445103688349199,0.0,-0.00784793955195856,0.008745243490466695,-0.9999309628974797,0.0,0.6617593718716479,0.26095425868293093,0.30370796797833655,1.0,-0.0007200000000000005,-0.000946285714285715,-0.00036000000000000024,0.037000000000000026
0.46509999384929945,0.5472013936830381,-0.12397964456076985,-1.355634668109509,0.07946194177404345,1.8941866102722802,0.15914356214322736,0.0004487192851920329,-0.01118492032193392,-0.0003093244867034775,-0.00508131022230185,9.073569597636555e-05,0.004586313776600263,0.0005047197632495758,0.5737436210531919,0.8190188528049983,0.002668885903165625,0.0,0.8189856594211109,-0.5736830765077222,-0.01144396314268954,0.0,-0.007841877869341485,0.008751848634216103,-0.9999309526647159,0.0,0.6617482516951148,0.2609439641483723,0.30372666793325026,1.0,-0.0010800000000000009,-0.0014194285714285728,-0.0005400000000000004,0.05500000000000004
0.46509750320897647,0.5470841307395169,-0.12397651205635318,-1.3557843028511227,0.07946064060347607,1.8942177709455756,0.15913731258924876,0.00019891316801424826,-0.008313924196497615,0.0015523723614027543,-0.009347028609846248,0.000568802551532102,1.7031495972850172e-05,-0.002049049860375343,0.57375845184065,0.8190084300282918,0.0026790642436218424,0.0,0.8189752757306747,-0.5736977697471102,-0.01145048602748009,0.0,-0.007841222370681078,0.008764069249061465,-0.9999308507701578,0.0,0.66172710708081,0.2609269494093639,0.30374411649935995,1.0,-0.001380000000000001,-0.0018137142857142874,-0.0006900000000000005,0.07000000000000005
0.465079152766438,0.5469375016593095,-0.12397961295608975,-1.355983075332291,0.07945896538002434,1.8942695022819724,0.15913889734207684,-0.0015544994619264155,-0.006917202064000707,0.000657161951269763,-0.01460065847918053,0.00021956500309827155,0.006290769633163231,-0.0003757554667220774,0.5737739992598774,0.8189975617159987,0.0026718117044051137,0.0,0.8189642037921911,-0.573713215801919,-0.011468470798286544,0.0,-0.007859947263797462,0.008768597323179361,-0.999930664061261,0.0,0.6616971687031925,0.26090028935087417,0.30375051242098283,1.0,-0.0017200000000000013,-0.002260571428571431,-0.0008600000000000006,0.08700000000000006
0.4650581645958511,0.5467692503129215,-0.12397685816244486,-1.3561924240165857,0.07945154428378157,1.8943874646045067,0.1591311180799305,-0.0004847518269704656,-0.009461611493121157,0.0005803579411006932,-0.015333315438792473,0.0002917939008090532,0.0032031512067057432,-0.0009508076097743768,0.5737940059329673,0.8189832933837204,0.0027478746261509835,0.0,0.8189509147172777,-0.5737329742161859,-0.011428931795752325,0.0,-0.007783707780403215,0.008808396586163808,-0.9999309106347151,0.0,0.6616826963693204,0.2608693184354854,0.30378460563403276,1.0,-0.0020600000000000015,-0.0027074285714285737,-0.0010300000000000008,0.10400000000000008
0.46503014320091046,0.5465659337651143,-0.1239803233884286,-1.3564227223293115,0.07944877372634786,1.8945004130792988,0.15913129004404125,-0.002388104251168678,-0.010649246907072958,-0.0005003161437005952,-0.016235821926033435,-0.0002578661190181161,0.01304319220335872,0.00014247380142029783,0.5738332621498274,0.8189555527877094,0.0028172166890774375,0.0,0.8189240350952427,-0.5737719715166053,-0.011397207837095542,0.0,-0.007717515256667251,0.008847353750292858,-0.9999310797699411,0.0,0.6616671332864755,0.2608343303329448,0.30382317845275564,1.0,-0.002380000000000002,-0.003128000000000003,-0.001190000000000001,0.12000000000000009
0.4649918601828463,0.5463423146331674,-0.12397719162383093,-1.3567133820041104,0.07944112368410429,1.8946311060541978,0.15912481212240706,-0.0022221892165738806,-0.02020828811588964,0.0018044179452876875,-0.016707200840508286,-8.655628424351328e-05,0.008068028402419922,0.000682997432089303,0.5738698572002947,0.8189296689344281,0.002886388239606242,0.0,0.8188989832686266,-0.5738082825850663,-0.011369122199825145,0.0,-0.007654425371943552,0.008888228053971312,-0.9999312022205757,0.0,0.6616410177209425,0.26078388143431264,0.30386016450105424,1.0,-0.002740000000000002,-0.0036011428571428605,-0.001370000000000001,0.1380000000000001
0.4649622557453436,0.5461070446900065,-0.12397506594248622,-1.3570890600630312,0.07942674478329262,1.8947595536987154,0.15911406498765393,-0.0008593181270149206,-0.020394301797171787,0.0011865465116141724,-0.024427004917992108,-0.0007710625745325255,0.009409761417379606,0.001114262582725379,0.5739009708813577,0.8189078840804597,0.002880957047200078,0.0,0.8188770389566212,-0.5738393049971912,-0.011383936541700904,0.0,-0.007669336654674619,0.008892573019493186,-0.999931049333088,0.0,0.6615947053810142,0.26073041135381264,0.30385899791563653,1.0,-0.0030600000000000024,-0.00402171428571429,-0.0015300000000000012,0.1540000000000001
0.46492326547821833,0.5458208507495568,-0.12397721510305906,-1.3575272188981515,0.07940900383797443,1.8949213721745686,0.15909202367760725,-0.00201964436456666,-0.018094905298895087,-0.0011579163950270822,-0.034092610810765686,-0.00024806948968937186,0.016045793250084116,-0.0018276710228303913,0.5739361395480164,0.8188831932661541,0.002893165766856401,0.0,0.8188524459595102,-0.5738743631073299,-0.011385693456799932,0.0,-0.007663386897580171,0.008903908241254588,-0.999930994078736,0.0,0.6615456428053222,0.26066323219568666,0.3038671719344659,1.0,-0.0034000000000000024,-0.004468571428571433,-0.0017000000000000012,0.17100000000000012
0.46487059850558565,0.5455210784482737,-0.1239859081356758,-1.358040898252815,0.0793696945993732,1.8950901963546332,0.1590711174815928,-0.00344850197903479,-0.014755380602367208,-0.006090948009153158,-0.025140515201525177,-0.001819944657361581,0.00856273787899622,-0.001347766175336173,0.5739864612857265,0.8188480823853717,0.0028473032323501823,0.0,0.8188168217716661,-0.573924908675407,-0.011399933634969779,0.0,-0.007700823813439339,0.008874998220579092,-0.9999309634765687,0.0,0.661487249918163,0.2605714141887693,0.30384976729298696,1.0,-0.003740000000000003,-0.004915428571428576,-0.0018700000000000014,0.18800000000000014
0.46482165868643827,0.5451741754749785,-0.12398598803011164,-1.3586175715225035,0.07930546218890101,1.895273625063653,0.15898057098867266,-0.004269856473609369,-0.021430955037441052,0.00044361650149134766,-0.03493308922349337,-0.001715904804089607,0.011783024144386447,-0.010516202411750601,0.5739674951192006,0.8188615669587791,0.0027920611761716547,0.0,0.818829789354427,-0.5739063392292607,-0.011403366146082866,0.0,-0.007735545595688786,0.00883155440233302,-0.9999310801156126,0.0,0.6614169422606604,0.2604771474155754,0.3038366589038511,1.0,-0.004080000000000003,-0.005362285714285719,-0.0020400000000000014,0.20500000000000015
0.46477041208016806,0.5448634876677333,-0.12398924343164756,-1.359139988187648,0.0792923345210521,1.895445458465757,0.1589301177423724,-0.009463189187397672,-0.028821114540294526,-0.0009738505090228823,-0.03821412886517256,-0.00036954620612935415,0.008117953385136517,-0.001023905290267247,0.573996031208732,0.8188416487419619,0.002767190520809438,0.0,0.8188093838561152,-0.5739347599783082,-0.011438142288818603,0.0,-0.007777990213360342,0.008831419875738461,-0.9999307520479702,0.0,0.6613542408724596,0.2603929746418261,0.30382291177550375,1.0,-0.004360000000000004,-0.00573028571428572,-0.002180000000000002,0.21900000000000017
0.46470984178562746,0.5444600990867386,-0.12399243958651003,-1.3598451285586473,0.07926423550015226,1.8956785067189659,0.15891991681514098,-0.008891276720296189,-0.021546635699809538,-0.001015053028188425,-0.041378202916036756,-0.0005357375179864321,0.017402048934792278,-0.0013670313800991081,0.5740713381583921,0.8187890312869596,0.0027143784562482605,0.0,0.8187559419304539,-0.5740100652213488,-0.011484749860851243,0.0,-0.007845657711655962,0.008815648939294526,-0.9999303625697396,0.0,0.6612674037413082,0.26028393277679623,0.30379306022691344,1.0,-0.004700000000000004,-0.006177142857142863,-0.002350000000000002,0.23600000000000018
0.4646559217233687,0.544015031485706,-0.12399306850870756,-1.360586342272938,0.07923067867275461,1.895912141110559,0.1588908391961703,-0.003570525284068483,-0.0241402615953477,0.0001276968254218968,-0.04337438761306659,-0.0012198205514183692,0.008761922505690516,-0.0023414497598702472,0.5741243456846632,0.8187520200828781,0.0026668714952256785,0.0,0.8187181714160261,-0.5740630592145993,-0.011528518533722203,0.0,-0.007908197686277818,0.008802388787120419,-0.9999299867295686,0.0,0.6611713785952033,0.26017619875104053,0.30377545228937963,1.0,-0.005040000000000004,-0.006624000000000006,-0.002520000000000002,0.25300000000000017
0.46458883718734495,0.54356882369162,-0.12399336769214957,-1.3613011321946438,0.07919712149077639,1.8961689218650297,0.15881124141646577,-0.0013772665784190575,-0.02821542772764518,-0.0018347910995431297,-0.04508016230631988,-0.0016525288873441989,0.013240315422713629,-0.006048677280240494,0.5741436371703599,0.8187385344210263,0.002653874923315389,0.0,0.8187044305797568,-0.5740822947458202,-0.011546476070974091,0.0,-0.007930154970188563,0.008802244396293402,-0.9999298141048383,0.0,0.6610822717995631,0.2600599836347275,0.30376953754098834,1.0,-0.005380000000000004,-0.007070857142857149,-0.002690000000000002,0.2700000000000002
0.4645259694339808,0.5430686731858657,-0.12399883941336676,-1.362125835548257,0.07915283115125171,1.8964646825660507,0.15877008774060708,-0.003658010763670859,-0.03347062854724704,-0.0005571065231464515,-0.05417316005134352,-0.002637922052294725,0.022512197452211315,0.0003012810342267984,0.574200947130805,0.8186983966290664,0.002637152307102284,0.0,0.8186640333838032,-0.574139605951429,-0.011561151452592611,0.0,-0.00795115565537513,0.008797535238196194,-0.9999296887769045,0.0,0.6609917822794517,0.2599415291376431,0.3037602646618944,1.0,-0.005700000000000004,-0.007491428571428578,-0.002850000000000002,0.2860000000000002
0.46445416861095506,0.5425321842814547,-0.12399643908571295,-1.3629927992542366,0.07909947997521344,1.8967596173481813,0.15871217500450668,-0.005320171503817342,-0.03589450431526556,-0.0005991509772970185,-0.046746157591820756,-0.006939231456273146,0.019198476103934662,-0.010454073119615279,0.5742445360598465,0.8186679218290493,0.002606429497609584,0.0,0.8186331201769927,-0.5741832485707707,-0.011582681520550746,0.0,-0.007985955407917189,0.008785170229997488,-0.9999295201664229,0.0,0.6608861906089366,0.25981097694917177,0.3037525191365878,1.0,-0.006040000000000005,-0.007938285714285722,-0.0030200000000000023,0.3030000000000002
0.4643818923492392,0.541969287435088,-0.1239943117504415,-1.3639081580325045,0.07904498637640335,1.8970928953596495,0.1586328048803873,-0.005252774026862531,-0.03290124977345346,0.0006955178211906307,-0.05817808489298089,-6.076189212959581e-05,0.018100246933415748,-0.005217516136021798,0.5742736093358823,0.8186475809626559,0.0025897307849392336,0.0,0.8186125326201955,-0.5742123418625291,-0.011595464247177832,0.0,-0.008005697511762666,0.00877912420716126,-0.99992941540166,0.0,0.6607779094571634,0.2596769798891693,0.30374369044812716,1.0,-0.006380000000000005,-0.008385142857142865,-0.0031900000000000023,0.32000000000000023
0.4642937929510427,0.5413485183587267,-0.12399886983007004,-1.364853575518095,0.07898811966364813,1.897430843292484,0.158572984913243,-0.005490884715241402,-0.040572657883333425,0.00026106589291958164,-0.05658123731572966,-0.0029870803187297883,0.028418424280156424,-0.0010203580123368484,0.5743371668025946,0.818602960252132,0.002599845538373651,0.0,0.8185680474784155,-0.574275861774204,-0.011590217085033284,0.0,-0.00799491140556291,0.008785012068042247,-0.9999294499886389,0.0,0.660670768953535,0.2595257843581422,0.30376201897279415,1.0,-0.006720000000000005,-0.008832000000000008,-0.0033600000000000023,0.33700000000000024
0.46421734422125005,0.5407422491253989,-0.12400271923729067,-1.3657881507824952,0.07893090514260294,1.8977649147117166,0.15851484598397603,-0.004276440894632834,-0.04287864253673113,0.0006312816121348013,-0.05765325210996428,0.00048717173272905235,0.02035033748397331,-0.008683507932615705,0.5743913253414719,0.8185649497058168,0.0026029573160059527,0.0,0.818530085278045,-0.5743300117636082,-0.011588096631367527,0.0,-0.007990807078117723,0.008786870230602373,-0.9999294664694058,0.0,0.6605616521705963,0.25938348293088287,0.3037748118777368,1.0,-0.0070400000000000055,-0.009252571428571438,-0.0035200000000000027,0.35300000000000026
0.4641155566145139,0.5400487252035712,-0.12399811717520723,-1.366844058130532,0.07887737558996356,1.8981693633024947,0.1584117636722617,-0.0049063464431816405,-0.037589921442120415,0.0016041121053257238,-0.06121467384177407,-0.0018890416778390654,0.02441031241289695,-0.001691154202643771,0.5744312964687065,0.818536766730992,0.0026446262614955507,0.0,0.8185023500310881,-0.5743697349656209,-0.011578318112615747,0.0,-0.007958439011797436,0.008815750824866589,-0.9999294704057328,0.0,0.6604451253123823,0.2592214647822003,0.3037972813030619,1.0,-0.0073800000000000055,-0.009699428571428581,-0.0036900000000000027,0.3700000000000003
0.46402077856598256,0.5393350943142058,-0.12401719812229334,-1.3679597980861407,0.07880043040776202,1.8985753602505067,0.1583626945455625,-0.009604974552630144,-0.044664784612766954,0.0003231918930351692,-0.06696907939289755,-0.003457873194839226,0.022639139760047645,-0.002924703876427036,0.5745232251227953,0.8184722710865886,0.002636694535227176,0.0,0.8184379104639133,-0.5744618546801157,-0.011563353067074029,0.0,-0.007949756470699287,0.00880155512048214,-0.9999296645262192,0.0,0.6603203203286612,0.2590398378994139,0.3038062373069819,1.0,-0.0077200000000000055,-0.010146285714285724,-0.0038600000000000028,0.3870000000000003
0.4639165831040728,0.538588612933719,-0.12401574590816508,-1.3691083280413223,0.07873961053204763,1.899021427262441,0.15825005738500028,-0.0016678747244699486,-0.050357460971205324,-0.0011797774778995788,-0.06973448047045126,-0.0011115149616924332,0.023347262190034638,-0.002879480659350615,0.5745626215026234,0.8184444821140973,0.0026777920435460158,0.0,0.8184105979951148,-0.5745010470933904,-0.011549323750116162,0.0,-0.007914238336128865,0.00882751307509562,-0.9999297174524157,0.0,0.6601934091091558,0.2588657709971272,0.30382551698636673,1.0,-0.008060000000000006,-0.010593142857142867,-0.004030000000000003,0.4040000000000003
0.4638106167375504,0.5378312961791829,-0.12403290649458955,-1.3703080610753697,0.07866456385217141,1.8994809125543326,0.1581870586406612,-0.005621155621002279,-0.04811928172671011,-0.00027991105472036234,-0.07490873125350665,0.0001549607399152448,0.030890886968304818,0.0009842864738227714,0.5746560909696744,0.8183788358641764,0.0026842172521833792,0.0,0.8183451520651214,-0.5745946144076031,-0.011532046067342622,0.0,-0.007895397669590687,0.00882374657381968,-0.9999298996389895,0.0,0.6600628855313049,0.25867242728558154,0.30382970389741676,1.0,-0.008400000000000006,-0.01104000000000001,-0.004200000000000003,0.4210000000000003
0.46371808250953417,0.537081092684618,-0.12403693444769331,-1.3714888992420418,0.07859891753370388,1.899923536310418,0.15806703069547934,-0.005132811416923325,-0.047089413194848835,-0.0008111635064431591,-0.07295757808373887,-0.003753378823899255,0.02474212707166324,-0.004828274841880575,0.574683983956619,0.818359212471175,0.002695338293195117,0.0,0.8183256419374231,-0.5746224330198174,-0.011530399789177147,0.0,-0.007887358899201724,0.008832170573126852,-0.9999298887084849,0.0,0.6599259322840455,0.25849810428129777,0.3038358540818158,1.0,-0.008720000000000007,-0.01146057142857144,-0.004360000000000004,0.43700000000000033
0.4636077560798676,0.5362517641398818,-0.12404037339503343,-1.3728080426769105,0.07852259701264633,1.9004090071929123,0.1579751445003343,-0.005369967817551908,-0.05002816078183046,-0.0002100527228498873,-0.07683837912145379,-0.0021352135885164486,0.029390449953729615,-0.0024108256027956243,0.5747536686500897,0.8183102872169166,0.0026909309613317948,0.0,0.8182766361009172,-0.5746920971350593,-0.011536342708276293,0.0,-0.007894003141651285,0.008832651285312743,-0.9999298320310638,0.0,0.659772348325518,0.25829819910143587,0.30383558396964966,1.0,-0.009060000000000007,-0.011907428571428583,-0.004530000000000004,0.45400000000000035
0.46349899682400303,0.5353889002296526,-0.12404570387882422,-1.3741608050167664,0.07845235060851984,1.9009038961177056,0.15790317381383348,-0.0055349773689652845,-0.04775077613537035,-0.0008299921387851076,-0.08429639100554816,-0.001072604137752342,0.032859708983556245,-0.0061440985819365,0.5748430098348533,0.8182475041513946,0.002698683980875585,0.0,0.8182138699253191,-0.5747813080964703,-0.011543735355228065,0.0,-0.007894631530453777,0.008844106516490438,-0.9999297258172314,0.0,0.6596131060182572,0.2580963119088214,0.3038437115179955,1.0,-0.009400000000000007,-0.012354285714285726,-0.004700000000000004,0.47100000000000036
0.46338244867718414,0.5344831896091878,-0.12404674526308435,-1.3755755051961975,0.07837368485573451,1.9014136118021987,0.15779299521540796,-0.0004414896049020011,-0.04705619347301972,0.0002895927396611732,-0.08322377320389744,-0.00016833455255865296,0.02970718218219183,-0.007034573120423894,0.574905389258454,0.8182036661174834,0.0027020463917577205,0.0,0.8181699972247188,-0.5748435809466026,-0.011552488346610424,0.0,-0.007899186378070022,0.008852491536551363,-0.9999296156471014,0.0,0.6594447324466192,0.2578846521891164,0.30385354838959544,1.0,-0.009740000000000007,-0.012801142857142869,-0.004870000000000004,0.4880000000000004
0.46326266884560635,0.533567535064804,-0.12405062083004036,-1.377055119508908,0.07828261658319613,1.901952771859193,0.15766410563126673,-0.0024386542146964145,-0.053343959119051536,0.0008164475073410806,-0.08486239428260056,-0.011425460492328513,0.036490635474153744,-0.0037756268340238177,0.5749572748887343,0.8181672879042776,0.002677304070803861,0.0,0.818133303925744,-0.5748955482193105,-0.011565143594998602,0.0,-0.007923204524048322,0.00884002526801772,-0.9999295359090714,0.0,0.6592692228217926,0.2576616576679465,0.30384195528309865,1.0,-0.010080000000000007,-0.013248000000000012,-0.005040000000000004,0.5050000000000003
0.46313374254896184,0.5326382875516839,-0.12404758942343863,-1.3785399469777653,0.07820650958262064,1.9025119579556793,0.15758659584951967,-0.008302204216567887,-0.05687379643444685,0.0008923370765457252,-0.08842984873766868,-0.0014349997214692996,0.03376567801649733,-0.006197089499581674,0.5750580823075359,0.8180964095920158,0.0026857934842503314,0.0,0.818062412140783,-0.5749961767730134,-0.011577281201972066,0.0,-0.007927163821592864,0.008854926307349978,-0.9999293726828095,0.0,0.6590964237530862,0.2574399884960575,0.30383882031099546,1.0,-0.010420000000000007,-0.013694857142857154,-0.005210000000000004,0.5220000000000004
0.4630147513843973,0.5317262435164941,-0.12405107730656097,-1.3799785520471979,0.07811687929875152,1.903058945675459,0.15745887189199537,-0.007327820112759564,-0.06132597191754989,0.00023927806548116278,-0.09381829135745964,-0.004309526304451899,0.03332547191865145,-0.003297751175389602,0.5751079280693205,0.8180613266102762,0.0026988659945676816,0.0,0.8180275437301614,-0.5750460232361317,-0.01156528254378163,0.0,-0.007909290501316724,0.008859202968793528,-0.9999294763364682,0.0,0.6589308041824408,0.25722335469357827,0.3038444913740045,1.0,-0.010740000000000008,-0.014115428571428584,-0.005370000000000004,0.5380000000000004
0.46288385462872994,0.530737343705121,-0.12405385271807985,-1.3815735707421284,0.07803191361599691,1.9036277800658825,0.15735185119729328,-0.00809287586466941,-0.060291915965347956,-0.000639244440612291,-0.09497621997575278,-0.005822122208118978,0.030700276832219316,-0.0007998379952692393,0.5751934241941793,0.8180013060834382,0.002671125375667786,0.0,0.8179670374794513,-0.5751314604516616,-0.011596365682283925,0.0,-0.007949747092838189,0.008855216285625883,-0.9999291908258778,0.0,0.6587373502999686,0.25698399707284836,0.30383157055354526,1.0,-0.011080000000000008,-0.014562285714285727,-0.005540000000000004,0.5550000000000004
0.46273899345639996,0.5297300041053775,-0.12405622900746491,-1.3832089663633862,0.07792724094701099,1.9042136018857414,0.15725511723412458,-0.004874883258171225,-0.058381613267938504,-0.0002596465302300851,-0.10163695373813161,-0.004048195098780452,0.034116431145970495,-0.004524768227453788,0.5752951646894261,0.8179298913877736,0.0026292889835905896,0.0,0.8178950981330658,-0.5752333499312542,-0.011616732672241104,0.0,-0.007989372003087136,0.008833702783236405,-0.999929065299201,0.0,0.6585424788103812,0.25672912988381885,0.30381363358711716,1.0,-0.011420000000000008,-0.01500914285714287,-0.005710000000000004,0.5720000000000004
0.4625945484463226,0.5286687705990893,-0.12406053771210128,-1.3848791475049014,0.07780792931416916,1.9048265957563497,0.15712244900345645,-0.006012294219619926,-0.05964905723192334,0.0015791880351635102,-0.09981020555745082,-0.010098970882544607,0.03641297138427126,-0.006838924773502637,0.5753662540446346,0.8178799149840273,0.002620166707187078,0.0,0.8178451552248261,-0.5753046291978384,-0.01160312888948565,0.0,-0.007982725725973472,0.008819109246876386,-0.9999292471980583,0.0,0.6583469770315126,0.2564695015945113,0.3038192456532731,1.0,-0.011760000000000008,-0.015456000000000013,-0.005880000000000004,0.5890000000000004
0.46245561288770076,0.5275608841837965,-0.1240634919667613,-1.3866132186160085,0.07771341700756977,1.9054888376979753,0.1569997677342462,-0.010558417416275574,-0.062331298927292014,0.0006864344068726977,-0.09916292603828714,0.0002503707175958987,0.038358708634195486,-0.005199794683023137,0.5754337705795523,0.8178323246077788,0.0026479056713123355,0.0,0.8177978626074789,-0.5753719746255461,-0.011597138929373689,0.0,-0.007961137651253614,0.008839007158727916,-0.99992924361664,0.0,0.658155181854429,0.25623463258199897,0.30382621359699274,1.0,-0.01208000000000001,-0.015876571428571445,-0.006040000000000005,0.6050000000000004
0.4623188863843942,0.5264991178919044,-0.12407160886577182,-1.3882670141222129,0.07760711624413609,1.9061215857489604,0.15688823522661424,-0.005065810307355326,-0.06293339623836093,-0.0010362563926497109,-0.10507679324411869,-0.00434900618349193,0.04021164805718437,-0.0035427257849229028,0.5755373467390108,0.8177593325317273,0.002680199076923735,0.0,0.8177253953498236,-0.5754755478073482,-0.011567997969214025,0.0,-0.007917601704375166,0.008849652091303395,-0.9999294951350888,0.0,0.6579534863529556,0.25596332017467327,0.3038464442710842,1.0,-0.01242000000000001,-0.016323428571428586,-0.006210000000000005,0.6220000000000004
0.4621666049888848,0.5253346122692237,-0.12407484453584906,-1.39009192655229,0.07749129016671337,1.906792887664571,0.15674143962777506,-0.007038726082138771,-0.07002291648215384,-0.0016052878699545576,-0.10789406705014656,-0.010326594828082276,0.03655983462275722,-0.008897894202454504,0.5756112102855753,0.8177073289957603,0.0026843251299150566,0.0,0.8176734817975131,-0.5755494291932234,-0.011561947141153248,0.0,-0.007909479400479202,0.008850258257327853,-0.9999295540508801,0.0,0.6577361152143327,0.2556867494148224,0.3038553151024822,1.0,-0.01276000000000001,-0.01677028571428573,-0.006380000000000005,0.6390000000000005
0.4620124498138032,0.5241626198300968,-0.12408440664924135,-1.3919272622861554,0.07737464340900495,1.9074498585656436,0.15660014442366313,-0.010641485602577707,-0.06337097234350803,-0.0015963853977674185,-0.10833427447012026,-0.010162090365731695,0.04051606125433521,-0.014867432578109505,0.5756955490578429,0.8176479910712254,0.002672899808519285,0.0,0.8176140379150182,-0.5756338422980792,-0.011563369174154153,0.0,-0.007916306401835382,0.008842550817563383,-0.9999295682136773,0.0,0.6575150102802788,0.25540306984560035,0.3038631379473704,1.0,-0.01310000000000001,-0.017217142857142872,-0.006550000000000005,0.6560000000000005
0.4618590417218294,0.5229839741548883,-0.12408831266614707,-1.393829731603819,0.07725831561038773,1.9081477414345958,0.15646298233362801,-0.010382409265496632,-0.07085624292929736,-0.0009210492524735426,-0.11204556062912918,-0.004870033513181535,0.035426257022288486,-0.005133604623311426,0.5757823013915208,0.8175869880669603,0.002646743109546371,0.0,0.8175526909594267,-0.575720665415474,-0.01157842043510324,0.0,-0.007942734108141614,0.008830671533881715,-0.9999294636198834,0.0,0.657284379311436,0.2551181473911412,0.3038467758793656,1.0,-0.01344000000000001,-0.017664000000000016,-0.006720000000000005,0.6730000000000005
0.46170577285862974,0.5218248074127775,-0.12408684628306772,-1.3956727753313691,0.07714325431866155,1.908855919702144,0.15633701159534244,-0.009382081647970246,-0.066224966946535,0.0007178681014656478,-0.11716128854248703,-0.012285872999596546,0.04794592439152791,-0.012009592044042,0.5758713351289486,0.8175242279734207,0.0026625090559645745,0.0,0.8174901714438485,-0.5758096756906301,-0.011566497956024942,0.0,-0.007922946377086515,0.008837559755744684,-0.9999295597482203,0.0,0.6570673433997728,0.2548441608986199,0.30384541601965687,1.0,-0.01376000000000001,-0.018084571428571446,-0.006880000000000005,0.6890000000000005
0.46154059889909854,0.5205848391037816,-0.12409496280775853,-1.3976798883940014,0.0770201879196937,1.9096312136511975,0.1561877627651582,-0.013676958034769865,-0.07490297898655796,-0.0009508399783227858,-0.1227060449758531,-0.00837254774225821,0.04098613761681553,-0.00995585314097429,0.5759642986085025,0.8174587361518031,0.002662389663537608,0.0,0.8174247426655818,-0.5759026999422201,-0.011559289708992056,0.0,-0.00791611737058534,0.008834211461190872,-0.999929643421793,0.0,0.6568321907540836,0.2545416492071131,0.30382855855355495,1.0,-0.01410000000000001,-0.018531428571428588,-0.007050000000000005,0.7060000000000005
0.4613775794611191,0.5192737473815378,-0.12409781489631444,-1.3997239486448452,0.07688857764752853,1.9103718758888166,0.15603200085622626,-0.008204909796245148,-0.07373174226223546,-0.0018520416840520498,-0.1217570257570008,-0.010855477853907686,0.03719489885859519,-0.00918272706224499,0.5760453449354571,0.8174016241583673,0.0026631377473912577,0.0,0.8173676737078953,-0.5759837708261746,-0.011555458598100678,0.0,-0.007911678828344482,0.008833400909719555,-0.999929685711193,0.0,0.6565812684799177,0.25423652814261116,0.30384045969303275,1.0,-0.01444000000000001,-0.018978285714285732,-0.007220000000000005,0.7230000000000005
0.46121723032144524,0.5180237966384162,-0.12410748719469074,-1.4016834836752643,0.07676276669636939,1.9110829774126716,0.15588657421311392,-0.008646060919562031,-0.0797262422416809,0.0011278681952541392,-0.12574447386781434,-0.00960630340796691,0.044511814952576306,-0.010939314183109691,0.5761383414770491,0.8173360835137736,0.0026617602539167617,0.0,0.8173021695496563,-0.5760768209090427,-0.011550193157003978,0.0,-0.007907163491074731,0.008830141567150979,-0.9999297502151988,0.0,0.6563271870239249,0.25391990079140103,0.3038513509142263,1.0,-0.014780000000000012,-0.019425142857142877,-0.007390000000000006,0.7400000000000005
0.46103322559773074,0.5165811457641799,-0.12411603470491765,-1.4039315032487893,0.07661829393122904,1.9118980229122349,0.15571724848910204,-0.01085682197287762,-0.07227363801446009,-0.0008499411060168463,-0.12647849288041704,-0.003970336138287836,0.04536372277399392,-0.006771281496053485,0.5762321351977703,0.8172699726297648,0.002658026405176148,0.0,0.8172360726973874,-0.5761706848521126,-0.011545141853020097,0.0,-0.007904173051823726,0.00882508671188531,-0.9999298184837246,0.0,0.6560676376817008,0.2535957652021409,0.3038599278166362,1.0,-0.015120000000000012,-0.019872000000000018,-0.007560000000000006,0.7570000000000006
0.46084673003759136,0.5152137468288359,-0.12412265657384858,-1.406085057085766,0.07647508832581242,1.9127218801153059,0.15554799859694565,-0.005636579081971659,-0.08112126226836297,-0.0011675416330408845,-0.12501235854584486,-0.008087582446546011,0.046772776272977115,-0.010297517470637679,0.5763259684806761,0.8172037383373023,0.002678619711155906,0.0,0.8171702453480523,-0.5762645959766288,-0.011517484226402919,0.0,-0.007868688957078929,0.008826883522662449,-0.9999300824864578,0.0,0.6558140667894213,0.2532646800003025,0.30386534912405383,1.0,-0.015460000000000012,-0.020318857142857163,-0.007730000000000006,0.7740000000000006
0.4606756039270156,0.5139061836809067,-0.12412570465892596,-1.4081835787385246,0.07635496941968611,1.913491069119951,0.15538455680068913,-0.008355375315605436,-0.08167604671750234,-0.00101288801194764,-0.13432690774062273,-0.009945103784493144,0.04017110173970057,-0.014848832344223172,0.5764124564022135,0.8171427936351486,0.0026611681118470336,0.0,0.8171089867181429,-0.5763510315620274,-0.011538593633751901,0.0,-0.007895063654522305,0.008825623399815005,-0.9999298857127412,0.0,0.6555543217775236,0.2529515889429374,0.30384980989654586,1.0,-0.015780000000000013,-0.020739428571428593,-0.007890000000000006,0.7900000000000006
0.46047886741583455,0.5125133330299004,-0.12412916423361882,-1.4104568634690269,0.07622507762537377,1.914280280609445,0.15521142684914058,-0.01468439107654114,-0.08061183119009066,-0.00028191542906256465,-0.13053341078433042,-0.010537964947985147,0.0446203333040249,-0.008311018225507985,0.5765247092264764,0.8170638869641382,0.002571219863995394,0.0,0.817028768935134,-0.5764634101857455,-0.011604927857099046,0.0,-0.007999907314729493,0.008791457521350174,-0.9999293533833309,0.0,0.655248549262695,0.2525798308536906,0.3038018503208031,1.0,-0.016140000000000012,-0.02121257142857145,-0.008070000000000006,0.8080000000000006
0.4602833952009336,0.5110830168529644,-0.12412986558259234,-1.412771304684597,0.07607950521842655,1.9151311773895512,0.15503408782226424,-0.012690024837107784,-0.08379826530822639,0.0005916216446371461,-0.13911417670137263,-0.007876524739186264,0.04720477359426841,-0.009632650676565315,0.5766152438465226,0.8170000579766667,0.0025520053187221186,0.0,0.8169646749479269,-0.5765539818873702,-0.011617777681398746,0.0,-0.008020510630639355,0.008784055026668833,-0.9999292533907147,0.0,0.6549793064677529,0.2522516410721502,0.3037860580267743,1.0,-0.016460000000000013,-0.02163314285714288,-0.008230000000000006,0.8240000000000006
0.4600909356273886,0.5097060655952246,-0.12412744444992742,-1.4149632715669909,0.07595082893892337,1.9159689954096357,0.15486545571810856,-0.009494316482764324,-0.09098715648349083,-0.00037012594380612815,-0.1359310000040771,-0.006355867185853244,0.050734834858999434,-0.015736531725771163,0.5767147957846412,0.8169297190042558,0.002573991436600335,0.0,0.8168945925090003,-0.5766534146029249,-0.011610816403260699,0.0,-0.008001074076121162,0.008798978704228952,-0.9999292778928873,0.0,0.6546988054289217,0.25189951268913413,0.30378314894273284,1.0,-0.016800000000000013,-0.02208000000000002,-0.008400000000000006,0.8410000000000006
0.4598674380309843,0.5081273474617856,-0.12413279847093288,-1.41747147978336,0.07578833307394017,1.9168664297898792,0.15466669281584527,-0.012087002479491866,-0.09191550610540228,-0.00015628856270286077,-0.1370300101192827,-0.008507530541695311,0.05310536376993154,-0.010649327745822631,0.5768228728802951,0.8168535297318917,0.0025359786830487846,0.0,0.8168179170299774,-0.5767616162949838,-0.011630790549877174,0.0,-0.00803815190944751,0.008780507896355469,-0.9999291428871162,0.0,0.6544027962781784,0.25152942219864904,0.30376780818813454,1.0,-0.017140000000000013,-0.022526857142857164,-0.008570000000000006,0.8580000000000007
0.4596676939450548,0.5066780990307694,-0.12413444537515204,-1.4197248317425737,0.0756448418282551,1.9176770341267826,0.1544900962361545,-0.009856652080322567,-0.08466535900717874,0.0019513877945147658,-0.1393908247844909,-0.008910272261633462,0.052375755461921664,-0.0075132119090622835,0.5769205805675046,0.8167845202358839,0.002537345443313203,0.0,0.8167489218906319,-0.5768593033022129,-0.011631409432423932,0.0,-0.008036818581924898,0.008782942736726737,-0.9999291322208611,0.0,0.6541219703428095,0.2511813229004998,0.3037790020161345,1.0,-0.017460000000000014,-0.022947428571428594,-0.008730000000000007,0.8740000000000007
0.4594472204625563,0.5050813312411474,-0.12414226843797684,-1.4221694911553382,0.07550124950059729,1.918608092084605,0.15430386400095739,-0.017619612101721433,-0.09319693227110402,-0.0004569110763733736,-0.145245944290365,-0.007656047339265963,0.05775682058835394,-0.00890770393693745,0.5770416094571,0.8166987999103253,0.0026073130617919613,0.0,0.8166641037994091,-0.5769800720993038,-0.011596761056365253,0.0,-0.007966846545685746,0.008821282486410398,-0.9999293546703252,0.0,0.6538289381188911,0.25080342887082996,0.30381237589922105,1.0,-0.017800000000000014,-0.023394285714285736,-0.008900000000000007,0.8910000000000007
0.459220273293214,0.5034378171279601,-0.12415021172321962,-1.42464504579794,0.07533676090243759,1.919569852310617,0.15411052069770084,-0.01403531209528439,-0.09645329255444433,0.000434140125748029,-0.14525603524085304,-0.006221942198662251,0.05753579629273954,-0.005782194536860148,0.5771575142399836,0.8166165721594578,0.0027064242217459695,0.0,0.8165833403757732,-0.5770958360046261,-0.011523505893345713,0.0,-0.007848570842361458,0.008861069551247894,-0.9999299382367449,0.0,0.6535375727757725,0.25041698960425407,0.30386570056643225,1.0,-0.018140000000000014,-0.02384114285714288,-0.009070000000000007,0.9080000000000007
0.4590029528316921,0.5018429693677008,-0.1241539825224378,-1.4269945182314978,0.07518494221435676,1.9204427755476652,0.15391015446571576,-0.010052351482607557,-0.10157609974196685,6.250930265609711e-06,-0.14498018824158607,-0.0038875238863884443,0.053085018443271376,-0.005480308428590887,0.5772530639993338,0.8165487078949872,0.002802612998007637,0.0,0.8165167879616759,-0.5771911448041188,-0.011465785523313926,0.0,-0.0077448780622025315,0.008907211878955268,-0.9999303367936914,0.0,0.6532523952261171,0.2500497552106391,0.30393655614351284,1.0,-0.018460000000000015,-0.02426171428571431,-0.009230000000000007,0.9240000000000007
0.4587689531420553,0.5001366104785543,-0.12415293692457173,-1.4295779932718202,0.07501676610465821,1.921358189228079,0.15371075446503527,-0.01426454309071265,-0.09874903938705869,3.8564140473127636e-05,-0.1541702379905265,-0.01108381238231121,0.050002912829812826,-0.01658300955278601,0.5773816025294204,0.8164577420162603,0.0028262100906612042,0.0,0.816426105385521,-0.577319568647357,-0.011457617687288778,0.0,-0.007723182970606701,0.008922981153813736,-0.9999303640014795,0.0,0.6529053731295874,0.2496262918160279,0.3039701473078045,1.0,-0.018820000000000014,-0.024734857142857166,-0.009410000000000007,0.9420000000000007
0.4585254256570799,0.49845673210007246,-0.12415328298417723,-1.432185577753622,0.07484781378326756,1.9223258961367151,0.15349825295012975,-0.01258686927867746,-0.0953540961249845,-0.00015122137622809983,-0.15147288107186588,-0.0023247174928515122,0.06258508177003293,-0.014278689308095055,0.5774787897644094,0.8163888923049141,0.00285846017932344,0.0,0.8163577344225981,-0.5774167162562802,-0.011433815523490981,0.0,-0.0076840652418144195,0.0089364840818357,-0.9999305447847937,0.0,0.6526035759903829,0.2492406503287826,0.3039911171077898,1.0,-0.019140000000000015,-0.025155428571428596,-0.009570000000000007,0.9580000000000007
0.45827262695606236,0.4967841251498761,-0.1241554257020379,-1.4348459123500767,0.07469003300409582,1.9232974134282919,0.15330991189821133,-0.013729382085020335,-0.09488241551927049,-9.645188111030008e-05,-0.15570871775819645,-0.00621257633706971,0.05097427621874323,-0.0051745230621990015,0.5776251137097047,0.816285417587221,0.0028446348649995186,0.0,0.8162539902296414,-0.5775629586015583,-0.011454221353347588,0.0,-0.007707106517466755,0.008938362562163182,-0.999930350666403,0.0,0.6522706792243951,0.24882144648973178,0.3039750825590496,1.0,-0.019480000000000015,-0.025602285714285737,-0.009740000000000007,0.9750000000000008
0.4580020467602597,0.4951205219527233,-0.12415292308783153,-1.4375571517805,0.07452713327963845,1.924235362179042,0.15308437743122513,-0.013653039834280086,-0.09500318691806296,-6.765635891066332e-05,-0.15572199801447825,-0.0011341964396651256,0.050826361525822476,-0.006082112781749435,0.5777526588655757,0.8161954631890844,0.0027528066626722357,0.0,0.816162670051267,-0.5776905722547478,-0.011525868469522596,0.0,-0.007817241603997604,0.008906010658246089,-0.999929784388814,0.0,0.6519209006083934,0.2483843647853555,0.30392491372015473,1.0,-0.019820000000000015,-0.026049142857142882,-0.009910000000000007,0.9920000000000008
0.45771761161276053,0.49341776041170926,-0.12417123041011968,-1.4403326711598736,0.07434887711678005,1.9252235497253118,0.15286964990042473,-0.012061174191657266,-0.1048476409748385,-0.006231320727860462,-0.17049659032018835,-0.014622704667364662,0.059494351811756316,-0.014545955450351453,0.5779137653224343,0.8160816734538392,0.002670019632194125,0.0,0.8160478441774649,-0.5778519687986288,-0.011565685023756687,0.0,-0.007895819506626045,0.008863002985648058,-0.9999295491245348,0.0,0.6515742190324854,0.24792001993188914,0.3038757796122915,1.0,-0.024094285714285617,-0.031666775510203964,-0.028454871085713797,1.0089999999999997
0.4574586281968002,0.4911581348764092,-0.12427691103386931,-1.4437372715666916,0.07416386006160228,1.926496195139506,0.1528397728978773,-0.015195131843993204,-0.15707983164289063,-0.007667558221461021,-0.2304073997640975,-0.005337778952754895,0.08883379361850179,0.0016353474061960986,0.5782972521100225,0.8158096537143862,0.0027647802115558463,0.0,0.8157772938787711,-0.5782353762663515,-0.011489270087694105,0.0,-0.007774513409224748,0.008899829588914304,-0.9999301725493325,0.0,0.6511583041023747,0.24737188048185207,0.3039410465097179,1.0,-0.03232285714285614,-0.042481469387753795,-0.0653846132571383,1.024999999999998
0.4571237711981908,0.48819902775448293,-0.12440515153329966,-1.4485340276964846,0.07395965112707141,1.9282871838132145,0.15322032231512303,-0.02544907609003588,-0.1902169863713237,-0.011494882741220309,-0.30775527757305987,-0.01468012498133284,0.10698863799465351,0.04086290214023429,0.5791583889401235,0.8151986574764772,0.002730617153293447,0.0,0.8151656374337473,-0.5790962640532985,-0.011543284106055395,0.0,-0.007828930245261323,0.008911466671641347,-0.9999296443315275,0.0,0.6505476760019603,0.24663732871279825,0.303874757890196,1.0,-0.04106571428571232,-0.05397208163265049,-0.10462246431427684,1.041999999999996
0.45662278795689454,0.4844006809170009,-0.12459184609864772,-1.4544936951952896,0.07366166463610843,1.9305603854478683,0.154283290271839,-0.035664177443209134,-0.2330816009593443,-0.006169999076471104,-0.36738919868337455,-0.021975931284810922,0.13394885664398515,0.07374607189485198,0.5807823125250862,0.8140422748857407,0.0027976879864728592,0.0,0.8140104493767562,-0.5807201431807584,-0.011482617766835564,0.0,-0.007722811208525748,0.008946420801872676,-0.9999301574319444,0.0,0.6498257094259079,0.24565140481247924,0.30387879500559795,1.0,-0.049808571428568496,-0.06546269387754719,-0.14386031537141536,1.0589999999999942
0.4560037732987677,0.4798954597838976,-0.12476412439232432,-1.46166220566646,0.07327542825937897,1.9331116363049694,0.15584121815360447,-0.04317228628819837,-0.28050974358063946,-0.0088072139692873,-0.4549131571130051,-0.02808429168005617,0.15154352915994235,0.10151285718431885,0.582923688300479,0.8125106751924553,0.0026689356820200384,0.0,0.8124773294036779,-0.582861820966198,-0.01155135343774517,0.0,-0.00783012802365346,0.008902178680596243,-0.9999297176851342,0.0,0.6489045746286594,0.2444689985532229,0.3038177111489643,1.0,-0.058551428571424674,-0.07695330612244387,-0.1830981664285539,1.0759999999999923
0.4552892820876385,0.4749067124582466,-0.12494222483745179,-1.4694133189792766,0.07286359701313515,1.935920632245126,0.15773299628122261,-0.047153500819655476,-0.3253552120602632,-0.006836308057683075,-0.4939562337718176,-0.028705154659962814,0.18741277807490916,0.1295522727959853,0.5854317093950615,0.8107054276054763,0.0026777204869024027,0.0,0.8106723506857324,-0.5853696697351712,-0.011551471292141551,0.0,-0.00779753424300389,0.0089335235441943,-0.9999296928368586,0.0,0.647920575958237,0.24317264485011508,0.30383135203009554,1.0,-0.0667799999999952,-0.08776799999999371,-0.2200279085999784,1.0919999999999905
0.4543584277888574,0.4685927157154527,-0.12513142928231683,-1.479175171362368,0.07234505494137491,1.9395430607619757,0.1604311579316654,-0.0553099508718052,-0.3679745839190469,-0.011997454101804332,-0.54924512571663,-0.027864163810027702,0.21355425940440728,0.16517275624700123,0.5888328632947286,0.8082380942222882,0.002790887540449335,0.0,0.8082066409384967,-0.5887702147525193,-0.01150680947928186,0.0,-0.007657197732357568,0.009031375299336994,-0.9999298983344233,0.0,0.646683900144648,0.2415480348986301,0.30386787298625584,1.0,-0.07603714285713703,-0.09993453061223727,-0.261573868542831,1.1099999999999886
0.45340495782134216,0.4622685582214173,-0.125273978677835,-1.488846844338387,0.07179382171281663,1.9430807280218751,0.16331170076894413,-0.065697693369024,-0.3985301036970365,-0.011479791672503827,-0.635251956589661,-0.03782020821031619,0.22757527381108605,0.1830314263115556,0.5923349553009425,0.8056746077488105,0.002911023641124939,0.0,0.8056449067854599,-0.5922717281901203,-0.011455612534662804,0.0,-0.007505523637243494,0.009130986908461813,-0.9999301436565496,0.0,0.6454332193389009,0.2399383274966608,0.30393581732041086,1.0,-0.08426571428570756,-0.11074922448978711,-0.29850361071425546,1.1259999999999868
0.45222348743920565,0.45492700997892904,-0.1254797241838437,-1.5003257708399163,0.0710697238154878,1.9469972871481036,0.16675966812939264,-0.07498129330812947,-0.4436608023595649,-0.00824856443994894,-0.6948760359407891,-0.044108529081368815,0.23406405469517708,0.21861232668037173,0.5965367832684729,0.802569415300506,0.002635665592410418,0.0,0.8025366469966131,-0.5964744196413522,-0.011573410999090069,0.0,-0.007716507160645203,0.009019357246554671,-0.9999295508745097,0.0,0.6438900483722785,0.23794594727980453,0.30386821834780675,1.0,-0.09300857142856374,-0.1222398367346838,-0.337741461771394,1.142999999999985
0.45089401058852596,0.44676003711144113,-0.12566090665633267,-1.5124949709447648,0.070272958705939,1.9515688888619138,0.17076402723019435,-0.07731464776180388,-0.49129324546970077,-0.0110502647477297,-0.7314107076942314,-0.050250969947549094,0.2730501366644517,0.24344939866424606,0.6012707766146835,0.7990275913158459,0.003018013648243864,0.0,0.7990008736161381,-0.6012080710856152,-0.011278569207565453,0.0,-0.0071975723990118645,0.009193046602702093,-0.9999318390999065,0.0,0.6423344798024218,0.23583707567153964,0.3040794155275606,1.0,-0.10175142857141992,-0.1337304489795805,-0.37697931282853253,1.159999999999983
0.44944894651910167,0.43815172168953825,-0.1258260387478819,-1.5258020635018799,0.0694656260210605,1.9562750716335209,0.17529841744123079,-0.08915415023284322,-0.507666668263061,-0.011710602952656702,-0.7788587569562123,-0.05104702359788134,0.275082576830947,0.2707171868406845,0.6065233318576428,0.7950480942213022,0.002953419812260905,0.0,0.7950207300457219,-0.6064603192215857,-0.01134314367484587,0.0,-0.007227351987947328,0.00922808893999065,-0.9999313015191383,0.0,0.640523733949257,0.23354821445295007,0.3040468520917131,1.0,-0.1104942857142761,-0.1452210612244772,-0.4162171638856711,1.1769999999999812
0.44793102308069144,0.4293510328025545,-0.12598658703262658,-1.5390498711660565,0.06858827722589497,1.9610647411990865,0.1799691682970588,-0.10247354314404758,-0.542708010259733,-0.006032967600877091,-0.8588938608062772,-0.05478890464733397,0.3021175082117272,0.3047632072966469,0.6118760084675116,0.7909352748878936,0.0031445351145157506,0.0,0.7909111429200392,-0.6118128220319733,-0.011197397170701732,0.0,-0.006932682982477789,0.009338646345288887,-0.9999323615080683,0.0,0.6387382350839957,0.23122477717866674,0.30416157464428717,1.0,-0.11872285714284661,-0.15603575510202702,-0.45314690605709557,1.1929999999999794
0.4461200726059063,0.4195288928796386,-0.12615881241120244,-1.554121340183092,0.06757033886660493,1.9662576552753193,0.18545514938772562,-0.10958480167618802,-0.5688118940037087,-0.012687397461907604,-0.9175459181224007,-0.06019481712791244,0.3058708154206047,0.3315705708895449,0.6181038721899741,0.7860785547269806,0.0029758836183337717,0.0,0.7860529030332319,-0.618041069675636,-0.011261293372995779,0.0,-0.007013177949703797,0.009300030051393612,-0.9999321600869175,0.0,0.6366305622476226,0.22852010396081282,0.30411859749234527,1.0,-0.1274657142857028,-0.16752636734692372,-0.49238475711423413,1.2099999999999775
0.4441062792181087,0.4090186964949283,-0.12634697584228355,-1.569884587083872,0.06643681927254723,1.9719418615694204,0.19139312631669045,-0.12566866036885596,-0.6103279424899459,-0.007130927335389899,-0.9354375531466097,-0.05903533078376633,0.3290503990855454,0.3601041251307101,0.6247944518750334,0.7807704392328574,0.003187636666274453,0.0,0.7807488320374759,-0.6247321017855192,-0.01103671925770265,0.0,-0.006625852756473594,0.009384605246000474,-0.9999340114525691,0.0,0.6344719053237631,0.22562809078476367,0.3042296214017161,1.0,-0.13620857142855897,-0.17901697959182042,-0.5316226081713727,1.2269999999999757
0.44200639196077013,0.3986342846151662,-0.12652060060887513,-1.5856210336251877,0.065435709631061,1.9773240504331688,0.1974918062980021,-0.13864445715075657,-0.6694480380439792,-0.014928268721773743,-0.9821328755206882,-0.062923714739792,0.352202859878688,0.3762971575460276,0.6320756186591899,0.7748879558191414,0.003132909868263198,0.0,0.7748658236603888,-0.6320125801750823,-0.011126577405038522,0.0,-0.006641940249288547,0.009460605228341704,-0.9999331885573347,0.0,0.6320845490707303,0.2225048213799594,0.3042164723120891,1.0,-0.14495142857141516,-0.19050759183671712,-0.5708604592285113,1.2439999999999738
0.4394343531277503,0.38640368045798484,-0.1267414814499094,-1.6041177708316021,0.06410132323252074,1.9837357323487368,0.20475340449362947,-0.14699678304019104,-0.693021043729984,-0.01240586086027893,-1.0579054995797013,-0.08936634679013908,0.35381619626467203,0.4034797163300807,0.6397196909074879,0.7685895881025174,0.003083671000440412,0.0,0.7685678419402274,-0.6396570895172743,-0.011091756706652963,0.0,-0.006552642860009561,0.009465807784195618,-0.9999337284813139,0.0,0.6295703405598478,0.2191875789426445,0.3041891393767725,1.0,-0.15369428571427135,-0.2019982040816138,-0.6100983102856498,1.260999999999972
0.4367953844286316,0.37422308606824567,-0.12693165168575973,-1.6222584672882272,0.06272507725136559,1.9899203014058193,0.2120704792672858,-0.159205648115035,-0.7216569532908663,-0.01023711972349222,-1.072179685848426,-0.08416538209865192,0.36482365374095227,0.43087613284576676,0.6477474774746045,0.761836192310726,0.00309328498357094,0.0,0.7618158155261497,-0.6476855088851994,-0.010995075968633167,0.0,-0.006373093653201267,0.009478728640636633,-0.9999347665626217,0.0,0.6269165154494472,0.21568447914984692,0.30423937486306435,1.0,-0.16243714285712751,-0.2134888163265105,-0.6493361613427884,1.27799999999997
0.43407763925859605,0.3623074760039768,-0.12712518323617034,-1.639950117349532,0.061435517985832945,1.9959219407609188,0.21949093382806142,-0.17636197436199758,-0.7612712699546709,-0.01282544635736186,-1.1073198217147424,-0.08916537501434459,0.38533337426834885,0.46051685976010936,0.6558303763697898,0.754889002757912,0.0031397208527361485,0.0,0.7548699788714687,-0.6557682834305463,-0.010955379790379291,0.0,-0.0062112859572459045,0.009555135830939782,-0.9999350575442435,0.0,0.6242952460262667,0.21219740758432498,0.3042739944146263,1.0,-0.17066571428569804,-0.22430351020406034,-0.6862659035142128,1.2939999999999683
0.43095393785160485,0.34926958274223624,-0.12732756363609657,-1.6595481403240577,0.0599189837211666,2.002334186645575,0.2278120115461845,-0.1912774826287198,-0.7637409769261811,-0.01176955743620783,-1.1597776969931588,-0.08163342539721899,0.3618058984806249,0.4883386147292332,0.6647943157460072,0.7470082816093255,0.0028092454661228505,0.0,0.7469862263606963,-0.6647331139470665,-0.011054942372126628,0.0,-0.006390858061976479,0.009447912421140708,-0.9999349448259691,0.0,0.6212972005736291,0.20826457167739326,0.30414385500978586,1.0,-0.1794085714285542,-0.23579412244895703,-0.7255037545713514,1.3109999999999664
0.4277628715897374,0.33631331123019803,-0.127534288253029,-1.678324838622716,0.05849546311501932,2.0086776860712945,0.23607143880232548,-0.19963156327788995,-0.8196475036725335,-0.01233162566273962,-1.1913823276468034,-0.08830173283968952,0.3878736059996133,0.5308238509552476,0.673644444434607,0.7390360398470938,0.003105026686310597,0.0,0.7390185314343554,-0.6735827133790809,-0.010894279906988803,0.0,-0.0059598879252782955,0.009633728876374037,-0.9999358334432539,0.0,0.618452588616933,0.20441142230706827,0.30429744736875547,1.0,-0.18763714285712474,-0.24660881632650686,-0.7624334967427758,1.3269999999999647
0.42397711271445254,0.3213574603468505,-0.12770450038451636,-1.700178504015651,0.056738101346490315,2.0158488376016273,0.24580072387345495,-0.2117593113701172,-0.8660159344907677,-0.009027027636648203,-1.2319026424175612,-0.10718453664542969,0.3982078798695794,0.5416132785689106,0.6838488345018153,0.7296038256066173,0.003126677454719464,0.0,0.729587737584329,-0.6837873279296005,-0.010833754228594145,0.0,-0.0057664771313575836,0.00969002229580447,-0.9999364235837198,0.0,0.6150174520972491,0.19992741308355086,0.30432159595631925,1.0,-0.1968942857142667,-0.25877534693875054,-0.803979456685629,1.344999999999963
0.42017577435029696,0.3067198688142766,-0.12786301849867476,-1.7213298767058474,0.05497929769611129,2.022696438089836,0.2554350590466615,-0.2280920418114323,-0.8829488459375727,-0.011112429850434894,-1.259278872218097,-0.09499756279670636,0.4088914859009144,0.5925376287661667,0.6937983188336236,0.7201488743131468,0.0031997672342783897,0.0,0.7201348712890381,-0.6937371107531789,-0.010739423567435223,0.0,-0.005514292683891309,0.00975544580430257,-0.9999372099553829,0.0,0.6116215372068889,0.19552975149807866,0.30438481190692984,1.0,-0.20563714285712287,-0.27026595918364726,-0.8432173077427675,1.361999999999961
0.41604072814277654,0.29167321402010776,-0.1280281047760854,-1.7430874751029963,0.05311420023129791,2.0294638783321943,0.26562262800691333,-0.2505045614159626,-0.9135524636909843,-0.016380244021279515,-1.2721597545973846,-0.10696779707308908,0.4119440950080795,0.5973154687932594,0.7042009460805245,0.7099807922207251,0.003008175216622114,0.0,0.7099656816292654,-0.70414035727119,-0.010762670296061226,0.0,-0.005523217950502257,0.00971497081626134,-0.9999375547530507,0.0,0.6080303907501192,0.1908824540152137,0.3043601717935028,1.0,-0.21437999999997906,-0.28175657142854393,-0.882455158799906,1.3789999999999591
0.4118615620557148,0.27713676044432284,-0.12818481883323812,-1.763984413208887,0.05137387321139853,2.0359703962103644,0.275578415138167,-0.2636255860777402,-0.8970820279510291,-0.01121082412599195,-1.309584606861302,-0.10465989892036155,0.39574143603950723,0.6365730900534982,0.7142988002974763,0.6998209340264626,0.0029378722102401424,0.0,0.6998057546061226,-0.7142379310550716,-0.010808818785340958,0.0,-0.00546600312643214,0.009776854404769025,-0.9999372659961073,0.0,0.6045372386078505,0.1863425597516591,0.3043341463910082,1.0,-0.22260857142854956,-0.2925712653060938,-0.9193849009713305,1.3949999999999574
0.40706786661888533,0.2611620493941396,-0.12839797848200482,-1.786588276142811,0.04935386083093906,2.0429554818617537,0.2865096426076475,-0.2874470157590128,-0.9085638139488265,-0.01492015649958877,-1.3388821927636796,-0.12993191981736216,0.39872852498437444,0.6377070758100399,0.7253055332421102,0.6884066086981869,0.002995237928436642,0.0,0.6883935326793466,-0.7252452010628495,-0.010699972045051787,0.0,-0.005193749530832292,0.009822840468701577,-0.999938266479955,0.0,0.6007237799499041,0.1812690238850162,0.30439481023749526,1.0,-0.23135142857140575,-0.3040618775509905,-0.958622752028469,1.4119999999999555
0.4018766609330047,0.2448256937827236,-0.12862553695996187,-1.8095945134831957,0.047273255631976825,2.049918449741358,0.2978504243924897,-0.3114525884786411,-0.9564336663453106,-0.01025621545212119,-1.365290639864699,-0.11889104225590137,0.4147339427636187,0.6866175092883061,0.7366377454601225,0.6762666627953824,0.002996607453869412,0.0,0.6762549167522112,-0.7365778148067834,-0.010637537503203292,0.0,-0.0049866734263633306,0.009862672054862118,-0.9999389285291764,0.0,0.596770822952596,0.17595631709597054,0.30442063268976305,1.0,-0.24009428571426195,-0.3155524897958872,-0.9978606030856076,1.4289999999999536
0.39642923090741,0.22801768906695985,-0.1287775931647166,-1.8329596800927614,0.04513439689769455,2.0568784690997743,0.3096948138675642,-0.32056087438744246,-1.001023686304683,-0.005066426750793582,-1.37102852774206,-0.10974850603932097,0.3969581612443111,0.6990036954866441,0.7481727869682754,0.6634821529256587,0.0031081329548393807,0.0,0.6634728282883412,-0.7481127122848008,-0.0105793545245807,0.0,-0.004694069516930022,0.00997753901976893,-0.9999392053652457,0.0,0.5926500670280836,0.17055656140139613,0.3044938781089337,1.0,-0.24883714285711822,-0.327043102040784,-1.0370984541427466,1.445999999999952
0.3910190372030837,0.21182646760752788,-0.1289266471229118,-1.8553429805782555,0.042930003343217366,2.0633260511864004,0.3211432284134765,-0.34476902285117733,-1.0049437021235255,-0.009664449955564444,-1.397835661024979,-0.13956729546394242,0.39746937477676103,0.7101735459283433,0.7591222856885483,0.6509260994779208,0.003052096109609173,0.0,0.650917591534674,-0.7590631476250521,-0.010496373157240857,0.0,-0.004515716499629285,0.009954885493757615,-0.9999402524947685,0.0,0.5885974937857882,0.16529748004448083,0.30452584474561717,1.0,-0.25706571428568875,-0.33785779591833387,-1.0740281963141711,1.4619999999999502
0.3847999370155003,0.19428716469085186,-0.1291173154084334,-1.8794291494139188,0.04055841042875419,2.0701616986962854,0.3335930620605409,-0.3778828992342591,-1.0505058902957811,-0.008986546654878661,-1.4170878352630354,-0.14728543266088073,0.4092114274933354,0.7337945541637332,0.7709833287259733,0.6368330486825518,0.0030202373272216845,0.0,0.6368255727213261,-0.7709247829797607,-0.010436274094337708,0.0,-0.004317871574756105,0.009969749654986426,-0.9999409782966597,0.0,0.5841769778731517,0.15945547391654347,0.3045401159024551,1.0,-0.2658085714285449,-0.34934840816323054,-1.1132660473713096,1.4789999999999484
0.3781299065436652,0.17633555161099493,-0.12935910253334798,-1.9037239640268173,0.03816966861233856,2.076878988841129,0.3465680498108992,-0.4051612963593471,-1.0771124591363854,-0.01821757274340951,-1.42942080906262,-0.16046102878861673,0.411431129346423,0.7657709046401957,0.7831770570747323,0.6217756308090086,0.003083683678568355,0.0,0.6217700835602367,-0.7831184993735667,-0.010398366679338885,0.0,-0.00405063925388377,0.01006129818397325,-0.9999411795703228,0.0,0.5796390834463362,0.15337920653794374,0.30460701571237375,1.0,-0.2745514285714011,-0.36083902040812726,-1.1525038984284481,1.4959999999999465
0.37100886093230645,0.1580423517665936,-0.12955824735761975,-1.928325152066046,0.03563183226101772,2.083453327541298,0.3598253025001431,-0.4179076441893761,-1.107594729666625,-0.010020761104450934,-1.4304609315550598,-0.15921846159284075,0.3961036293610682,0.7794507408361875,0.7954138818508888,0.6060432065061137,0.003022467187056557,0.0,0.6060383335179206,-0.7953557885123115,-0.010366044954040182,0.0,-0.0038784090213110356,0.010077221051222718,-0.9999417020803503,0.0,0.5749278890071932,0.14710483654775244,0.3046284926497546,1.0,-0.28329428571425724,-0.37232963265302393,-1.1917417494855866,1.5129999999999446
0.3635957341154981,0.1395145698651567,-0.12968808636609833,-1.9531071921014909,0.032988556970155,2.0899879384464515,0.37335624515163945,-0.44862021252806644,-1.1257009436931187,-0.010602631107574796,-1.4280375482220398,-0.1624726083749321,0.3831241045549799,0.8001784140519447,0.8075570846190163,0.5897656654165392,0.002960047065571533,0.0,0.5897615473510054,-0.8074996984668678,-0.010310244578763764,0.0,-0.00369046219453828,0.010072026909087886,-0.9999424657262703,0.0,0.5700660967186861,0.14077026621762517,0.3046029202181985,1.0,-0.29203714285711346,-0.38382024489792066,-1.2309796005427251,1.5299999999999427
0.35615482310726054,0.12166675123887238,-0.12984919995180447,-1.9767058642831128,0.030472734860318842,2.0959635679884334,0.3864877512442644,-0.4676807897171374,-1.1021827081582405,-0.0037255438839791507,-1.4336624724463762,-0.15173079823265417,0.3534084923874267,0.8329199660340545,0.8191529259017408,0.573551165728828,0.002879440731709642,0.0,0.5735473361528697,-0.819095638094559,-0.010321615552930423,0.0,-0.00356150585911702,0.010106671726247213,-0.9999425837830056,0.0,0.5653298532780585,0.1345876782149505,0.30458334406456367,1.0,-0.30026571428568394,-0.39463493877547046,-1.2679093427141497,1.545999999999941
0.3471068250308522,0.10115502785120455,-0.13011244933753063,-2.0034116793685808,0.027470861042345383,2.102474315242813,0.40149915339494757,-0.5132903319027734,-1.1313805288554006,-0.010270141845730725,-1.4505298750776832,-0.15853237787570132,0.3455741624883202,0.829690059529296,0.8322694360738617,0.5543468115652722,0.002818720617808926,0.0,0.5543439397848752,-0.8322130082984253,-0.01024949481077801,0.0,-0.003336063033161085,0.010093076281632016,-0.9999434986511047,0.0,0.5598803196467484,0.127286519970651,0.3046063985261832,1.0,-0.3095228571428258,-0.40680146938771405,-1.3094553026570022,1.563999999999939
0.3387378845568347,0.08263748717235996,-0.1302195350523617,-2.0274179765643745,0.02481603287969248,2.108120811029426,0.41501035189594127,-0.5277703143822116,-1.1539047464621315,-0.010377796356946734,-1.4769485690523572,-0.1495044793995222,0.33618552184826334,0.8534250213405133,0.8437141584956064,0.5367681003339606,0.002678081240319512,0.0,0.5367647765668903,-0.8436574713424161,-0.010314678202684986,0.0,-0.0032772700747583094,0.010140334951390037,-0.9999432149416938,0.0,0.5548200335401816,0.12078201335798489,0.304547038029997,1.0,-0.3177514285713963,-0.41761616326526385,-1.3463850448284267,1.5799999999999372
0.32930689228191223,0.06273111269459146,-0.13035678736746875,-2.052796766326195,0.021803704395477887,2.1139214138879683,0.42969922130403865,-0.5632802399958703,-1.1465066882492065,-0.007701795549970343,-1.4841122862412013,-0.1768534944206392,0.3294636139418171,0.8604131279314485,0.8558377623220106,0.5172190200854132,0.0026375645483855356,0.0,0.5172168574818374,-0.8557820342907081,-0.010226388564800909,0.0,-0.0030321606961979386,0.01011651712735974,-0.9999442294861871,0.0,0.5493848880877218,0.11366863820000214,0.30454272446017516,1.0,-0.31998,-0.42054514285714295,-1.35638685,1.5969999999999354
0.31988758222834474,0.04406838782257902,-0.1305365332059137,-2.0763212798854966,0.018974469031510777,2.119015374042873,0.44332472786035565,-0.5828616158159027,-1.141084776727729,-0.009334779939164685,-1.4717915009134055,-0.1781267218258502,0.30079662628579823,0.841249126838232,0.8669934773268193,0.49829368765541304,0.002541262821455412,0.0,0.4982918850492375,-0.8669383876172133,-0.010187063902404595,0.0,-0.002873086661187796,0.010098603027606595,-0.9999448802758721,0.0,0.5442460761951828,0.10679062144438774,0.30452417529285436,1.0,-0.31998,-0.42054514285714295,-1.35638685,1.6129999999999336
0.30973065332727245,0.02435550388613302,-0.1305644863037663,-2.100620066195817,0.016006935040580986,2.124002485829894,0.4574967225751481,-0.6109982966115239,-1.1434198001834515,-0.004975775902812636,-1.4271940811307036,-0.19317978557169416,0.29232317961134535,0.8289783660575689,0.8782051742153559,0.4782568477473534,0.0026089203416986904,0.0,0.478257114508461,-0.8781503380265394,-0.01014214706675372,0.0,-0.002559576285363796,0.010154816257960053,-0.9999451626344349,0.0,0.5387868217993715,0.09966845962557327,0.30460717512426694,1.0,-0.31998,-0.42054514285714295,-1.35638685,1.6299999999999317
0.2991530575225003,0.004911991392025385,-0.13060196509722014,-2.124274477172136,0.013034637586303566,2.1287522001169195,0.471566556326455,-0.6301233438635705,-1.1434618063793105,-0.006999644231401304,-1.3780553391620554,-0.15872791669592107,0.2580182132970079,0.8209189813495209,0.8890671757811041,0.45774710127452334,0.0028098264343127213,0.0,0.4577509224468831,-0.8890129810731757,-0.010037897370530418,0.0,-0.002096886621150207,0.010210762297035603,-0.9999456702240435,0.0,0.533394048211737,0.09249172251783931,0.30470133891565565,1.0,-0.31998,-0.42054514285714295,-1.35638685,1.6469999999999299
0.2883496234876828,-0.014398200670726,-0.1305963623744114,-2.147382701683497,0.010147023942050172,2.133112185399757,0.48524553419205496,-0.6328403278902026,-1.1236481870821329,0.010064218116839373,-1.346695958342996,-0.16370712735655005,0.22355968399165968,0.7958815137260267,0.8993465922576299,0.4372036791131438,0.00306543075727594,0.0,0.43721144156682257,-0.8992924456955302,-0.009999968961007279,0.0,-0.001615335598164569,0.010333878367356948,-0.9999452993283151,0.0,0.5279836491996431,0.08539659920904653,0.3048245426763324,1.0,-0.31998,-0.42054514285714295,-1.35638685,1.663999999999928
0.2772189124315623,-0.03345406658963234,-0.1306257692537479,-2.170026171057615,0.007075638373172695,2.137138094766552,0.4987559768392085,-0.6558725767297816,-1.1030977403804367,0.001428783353757535,-1.3136936200629947,-0.17989115449943052,0.220888955466797,0.8113814679229379,0.9091625185680695,0.41640635944456694,0.0031631544848160905,0.0,0.4164165866759507,-0.9091101356603862,-0.009835368926113194,0.0,-0.0012198778519397213,0.010259336301622422,-0.9999466275340281,0.0,0.5225599546515557,0.07825181297420601,0.30488208564008523,1.0,-0.31998,-0.42054514285714295,-1.35638685,1.680999999999926
0.2656269402740699,-0.05236463411963894,-0.13071714817391544,-2.1921594806173648,0.0042159417948014555,2.140716443611758,0.5120167286788573,-0.680171361998641,-1.1104159495172483,-0.0015399192672194573,-1.2666988632156346,-0.1798842652883106,0.2182952500368535,0.7614380993105758,0.9186244055756363,0.3950942328327828,0.003239685832310222,0.0,0.3951064403609272,-0.9185719028818641,-0.009864427125642544,0.0,-0.000921511629770555,0.010341923355801454,-0.9999460962660031,0.0,0.5171218766745918,0.0710293140143486,0.30494528313994534,1.0,-0.31998,-0.42054514285714295,-1.35638685,1.6979999999999242
0.2539003014575173,-0.07090590935587798,-0.1306959719708014,-2.213798485081174,0.0012810780341338556,2.1439053022961376,0.5248863829265621,-0.6984495942864469,-1.105438466832596,-0.0018346838261649513,-1.242594324191245,-0.1724974582113277,0.19637687172410895,0.7408587641027783,0.9269190418666428,0.37522385137821235,0.0029829654933358762,0.0,0.37523452526830925,-0.9268668694312271,-0.009879488783897722,0.0,-0.00094222608348421,0.010276995782501436,-0.9999467463658722,0.0,0.5119519693397017,0.0643730734397338,0.30487294100573675,1.0,-0.31998,-0.42054514285714295,-1.35638685,1.7139999999999225
0.24239267623137722,-0.08817977390712088,-0.13080266252967657,-2.23375810238676,-0.001428593425200246,2.1467439564216826,0.5367981738091652,-0.7154095169886262,-1.0593486798841396,-0.0032004242573553695,-1.2331860834495647,-0.1625735446272065,0.1505056322432469,0.748967065149585,0.935370798359328,0.3536291218562995,0.002942898738319775,0.0,0.35364059954763816,-0.9353190432124601,-0.009867150395302204,0.0,-0.0007367766825524535,0.010270370553471672,-0.9999469869192139,0.0,0.5065071374095915,0.05715537514765326,0.3048390578623176,1.0,-0.31998,-0.42054514285714295,-1.35638685,1.7309999999999206
0.23005581824182691,-0.10648479716948596,-0.13075985838781776,-2.2543472213458173,-0.004332205190339452,2.14939595737336,0.5491848770278136,-0.7298697330979903,-1.0537046962302778,0.0001515944117673005,-1.2127769202099346,-0.17424009398717424,0.14706692715484962,0.7127652297481473,0.9432104483254,0.3321529521037061,0.003035371443338523,0.0,0.33216659297044954,-0.9431597074817228,-0.009791200059381501,0.0,-0.000389343457832092,0.010243608409591147,-0.9999474570688316,0.0,0.5010714490825112,0.05012308553622783,0.30489798018610054,1.0,-0.31998,-0.42054514285714295,-1.35638685,1.7479999999999187
0.2171612965223793,-0.12446363982127054,-0.13090148471157104,-2.274523030960002,-0.007190922795178138,2.151686137360779,0.5611833340655066,-0.7615981527077014,-1.0383150689992815,-0.015634582103994953,-1.1812561723829555,-0.15360073118705295,0.12608069615631948,0.6882798817090273,0.9506588409531423,0.3101938908373818,0.002874909738229844,0.0,0.3102070621368841,-0.9506084103124706,-0.00979672112542594,0.0,-0.00030597555827188705,0.010205353338719608,-0.9999478772127024,0.0,0.49561253881422695,0.042894626338542914,0.30484501970739375,1.0,-0.31998,-0.42054514285714295,-1.35638685,1.7649999999999169
0.20483089702545976,-0.141261895526073,-0.13092502297004296,-2.29302679136009,-0.009865270635588572,2.153565133880145,0.5721946690094988,-0.7746490665124193,-1.0735152554037455,-0.0021813755666648684,-1.1307100369602006,-0.16538991134525047,0.12108664013588408,0.6819870387489334,0.957135570540543,0.28959337752878683,0.002814640067078751,0.0,0.289607024127302,-0.9570857501778762,-0.009766538987196614,0.0,-0.00013447570106206452,0.010163237073340443,-0.9999483439300636,0.0,0.4904786888671546,0.03621154832863734,0.30483867997403635,1.0,-0.31998,-0.42054514285714295,-1.35638685,1.780999999999915
0.19129137698904589,-0.15891826871100473,-0.13107133175785313,-2.312298315829855,-0.01270138870382433,2.1552575909273766,0.5836615938564369,-0.8055729069287321,-1.0173867958445386,-0.012585647593648145,-1.1192589442784353,-0.1663199841398317,0.09033867174535573,0.6624922091082078,0.9636044114237629,0.26728308696713277,0.0026526603989521502,0.0,0.26729624502393945,-0.963555055189236,-0.009752943995449223,0.0,-5.0813619330070114e-05,0.010107220617664454,-0.9999489194500698,0.0,0.4849979907180626,0.029006209875027052,0.3047899454097408,1.0,-0.31998,-0.42054514285714295,-1.35638685,1.7979999999999132
0.1775233972283742,-0.17638432436884705,-0.13111055841668207,-2.330932504519136,-0.01539480997929123,2.156721447768281,0.5947079123152597,-0.8169306678614069,-1.0148208001816572,-0.005274989420753119,-1.0891603388716318,-0.16760897334438046,0.0740564502844968,0.6521046654210616,0.9694901304623469,0.24507585005309257,0.0027315852656739892,0.0,0.2450909406523123,-0.9694409562185939,-0.009767810263887748,0.0,0.00025426112368248655,0.010139477665669219,-0.9999485618490325,0.0,0.47957596210718184,0.02193629547447021,0.30482168786333125,1.0,-0.31998,-0.42054514285714295,-1.35638685,1.8149999999999114
0.16325667551977463,-0.19372635488503476,-0.13124909065307427,-2.3490725955800373,-0.01821571704395132,2.157903643728318,0.605368945285856,-0.8341697659242866,-1.0196654745671292,-0.006681392878223192,-1.0550751644178313,-0.17548032466395824,0.06554072855228628,0.6020032852509355,0.9748872326147373,0.2226371525152514,0.002885984388027351,0.0,0.22265487135374706,-0.9748395858462836,-0.009661109185857098,0.0,0.0006624627407658124,0.010061264191347643,-0.9999491647608838,0.0,0.4741657981512227,0.014738508529538058,0.3048957690324707,1.0,-0.31998,-0.42054514285714295,-1.35638685,1.8319999999999095
0.14883192055754693,-0.21077944359046036,-0.1313053133651521,-2.3668927076473634,-0.02083293291166122,2.158651800832178,0.6157549314603484,-0.8501881488340228,-0.994449708690704,0.00030028596428243793,-1.0238277239793205,-0.15824501412595218,0.03562348532663086,0.6022979681947211,0.9797413888799453,0.2002009013619832,0.0026752402981967973,0.0,0.2002176494496159,-0.979693220548346,-0.009738242227895861,0.0,0.0006713228368199764,0.010076783299130239,-0.9999490025816271,0.0,0.46865699674958805,0.007701687278562273,0.30484750035251457,1.0,-0.31998,-0.42054514285714295,-1.35638685,1.8489999999999076
0.13472483639228078,-0.22658159330902977,-0.13147116011502075,-2.383023990593483,-0.02343062464009444,2.1592671743084026,0.6251554427002095,-0.8784036958935709,-0.9651031118646906,-0.002167470036500344,-0.9820799838694567,-0.16684476398436043,0.02225000473725048,0.5787538181311892,0.9841090812162513,0.17748956133042376,0.0027420407816498914,0.0,0.1775079918076018,-0.9840623931588162,-0.009636706708432675,0.0,0.0009879433883513977,0.009970496700349359,-0.9999498053219521,0.0,0.46325477547748173,0.0005058976182616807,0.3048770231958522,1.0,-0.31998,-0.42054514285714295,-1.35638685,1.8659999999999057
0.11955549310146883,-0.24324190098429305,-0.13156117108510532,-2.399704639655917,-0.02604382199626771,2.159653077086543,0.6347725790307603,-0.9035684681938618,-0.9748321742618977,-0.003405485257096783,-0.9712476237754702,-0.15407391999183828,0.029020823214491835,0.5532716497693508,0.9877076396865097,0.15622328150639003,0.002941380881012331,0.0,0.15624463584637227,-0.9876620785485544,-0.009590582234224952,0.0,0.0014068452126859698,0.00993245755701155,-0.999949682270776,0.0,0.4581729721476349,-0.0061446945968176145,0.30496236498110196,1.0,-0.31998,-0.42054514285714295,-1.35638685,1.881999999999904
0.10478973767144208,-0.25864052430896706,-0.1317474207998006,-2.4151626439753655,-0.028429112768642472,2.1597374542318164,0.6433868292013908,-0.9149674234175381,-0.9647063419228983,-0.0034313565325519834,-0.9558664280771632,-0.1471425216309973,-0.002253083433568559,0.5351036963246333,0.991053801225363,0.13336169273595183,0.002787272603853789,0.0,0.13338265635244928,-0.9910079293360097,-0.009648724202062782,0.0,0.0014754674666315748,0.009934369888714817,-0.9999495643734584,0.0,0.4526783577226141,-0.013310921362091666,0.30490258467175646,1.0,-0.31998,-0.42054514285714295,-1.35638685,1.898999999999902
0.08876296840592512,-0.2747791508764721,-0.13197481607400352,-2.4308780387496896,-0.03098131235639775,2.1597365954819296,0.6522868511418978,-0.9496489518408215,-0.9323981028527129,-0.025541564809708747,-0.9159277929944766,-0.14813098219513823,-0.005145544112736888,0.5214281551045384,0.993726352145094,0.1117109198147907,0.003058487820231951,0.0,0.11173547732454658,-0.9936819022965449,-0.00960245055096915,0.0,0.001966503273115927,0.009884140054478085,-0.999949217030675,0.0,0.44761768446209665,-0.020067922722040065,0.30498845193014,1.0,-0.31998,-0.42054514285714295,-1.35638685,1.9149999999999003
0.07244442725223357,-0.2905850002945694,-0.1321146776121089,-2.4462672471172615,-0.03341815703052988,2.15951756054492,0.6607646868082937,-0.9630918200035427,-0.9331557919219832,-0.017810190094656807,-0.8683020740129842,-0.12062111092601488,-0.016527158556875785,0.4963979111117935,0.9960336967826752,0.08881440071634117,0.0031022572496298842,0.0,0.08884043619338444,-0.9959897842402132,-0.009616313602970751,0.0,0.002235792444901241,0.009853967994048966,-0.9999489489703539,0.0,0.44217979761036263,-0.02714851854625877,0.3049659105387451,1.0,-0.31998,-0.42054514285714295,-1.35638685,1.9319999999998985
0.05563297811339947,-0.3060836970679065,-0.13232878684249424,-2.461002636657518,-0.03592110543254324,2.15909597966355,0.6688231398170714,-0.9883869849454083,-0.8991290958460513,-0.0070517818442682985,-0.8540068811076204,-0.1482355585896954,-0.034212335128548134,0.471997118775742,0.9978196929263919,0.06577084168393643,0.0032868972718578648,0.0,0.06579946498085965,-0.9977777158056644,-0.009529278622832206,0.0,0.0026528952527921645,0.009724965186895251,-0.999949192308735,0.0,0.43679484647413397,-0.03432467214554573,0.3050073059338524,1.0,-0.31998,-0.42054514285714295,-1.35638685,1.9489999999998966
0.03853091638444029,-0.3213286326912305,-0.13251686727036568,-2.475303217081905,-0.03827933949323628,2.158384679031537,0.6764057478117417,-1.0109656954861614,-0.8782704239049458,-0.01765756711905716,-0.8086742015154714,-0.13554632974434444,-0.033547259997968676,0.43471564567457,0.9990667728620176,0.0428356035971999,0.0033825033252464147,0.0,0.04286609975118838,-0.9990257684957393,-0.009526713747504061,0.0,0.0029711826547447195,0.009663003927417094,-0.9999488979086535,0.0,0.4313752248232178,-0.041429652306573014,0.3050351854167451,1.0,-0.31998,-0.42054514285714295,-1.35638685,1.9659999999998947
0.02103253208105214,-0.3362329995604655,-0.13271703607309848,-2.4891318628279318,-0.04055199730142341,2.1574811425795337,0.6835324868272689,-1.018441206109598,-0.8463419844219662,-0.01245762489390067,-0.8106374482039445,-0.12487103680241816,-0.060795804081932775,0.41202042392711574,0.9997591026171114,0.021232328528563327,0.0034164104980780687,0.0,0.02126405281142263,-0.9997188048105152,-0.009534058289943668,0.0,0.0032130814238322536,0.00960459321169193,-0.9999487126333038,0.0,0.42626234583366956,-0.04812573827467487,0.305034014762364,1.0,-0.31998,-0.42054514285714295,-1.35638685,1.981999999999893
0.0030201851730994713,-0.3508377695057209,-0.13299008928919134,-2.5023986013098987,-0.04290159672263887,2.1563865181628668,0.6903761484581583,-1.0572283907186704,-0.849313029612291,-0.007583032700401092,-0.739746842036645,-0.14003597032569454,-0.057948855288646364,0.3980520298894833,0.9999785649323548,-0.0033263306528458214,0.003542894498113437,0.0,-0.00329259890432676,-0.9999399729796229,-0.009484520608587652,0.0,0.0035742992966784626,0.009472834358119915,-0.9999487435832707,0.0,0.4205191531609201,-0.05573819728161298,0.3050872348440595,1.0,-0.31998,-0.42054514285714295,-1.35638685,1.999999999999891
-0.014129823823147864,-0.36418544806899267,-0.1332059562436946,-2.5144539223961244,-0.04497746264221755,2.1552666288946427,0.696348605824698,-1.0732469790728894,-0.8126237834614142,-0.019701489187951258,-0.7497715515157716,-0.13324047247634443,-0.08051928557436164,0.365075529494454,0.9996729247224835,-0.024935309588558385,0.0036084364656774138,0.0,-0.02490020163623463,-0.9996354804441206,-0.009467475742516194,0.0,0.0038432695535294825,0.0093747088618693,-0.9999486707391005,0.0,0.41542215955045025,-0.06242211609480297,0.3050916732582164,1.0,-0.31998,-0.42054514285714295,-1.35638685,2.0159999999998894
-0.03165063820860271,-0.37718892259753933,-0.13343178943355694,-2.5260549906533214,-0.04694306697131182,2.153932919018936,0.7019467841803402,-1.0844653346383863,-0.7906012426979939,-0.016148937753138512,-0.6849915468837362,-0.11908469641282235,-0.08815503200449189,0.3254705474143407,0.9988332068509145,-0.04795791317100501,0.00360698730371843,0.0,-0.047921787523659554,-0.9987961674975039,-0.009511307693681583,0.0,0.004058865709424819,0.00932753626983375,-0.9999482599996301,0.0,0.40999293994139774,-0.06952832020608476,0.30509595492322256,1.0,-0.31998,-0.42054514285714295,-1.35638685,2.0329999999998876
-0.050723750772789095,-0.3906497122150012,-0.1337054643534274,-2.5378141674039902,-0.04911856416720321,2.1524738446951477,0.7075280862159928,-1.1085859202238577,-0.7950103049585893,-0.0032674566882326525,-0.6788231320990665,-0.12601749884033192,-0.08539631331670916,0.3163206313519566,0.9974612452701404,-0.07097831458928627,0.003726921439122642,0.0,-0.07094068393749686,-0.9974265009361455,-0.009409648982040294,0.0,0.004385295666440636,0.009121545453323901,-0.9999487819835879,0.0,0.40458257672897835,-0.07669037654889925,0.3051292227712284,1.0,-0.31998,-0.42054514285714295,-1.35638685,2.0499999999998857
-0.0712611225466015,-0.40438300203427985,-0.1340078681067642,-2.5498170125130244,-0.05126197714962122,2.1507057996644012,0.7128850845086072,-1.1524706968985852,-0.7662620399750354,-0.02306998421013248,-0.6392050720012278,-0.12810422679111075,-0.10069014551132704,0.29687719732375367,0.9955601039258176,-0.0939572607793081,0.003586017188028768,0.0,-0.09392013671151112,-0.9955256517371821,-0.009403805323295955,0.0,0.004453613633194908,0.009025427947865136,-0.9999493522053826,0.0,0.3991150879380721,-0.08383765273934114,0.30508396693492645,1.0,-0.31998,-0.42054514285714295,-1.35638685,2.066999999999884
-0.08978290929359294,-0.41626667431053654,-0.13419374856379346,-2.559785360378624,-0.052980528540089056,2.14919328902721,0.7172157624395652,-1.1661762551678643,-0.7240088264809453,-0.015958395782097182,-0.6263192783870636,-0.0994841590358363,-0.08934956600876943,0.2619425327163786,0.9933041908880382,-0.11537845863743385,0.003916956461098331,0.0,-0.115337509008346,-0.9932718810121481,-0.009432725350968667,0.0,0.004979031885495533,0.008917965319963125,-0.9999478382075913,0.0,0.39409305183964105,-0.09049227204991399,0.3051919537446564,1.0,-0.31998,-0.42054514285714295,-1.35638685,2.082999999999882
-0.10877593405759862,-0.4276251682678453,-0.13447795000858354,-2.5695641945511993,-0.054796870303261094,2.147419490452771,0.7211913568489614,-1.1837498599028327,-0.7004007269438858,-0.023070206260111695,-0.5931781250569467,-0.10950338838176855,-0.11866826532529648,0.23744410391452067,0.9905695530013561,-0.1368918775531877,0.0036498531292377995,0.0,-0.13685276009533487,-0.9905370910343141,-0.009398948918675529,0.0,0.004902049045476364,0.008810989793233137,-0.9999491668950072,0.0,0.3889082705324489,-0.09722231262156587,0.30510798185662563,1.0,-0.31998,-0.42054514285714295,-1.35638685,2.0989999999998803
-0.1304394400499208,-0.4400150166194767,-0.1348019619621481,-2.5797724905274775,-0.05669492769940323,2.145467969501246,0.7252956385794721,-1.2078598471663113,-0.682372611809458,-0.012806440325381193,-0.5484888027452554,-0.10823717849249077,-0.0959062776752965,0.21180533187967115,0.9869280759813717,-0.1610566160933502,0.003806067980938421,0.0,-0.1610154117736622,-0.9868974730274529,-0.009389451772838795,0.0,0.0052685336376624425,0.008654044586673695,-0.9999486737156066,0.0,0.3831845005629383,-0.10477883220524502,0.30517732905520384,1.0,-0.31998,-0.42054514285714295,-1.35638685,2.1169999999998783
-0.15134907813999926,-0.45110073584939797,-0.13515463370854108,-2.588882332441783,-0.058378321806318134,2.143652461714027,0.7286563460201516,-1.239513229413499,-0.6340474011797353,-0.023098876729146855,-0.5337125236027931,-0.09868966743229828,-0.11877651656806261,0.1883898887699766,0.9829381191475286,-0.1838427360264568,0.0039050273025109826,0.0,-0.18379983422100898,-0.9829087823243634,-0.00941772112431578,0.0,0.005569772484862734,0.008539458128791852,-0.9999480262940338,0.0,0.37776709849457635,-0.11195980542555058,0.30520219568933515,1.0,-0.31998,-0.42054514285714295,-1.35638685,2.1339999999998764
-0.1712690691646325,-0.4610819682821344,-0.1354165906133223,-2.597060805975139,-0.05985360705461796,2.141777618459866,0.7315213938523777,-1.2479189561626522,-0.6005711295492375,-0.02496679489085224,-0.5145182491334126,-0.09037239972778292,-0.11056414805919706,0.17889682792964656,0.9787135721784266,-0.20514915752219393,0.0037833454621578437,0.0,-0.2051064140752426,-0.9786841207358545,-0.009460318487808228,0.0,0.0056435851512398605,0.00848311700648717,-0.9999480919890266,0.0,0.37262040258811896,-0.11864219476023623,0.3051828056264015,1.0,-0.31998,-0.42054514285714295,-1.35638685,2.1499999999998747
-0.19398729128911968,-0.4716916518085393,-0.13571994386799605,-2.6055058196721146,-0.06150973063253506,2.1398374460052163,0.7342354620575814,-1.2502296213739301,-0.5790540959010275,-0.01148976654274691,-0.44713706653491436,-0.09813620934979166,-0.10116017042400588,0.14411637605853952,0.9734434580057472,-0.22885135548461238,0.003954498688463964,0.0,-0.22880676980334652,-0.9734164608622629,-0.009412901558699876,0.0,0.006003644987330858,0.008258270369364717,-0.9999478772502959,0.0,0.36692094954322674,-0.1261887166355938,0.3052456257664431,1.0,-0.3198085714286369,-0.42031983673478,-1.3556174803717222,2.1679999999998727
-0.21446581317435665,-0.48042297874537715,-0.13601630944424883,-2.6124936478103553,-0.06283245152342304,2.1382124542990466,0.7362953171320242,-1.2604556939760512,-0.519179859473146,-0.018735982061022845,-0.43035288328649646,-0.07289533525522779,-0.10672317672240761,0.12010216958741314,0.9682621501663653,-0.24986574387503202,0.004033050234344075,0.0,-0.24981983746755893,-0.9682364711131368,-0.009430361354191542,0.0,0.006261391132680649,0.008123682413673033,-0.9999473989991299,0.0,0.36186639237101514,-0.13289700544972036,0.30525042949910186,1.0,-0.31158000000006636,-0.40950514285723016,-1.318687738200298,2.183999999999871
-0.23601909396683712,-0.4889058393224457,-0.13616983164372673,-2.6193909462425506,-0.06413828566067573,2.136285176573336,0.7379654934351384,-1.245241738935769,-0.4793232858025027,-0.002254989422691503,-0.3950930438476145,-0.07364918789948877,-0.10193772664770333,0.08461562225725665,0.962476320254382,-0.27130552631047544,0.0036594048954060967,0.0,-0.27126231615148444,-0.9624496642409047,-0.009388638874202906,0.0,0.006069299476832102,0.008043838816999604,-0.9999492288416181,0.0,0.35652690119554037,-0.13977912532659661,0.3051555748750588,1.0,-0.3028371428572102,-0.3980145306123335,-1.2794498871431592,2.200999999999869
-0.25736796324161787,-0.49661483961593866,-0.13635849391940888,-2.625483357369694,-0.06514900466451104,2.1346965200007384,0.7391640513149885,-1.2462600387580902,-0.43437459386391913,-0.009721129760855117,-0.3501478206124036,-0.06328538560888822,-0.08689742022022966,0.056629004557320915,0.9563426420803427,-0.29219181371710096,0.0036663110491265078,0.0,-0.29214730995986443,-0.9563161262553832,-0.009495411961639017,0.0,0.006280754947205647,0.00800991866831216,-0.9999481953182476,0.0,0.35139895410750893,-0.14653816553381158,0.3051438818839305,1.0,-0.294094285714354,-0.38652391836743677,-1.2402120360860207,2.217999999999867
-0.277209625048552,-0.5031930475018354,-0.1363696190782326,-2.6304552409297943,-0.06595850852145915,2.1332896403223427,0.739870237729277,-1.2342608126750683,-0.4013347771591843,-0.004909356415402239,-0.29080736457838646,-0.04588476762966815,-0.08202372741979927,0.03718748686568372,0.9503725251835707,-0.31105940107929153,0.003854773353091851,0.0,-0.31101260658338503,-0.9503477767158619,-0.009539850032108181,0.0,0.006630962989813749,0.007867679733769062,-0.9999470635715846,0.0,0.3467611899312648,-0.1527287016914966,0.30522244880040594,1.0,-0.28586571428578345,-0.3757092244898869,-1.2032822939145962,2.2339999999998654
-0.29532950807089225,-0.5087299030124158,-0.13633279944516474,-2.6346528531023696,-0.06660338855707265,2.1321389812868277,0.7403134008814075,-1.1977251953688868,-0.3571113410228407,0.005681028859898723,-0.2686478588946292,-0.03598322719180347,-0.07249248303901443,0.019059274359476967,0.9438891738066408,-0.3302085957101568,0.004032095106979031,0.0,-0.33015984701431705,-0.9438664873471092,-0.009553867474516623,0.0,0.006960662621959934,0.007686704166386948,-0.9999462304318774,0.0,0.3420064349243708,-0.15903736624355835,0.30527520017045523,1.0,-0.27763714285721297,-0.3648945306123371,-1.1663525517431719,2.2509999999998636
-0.31792952088519816,-0.514892273770392,-0.13625019200007754,-2.6395700831857702,-0.06742239643790375,2.13057614336699,0.7405430928342632,-1.152563231209791,-0.30184705556648134,-0.0024097663948948168,-0.24823148536502201,-0.033757716387119184,-0.08308025923584277,0.0012134628290132515,0.937214322115143,-0.34870653645556965,0.0037165517111594822,0.0,-0.34865977924520936,-0.9371904342129369,-0.009549620812208505,0.0,0.006813263086272892,0.007654376667274615,-0.9999474936035155,0.0,0.3372615778216831,-0.16516118673930186,0.30519018863393416,1.0,-0.2683800000000711,-0.3527280000000935,-1.1248065918003192,2.2679999999998617
-0.3376494714383582,-0.5196860768518863,-0.13611717757377037,-2.6433489147085374,-0.06794845038057269,2.129409070237409,0.7405534339528601,-1.1397705023326734,-0.2677570947403378,0.01923414354174708,-0.2092811505524269,-0.03754582343647981,-0.06079023595495215,-0.00717993886058669,0.9303942139312552,-0.36651687883564804,0.0035680685286067814,0.0,-0.3664706215472987,-0.9303700055583868,-0.0095751345281418,0.0,0.006829203841814846,0.007601203817922619,-0.9999477904747853,0.0,0.33271994050848186,-0.17107357972215742,0.3051422805822324,1.0,-0.25963714285721495,-0.34123738775519685,-1.0855687407431807,2.28499999999986
-0.3568672465102425,-0.5238405724549257,-0.13596108282581815,-2.646509131559821,-0.0683925570114915,2.1284744538992935,0.7403428488401897,-1.126901705687442,-0.2383579341974804,0.005944000989627487,-0.17741226492063997,-0.022860404999966222,-0.05604886228530173,-0.02197705494926935,0.9234871585636915,-0.38358703276685646,0.0036336155942076477,0.0,-0.38353987886204005,-0.9234642970212521,-0.009570807214881256,0.0,0.007026887100441914,0.007445024414988538,-0.9999475958614721,0.0,0.32838196082967047,-0.17682013103568484,0.30515546211529426,1.0,-0.25089428571435873,-0.3297467755103002,-1.0463308896860422,2.301999999999858
-0.3755481591742369,-0.5274181995366667,-0.1357069154193945,-2.649244273359528,-0.06873063356500085,2.1275690084166214,0.739755716507701,-1.0716260390380516,-0.1982384564492997,0.019200478209208956,-0.1543883819747794,-0.022426427790472832,-0.049935082954456686,-0.04030079969698656,0.916632943485746,-0.3996898194296654,0.003583582306438356,0.0,-0.3996428116182148,-0.9166107313668277,-0.009546578772829165,0.0,0.007100557052427292,0.00731869659973533,-0.9999480080332309,0.0,0.3241786367045178,-0.1823288569904342,0.3051505966898438,1.0,-0.24215142857150257,-0.31825616326540346,-1.0070930386289036,2.318999999999856
-0.39269260820728036,-0.5302114265244479,-0.13553849055694275,-2.6514738980572243,-0.06898232026597666,2.126852944512106,0.7390887714676856,-1.0382198709312551,-0.16690940731007914,0.01966376928371534,-0.13252779508729168,-0.004802414802444737,-0.04300186043207859,-0.03689510826451762,0.9101043709944561,-0.4143415520510741,0.003443695965242647,0.0,-0.41429511871892943,-0.910081825866158,-0.009558856364469185,0.0,0.007094813090800733,0.007272990557865233,-0.9999483822855816,0.0,0.32032301739815344,-0.18737220435922017,0.30509952020767817,1.0,-0.23392285714293204,-0.30744146938785366,-0.9701632964574791,2.3349999999998543
-0.410385498232757,-0.5327698731795475,-0.13539014576157055,-2.653410536773688,-0.06917024330265861,2.126263370573691,0.7382327675979011,-1.0302938384394253,-0.1452054719674994,0.007102747407167781,-0.10559564019763155,-0.0064319478981852566,-0.02625647998057456,-0.059437542974916116,0.9031559369072713,-0.42927603761916344,0.0034905667659597553,0.0,-0.42922863823888413,-0.9031342367817233,-0.009595486933719692,0.0,0.007271702964859794,0.007168107780357508,-0.9999478689245954,0.0,0.31638480774044314,-0.19257724432905596,0.30510475877234344,1.0,-0.22518000000007588,-0.29595085714295694,-0.9309254454003406,2.3519999999998524
-0.4274615763225929,-0.5348425035200688,-0.13510379293049915,-2.6549787637375055,-0.06928799824212643,2.1257558595642565,0.7371566387595375,-1.0010925888908113,-0.11340118873098681,0.01738449887908625,-0.08268168489706973,-0.0062430557894436025,-0.02919836824183011,-0.07440575766183573,0.8963588210839559,-0.4432937077304705,0.003507057564567569,0.0,-0.4432460560048097,-0.8963381706227495,-0.009568940487437878,0.0,0.007385502863237914,0.007022849992290581,-0.9999480656141313,0.0,0.312616537705751,-0.19754387153877898,0.30510952910928546,1.0,-0.2164371428572197,-0.2844602448980602,-0.891687594343202,2.3689999999998506
-0.44400873700668547,-0.536538432188467,-0.13486364096742215,-2.656242953188869,-0.06934767394185151,2.1253380477360166,0.7360074983948265,-0.9494989059192295,-0.08370496532229359,0.021642223580047436,-0.06654286272943725,-0.003225693925795851,-0.020010934076819642,-0.07037145878564767,0.8895770244789531,-0.4567503986136663,0.003540873710987753,0.0,-0.45670218495865417,-0.8895573273892101,-0.009571961312326913,0.0,0.007521952120776221,0.006898004910146638,-0.9999479175259842,0.0,0.3089637850444217,-0.20234851303595167,0.3051211542741664,1.0,-0.2076942857143635,-0.27296963265316354,-0.8524497432860635,2.3859999999998487
-0.45896091708408787,-0.5377552062625243,-0.13459151209689088,-2.6571595956194063,-0.06934329075424078,2.125006956534569,0.7348336099424102,-0.9206142388131611,-0.06709250952437207,0.009958270496262727,-0.05527441421086815,0.00021506014223077625,-0.014375964888526632,-0.08142573852753698,0.8829414408746348,-0.4694493573629909,0.003529838368380601,0.0,-0.46940092441657044,-0.8829223374168635,-0.00957419178937168,0.0,0.007611317867159573,0.006796672157559525,-0.9999479351885815,0.0,0.30546688536170974,-0.20693432830820913,0.30512472192352663,1.0,-0.19895142857150733,-0.26147902040826687,-0.813211892228925,2.402999999999847
-0.47428442419257594,-0.5386687739135326,-0.13427754701403305,-2.657882202497847,-0.06930968583432337,2.1247501985521597,0.7334685044524744,-0.8934735908994591,-0.049732259056734625,0.021381805900546363,-0.03671733358844433,0.0074552123584600135,-0.016334571700537016,-0.0845241673158636,0.8768573925338461,-0.4807178914007862,0.0034884018023759056,0.0,-0.4806698453742222,-0.8768388987641418,-0.009528497427030653,0.0,0.007639432668934132,0.006678492435354955,-0.9999485170783983,0.0,0.3023139489053451,-0.21106680368103403,0.305112925148353,1.0,-0.19072285714293682,-0.250664326530717,-0.7762821500575005,2.418999999999845
-0.4889588369223473,-0.5392570626097194,-0.13401346267042946,-2.6583449062310316,-0.0692680712676255,2.1245593942646104,0.7321092494803654,-0.8495299732898658,-0.02565816695753241,0.006772947867533314,-0.02417571891479789,0.002185890203722636,-0.015015495743408968,-0.07801102676890462,0.8704965698311766,-0.49214287098263154,0.003444322043088519,0.0,-0.4920951712872028,-0.8704786179159153,-0.009490260703738656,0.0,0.007668920491320508,0.0065664315678018725,-0.9999490335186907,0.0,0.29909336000076386,-0.21529539032526152,0.30510594255862167,1.0,-0.18198000000008063,-0.23917371428582032,-0.737044299000362,2.435999999999843
-0.5028564811622857,-0.5395215893192216,-0.1335912601859195,-2.658608357354898,-0.0691306898557725,2.1244565584001265,0.7305842765296799,-0.8114968807389512,-0.010870285950727254,0.021940761538848122,-0.009145671445861463,0.012584822227506103,-0.002655652628309811,-0.10043480681138049,0.8644968227820553,-0.5026078344310603,0.0033697283955463272,0.0,-0.5025609368921395,-0.8644793209491737,-0.00942100114418276,0.0,0.00764827675144325,0.006451055899850844,-0.9999499426173845,0.0,0.29607900943167914,-0.2192467648101364,0.30508377257210917,1.0,-0.17323714285722422,-0.22768310204092332,-0.6978064479432223,2.4529999999998418
-0.5163210442253106,-0.5396396439770971,-0.13327644384082443,-2.6587362011971947,-0.06895408051681026,2.124448858932472,0.7290487625624275,-0.7742172850457085,-0.0026261814122372964,0.017346293502855017,-0.00378346934172279,0.01398305166670181,-0.0003369539571954162,-0.08308830968039371,0.8585353833823153,-0.5127244160323167,0.0033786959184215594,0.0,-0.5126772728044537,-0.8585185139301231,-0.009419240426329852,0.0,0.007730296378122892,0.006354692929028183,-0.9999499289442868,0.0,0.29314004308046304,-0.2230904390761158,0.3050758961226504,1.0,-0.16449428571436805,-0.21619248979602662,-0.6585685968860838,2.46999999999984
-0.5281790073711755,-0.5395369206152962,-0.13285232526871754,-2.658729226445824,-0.06873127532543641,2.124458749085777,0.7276148708893077,-0.7274465828837128,0.01036843320311387,0.022553969873274946,0.00041067426541497665,0.007090205737422472,0.0016202393806576442,-0.08821049894575059,0.8529548097402382,-0.5219556681588744,0.0033346542587541833,0.0,-0.5219089464645719,-0.8529383696150734,-0.009377427143349305,0.0,0.007739004816733952,0.006258256184723032,-0.9999504697903657,0.0,0.2904132039260797,-0.22663599588483663,0.3050583099224958,1.0,-0.15575142857151186,-0.20470187755112992,-0.6193307458289453,2.486999999999838
-0.5403401334833803,-0.5393439979036472,-0.13252168803130568,-2.6586206729257142,-0.06849351595181122,2.124464566613334,0.7260581792666938,-0.6939126536778228,0.014054198063217723,0.018314780902298117,0.010095269497648784,0.008938931424125796,-0.000612501740640873,-0.08780296717152375,0.8477761931401572,-0.5303259193588576,0.003269939169771855,0.0,-0.5302792965105895,-0.8477595960100932,-0.009395848351608303,0.0,0.00775513353511853,0.0062317154841034506,-0.9999505105883879,0.0,0.28790102864791645,-0.2298640386792026,0.3050418537797186,1.0,-0.14752285714294133,-0.1938871836735801,-0.5824010036575208,2.5029999999998362
-0.551677367840685,-0.5389993353541387,-0.1320816435800867,-2.6583925303219917,-0.06821940038862169,2.124575374578293,0.724532248572743,-0.638881747722413,0.01947295410050159,0.027914298335259376,0.011903388555196319,0.0170505541100745,0.01394328260926301,-0.0961774525204451,0.8426494186284423,-0.538434635883297,0.0032934886637557724,0.0,-0.538387963703552,-0.8426336516884987,-0.009363572099202983,0.0,0.007817026415318229,0.006117151704644774,-0.9999507360630546,0.0,0.2854501155896927,-0.23304380185833123,0.3050415949327848,1.0,-0.13878000000008517,-0.1823965714286834,-0.5431631526003823,2.5199999999998344
-0.5624692462415989,-0.5384998934979167,-0.131711828772731,-2.658054442197586,-0.0679434488117501,2.1247091480329683,0.7229193624343306,-0.6224316624397824,0.02770824106319844,0.019317759683314756,0.02324946843541839,0.017205996981931603,0.010233361454460065,-0.09301912725654478,0.8377529548830406,-0.5460218669441783,0.0032945871875246515,0.0,-0.5459751210881624,-0.837737675064248,-0.00935424138683168,0.0,0.007867771635642118,0.006037896972090173,-0.9999508197754747,0.0,0.28310669612074196,-0.23608579471327945,0.3050352920200702,1.0,-0.13003714285722898,-0.1709059591837867,-0.5039253015432437,2.5369999999998325
-0.5720691317503193,-0.537939015814295,-0.1313880005126454,-2.657632198249383,-0.06765857396929816,2.1248641116744125,0.7214718546652853,-0.5711843155671759,0.0369804369407573,0.02503666695160527,0.03236381451941811,0.019302297349094756,0.012459359056799287,-0.09234410200834425,0.8333283197505938,-0.5527508657640879,0.0033374840691001656,0.0,-0.5527036461794546,-0.833313685056294,-0.009366359967672693,0.0,0.007958587957107799,0.005960728162470619,-0.999950564076796,0.0,0.2810300681193408,-0.2388009835523311,0.30504567000355787,1.0,-0.12180857142865847,-0.1600912653062369,-0.46699555937181914,2.5529999999998307
-0.5797755722394411,-0.5373595274989809,-0.1310425193424558,-2.657230355782762,-0.06737265847535935,2.1249916639746407,0.7201048508382406,-0.5456465066372377,0.033522407632372686,0.02377160579622443,0.029538971647214703,0.024329499162772543,0.008418051104506706,-0.10257706181229514,0.8298737792690902,-0.5579240783760777,0.003313631097500951,0.0,-0.5578768623662165,-0.8298592128542981,-0.009372309132707807,0.0,0.00797903785058729,0.005929349639079817,-0.9999505876631287,0.0,0.27937869117861275,-0.24095556331607523,0.30503789629251166,1.0,-0.11460857142865927,-0.1506284081633808,-0.4346820349718228,2.566999999999829
-0.5903090080099225,-0.5365539864924569,-0.13064070402945574,-2.6566196467563707,-0.06697933797105105,2.125165256679773,0.7183177646502528,-0.5053759309171219,0.039088678191328136,0.02364168305968442,0.02888439014195691,0.018926200853700663,0.010169996547995613,-0.09855234130090298,0.8250168065681392,-0.5650813641123192,0.0033268174398923536,0.0,-0.565033618472414,-0.8250025158527307,-0.009413061873999685,0.0,0.008063933857642647,0.005886283880460974,-0.9999501610744497,0.0,0.2770953323410708,-0.2439124030972013,0.30504843943834914,1.0,-0.10432285714294587,-0.13711004081644318,-0.3885198572575411,2.5869999999998274
-0.5988528090897269,-0.5357157524676356,-0.1302040830602063,-2.6559774694737035,-0.0666117205494606,2.12537154516276,0.7166155433648814,-0.44314701940630463,0.04460658100017668,0.02928712998341312,0.03357427918980431,0.023642592642984354,0.014481519018106953,-0.08981647180733104,0.8212100823234882,-0.5705991548938922,0.00336927675238542,0.0,-0.5705510993537675,-0.8211964795861422,-0.009409136131558238,0.0,0.008135839972889747,0.005804644659486269,-0.9999500558569476,0.0,0.2752884953577961,-0.24630682718513247,0.30506488799081694,1.0,-0.09506571428580404,-0.12494351020419964,-0.34697389731468853,2.6049999999998255
-0.6057193136787283,-0.5349646411781249,-0.12976210015461462,-2.655443025900843,-0.06628415206313701,2.125529840078032,0.7151595833944109,-0.4270067722431158,0.045241737430053115,0.019904179486775087,0.03288095917805645,0.014095765612368784,0.0037696446131185238,-0.08673283958444473,0.8182095369380641,-0.5748936839207629,0.003339573748433114,0.0,-0.5748459262606432,-0.8181960837181262,-0.00938491081858026,0.0,0.008127908603444478,0.005759194052673888,-0.9999503831618836,0.0,0.273844263683693,-0.24820015123472414,0.30505954264016116,1.0,-0.08683714285723351,-0.11412881632664978,-0.310044155143264,2.6209999999998237
-0.6121554903338039,-0.5342377400521031,-0.129349775596316,-2.6549129754469853,-0.06598011883208951,2.125691710936873,0.713665742052626,-0.39269631829866236,0.04634143324173272,0.026290164797019126,0.03479853773070201,0.017013105356521906,0.003087065464849971,-0.09368369476080377,0.8154502450625075,-0.5788009514575945,0.003332164534989465,0.0,-0.5787534031262856,-0.8154371219556669,-0.009356570290992617,0.0,0.00813291902899449,0.005701425742445754,-0.9999506734697323,0.0,0.2724867303886883,-0.2499765833469611,0.305060406391692,1.0,-0.07860857142866301,-0.10331412244909999,-0.27311441297183947,2.636999999999822
-0.6179903119654634,-0.5334980360462889,-0.12899196730192644,-2.6543599483974423,-0.06567741376813163,2.125859108350902,0.7122339085649392,-0.34840626807993375,0.04436716109064262,0.018332828200522143,0.03365302502529523,0.012367184691202524,0.006643421320382938,-0.0929535173698779,0.8129586870526578,-0.582295258749493,0.0033394138240955577,0.0,-0.5822476460205789,-0.8129458498579936,-0.009352582711060587,0.0,0.00816088430128159,0.005659006476577688,-0.9999506865906533,0.0,0.2712636830942831,-0.2516010577276689,0.3050660405040482,1.0,-0.07038000000009248,-0.09249942857155014,-0.23618467080041494,2.65299999999982
