nelsonifechukwu/NELSON_IML_WORK/CNN-GradCAM/train2dof/data_sample_2022-02-22-08-43-51/robot_state.csv
position_joint1,position_joint2,position_joint3,position_joint4,position_joint5,position_joint6,position_joint7,velocity_joint1,velocity_joint2,velocity_joint3,velocity_joint4,velocity_joint5,velocity_joint6,velocity_joint7,ee_T_00,ee_T_10,ee_T_20,ee_T_30,ee_T_01,ee_T_11,ee_T_21,ee_T_31,ee_T_02,ee_T_12,ee_T_22,ee_T_32,ee_T_03,ee_T_13,ee_T_23,ee_T_33,v_x,v_y,time
0.465057791159,0.547764691214,-0.124012329976,-1.35583207147,0.0795026215994,1.89410518122,0.159163606863,-0.000675948203762,-5.85887346382e-05,-0.00050385411131,-0.00109494551269,-0.000178174683913,-0.000352227240016,8.46239603782e-05,0.573839667435,0.818953567835,0.00195875192674,0.0,0.818910639767,-0.573781157421,-0.011886730678,0.0,-0.00861095133851,0.00842528258542,-0.999927430432,0.0,0.661688122722,0.260867250596,0.303227702488,1.0,0.0,0.0,0.0
0.465063404568,0.547764623069,-0.124014460517,-1.35583118728,0.0795027399038,1.89410565994,0.159162163227,0.000825904482563,0.00128109965396,8.63763423014e-05,-0.00157981307146,-0.000114437125028,-0.000463638650087,0.000453262195467,0.573835362956,0.818956582211,0.00195948354203,0.0,0.818913674637,-0.57377686119,-0.0118850307927,0.0,-0.0086091836346,0.00842486103113,-0.999927449205,0.0,0.661687441197,0.260869889738,0.303228283949,1.0,-0.0001,-0.000131428571429,0.006
0.465060572306,0.547761623372,-0.124015250161,-1.35582669459,0.0795029799248,1.89411030726,0.159156833547,-0.00165241011269,-0.00308008988269,-0.00114397105401,-0.00250234690291,-0.000110517078472,-9.38786965132e-05,-0.00086429847514,0.573833715073,0.818957712625,0.00196958833769,0.0,0.818914949184,-0.573775184342,-0.0118781621967,0.0,-0.00859777716514,0.00842917756284,-0.999927510969,0.0,0.661690385818,0.260868488412,0.303232977527,1.0,-0.00036,-0.000473142857143,0.019
0.465058449318,0.547753386709,-0.124012932593,-1.35583526538,0.0795032331866,1.89411119058,0.159158077883,2.31495742616e-05,-0.00227768070838,-0.000829022380322,-0.000632388774691,0.000417123349095,2.43222075659e-05,0.000898976850546,0.573835380163,0.818956542048,0.00197119524093,0.0,0.818913777951,-0.573776821486,-0.0118798277948,0.0,-0.00859820209309,0.00843146677258,-0.999927488015,0.0,0.661688822467,0.260867616913,0.303234733612,1.0,-0.00068,-0.000893714285714,0.035
0.465057504899,0.547704170412,-0.12401051463,-1.35588642549,0.0795028380863,1.89411879499,0.159156652516,-0.000260485210182,-0.00336765555092,8.1601754713e-05,-0.00643186631797,0.000322463389699,0.000464383088471,-0.00133575511972,0.573835951545,0.81895612298,0.00197895168727,0.0,0.818913408568,-0.57377731067,-0.0118816635942,0.0,-0.00859524905976,0.00843887828067,-0.999927450882,0.0,0.66167962624,0.2608634187,0.303245828519,1.0,-0.00104,-0.00136685714286,0.053
0.465062385036,0.547583251731,-0.124007733553,-1.35603521414,0.0795009470456,1.89415339457,0.159155753181,0.000938262945689,-0.00771245531812,0.00060480252691,-0.0165582562461,8.06839847537e-05,0.00243355397873,0.000879693015931,0.573836924135,0.818955413335,0.00199057024404,0.0,0.818912745071,-0.573778132211,-0.0118877188089,0.0,-0.00859353144617,0.00845187806391,-0.999927355849,0.0,0.661653807073,0.260854228403,0.303263578807,1.0,-0.00138,-0.00181371428571,0.07
0.465052672498,0.547455402317,-0.124013257059,-1.35621693026,0.0794986355895,1.89420853902,0.159155603049,0.000621320308515,-0.0112456878929,-0.000901743948575,-0.0145227951078,-0.000233051546663,0.00715806051515,0.000603532539731,0.57385807936,0.818940577518,0.00199553233887,0.0,0.818897908316,-0.573799199988,-0.011892886541,0.0,-0.00859469798722,0.00845912915118,-0.999927284506,0.0,0.661630450846,0.26082808444,0.303272621944,1.0,-0.0017,-0.00223428571429,0.086
0.465033989042,0.54728270948,-0.124015469805,-1.35642809191,0.0794965914683,1.89431658777,0.15914602449,0.000365209119552,-0.0137390988294,-0.00157963628392,-0.0142093343573,-4.70047170971e-05,0.00388783116115,0.00043343732952,0.573878509933,0.818926101996,0.00205966211838,0.0,0.818884224669,-0.573819324512,-0.0118640763066,0.0,-0.00853409214576,0.00849532681082,-0.999927496718,0.0,0.661613645576,0.260798663634,0.303303896435,1.0,-0.00204,-0.00268114285714,0.103
0.465011220083,0.547083577713,-0.124005464939,-1.3566592559,0.0794954175274,1.89443592956,0.159126159042,-0.00134859335174,-0.0184805557868,0.000605061832416,-0.0121505283058,-0.00251556682937,0.000774900793362,-0.00235568914873,0.573886669582,0.818920169108,0.00214336333296,0.0,0.818879264394,-0.573827031998,-0.0118336214154,0.0,-0.00846103433198,0.0085464779188,-0.999927681692,0.0,0.661593407209,0.260772494327,0.303344949249,1.0,-0.00238,-0.003128,0.12
0.46499110476,0.546884749154,-0.124006023033,-1.35693637946,0.0794862384002,1.89455873797,0.159115604484,0.00111839081062,-0.0143599496382,0.00180293264283,-0.0159567965628,2.30191922298e-05,0.00395810584294,-0.00347831333582,0.573908070805,0.818905061989,0.00218463148928,0.0,0.818864658897,-0.573848232661,-0.0118162254003,0.0,-0.00842288204138,0.00857050965186,-0.999927798105,0.0,0.661565476761,0.26073543723,0.30336453917,1.0,-0.0027,-0.00354857142857,0.136
0.464957917105,0.546632900631,-0.124010660887,-1.35731528187,0.0794794129674,1.89469562671,0.159068398563,-0.00101488225279,-0.0169807681689,-2.43496234468e-05,-0.0169751232922,0.000154337043844,0.00979279780351,-0.00249943526112,0.573919195405,0.818897221909,0.00220090798838,0.0,0.81885690495,-0.573859164308,-0.0118226755387,0.0,-0.00841870702148,0.00858765447513,-0.999927686167,0.0,0.661522596416,0.260677316369,0.303374586076,1.0,-0.00304,-0.00399542857143,0.153
0.464919651742,0.54635635611,-0.124010312371,-1.35773877827,0.0794703736142,1.8948628933,0.158935780123,-0.00067220163489,-0.0147688012282,-0.00445952321379,-0.0262673256369,-0.000968981269985,0.00691807326491,-0.00125474761096,0.573863053632,0.818936492844,0.00222783869339,0.0,0.8188963826,-0.573802777538,-0.0118251408031,0.0,-0.00840586114534,0.00861054623761,-0.999927597375,0.0,0.661476470328,0.260615459957,0.303383351636,1.0,-0.00338,-0.00444228571429,0.17
0.464870708983,0.546063793405,-0.124008421227,-1.35823534535,0.0794509496285,1.89502834042,0.158921429269,-0.00251897035423,-0.0166032016138,-0.000960571366882,-0.0252888614575,-0.00360979086357,0.00743363787079,-0.0010511015424,0.573912608348,0.818901839481,0.00220049406825,0.0,0.818861243578,-0.5738523008,-0.0118552744854,0.0,-0.0084457101058,0.00860595650317,-0.999927301104,0.0,0.661416599515,0.260537157343,0.303368433444,1.0,-0.00372,-0.00488914285714,0.187
0.464810978693,0.545737476565,-0.124011648972,-1.35880233417,0.0793916460152,1.89521488227,0.15884193797,-0.00221853265242,-0.0193278771854,-0.00523957294265,-0.0353757057264,-0.00587161461246,0.0125685429906,-0.00422732723937,0.573914546411,0.818900642905,0.00213947843812,0.0,0.818859452726,-0.573854683702,-0.0118636240314,0.0,-0.00848754303562,0.00856080336973,-0.999927334489,0.0,0.661351823342,0.260435814119,0.303345803705,1.0,-0.00406,-0.005336,0.204
0.464748953725,0.545370492758,-0.124015955805,-1.35945287185,0.079322350536,1.89542762503,0.158743983079,-0.00683447966993,-0.0207137166154,-0.000397119834348,-0.042484848743,-5.02348342792e-07,0.018565757183,-0.00281403524095,0.573905967296,0.818906856281,0.0020611499798,0.0,0.818864889585,-0.573846664238,-0.0118762556878,0.0,-0.00854292764713,0.00850382108391,-0.999927349068,0.0,0.661275487923,0.260323108514,0.3033144679,1.0,-0.0044,-0.00578285714286,0.221
0.464693468585,0.544984319061,-0.124008696031,-1.36010759916,0.0793042448204,1.89563027324,0.158699873297,-0.0042190974052,-0.0264213953019,0.000722694651749,-0.0407963638118,0.000369554243791,0.0149840597562,-0.0013717333756,0.57394173105,0.818881897276,0.00201855754087,0.0,0.818839085958,-0.57388231071,-0.0119327977248,0.0,-0.00861330340764,0.00850176807956,-0.99992676279,0.0,0.661189384134,0.26022879131,0.303293527995,1.0,-0.00472,-0.00620342857143,0.237
0.464621163684,0.544558228232,-0.124017144003,-1.36082551055,0.0792804151491,1.89588412861,0.158579406042,-0.00361626994855,-0.0243122798438,-0.00407546187347,-0.0443781346518,-0.000921191685652,0.0114395973438,-0.0056056770219,0.573941906584,0.818881833303,0.00199445577146,0.0,0.818838545073,-0.573882426441,-0.011964306383,0.0,-0.0086529366234,0.00850011773215,-0.999926434637,0.0,0.661108242031,0.260109836319,0.303275689589,1.0,-0.00506,-0.00665028571429,0.254
0.464555018768,0.544072576051,-0.124014786418,-1.36160459455,0.0792445790984,1.89616094343,0.158498477176,-0.00495763570903,-0.0313430049339,0.00104880457384,-0.0454162645461,-0.0010476440931,0.0199930475608,-0.00810798325322,0.573961997405,0.818867770715,0.00198658481544,0.0,0.818824243039,-0.573902413629,-0.0119843874779,0.0,-0.00867368983235,0.00850541053773,-0.999926209826,0.0,0.661015674764,0.259994357213,0.303272454954,1.0,-0.0054,-0.00709714285714,0.271
0.464482291785,0.543553526244,-0.124020154011,-1.36243972947,0.0791956301332,1.89644304354,0.158390416193,-0.00746575666552,-0.0295878126909,-0.000300325848296,-0.0442807385941,-0.00566407065106,0.0133545070859,-0.00791804937911,0.573970151732,0.818862125268,0.00195745338173,0.0,0.818818184306,-0.573910658035,-0.0120035221736,0.0,-0.00870599393677,0.00849262537657,-0.999926037757,0.0,0.660916240977,0.259862077974,0.303266809107,1.0,-0.00574,-0.007544,0.288
0.4644037922,0.543008652675,-0.124020507303,-1.36329852881,0.0791428648688,1.89674923554,0.158264707356,-0.00215090391303,-0.0301126056382,0.000667181574996,-0.0465711114218,-0.00650595436801,0.0173976180552,-0.00276683390141,0.573965409435,0.818865466058,0.00195042857297,0.0,0.818821417742,-0.573905931012,-0.0120089590193,0.0,-0.00871452707977,0.00848994322741,-0.999925986202,0.0,0.660817285287,0.259727446865,0.303270025467,1.0,-0.00608,-0.00799085714286,0.305
0.46433674779,0.542454969992,-0.124026488322,-1.36415740106,0.0790989877329,1.89705626123,0.158162174732,-0.000385309391037,-0.0364510325669,-0.000416200507771,-0.0502467300492,-0.000691034980632,0.0167776547525,-0.00829844520976,0.573976524937,0.818857663815,0.00195502764294,0.0,0.818813610591,-0.573916962196,-0.0120140965746,0.0,-0.00871597933765,0.00849677623452,-0.999925915505,0.0,0.660716402371,0.259598733712,0.303279643641,1.0,-0.0064,-0.00841142857143,0.321
0.464251562124,0.541892040695,-0.124023704627,-1.36504508457,0.0790488249294,1.89738719886,0.158036276314,-0.00897167208297,-0.0346829521701,-0.000219787992116,-0.0552471657046,-0.000497277751967,0.0167895185121,-0.00975262517211,0.573977200959,0.818857172359,0.0019623852251,0.0,0.818813163314,-0.573917556101,-0.0120162092272,0.0,-0.00871347953927,0.00850402072095,-0.999925875706,0.0,0.660616808145,0.25946042697,0.303283797629,1.0,-0.00672,-0.008832,0.337
0.464162172885,0.541201221785,-0.124024375992,-1.36610283535,0.0789804735042,1.89778135395,0.15790944148,-0.00773620158697,-0.0425177831439,0.00129541083136,-0.064713524824,-0.000366734118745,0.0251582470436,-0.00237123532993,0.573987457398,0.818849934198,0.00198265321018,0.0,0.818806230762,-0.573927765107,-0.0120009918742,0.0,-0.00868927897613,0.00851199149626,-0.999926018479,0.0,0.66049669488,0.259300192941,0.303302917351,1.0,-0.00708,-0.00930514285714,0.355
0.464077806554,0.540496850777,-0.124029749531,-1.36716821444,0.0789186877358,1.89816652678,0.157769042409,-0.00327998086893,-0.0421267970938,0.000245893024866,-0.0655321505717,-0.00789818443642,0.0270378721581,-0.00824395079155,0.573987795242,0.818849645545,0.002003947418,0.0,0.818806203066,-0.573927996175,-0.011991827581,0.0,-0.00866954915378,0.00852417136733,-0.999926085978,0.0,0.660372596758,0.259140285287,0.303327262185,1.0,-0.00742,-0.009752,0.372
0.463972260074,0.539820453713,-0.124027590107,-1.36821720393,0.0788582246409,1.89855734146,0.157641014254,-0.00497280449671,-0.0417456380684,0.000256577003267,-0.0633950716228,-0.00146791491053,0.0267792254992,-0.0111975566535,0.574009801014,0.818834177556,0.00202111542506,0.0,0.81879091745,-0.573949885847,-0.0119878663207,0.0,-0.00865622235096,0.00853618806256,-0.999926098923,0.0,0.660256164059,0.258972941825,0.303339778586,1.0,-0.00774,-0.0101725714286,0.388
0.463871645264,0.539053543431,-0.124038563881,-1.36939662762,0.0787944757936,1.89900240787,0.157497739334,-0.00453172877301,-0.0460967810036,-0.000253649575936,-0.070227333427,-0.00269904073368,0.0302447121969,-0.00432598891605,0.574030790949,0.818819391968,0.00204970289347,0.0,0.818776495183,-0.573970743803,-0.0119742680826,0.0,-0.00862845954087,0.00855201178247,-0.999926203667,0.0,0.660124476924,0.258790103496,0.303359193298,1.0,-0.00808,-0.0106194285714,0.405
0.463767226945,0.538278577094,-0.124039352696,-1.37058521148,0.0787278888422,1.89946010263,0.157345575859,-0.000286370429919,-0.0466144365634,-0.00209396507995,-0.0695687416213,-0.0060402104329,0.0286717696204,-0.0130256193392,0.574040175539,0.818812713274,0.00208910224458,0.0,0.818770302899,-0.573979936195,-0.0119570413649,0.0,-0.00859164012538,0.00857448208697,-0.999926328275,0.0,0.659991968089,0.258610089635,0.303380562986,1.0,-0.00842,-0.0110662857143,0.422
0.463663744733,0.537520949087,-0.12404539866,-1.37175977843,0.0786555676978,1.89991270136,0.157200032449,-0.00479944877433,-0.0470563146129,0.000490675649088,-0.0754030045057,-0.000583149098908,0.0300050792117,-0.0109579169199,0.574055507633,0.818801894852,0.00211613921053,0.0,0.818759894483,-0.573995212639,-0.0119364129906,0.0,-0.00855906858692,0.00858493882203,-0.999926517885,0.0,0.659862263819,0.258427819348,0.303395948211,1.0,-0.00874,-0.0114868571429,0.438
0.463551631529,0.536691930385,-0.124051365136,-1.37305695415,0.0785794051591,1.90039527424,0.157042094623,-0.00572759243816,-0.0522159771041,-0.0013073817662,-0.0766089973981,-0.00342504993447,0.0256888248633,-0.0188624763607,0.574077534973,0.818786413328,0.00213074874018,0.0,0.818744594596,-0.574017168672,-0.0119300373553,0.0,-0.00854523066019,0.00859347090147,-0.999926562949,0.0,0.65970535667,0.258217880545,0.303407666038,1.0,-0.0091,-0.01196,0.456
0.463424989956,0.535781108975,-0.124052048849,-1.37448909524,0.0785002567945,1.90091733033,0.156866387229,-0.00822008235486,-0.0563993157494,0.00194899502425,-0.085108772726,-0.0031441298232,0.0239170410389,-0.00624070268834,0.574091039493,0.81877694256,0.00213157378347,0.0,0.818735053455,-0.574030586548,-0.0119392149094,0.0,-0.00855212998589,0.00859955604172,-0.99992645165,0.0,0.659547148102,0.258008349675,0.303412333137,1.0,-0.00944,-0.0124068571429,0.473
0.463315243898,0.534931596568,-0.124055262355,-1.37581294695,0.0784217885445,1.90140251011,0.156703610937,-0.00850109191914,-0.0570827101767,-0.000232307736825,-0.0829589536801,-0.00282037623798,0.033788227327,-0.0117149281263,0.574101472704,0.818769603606,0.00214059609417,0.0,0.818727813262,-0.574040962601,-0.0119368316,0.0,-0.00854488955058,0.00860568384629,-0.99992646083,0.0,0.659392163813,0.257808343296,0.303423799096,1.0,-0.00976,-0.0128274285714,0.489
0.463196009649,0.534041689353,-0.124061166859,-1.3772908297,0.0783441364539,1.90193290244,0.156524795721,-0.00851811610653,-0.0512492013922,-0.000155233285513,-0.0842688403712,-0.00350750957001,0.0299387328714,-0.0120738212356,0.574117022408,0.818758817985,0.00209510268144,0.0,0.818716308287,-0.574056571268,-0.0119752423729,0.0,-0.00860229344935,0.00859065062321,-0.999926097904,0.0,0.659214128173,0.257585973609,0.303394329893,1.0,-0.0101,-0.0132742857143,0.506
0.463071002954,0.533116826389,-0.124055295789,-1.37877077184,0.0782521150418,1.9024917933,0.156337274801,-0.00537481669075,-0.0558334777417,0.000705973304208,-0.0863837839687,-0.0070827738792,0.0307384939995,-0.00500034058027,0.574118071784,0.818758077936,0.00209675152095,0.0,0.818715578209,-0.574057602139,-0.0119757389989,0.0,-0.00860174250439,0.0085922967444,-0.9999260885,0.0,0.659041441884,0.257366486725,0.303390403123,1.0,-0.01044,-0.0137211428571,0.523
0.462938182507,0.532216430219,-0.124056239991,-1.38023016618,0.0781742718529,1.90304325822,0.156151214169,-0.0072382633404,-0.0573784127786,0.000948221795126,-0.0889009797436,-0.00685725003115,0.0358616792377,-0.0125936769798,0.574134106075,0.818746841515,0.00209395624585,0.0,0.818704209263,-0.574073550136,-0.0119884807919,0.0,-0.0086136117258,0.00859749202353,-0.99992594167,0.0,0.65887381967,0.25714181122,0.303378428706,1.0,-0.01076,-0.0141417142857,0.539
0.462809640362,0.53121770722,-0.124058627102,-1.38182411556,0.0780727713239,1.90361747684,0.155943394665,-0.00747425503571,-0.0612852711784,-8.19598054912e-05,-0.0949747251774,-0.00703048860181,0.0258303903947,-0.0185028608326,0.574130399782,0.818749495551,0.00207231331825,0.0,0.818706590737,-0.57406994467,-0.0119984920485,0.0,-0.00863427275662,0.00858548090541,-0.999925866678,0.0,0.658682079562,0.256902201024,0.303373499202,1.0,-0.0111,-0.0145885714286,0.556
0.462662643291,0.530118451348,-0.124062019805,-1.38357070761,0.0779694880099,1.90423188338,0.15572110057,-0.00960884229396,-0.0597812086084,-0.001688528705,-0.0965182509482,-0.0060080916751,0.0371038707452,-0.0141101977899,0.574138199897,0.818744094237,0.00204510960004,0.0,0.818700755956,-0.574077780761,-0.0120216776927,0.0,-0.0086687925342,0.00857660229194,-0.9999256442,0.0,0.658469959916,0.256635521442,0.303370039601,1.0,-0.01146,-0.0150617142857,0.574
0.462540894053,0.52920092066,-0.124063790535,-1.38502066316,0.0778784497163,1.90477311596,0.155522965687,-0.00974838512161,-0.0662783549386,-0.000626056258641,-0.106743859174,-0.00510024610368,0.0350138297551,-0.0103613147935,0.57413117431,0.818749009578,0.00204960995864,0.0,0.818705752831,-0.574070759555,-0.0120166636614,0.0,-0.00866217709925,0.00857733382369,-0.999925695256,0.0,0.658299803496,0.256416266671,0.303373122822,1.0,-0.01176,-0.015456,0.589
0.462400177274,0.528111416839,-0.124064052022,-1.38672823627,0.0777704834363,1.9054330093,0.155285790321,-0.0061747653537,-0.0630946219657,-0.000124792311265,-0.102408718159,-0.0063196404477,0.0327441233439,-0.013575088818,0.5741160263,0.818759552284,0.00208105505554,0.0,0.818716764223,-0.574055539033,-0.0119935393896,0.0,-0.00862534982399,0.00858964321414,-0.99992590794,0.0,0.658102621952,0.256162410117,0.303384702167,1.0,-0.0121,-0.0159028571429,0.606
0.462240147293,0.526891602848,-0.124067349892,-1.38858930853,0.077650319946,1.90614615099,0.155032320801,-0.00854937543349,-0.0701794026923,-0.000735345872961,-0.0999704868546,-0.00866312128639,0.0371558273089,-0.01905419289,0.574110185065,0.818763504701,0.00213674414026,0.0,0.818721540653,-0.574049565346,-0.0119533383818,0.0,-0.00856052499803,0.00861209757458,-0.999926271876,0.0,0.657889310767,0.255879248446,0.303419340298,1.0,-0.01246,-0.016376,0.624
0.462106295418,0.525867025695,-0.124070510017,-1.39019884489,0.0775480970803,1.90673585331,0.154800916277,-0.00787636276242,-0.0716724522225,-0.00398030897735,-0.109944933033,-0.00515229844459,0.0352375662505,-0.0198044232557,0.574091961065,0.818776275627,0.00213953550749,0.0,0.818734389116,-0.574031373588,-0.0119469291676,0.0,-0.00855386635122,0.00861051307028,-0.999926342505,0.0,0.657685250682,0.255617980961,0.303428683675,1.0,-0.01278,-0.0167965714286,0.64
0.461937970975,0.524627403416,-0.124070826588,-1.39214698265,0.077435514578,1.90743423205,0.154546315089,-0.0108344691745,-0.0732174500631,0.000209848782191,-0.111507685694,-0.00609127252877,0.0369030236836,-0.0148851078808,0.574095749183,0.818773639019,0.00213206883257,0.0,0.818731525661,-0.574035061704,-0.0119659402135,0.0,-0.00857367921891,0.00861535325189,-0.999926131128,0.0,0.657460620834,0.255338614705,0.303430522598,1.0,-0.01312,-0.0172434285714,0.657
0.461778575847,0.523437242383,-0.124082491027,-1.39406569528,0.0773062723482,1.9081283771,0.154290972551,-0.00925998224412,-0.0713322302715,-0.00184878043424,-0.106282393587,-0.00516963357713,0.0378071190715,-0.0111885899576,0.574093500841,0.818775318438,0.00209215449463,0.0,0.818732796772,-0.574033091351,-0.0119734884054,0.0,-0.00860279650027,0.00858698270262,-0.999926125081,0.0,0.657229625023,0.255041159389,0.303414584819,1.0,-0.01346,-0.0176902857143,0.674
0.461625292697,0.522290597091,-0.12407882531,-1.3958953031,0.0772015146815,1.90884268108,0.154042542328,-0.0109449941619,-0.0719915895916,-0.000498315643286,-0.113702537732,-0.00528369744889,0.0410963552699,-0.0228754710893,0.574083073697,0.818782556352,0.00212056831109,0.0,0.818740352404,-0.574022494917,-0.011964847557,0.0,-0.00857951973885,0.00860517698448,-0.99992616866,0.0,0.657015502605,0.254771954746,0.303411450713,1.0,-0.01378,-0.0181108571429,0.69
0.461449875789,0.520969369531,-0.124086527286,-1.39801303848,0.077063742239,1.90965396629,0.153750447784,-0.0107607084647,-0.0724101349366,-0.000984270886115,-0.119081530688,-0.00975377798431,0.0425684962327,-0.0160304293586,0.574069151961,0.818792308931,0.00212379453807,0.0,0.818750266395,-0.574008681396,-0.011949136442,0.0,-0.00856494941653,0.00859865351845,-0.999926349687,0.0,0.656766782414,0.254450993144,0.303402259921,1.0,-0.01414,-0.018584,0.708
0.461295734632,0.519753620736,-0.124095390917,-1.39993395633,0.0769456907542,1.91035606699,0.153496986452,-0.0108812901535,-0.0738131389131,-0.00173859311921,-0.122626772353,-0.0157180157458,0.0416791254848,-0.0184693168261,0.574064559129,0.818795544142,0.00211795821955,0.0,0.818753433712,-0.574004121364,-0.0119511649228,0.0,-0.00857000883843,0.00859499126743,-0.999926337824,0.0,0.656532993337,0.254161148343,0.303402860543,1.0,-0.01446,-0.0190045714286,0.724
0.461124634728,0.518409157525,-0.12409611794,-1.4020141487,0.0768079744241,1.91108848062,0.153223739059,-0.0109306513399,-0.0769433748365,-0.00150798762004,-0.124755115726,-0.00611908254683,0.045945976124,-0.013063019411,0.574054422147,0.818802670867,0.00211033055748,0.0,0.818760478429,-0.57399403454,-0.0119529986493,0.0,-0.00857599518246,0.00858969236761,-0.999926332032,0.0,0.656273842208,0.253846669446,0.3034199645,1.0,-0.0148,-0.0194514285714,0.741
0.460944126843,0.517042908112,-0.124102046912,-1.40415047281,0.0766643858243,1.91185352627,0.1529238709,-0.0113851783353,-0.0846350193946,0.000170694585198,-0.121273233676,-0.0114430173151,0.0476514662746,-0.0182850270929,0.574035037228,0.818816292737,0.00209801883817,0.0,0.818774015346,-0.573974778411,-0.0119504160446,0.0,-0.00858115067832,0.00857792597912,-0.99992638881,0.0,0.656011613973,0.253517922857,0.303428233388,1.0,-0.01514,-0.0198982857143,0.758
0.460763274848,0.515695298144,-0.124108193491,-1.40631995093,0.0765323173652,1.91267994649,0.152630178717,-0.00789466644473,-0.0853785873504,-0.00121122469461,-0.128618806859,-0.00811532337697,0.04750783175,-0.0222187284583,0.574026203103,0.818822486049,0.00209794980026,0.0,0.818780226798,-0.573965964709,-0.0119481572404,0.0,-0.00857943321493,0.00857648027186,-0.999926415949,0.0,0.655752010489,0.25319065296,0.30341263963,1.0,-0.01548,-0.0203451428571,0.775
0.460586840313,0.514378386789,-0.124106379913,-1.40840451095,0.0764166010772,1.91343977785,0.152338374046,-0.0128519113451,-0.0815587717715,-2.5311407875e-05,-0.131813436645,-0.00390484054858,0.0488069505019,-0.0183777874967,0.574009062855,0.818834502104,0.00209781457406,0.0,0.818792073089,-0.573948659277,-0.0119676423077,0.0,-0.00859564606102,0.00858737442325,-0.99992618321,0.0,0.655493855243,0.252878798368,0.303409498622,1.0,-0.0158,-0.0207657142857,0.791
0.460393481456,0.512966817486,-0.124106381263,-1.41068936613,0.0762703078477,1.91423253134,0.152010338717,-0.0132694464215,-0.0879464166029,-0.000241846184524,-0.131966890076,-0.00625724787106,0.0538120225565,-0.0226376310464,0.573978932877,0.818855802709,0.00202629837678,0.0,0.818812371535,-0.573918764284,-0.0120124570903,0.0,-0.00867370652841,0.00855422017648,-0.999925793313,0.0,0.655202661,0.252529705806,0.303379864615,1.0,-0.01614,-0.0212125714286,0.808
0.460188551622,0.511552563885,-0.124109900695,-1.41299242846,0.0761362523847,1.9150761726,0.151701535518,-0.0167741626007,-0.0766688605814,0.00105837567967,-0.140233832537,-0.00694399832307,0.0600210513572,-0.0201070042421,0.57398087319,0.818854534024,0.00198902533103,0.0,0.81881050792,-0.573920756967,-0.012044241068,0.0,-0.00872110639216,0.00854196330598,-0.999925485807,0.0,0.6549195225,0.252174278897,0.303347567261,1.0,-0.01648,-0.0216594285714,0.825
0.459997227773,0.510164221937,-0.124118479216,-1.41517502616,0.0760064503355,1.91589990448,0.151391289838,-0.0102235810826,-0.084595417618,-0.000661462407795,-0.132103117635,-0.00760526529098,0.0523439706822,-0.0186635983118,0.573968646737,0.818863045664,0.00201293559257,0.0,0.818819322874,-0.573908420885,-0.0120327813766,0.0,-0.00869812678449,0.00855483450919,-0.999925575929,0.0,0.654657071305,0.251838144217,0.303352378998,1.0,-0.0168,-0.02208,0.841
0.459781682831,0.508567352045,-0.124124176069,-1.41768785493,0.0758442604481,1.91680259941,0.15103609312,-0.0140988523907,-0.0897422904109,0.00145314698656,-0.141549130872,-0.0081502962714,0.0548463487582,-0.0224894460644,0.573945008438,0.818879654741,0.00199630690764,0.0,0.818835727984,-0.573884869641,-0.0120396791944,0.0,-0.00871356577558,0.0085449257131,-0.999925526235,0.0,0.65434325546,0.251451680728,0.303352186828,1.0,-0.01716,-0.0225531428571,0.859
0.45957676652,0.507036668784,-0.12412707851,-1.42008213605,0.0756837139735,1.91767442087,0.15071357235,-0.0118008435398,-0.0835413678469,0.00028950359944,-0.139614696354,-0.00166116439118,0.0457245653711,-0.0157585315948,0.573931267297,0.818889288601,0.0019950778527,0.0,0.81884542009,-0.573871208345,-0.0120316720278,0.0,-0.00870785726271,0.00853917754266,-0.999925625069,0.0,0.654045448014,0.251085255834,0.303358773169,1.0,-0.0175,-0.023,0.876
0.459364163001,0.505532585109,-0.124133999366,-1.42239156227,0.0755365394691,1.91855466958,0.15039567872,-0.0171305989299,-0.0934879299498,-0.00206637323727,-0.143683029742,-0.00568671060374,0.0597136094384,-0.0143966023359,0.573929629232,0.818890292852,0.00205325680353,0.0,0.818847269463,-0.573869408452,-0.0119915902477,0.0,-0.00864166196123,0.00856379755148,-0.999925988786,0.0,0.653770126892,0.250723909545,0.303387455209,1.0,-0.01782,-0.0234205714286,0.892
0.459158237967,0.503991156149,-0.124142297524,-1.42472270534,0.0753911404717,1.91944232468,0.15006426239,-0.0137191685083,-0.100541568467,-0.00110594819581,-0.148427224954,-0.0124963437891,0.053964478221,-0.0177312583388,0.573913634884,0.818901297951,0.00213326268675,0.0,0.818859382389,-0.573853148538,-0.0119424741292,0.0,-0.00855569277927,0.00860095649818,-0.999926409126,0.0,0.653489664963,0.25036489977,0.303432018307,1.0,-0.01814,-0.0238411428571,0.908
0.458909315922,0.502201539561,-0.124144424502,-1.42736043009,0.0752250422649,1.92042831467,0.149697915848,-0.0146299159831,-0.106235677665,-0.00113044279514,-0.148421330069,-0.00657826237076,0.051323647685,-0.0225723727968,0.573909302472,0.818904022828,0.00224962958699,0.0,0.818863658517,-0.573848383629,-0.0118780582335,0.0,-0.00843620579164,0.00865923474652,-0.999926921372,0.0,0.653171120258,0.249951748917,0.303511609792,1.0,-0.0185,-0.0243142857143,0.926
0.458698601286,0.500597626283,-0.124144499975,-1.42978895982,0.0750653349966,1.92128520569,0.149358784313,-0.0121848595836,-0.10090971136,-0.00022129656783,-0.152248667975,-0.0100893641782,0.0538107957054,-0.0230582723862,0.573884677496,0.818921212306,0.00227417494685,0.0,0.818881162245,-0.573823659427,-0.0118657870801,0.0,-0.00841233131386,0.00867203937895,-0.999927011544,0.0,0.652860736713,0.249579610886,0.303549277385,1.0,-0.01882,-0.0247348571429,0.942
0.458443504092,0.498891143867,-0.12414481576,-1.43241030272,0.0748981601497,1.92224079725,0.148986129975,-0.0161053696506,-0.101564649998,-0.000320106107811,-0.15581132644,-0.00749080255646,0.0545968056125,-0.0230486747871,0.573876758669,0.818926670942,0.00230659521461,0.0,0.818887032346,-0.573815603795,-0.0118502320156,0.0,-0.00838107209024,0.00868958095006,-0.999927121751,0.0,0.652536716329,0.249162386079,0.303574721956,1.0,-0.01916,-0.0251817142857,0.959
0.458177160132,0.497127812057,-0.124144806618,-1.43521262174,0.07472018259,1.92327599304,0.148568458539,-0.0202862410314,-0.0998694812949,0.000584931252464,-0.154272749323,-0.013466860546,0.0552445095711,-0.0288368106202,0.573846898353,0.818947615053,0.00229955444128,0.0,0.818907867517,-0.573785756785,-0.0118556623876,0.0,-0.00838987638292,0.00868662555723,-0.999927073596,0.0,0.652188409347,0.248721077857,0.303559989965,1.0,-0.01952,-0.0256548571429,0.977
0.457949682991,0.495647571988,-0.124150333456,-1.43760082795,0.0745807745994,1.924090278,0.148223667223,-0.0126993817963,-0.0971849027058,-0.00147975988866,-0.162842239601,-0.00450302574751,0.053947402783,-0.0204014441311,0.573837633194,0.818954313979,0.00222469029274,0.0,0.81891338456,-0.573776576997,-0.0119186903733,0.0,-0.00848455107109,0.0086613884904,-0.99992649367,0.0,0.651877003638,0.248338706084,0.303525531869,1.0,-0.01982,-0.0260491428571,0.992
0.457648421114,0.493828874671,-0.12416265897,-1.44055799324,0.0744003916656,1.92514667645,0.147813030029,-0.0182525262298,-0.1083986241,-0.00268830905539,-0.17646239298,-0.0139958006609,0.0619898222083,-0.0218664725589,0.573857050658,0.818940900508,0.00215262321874,0.0,0.818898936554,-0.573796189107,-0.0119671207083,0.0,-0.00856536251961,0.0086303636204,-0.999926072962,0.0,0.651505781902,0.247851170942,0.303476667989,1.0,-0.0249222857143,-0.0327550040816,1.01
0.457344076529,0.491376979349,-0.124240086521,-1.44427648655,0.0741898367102,1.92655890564,0.147270440695,-0.0214971248656,-0.151897412546,-0.00697439096204,-0.240625189794,-0.0089003606212,0.0959039751491,-0.0332861955375,0.573847760551,0.81894709493,0.00226943114126,0.0,0.818906833156,-0.573786611388,-0.0118857100892,0.0,-0.00843176088197,0.00867920788787,-0.999926785699,0.0,0.651052563854,0.247260774604,0.303537773564,1.0,-0.0342577142857,-0.0450244244898,1.027
0.456925215074,0.488461891916,-0.124244359322,-1.44897335635,0.0739421070862,1.92827899216,0.146570917697,-0.0310408847842,-0.196869630273,-0.000584165537207,-0.313043371602,-0.00849949658158,0.10916083334,-0.0436690353182,0.573789071456,0.818988302067,0.00223818147534,0.0,0.818947122625,-0.573727531841,-0.0119614569718,0.0,-0.00851235089102,0.00869647300228,-0.999925952878,0.0,0.650445709876,0.246544083096,0.303478568935,1.0,-0.043044,-0.0565721142857,1.043
0.456298276137,0.484239214536,-0.124345541291,-1.45555324701,0.0735450598929,1.93074732648,0.145580079829,-0.0396675341829,-0.254532979769,-0.00671128875162,-0.385394208123,-0.0193575689054,0.136724818966,-0.0568701341364,0.573782721209,0.818992538344,0.00231470938585,0.0,0.818952627894,-0.573721155026,-0.0118901825858,0.0,-0.00841013499605,0.00871818650618,-0.999926628735,0.0,0.649638356009,0.245456489857,0.303496334301,1.0,-0.0529285714286,-0.0695632653061,1.061
0.455555509122,0.47948133756,-0.124467299542,-1.46310224655,0.0730918979176,1.93336584934,0.144429156574,-0.0468671192293,-0.296973929345,-0.0114099044614,-0.473771469509,-0.0197985088526,0.16498542997,-0.0716660276672,0.573783136719,0.818992678454,0.00215674686754,0.0,0.818950638881,-0.573722137083,-0.0119794573587,0.0,-0.00857387952038,0.0086400461922,-0.999925916352,0.0,0.648664507926,0.244176430707,0.303433400143,1.0,-0.062264,-0.0818326857143,1.078
0.454717069716,0.47422716627,-0.12459301259,-1.47124095057,0.0726001916881,1.93630989407,0.143253997865,-0.0541279335475,-0.340918997636,-0.013114159687,-0.527801640147,-0.037773489288,0.18881481312,-0.0834110322904,0.573859639406,0.818938980281,0.00219265575474,0.0,0.818897541716,-0.573798616915,-0.0119461416408,0.0,-0.00852518235034,0.00865113550282,-0.99992623684,0.0,0.647638928197,0.242785587686,0.303455804227,1.0,-0.0710502857143,-0.0933803755102,1.094
0.4536841365,0.467931547826,-0.12467265944,-1.48084912348,0.0720370644087,1.93984780136,0.141765147812,-0.0650121221819,-0.395235917819,-0.00583993570629,-0.584897789206,-0.0317503189754,0.218150276275,-0.0979062139321,0.573851724179,0.81894396381,0.00239367837123,0.0,0.818904935279,-0.573789687362,-0.0118679633425,0.0,-0.00834588966202,0.00877081512362,-0.999926706778,0.0,0.646422295781,0.241166096799,0.303541002787,1.0,-0.0803857142857,-0.105649795918,1.111
0.452483630826,0.460920725724,-0.124721523116,-1.49166577322,0.0713452688358,1.94370182929,0.140064827327,-0.0769172129554,-0.424765453211,-0.00194544360726,-0.672059395044,-0.0471724066044,0.232739853626,-0.100204651968,0.573798116606,0.818981422124,0.00242868193497,0.0,0.818942673566,-0.573735765742,-0.0118707801606,0.0,-0.00832868708096,0.00880055201374,-0.999926588933,0.0,0.645008125486,0.239327132849,0.303560724296,1.0,-0.0897211428571,-0.117919216327,1.128
0.451120820826,0.453169581841,-0.12484117161,-1.50370927634,0.0705480050078,1.94778496676,0.13822220827,-0.0869592736949,-0.472370994592,-0.0100655168225,-0.714537891981,-0.049316069246,0.251133153428,-0.11281885672,0.573829609166,0.818959931428,0.00222649069301,0.0,0.818918446707,-0.57376795634,-0.0119856923599,0.0,-0.00853847717056,0.00870122698796,-0.999925688767,0.0,0.643387693613,0.23721001274,0.303515398719,1.0,-0.0990565714286,-0.130188636735,1.145
0.44963151954,0.444569180537,-0.124943267695,-1.51650295234,0.0696861801408,1.95251419463,0.136229421715,-0.087911600526,-0.514098608259,-0.00542273109567,-0.768462118332,-0.0505343929282,0.285512895216,-0.116518626942,0.573835421571,0.818954615496,0.00264454320785,0.0,0.818919198726,-0.573772832339,-0.0116974239782,0.0,-0.00806244753686,0.00887823435812,-0.999928084361,0.0,0.64173141475,0.23498131125,0.303734159086,1.0,-0.108392,-0.142458057143,1.162
0.447963955449,0.435435283748,-0.124986119153,-1.53048482194,0.0687666893161,1.95729321101,0.133977200131,-0.107669491806,-0.566392265537,-0.00329638855666,-0.830206717574,-0.062558306653,0.283320290333,-0.135599073385,0.573753802283,0.819011972471,0.00259040856845,0.0,0.818975273233,-0.5736907859,-0.01179537651,0.0,-0.00817461844081,0.00888929383357,-0.999927075375,0.0,0.639795876725,0.232542153779,0.30373732915,1.0,-0.117727428571,-0.154727477551,1.179
0.446242951766,0.42618263749,-0.12507836193,-1.54437908543,0.0677903727689,1.96225813234,0.131692513183,-0.119757455402,-0.580968490674,-0.00607611365238,-0.889798376879,-0.0631990337318,0.311066693241,-0.152740572445,0.573690395536,0.819055628506,0.00282035163497,0.0,0.819022407174,-0.573627122152,-0.0116175805979,0.0,-0.00789776664297,0.00897499839005,-0.999928534789,0.0,0.637914512151,0.230061269942,0.30385945269,1.0,-0.126513714286,-0.166275167347,1.195
0.44419288981,0.41576262632,-0.12516899929,-1.56009014051,0.0666680490598,1.96768690372,0.129104702357,-0.123243217818,-0.643626908848,-0.00588343319971,-0.927601615893,-0.0760731957315,0.33957262226,-0.150753349376,0.573665336763,0.819072927596,0.00289267649974,0.0,0.81904088884,-0.573602108695,-0.0115494679668,0.0,-0.00780076138855,0.00899492294222,-0.999929117229,0.0,0.635728603672,0.227191965206,0.30392736154,1.0,-0.135849142857,-0.178544587755,1.212
0.441973484509,0.404780889818,-0.125271305645,-1.57679893723,0.0655397774167,1.9734151471,0.126327070671,-0.139887494258,-0.655122332678,-0.0081993782526,-1.0186802104,-0.0642513850178,0.336942946033,-0.165458637799,0.573654570344,0.819080486652,0.00288742291338,0.0,0.819047931483,-0.573590844801,-0.0116092892003,0.0,-0.0078528940922,0.00902483332871,-0.999928439658,0.0,0.633350169919,0.224129591725,0.303899962339,1.0,-0.145184571429,-0.190814008163,1.229
0.439789955834,0.394453895742,-0.12537311328,-1.592103996,0.0644964771413,1.97866655669,0.123712793696,-0.148753344059,-0.700315968191,-0.0130536430474,-1.04311788687,-0.0747496549945,0.356867088408,-0.171278895898,0.573691094695,0.819054083828,0.00311167697887,0.0,0.819024183365,-0.573626346462,-0.0115303342704,0.0,-0.00765917493819,0.00916356521335,-0.999928680513,0.0,0.631019120142,0.221039511959,0.304017354885,1.0,-0.153970857143,-0.202361697959,1.245
0.436957024429,0.381662273538,-0.125524738819,-1.61141941409,0.063004969916,1.98506342479,0.120281283897,-0.16205564552,-0.73337735469,-0.0071778221305,-1.06990906765,-0.0837857183076,0.363724320432,-0.194067381663,0.573632689286,0.819095687661,0.00292218037433,0.0,0.819063809263,-0.573569113439,-0.0115626712483,0.0,-0.00779501182886,0.00902635217751,-0.999928878849,0.0,0.628336243536,0.217499454714,0.303971689403,1.0,-0.163306285714,-0.214631118367,1.262
0.434033289568,0.36890681716,-0.125662508965,-1.6304920571,0.0615981586074,1.99138068342,0.116911370644,-0.176096960087,-0.750343663623,-0.016448902309,-1.13653205486,-0.0828570769209,0.365918026787,-0.194516114845,0.5736739574,0.819066915653,0.00288533972626,0.0,0.819034403262,-0.57361031647,-0.0116016383656,0.0,-0.00784760860991,0.00901892393665,-0.999928534471,0.0,0.625495097418,0.213767653725,0.303958198686,1.0,-0.172641714286,-0.226900538775,1.279
0.431015478986,0.35637867882,-0.125847278883,-1.64896886345,0.0601341200826,1.9974952053,0.113550844276,-0.195171991687,-0.76577289558,-0.0150211047671,-1.17455798167,-0.0959847163395,0.374296107509,-0.223722454697,0.573764009201,0.819003655015,0.00293627632402,0.0,0.818972540606,-0.573701047009,-0.011481868132,0.0,-0.0077192957855,0.00899278551255,-0.999929768674,0.0,0.622736043304,0.21001370105,0.304018580553,1.0,-0.181428,-0.238448228571,1.295
0.427316849868,0.341707735052,-0.126026658672,-1.67047907441,0.0585670410174,2.00446216649,0.109487278127,-0.210211454219,-0.816496160914,-0.00853939886119,-1.20889765098,-0.0945961196248,0.398162823864,-0.220395505058,0.57388112846,0.818921190767,0.00304640955008,0.0,0.81889080045,-0.57381698276,-0.0115184259215,0.0,-0.00768474949035,0.00910505932148,-0.999929018741,0.0,0.619440183868,0.205590251699,0.304080470156,1.0,-0.191312571429,-0.251439379592,1.313
0.423642238258,0.327408890626,-0.126142671687,-1.69140451095,0.0568998548444,2.01120779741,0.105420632196,-0.219870615586,-0.858465145782,-0.00313789047111,-1.22636348467,-0.111567207597,0.414176599882,-0.249900759443,0.573833796546,0.818954184222,0.0030927314491,0.0,0.818924414908,-0.573769538591,-0.0114920039068,0.0,-0.00763705662502,0.00912738925469,-0.999929180558,0.0,0.616154800171,0.201283237556,0.304100444081,1.0,-0.200648,-0.2637088,1.33
0.419762011262,0.312623965456,-0.126245046861,-1.71299882478,0.0550950209907,2.01798520157,0.101155107033,-0.228669636587,-0.880981326286,-0.0078907374579,-1.26998436947,-0.0953226661454,0.392881999502,-0.261272752897,0.573736912098,0.819022595589,0.00294796752898,0.0,0.818991102212,-0.573673298808,-0.0115441601165,0.0,-0.00776390720467,0.00903784396037,-0.999929017041,0.0,0.612861476684,0.197067338012,0.304042313571,1.0,-0.209434285714,-0.275256489796,1.346
0.415776706719,0.298195598799,-0.126350108622,-1.73387507207,0.0533251430813,2.02449144308,0.0968432354812,-0.263560338948,-0.889867850592,-0.00595202845756,-1.3320112002,-0.116619020876,0.395782804267,-0.267606100586,0.573597861997,0.819120043861,0.00293144316503,0.0,0.819088432077,-0.573534430743,-0.0115388080591,0.0,-0.00777053498346,0.0090199204799,-0.999929127399,0.0,0.609016565963,0.192078065895,0.304049602791,1.0,-0.219318857143,-0.288247640816,1.364
0.411235764882,0.282353172774,-0.126514762766,-1.75644403338,0.0514804607166,2.03138507376,0.0921375099418,-0.274330373419,-0.922710130615,-0.00917750998121,-1.3541790757,-0.119202756811,0.409039180806,-0.284095528758,0.573648886541,0.81908374016,0.00308682301679,0.0,0.819053651904,-0.573584381681,-0.0115247253584,0.0,-0.00766930933738,0.00913959549974,-0.999928822211,0.0,0.605477640707,0.187437136625,0.304140508878,1.0,-0.228105142857,-0.299795330612,1.38
0.406641809214,0.267026567983,-0.126685271062,-1.77816399215,0.0496241634791,2.0378728666,0.0873909984761,-0.286815205791,-0.967144634715,-0.0108499837265,-1.36174518419,-0.113052401723,0.391590248584,-0.298440106927,0.573638520872,0.819090853593,0.00312535341587,0.0,0.819060996002,-0.573573575913,-0.0115405694443,0.0,-0.00766030222691,0.009180147014,-0.999928519781,0.0,0.601783897038,0.182580541128,0.304188489072,1.0,-0.236891428571,-0.311343020408,1.396
0.401020707135,0.249354546779,-0.126929998152,-1.80307500833,0.0473958461452,2.0452106315,0.081877088111,-0.318329972861,-0.985059080544,-0.00706544686422,-1.40495222486,-0.117054815234,0.392816157907,-0.313177463625,0.573808352746,0.818971894219,0.00312373153157,0.0,0.818942193952,-0.573743604378,-0.0115198221126,0.0,-0.00764233668722,0.00916850222619,-0.999928764091,0.0,0.597491306061,0.176811605066,0.304215175857,1.0,-0.246776,-0.324334171429,1.414
0.395110364306,0.231164037362,-0.127092197037,-1.82841262499,0.0451201083502,2.05256633761,0.0759594321675,-0.333943644925,-1.02658306615,-0.00852388618478,-1.40861902848,-0.12090384084,0.421922419752,-0.316802101995,0.573756255249,0.819007902443,0.00324995366699,0.0,0.818979594139,-0.57369083335,-0.011489082445,0.0,-0.00754532595765,0.00925375681857,-0.99992871548,0.0,0.59300199438,0.170946211307,0.304276512415,1.0,-0.256660571429,-0.337325322449,1.432
0.389933532024,0.215660406525,-0.127238981075,-1.84991215763,0.0430657516131,2.05862608481,0.0707552663928,-0.356498014116,-1.08000724069,-0.018537761144,-1.43335625251,-0.147149805478,0.428074611188,-0.349771582483,0.573608223856,0.819111699848,0.00322111743534,0.0,0.819083201218,-0.573543132306,-0.0114774461209,0.0,-0.00755400605662,0.0092220982182,-0.999928942424,0.0,0.589091404601,0.16590192285,0.304282962543,1.0,-0.264897714286,-0.348151281633,1.447
0.384022823446,0.198860287209,-0.12741150409,-1.87305796519,0.0408813244677,2.06489982835,0.0649975698725,-0.378526709248,-1.05563648226,-0.00972155302968,-1.4263955093,-0.134761666307,0.399261816604,-0.370603572196,0.573571726747,0.819137631574,0.00312437461235,0.0,0.819107264648,-0.573506199484,-0.011604958227,0.0,-0.00771435831221,0.00921565130141,-0.999927777615,0.0,0.584787047963,0.160322762892,0.304259701878,1.0,-0.273684,-0.359698971429,1.463
0.376384667683,0.178276825844,-0.127748962677,-1.90094550661,0.0382051088468,2.07241497386,0.0577234952694,-0.409334806143,-1.10077488347,-0.0224299382741,-1.46169404874,-0.139664039936,0.402956376226,-0.391356286966,0.573695859658,0.81905021514,0.00324847525546,0.0,0.819021215279,-0.573629627577,-0.0115778318121,0.0,-0.00761955068553,0.00930290343567,-0.999927696604,0.0,0.579559569103,0.153318247557,0.304327770873,1.0,-0.284117714286,-0.373411853061,1.482
0.370011303063,0.161765752344,-0.127954199364,-1.92329559513,0.0359255590508,2.0781379977,0.0517155517997,-0.42864332867,-1.1037262415,-0.00526818726079,-1.48007527989,-0.147058817502,0.377428371595,-0.409078229611,0.573695990655,0.819050753303,0.00308556658635,0.0,0.819019370026,-0.57362996538,-0.0116910752901,0.0,-0.00780576085427,0.00923443961367,-0.999926894939,0.0,0.575224838633,0.147647532854,0.304276966392,1.0,-0.292354857143,-0.384237812245,1.497
0.36242189081,0.142653499526,-0.128186808929,-1.94878110804,0.0332507918874,2.08461097778,0.0445938270333,-0.456956932656,-1.10913324073,-0.0131499744339,-1.49454946366,-0.158895470881,0.35907279906,-0.421983874375,0.573647631302,0.819084656508,0.00307692630168,0.0,0.819053338865,-0.573581851766,-0.0116719458292,0.0,-0.00779559274374,0.00921592827361,-0.999927145046,0.0,0.570200499087,0.141084690393,0.304285364682,1.0,-0.301690285714,-0.396507232653,1.514
0.354325139474,0.123121680578,-0.128489580678,-1.97444729732,0.0305605031109,2.09090421563,0.0370239507172,-0.482063680762,-1.13356681972,-0.0183729910221,-1.49531900924,-0.163717797983,0.363608445519,-0.447289535292,0.573637092994,0.819091723223,0.00315933384661,0.0,0.819061237003,-0.57357075728,-0.0116629041477,0.0,-0.00774103578814,0.00927814095263,-0.999926993568,0.0,0.5650353384,0.134283539762,0.304331873851,1.0,-0.311025714286,-0.408776653061,1.531
0.346121208334,0.104327200099,-0.128884646055,-1.99884037593,0.0278508514639,2.09666855112,0.0295706465979,-0.530421297082,-1.16789494368,-0.0257158609414,-1.53012783805,-0.174909204199,0.34189886378,-0.480097127594,0.573795581234,0.81898055951,0.00319703031567,0.0,0.81895103013,-0.573729665642,-0.0115856770154,0.0,-0.0076543604805,0.00926619995049,-0.999927771544,0.0,0.560041046062,0.127557495921,0.304386283064,1.0,-0.319812,-0.420324342857,1.547
0.337067427061,0.0841636693193,-0.129170540916,-2.0248701815,0.0250328982194,2.10255881234,0.0212112003079,-0.545923561297,-1.17282748912,-0.018652380368,-1.55651917821,-0.157571203536,0.328795960978,-0.494103585489,0.573731963348,0.819025053591,0.00321601057397,0.0,0.818994796752,-0.573664816993,-0.0117024586207,0.0,-0.0077398436976,0.0093481504677,-0.999926350739,0.0,0.554533610571,0.120419112277,0.30436636841,1.0,-0.329147428571,-0.432593763265,1.564
0.327454386227,0.0637870369256,-0.129510131023,-2.05082779517,0.0219979198607,2.10820602029,0.0124424479225,-0.578931236176,-1.17690745152,-0.0300482156533,-1.53631801327,-0.194593899328,0.321800855965,-0.530873026146,0.573674407654,0.819065492531,0.0031843129053,0.0,0.81903496538,-0.573607545479,-0.0116985535613,0.0,-0.00775548494206,0.00931940382225,-0.999926497882,0.0,0.548933392376,0.113052598865,0.304355956581,1.0,-0.32998,-0.433688,1.581
0.317916388983,0.0447108901524,-0.129867484168,-2.0747877475,0.0191758032759,2.11305298396,0.00407429813023,-0.604240943802,-1.16540464682,-0.0187476779487,-1.51171084212,-0.17946062588,0.294888762544,-0.531565518785,0.573905446965,0.818903864322,0.00312183342567,0.0,0.818871983218,-0.57383812109,-0.0117996942913,0.0,-0.00787153977717,0.00932847035684,-0.999925506477,0.0,0.543637203347,0.105987489596,0.304351130153,1.0,-0.32998,-0.433688,1.597
0.306950740262,0.0234154780861,-0.130114855689,-2.10105563583,0.015971572796,2.11817532081,-0.00565318056285,-0.620989918574,-1.15781212418,-0.0140585991821,-1.4584445269,-0.191309487273,0.277041704241,-0.550255966928,0.573887981857,0.818915833819,0.00319191211017,0.0,0.818884798674,-0.573820336234,-0.011775191094,0.0,-0.00781145674755,0.00937162939153,-0.999925574083,0.0,0.537685816687,0.098188882791,0.304409007237,1.0,-0.32998,-0.433688,1.615
0.296211397718,0.00352497156423,-0.130434021457,-2.12516028729,0.0130039318048,2.12259210143,-0.0151017174668,-0.642737515423,-1.15594403254,-0.0258291806234,-1.41694387279,-0.169106999749,0.249356458785,-0.560792563914,0.57399731986,0.818838598524,0.0033426428654,0.0,0.818809272325,-0.573928841226,-0.0117391509207,0.0,-0.00769417887819,0.00947541056919,-0.999925505328,0.0,0.532103914178,0.0907691105776,0.304502539797,1.0,-0.32998,-0.433688,1.632
0.285916885971,-0.0150034861341,-0.130581811295,-2.14731940692,0.0102574002051,2.12650197063,-0.0242650251645,-0.646105897714,-1.14940410887,-0.00444541250697,-1.37991019918,-0.172928227876,0.221729837476,-0.574769387832,0.573870712288,0.818926337612,0.00357855344502,0.0,0.818899839858,-0.573801183145,-0.0116619639184,0.0,-0.00749705554194,0.00962312165851,-0.999925592076,0.0,0.526846661922,0.0839401590078,0.304596784003,1.0,-0.32998,-0.433688,1.648
0.274569751616,-0.0344709163365,-0.130880650072,-2.17033690074,0.00714154431882,2.13020552553,-0.0341899362565,-0.673926986902,-1.14188404843,-0.0219926743328,-1.34273633681,-0.17562046545,0.207039155884,-0.589281255071,0.573888619268,0.818913648211,0.00361058870909,0.0,0.818888230379,-0.573819845396,-0.0115584634248,0.0,-0.00739369834772,0.00959012385395,-0.999926678687,0.0,0.521257640563,0.0765383097567,0.304666181314,1.0,-0.32998,-0.433688,1.665
0.262844973033,-0.0538031808896,-0.131169439758,-2.19282266653,0.00420019529827,2.13361364071,-0.044468861444,-0.681910269631,-1.14257015478,-0.00847893163366,-1.29761817625,-0.176460063755,0.200666218753,-0.598383057364,0.573938349951,0.818877809659,0.00382755855948,0.0,0.818855066655,-0.573868752209,-0.0114796321059,0.0,-0.00720403844006,0.00972300402618,-0.999926779831,0.0,0.5156745361,0.0691507319953,0.304764123346,1.0,-0.32998,-0.433688,1.682
0.251586217669,-0.0715900950426,-0.131375798457,-2.2135271787,0.00137940585733,2.13642183208,-0.054384382454,-0.719791111484,-1.12804365076,-0.014929155019,-1.26568551664,-0.167032045213,0.17051802168,-0.615853849813,0.57384643017,0.81894262107,0.00374230923972,0.0,0.818918171537,-0.573776293547,-0.0115991461533,0.0,-0.00735192837551,0.00972096081163,-0.999925723277,0.0,0.510374263164,0.0622700932437,0.304715106653,1.0,-0.32998,-0.433688,1.698
0.238437891972,-0.0914151451139,-0.131726829469,-2.23628680059,-0.00176047391523,2.13922891194,-0.0658916074779,-0.730752063071,-1.10235214608,-0.0105103514404,-1.25446414633,-0.168084602764,0.133308644851,-0.640313074274,0.573908690039,0.818899288223,0.00367670336841,0.0,0.818873038068,-0.573837510463,-0.0117561053491,0.0,-0.00751738072785,0.00975787214748,-0.999924133581,0.0,0.504415788047,0.0544211257615,0.3046587845,1.0,-0.32998,-0.433688,1.716
0.225820481135,-0.110001328844,-0.131930234014,-2.25722294895,-0.00479181236999,2.14157691299,-0.0769982687196,-0.752526022574,-1.07573629201,-0.0203321498695,-1.23858755538,-0.178178586334,0.128328473847,-0.651046203522,0.573753676878,0.819008024735,0.00364973826035,0.0,0.818981428691,-0.573682615311,-0.0117653410307,0.0,-0.0075422625394,0.00973966304957,-0.999924123741,0.0,0.498789088632,0.0471540914821,0.3046513182,1.0,-0.32998,-0.433688,1.733
0.214209476756,-0.126205940337,-0.132278415266,-2.27525531209,-0.0074190585795,2.14333261695,-0.0871172875966,-0.779370177922,-1.07319866753,-0.0147249894647,-1.2076218382,-0.174041936284,0.100911528851,-0.681716645448,0.573853570746,0.818938173118,0.00361868129264,0.0,0.818910551443,-0.573781801608,-0.0118616938056,0.0,-0.00763780743513,0.00977043974951,-0.999923098245,0.0,0.493496642817,0.0401475016173,0.30463281769,1.0,-0.32998,-0.433688,1.749
0.20005845702,-0.145537194185,-0.132547861441,-2.2963641972,-0.0105447532095,2.14515478501,-0.0996509483839,-0.797323204142,-1.07747012473,-0.0173061094787,-1.1567374856,-0.174479132386,0.114025445482,-0.706794890224,0.573716260644,0.819034104964,0.00367886938744,0.0,0.819007114982,-0.573644107407,-0.0118545580839,0.0,-0.00759907192968,0.00981436189579,-0.999922963236,0.0,0.487879426245,0.0328488800198,0.30465330494,1.0,-0.32998,-0.433688,1.766
0.186164746945,-0.163455175366,-0.132982654034,-2.31580375761,-0.0135252768813,2.14644372355,-0.111776485367,-0.817714799093,-1.05018426695,-0.0199655392625,-1.10322719408,-0.182460694052,0.0712805324213,-0.72543566283,0.573862611565,0.818932158717,0.00354533038889,0.0,0.818902388468,-0.573789597529,-0.012046693774,0.0,-0.0078313020176,0.00981661567349,-0.999921149274,0.0,0.482228055528,0.0253894077836,0.304589687366,1.0,-0.32998,-0.433688,1.783
0.1728777096,-0.180212961679,-0.133253914757,-2.33354670037,-0.0162072628091,2.14747068395,-0.123545553539,-0.844646192023,-1.02953067315,-0.0190175687416,-1.10637655738,-0.170515567146,0.0505109979045,-0.737875991867,0.573794248266,0.818979596934,0.00365066628628,0.0,0.818950717811,-0.573720234896,-0.0120648567791,0.0,-0.00778656033817,0.00991265205094,-0.999920551248,0.0,0.476951043382,0.0185209563582,0.304621304256,1.0,-0.32998,-0.433688,1.799
0.158234305535,-0.197890246636,-0.133665893418,-2.35181376016,-0.0191172012837,2.14835867247,-0.136432823037,-0.852192035132,-1.03284728534,-0.0091614463607,-1.05884269358,-0.166763918875,0.0490465162563,-0.773010633463,0.573882357463,0.818916756641,0.00389003689033,0.0,0.818891888268,-0.573808628459,-0.0118524316133,0.0,-0.00747416202315,0.00998761334297,-0.999922189214,0.0,0.471399073157,0.0110882266763,0.304741707764,1.0,-0.32998,-0.433688,1.816
0.143317386287,-0.215141601997,-0.134034677611,-2.3696273738,-0.0218832910411,2.14879828789,-0.149699051192,-0.889964509403,-1.01684293704,-0.0322502477661,-1.01547908498,-0.163033623541,0.0265885545272,-0.783250699231,0.573884716726,0.81891489219,0.00393422906036,0.0,0.818889323913,-0.573809126815,-0.0120045019279,0.0,-0.00757331467002,0.0101110930335,-0.999920202167,0.0,0.465781980218,0.00374821621972,0.304731898045,1.0,-0.32998,-0.433688,1.833
0.128908184437,-0.23115208329,-0.134356563652,-2.38596465518,-0.0246631814199,2.14905982762,-0.162449418364,-0.896587030502,-0.99026892383,-0.0157523405919,-1.01597780455,-0.164734493625,0.00326765784428,-0.808472513448,0.57384919461,0.818940086249,0.0038709018787,0.0,0.818913939085,-0.573774169953,-0.0119962147328,0.0,-0.00760330400269,0.0100541472416,-0.999920548789,0.0,0.460501720447,-0.00317422504411,0.304712641761,1.0,-0.32998,-0.433688,1.849
0.112265894348,-0.249075096743,-0.134795410548,-2.4037251656,-0.0275633081273,2.14914660253,-0.177318287368,-0.940172779089,-0.981314938868,-0.0274676960786,-0.990654811476,-0.163196703829,-0.005883238903,-0.833724958401,0.57387416181,0.818921224776,0.00414980957924,0.0,0.818899119232,-0.573798707737,-0.0118331069847,0.0,-0.00730936781888,0.0101891859353,-0.999921373725,0.0,0.454606324129,-0.0109716748789,0.304813254412,1.0,-0.32998,-0.433688,1.867
0.0971517427164,-0.264573680177,-0.13510025383,-2.4191827547,-0.0301921754684,2.14899455859,-0.190893468397,-0.949904075856,-0.970834708304,-0.025968679747,-0.940933852449,-0.166515931113,-0.00930305072634,-0.851964645148,0.57375315075,0.819006153374,0.00412184920143,0.0,0.818983371904,-0.573677377824,-0.0118848482582,0.0,-0.00736929409545,0.010194891375,-0.999920875717,0.0,0.449308711902,-0.0178439682114,0.304753346621,1.0,-0.32998,-0.433688,1.883
0.0805771056919,-0.280779523485,-0.135567520295,-2.43493134422,-0.0329666560507,2.14860504276,-0.205736642133,-0.983526601107,-0.948297026379,-0.0172452491932,-0.935574334428,-0.155037852585,-0.028886632769,-0.882553212069,0.57381258327,0.818964046367,0.00421389846403,0.0,0.818942880185,-0.573737072826,-0.0117930980172,0.0,-0.00724059290529,0.0102181669143,-0.999921578365,0.0,0.44373645559,-0.0252647338804,0.304772906773,1.0,-0.32998,-0.433688,1.9
0.0636927233323,-0.296790980776,-0.135975262336,-2.45013583493,-0.0355951641613,2.14792960151,-0.22103905546,-1.01637764562,-0.926519632511,-0.0293035074253,-0.854692474027,-0.164645835439,-0.0273976950936,-0.910906171509,0.57375419181,0.819003918286,0.00441090842371,0.0,0.818985569386,-0.57367842695,-0.0116810312103,0.0,-0.00703650279943,0.0103147095586,-0.999922044159,0.0,0.438165643248,-0.0326000159717,0.304845671493,1.0,-0.32998,-0.433688,1.917
0.0463690006954,-0.312479426886,-0.136412260406,-2.46491729581,-0.0382323516847,2.14700298298,-0.236641346257,-1.0285305504,-0.917266899386,-0.0236796633701,-0.837826498046,-0.146098037654,-0.0598052806773,-0.92876178929,0.573814401338,0.818961268347,0.00449673940428,0.0,0.818943908715,-0.573738175051,-0.0116673805255,0.0,-0.00697531599041,0.0103776881183,-0.999921821222,0.0,0.4325481314,-0.0399588592167,0.304866073729,1.0,-0.32998,-0.433688,1.934
0.0296204000128,-0.326924874078,-0.136865489995,-2.47819935506,-0.0406458991138,2.14603042811,-0.25181405177,-1.04854692667,-0.910709240601,-0.0177782388421,-0.838119477334,-0.143795934558,-0.0603963875378,-0.948361717406,0.573894926767,0.818903635329,0.00471126073277,0.0,0.818889789973,-0.573819171006,-0.0114811917577,0.0,-0.00669870691112,0.010447202156,-0.999922988681,0.0,0.427323740956,-0.0469328671523,0.304952152728,1.0,-0.32998,-0.433688,1.95
0.0115784143401,-0.341808788773,-0.137302807171,-2.49194271562,-0.0431881748922,2.14476539423,-0.268358047432,-1.08246149591,-0.865503708948,-0.0397851929413,-0.776812200051,-0.146351420092,-0.0745809268194,-0.962198919312,0.573801483254,0.818968981292,0.00473417355244,0.0,0.81895504744,-0.573725076578,-0.0115288195423,0.0,-0.00672576100389,0.0104925310935,-0.999922332449,0.0,0.421714283751,-0.0542516442935,0.304922515898,1.0,-0.32998,-0.433688,1.967
-0.00803824934936,-0.357178738573,-0.137750924247,-2.50569961294,-0.0458259758639,2.1431950495,-0.286359712835,-1.09121391275,-0.859938900295,-0.0213083938013,-0.749969297023,-0.133992172582,-0.090010985616,-0.996345158351,0.573742462531,0.819009743887,0.00483456380799,0.0,0.818997639178,-0.573666621764,-0.0114114413938,0.0,-0.00657278035228,0.0105069271224,-0.999923198571,0.0,0.415835265478,-0.0620336965665,0.304991700221,1.0,-0.32998,-0.433688,1.985
-0.024807994383,-0.369633311084,-0.138203011881,-2.51694629593,-0.0480094431431,2.14179136254,-0.301779350418,-1.12324345492,-0.806993896981,-0.0227793238516,-0.743672738902,-0.153751105099,-0.0945608809344,-1.03161237726,0.573746494145,0.819007033583,0.00481521537611,0.0,0.818994013003,-0.573669648536,-0.0115190240798,0.0,-0.00667194728457,0.0105528354209,-0.999922058355,0.0,0.410516777379,-0.0689861893805,0.304933098802,1.0,-0.32998,-0.433688,2.001
-0.0452882352953,-0.384139925364,-0.138716066597,-2.52964136333,-0.0505259160036,2.13991031594,-0.320636598625,-1.15583960128,-0.804934871097,-0.035737903918,-0.688349587741,-0.138657417352,-0.0909833150298,-1.06478128499,0.573806931492,0.818964322443,0.0048775854143,0.0,0.818952154162,-0.57372996878,-0.0114908231839,0.0,-0.00661228460264,0.0105882269298,-0.999922080536,0.0,0.404934731613,-0.0763716179918,0.304967847719,1.0,-0.32998,-0.433688,2.018
-0.0650373992438,-0.397376779899,-0.139101216908,-2.54119356052,-0.0527902630014,2.13806830641,-0.339009935691,-1.18117588526,-0.750335850947,-0.0270144439066,-0.67841723192,-0.125086591858,-0.115497431202,-1.09281332764,0.573702794398,0.819037096525,0.00490765904504,0.0,0.819024900672,-0.573625094094,-0.0115416812214,0.0,-0.00663803649785,0.0106411946066,-0.999921347631,0.0,0.399325180489,-0.0836890903669,0.304945484564,1.0,-0.32998,-0.433688,2.035
-0.0839505304103,-0.409366579489,-0.139582008947,-2.55152667667,-0.0548588795199,2.13610832478,-0.356649239449,-1.19006984373,-0.743563951852,-0.0314494741596,-0.617413541856,-0.129122226998,-0.113126624116,-1.10608603522,0.573703181078,0.819036783649,0.00491466706515,0.0,0.81902336696,-0.573623368956,-0.0117346436811,0.0,-0.00679206770696,0.0107576366937,-0.999919067259,0.0,0.393698528123,-0.0910277945467,0.30491253408,1.0,-0.32998,-0.433688,2.052
-0.104502488658,-0.421764711536,-0.140029626225,-2.56182482891,-0.0570605051088,2.13423072189,-0.375882267196,-1.20724365729,-0.711159485607,-0.0125572810534,-0.602661861266,-0.130796865622,-0.117152301918,-1.14380595052,0.573661704955,0.819064898354,0.00506827905442,0.0,0.819055161827,-0.573584174811,-0.0114273003035,0.0,-0.00645274013769,0.0107068108356,-0.99992186012,0.0,0.38848564102,-0.0979822603239,0.305011833822,1.0,-0.32998,-0.433688,2.068
-0.126671857518,-0.434162321387,-0.140521681412,-2.57240488817,-0.0592453872391,2.1318642834,-0.396637539527,-1.23456809566,-0.675560989747,-0.022476392412,-0.580336749354,-0.117415465977,-0.127170725576,-1.15776127883,0.573702124525,0.819037143806,0.00497757797491,0.0,0.819023787983,-0.573620901414,-0.0118255266737,0.0,-0.00683043433299,0.0108612936579,-0.999917685346,0.0,0.382456443699,-0.105746809646,0.304895955781,1.0,-0.32998,-0.433688,2.086
-0.146681330017,-0.444827533263,-0.140946043285,-2.58096995036,-0.0610445929738,2.12993484784,-0.415579835694,-1.27164393134,-0.661188209225,-0.0423610539056,-0.515912120432,-0.117111054814,-0.118651303899,-1.18491067795,0.5736632638,0.819062942374,0.00520606352339,0.0,0.819053657806,-0.573583109843,-0.0115874345585,0.0,-0.00650485337682,0.0109115409805,-0.999919309322,0.0,0.377251362017,-0.112660249428,0.305010102278,1.0,-0.32998,-0.433688,2.102
-0.168342256687,-0.455448716732,-0.141342401381,-2.58970134355,-0.0630203327467,2.1278181622,-0.436089427561,-1.28315990042,-0.620411716321,-0.0220271766931,-0.5127192303,-0.112583664489,-0.128884022911,-1.22855009415,0.573577809261,0.8191230903,0.00515815489021,0.0,0.8191128632,-0.573497284022,-0.011650298703,0.0,-0.00658496763741,0.0109076738348,-0.999918827132,0.0,0.371637074863,-0.119999450596,0.304980878299,1.0,-0.32998,-0.433688,2.119
-0.190278630893,-0.465509097937,-0.141832019212,-2.59787461069,-0.0648922619117,2.12564944013,-0.457053393657,-1.29012772661,-0.575197901782,-0.0254787499803,-0.467309104048,-0.0861393939414,-0.117836414127,-1.24387466135,0.573478924981,0.819192345079,0.0051547325669,0.0,0.819181151835,-0.573396909821,-0.011788604104,0.0,-0.00670155554205,0.0109833872344,-0.999917223753,0.0,0.366002740453,-0.127331652619,0.3049480163,1.0,-0.326702857143,-0.429380897959,2.136
-0.211173672647,-0.474220391349,-0.142099701749,-2.60473369778,-0.0663724722386,2.12383322161,-0.476807202135,-1.30738169079,-0.531420899572,-0.00959555275027,-0.408403332731,-0.0900357304296,-0.106134642595,-1.21093675848,0.573589187767,0.819114204837,0.00530188759497,0.0,0.819105600745,-0.573507799112,-0.0116432850735,0.0,-0.00649663138924,0.0110214804495,-0.999918157026,0.0,0.36086669217,-0.134179657904,0.305002606333,1.0,-0.317916571429,-0.417833208163,2.152
-0.234511983885,-0.483124941816,-0.142334404089,-2.61169871683,-0.0678514539509,2.1217871779,-0.498906442328,-1.2829996257,-0.475672590783,0.00253493751161,-0.381155015245,-0.0847730794846,-0.120876665671,-1.20103098628,0.573743863033,0.819004991195,0.00543607682457,0.0,0.81899804142,-0.573661870984,-0.0116195021633,0.0,-0.0063980834479,0.0111189684046,-0.999917713149,0.0,0.355195541179,-0.141695470764,0.305040067295,1.0,-0.308032,-0.404842057143,2.17
-0.256279607017,-0.490628075358,-0.142423053581,-2.61772025545,-0.0690272833901,2.11992508452,-0.519559964647,-1.27610846116,-0.414338633026,-0.00623913629365,-0.339019576793,-0.0746728437061,-0.108194255323,-1.21691695195,0.573871037919,0.81891539544,0.00550943281348,0.0,0.818907687314,-0.573785807546,-0.0118656486491,0.0,-0.0065558542201,0.0113212869594,-0.999914420957,0.0,0.349933084191,-0.148540425852,0.30497456807,1.0,-0.298696571429,-0.392572636735,2.187
-0.275162640895,-0.496628461487,-0.142325260357,-2.62237337009,-0.0699556614788,2.11855999506,-0.537543382656,-1.2538078788,-0.383358385384,0.00532931470958,-0.303647014188,-0.0575620605372,-0.078569470563,-1.18667088954,0.573869322233,0.818916049731,0.00559029465714,0.0,0.8189099979,-0.57378486078,-0.0117514161042,0.0,-0.00641592033959,0.0113219433634,-0.999915321197,0.0,0.345504153967,-0.154393329174,0.304998647534,1.0,-0.290459428572,-0.381746677551,2.202
-0.296104744817,-0.502593067546,-0.142177395637,-2.6270222661,-0.0708589950936,2.11701241393,-0.557542451546,-1.21969931364,-0.337220862915,0.00756122415546,-0.255993495414,-0.0431912896297,-0.0878411272162,-1.16139998953,0.57387677545,0.81891052597,0.00563417743042,0.0,0.818904467729,-0.573791138446,-0.0118300073943,0.0,-0.00645500077428,0.0114030391106,-0.999914148147,0.0,0.34062381838,-0.160803367826,0.304986118398,1.0,-0.281124,-0.369477257143,2.219
-0.317912413498,-0.508150515774,-0.141954827879,-2.63122775861,-0.0716193123437,2.11565194699,-0.578380723293,-1.19773458357,-0.29589728607,0.0146114541757,-0.223443157221,-0.0373161872421,-0.0712380475925,-1.15134610796,0.573937912931,0.81886674806,0.00576783528725,0.0,0.818863108646,-0.573853016938,-0.0116906437469,0.0,-0.00626331033506,0.0114329913269,-0.999915025216,0.0,0.335659913101,-0.167420166832,0.305031389438,1.0,-0.271239428572,-0.356486106123,2.237
-0.336826778453,-0.51250342487,-0.141701090511,-2.63456112019,-0.0722080453893,2.114466137,-0.596463097484,-1.16633816203,-0.2599005869,0.0281805125622,-0.203633203551,-0.0451024300236,-0.0756862293179,-1.12925243753,0.573989008207,0.818830516103,0.00582677071129,0.0,0.818827391561,-0.573903438761,-0.0117171971166,0.0,-0.00625051515597,0.0114968831653,-0.999914372703,0.0,0.331345189542,-0.173073894674,0.305034297496,1.0,-0.262453142857,-0.344938416327,2.253
-0.356355854817,-0.516429747294,-0.141372615655,-2.63770366896,-0.072651751579,2.11330799301,-0.615279099361,-1.15871383184,-0.221329410306,0.00902148611384,-0.173608785691,-0.0299012665889,-0.0720974875004,-1.0967359775,0.573963823311,0.818847635163,0.00590142519654,0.0,0.818843907038,-0.573875093396,-0.0119490580449,0.0,-0.00639790016605,0.0116908981915,-0.999911190943,0.0,0.326896911595,-0.178822722107,0.304965477471,1.0,-0.253117714286,-0.332668995918,2.27
-0.375311044008,-0.519725804532,-0.140948557641,-2.64033665327,-0.0730843637638,2.11239412021,-0.633547510801,-1.09341649154,-0.188473141608,0.033386231125,-0.142376513975,-0.0216687456013,-0.0479939346676,-1.06138884086,0.573884295764,0.818903477603,0.00588696413344,0.0,0.818898977647,-0.573794579619,-0.0120412503533,0.0,-0.00648283849351,0.011731339254,-0.999910170207,0.0,0.322648121452,-0.184367858803,0.304915348226,1.0,-0.243782285714,-0.32039957551,2.287
-0.393817907435,-0.522482671869,-0.140567480314,-2.64244829709,-0.0734084582093,2.11156402442,-0.651308507754,-1.07674415747,-0.154301563359,0.0294564089918,-0.115919622914,-0.0162268948102,-0.0562839751166,-1.03933971508,0.573960675368,0.818849669518,0.00592526473797,0.0,0.818845354681,-0.573870214257,-0.012083426972,0.0,-0.00649430227343,0.0117875143578,-0.999909435171,0.0,0.318540855499,-0.189778315813,0.304907228986,1.0,-0.234446857143,-0.308130155102,2.304
-0.410648684134,-0.524678081255,-0.140214079342,-2.64405922858,-0.073593211964,2.11091718403,-0.667541380521,-1.04903924546,-0.133373434106,0.0166789400825,-0.0942763836229,-0.00705343204445,-0.0347644272616,-1.00185409078,0.574024701595,0.818804049171,0.00602643510909,0.0,0.818801317709,-0.57393428773,-0.0120242416337,0.0,-0.00638684296254,0.011836892621,-0.999909544014,0.0,0.314834305861,-0.194677500872,0.304933880141,1.0,-0.225660571429,-0.296582465306,2.32
-0.428884132384,-0.52661732666,-0.1396972823,-2.64551118808,-0.0737384791456,2.11032445191,-0.68521463961,-1.00142703497,-0.100699031094,0.0311727247796,-0.0674552360831,-0.00783548164497,-0.0245339130779,-0.959911187676,0.573970923823,0.818841469647,0.00606408221663,0.0,0.818839432305,-0.573880744038,-0.0119842657287,0.0,-0.0063332756827,0.0118443577519,-0.999909796336,0.0,0.310849622184,-0.199932148232,0.304946657789,1.0,-0.215776,-0.283591314286,2.338
-0.444575611398,-0.527967335091,-0.139285639566,-2.64653551588,-0.0738444071284,2.10989017406,-0.700342145884,-0.957560106046,-0.0733831052567,0.0326154952359,-0.0590535216211,0.000639825056615,-0.0280533432304,-0.940358372881,0.574035782141,0.818795804622,0.00609081741237,0.0,0.818794175986,-0.573945592073,-0.0119708651526,0.0,-0.00630601776907,0.0118590590887,-0.99990979436,0.0,0.307413643353,-0.204447730463,0.304948245666,1.0,-0.206989714286,-0.27204362449,2.354
-0.461518579714,-0.529050916674,-0.138766775805,-2.64737990264,-0.0738584641791,2.10952245589,-0.716702430405,-0.934521430992,-0.0529283564533,0.0229426955774,-0.0406605041029,-0.000354812880349,-0.0192224177014,-0.898062733552,0.574090623455,0.818757084866,0.0061269033246,0.0,0.818755915071,-0.574000252066,-0.0119669990604,0.0,-0.00628134214785,0.0118868091474,-0.99990962017,0.0,0.303729425234,-0.209290604494,0.304942418462,1.0,-0.197105142857,-0.259052473469,2.372
-0.475886339293,-0.529700462917,-0.138229062431,-2.64787133105,-0.073854071646,2.10925304965,-0.730669405376,-0.878783908366,-0.0289424143093,0.0314434606734,-0.0251099432812,0.000597631540954,-0.0185178858379,-0.863193763067,0.574012202153,0.818812315699,0.00609346710925,0.0,0.818810788566,-0.573922132206,-0.011959330827,0.0,-0.00629539293861,0.0118544266676,-0.999909916241,0.0,0.300624541435,-0.21337033054,0.304947219599,1.0,-0.188318857143,-0.247504783674,2.388
-0.489741619346,-0.530082021179,-0.137766502928,-2.64816180801,-0.0738516547243,2.10906766932,-0.744032218925,-0.848979498627,-0.0211042109298,0.0237611030867,-0.017648213881,-0.000475217398581,-0.0145890288142,-0.828435971123,0.574073143919,0.818769833452,0.0060607063648,0.0,0.818768016952,-0.573983452633,-0.011944765441,0.0,-0.00630138976735,0.0118197091477,-0.999910289457,0.0,0.297623604583,-0.217321056183,0.304950669222,1.0,-0.179532571429,-0.235957093878,2.404
-0.503631734396,-0.530237989738,-0.137132847488,-2.64829479144,-0.0737857649489,2.10893763118,-0.757663948026,-0.820789912799,-0.00803112355863,0.0389354992455,-0.00659059140651,0.00267014114319,-0.00164644461431,-0.78705740336,0.57385830054,0.818921055337,0.00597519279392,0.0,0.818918263854,-0.573769254931,-0.0119359173749,0.0,-0.00634631432183,0.0117429458572,-0.99991090979,0.0,0.294644371629,-0.221230312809,0.304952608095,1.0,-0.170197142857,-0.223687673469,2.421
-0.517092728176,-0.530226280213,-0.13661281274,-2.6483180998,-0.0737064568965,2.10886825492,-0.770573771448,-0.778620637879,0.00454262603608,0.0264493729954,0.00215394889715,0.00970890438094,-0.00147370975066,-0.744147520334,0.573975637631,0.818839125834,0.00593298489776,0.0,0.818835835612,-0.573886829566,-0.0119385119982,0.0,-0.00637098149669,0.0117107811518,-0.999911130151,0.0,0.291724789122,-0.225029260961,0.3049454129,1.0,-0.160861714286,-0.211418253061,2.438
-0.528863557613,-0.530036846825,-0.135972633746,-2.64821822815,-0.0735043516693,2.10886001801,-0.782083460695,-0.723683036785,0.01093909312,0.0372007754235,0.00920497347023,0.0075694414633,-0.00229508398273,-0.704489582284,0.573830239736,0.818941259449,0.00590054556583,0.0,0.818937555502,-0.573741605458,-0.0119414093206,0.0,-0.00639404740785,0.0116847451026,-0.99991128751,0.0,0.289212433024,-0.228292500945,0.30493776231,1.0,-0.152075428572,-0.199870563265,2.454
-0.541606505068,-0.529706988624,-0.135397441433,-2.64802965913,-0.0732529210655,2.10886280062,-0.794327637973,-0.698590102441,0.0185616380273,0.0338263480917,0.0170170341672,0.015519695706,-0.000288517027642,-0.666413338141,0.573951420446,0.818856059347,0.0059386817284,0.0,0.818852535176,-0.573862028881,-0.0119851718905,0.0,-0.0064062700199,0.0117420370904,-0.999910538133,0.0,0.286450581594,-0.23183613363,0.304918399771,1.0,-0.142190857143,-0.186879412245,2.472
-0.55269041652,-0.529218619712,-0.134690534557,-2.64773394858,-0.0729218626588,2.10891185478,-0.805172069454,-0.63700674263,0.0308081049767,0.0420874304086,0.016077436059,0.0196374497627,0.0064401240126,-0.625926636998,0.57380737471,0.818956942093,0.00594732107755,0.0,0.818953160991,-0.573717301052,-0.0120384998198,0.0,-0.00644705612852,0.0117785841472,-0.999909846148,0.0,0.284098298061,-0.23486478332,0.304897161288,1.0,-0.132855428572,-0.174609991837,2.489
-0.562623200211,-0.528665581577,-0.134126909915,-2.64738294068,-0.0726332791761,2.10897840188,-0.814764064056,-0.616710659569,0.0369238673862,0.0308109421896,0.0194862209983,0.0195242018391,0.00111710074674,-0.598117774759,0.573832223211,0.818939352969,0.00597182259793,0.0,0.818935484846,-0.573741298792,-0.0120971328417,0.0,-0.00648066166151,0.0118324898798,-0.999908992463,0.0,0.281971047974,-0.237597289263,0.304875067504,1.0,-0.124069142857,-0.163062302041,2.505
-0.572519013577,-0.528007816761,-0.133530354141,-2.64689594761,-0.0722995829377,2.10911784009,-0.82427414668,-0.555675580507,0.0458397547174,0.0401264754478,0.0323826485045,0.0235992682393,0.0130888955808,-0.55175306159,0.573896982309,0.818893751633,0.00600201079961,0.0,0.818890542372,-0.573806402768,-0.0120515002216,0.0,-0.00642502970469,0.0118315372822,-0.999909362752,0.0,0.279879869595,-0.240328242713,0.304883441718,1.0,-0.114733714286,-0.150792881633,2.522
-0.58150813665,-0.527237075855,-0.132865042676,-2.64638031592,-0.0719249800991,2.10922915058,-0.833050738308,-0.522481491931,0.0404240613108,0.0364366910159,0.0320324417691,0.0166309798027,0.0080876285089,-0.497558573208,0.573790483041,0.81896825007,0.00601945598957,0.0,0.818964788513,-0.573698968912,-0.0121208558275,0.0,-0.00647336502412,0.0118847830405,-0.999908419545,0.0,0.277999530019,-0.242770295045,0.304862670582,1.0,-0.105398285714,-0.138523461225,2.539
-0.589549934438,-0.526567150171,-0.13230992229,-2.64588584479,-0.0715937218368,2.1093341878,-0.840637580937,-0.493613382111,0.0384038554054,0.0289616829584,0.0303567256482,0.0262607154556,0.0123095526028,-0.450694040098,0.573940000281,0.81886326516,0.00604780541015,0.0,0.818860113329,-0.573848220603,-0.0121277124837,0.0,-0.00646054025554,0.0119131152942,-0.999908165335,0.0,0.276300316067,-0.244961147472,0.304865551533,1.0,-0.0966120000001,-0.126975771429,2.555
-0.597312684113,-0.525775388655,-0.131707874052,-2.64529727621,-0.071216966558,2.10947863632,-0.848098867126,-0.433307548218,0.0463380834234,0.0378746668287,0.035742605342,0.0318114396553,0.0160747495723,-0.419211602375,0.573955003732,0.818852531276,0.0060772209316,0.0,0.818849768172,-0.573863101359,-0.0121220858303,0.0,-0.00643883178249,0.0119340925372,-0.999908055213,0.0,0.274692678022,-0.247074516544,0.304870953944,1.0,-0.0872765714287,-0.114706351021,2.572
-0.604179108057,-0.525001984223,-0.131022981408,-2.64477027949,-0.070809492261,2.10962179866,-0.854824169451,-0.396800886864,0.0414124533656,0.0404525885258,0.028738788006,0.0241772709664,0.00728662803017,-0.383689323868,0.573789759015,0.818968235629,0.00609002311692,0.0,0.818965341374,-0.573697282835,-0.0121632313513,0.0,-0.00646759492598,0.0119668858465,-0.999907477649,0.0,0.273297637094,-0.248895468343,0.304856793725,1.0,-0.0779411428572,-0.102436930612,2.589
-0.610243615259,-0.524349035606,-0.13040689698,-2.64426822154,-0.0704692581041,2.10975511946,-0.860429344772,-0.363427224589,0.038456571721,0.0331695897973,0.0291908004976,0.0182618222612,0.00930837325272,-0.344480504075,0.573902965375,0.818889044591,0.00607172820031,0.0,0.81888615972,-0.573811005292,-0.0121299021305,0.0,-0.00644914367016,0.0119336707514,-0.999907993792,0.0,0.272066791139,-0.250507268349,0.304872572919,1.0,-0.069154857143,-0.0908892408165,2.605
-0.616192184947,-0.523589953199,-0.129720690528,-2.643708202,-0.0700364520745,2.10991877472,-0.86607137538,-0.316115674957,0.0439051579004,0.0310072326849,0.0304177781608,0.0191975619458,0.00267691216506,-0.289611483095,0.5738838855,0.818902286618,0.00608915737729,0.0,0.81889973885,-0.573792056637,-0.0121095149992,0.0,-0.00642272304531,0.0119360947122,-0.999908134916,0.0,0.27089475198,-0.252073151109,0.30487992485,1.0,-0.0592702857144,-0.077898089796,2.623
-0.621094905102,-0.522954257048,-0.129108943415,-2.64325198456,-0.0696219849151,2.11004761324,-0.870690585696,-0.272671733647,0.0385566719954,0.0402163594132,0.0228481931644,0.0291513521939,0.011291461376,-0.268054002576,0.573884874479,0.818901281935,0.00613092092095,0.0,0.81889922614,-0.573792764083,-0.0121106652867,0.0,-0.00639968448051,0.0119709645038,-0.999907865779,0.0,0.269934467936,-0.253341003761,0.304880298181,1.0,-0.049934857143,-0.0656286693879,2.64
-0.624981945794,-0.522471859891,-0.128426531637,-2.64289803077,-0.0692511369318,2.11015340803,-0.874308312895,-0.236949114583,0.0309661542286,0.0473283444656,0.0214311614559,0.0187868013515,0.00189877389881,-0.220178339305,0.57379973005,0.818961162709,0.00610169404348,0.0,0.818958864161,-0.57370802393,-0.0120925180028,0.0,-0.00640283504572,0.0119359497929,-0.999908264195,0.0,0.269213842168,-0.254294322446,0.304889995332,1.0,-0.0411485714287,-0.054080979592,2.656
-0.628697373912,-0.522047863088,-0.1276707437,-2.64258285961,-0.068836149239,2.11024344424,-0.877692414488,-0.194512580819,0.0241742358279,0.0374170919016,0.0150907313439,0.019979642572,0.00688355254957,-0.169403964203,0.57372986886,0.819010294536,0.00607634124432,0.0,0.819007835097,-0.573638602847,-0.0120692284536,0.0,-0.00639932165557,0.0119012770822,-0.999908699975,0.0,0.268542974869,-0.255167690517,0.304903802411,1.0,-0.0312640000001,-0.0410898285716,2.674
-0.631374687039,-0.521711353993,-0.127070769311,-2.64233305843,-0.0684860531536,2.11033406176,-0.880015257102,-0.15608470891,0.0228445820057,0.029443401184,0.0158709492265,0.0263972523362,0.000871050087151,-0.132756342402,0.573757924618,0.81899070297,0.00606788987609,0.0,0.818988378255,-0.573667144466,-0.0120328942741,0.0,-0.0063740022015,0.011873728341,-0.999909189212,0.0,0.268082892603,-0.25578717944,0.304916133084,1.0,-0.0224777142858,-0.0295421387756,2.69
-0.633483676624,-0.52143197087,-0.126589473132,-2.64214950566,-0.0681642433078,2.11038229146,-0.881786116602,-0.124142269824,0.0116355826439,0.0242996924316,0.00527566653549,0.0168738315678,-0.000101568910726,-0.110654780241,0.573841098997,0.81893219162,0.00609963375388,0.0,0.818930134347,-0.573749893633,-0.0120516187721,0.0,-0.00636991699673,0.0119111173763,-0.999908770559,0.0,0.267718299851,-0.256261146227,0.304912764403,1.0,-0.0197509677419,-0.0259584147465,2.706
-0.635438799746,-0.521175626625,-0.126218858268,-2.6419848074,-0.067913886227,2.1103879226,-0.88355727622,-0.100592751102,0.0205150615098,0.0143600636705,0.0100615312033,0.0128199089824,0.000572897009022,-0.0953032610486,0.573844922866,0.818929267983,0.00613232769208,0.0,0.818927211113,-0.573752778457,-0.0121127623861,0.0,-0.00640117882486,0.0119730077291,-0.99990783175,0.0,0.2673516988,-0.256714919652,0.304902899951,1.0,-0.0193909677419,-0.0254852718894,2.724
-0.637058677374,-0.520928607658,-0.125962355258,-2.64178009167,-0.0677608967597,2.11042763661,-0.885038869486,-0.0905977536709,0.0133080631521,0.0141329061409,0.0138294436395,0.00552432362814,0.00267554364768,-0.0946141850057,0.57385242989,0.818924046508,0.00612712502629,0.0,0.818922013933,-0.573760479094,-0.0120993647035,0.0,-0.00639308159928,0.01196111769,-0.999908025856,0.0,0.267052432607,-0.257128796745,0.304914725142,1.0,-0.0190509677419,-0.0250384147465,2.741
-0.638447047226,-0.52066126382,-0.125804460678,-2.64159416988,-0.0676698249547,2.11054274016,-0.886490945375,-0.0882498224199,0.0159116532474,0.00935548255664,0.0119763373228,0.00820032126874,0.00633407066442,-0.0946855047974,0.573737121718,0.819004935561,0.00611372151626,0.0,0.819003019965,-0.573645799517,-0.0120539158177,0.0,-0.00636522843066,0.0119231649096,-0.999908656831,0.0,0.266792718492,-0.257513944229,0.304914552363,1.0,-0.0187309677419,-0.024617843318,2.757
-0.639921440052,-0.520426854363,-0.125676242162,-2.64143301732,-0.0676430244623,2.11054933281,-0.88793158342,-0.0869542946576,0.00810520227395,0.00566589223172,0.00391148800538,0.00100514140705,-0.00159687674958,-0.0834754281248,0.573693981741,0.819035450309,0.00607398978499,0.0,0.819032677164,-0.57360220811,-0.0121131123175,0.0,-0.00643713838374,0.01192424533,-0.999908183596,0.0,0.266475879363,-0.257914061203,0.304905203316,1.0,-0.0183909677419,-0.0241709861751,2.774
-0.641331536988,-0.520230973607,-0.125615633159,-2.64126124725,-0.0676078328417,2.11055531922,-0.889344952211,-0.0822944069185,0.0151363895931,0.00685166942702,0.00931696571156,0.0040754066033,0.000284815857438,-0.0879192204878,0.573672303174,0.819050647382,0.00607227271555,0.0,0.819047791019,-0.573580429022,-0.0121224738365,0.0,-0.00644610736187,0.0119280386918,-0.999908080572,0.0,0.266164447955,-0.258313941179,0.304913179736,1.0,-0.0180509677419,-0.0237241290323,2.791
-0.642592043905,-0.520034219375,-0.125583623731,-2.64108431492,-0.067573624548,2.11059912648,-0.890638507032,-0.0814588687557,0.0137392569043,0.00136529121719,0.0143996049874,0.00483999308443,0.0012182353824,-0.0758465917846,0.57364629984,0.819068818341,0.00607786159235,0.0,0.819066232062,-0.573554772335,-0.0120903899312,0.0,-0.00641699841949,0.0119140080227,-0.99990843508,0.0,0.26589205615,-0.258686621134,0.304925715429,1.0,-0.0177309677419,-0.0233035576037,2.807
-0.643949368772,-0.519831910896,-0.125579729689,-2.6409111707,-0.0675410324231,2.11068019989,-0.891935154781,-0.0816439715024,0.0130052048983,0.00090940297518,0.0111001591039,0.00024359773395,0.00267126422826,-0.0816339476078,0.573716125028,0.819019800104,0.00609276794325,0.0,0.819017783441,-0.573625218427,-0.0120302158287,0.0,-0.00635814203487,0.0118922430669,-0.999909070158,0.0,0.265592769895,-0.259095202503,0.304936986255,1.0,-0.0173909677419,-0.0228567004608,2.824
-0.645311105001,-0.519641175339,-0.125591360513,-2.64074161182,-0.0675172219713,2.11069789205,-0.893286129097,-0.0751168247922,0.00796149564721,-0.00191966343051,0.00837440814992,-0.000450417045568,0.00455861528772,-0.0671460438417,0.573752145853,0.818994398073,0.00611538670148,0.0,0.818992686481,-0.573661155322,-0.0120251929746,0.0,-0.00634052795634,0.0119081665261,-0.999908992496,0.0,0.265276936407,-0.259499346194,0.304945091914,1.0,-0.0170509677419,-0.022409843318,2.841
-0.646557147581,-0.519447373108,-0.125581759659,-2.64057770287,-0.0674907551225,2.11072836157,-0.894481771843,-0.0783366052244,0.0165720227203,4.99829003287e-05,0.0104926143633,0.000163288402914,0.00604153193991,-0.0700884793623,0.573812212922,0.818952207133,0.0061297336931,0.0,0.818950786683,-0.573721345257,-0.0120072431972,0.0,-0.0063167208739,0.0119100823262,-0.999909120359,0.0,0.264979420939,-0.25989110526,0.304953628477,1.0,-0.0167109677419,-0.0219629861751,2.858
-0.647904308889,-0.519245866854,-0.125558019712,-2.64039804446,-0.067460783601,2.11079170434,-0.895824228261,-0.0716470104306,0.0112494910957,0.00152171323907,0.00889291843816,0.000226012650966,0.00388113801901,-0.0690884223755,0.573815534671,0.818949866869,0.0061314456999,0.0,0.81894871672,-0.573725127585,-0.01196763395,0.0,-0.00628324873563,0.0118887827572,-0.999909584727,0.0,0.264700433926,-0.260267837323,0.304964532004,1.0,-0.0163709677419,-0.0215161290323,2.875
-0.649122430618,-0.519045061355,-0.125501808198,-2.64023431263,-0.0674359073609,2.11082502778,-0.897054426216,-0.0719419851875,0.0122118133898,0.00548229160802,0.00890936004663,0.00258400197726,0.00028126823218,-0.0649286263428,0.573784946739,0.818971388958,0.00611930273921,0.0,0.818970109332,-0.573694650432,-0.0119647393294,0.0,-0.00628828901029,0.0118769420202,-0.999909693757,0.0,0.264436065766,-0.260618538475,0.304969190687,1.0,-0.0160309677419,-0.0210692718894,2.892
-0.650224120424,-0.518838544078,-0.12544344711,-2.64007816446,-0.0674123151247,2.11086137636,-0.89818635666,-0.0661768340262,0.0114652248752,0.000677965706684,0.00772545016013,0.00496409722745,0.00150788313817,-0.0698894049998,0.573737071182,0.819005037124,0.00610485210014,0.0,0.819003529631,-0.573646769756,-0.0119728401743,0.0,-0.0063039090941,0.0118693861957,-0.999909685122,0.0,0.264200593898,-0.260936257039,0.304968595227,1.0,-0.0157109677419,-0.0206487004608,2.908
-0.651381922689,-0.518619673453,-0.125381725893,-2.63992106723,-0.0673845019159,2.11090234926,-0.899434865111,-0.0679139426335,0.0158937747986,0.00079744557699,0.0110019540138,0.000415372567877,0.00371617259519,-0.0722268766381,0.573639174495,0.819073691846,0.00609357956348,0.0,0.81907195188,-0.573548779235,-0.01198675863,0.0,-0.00632319526562,0.0118673829163,-0.999909587125,0.0,0.263951877537,-0.261268101149,0.304964344081,1.0,-0.0153709677419,-0.020201843318,2.925
-0.652541101341,-0.518415108211,-0.125361963461,-2.63976595163,-0.0673619788049,2.11092740578,-0.90058337386,-0.068753587902,0.0117012213686,-0.000736608462752,0.00802179043572,0.00375042196348,2.19306888046e-05,-0.0581119593834,0.573651664211,0.819064904177,0.00609899938542,0.0,0.819063118023,-0.573561024604,-0.0120044429809,0.0,-0.00633439155998,0.0118820629139,-0.999909341923,0.0,0.263690093319,-0.26160725089,0.304962092637,1.0,-0.0150309677419,-0.0197549861751,2.942
-0.653607134499,-0.518225762428,-0.125370458765,-2.63962229043,-0.0673360180302,2.11096629533,-0.901650541217,-0.0656555953485,0.0108826552109,-0.00176279590894,0.0102219145297,-2.81781952276e-05,0.00192909317996,-0.0725249505236,0.573675386209,0.819048133807,0.00611985835207,0.0,0.819046600764,-0.573584619152,-0.0120040555587,0.0,-0.00632176439487,0.0118991094838,-0.999909219124,0.0,0.263446299688,-0.261926672995,0.304960745575,1.0,-0.0147109677419,-0.0193344147465,2.958
-0.654735982456,-0.518021555126,-0.125365582887,-2.63947071023,-0.0673166882907,2.11100674586,-0.902798310954,-0.0642769465753,0.0134065153425,7.71131127325e-05,0.00752187180794,0.000231684929441,0.000498775770694,-0.0639310186511,0.573672657417,0.819049978771,0.00612872808125,0.0,0.819048516202,-0.573581768728,-0.0120095624697,0.0,-0.00632122689617,0.0119095125526,-0.999909098669,0.0,0.263189712979,-0.262262173645,0.304957954884,1.0,-0.0143709677419,-0.0188875576037,2.975
-0.655914797323,-0.517836966417,-0.125365490646,-2.6393124673,-0.06729644006,2.1110317377,-0.903882905549,-0.064020164584,0.013805573819,0.000302152135321,0.0121305215609,0.0010462714423,0.00300298544286,-0.0613620581221,0.57376660258,0.818984086499,0.00613992889626,0.0,0.81898280017,-0.573675704062,-0.0120044365254,0.0,-0.00630923592156,0.0119164703503,-0.999909091506,0.0,0.262918140095,-0.26261138537,0.304963976985,1.0,-0.0140109677419,-0.0184144147465,2.993
-0.656920802767,-0.517667846576,-0.125359517331,-2.63916078553,-0.0672767736911,2.11107156229,-0.904870820202,-0.0622720704653,0.0101120219427,-0.000204486647449,0.00897623273212,-0.000266597817803,0.0014670957192,-0.0613609175114,0.573793379645,0.818965287505,0.00614509865713,0.0,0.818964242391,-0.573702782756,-0.0119763785422,0.0,-0.00628289906144,0.0119048119903,-0.999909396211,0.0,0.262693972361,-0.262914379751,0.304974113599,1.0,-0.0136909677419,-0.017993843318,3.009
-0.65798577813,-0.51745589581,-0.125346707407,-2.63900133798,-0.0672535879598,2.11112378508,-0.906011891398,-0.053979816102,0.0162333244854,0.00155365542802,0.00667791220513,0.000933792663358,-0.000181450743128,-0.0618861683726,0.573740222996,0.819002484215,0.00615095669691,0.0,0.819001542997,-0.573649665287,-0.0119700036147,0.0,-0.00627508926107,0.0119055447875,-0.999909436528,0.0,0.262458530689,-0.263233857263,0.304973202586,1.0,-0.0133309677419,-0.0175207004608,3.027
-0.658930348673,-0.51727801918,-0.125324498759,-2.63886532662,-0.067239280341,2.11116517106,-0.906952375445,-0.0613486558187,0.00941970707127,0.0025818365592,0.00803713626788,0.00358113162801,0.00196294132293,-0.0566170574883,0.573741028416,0.819001960164,0.00614560505037,0.0,0.819000981666,-0.573650554232,-0.0119658079357,0.0,-0.00627471121869,0.0118987606081,-0.999909519654,0.0,0.262249437852,-0.263513394724,0.304973484911,1.0,-0.0130109677419,-0.0171001290323,3.043
-0.659870147848,-0.517087354836,-0.125285149578,-2.63873332687,-0.0672228447475,2.11118345327,-0.907883369224,-0.0591867348749,0.0131457867983,0.00190726995219,0.0135171703497,-0.000153102457554,-0.000681716566061,-0.0552451533287,0.57373432512,0.819006716419,0.00613755179435,0.0,0.81900541645,-0.573643476144,-0.0120015417637,0.0,-0.00630869822748,0.0119126139822,-0.99990914085,0.0,0.262040473401,-0.263783053252,0.304965654295,1.0,-0.0126909677419,-0.0166795576037,3.059
-0.660878269354,-0.516889192076,-0.125245686656,-2.63858488788,-0.0672033125887,2.11122171213,-0.90891938954,-0.0497720582192,0.00782068169789,0.00351955926402,0.0109199604054,0.00343949572713,0.00124546886705,-0.0511970103692,0.573699573612,0.819031125732,0.00612872098305,0.0,0.819029677154,-0.573608705815,-0.0120078080508,0.0,-0.00631940250213,0.0119087080064,-0.999909119783,0.0,0.261820198283,-0.264077069859,0.304964224715,1.0,-0.0123309677419,-0.0162064147465,3.077
-0.661743574102,-0.516715954621,-0.125225251312,-2.63845595976,-0.0671902529363,2.11128331703,-0.909786492874,-0.0524779905121,0.0101668578973,0.000852197501948,0.00922578067162,1.89641796313e-05,0.00929669858367,-0.0489965426153,0.573695902794,0.8190337566,0.00612074893915,0.0,0.81903234729,-0.573605338927,-0.0119864986313,0.0,-0.00630657415385,0.0118899254423,-0.999909424296,0.0,0.261632342523,-0.264337001249,0.304964651523,1.0,-0.0120109677419,-0.015785843318,3.093
-0.662589557146,-0.516554355071,-0.125203871328,-2.6383259882,-0.0671709589735,2.11130181725,-0.910599398526,-0.0526453416126,0.0125332841014,0.00958172496574,0.0111067193934,0.00051901868631,-0.000207477684191,-0.0537941761893,0.573720032056,0.819016855203,0.00612067086576,0.0,0.819015358425,-0.573629300542,-0.0120006302007,0.0,-0.00631784389796,0.0118981544627,-0.999909255267,0.0,0.261432580311,-0.264600248362,0.304965025449,1.0,-0.0116709677419,-0.0153389861751,3.11
-0.66352627046,-0.516377823543,-0.125184761997,-2.63817889808,-0.0671566832534,2.11133290837,-0.911541657428,-0.0519699958284,0.00847807259028,0.000457376929489,0.0110131373429,9.71250706206e-05,0.00352981899649,-0.0444960427165,0.573718397296,0.819018026354,0.00611718997045,0.0,0.819016562662,-0.573627828412,-0.011988805537,0.0,-0.00631017894101,0.0118885070915,-0.999909418418,0.0,0.261235699514,-0.264864066925,0.30497099453,1.0,-0.0113309677419,-0.0148921290323,3.127
-0.66438757197,-0.516209893068,-0.125172497604,-2.63805807056,-0.0671388849137,2.11137954678,-0.912440750527,-0.052126528921,0.0159737106493,-0.00149877477555,0.00889994445001,0.00489100245512,0.000659092117524,-0.0519130980596,0.573692673989,0.819036020072,0.00612050132083,0.0,0.819034622174,-0.57360213943,-0.0119841655075,0.0,-0.00630485195709,0.0118883593301,-0.999909453778,0.0,0.261042711673,-0.265119695555,0.304968205305,1.0,-0.0109909677419,-0.0144452718894,3.144
-0.665198719866,-0.516064492761,-0.125159596534,-2.63794769652,-0.067124452566,2.11139791172,-0.913195724627,-0.0514511269548,0.0095668617997,0.000553053096833,0.00142930480319,9.17962759247e-05,-9.73807428516e-05,-0.0424582489846,0.573741450452,0.819001833767,0.00612300754871,0.0,0.819000392464,-0.573650751806,-0.0119966244269,0.0,-0.00631291106413,0.0118979353568,-0.99990928903,0.0,0.260856346764,-0.26535593916,0.304966573402,1.0,-0.0106709677419,-0.0140247004608,3.16
-0.666027592524,-0.515907202016,-0.12516344758,-2.6378349096,-0.0671068682047,2.11141769299,-0.913983279126,-0.0539138651361,0.00965454427595,-0.000184391292191,0.00427409643749,0.000158161731143,0.00497729211242,-0.0477813796879,0.573789477255,0.818968073991,0.00613811671128,0.0,0.818966631665,-0.573698331777,-0.0120261064202,0.0,-0.00632769172274,0.0119275957272,-0.999908842234,0.0,0.260650580272,-0.265613427902,0.304956603275,1.0,-0.0103109677419,-0.0135515576037,3.178
-0.666873544951,-0.51573708126,-0.125160990715,-2.63771889674,-0.0670870874914,2.11144629891,-0.914833305437,-0.0527290407113,0.00513472868097,0.000106712305117,0.00856348231967,0.000408079940005,-0.0001180075181,-0.0500873885529,0.573800975071,0.818959933507,0.00614940793312,0.0,0.818958563526,-0.573709637971,-0.0120361716265,0.0,-0.00632928957431,0.011942707237,-0.999908651746,0.0,0.260466568959,-0.265849872045,0.304953793674,1.0,-0.00997096774194,-0.0131047004608,3.195
-0.667581690628,-0.515586707787,-0.125146479738,-2.63761526244,-0.0670708896053,2.11149128704,-0.915560762257,-0.0438824395498,0.00834792437499,0.0032800693226,0.00849463413267,0.00103913143765,0.000941316520465,-0.0420169690989,0.573787224457,0.818969560994,0.00615029403662,0.0,0.818968214751,-0.573695909492,-0.0120338506342,0.0,-0.00632708065588,0.0119419950027,-0.999908674233,0.0,0.260310000756,-0.266060352129,0.30494955407,1.0,-0.00965096774194,-0.0126841290323,3.211
-0.668311255306,-0.515437455269,-0.125124786473,-2.63751342708,-0.0670505472719,2.11151841162,-0.91626392441,-0.0390987347499,0.0127378356168,3.50950388836e-05,0.00441889002894,0.00181983775085,3.65905020359e-05,-0.0346714892007,0.573807500734,0.818955331187,0.00615341554495,0.0,0.818953923518,-0.573715975431,-0.0120497963471,0.0,-0.00633805418377,0.0119538574787,-0.999908462991,0.0,0.26014638407,-0.266271346795,0.304943552034,1.0,-0.00931096774194,-0.0122372718894,3.228
-0.669018931899,-0.515290418465,-0.125080872046,-2.63741071112,-0.0670303932954,2.11154304024,-0.916932542662,-0.0440883027523,0.011824854029,0.00164472044589,0.012314039732,0.0027331024839,0.00165710399981,-0.0472270956161,0.57382229635,0.818945026673,0.00614511183644,0.0,0.818943418494,-0.573730629925,-0.0120660056571,0.0,-0.0063558788102,0.0119564721674,-0.999908318586,0.0,0.259993236795,-0.266471695763,0.304939071466,1.0,-0.00897096774194,-0.0117904147466,3.245
-0.669655165134,-0.515164390957,-0.125040073439,-2.63731162891,-0.067007962781,2.11156897526,-0.917575218301,-0.0362274349224,0.00964543525214,0.00364859600393,0.0100862247359,0.000796270769037,0.000831474897976,-0.0380735907817,0.573802740971,0.818958772933,0.00613918497479,0.0,0.818957108539,-0.573711143894,-0.0120633596266,0.0,-0.00635739776237,0.0119499480683,-0.999908386921,0.0,0.259858351815,-0.266653442259,0.304940730612,1.0,-0.00865096774194,-0.011369843318,3.261
-0.670315867357,-0.515039409083,-0.125010115908,-2.63721941703,-0.0669834596571,2.11159203685,-0.918271653265,-0.0367877631944,0.00598951605865,0.000613748334618,0.00411765239815,0.00387233739457,0.000529410752305,-0.0372174531731,0.573767465812,0.818983462769,0.00614245780736,0.0,0.818981801401,-0.573675787565,-0.0120684148879,0.0,-0.00636017534788,0.0119552551624,-0.999908305818,0.0,0.259712613187,-0.266841414875,0.304939150951,1.0,-0.00831096774194,-0.0109229861751,3.278
-0.670948388689,-0.514914123182,-0.124991887047,-2.63712608294,-0.0669626907219,2.11161887367,-0.918909210902,-0.0362723721143,0.00746667357081,0.00280654891799,0.00451704393725,0.000700283688802,0.00047400517866,-0.0349519300594,0.5737641198,0.818985773008,0.00614697827169,0.0,0.818984159313,-0.573672401515,-0.0120693593637,0.0,-0.00635840424,0.0119594734409,-0.999908266638,0.0,0.259572132241,-0.267025718357,0.304938007647,1.0,-0.00797096774194,-0.0104761290323,3.295
-0.6715212667,-0.514794081468,-0.124974347744,-2.63705335577,-0.0669355294255,2.11163973555,-0.919471016679,-0.0344837644974,0.0113543474446,-0.000125276397606,0.00397627883371,2.01293517919e-05,0.000190238336567,-0.0302911904417,0.573776218232,0.818977197116,0.00616026750751,0.0,0.818975606187,-0.573684156331,-0.012090994444,0.0,-0.00636832348223,0.0119828645903,-0.999907923467,0.0,0.259442454815,-0.267187833396,0.304928914397,1.0,-0.00765096774194,-0.0100555576037,3.311
-0.672116153381,-0.514699052192,-0.124949720986,-2.63698843729,-0.0669097212392,2.11166147522,-0.920051761567,-0.0408068260563,0.004405034955,0.00138211663711,0.00455485648259,0.00469963719006,0.000726749460243,-0.0362825667494,0.573784732747,0.818971167048,0.00616886640482,0.0,0.818969656479,-0.573692571492,-0.0120947130199,0.0,-0.00636631097723,0.0119921069634,-0.999907825479,0.0,0.259307192452,-0.267352725065,0.304925749811,1.0,-0.00731096774194,-0.00960870046084,3.328
-0.672748925627,-0.514596431618,-0.124939115996,-2.63690533191,-0.0668884885021,2.11167485302,-0.920662987402,-0.0296345156509,0.0042476317296,0.000550227807664,0.00539991535808,0.00111675384569,2.8389165248e-06,-0.0280099983426,0.573808202829,0.81895464369,0.00617938885852,0.0,0.818953251909,-0.573715955532,-0.0120962992849,0.0,-0.00636122896062,0.0120018174262,-0.999907741316,0.0,0.259160741675,-0.267534258645,0.304926993158,1.0,-0.00693096774194,-0.00910927188941,3.347
-0.673244374329,-0.514493065664,-0.124909975786,-2.63683136802,-0.0668670148997,2.11169606042,-0.92117147984,-0.0277708220109,0.00616885125707,0.00304890967429,0.00519344135759,0.00498354715481,2.12048423249e-05,-0.040807082727,0.573789844854,0.818967499101,0.00618031227089,0.0,0.818966086233,-0.573697534925,-0.0121010297688,0.0,-0.00636484271438,0.0120051452821,-0.99990767837,0.0,0.259054257813,-0.267674858629,0.304924909232,1.0,-0.00661096774194,-0.00868870046084,3.363
-0.673755733003,-0.514405061351,-0.124877321318,-2.6367644051,-0.0668429784791,2.11171323727,-0.921688205254,-0.0268597263517,0.00414036453283,-0.00028051256262,0.00312502543212,0.000762520640583,0.00178350074457,-0.0340584204275,0.573775975642,0.818977199097,0.00618255904818,0.0,0.818975811344,-0.573683650876,-0.012101076469,0.0,-0.00636379518892,0.0120069044401,-0.999907663915,0.0,0.258942608757,-0.267816382935,0.304925057786,1.0,-0.00627096774194,-0.00824184331798,3.38
-0.674231309964,-0.514324830936,-0.124849198714,-2.63668448562,-0.0668251058619,2.11173072843,-0.922165639088,-0.0273810205017,0.00208896124785,0.000157635886255,0.00499630434077,-0.000316460205658,-0.000133959337025,-0.0220372424754,0.573766124051,0.818984130769,0.00617861963941,0.0,0.818982821524,-0.573674063867,-0.0120811173357,0.0,-0.00634985179659,0.0119921500994,-0.999907929621,0.0,0.258842007411,-0.267953760067,0.304933877559,1.0,-0.00593096774194,-0.00779498617512,3.397
-0.674651847879,-0.514240655216,-0.12483150658,-2.63661741418,-0.0668060477941,2.11176490794,-0.922574735442,-0.0256994319977,0.00671051937359,-0.000369031850186,0.0019014518545,0.000359617812128,0.00466226921641,-0.0273054169441,0.573774501465,0.818978250247,0.00618012882313,0.0,0.818977086567,-0.573682670891,-0.0120611648983,0.0,-0.0063325208353,0.0119820034655,-0.999908161169,0.0,0.258753477042,-0.268077947576,0.304936581063,1.0,-0.00561096774194,-0.00737441474655,3.413
-0.67506450513,-0.514160803697,-0.124812066051,-2.63655907177,-0.0667847048655,2.11177997593,-0.922976786629,-0.0259196987062,0.0040280307057,0.00414584828417,0.00394336589839,0.00203117294842,0.000780368840251,-0.0284465947134,0.573781521796,0.818973284052,0.00618644936298,0.0,0.818972177403,-0.573689614251,-0.0120642464384,0.0,-0.00633131567407,0.0119890024114,-0.999908084907,0.0,0.258662792518,-0.268194497263,0.304935327713,1.0,-0.00527096774194,-0.00692755760369,3.43
-0.675447062284,-0.514100052835,-0.124796793909,-2.63651196857,-0.0667654945788,2.11179395741,-0.923365060438,-0.0196394056404,0.00644817392895,0.00247836491781,0.00169250182425,0.00130284000639,-1.11396576988e-05,-0.0221043345519,0.5737766211,0.818976662623,0.00619371126039,0.0,0.818975665652,-0.573684711469,-0.0120605886187,0.0,-0.00632422491978,0.0119928134873,-0.999908084078,0.0,0.258576737004,-0.26830156785,0.304935834464,1.0,-0.00493096774194,-0.00648070046084,3.447
-0.675846207481,-0.514034608961,-0.124774019505,-2.63647218255,-0.0667469685189,2.11181007192,-0.923735744751,-0.0245500278208,0.00631942092046,0.004715418113,0.00491579725739,0.00266463877811,-4.65147492162e-05,-0.0211373778926,0.573793768147,0.818964618376,0.00619777258295,0.0,0.818963630754,-0.573701754481,-0.0120671168547,0.0,-0.00632699055925,0.0120000178254,-0.999907980148,0.0,0.258486403401,-0.268409664066,0.304931639673,1.0,-0.00459096774194,-0.00603384331798,3.464
-0.676217024748,-0.513975671258,-0.124745215232,-2.63642252894,-0.0667319763746,2.11181803989,-0.924092009918,-0.0180894510806,0.00142540829934,-0.000705258650315,0.0034762096675,0.000483726870891,0.000341260088542,-0.0246577716161,0.573794151964,0.818964372473,0.00619473110233,0.0,0.818963354142,-0.573702168434,-0.0120662093525,0.0,-0.00632798673757,0.011997009104,-0.999908009947,0.0,0.258405752254,-0.268510995798,0.3049337743,1.0,-0.00425096774194,-0.00558698617512,3.481
-0.676553411118,-0.513915402315,-0.124730986973,-2.63636812669,-0.0667139281442,2.11183264677,-0.924435575735,-0.0179283292632,0.00290279147405,0.00250744728228,0.00653992239629,4.256196476e-06,0.00360961344473,-0.026535442161,0.573788627458,0.818968206183,0.00619960985279,0.0,0.818967318852,-0.573696751782,-0.0120546484002,0.0,-0.00631579934035,0.0119943289471,-0.999908119155,0.0,0.258333365637,-0.268608412119,0.304937798788,1.0,-0.00391096774194,-0.00514012903227,3.498
-0.676837154474,-0.513849654104,-0.124705154228,-2.63633862876,-0.0667027042697,2.11184188428,-0.92470586519,-0.0179969723713,0.00569201455589,0.000361775241597,0.00216508213458,0.00124354046223,-0.000562558165342,-0.00958022317657,0.573787723821,0.818968854675,0.00619757746726,0.0,0.818967782651,-0.573695557133,-0.0120799671517,0.0,-0.00633771622543,0.0120071843075,-0.999907826191,0.0,0.258270566809,-0.268682988503,0.30492829535,1.0,-0.00359096774194,-0.00471955760369,3.514
-0.677119228975,-0.513799086169,-0.1246795213,-2.63630537485,-0.0666914180008,2.11184825266,-0.924992015093,-0.0122900357824,0.00371243154483,0.000881898468893,0.00127243288983,-2.50028074328e-05,0.00125829949401,-0.0109811684489,0.57377273279,0.818979379662,0.00619465058878,0.0,0.818978212369,-0.573680474053,-0.012089179314,0.0,-0.00634716069137,0.0120099565465,-0.999907732991,0.0,0.258208883539,-0.268757994802,0.304925858344,1.0,-0.00325096774194,-0.00427270046084,3.531
-0.677382880233,-0.513762833865,-0.124653604488,-2.63628002645,-0.0666783782969,2.11186169526,-0.925233833242,-0.0165369616275,0.00086862501108,0.00281222665376,-0.00105560511347,0.00110653827444,-5.64152873041e-06,-0.0155844244801,0.573779069903,0.818974960126,0.00619197288243,0.0,0.818973788196,-0.573686878868,-0.0120849560762,0.0,-0.00634514498735,0.0120053894861,-0.999907800629,0.0,0.258151998698,-0.268827194573,0.304925732649,1.0,-0.00291096774194,-0.00382584331798,3.548
-0.677590998222,-0.513738938312,-0.124641849889,-2.63625828641,-0.0666662851548,2.1118701282,-0.925427413788,-0.0109607451073,-0.00072773106643,-1.66951757059e-05,-0.000726122202694,0.00303829068197,-0.000205844089778,-0.00558683702039,0.573788881222,0.818968060512,0.00619536508574,0.0,0.818966981756,-0.573696765874,-0.0120768588799,0.0,-0.00633642277659,0.012003597897,-0.999907877449,0.0,0.258105439079,-0.26888371838,0.304927775632,1.0,-0.00261096774194,-0.00343155760369,3.563
