nelsonifechukwu/NELSON_IML_WORK/CNN-GradCAM/train2dof/data_sample_2022-02-22-07-35-39/robot_state.csv
position_joint1,position_joint2,position_joint3,position_joint4,position_joint5,position_joint6,position_joint7,velocity_joint1,velocity_joint2,velocity_joint3,velocity_joint4,velocity_joint5,velocity_joint6,velocity_joint7,ee_T_00,ee_T_10,ee_T_20,ee_T_30,ee_T_01,ee_T_11,ee_T_21,ee_T_31,ee_T_02,ee_T_12,ee_T_22,ee_T_32,ee_T_03,ee_T_13,ee_T_23,ee_T_33,v_x,v_y,time
0.465076561911,0.547630149349,-0.124029418048,-1.35582312217,0.07952463273,1.89415785691,0.159131463658,-0.00127150107505,-0.000874945422781,-0.000898385465543,-0.000264923169568,0.000168106776839,0.000280617764499,-0.000828338542127,0.573815371302,0.818970149704,0.00213552172705,0.0,0.818929490915,-0.57375612468,-0.0117959824863,0.0,-0.00843545128103,0.00851772178357,-0.999928143207,0.0,0.661702053527,0.260879794355,0.303332456745,1.0,0.0,0.0,0.0
0.465082783822,0.547630149022,-0.124025492154,-1.3558259034,0.0795229694426,1.8941571455,0.159128742246,0.000642392985733,-0.0075718693392,2.12131733912e-05,-0.000338486602361,1.80946393264e-05,0.000194864087367,-0.000566715320464,0.573805010781,0.818977416003,0.00213274017386,0.0,0.818936711682,-0.573745766852,-0.0117984820819,0.0,-0.00843920220248,0.00851677133733,-0.999928119653,0.0,0.661698842277,0.26088553478,0.303330938218,1.0,-0.00014,-0.000184,0.008
0.465081838977,0.547631683748,-0.1240280278,-1.35582346798,0.0795214326478,1.8941578579,0.159125725014,0.00102314820762,-0.00126907035566,-0.000876551943932,0.00105519886834,0.000231467182123,0.000394087873522,-0.00166113418024,0.573804552711,0.818977737485,0.00213253225152,0.0,0.818937060156,-0.57374533962,-0.0117950696483,0.0,-0.00843653144249,0.00851463828964,-0.999928160356,0.0,0.661700417359,0.260883510655,0.303331153255,1.0,-0.00042,-0.000552,0.022
0.465072394598,0.547613929088,-0.124024375316,-1.35583277381,0.0795236256801,1.89415657753,0.159130251689,-0.000694472854387,-0.00252295993769,0.00555219995368,-0.00016656939932,-7.81652993638e-05,4.58989710667e-05,0.000283935797083,0.573814490178,0.818970751403,0.00214152044538,0.0,0.818930143424,-0.573755192768,-0.0117960105113,0.0,-0.00843204145899,0.00852264149044,-0.999928130047,0.0,0.661700000411,0.260878773277,0.303339073359,1.0,-0.00078,-0.00102514285714,0.04
0.465078200972,0.547549661718,-0.124025114835,-1.35588949952,0.0795209202383,1.89416577398,0.159134924723,0.00366438820054,-0.00670840192816,0.00139258761821,-0.00525982645903,8.37035246204e-05,0.00435997861042,-0.000930195237435,0.573816407114,0.818969367392,0.0021571050135,0.0,0.818928945627,-0.573757032134,-0.0117896985128,0.0,-0.00841790983305,0.00853180243951,-0.999928170991,0.0,0.661689336687,0.260876486124,0.303358418616,1.0,-0.0011,-0.00144571428571,0.056
0.465075406447,0.547421415551,-0.124022609517,-1.35604051298,0.0795214281347,1.89420201676,0.159131640625,0.000814183180102,-0.00872526423932,0.00101827288984,-0.00610818680383,0.000365334271014,-0.000224267865413,0.000959756686052,0.573822658625,0.818964937319,0.00217595787484,0.0,0.818924638456,-0.573763085547,-0.0117942822304,0.0,-0.00841078123686,0.00854993651475,-0.999928076086,0.0,0.661665457701,0.260862389743,0.30338045269,1.0,-0.00144,-0.00189257142857,0.073
0.465062989567,0.547298937889,-0.12402860754,-1.35622123625,0.0795152246859,1.89426165926,0.159123042842,-0.00270888599058,-0.00957496082495,-0.000557034275643,-0.0123116170573,-0.00443855588969,0.00552704985416,-0.0011396364024,0.573838399051,0.818953901547,0.00217848968432,0.0,0.818913614577,-0.573778792818,-0.0117955785503,0.0,-0.00841022581641,0.00855291544299,-0.999928055282,0.0,0.661644116416,0.26083390239,0.303386557555,1.0,-0.00174,-0.00228685714286,0.088
0.465045315535,0.547129682782,-0.124022609197,-1.35642883321,0.0795162682315,1.89436962148,0.159113854039,0.00121524707159,-0.00714845560336,-0.000736820697348,-0.0112722149043,0.000391836428952,0.0066860854724,-0.00422995694101,0.573853203567,0.818943344992,0.00224618556413,0.0,0.818903832352,-0.573793226473,-0.0117725746397,0.0,-0.00835238640184,0.00859530512413,-0.999928176606,0.0,0.661625694351,0.260810771025,0.3034168168,1.0,-0.00208,-0.00273371428571,0.105
0.465022680891,0.546903883479,-0.12402590223,-1.35668908618,0.0795084089664,1.89451160923,0.159095652345,-0.000761976512138,-0.0113700632061,-0.00107330560044,-0.0144329096877,6.08323902584e-05,0.011840111141,-0.00128669734625,0.573871817029,0.818930036906,0.00234076344438,0.0,0.818891766101,-0.573811495042,-0.0117213681169,0.0,-0.00825598240623,0.00864356114563,-0.999928561251,0.0,0.661607394291,0.260774343665,0.303465303709,1.0,-0.00246,-0.00323314285714,0.124
0.464996958742,0.546682816072,-0.124022855165,-1.35700440673,0.079502057644,1.89463455383,0.159058174036,-0.00223113571687,-0.0159967953253,9.07478676472e-05,-0.0166632848613,0.000254547102057,0.00580745448931,2.67432783316e-05,0.573876036749,0.818926987004,0.00237303687514,0.0,0.818889018358,-0.573815472054,-0.0117186409046,0.0,-0.00823518456592,0.00866846793051,-0.999928517145,0.0,0.661571785864,0.260731883324,0.303482351982,1.0,-0.0028,-0.00368,0.141
0.464964808357,0.546454925418,-0.124023204572,-1.35734900582,0.0794917485009,1.89476210686,0.158969544468,-0.00363166005753,-0.0167388901062,0.00063707544222,-0.0225437062963,-0.000488832501346,0.00134980944022,-0.00714114286312,0.573846574645,0.818947587227,0.00238852342116,0.0,0.818909725003,-0.573785856685,-0.0117217688476,0.0,-0.00822917179545,0.00868264912789,-0.999928443608,0.0,0.661533218231,0.260679488024,0.303490789468,1.0,-0.0031,-0.00407428571429,0.156
0.464932452772,0.546183083911,-0.124025560534,-1.35776246265,0.0794807320656,1.89490260814,0.158930052597,-0.00221874949013,-0.0150780670374,4.43798558829e-05,-0.0292209331052,-0.00240057939814,0.0147723754766,-0.00130265039,0.573862498306,0.818936410065,0.00239503837809,0.0,0.818898505414,-0.573801620198,-0.0117339418347,0.0,-0.00823523385405,0.00869512993268,-0.999928285248,0.0,0.66148312024,0.260618961765,0.303498750528,1.0,-0.00342,-0.00449485714286,0.172
0.464884800088,0.545871021873,-0.124027929232,-1.35829611236,0.0794559481842,1.89507630935,0.158883829666,-0.00271123548713,-0.0218065438448,-0.00555747308513,-0.028908697611,0.000276841388796,0.011907158421,-0.00181910529522,0.573888507691,0.818918292857,0.00235738511812,0.0,0.818879808434,-0.573827671533,-0.0117647619199,0.0,-0.00828180538452,0.0086822438956,-0.999928012579,0.0,0.661417838577,0.260534589623,0.303480820127,1.0,-0.00378,-0.004968,0.19
0.464820112823,0.545535854933,-0.12402579815,-1.35887401371,0.0793916319946,1.89526603653,0.158774972335,-0.00853871565127,-0.0215253407609,-0.00016493758437,-0.0324399151747,-0.000315737722078,0.0182171443399,-0.00961294457758,0.573865988558,0.818934246118,0.00229665268095,0.0,0.818895176319,-0.573805597395,-0.0117717246274,0.0,-0.00832259650545,0.00863627646755,-0.999928071971,0.0,0.661351764923,0.260431295392,0.303459333323,1.0,-0.00412,-0.00541485714286,0.207
0.464757079828,0.545162577935,-0.124025799028,-1.35953726173,0.0793517729751,1.89547506685,0.158735859264,-0.0028875609259,-0.0186067971903,-0.000450360013287,-0.0427625504157,-0.00102415887118,0.0135672054619,4.7151086309e-05,0.57391190097,0.818902263564,0.00222700624794,0.0,0.818862231364,-0.573851713095,-0.0118154274298,0.0,-0.00839787060185,0.00860479139137,-0.999927714055,0.0,0.661269557129,0.260323503922,0.303425970125,1.0,-0.00446,-0.00586171428571,0.224
0.464695351373,0.544768680823,-0.124026488541,-1.36019121557,0.0793303458112,1.89568398247,0.158628956196,-0.00466936502584,-0.0177077097777,0.00125972658229,-0.0441605513553,-0.00347137266809,0.0146369042223,-0.0020173394619,0.573906035595,0.818906463587,0.00219387883765,0.0,0.81886578831,-0.573845761889,-0.0118578749842,0.0,-0.00845170511743,0.0086019639611,-0.999927284805,0.0,0.66118871639,0.260220536035,0.30341164227,1.0,-0.00478,-0.00628228571429,0.24
0.464624649404,0.544372137491,-0.124028994341,-1.36088536206,0.0793033070861,1.89591659288,0.158570604056,-0.0031962856864,-0.0227689561582,-4.8566233438e-05,-0.0451659109927,-0.00340277141417,0.0122052809222,-1.97966199451e-05,0.573949373912,0.818876218804,0.00214507907975,0.0,0.818834745819,-0.573889125593,-0.0119028344161,0.0,-0.00851607444311,0.00858825499444,-0.999926856501,0.0,0.661106413826,0.260106549504,0.303382133789,1.0,-0.0051,-0.00670285714286,0.256
0.464551499238,0.543848621222,-0.124034703634,-1.36171998292,0.0792595728473,1.89621985787,0.158447279808,-0.00156586880181,-0.0236856600768,-0.000906609098186,-0.0498444492285,-0.00468335332601,0.0205832206306,-0.0022429114819,0.573947169105,0.818877776379,0.00214040425872,0.0,0.818836194087,-0.573886891189,-0.0119109309436,0.0,-0.00852541084039,0.00858905093937,-0.999926770106,0.0,0.661011446718,0.259976186035,0.303381781751,1.0,-0.00546,-0.007176,0.274
0.464471926639,0.543298187447,-0.124035127083,-1.3625973683,0.0792051074105,1.89651812447,0.158326971444,-0.00451006281629,-0.0313853161266,0.000847627689008,-0.0490659904218,-0.000284216637971,0.0109997282409,-0.00496171164471,0.573948322234,0.818877032802,0.00211552715461,0.0,0.818835095455,-0.573888114359,-0.0119275122862,0.0,-0.00855325465667,0.00857820870178,-0.999926625393,0.0,0.660907273656,0.259837846622,0.303379428255,1.0,-0.00582,-0.00764914285714,0.292
0.464391109823,0.54279282115,-0.124034115561,-1.36342207422,0.079158190567,1.896805777,0.158245498639,-0.00768675053803,-0.0335003009228,0.00167480686085,-0.0500880319774,-0.000340919352503,0.0213917950787,-0.00124279954766,0.573980398194,0.818854615949,0.00208981549465,0.0,0.818812280274,-0.573920228661,-0.0119485442025,0.0,-0.00858489847344,0.00856956174035,-0.999926428358,0.0,0.660811370082,0.259705687144,0.303369251504,1.0,-0.00614,-0.00806971428571,0.308
0.464316791303,0.542199959965,-0.124042729498,-1.36433866841,0.0791037922219,1.89714326361,0.15811169234,-0.00596892419483,-0.0353370010074,-7.85360637446e-05,-0.0562669791282,-0.00378279109114,0.0247319708925,-0.00663494327769,0.573969863395,0.818861958255,0.00210621414592,0.0,0.818819860402,-0.573909651755,-0.0119371158184,0.0,-0.00856623833462,0.0085763198293,-0.999926530451,0.0,0.660701088353,0.259559458065,0.303384690066,1.0,-0.0065,-0.00854285714286,0.326
0.464239475386,0.541579013054,-0.12404710669,-1.36529359032,0.0790455503825,1.89748809199,0.157982414119,-0.00980121050601,-0.0393920446849,-0.00609135985164,-0.0582206019317,-0.00176704812929,0.0229405282231,-0.00344222784197,0.573972116923,0.818860373743,0.00210812917991,0.0,0.818818307545,-0.57391190385,-0.0119353570792,0.0,-0.0085636754047,0.0085769020681,-0.99992654741,0.0,0.660596560143,0.259419825663,0.303396347172,1.0,-0.00682,-0.00896342857143,0.342
0.464165987808,0.540952148329,-0.124045665346,-1.36625013558,0.0789890205819,1.89783563617,0.157877516602,-0.00298804224965,-0.0396835423772,0.00112353448155,-0.0610396322337,-0.00651366376065,0.0139604726342,-0.00501489721569,0.573983304761,0.818852489461,0.0021244434699,0.0,0.818810603045,-0.573922990569,-0.0119308062987,0.0,-0.00855046811246,0.00858776580764,-0.999926567191,0.0,0.660483515589,0.259281239342,0.303414279354,1.0,-0.00714,-0.009384,0.358
0.464073931759,0.540294226654,-0.124048533943,-1.36724465546,0.0789333106417,1.8981987274,0.157736266566,-0.00484595656832,-0.0411853660372,0.000645803953712,-0.0641249892739,-0.00266610387656,0.0198428718299,-0.0119477879344,0.573985212472,0.818851087446,0.00214926787691,0.0,0.81880948597,-0.573924758064,-0.0119224438586,0.0,-0.00852935228885,0.00860331303732,-0.999926613884,0.0,0.6603712129,0.259124986119,0.303437490735,1.0,-0.00746,-0.00980457142857,0.374
0.463978401237,0.539556532631,-0.124051368067,-1.36837225353,0.0788673249002,1.89862041665,0.157597302696,-0.00385044709235,-0.0481337937025,0.000891523613965,-0.0682392565621,-0.00606939352079,0.0344880625177,-0.00985171230865,0.573996433978,0.818843149394,0.00217655029503,0.0,0.818801897192,-0.573935861447,-0.0119091141902,0.0,-0.00850266000401,0.00861811851343,-0.999926713718,0.0,0.660243221391,0.258954031421,0.303458703173,1.0,-0.0078,-0.0102514285714,0.391
0.463865502502,0.53876218459,-0.124054564572,-1.36960823082,0.0787980493991,1.89908900281,0.157456518358,-0.0062438025531,-0.0419907421168,-6.78359706757e-05,-0.0667942444822,-0.00552100114741,0.0227036147108,-0.0087091298864,0.574025735253,0.818822544556,0.00220061221599,0.0,0.818781580299,-0.573965036376,-0.0118999026125,0.0,-0.00848099735204,0.00863283730331,-0.999926770721,0.0,0.660105535727,0.258761937425,0.303472313916,1.0,-0.00816,-0.0107245714286,0.409
0.463755307186,0.537981416055,-0.124058801674,-1.37081399118,0.0787286216315,1.89955705843,0.157303177554,-0.0046819151851,-0.0423629403429,-0.00049333213084,-0.0681434772608,-0.00343557464974,0.0367583751266,-0.00736835830725,0.57404151859,0.81881138107,0.00223697698082,0.0,0.818770902341,-0.573980684898,-0.0118798040666,0.0,-0.00844349975862,0.00865123899122,-0.999926929018,0.0,0.65997366461,0.25857438583,0.303490561589,1.0,-0.0085,-0.0111714285714,0.426
0.463663462397,0.537172332273,-0.124071856919,-1.37209342095,0.0786513651304,1.90002456089,0.157149741049,-0.00461456492333,-0.0477637934873,-0.0021181278098,-0.0747027737067,-0.00275517799571,0.0264190838443,-0.00669471531687,0.574050100693,0.818805381317,0.0022307671357,0.0,0.818764862307,-0.573989332112,-0.011878290053,0.0,-0.00844573388447,0.00864537379791,-0.999926960878,0.0,0.659822797399,0.258384166245,0.303493832361,1.0,-0.00884,-0.0116182857143,0.443
0.463555442149,0.536438693117,-0.124070543153,-1.37322764094,0.078591085327,1.90046347385,0.157005290379,-0.00817952047781,-0.051094151337,0.00124893973145,-0.0719394192288,-0.00504783289102,0.0359375342464,-0.00850950380783,0.57406578095,0.818794287715,0.00226725574784,0.0,0.818754181894,-0.574004802694,-0.0118668874287,0.0,-0.00841528597174,0.00866886602673,-0.999927014198,0.0,0.659697602756,0.25820867125,0.303509888394,1.0,-0.00914,-0.0120125714286,0.458
0.463441641914,0.535577394327,-0.124076991809,-1.37459810908,0.0785040914069,1.90095114352,0.156840247738,-0.0102388770722,-0.0534367273538,-0.000636851996542,-0.0784227971094,-0.0117941340782,0.0234416703766,-0.0103489254201,0.574080283717,0.818784181225,0.00224484410684,0.0,0.818743807546,-0.574019416671,-0.0118757648777,0.0,-0.0084352667221,0.00865576133195,-0.999926959368,0.0,0.659535149261,0.257997504515,0.303507917025,1.0,-0.00948,-0.0124594285714,0.475
0.463335394826,0.534721023444,-0.124080393837,-1.37594413566,0.0784354870979,1.90143761594,0.156686366092,-0.00828374237945,-0.0509165359438,-0.000514886901778,-0.0823465595567,-0.00380516044474,0.0337816461871,-0.0148985485724,0.574099123511,0.818770962915,0.00224801545858,0.0,0.818730503011,-0.574038110658,-0.0118894009148,0.0,-0.00844441227,0.00866638032609,-0.999926790197,0.0,0.659374020381,0.25779882495,0.30351376341,1.0,-0.0098,-0.01288,0.491
0.463201381381,0.533822257719,-0.12408287301,-1.37742546864,0.0783471395264,1.90196735074,0.15650682184,-0.0139662506282,-0.054520722124,-0.000536100267191,-0.0852477386666,-0.000879095184251,0.0334307341906,-0.0170635263781,0.574121040032,0.818755720596,0.0022018819902,0.0,0.81871460982,-0.5740601581,-0.0119192890197,0.0,-0.00849513690463,0.00864599402509,-0.99992653702,0.0,0.659198875017,0.257566635487,0.303488658966,1.0,-0.01014,-0.0133268571429,0.508
0.463071005568,0.532851601925,-0.124080739287,-1.37899275985,0.078268377247,1.90256309978,0.156304600165,-0.00772930343456,-0.0544139385783,0.00116474101038,-0.0862278456621,-0.00101423503154,0.0386731626993,-0.0152030268582,0.574125519688,0.818752561814,0.00220840848088,0.0,0.8187113811,-0.574064453024,-0.0119342001644,0.0,-0.0085035518709,0.00865994475964,-0.999926344769,0.0,0.659015876167,0.25733629672,0.303478748457,1.0,-0.0105,-0.0138,0.526
0.462939327223,0.531944535609,-0.124086066943,-1.38045241204,0.0781859793676,1.903111551,0.156118408946,-0.00204988053038,-0.0568535281035,-0.00140284772061,-0.0894331992081,-0.00243527669811,0.0356199530582,-0.0170098582688,0.574142344464,0.818740772164,0.00220526437867,0.0,0.818699513961,-0.574081251255,-0.0119402553836,0.0,-0.00851013682529,0.00866102184594,-0.999926279419,0.0,0.658848674474,0.257108942304,0.303471162594,1.0,-0.01082,-0.0142205714286,0.542
0.462803131706,0.530934451379,-0.124083191903,-1.38206996001,0.0780884318625,1.90368571777,0.155908036813,-0.00901360478126,-0.0619569959998,0.000717401170584,-0.093882059795,-0.00252168416357,0.0356577374448,-0.0197294340762,0.574141415216,0.818741497655,0.00217767135192,0.0,0.8186998012,-0.574080355027,-0.0119636276887,0.0,-0.00854512462855,0.00865183980996,-0.999926060523,0.0,0.658652202289,0.256865327669,0.303462773022,1.0,-0.01116,-0.0146674285714,0.559
0.46265916331,0.52984962763,-0.124089036301,-1.38380205034,0.0779828463109,1.90430346211,0.155681468722,-0.00771246807054,-0.0566303250746,-0.000282442166099,-0.0934804618707,-0.00181304386165,0.0358178784923,-0.0131866060202,0.574143616701,0.818740025444,0.0021505903934,0.0,0.818697949194,-0.574082640926,-0.0119806624686,0.0,-0.00857459636935,0.00863947116144,-0.999925915173,0.0,0.658443596858,0.256600596878,0.303456340935,1.0,-0.01152,-0.0151405714286,0.577
0.462522791281,0.528856652943,-0.124089723862,-1.38537412182,0.0778710522843,1.9048854939,0.155473334398,-0.00718664440134,-0.0565722817988,0.000639502677159,-0.0967936257617,-0.00848420991541,0.0415880550326,-0.0102812812477,0.574140564983,0.818742185393,0.00214298855885,0.0,0.818700139055,-0.574079750978,-0.0119694915848,0.0,-0.00856984635609,0.00862680178487,-0.999926065279,0.0,0.658259586183,0.256358262911,0.303457841568,1.0,-0.01184,-0.0155611428571,0.593
0.462376082788,0.527676557022,-0.124090407214,-1.38719045032,0.0777612305973,1.90558653094,0.155217541857,-0.010460837118,-0.0655259780469,0.000832322416922,-0.102728464416,0.000587042934103,0.0456118920374,-0.0140992554699,0.57412072091,0.818755957242,0.00219708955616,0.0,0.818714637497,-0.574059709404,-0.011938981886,0.0,-0.00851401587159,0.00865337287107,-0.999926312621,0.0,0.658049157068,0.256090983048,0.303484908214,1.0,-0.0122,-0.0160342857143,0.611
0.462250108041,0.526663147812,-0.124096109008,-1.38875519142,0.0776647052072,1.90618717922,0.154997386227,-0.00972479357511,-0.0635160625707,0.000277363265153,-0.0993809813385,-0.0060130473183,0.036647675932,-0.0193720896904,0.574106338369,0.818765937077,0.0022359402378,0.0,0.818725177587,-0.574045226957,-0.011912509952,0.0,-0.0084701896299,0.00866983495876,-0.999926542227,0.0,0.657867840057,0.255857474524,0.303505582308,1.0,-0.0125,-0.0164285714286,0.626
0.462099815482,0.525494707489,-0.12410142659,-1.39057790927,0.0775511102728,1.90683883169,0.154754463113,-0.00796673912436,-0.0678527042392,0.000421900669512,-0.109539542303,-0.00937130821732,0.0374415851348,-0.0186371344918,0.574101786987,0.818769140886,0.00223136986817,0.0,0.818728315677,-0.574040688172,-0.0119155500548,0.0,-0.0084753507636,0.00866779115503,-0.999926516213,0.0,0.657646846343,0.255580364132,0.303516688701,1.0,-0.01284,-0.0168754285714,0.643
0.461938992434,0.524238076238,-0.124108199337,-1.39255814931,0.0774263474933,1.90755352984,0.15447732215,-0.00628439536197,-0.0728467072079,-0.000610441448801,-0.112874552472,-0.00382297232044,0.0425113289349,-0.0149271553197,0.574099068626,0.818771105832,0.00220965120094,0.0,0.818730060878,-0.574038122077,-0.0119192582523,0.0,-0.0084908837099,0.00865210950353,-0.999926520248,0.0,0.657396591075,0.255255133295,0.303514255743,1.0,-0.01322,-0.0173748571429,0.662
0.461779893019,0.523052001715,-0.124111629872,-1.39446674505,0.0773031098707,1.90825591684,0.154223101607,-0.00697306561104,-0.0710308347851,-4.18075316344e-05,-0.112181446894,-0.00786538028435,0.0387200504261,-0.0219033645354,0.574077890382,0.818785990208,0.00219656878037,0.0,0.818744766926,-0.574016991336,-0.0119267426235,0.0,-0.00850474570905,0.00864547489071,-0.999926459828,0.0,0.657177301676,0.254990641888,0.303506391307,1.0,-0.01354,-0.0177954285714,0.678
0.461615195993,0.521803442827,-0.124110374222,-1.3964236661,0.0771935041361,1.90901845282,0.153959660911,-0.0083258172475,-0.0732671730249,0.00194952984755,-0.110377102039,-0.0057588655945,0.0567380502585,-0.0177099655243,0.574071682549,0.818790208825,0.00224591369572,0.0,0.818749566913,-0.574010522917,-0.0119085331523,0.0,-0.00846157516322,0.00867535955669,-0.999926567245,0.0,0.656949084062,0.254701239409,0.303518399903,1.0,-0.01388,-0.0182422857143,0.695
0.4614509113,0.520559162444,-0.124117792509,-1.3984442903,0.0770666046915,1.90978622,0.153690301549,-0.0121395499832,-0.0757758202111,-0.000370958608075,-0.115195203888,-0.00585786593303,0.0432897482829,-0.0142539611469,0.574064778747,0.818795087429,0.00223192850497,0.0,0.818754323385,-0.574003737475,-0.0119085769204,0.0,-0.00846971204528,0.00866386249415,-0.999926598038,0.0,0.656708898112,0.2543970712,0.303497479515,1.0,-0.01422,-0.0186891428571,0.712
0.461284041577,0.519235446943,-0.124123145981,-1.40050379036,0.0769347743191,1.91051981855,0.153414637009,-0.00755364145035,-0.0827571077745,0.000281026023594,-0.120117902025,-0.00319969467168,0.04440041934,-0.0147712817824,0.574053344756,0.818803119497,0.00222615759757,0.0,0.818762290677,-0.573992338697,-0.0119102218447,0.0,-0.00847449255482,0.00865996331185,-0.999926591311,0.0,0.656454531021,0.254085816761,0.303510373045,1.0,-0.01456,-0.019136,0.729
0.461137670944,0.518137861624,-0.124121679558,-1.40223421924,0.0768129483077,1.9111450936,0.153178908518,-0.00963956685536,-0.0852804691054,-0.000151194855166,-0.128125204101,-0.00704556909029,0.0410564714082,-0.0218536392992,0.574037954553,0.818813950174,0.00221102567219,0.0,0.818773011384,-0.573977100119,-0.0119076138943,0.0,-0.00848120555579,0.00864591693203,-0.999926655947,0.0,0.656242442257,0.253822401641,0.303511214275,1.0,-0.01484,-0.019504,0.743
0.460947137496,0.516697862095,-0.124130158108,-1.40448693672,0.0766693206332,1.91195678984,0.152870470455,-0.011574209199,-0.0763514535855,0.00104854799935,-0.122216926562,-0.00506312148745,0.0439960689934,-0.0135031802336,0.574027799955,0.818821084919,0.00220514693356,0.0,0.81878009741,-0.5739669988,-0.0119072782716,0.0,-0.00848441229666,0.00864080553306,-0.999926672925,0.0,0.655966932989,0.253475880185,0.30351985939,1.0,-0.0152,-0.0199771428571,0.761
0.460755661915,0.515339725262,-0.12413613395,-1.40666167163,0.0765376617618,1.91279120168,0.152565194229,-0.0129471338694,-0.0850137104702,0.00101882167633,-0.130277737681,-0.00513789286207,0.0471427460694,-0.00617170451047,0.574018459023,0.818827601552,0.00221687585692,0.0,0.818786787999,-0.573957633606,-0.0118986353943,0.0,-0.00847070134808,0.00864535146561,-0.999926749876,0.0,0.655710470007,0.253141852902,0.303509710701,1.0,-0.01554,-0.020424,0.778
0.460552513749,0.51386811586,-0.124140086468,-1.40903713767,0.0763965331246,1.91363878813,0.152240875129,-0.010982579583,-0.0839560708691,-5.96080841494e-05,-0.132713196691,-0.00367504405523,0.0452327008067,-0.0202182531081,0.574008939372,0.818834400999,0.00216982985349,0.0,0.818792862991,-0.573948191764,-0.0119359786802,0.0,-0.00852838422993,0.00862816577947,-0.999926408001,0.0,0.655414062283,0.252778514982,0.303484214045,1.0,-0.0159,-0.0208971428571,0.796
0.460373295297,0.512552660153,-0.124138687027,-1.41118780793,0.0762654747243,1.91438035066,0.15194122457,-0.0109158779851,-0.0810106400435,0.000467641917579,-0.137659472385,-0.00996237431949,0.0491357788292,-0.020576614987,0.573986569316,0.818850286956,0.00209109985218,0.0,0.8188075807,-0.573926007234,-0.0119929525157,0.0,-0.00862046199062,0.00859616758428,-0.999925894023,0.0,0.655137108487,0.252453151147,0.303446496811,1.0,-0.01622,-0.0213177142857,0.812
0.460176905131,0.511107529754,-0.124149322797,-1.41348511248,0.076129021164,1.91524988554,0.1516193871,-0.00934838385717,-0.0899483558476,-0.000251611793165,-0.140766161552,-0.00406514775493,0.0558422632051,-0.0176390921719,0.57397503057,0.818858342811,0.00210370899754,0.0,0.818815799816,-0.573914416054,-0.0119864890097,0.0,-0.00860805333743,0.00860266118906,-0.999925945077,0.0,0.654860738841,0.252101591655,0.30344083736,1.0,-0.01656,-0.0217645714286,0.829
0.459975193017,0.509641875643,-0.124149743894,-1.41582810546,0.0759737963578,1.91614283408,0.1512925106,-0.00881123010075,-0.0854809971657,-0.000371124487307,-0.142259961739,-0.00686924281002,0.0575757252309,-0.0154231766309,0.573953240377,0.818873605362,0.00210789077009,0.0,0.818831215691,-0.57389270998,-0.0119726581248,0.0,-0.00859455604988,0.00859791822505,-0.999926101974,0.0,0.654577799164,0.251746014208,0.30342901264,1.0,-0.0169,-0.0222114285714,0.846
0.45976812468,0.508144050491,-0.124157522421,-1.41819522577,0.0758261610814,1.91698234222,0.150956741107,-0.0159261495311,-0.0900609453063,-0.00210952467795,-0.146350052576,-0.0137679179106,0.0486048338223,-0.0256190875796,0.573936350194,0.818885514446,0.0020801581023,0.0,0.81884272215,-0.573875896718,-0.0119915991066,0.0,-0.00862616028746,0.00858590225243,-0.999925933078,0.0,0.654280889556,0.251377936354,0.30342330294,1.0,-0.01724,-0.0226582857143,0.863
0.459571126222,0.50679903264,-0.124153023379,-1.42031639537,0.0756931564948,1.91774935752,0.15066361417,-0.0131504440137,-0.0900380563438,-0.000774711205402,-0.1405504347,-0.0032536182603,0.0533101712743,-0.0242428585726,0.573928283934,0.818891188749,0.0020719052132,0.0,0.818848226441,-0.573867804114,-0.0120030145333,0.0,-0.00864032949782,0.00858561074192,-0.999925813245,0.0,0.654017345274,0.251048298229,0.303420637957,1.0,-0.01754,-0.0230525714286,0.878
0.459363022999,0.50528297336,-0.124158279946,-1.42262879352,0.0755478351852,1.91863084445,0.150350659838,-0.0165327950421,-0.0896328957497,0.000432261956852,-0.144390870744,0.000463318420091,0.0503272783824,-0.0178277633415,0.573926463819,0.818892287905,0.00214052305915,0.0,0.818850283223,-0.573865761226,-0.0119602951079,0.0,-0.00856598545191,0.00861726369976,-0.999926180605,0.0,0.653740179547,0.250691045535,0.303456227913,1.0,-0.01786,-0.0234731428571,0.894
0.45911993204,0.50354493571,-0.124159928387,-1.4252508047,0.0753768640871,1.91962682188,0.14997972955,-0.0169294165287,-0.0958683369782,0.000873101055362,-0.1444257874,-0.00377816633008,0.0549579829189,-0.0199382461305,0.573919384539,0.818896986044,0.00223901728889,0.0,0.81885635334,-0.573858373147,-0.0118990363178,0.0,-0.00845936902766,0.00866268791593,-0.99992669577,0.0,0.653409286905,0.25026044696,0.303512670507,1.0,-0.01824,-0.0239725714286,0.913
0.458899666953,0.501930569483,-0.124162525903,-1.42760946146,0.0752252438003,1.92049816416,0.149654768279,-0.0157901616625,-0.0940981352263,0.000452947271997,-0.14713057621,-0.0149975452484,0.0522635014564,-0.0193432140146,0.573907518133,0.818905031016,0.0023361738251,0.0,0.818865727089,-0.573846192254,-0.0118412641026,0.0,-0.00835642718033,0.00870897084523,-0.999927159323,0.0,0.653138748973,0.249913634182,0.303588683544,1.0,-0.01854,-0.0243668571429,0.928
0.458662530104,0.500236481985,-0.124169223962,-1.43018170403,0.0750566509296,1.92141485978,0.149289102677,-0.0177544982865,-0.0964411726604,-0.00189984340343,-0.154045960823,-0.0143669030805,0.0573537460014,-0.0254884784844,0.573892511433,0.818915467395,0.00236420875346,0.0,0.818876560774,-0.573831113446,-0.0118227897605,0.0,-0.0083253691504,0.00872117355042,-0.999927312038,0.0,0.652816492095,0.2495071236,0.303626147685,1.0,-0.01888,-0.0248137142857,0.945
0.458394576832,0.498455399216,-0.124166392652,-1.43294940168,0.0748795857091,1.92244233573,0.148890414337,-0.0161167389098,-0.0955227555737,0.000638000158217,-0.153349347439,-0.0164689681191,0.0638432795418,-0.0170573035859,0.573876398207,0.818926667696,0.0023957083993,0.0,0.818888172539,-0.573814883884,-0.0118062191207,0.0,-0.00829389422877,0.00873729599847,-0.999927432856,0.0,0.652476288117,0.249070244658,0.303639968322,1.0,-0.01924,-0.0252868571429,0.963
0.458135240994,0.496781771456,-0.124166577167,-1.43561409154,0.0747166631035,1.92340861454,0.148486717647,-0.0208660868531,-0.094318847326,0.000882325350144,-0.155709425789,-0.0127634488786,0.0518112505799,-0.0258302625821,0.573849396707,0.8189456482,0.00237530933098,0.0,0.818906789107,-0.573787860015,-0.0118283284779,0.0,-0.00832399473726,0.00873300423586,-0.999927220226,0.0,0.652142385427,0.248646320347,0.303622091304,1.0,-0.01958,-0.0257337142857,0.98
0.457865443078,0.495102275154,-0.124166419975,-1.43833736691,0.0745535010258,1.92434234705,0.148112458994,-0.018563058271,-0.09718993073,0.000889551825968,-0.158845738229,-0.00564659579007,0.0578405811052,-0.0222145385654,0.573856953914,0.818940607694,0.00228569786184,0.0,0.818900360867,-0.573795536139,-0.0119007806216,0.0,-0.00843467167775,0.00870127204704,-0.999926569393,0.0,0.651789190248,0.248206900289,0.303577009259,1.0,-0.01992,-0.0261805714286,0.997
0.457615922515,0.493535642159,-0.124189341102,-1.44084865398,0.0743985414856,1.92523995604,0.147759275196,-0.0162835050568,-0.117351885239,-0.00464441744441,-0.177474113257,-0.0126410681934,0.0643418433456,-0.0243836300166,0.573872971104,0.81892950843,0.00224057151168,0.0,0.818888670258,-0.573811728271,-0.0119244758076,0.0,-0.00847980216242,0.00867808006631,-0.999926389232,0.0,0.651475717366,0.247789756406,0.303551162323,1.0,-0.024908,-0.0327362285714,1.012
0.457331849899,0.491306753762,-0.124265368561,-1.4442671503,0.0741995047641,1.92653328773,0.147255388972,-0.0217215347874,-0.146643072983,-0.000785028282404,-0.231906946029,-0.0125169882945,0.0891431108043,-0.0366342800358,0.573865251353,0.818934678394,0.0023265241217,0.0,0.818895173837,-0.573803890141,-0.0118548229567,0.0,-0.00837351825011,0.0087084179949,-0.999927021161,0.0,0.651030425533,0.247201587079,0.303593699434,1.0,-0.032524,-0.0427458285714,1.029
0.456811666569,0.487801009871,-0.124281198911,-1.44988623949,0.0738943158743,1.92858796077,0.146424482197,-0.0299136629462,-0.207736025328,-0.00134518999196,-0.309810534404,-0.0151433186691,0.119849959,-0.0448071485727,0.573821005318,0.818965794222,0.00228662425296,0.0,0.81892529427,-0.573759314945,-0.0119313796251,0.0,-0.00845958269909,0.00871921856252,-0.999926202621,0.0,0.650340694831,0.246362419055,0.303531036968,1.0,-0.041036,-0.0539330285714,1.048
0.456274479393,0.484305047705,-0.124356875128,-1.45534638159,0.0735620672614,1.93064362751,0.1456024136,-0.0362394930059,-0.239105773125,-0.00568465433864,-0.357462694459,-0.0255823424371,0.135334362626,-0.061920393927,0.573822898182,0.818964290461,0.00234933435752,0.0,0.818924828145,-0.57376118805,-0.0118731561683,0.0,-0.00837589530677,0.00873718533595,-0.999926750302,0.0,0.649674078888,0.245453757233,0.303540293485,1.0,-0.048204,-0.0633538285714,1.064
0.455556515086,0.479713788621,-0.124470186211,-1.46260738416,0.0731340064502,1.93315414459,0.14450066353,-0.0414572953143,-0.264936707433,-0.00516153390912,-0.414644425888,-0.0244511906631,0.145898829709,-0.0641129286886,0.573830170433,0.818959585456,0.00220902500674,0.0,0.818918134196,-0.573768855129,-0.0119639988917,0.0,-0.00853072606656,0.00867448117063,-0.999925987306,0.0,0.648736154731,0.244223355645,0.303489379749,1.0,-0.056268,-0.0739522285714,1.082
0.454804568723,0.474974509178,-0.12455723541,-1.46992043539,0.0726851746028,1.93579605317,0.143461488221,-0.0477278449121,-0.305449919241,-0.00657767128023,-0.481866180104,-0.0271827236465,0.175094605382,-0.0629129444411,0.573890941914,0.818916872826,0.00225590156032,0.0,0.818876103248,-0.573829500668,-0.0119322501619,0.0,-0.00847718133446,0.00869528157471,-0.999926262019,0.0,0.647809775239,0.242988588091,0.303521430089,1.0,-0.063436,-0.0833730285714,1.098
0.453935942663,0.469721609699,-0.124613765013,-1.47799392838,0.0722089234763,1.93872553134,0.142225500386,-0.0577106159083,-0.345823621345,-0.00185177143575,-0.510823684483,-0.0299480816088,0.193343565841,-0.0910048808228,0.573889571627,0.818917546306,0.00235771756871,0.0,0.818877839115,-0.573827450667,-0.0119116903939,0.0,-0.0084019309711,0.00876684635438,-0.999926272263,0.0,0.646778744971,0.241629348836,0.303564949968,1.0,-0.070604,-0.0927938285714,1.114
0.45283493821,0.463122216605,-0.124668095403,-1.48801715354,0.0715671770502,1.94240744216,0.140611520381,-0.0651101629946,-0.379644563848,-0.00187082020502,-0.581724796897,-0.0350500919002,0.205279622864,-0.0942303774306,0.573808262759,0.818973894756,0.00256596934949,0.0,0.81893700578,-0.57374546889,-0.0117925567011,0.0,-0.0081857404039,0.00886820447053,-0.99992717165,0.0,0.645498231266,0.239934900783,0.303666705595,1.0,-0.078668,-0.103392228571,1.132
0.451877239328,0.457563415472,-0.124717738476,-1.49664714616,0.0710026049556,1.94533756477,0.139322952814,-0.0696326416185,-0.412970660497,-0.0103013118784,-0.634438134827,-0.0451457119792,0.210009742703,-0.101607803583,0.57382026322,0.818965876007,0.00243851505141,0.0,0.818927081043,-0.573757686943,-0.0118869469922,0.0,-0.00833604769582,0.00881810684098,-0.99992637294,0.0,0.644333522205,0.238451348334,0.303640956375,1.0,-0.08494,-0.111635428571,1.146
0.450608696326,0.450175757538,-0.12482877633,-1.50777375191,0.0702339743084,1.94934695395,0.137546729922,-0.0724883506774,-0.459181645542,-0.00379103009345,-0.661038551457,-0.0460343284659,0.254628741914,-0.113475598071,0.573786674553,0.818988698863,0.00266648496459,0.0,0.818953591173,-0.573724040867,-0.0116827795154,0.0,-0.0080383926296,0.00888732175373,-0.9999281973,0.0,0.642802019142,0.236385948559,0.303790999254,1.0,-0.093004,-0.122233828571,1.164
0.449026371129,0.44134268278,-0.124874938309,-1.52117382241,0.069374454179,1.95414986793,0.135483806177,-0.0876520426936,-0.473262967772,0.00033437382912,-0.746785112829,-0.0461301926159,0.256081382876,-0.113079558378,0.573791962465,0.818984463675,0.00282470726293,0.0,0.818951052267,-0.573728381116,-0.0116475574061,0.0,-0.00791870628988,0.00899674502251,-0.999928173755,0.0,0.641094717573,0.234187716449,0.303857431411,1.0,-0.101068,-0.132832228571,1.182
0.447476384775,0.432846354076,-0.124930836434,-1.53404954852,0.0684902005592,1.95862911753,0.133360934221,-0.0963544043839,-0.520247370433,-0.000864895422406,-0.783422445544,-0.053827205972,0.280831432428,-0.130916209276,0.573685018648,0.819059158773,0.00288802858117,0.0,0.819026561091,-0.573621229274,-0.0116156986199,0.0,-0.00785746111575,0.00902929823851,-0.999928363473,0.0,0.639329561596,0.231924853433,0.303919295403,1.0,-0.108684,-0.142841828571,1.199
0.445965712925,0.424963601698,-0.124965154755,-1.54603029617,0.0676424497722,1.96282905807,0.131414495981,-0.099904349285,-0.532995447421,-0.00229838479047,-0.792651694715,-0.0567663469206,0.275671699582,-0.134742961335,0.57363296382,0.819095416635,0.00294417530681,0.0,0.819063672716,-0.57356914196,-0.0115709260446,0.0,-0.00778915435021,0.00904910586435,-0.999928718838,0.0,0.63767952698,0.229789444608,0.303947947702,1.0,-0.115404,-0.151673828571,1.214
0.444090695158,0.415491059393,-0.125086327837,-1.56035555638,0.0666026597084,1.96775224896,0.12908797521,-0.1114409069,-0.570746460266,-0.0109239102415,-0.8579342468,-0.0644629466657,0.30998840416,-0.139192415373,0.573649415767,0.819083995656,0.0029159477427,0.0,0.81905220073,-0.573586048047,-0.0115449065137,0.0,-0.00778385107794,0.00901121578638,-0.999929102313,0.0,0.635800489751,0.227304501726,0.303968498838,1.0,-0.122572,-0.161094628571,1.23
0.442059344503,0.40555874295,-0.125157809456,-1.57548945393,0.0655902011162,1.97293942351,0.12654791144,-0.123604551805,-0.589873849466,-0.00525139674637,-0.924771423394,-0.0645123088491,0.307343013735,-0.154123161249,0.573643314736,0.819088212748,0.00293156919029,0.0,0.819056160918,-0.573579365089,-0.0115958660008,0.0,-0.00781670005865,0.00905318511824,-0.999928466961,0.0,0.633400145178,0.224202463227,0.303953097172,1.0,-0.131084,-0.172281828571,1.249
0.43993372107,0.395656736567,-0.12528571054,-1.59020671035,0.0645747043343,1.9779816583,0.124040599081,-0.136547526542,-0.625285945449,-0.010491938167,-0.923342789299,-0.0696687219846,0.324337489221,-0.156146762639,0.573723728364,0.819031214171,0.00311458293163,0.0,0.819001520022,-0.573659168799,-0.0115071784344,0.0,-0.00763817632764,0.00915296569252,-0.999928938216,0.0,0.631453395948,0.221550979688,0.304059812863,1.0,-0.137804,-0.181113828571,1.264
0.437537988549,0.384860297668,-0.125403625519,-1.60666963447,0.0633061736284,1.98343779143,0.121167552431,-0.140011336488,-0.643704487859,-0.00338414444408,-0.974620401596,-0.0700921977744,0.308642007753,-0.178042505265,0.573694526628,0.819052594185,0.00286094000007,0.0,0.819019946731,-0.573631171748,-0.0115910550446,0.0,-0.00785271052812,0.00899306490778,-0.999928727321,0.0,0.629038581527,0.218380105055,0.30394762448,1.0,-0.14542,-0.191123428571,1.281
0.43477884955,0.372728718132,-0.125522666399,-1.62459921507,0.0620024944658,1.98943169612,0.117934298203,-0.165959241561,-0.66924888433,-0.00326119742032,-1.00412768091,-0.0708183351192,0.335141586988,-0.181282841436,0.573701821597,0.81904695509,0.00300868004741,0.0,0.819016089252,-0.573637833455,-0.0115337971704,0.0,-0.00772097740184,0.00908129265586,-0.999928955792,0.0,0.626251234951,0.214672299318,0.304047177359,1.0,-0.153932,-0.202310628571,1.3
0.431951236377,0.360847541074,-0.125686058433,-1.64212884447,0.0606181154368,1.99528917678,0.114838681985,-0.167393861883,-0.720349520531,-0.00760958116653,-1.04533682142,-0.0824626963041,0.357116065319,-0.190767063609,0.573827324249,0.818958725611,0.00309105024945,0.0,0.818929710007,-0.573764000915,-0.0113907077919,0.0,-0.00755513163863,0.00906782684171,-0.999930344825,0.0,0.623803170899,0.211339535603,0.304114202901,1.0,-0.1611,-0.211731428571,1.316
0.428909673639,0.348660074824,-0.125818009246,-1.66040280281,0.0592658023899,2.00110722768,0.111402908702,-0.183367494483,-0.738904804119,-0.0070384446078,-1.08011452282,-0.0823909530862,0.342623880817,-0.213101869443,0.573846715297,0.818945996093,0.00285477272731,0.0,0.81891317019,-0.573783248598,-0.0116081962146,0.0,-0.00786861653761,0.00899930951718,-0.999928546098,0.0,0.620980106708,0.207633932744,0.303995393706,1.0,-0.168716,-0.221741028571,1.333
0.425674635674,0.335897483844,-0.125948916406,-1.6789551508,0.0578232593585,2.00720114814,0.107877007474,-0.199310775193,-0.733786526852,-0.00562574081325,-1.11362854861,-0.0922603486778,0.35897959241,-0.207747763184,0.573902142995,0.81890638748,0.00306687334566,0.0,0.818876483969,-0.573838194752,-0.0114794228126,0.0,-0.0076408307113,0.00909963101068,-0.999929404719,0.0,0.618130916898,0.203811111974,0.304104380912,1.0,-0.176332,-0.231750628571,1.35
0.422508812092,0.323528514444,-0.125994753688,-1.69699094611,0.0563126407497,2.01297951944,0.104346876853,-0.20396765569,-0.769737086004,-0.000769184688193,-1.14265224489,-0.0991874982366,0.365001281219,-0.218419204596,0.573759982438,0.819005921621,0.00308703813536,0.0,0.818976622657,-0.573696402071,-0.0114226395087,0.0,-0.00758433274876,0.00908224037129,-0.999929992953,0.0,0.615261420437,0.200129204015,0.304130647957,1.0,-0.1835,-0.241171428571,1.366
0.418663129664,0.309164859913,-0.126073077971,-1.71776830982,0.0546591248721,2.01949222128,0.100172117639,-0.216423364129,-0.849221064488,-0.00844882147554,-1.14413051641,-0.0966687082724,0.373543406852,-0.240391204216,0.57367797802,0.819063043557,0.00317098028913,0.0,0.819034396754,-0.573613636392,-0.0114367818674,0.0,-0.00754867316557,0.00915834815154,-0.999929568616,0.0,0.611711425288,0.195539027405,0.304180608396,1.0,-0.192012,-0.252358628571,1.385
0.415011144455,0.296139881883,-0.126180827495,-1.73680004331,0.0530066365954,2.02525742724,0.0962844666503,-0.234665684404,-0.851698393772,-0.00561527599523,-1.20024872278,-0.0996859321106,0.348524253572,-0.233210985041,0.573616693714,0.819107078766,0.00286864220158,0.0,0.819074495867,-0.573553282941,-0.0115908907692,0.0,-0.00784901264381,0.00899853335499,-0.999928707158,0.0,0.608733112998,0.191708741978,0.304063927973,1.0,-0.198732,-0.261190628571,1.4
0.411108701709,0.282595469954,-0.126332806454,-1.75594784681,0.0514616988091,2.03119050961,0.0922607278051,-0.244563927125,-0.827679102926,-0.0041308231585,-1.21496479657,-0.102417347771,0.369768501781,-0.250856941897,0.573687689666,0.819056385704,0.0031334747547,0.0,0.819026930693,-0.573623070054,-0.0114981390984,0.0,-0.00762033755867,0.00916291748014,-0.999928983178,0.0,0.605567635426,0.18750288927,0.304199001584,1.0,-0.2059,-0.270611428571,1.416
0.406433963239,0.267013585137,-0.126503486289,-1.77804485818,0.0495500379386,2.03781530037,0.0874599170979,-0.262748703363,-0.874538317453,-0.0104496137221,-1.24189101927,-0.10360303373,0.369738813653,-0.261775762844,0.573690006256,0.819054632282,0.00316748493173,0.0,0.819025577904,-0.573625234565,-0.0114865099345,0.0,-0.00759127603924,0.00918412395574,-0.999929009678,0.0,0.60181588355,0.182560896575,0.304243649357,1.0,-0.213964,-0.281209828571,1.434
0.401643539728,0.251936828931,-0.126713151629,-1.79927670304,0.0476472176027,2.04404385996,0.0827660085766,-0.287369546075,-0.894833647515,-0.0140561607162,-1.25302551458,-0.118897690647,0.376269542492,-0.276932732062,0.573840943568,0.818948941681,0.00315425215891,0.0,0.818919896689,-0.573776410682,-0.0114708435752,0.0,-0.00758434574613,0.00916569602087,-0.999929231354,0.0,0.598160498601,0.177638057822,0.304278735656,1.0,-0.22158,-0.291219428571,1.451
0.396655262522,0.236572927954,-0.126845223344,-1.82086636364,0.0457195700422,2.05023697359,0.077733143506,-0.297921175096,-0.927222539137,-0.0107821518929,-1.25710137334,-0.108158255581,0.363601897078,-0.299959383526,0.573774455811,0.818995760825,0.0030926543634,0.0,0.818965404378,-0.573709506576,-0.0115678605617,0.0,-0.00769989179978,0.00917029638663,-0.999928306095,0.0,0.594330356163,0.172655208409,0.304257677706,1.0,-0.229196,-0.301229028571,1.468
0.392388666,0.223629654328,-0.126938291443,-1.83894789217,0.0440673401464,2.05545299379,0.0734843599875,-0.312996285894,-0.905854808602,-0.00563591435163,-1.31086907868,-0.123669681122,0.360430297849,-0.30178307945,0.573703563421,0.819045325063,0.0031182868538,0.0,0.819015101245,-0.573638303579,-0.0115804792602,0.0,-0.00769631679709,0.00919786332833,-0.999928080423,0.0,0.591073713289,0.168478096157,0.3042388767,1.0,-0.235468,-0.309472228571,1.482
0.386838763149,0.207509304088,-0.127102946076,-1.86098849534,0.0419484913492,2.06161801295,0.0680890153401,-0.34266539679,-0.949624714903,-0.00740784305208,-1.31284218045,-0.128718561391,0.369639759146,-0.327696112232,0.573690526516,0.819054082676,0.00321501765618,0.0,0.819025490896,-0.573625425194,-0.0114831935825,0.0,-0.00756128629405,0.00922115832238,-0.999928896067,0.0,0.586810873531,0.162860990281,0.304330004305,1.0,-0.243532,-0.320070628571,1.5
0.380189805319,0.189178281666,-0.127329978906,-1.88606288806,0.0395370276482,2.06842232046,0.0616953890506,-0.362747763807,-0.971258620693,-0.011474450996,-1.33188666519,-0.133098830979,0.362906948389,-0.339911043835,0.57370376856,0.819044747355,0.00323027428169,0.0,0.819016129789,-0.573638346648,-0.0115053597123,0.0,-0.00757054099703,0.0092464929896,-0.999928592089,0.0,0.582383841895,0.157010597202,0.304354508687,1.0,-0.251596,-0.330669028571,1.518
0.374152171178,0.17341879612,-0.127585699707,-1.90733514266,0.0375096432342,2.07411462749,0.0560800577793,-0.381909236705,-0.997587491278,-0.0100974309597,-1.33748014093,-0.12837908118,0.351302649131,-0.338902862763,0.573901018863,0.818906036194,0.00335728076455,0.0,0.818878706953,-0.573834747453,-0.0114931638187,0.0,-0.0074854409844,0.00934532408332,-0.999928313976,0.0,0.578377810112,0.151577629685,0.304405691079,1.0,-0.258764,-0.340089828571,1.534
0.367528757498,0.156334335639,-0.127773467587,-1.93020176828,0.0351240118581,2.08000386352,0.0498086831738,-0.394135188098,-1.02485832263,-0.0192854875853,-1.33844899331,-0.136106548138,0.362339354264,-0.368511860987,0.573828418059,0.818956941509,0.00334984828952,0.0,0.818929863508,-0.573762612271,-0.0114494679475,0.0,-0.00745474707385,0.00931350019617,-0.999928840198,0.0,0.573935610749,0.145750518977,0.304444903207,1.0,-0.26638,-0.350099428571,1.551
0.360553510332,0.139077583345,-0.127958442984,-1.9532664347,0.032723311867,2.08575031962,0.0433227179884,-0.422317669088,-1.04455826888,-0.0191132516777,-1.34255171166,-0.134633514942,0.351030507224,-0.3930120757,0.57381232436,0.81896865515,0.00324117206693,0.0,0.818939841424,-0.573746442452,-0.0115456833446,0.0,-0.00759608806696,0.00927955899506,-0.99992809203,0.0,0.569346424386,0.139784785721,0.304396776322,1.0,-0.273996,-0.360109028571,1.568
0.352233992157,0.119268848684,-0.128236040799,-1.97923706207,0.0299860920255,2.09208070748,0.0356218817037,-0.457469231598,-1.06279874435,-0.0228423061458,-1.35336963292,-0.154235247606,0.337881403074,-0.401627316334,0.573829487378,0.818956281279,0.00332801315991,0.0,0.818928409313,-0.573763110294,-0.0115282517135,0.0,-0.00753178798148,0.00934083513437,-0.999928007893,0.0,0.56409974608,0.132867116798,0.304445266062,1.0,-0.282508,-0.371296228571,1.587
0.345728342935,0.104507126034,-0.12848394121,-1.99858365117,0.0278364814028,2.0966194146,0.0296748329756,-0.468982489786,-1.04090076172,-0.0183675089756,-1.38589142906,-0.148138368927,0.315049300083,-0.425235481648,0.573866996277,0.818930438356,0.0032178593586,0.0,0.81890118952,-0.57380101797,-0.0115749937668,0.0,-0.00763285069984,0.00927779438767,-0.999927828456,0.0,0.560108781971,0.127576150074,0.304394494048,1.0,-0.28878,-0.379539428571,1.601
0.337100292777,0.0851814149791,-0.128700843676,-2.02349484953,0.025147038063,2.10225159294,0.0216835321054,-0.49263683971,-1.07146676894,-0.0150245903053,-1.4015107261,-0.148485876291,0.304200849812,-0.452197321116,0.573741315176,0.819018337921,0.00325765421216,0.0,0.818988683488,-0.573674104152,-0.011674992341,0.0,-0.0076933490814,0.00936658773072,-0.999926537009,0.0,0.554830102773,0.120793939584,0.304394885496,1.0,-0.296844,-0.390137828571,1.619
0.328438006679,0.066547682369,-0.128955279778,-2.04701185806,0.022429828524,2.10742135928,0.0137561984145,-0.512554711397,-1.09314311633,-0.0151972268427,-1.40310890513,-0.15762554789,0.306436468432,-0.468485232662,0.573640017709,0.819088624953,0.00342073918501,0.0,0.819061477094,-0.573572787324,-0.011545617493,0.0,-0.00749498534922,0.00942500537335,-0.999927494606,0.0,0.549773613213,0.114169922097,0.304497746542,1.0,-0.29998,-0.394259428571,1.636
0.319828006544,0.0492170932516,-0.129263191193,-2.06878696624,0.0198584281617,2.11187576174,0.00615306518273,-0.54174299829,-1.06964606496,-0.0160246600073,-1.34964077803,-0.153264675128,0.266853045859,-0.486346798958,0.573797837714,0.818978243534,0.00338008199275,0.0,0.818950391842,-0.573730490027,-0.0115899705007,0.0,-0.00755282300046,0.00941860082213,-0.999927119756,0.0,0.544987753508,0.107765371431,0.304513685475,1.0,-0.29998,-0.394259428571,1.652
0.309967380777,0.0297970309378,-0.129467518193,-2.0928432318,0.0170271812456,2.11661766511,-0.00260961699546,-0.551602564605,-1.06436707246,-0.0148536870865,-1.3262580099,-0.160115355304,0.241880625612,-0.49005363462,0.573796030204,0.818979171576,0.00346109053468,0.0,0.818951792674,-0.573727703039,-0.0116288839611,0.0,-0.00753823536471,0.00950725679471,-0.999926390829,0.0,0.539563353974,0.100705021062,0.304558885975,1.0,-0.29998,-0.394259428571,1.67
0.300883293158,0.012695663623,-0.12968867279,-2.11366903674,0.0143913985884,2.12061417176,-0.010618290403,-0.580404127581,-1.0785329477,-0.0218811752273,-1.29301465767,-0.166939979843,0.252498319725,-0.503049785237,0.573804372122,0.81897276127,0.00359245492887,0.0,0.818947871776,-0.573736654241,-0.0114621897858,0.0,-0.00732623920048,0.0095192712071,-0.999927852245,0.0,0.534804761318,0.0943675475067,0.30465149774,1.0,-0.29998,-0.394259428571,1.686
0.290938498798,-0.0052282667464,-0.129922200255,-2.13533744617,0.0117463173247,2.12440344154,-0.0193799100419,-0.584637127823,-1.06870526615,-0.00868107414439,-1.25416406994,-0.150182297975,0.232410325278,-0.525658060723,0.573860803641,0.818932953678,0.0036527148263,0.0,0.818908070597,-0.573791892593,-0.0115404855302,0.0,-0.00735512735787,0.00961405505199,-0.99992673334,0.0,0.529711181278,0.0876365472747,0.304690250401,1.0,-0.29998,-0.394259428571,1.703
0.281436671615,-0.0218737194379,-0.1300799724,-2.15544468649,0.00913630365816,2.12780710304,-0.0277906123668,-0.602949575723,-1.02938214575,-0.0148982980021,-1.24807456901,-0.161372600033,0.189262174465,-0.516298528665,0.57374756814,0.819012681912,0.0035639614092,0.0,0.818986468674,-0.573678710512,-0.0116037983179,0.0,-0.00745923280851,0.00957667161569,-0.999926320889,0.0,0.524878683008,0.0813747254057,0.304634450269,1.0,-0.29998,-0.394259428571,1.719
0.271559930487,-0.038506347803,-0.130349448716,-2.17496326301,0.00650296103231,2.13095814467,-0.0363350365741,-0.633461103752,-1.03599453733,-0.0206621309165,-1.22628339702,-0.16433047645,0.190399721875,-0.549621505528,0.573869780446,0.818926454837,0.00369912964694,0.0,0.818902822773,-0.57380158922,-0.0114302215567,0.0,-0.00723808370286,0.00958887106038,-0.999927829244,0.0,0.520133658661,0.0749976909369,0.304732008175,1.0,-0.29998,-0.394259428571,1.735
0.260895797938,-0.0560087826324,-0.130535111303,-2.19530474654,0.00387425811306,2.13398443504,-0.0457142144629,-0.627057819595,-1.02394954826,-0.0126026334722,-1.17775060673,-0.163262066023,0.174552614993,-0.561264063554,0.573802823102,0.818972658052,0.00385388944239,0.0,0.81895060742,-0.573733647166,-0.0114171632478,0.0,-0.007139375942,0.00970753250325,-0.999927393926,0.0,0.514746870718,0.0679681883286,0.30479130486,1.0,-0.29998,-0.394259428571,1.753
0.249260844521,-0.074223887076,-0.130791722909,-2.21643755128,0.00097330077482,2.13684242911,-0.0559100374499,-0.658448894722,-1.02808639543,-0.0191795606872,-1.15796565295,-0.157449848842,0.161739100879,-0.576980434299,0.573824766605,0.81895746061,0.00381599821331,0.0,0.818934664771,-0.573755348513,-0.0114700388173,0.0,-0.00720416318055,0.0097070324553,-0.999926934108,0.0,0.509637632062,0.0612471591331,0.304773482208,1.0,-0.29998,-0.394259428571,1.77
0.237963889867,-0.0912225740795,-0.131049506306,-2.23601585923,-0.0016738586427,2.13916439747,-0.0658483038933,-0.65954392118,-1.00534961053,-0.0113062710544,-1.14787739739,-0.149225655087,0.125839242764,-0.58729454079,0.573820524938,0.818961050582,0.0036809904206,0.0,0.818935031078,-0.573749571282,-0.0117299287287,0.0,-0.0074945323722,0.00974555349721,-0.99992442523,0.0,0.504479797361,0.0545377704831,0.304683461707,1.0,-0.29998,-0.394259428571,1.787
0.22645726059,-0.108152025164,-0.131247718703,-2.25500926312,-0.00439266206137,2.14130211229,-0.0759275998096,-0.691172297719,-0.966083368112,-0.0167444362997,-1.1199846377,-0.158976780501,0.114433300058,-0.606850118116,0.573754851711,0.819006866951,0.00372410082101,0.0,0.818981511519,-0.573683903648,-0.011696554488,0.0,-0.0074432450543,0.0097611125369,-0.999924656554,0.0,0.499388900197,0.0479025167831,0.304717411029,1.0,-0.29998,-0.394259428571,1.804
0.214469331505,-0.124878054748,-0.13158449551,-2.27363984812,-0.00711425235894,2.14315429039,-0.086322083811,-0.702866843172,-0.98446814374,-0.0089853425157,-1.09711853523,-0.157317390431,0.0929444382614,-0.61166434304,0.573900394698,0.818905046685,0.00368895389392,0.0,0.818878927012,-0.573829138425,-0.0117545604705,0.0,-0.0075091842313,0.00976694154387,-0.999924106623,0.0,0.494283550715,0.0411085310389,0.304699065204,1.0,-0.29998,-0.394259428571,1.821
0.203067314645,-0.140467688219,-0.131782525642,-2.29080557345,-0.00960031953514,2.1446121686,-0.0963935042824,-0.721002347739,-0.985987711804,-0.0257780060076,-1.04827954378,-0.151535890713,0.091338093315,-0.636787244975,0.573804752501,0.81897224388,0.0036492004449,0.0,0.8189447591,-0.573732549971,-0.0118823208011,0.0,-0.0076377729032,0.00980681453725,-0.999922742422,0.0,0.489447862933,0.0348621507213,0.304669733824,1.0,-0.29998,-0.394259428571,1.837
0.191998583589,-0.154972269419,-0.132118689718,-2.30649768013,-0.0119628221499,2.14587445642,-0.106103847853,-0.747816373807,-0.961869866611,-0.031580907285,-1.04579765034,-0.158189864113,0.0642675895397,-0.653000741548,0.573889336812,0.818912636835,0.00372414109644,0.0,0.818886150538,-0.573816890755,-0.0118488498109,0.0,-0.00756634345294,0.00984976576498,-0.999922863306,0.0,0.484966161505,0.0288705260921,0.304689436376,1.0,-0.29998,-0.394259428571,1.852
0.179317846829,-0.171270333295,-0.132314036621,-2.32384607099,-0.0145169672541,2.14695773167,-0.117290473695,-0.744098935521,-0.954720322011,-0.0101089850646,-1.01885996982,-0.147848870259,0.0602208173093,-0.670737652219,0.573825706786,0.818956729884,0.00383141115042,0.0,0.818931043095,-0.573752115548,-0.0118829062741,0.0,-0.00753345085295,0.00995657031619,-0.999922053875,0.0,0.479865703428,0.022261239932,0.304732723724,1.0,-0.29998,-0.394259428571,1.869
0.166205061364,-0.187338838129,-0.132654987576,-2.34089812713,-0.0172098842388,2.14776856105,-0.128796317508,-0.783212034367,-0.941232277528,-0.0268489989036,-0.98759301968,-0.156925328201,0.0419182530743,-0.679338340358,0.573880377252,0.818918896066,0.00372842759519,0.0,0.818891262493,-0.57380635657,-0.0120046771674,0.0,-0.00769160960676,0.00994261686836,-0.999920988634,0.0,0.474719439721,0.0155108094962,0.304691514926,1.0,-0.29998,-0.394259428571,1.886
0.153662330479,-0.202277986577,-0.132866166087,-2.35638962509,-0.0196401219402,2.14846529354,-0.139979298403,-0.788170793671,-0.913229518568,-0.0152366253041,-0.977031210003,-0.141075991588,0.0358895771125,-0.706496200017,0.573746306583,0.819012212191,0.00386249477922,0.0,0.818986715764,-0.573672334752,-0.0118978419709,0.0,-0.007528816428,0.00998986713692,-0.999921756678,0.0,0.469963785922,0.00926732288826,0.304738988152,1.0,-0.29998,-0.394259428571,1.902
0.138311496312,-0.219906235925,-0.133264098217,-2.37430892032,-0.0225167650543,2.14893002762,-0.153507563543,-0.813433588103,-0.929975464863,-0.0180321334946,-0.945889816792,-0.156209230568,0.0316645932745,-0.718768300274,0.573852647221,0.81893683617,0.00404283841783,0.0,0.818914041586,-0.573778525478,-0.0117789258616,0.0,-0.007326643473,0.0100702988198,-0.999922451682,0.0,0.464297007271,0.00174757345359,0.304832993344,1.0,-0.29998,-0.394259428571,1.921
0.124349546162,-0.23533519509,-0.133497127723,-2.39007038911,-0.0251203678138,2.14907559203,-0.165998959429,-0.831859305352,-0.899556047777,-0.0167325799783,-0.93108554503,-0.152266412535,0.00588537393104,-0.74368230775,0.573679933131,0.819058342591,0.00393861101132,0.0,0.819033688353,-0.573605506656,-0.0118864198918,0.0,-0.00747660635906,0.0100450490706,-0.9999215956,0.0,0.459152669943,-0.00487242488056,0.304777003751,1.0,-0.29998,-0.394259428571,1.938
0.109873551001,-0.2506085357,-0.133900689979,-2.40511752706,-0.0275736285807,2.14912150623,-0.178851053322,-0.856028350115,-0.8755187754,-0.0170717459889,-0.875933966531,-0.145159432996,-0.00394735281588,-0.768594303287,0.573824969055,0.81895534869,0.00421765842535,0.0,0.818934890246,-0.573750377117,-0.0117003075288,0.0,-0.00716228421612,0.010168112013,-0.9999226526,0.0,0.454134085326,-0.0116371599911,0.304886242861,1.0,-0.29998,-0.394259428571,1.955
0.0978307876142,-0.262952644088,-0.134130747102,-2.41747368925,-0.0296310301315,2.14899254794,-0.189654991664,-0.862944016635,-0.873148017541,-0.0210636125717,-0.853884985199,-0.137780624796,-0.0109412910668,-0.772586135651,0.573749282339,0.81900846082,0.00420107390821,0.0,0.818987292671,-0.573674056423,-0.0117744779587,0.0,-0.00723348922675,0.0101964207378,-0.999921851765,0.0,0.449606357172,-0.0174879584682,0.304828875951,1.0,-0.29998,-0.394259428571,1.97
0.0827592193982,-0.277761122576,-0.134554451434,-2.43176401473,-0.0321301201418,2.14871178801,-0.203113224059,-0.882639075873,-0.830822763257,-0.0145090741167,-0.864036054293,-0.15099018606,-0.0266023502226,-0.796478977398,0.573843247198,0.818941883345,0.00434352965325,0.0,0.818923371329,-0.573768714277,-0.0116069509036,0.0,-0.00701337183747,0.0102177850677,-0.999923201793,0.0,0.444569559637,-0.0242687589606,0.304879695972,1.0,-0.29998,-0.394259428571,1.987
0.0693528715595,-0.290612718597,-0.134786567145,-2.44423868821,-0.0341666072822,2.14817172553,-0.215251009296,-0.894292405909,-0.867562143017,-0.0195180508684,-0.819834007094,-0.141158945445,-0.0450402441902,-0.822334818861,0.573763361834,0.818997542087,0.00440199655102,0.0,0.81897885046,-0.573687291483,-0.0117166970741,0.0,-0.00707071275976,0.010327952423,-0.999921666142,0.0,0.440342658171,-0.0296903655015,0.304857790194,1.0,-0.29998,-0.394259428571,2.001
0.0518033219834,-0.306575020802,-0.135182552604,-2.45927972447,-0.0369004075934,2.1474562503,-0.231077796529,-0.927599819186,-0.806149654559,-0.00749658181489,-0.796033449273,-0.138891566174,-0.0443082448295,-0.836958795732,0.573755208905,0.819002461445,0.00454701037095,0.0,0.818986966315,-0.573680666946,-0.0114711934642,0.0,-0.00678653440247,0.0103057976505,-0.999923863844,0.0,0.434724789165,-0.0372133647528,0.304930045921,1.0,-0.29998,-0.394259428571,2.02
0.0358041783037,-0.320562156367,-0.135582574538,-2.47247849609,-0.0392484451083,2.14645133266,-0.245557127004,-0.95416417683,-0.79842176569,-0.0332216680842,-0.761826410795,-0.137977461724,-0.0558904544575,-0.86186644091,0.573795243603,0.818974561411,0.00452029665509,0.0,0.818957774292,-0.573719346488,-0.011619909346,0.0,-0.00692316180972,0.0103695804482,-0.999922267795,0.0,0.42958733527,-0.0439135770449,0.304884090269,1.0,-0.29998,-0.394259428571,2.037
0.0195371184449,-0.334306099558,-0.135888127662,-2.48509998039,-0.0414769930179,2.14547436415,-0.260467606546,-0.962290144808,-0.786294304842,-0.0185520009918,-0.741735549847,-0.136410593419,-0.0631230468537,-0.878483161198,0.573680916749,0.819053551555,0.00471511860937,0.0,0.81903982644,-0.573605294387,-0.0114662922667,0.0,-0.00668701915204,0.0104400639903,-0.999923141466,0.0,0.42454660933,-0.0505428134245,0.30493773992,1.0,-0.29998,-0.394259428571,2.054
0.00276213712973,-0.347710443518,-0.136319727,-2.49739569503,-0.0438069625827,2.14416052138,-0.275685977655,-0.986817155687,-0.788710796312,-0.0153228934554,-0.709733984656,-0.139195752412,-0.0766356761219,-0.902063729087,0.573774485455,0.818988309385,0.00466217042277,0.0,0.818973337315,-0.573698130384,-0.0115704304738,0.0,-0.00680149978746,0.0104572123956,-0.999922190128,0.0,0.419407045489,-0.057298236696,0.30490427052,1.0,-0.29998,-0.394259428571,2.071
-0.0132123279939,-0.360119181721,-0.136666146364,-2.50833129278,-0.045861645215,2.14295072144,-0.290383649981,-1.00989564119,-0.788680245833,-0.0346233712298,-0.69240115164,-0.125384789923,-0.0757577833062,-0.918862324471,0.573730722839,0.819017638816,0.00488997756775,0.0,0.819006889525,-0.573655771204,-0.0112923857617,0.0,-0.00644362333008,0.0104839158111,-0.999924280747,0.0,0.414693271887,-0.0635851177016,0.305025945973,1.0,-0.29998,-0.394259428571,2.087
-0.0315586793299,-0.373575360546,-0.137078193818,-2.52047776313,-0.0481522185262,2.14127519334,-0.307321578338,-1.01905786556,-0.731102235191,-0.0242166944235,-0.66131202091,-0.115542978449,-0.104616737859,-0.948479164625,0.573674764627,0.819057303782,0.00481086818548,0.0,0.819044080176,-0.573597711642,-0.0115415262657,0.0,-0.00669379727883,0.0105615988152,-0.999921819798,0.0,0.409233076941,-0.0706480460734,0.304940239013,1.0,-0.29998,-0.394259428571,2.105
-0.0503628277944,-0.386740025966,-0.137507946089,-2.53181803129,-0.0504245873957,2.13964510487,-0.324596868731,-1.04728541675,-0.719708673335,-0.0197271638909,-0.623193768904,-0.118569451662,-0.0874884687284,-0.961132717117,0.57375277139,0.819001723853,0.00496795217069,0.0,0.818991893478,-0.573677478585,-0.0112772285005,0.0,-0.00638619026114,0.0105392565741,-0.99992406744,0.0,0.403903874644,-0.0777816112025,0.305046579948,1.0,-0.29998,-0.394259428571,2.123
-0.0673129485971,-0.397982717155,-0.137859357843,-2.54165672459,-0.0523277315033,2.13803258339,-0.340407921097,-1.07297750578,-0.703065726752,-0.0346308670941,-0.596947751675,-0.111204107885,-0.105940811329,-1.00427858029,0.573691285332,0.81904476779,0.00497236267915,0.0,0.819034118389,-0.573614552184,-0.0114107553994,0.0,-0.00649382494115,0.0106189900634,-0.999922530643,0.0,0.398787765881,-0.0844565543881,0.304997985014,1.0,-0.29998,-0.394259428571,2.14
-0.0866894014407,-0.410240559476,-0.138201701995,-2.55219328207,-0.0543526018764,2.13605393324,-0.358505894571,-1.074632392,-0.674148711127,-0.00786114205813,-0.564357407435,-0.10562132786,-0.0914080035949,-1.01626397431,0.573592045534,0.819114109465,0.00499878746721,0.0,0.819102841271,-0.573513687435,-0.0115469757226,0.0,-0.0065915446107,0.0107179807961,-0.99992083508,0.0,0.393685219801,-0.0910638502023,0.304983859009,1.0,-0.29998,-0.394259428571,2.157
-0.104358004036,-0.420825912808,-0.13860549906,-2.56102060294,-0.0562279022968,2.13446037674,-0.37497482728,-1.10182569292,-0.652195713851,-0.0176891031798,-0.557073896051,-0.113968475075,-0.0991782301225,-1.03173441904,0.573629635866,0.819087020953,0.00512248611364,0.0,0.81907869506,-0.573553156886,-0.0112966555003,0.0,-0.00631504740314,0.0106760211691,-0.999923068415,0.0,0.388937263129,-0.0974222719021,0.305057290707,1.0,-0.29998,-0.394259428571,2.173
-0.122272867926,-0.430979562874,-0.138994798397,-2.56964540273,-0.0580087699908,2.13253994826,-0.391735182113,-1.13375311611,-0.631650008076,-0.0367139298806,-0.526741384278,-0.100733313223,-0.109703063591,-1.0553864685,0.573661211997,0.819065337864,0.00505302491691,0.0,0.819054550202,-0.573582318143,-0.0115635206026,0.0,-0.00657307971594,0.0107724536974,-0.999920371262,0.0,0.384061536294,-0.103720227093,0.304989588149,1.0,-0.29998,-0.394259428571,2.189
-0.142634168431,-0.441920499213,-0.13934166991,-2.57863969643,-0.0598556011396,2.13051695145,-0.410977338565,-1.14494918612,-0.597924355564,-0.0223480613185,-0.47108373497,-0.0953813547365,-0.107603182211,-1.08449704872,0.573573526623,0.819126147325,0.00514890539228,0.0,0.819116587942,-0.57349433965,-0.0115327641341,0.0,-0.00649404558578,0.0108326505747,-0.999920237346,0.0,0.378704060361,-0.110746372883,0.305021907983,1.0,-0.29998,-0.394259428571,2.207
-0.162365673231,-0.451768164914,-0.139767836668,-2.58660102787,-0.0616281945997,2.12867362205,-0.429544000421,-1.16148947315,-0.564152582743,-0.0243630794001,-0.466502746372,-0.096894814403,-0.120079101912,-1.0927341755,0.5736566445,0.819067360955,0.00524016600632,0.0,0.819059782925,-0.573578537836,-0.0113789204727,0.0,-0.00631457718133,0.0108198108829,-0.999921525825,0.0,0.373639932644,-0.117509338672,0.305075169275,1.0,-0.29998,-0.394259428571,2.224
-0.181095220691,-0.460598170908,-0.14010870581,-2.59381309791,-0.0632412125601,2.1267393943,-0.447361841513,-1.16596758786,-0.539686583951,-0.00824047495956,-0.443926550738,-0.103611180009,-0.116404828602,-1.10230825933,0.573570837131,0.819127833061,0.00518023163715,0.0,0.81911847181,-0.573491210193,-0.0115545607113,0.0,-0.00649396999582,0.0108707917785,-0.999919823906,0.0,0.368798525221,-0.123783909833,0.305040763355,1.0,-0.29998,-0.394259428571,2.24
-0.202503362723,-0.469902848735,-0.140570185815,-2.6013624276,-0.0649178037888,2.12482445241,-0.467749202424,-1.20478017622,-0.509174498005,-0.0266314736712,-0.395291500967,-0.095509782876,-0.093821439735,-1.14176710309,0.573610005821,0.819099918273,0.00525661562674,0.0,0.819091134623,-0.573529445676,-0.0115946119696,0.0,-0.00648244667734,0.0109566436467,-0.999918961639,0.0,0.363403366029,-0.130893032397,0.305009343836,1.0,-0.296844,-0.390137828572,2.258
-0.219171156064,-0.476657297267,-0.140681102751,-2.60661039531,-0.0660216420002,2.12336623719,-0.483598277771,-1.19081075689,-0.462486555482,-0.00444678277162,-0.368602753057,-0.0756307364761,-0.100129326048,-1.14449951434,0.57358048444,0.81911990991,0.00536171246137,0.0,0.819113227994,-0.573500886647,-0.0114455074803,0.0,-0.00630041750815,0.0109569802828,-0.999920121471,0.0,0.359051560469,-0.136675452945,0.305074675272,1.0,-0.290124,-0.381305828572,2.273
-0.239372976436,-0.484211213728,-0.140863669334,-2.6126234345,-0.0672976370359,2.12160773694,-0.502825472938,-1.17500350867,-0.427258866057,-0.00993699324887,-0.34830503308,-0.0699870566154,-0.0958978292105,-1.11913314352,0.573639094857,0.819078521932,0.00541393224918,0.0,0.819071836661,-0.573558150277,-0.0115378308193,0.0,-0.00634530661405,0.0110531630664,-0.999918779037,0.0,0.354412943047,-0.142762555391,0.305054134777,1.0,-0.282956,-0.371885028572,2.289
-0.261726883007,-0.491814501366,-0.140908127886,-2.61873178177,-0.0685544060516,2.11969930439,-0.524079812429,-1.16844512681,-0.383182042948,0.00619678769004,-0.305600361749,-0.0733877286987,-0.0890673910862,-1.12121031793,0.573685567215,0.819046052956,0.00540185223603,0.0,0.819037619211,-0.573601909708,-0.0117887402525,0.0,-0.00655713465978,0.0111875657286,-0.999915917644,0.0,0.349011177906,-0.149770057536,0.30498178158,1.0,-0.274444,-0.360697828572,2.308
-0.27919215257,-0.497254480164,-0.140913231839,-2.62292512179,-0.0693140179393,2.11844790859,-0.540634136797,-1.17293135667,-0.346758605487,-0.00292169973215,-0.263553166619,-0.0488706428358,-0.0791486732357,-1.09308592527,0.57386856961,0.818916637861,0.00558139312579,0.0,0.818910784516,-0.573784693685,-0.0117046656097,0.0,-0.00638275035108,0.0112878200601,-0.999915919273,0.0,0.34492426928,-0.155200110931,0.305010240003,1.0,-0.267724,-0.351865828572,2.323
-0.300727014823,-0.503420630744,-0.140745481829,-2.62766363653,-0.0702523509987,2.11685247348,-0.561271610622,-1.13078782137,-0.309390699139,0.00418967779526,-0.24075773528,-0.0437959828307,-0.0817363196217,-1.07792436333,0.573806116905,0.818960124129,0.00562158252619,0.0,0.818954674675,-0.573721906998,-0.0117115822772,0.0,-0.00636621639759,0.0113242168645,-0.99991561314,0.0,0.339903077245,-0.161777703093,0.305027525858,1.0,-0.259212,-0.340678628572,2.342
-0.319740015353,-0.508243745609,-0.140625760917,-2.63128642938,-0.0709362192677,2.1156857054,-0.579458322272,-1.09831655425,-0.273838072407,0.00895814344069,-0.199434383574,-0.0288424191235,-0.0655051837794,-1.06274514119,0.573892465386,0.818898706679,0.00575267540581,0.0,0.818895731387,-0.573809206135,-0.0115552140596,0.0,-0.00616173037344,0.0113425099971,-0.999916686802,0.0,0.33557032044,-0.167570034713,0.305077806494,1.0,-0.251596,-0.330669028572,2.359
-0.336200613515,-0.512096415123,-0.140436232772,-2.63421036319,-0.0714661401588,2.11464018387,-0.59521949053,-1.07647919549,-0.24853044577,0.0203625235249,-0.188396939241,-0.0419617514581,-0.0777367905079,-1.05628794612,0.573931591048,0.818870882416,0.00580978738369,0.0,0.818868573905,-0.573848006034,-0.0115529885104,0.0,-0.00612658894627,0.0113882966467,-0.999916382308,0.0,0.331804900813,-0.172500754015,0.305092031543,1.0,-0.244876,-0.321837028572,2.374
-0.354340675063,-0.515787363105,-0.14018164842,-2.6371652345,-0.0719108335075,2.11354633763,-0.612728569709,-1.07399643624,-0.205742076963,-0.00416228209937,-0.167818204316,-0.0286889756304,-0.0506189345018,-1.030455665,0.573901712023,0.818891265919,0.00588782131826,0.0,0.81888832535,-0.573814817655,-0.0117988366108,0.0,-0.00628356611061,0.0115930638725,-0.999913055054,0.0,0.327418169515,-0.178184795197,0.30501993187,1.0,-0.236812,-0.311238628572,2.392
-0.37106691821,-0.51875736164,-0.139903493719,-2.63955344439,-0.0722961519754,2.11270731792,-0.628837586082,-1.03079926529,-0.171901527231,0.0152766924801,-0.135387055758,-0.0199057881315,-0.0476934608994,-0.993448636853,0.573907061339,0.818887435544,0.00589913170443,0.0,0.818883933618,-0.573818820434,-0.0119084624732,0.0,-0.00636678007997,0.0116652794709,-0.999911688784,0.0,0.323894087441,-0.182789691798,0.304970092783,1.0,-0.230092,-0.302406628572,2.407
-0.387439968399,-0.521360660385,-0.139640239545,-2.64156115778,-0.0726442706514,2.1119626141,-0.644570907389,-1.01281389298,-0.156249439364,0.0226496049369,-0.114687062484,-0.0252221154676,-0.0435475726851,-0.976418945101,0.573976934957,0.818838209715,0.00593391515432,0.0,0.818834961585,-0.573888178065,-0.0119336358264,0.0,-0.00636643581241,0.0117087543318,-0.999911182839,0.0,0.320235209567,-0.187605029777,0.304957778104,1.0,-0.222924,-0.292985828572,2.423
-0.407209334476,-0.524071203388,-0.13923578594,-2.6436103159,-0.0729146569492,2.11115362097,-0.663730612151,-0.993795641598,-0.128023050914,0.0128303738082,-0.0981977052185,-0.00949027985855,-0.0337865752689,-0.945194794744,0.573952855353,0.818854481095,0.00601710253574,0.0,0.818852206321,-0.573863569181,-0.0119337785852,0.0,-0.00631915379693,0.0117767707205,-0.999910683995,0.0,0.315857616418,-0.193364642595,0.304962212862,1.0,-0.213964,-0.281209828572,2.443
-0.421665444319,-0.525748784061,-0.138915308136,-2.64487878721,-0.073100832577,2.11064335329,-0.677758804413,-0.946585678406,-0.100635131166,0.0267451217751,-0.0778360356661,-0.00832797367062,-0.0283808528282,-0.927358281557,0.573923292081,0.818874994558,0.00604524569473,0.0,0.818873162463,-0.573834042167,-0.0119156514295,0.0,-0.00628858230127,0.011789186334,-0.999910730425,0.0,0.312465562522,-0.197828454064,0.304965620785,1.0,-0.206796,-0.271789028572,2.459
-0.436681278637,-0.527213920759,-0.138643645748,-2.6459395843,-0.0732533577324,2.11020291349,-0.692234838949,-0.931793128767,-0.0820776671955,0.011038051366,-0.0590533957401,-0.0170321911815,-0.0285764085553,-0.893840263707,0.574043762003,0.818790089145,0.00610705535434,0.0,0.81878941149,-0.573954904863,-0.0118496294077,0.0,-0.00619730406147,0.011802825344,-0.99991113942,0.0,0.309367223563,-0.201929676978,0.30498794359,1.0,-0.200076,-0.262957028572,2.474
-0.451980708544,-0.528405644138,-0.138200034663,-2.64682632626,-0.0733121020046,2.1098169888,-0.707122207151,-0.884281439196,-0.0644036009455,0.0290565240701,-0.0483085641217,-0.00317555845177,-0.0162512696896,-0.872284968663,0.573990275218,0.818827366656,0.0061363239922,0.0,0.818827274457,-0.573901707354,-0.0118098180901,0.0,-0.00614867381244,0.0118035374402,-0.999911431235,0.0,0.306033928052,-0.206319193479,0.304998988396,1.0,-0.19246,-0.252947428572,2.491
-0.467786603431,-0.529329058702,-0.137799792675,-2.64752082263,-0.0733405140145,2.10947010272,-0.722323358944,-0.86785707934,-0.0489560325317,0.0272482058928,-0.0319164038302,-0.00135190787308,-0.0161316492692,-0.823909315173,0.574149805454,0.818715150409,0.00618468183051,0.0,0.818715649168,-0.57406094462,-0.0118095118667,0.0,-0.00611835978777,0.0118441527772,-0.999911136911,0.0,0.30257807197,-0.210857396716,0.305001282789,1.0,-0.184396,-0.242349028572,2.509
-0.481946473739,-0.529851363508,-0.137323211251,-2.64791724883,-0.0733443893655,2.10923842312,-0.736240342421,-0.832761870061,-0.0237236887461,0.0218338510478,-0.0207722823578,-0.00259704036054,-0.0154814936341,-0.804174113466,0.573987534166,0.818829123148,0.00615829579563,0.0,0.81882935087,-0.573898948255,-0.0117999257259,0.0,-0.00612800133825,0.0118158311109,-0.999911412944,0.0,0.299513954869,-0.214897344767,0.30500433007,1.0,-0.17678,-0.232339428572,2.526
-0.49492425212,-0.530109963787,-0.136927351267,-2.64814130636,-0.0733391277829,2.10906866738,-0.748808118049,-0.782864107621,-0.00847357676585,0.0365737276759,-0.00726014943603,0.00449325511555,-0.0137307012017,-0.786140830686,0.574033396959,0.818797138389,0.00613614234793,0.0,0.81879689482,-0.573944535068,-0.011834804594,0.0,-0.00616861753297,0.0118180549183,-0.99991113692,0.0,0.296690037231,-0.218603105961,0.304992626521,1.0,-0.169612,-0.222918628572,2.542
-0.507257323033,-0.530225465159,-0.136430121701,-2.6482423258,-0.0733160252345,2.10896299713,-0.760893025854,-0.764825739493,-0.00366048897059,0.0344416414026,-0.00672586879683,-0.000367215952175,-0.00239839063216,-0.746476828876,0.57389007075,0.818898174477,0.00605916118199,0.0,0.818897064424,-0.573801792295,-0.0118257320432,0.0,-0.00620743234827,0.0117487257031,-0.999911713717,0.0,0.294023209934,-0.222089267955,0.304992741043,1.0,-0.162444,-0.213497828572,2.558
-0.52002803894,-0.530182706241,-0.135976058673,-2.64824121569,-0.0732719157165,2.10889388208,-0.773225714582,-0.728917607911,0.00740738309716,0.0382583869084,0.00622612395943,0.00429313701353,-0.000663565557302,-0.721236831926,0.573947710207,0.818858149056,0.00600870814899,0.0,0.818856362405,-0.573859574714,-0.0118403192363,0.0,-0.00624750747494,0.0117162185849,-0.999911845551,0.0,0.29123888663,-0.225703903048,0.304983531255,1.0,-0.154828,-0.203488228572,2.575
-0.532002079804,-0.529989207921,-0.13544801871,-2.64815489406,-0.0731435355554,2.10889413278,-0.784962412391,-0.702158103692,0.0112845132408,0.0307237621549,0.00555420625524,0.00119213260024,0.00129224970517,-0.680731945192,0.573829823718,0.818941033225,0.00597196898827,0.0,0.818938712792,-0.57374174858,-0.0118548524935,0.0,-0.00628217817132,0.0116935696501,-0.999911893452,0.0,0.288643317161,-0.229052947362,0.304965926565,1.0,-0.147212,-0.193478628572,2.592
-0.543629426334,-0.529709134553,-0.13502705303,-2.64795090314,-0.0729691523787,2.10889905403,-0.796160935555,-0.666618864663,0.020300324802,0.0317007508087,0.0156718928351,0.0121923868731,0.000879871201371,-0.643152915872,0.573970182554,0.818842375255,0.00601173239267,0.0,0.818840609815,-0.573881996889,-0.0118429837617,0.0,-0.00624763224958,0.0117203958241,-0.999911795817,0.0,0.286101037316,-0.232319909486,0.304967838736,1.0,-0.139596,-0.183469028572,2.609
-0.555038184454,-0.529175522124,-0.134419849305,-2.64761535966,-0.0726931323929,2.10894054228,-0.80742964718,-0.631495459318,0.0370896011208,0.0315990774708,0.0207307642235,0.00856507018638,0.0023850053838,-0.623623743018,0.573793813075,0.818965892229,0.00602281857986,0.0,0.818963817364,-0.573704771021,-0.0119100150124,0.0,-0.00629869758631,0.0117665899665,-0.999910932918,0.0,0.283650815965,-0.235474208487,0.304944889611,1.0,-0.131532,-0.172870628572,2.627
-0.565468575207,-0.52858247627,-0.133960869079,-2.64721618071,-0.0724660986248,2.10902690371,-0.817456529219,-0.605571339138,0.0412359533702,0.0248888017567,0.0292645259523,0.00976331667695,0.00281419689617,-0.577166043774,0.573920241184,0.818877126242,0.00604613746269,0.0,0.8188751404,-0.573830678638,-0.0119416745116,0.0,-0.0063094264192,0.011804827659,-0.999910414578,0.0,0.281387699442,-0.238387012361,0.304929013135,1.0,-0.123916,-0.162861028572,2.644
-0.57457050048,-0.527886825423,-0.133462785248,-2.64674859378,-0.0721940912781,2.10915416883,-0.826424495597,-0.544305064576,0.0494142695397,0.0360329083536,0.0340037563942,0.014508544319,0.0064983934046,-0.545282616656,0.573821219563,0.818946369267,0.00606622988898,0.0,0.818944418584,-0.57373117193,-0.0119719892963,0.0,-0.00632415374324,0.0118379145245,-0.999909930373,0.0,0.279447753198,-0.240913454362,0.304911094514,1.0,-0.116748,-0.153440228572,2.66
-0.583188951139,-0.527132271369,-0.13297457415,-2.6462513325,-0.0719337925467,2.1092607392,-0.834814596361,-0.536511212634,0.0515376669863,0.0273038414372,0.0313543404572,0.0151988059306,0.00727351359725,-0.509297581335,0.573803034956,0.81895906247,0.00607272381402,0.0,0.818956645633,-0.573711936023,-0.0120571116065,0.0,-0.00639040971624,0.0118919337138,-0.999908868136,0.0,0.277602302252,-0.243297028994,0.304882891431,1.0,-0.10958,-0.144019428572,2.676
-0.591926183706,-0.526334863976,-0.132497767345,-2.64567522051,-0.0716415427345,2.10938085473,-0.843178067034,-0.501995159881,0.0492252991049,0.0210377317357,0.0387829385755,0.0217851240016,0.0043863763903,-0.487668338304,0.573929467616,0.818870222266,0.00610509537973,0.0,0.818867977062,-0.573837736018,-0.0120927980619,0.0,-0.00639922133077,0.0119399101373,-0.999908240046,0.0,0.275728061789,-0.245718845319,0.304875507783,1.0,-0.101964,-0.134009828572,2.693
-0.600322269746,-0.525386692095,-0.131910449327,-2.64500819586,-0.0712966721983,2.1095472608,-0.851452466607,-0.444753131931,0.056156876334,0.0330115787172,0.0413685218592,0.0211716456137,0.00686841835597,-0.445629353049,0.573798731009,0.818961776795,0.00611321051504,0.0,0.818959309202,-0.573706379957,-0.0121402787587,0.0,-0.00643536028913,0.0119727777193,-0.999907615098,0.0,0.273970643311,-0.248028566882,0.304860739136,1.0,-0.0939000000001,-0.123411428572,2.711
-0.60773376735,-0.524542532763,-0.131371939815,-2.64440160273,-0.0709839632244,2.10970059704,-0.858648441107,-0.431511473095,0.0510211752731,0.0337085894506,0.0333248318234,0.0128224229729,0.012515971488,-0.407915933962,0.573761768766,0.818987657479,0.00611526784883,0.0,0.818985044287,-0.573669095874,-0.0121660418688,0.0,-0.00645582224763,0.011988953436,-0.99990728938,0.0,0.272413438056,-0.250056801285,0.304853914123,1.0,-0.0862840000001,-0.113401828572,2.728
-0.613856920054,-0.523843946166,-0.130891281215,-2.64383927468,-0.0706983549573,2.10984569466,-0.864503457444,-0.401278593363,0.0489917104277,0.032374945054,0.0344423936898,0.0249407419516,0.00842549717199,-0.385470759906,0.573794056736,0.818965048676,0.00611362443301,0.0,0.81896278758,-0.573702079465,-0.0121088181664,0.0,-0.00640942321004,0.0119550289772,-0.999907994056,0.0,0.271143028306,-0.251732038408,0.304877906276,1.0,-0.0795640000001,-0.104569828572,2.743
-0.620953447228,-0.522892758726,-0.130349087053,-2.64312166981,-0.0703148631524,2.11002480412,-0.87129864903,-0.35702382964,0.0491901507109,0.034679859218,0.0426677905386,0.0261100680496,0.0118912801702,-0.352533573809,0.573860202835,0.818918381197,0.00615625221677,0.0,0.818916664712,-0.573768003012,-0.012104622179,0.0,-0.00638055990496,0.0119880492785,-0.999907783313,0.0,0.269673416639,-0.253679128671,0.304884058419,1.0,-0.0710520000001,-0.0933826285715,2.762
-0.626537267322,-0.522144271194,-0.129787709014,-2.64256576204,-0.0699700479227,2.11017379325,-0.876707501816,-0.318450095513,0.0366466076779,0.0324311420049,0.0275803558468,0.0232828810911,0.00485077760228,-0.314863205639,0.573783605659,0.818972016384,0.0061609380062,0.0,0.818970380726,-0.573691438651,-0.0120994054612,0.0,-0.00637471983249,0.0119882970483,-0.999907817592,0.0,0.268539149524,-0.255169790644,0.30488869249,1.0,-0.0634360000001,-0.0833730285715,2.779
-0.630822872757,-0.521615819283,-0.12932777628,-2.64213983365,-0.0696909347111,2.11029631242,-0.880794226127,-0.306158737259,0.0412271856011,0.0323019293061,0.0263063426703,0.0180856230659,0.0145234171647,-0.280093829318,0.573778526892,0.818975569301,0.00616164489181,0.0,0.81897431684,-0.573687062921,-0.0120403112741,0.0,-0.00632598661436,0.0119549311515,-0.999908526574,0.0,0.267611452923,-0.25638547253,0.304910217896,1.0,-0.0567160000001,-0.0745410285715,2.794
-0.636036551278,-0.520873761187,-0.128766158665,-2.6415774173,-0.0693258209345,2.11044983433,-0.885654756642,-0.259603347695,0.0388944342137,0.0258167881408,0.0271786121191,0.0245084796474,0.0100994835248,-0.247184390581,0.573840351476,0.81893214933,0.00617516903796,0.0,0.818931184315,-0.573749027075,-0.01202148858,0.0,-0.00630190758466,0.0119556839096,-0.999908669621,0.0,0.266623991724,-0.25768754373,0.30491999883,1.0,-0.0486520000001,-0.0639426285715,2.812
-0.640053704516,-0.520239376986,-0.128274378158,-2.64113466997,-0.068972358812,2.11057223469,-0.88941851381,-0.225010348485,0.0287107222234,0.0350428901257,0.02208800444,0.0171825889045,0.00553514517693,-0.207560455162,0.573874221527,0.818908083706,0.00621893956128,0.0,0.818907469006,-0.573782282894,-0.0120497279596,0.0,-0.00629942357732,0.0120079954996,-0.999908058427,0.0,0.265831710721,-0.258732062628,0.304910555649,1.0,-0.0410360000001,-0.0539330285715,2.829
-0.643728366474,-0.519722562139,-0.127759470262,-2.64076241487,-0.0686557909278,2.11066495904,-0.892753366574,-0.189968683114,0.02782893958,0.03226476182,0.0230919991357,0.0168151330764,0.0162791237694,-0.179450397414,0.573942628684,0.818860095057,0.00622499830964,0.0,0.818859459617,-0.573850458852,-0.0120657851879,0.0,-0.00630809331986,0.012022698694,-0.999907827089,0.0,0.265107853342,-0.259661845159,0.304910162019,1.0,-0.0329720000001,-0.0433346285715,2.847
-0.646110101527,-0.519363192487,-0.127309696443,-2.64051561745,-0.0683940049363,2.11074659909,-0.89490960273,-0.165549225543,0.0213945988274,0.0312934560692,0.0167281613284,0.0213684007342,0.0148261487217,-0.146641333738,0.573933397313,0.81886662444,0.00621721222446,0.0,0.818865863381,-0.573841217641,-0.0120706929301,0.0,-0.0063167165575,0.0120190680616,-0.999907816299,0.0,0.264671434643,-0.260236295692,0.30490802616,1.0,-0.0267000000001,-0.0350914285715,2.861
-0.648435955292,-0.519009995672,-0.126730414859,-2.64029670814,-0.06808668113,2.11080862678,-0.896989563837,-0.12509816801,0.0199028063609,0.0343807871603,0.00802305927292,0.0156891446331,0.00155275939176,-0.102717506858,0.573867011393,0.818913361846,0.00618917816197,0.0,0.818911973756,-0.573774474242,-0.0121152321326,0.0,-0.00637025567655,0.0120211556053,-0.999907451548,0.0,0.264271343906,-0.260752533332,0.304896863871,1.0,-0.01994,-0.0262068571429,2.878
-0.650181211497,-0.518744896613,-0.126314713381,-2.64012731113,-0.0678528504707,2.11084974561,-0.898570233993,-0.104980411701,0.00914401229319,0.0219157619649,0.00910635622157,0.0135406204348,0.00607286609057,-0.101267031038,0.573815876669,0.818949256919,0.00618071000017,0.0,0.818947549288,-0.57372299466,-0.0121484079281,0.0,-0.00640303747336,0.0120328583227,-0.999907101401,0.0,0.263966966599,-0.261143854325,0.304889809156,1.0,-0.01962,-0.0257862857143,2.894
-0.651833313624,-0.518493425488,-0.125994159847,-2.63992850346,-0.0676768575739,2.11091804071,-0.900240083959,-0.0948694106866,0.0140059981163,0.0156291833834,0.0122690538045,0.00575085272848,0.0044263777552,-0.0925239203036,0.57365945519,0.819058962838,0.00616374626936,0.0,0.819057246951,-0.573567082707,-0.0121150630856,0.0,-0.00638775202333,0.01199861255,-0.999907610693,0.0,0.263671734342,-0.261548455721,0.304901095761,1.0,-0.01928,-0.0253394285714,2.911
-0.653416525991,-0.518217192696,-0.125822271797,-2.63969938379,-0.0675659538341,2.1109879505,-0.901714581038,-0.0880699122706,0.0170722354717,0.00610687669146,0.0181335246621,0.00229665854774,0.0079034626788,-0.0858399042114,0.573685802283,0.819040542589,0.00615928204902,0.0,0.819039003518,-0.573593885763,-0.0120793970617,0.0,-0.00636071186296,0.0119747013764,-0.99990806971,0.0,0.263362169068,-0.261981131817,0.30491355948,1.0,-0.01894,-0.0248925714286,2.928
-0.654927905688,-0.5179363789,-0.125736146199,-2.63950361641,-0.0675172885395,2.11104742307,-0.903186504209,-0.0883761127694,0.0147099006893,0.00347112968967,0.0121164646596,0.000535078863265,0.00131525531566,-0.0834395095777,0.573688181309,0.819038937847,0.00615108268618,0.0,0.819037196174,-0.573596120224,-0.0120958277077,0.0,-0.00637883952655,0.0119774295184,-0.999907921555,0.0,0.263036985881,-0.262409327923,0.304906189653,1.0,-0.0186,-0.0244457142857,2.945
-0.656315574769,-0.517717921323,-0.125721749231,-2.63933495172,-0.0674733591474,2.11106104934,-0.904440995826,-0.0879873598691,0.0142639470502,0.0043113084041,0.0115851635673,0.00208789255066,6.83446704042e-05,-0.0769008732932,0.573814663614,0.818950122847,0.0061785930595,0.0,0.818948555525,-0.573722107186,-0.0121224597351,0.0,-0.00638301735255,0.0120162263659,-0.999907429412,0.0,0.26271543894,-0.262808274718,0.304903846967,1.0,-0.01828,-0.0240251428571,2.961
-0.657712447953,-0.517490815247,-0.125704947565,-2.63913015148,-0.0674465895089,2.11110347964,-0.905895227584,-0.0838846734212,0.0186198592437,7.9105683487e-05,0.0148929577344,0.000308792788829,0.00527876663991,-0.0881676646306,0.573777761678,0.818975934979,0.0061842567127,0.0,0.818974612874,-0.57368551117,-0.012093992027,0.0,-0.00635699234631,0.0120042440411,-0.999907739131,0.0,0.262402409667,-0.2632237275,0.304917220957,1.0,-0.01794,-0.0235782857143,2.978
-0.659052742566,-0.517239971452,-0.125697517063,-2.63892446359,-0.0674082547575,2.11120124128,-0.907254430272,-0.0863602155867,0.0165259759469,0.00106129422691,0.0112829642368,0.00142195974819,0.0014993628221,-0.0792560479932,0.573792491206,0.818965511742,0.00619794434406,0.0,0.818964707369,-0.573700820786,-0.0120384058015,0.0,-0.00630339477031,0.0119836752539,-0.999908325169,0.0,0.262126180324,-0.26360856393,0.304924394757,1.0,-0.01762,-0.0231577142857,2.994
-0.660323914032,-0.51702962522,-0.125698874406,-2.63875245532,-0.0673817574358,2.11120755045,-0.9084918771,-0.077753574941,0.0122987686749,-0.00696537042317,0.0127040883941,0.000696080181379,-0.00068194332427,-0.0831758450551,0.573832926993,0.818937029396,0.00621777162736,0.0,0.818936353113,-0.573740913976,-0.0120565368445,0.0,-0.00630627590717,0.0120106282897,-0.999907983613,0.0,0.261813109766,-0.264004993967,0.304927848778,1.0,-0.01728,-0.0227108571429,3.011
-0.66177587706,-0.51677974022,-0.125676910898,-2.63855045433,-0.0673468835246,2.11123305835,-0.909979245508,-0.0722287132964,0.0115532574778,0.00502986824968,0.00872888990104,0.00186846064468,0.00395601900914,-0.0773442281023,0.573813774291,0.818950343896,0.00623165848838,0.0,0.818949750993,-0.57372151859,-0.0120694389528,0.0,-0.00630915608054,0.0120292570869,-0.999907741506,0.0,0.261481754137,-0.264428353183,0.30493018619,1.0,-0.0169,-0.0222114285714,3.03
-0.663097275894,-0.51651277245,-0.125634813882,-2.63834413445,-0.0673163272061,2.11131432912,-0.911267596119,-0.0740978205889,0.0155520251555,0.00361320329274,0.0124643546791,0.00164981993142,0.00945445300051,-0.0730968079481,0.573834771501,0.818935698625,0.0062228157598,0.0,0.818935174552,-0.573742901012,-0.0120420231151,0.0,-0.00629146737639,0.0120064454544,-0.999908127133,0.0,0.261197695763,-0.26482205601,0.304933396087,1.0,-0.01654,-0.0217382857143,3.048
-0.664176793247,-0.516306327755,-0.125585351263,-2.638184883,-0.0672911898889,2.11137285065,-0.912423176697,-0.0693549217252,0.0136980065486,0.00359449292944,0.0118382738428,-0.000268995374906,0.00170771451416,-0.0839954867376,0.573747629945,0.818996854714,0.00620934804896,0.0,0.81899631167,-0.573656134797,-0.0120177944334,0.0,-0.0062806261617,0.0119808448917,-0.999908502359,0.0,0.260984410338,-0.265115288471,0.304937945691,1.0,-0.01626,-0.0213702857143,3.062
-0.665456174275,-0.516059960806,-0.12552303829,-2.63798778147,-0.0672596490972,2.11138440182,-0.913697086068,-0.074817751696,0.01907492958,0.00390505828353,0.0121434045006,0.000555224216024,0.000136372504371,-0.0662747482747,0.573740376635,0.819001988084,0.00620247001623,0.0,0.819001123853,-0.573648471935,-0.0120555662074,0.0,-0.00631561683952,0.0119968259864,-0.999908090351,0.0,0.260683646704,-0.265502612141,0.304936875931,1.0,-0.01588,-0.0208708571429,3.081
-0.666638145571,-0.51582584478,-0.125491634026,-2.637810776,-0.0672356661266,2.11143496132,-0.91491141751,-0.0690412111689,0.0143701777473,0.000833857402942,0.00813212488671,0.00238774703215,0.00406112459746,-0.070149943823,0.573711070249,0.819022541072,0.00619935400255,0.0,0.819021635599,-0.573619184175,-0.0120556570942,0.0,-0.00631790816154,0.0119940999125,-0.99990810858,0.0,0.260421444056,-0.265850675399,0.304935956671,1.0,-0.01554,-0.020424,3.098
-0.667673413973,-0.515629987196,-0.125482723495,-2.63765255373,-0.0672117084634,2.11149711303,-0.915965898899,-0.0727921990385,0.00991272506262,0.000585565200365,0.00858329847429,0.00347337256003,0.00567098481724,-0.0688205703222,0.573707434698,0.81902504645,0.00620480146317,0.0,0.819024399534,-0.573615882557,-0.0120249385312,0.0,-0.00628967426742,0.0119809110994,-0.999908444692,0.0,0.260191239435,-0.266162593152,0.304941067793,1.0,-0.01524,-0.0200297142857,3.113
-0.668751142182,-0.515415069373,-0.125481266435,-2.63747901497,-0.0671844093765,2.11152933445,-0.916985451815,-0.0674423403618,0.00986118405165,0.000469171487901,0.0122876876171,0.004092107791,0.00356620075408,-0.0688279109905,0.573774723955,0.818977802074,0.00621874271543,0.0,0.818977313814,-0.573683053611,-0.0120274834565,0.0,-0.00628277561795,0.011994306132,-0.999908327474,0.0,0.25994636786,-0.266486006859,0.304943360624,1.0,-0.01492,-0.0196091428571,3.129
-0.6699036869,-0.515198655742,-0.125476969944,-2.63729810663,-0.0671589757792,2.11156602027,-0.91812930537,-0.0634127420259,0.0123743556342,-0.00062556624203,0.010920306983,0.000148481278885,0.0075351737693,-0.0714677513658,0.573799010341,0.818960704895,0.00622948397629,0.0,0.818960399313,-0.573707370237,-0.0120193424553,0.0,-0.00626958900864,0.0119986185012,-0.999908358505,0.0,0.259683922539,-0.26683074757,0.304948881363,1.0,-0.01458,-0.0191622857143,3.146
-0.671075878626,-0.514987932613,-0.125458564849,-2.63712299031,-0.0671334498996,2.11161445601,-0.919343808217,-0.0623069670646,0.00784947059281,-0.000117061480244,0.00935072501922,0.000412504872448,0.000273900663715,-0.0619883301709,0.573771229703,0.818980139717,0.00623326682334,0.0,0.818980000439,-0.573679803554,-0.0119995323662,0.0,-0.00625159976981,0.0119901381547,-0.999908572864,0.0,0.259419599388,-0.26717756586,0.304955193876,1.0,-0.01422,-0.0186891428571,3.164
-0.672021167674,-0.514801028018,-0.125427462613,-2.6369684577,-0.0671083221511,2.11164802055,-0.920263024407,-0.0628734420521,0.0153756869669,0.00329071039317,0.00929649818684,-0.000365896067123,0.00344464121352,-0.0586636338974,0.573789199847,0.818967567456,0.00623093055283,0.0,0.818967441725,-0.573697864156,-0.0119932046649,0.0,-0.0062474943842,0.0119847313059,-0.999908663344,0.0,0.259211934342,-0.267455520457,0.304959971149,1.0,-0.01392,-0.0182948571429,3.179
-0.673056789531,-0.514593543076,-0.125382674011,-2.63679602742,-0.0670835883889,2.11168512032,-0.921327714522,-0.0599433959525,0.0158084543072,-0.000132860508914,0.00854125553748,-0.000263838035089,0.000779750527235,-0.0578092144726,0.573753025303,0.818992986286,0.00622103453971,0.0,0.818992783734,-0.573661839172,-0.0119858821698,0.0,-0.00624770360354,0.0119721490522,-0.999908812766,0.0,0.258986934991,-0.267758653928,0.304965888438,1.0,-0.01358,-0.017848,3.196
-0.674205374604,-0.514364246356,-0.12532592588,-2.63659846437,-0.0670508025564,2.11175168626,-0.922502912997,-0.0610612947757,0.0130145870038,0.00226558833569,0.014072128713,0.000166890193571,0.00360632701239,-0.0569632450334,0.573715020206,0.819019720607,0.00620642793897,0.0,0.819019592733,-0.573624411193,-0.0119452293489,0.0,-0.00622333965035,0.0119365733962,-0.999909390024,0.0,0.258744442444,-0.268097927336,0.304977949632,1.0,-0.0132,-0.0173485714286,3.215
-0.675124519845,-0.514170036777,-0.125306304663,-2.63644437082,-0.0670348181008,2.11178589358,-0.923386779858,-0.0602479754516,0.0144912461705,0.000260203976789,0.0126550734056,-6.95850110235e-05,0.00583782512971,-0.0585279941363,0.573743403799,0.818999871325,0.00620195679861,0.0,0.81899970241,-0.573652840219,-0.0119437541298,0.0,-0.00622428279978,0.0119322806544,-0.99990943539,0.0,0.258527792786,-0.26839070953,0.304980723571,1.0,-0.01286,-0.0169017142857,3.232
-0.676033543158,-0.513974640555,-0.125300846799,-2.63629064252,-0.0670121340013,2.1118135916,-0.924288111097,-0.055970243895,0.00982976905322,0.00178528481903,0.0079717162213,0.00183673538056,0.000241363726927,-0.0632108272257,0.573764872751,0.818984758787,0.00621148709535,0.0,0.818984633819,-0.573674111328,-0.0119553528805,0.0,-0.00622800236396,0.0119469040234,-0.999909237617,0.0,0.258332828709,-0.268644278272,0.304979688104,1.0,-0.01256,-0.0165074285714,3.247
-0.67698997464,-0.513774719201,-0.125299095834,-2.63613618009,-0.0669910709461,2.1118460857,-0.925278359453,-0.0541576944293,0.00890044668278,0.00115602073281,0.00677140004921,-0.000282457048178,-7.31922423007e-05,-0.0591942991261,0.573752962154,0.818993023339,0.00622198064361,0.0,0.818992979199,-0.573662052294,-0.0119623025395,0.0,-0.00622784804297,0.0119593952355,-0.999909089255,0.0,0.258113189211,-0.268930572522,0.304978776757,1.0,-0.01222,-0.0160605714286,3.264
-0.677941433547,-0.513579440585,-0.125289871637,-2.63597113174,-0.0669666651306,2.11188993482,-0.926186029505,-0.0493126758443,0.0116601082418,0.00015072258758,0.00969005650505,0.00480263295167,0.00437272398206,-0.0527324097085,0.573801171188,0.818959210544,0.00622690212348,0.0,0.818959348541,-0.573710457509,-0.0119433363426,0.0,-0.00620878597463,0.0119529102183,-0.999909285342,0.0,0.257900785609,-0.269217993169,0.304985524885,1.0,-0.01188,-0.0156137142857,3.281
-0.678846759953,-0.513396553057,-0.125285318403,-2.63581840498,-0.0669462506853,2.1119480943,-0.927067826485,-0.054333058451,0.00713975034547,-0.000485775921892,0.011033762124,0.00106844372301,0.00289622661847,-0.0535139984948,0.573833763797,0.818936352245,0.00622971904365,0.0,0.818936731376,-0.573743425834,-0.0119104247159,0.0,-0.00617973840352,0.0119365794103,-0.999909660372,0.0,0.25769881428,-0.269493804173,0.304992355233,1.0,-0.01154,-0.0151668571429,3.298
-0.679647025343,-0.513226172637,-0.125272881623,-2.63567758053,-0.0669294663106,2.1119681468,-0.927889208018,-0.0508916252237,0.0156599157113,3.05928612769e-05,0.00423209197525,0.00376158719065,6.10228364881e-05,-0.0493369235729,0.573822058339,0.81894454065,0.00623150094318,0.0,0.81894490826,-0.57373164851,-0.0119155207001,0.0,-0.00618306036062,0.0119408744814,-0.999909588553,0.0,0.25751810735,-0.26973264789,0.30499532658,1.0,-0.01122,-0.0147462857143,3.314
-0.680485805271,-0.513029071365,-0.125247975091,-2.63552032715,-0.0669100669071,2.11199284754,-0.928772194495,-0.0473487718759,0.0141716593234,0.000889074306228,0.00907945230646,0.00202477731931,0.00036897617141,-0.0567314796068,0.57378456101,0.818970836758,0.00622840163181,0.0,0.818971096691,-0.573694041981,-0.011926268528,0.0,-0.00619418846588,0.0119442196301,-0.999909479726,0.0,0.257333637595,-0.269982901332,0.304996559259,1.0,-0.01088,-0.0142994285714,3.331
-0.681316727347,-0.512841925076,-0.125215721756,-2.63538836211,-0.0668881348792,2.11203741446,-0.929572821356,-0.0459776299934,0.0154830258898,0.000478352523532,0.00981591966497,0.0018353165029,0.000693472528699,-0.0466488071848,0.573802700464,0.818958162359,0.00622383702313,0.0,0.818958329675,-0.573712132457,-0.0119327376743,0.0,-0.00620184151169,0.0119443302394,-0.999909430967,0.0,0.257150618025,-0.270225585429,0.304991845882,1.0,-0.01054,-0.0138525714286,3.348
-0.68207823471,-0.512671585024,-0.125189781074,-2.63525272442,-0.066868113094,2.11207456412,-0.930285795627,-0.0455332627183,0.0120168488015,-0.00149533103242,0.0116816698129,0.000330711569729,0.000500581605501,-0.0422862367539,0.573839539828,0.81893238675,0.00621895191945,0.0,0.818932536955,-0.573749073664,-0.0119267467665,0.0,-0.00619920064655,0.0119371707763,-0.99990953284,0.0,0.256984581965,-0.270452033123,0.304994225322,1.0,-0.01022,-0.013432,3.364
-0.68287587882,-0.512484316628,-0.125174871632,-2.63511137187,-0.0668484158852,2.11210696385,-0.931082564098,-0.0475889912231,0.00985187459047,0.00292904467583,0.00777090934737,0.000615672249473,0.00055643502869,-0.0503072347693,0.573845406054,0.818928260124,0.00622106286478,0.0,0.818928379587,-0.573754817838,-0.0119358709906,0.0,-0.00620537674536,0.0119441796288,-0.999909410833,0.0,0.256806205305,-0.270690565878,0.304992262485,1.0,-0.00988000000001,-0.0129851428571,3.381
-0.683663998039,-0.512301895015,-0.125170579546,-2.63497209335,-0.0668269192494,2.11213824169,-0.931897042699,-0.0428116966041,0.0148161558827,0.0039730708251,0.0087706964398,7.28832757539e-05,0.00298612216642,-0.039398128237,0.573837174462,0.818933957959,0.0062302976197,0.0,0.818934145082,-0.573746448466,-0.0119426041028,0.0,-0.00620571239328,0.0119555438302,-0.999909272937,0.0,0.256627421633,-0.270928000761,0.304990796494,1.0,-0.00952000000001,-0.012512,3.399
-0.684356699458,-0.512134927755,-0.125146923947,-2.63484965059,-0.0668049858662,2.11217435362,-0.932592016234,-0.0398515335792,0.0142752497406,0.00139597181815,0.0109209941258,0.00328717805603,0.00227556381201,-0.0297070572862,0.573834218566,0.818936029685,0.00623023170207,0.0,0.818936188111,-0.573743439851,-0.0119470469786,0.0,-0.00620943220213,0.0119580167972,-0.999909220273,0.0,0.256476100261,-0.271133210501,0.304988261781,1.0,-0.00918000000001,-0.0120651428571,3.416
-0.685017561715,-0.511995031742,-0.125106818109,-2.63475973506,-0.0667843749686,2.11220360901,-0.933233111169,-0.0384683203469,0.0109859651327,0.002534421424,0.00639791190115,0.00325445602798,-0.000606861856568,-0.0446480632348,0.573835418681,0.818935226199,0.00622530787661,0.0,0.818935218605,-0.573744464261,-0.011964295171,0.0,-0.00622636671651,0.0119638905375,-0.999909044704,0.0,0.256329233389,-0.271317677435,0.304980767106,1.0,-0.00886000000001,-0.0116445714286,3.432
-0.685651418385,-0.511846231413,-0.125073275658,-2.63467024187,-0.0667649416797,2.11223003166,-0.933867127053,-0.0381883604544,0.01392405398,0.000850015853199,0.00517174304315,0.00260299143488,0.00541513112169,-0.0387073245542,0.573824492086,0.81894289464,0.00622370491898,0.0,0.818942683801,-0.573733196827,-0.0119935986919,0.0,-0.00625144667037,0.011979308926,-0.999908703619,0.0,0.25618724394,-0.271495975575,0.304969381639,1.0,-0.00854000000001,-0.011224,3.448
-0.68627945653,-0.511703289634,-0.125059803567,-2.6345890756,-0.0667398093985,2.11225282183,-0.934515222884,-0.0379475117816,0.00678904693496,-1.55078682962e-05,0.00548486480426,0.000337609078484,0.000974959951484,-0.0439384196515,0.573813588774,0.818950421539,0.00623853357898,0.0,0.818950176359,-0.573721796435,-0.012027295592,0.0,-0.00627069683333,0.0120107050649,-0.99990820645,0.0,0.256040398416,-0.271673788201,0.304955599478,1.0,-0.00820000000001,-0.0107771428571,3.465
-0.686898599334,-0.511553450276,-0.125037858748,-2.63451960145,-0.0667126985923,2.11227259524,-0.935142024622,-0.0320866639954,0.00817478439062,0.00136671488962,0.00189067207117,0.000140721430319,0.000250306019339,-0.0355936354323,0.573807152803,0.818954814568,0.00625379804279,0.0,0.818954405076,-0.573714600028,-0.0120825089669,0.0,-0.00630725508192,0.0120548376176,-0.999907445428,0.0,0.255894777969,-0.271843589401,0.304933890821,1.0,-0.00786000000001,-0.0103302857143,3.482
-0.687496293535,-0.511418653135,-0.125033849256,-2.63444364207,-0.0666944511253,2.11228876923,-0.935719237588,-0.0360116245264,0.0055129950124,-0.000986925425562,0.00278748090646,5.27306247575e-05,0.00116243679131,-0.034272384327,0.573832972757,0.818936614187,0.00626803178542,0.0,0.818936138387,-0.573739869465,-0.0121206572244,0.0,-0.00632995212192,0.0120885832552,-0.999906894596,0.0,0.25575116333,-0.272013964353,0.304919958376,1.0,-0.00752000000001,-0.00988342857144,3.499
-0.688069343625,-0.511288392924,-0.125014375348,-2.63436401737,-0.0666687286633,2.11231321924,-0.936269743259,-0.0338179462679,0.00721042620382,0.000275477763671,0.00503554136903,0.000597138906607,-0.000151800469058,-0.0362889881366,0.573852799722,0.818922641104,0.00627845833499,0.0,0.818922156556,-0.573759368416,-0.0121423044219,0.0,-0.00634140580908,0.0121096971763,-0.999906566538,0.0,0.255620547073,-0.272176216835,0.304910438169,1.0,-0.00718000000001,-0.00943657142858,3.516
-0.688594068996,-0.511181091951,-0.124990501013,-2.63428418602,-0.0666497325899,2.11232842714,-0.936809183275,-0.0312963560496,0.00978983962376,0.00424408878474,0.00508682699183,0.00198793942813,0.000127667137728,-0.0323330850863,0.573836009544,0.818934390321,0.00628055739216,0.0,0.818933873655,-0.573742458725,-0.0121510714213,0.0,-0.00634763003732,0.0121163168066,-0.999906446854,0.0,0.255502503009,-0.272324895254,0.304908820521,1.0,-0.00684000000001,-0.00898971428572,3.533
-0.689108243813,-0.5110713328,-0.124958243628,-2.63419053971,-0.0666252141787,2.11235324104,-0.937328012527,-0.0279801487607,0.00626103595794,0.00379396215382,0.00829352929813,0.000607428163395,0.000501677679655,-0.0295740752,0.573824476792,0.818942482124,0.00627914870253,0.0,0.818942023665,-0.573731081158,-0.0121389986864,0.0,-0.00633872098088,0.0121081464347,-0.999906602342,0.0,0.255394137862,-0.272473544243,0.304913580644,1.0,-0.00650000000001,-0.00854285714286,3.55
-0.689652460233,-0.510961083249,-0.124914649417,-2.63409579842,-0.0666003183664,2.11238425165,-0.937899881534,-0.0237525768284,0.00297660931897,0.00369186960566,0.00201706680336,0.000394439754215,0.00105561529485,-0.0349875700687,0.573786237167,0.81896932921,0.00627206134684,0.0,0.818968899231,-0.573693113012,-0.0121202753846,0.0,-0.00632801723646,0.0120913031786,-0.999906873956,0.0,0.255281307933,-0.272628569944,0.304919446483,1.0,-0.00612000000001,-0.00804342857144,3.569
-0.690030011305,-0.510856460876,-0.124892260516,-2.63402051566,-0.0665821806986,2.1124164816,-0.938291189732,-0.0253182188442,0.0110996605452,0.00225296299252,0.00618687405815,0.000894048045957,-0.000491105134128,-0.0250906729797,0.573770676678,0.818980243457,0.00627043161819,0.0,0.81897982538,-0.573677626614,-0.0121150007595,0.0,-0.00632486171607,0.0120868218842,-0.999906948101,0.0,0.255204386496,-0.272741281438,0.304918160264,1.0,-0.00584000000001,-0.00767542857144,3.583
