nelsonifechukwu/NELSON_IML_WORK/CNN-GradCAM/train2dof/data_sample_2022-02-21-09-55-52/robot_state.csv
position_joint1,position_joint2,position_joint3,position_joint4,position_joint5,position_joint6,position_joint7,velocity_joint1,velocity_joint2,velocity_joint3,velocity_joint4,velocity_joint5,velocity_joint6,velocity_joint7,ee_T_00,ee_T_10,ee_T_20,ee_T_30,ee_T_01,ee_T_11,ee_T_21,ee_T_31,ee_T_02,ee_T_12,ee_T_22,ee_T_32,ee_T_03,ee_T_13,ee_T_23,ee_T_33,v_x,v_y,time
0.465055319302,0.547651522719,-0.123965202556,-1.35576100975,0.0794530820323,1.89408672043,0.159169534626,0.00231774002966,8.01713705036e-05,-0.000834105929961,0.000330224148233,0.000261300458779,-0.000877316958852,0.00137219271427,0.573796280338,0.818983652817,0.00208614247894,0.0,0.818942646649,-0.573737525635,-0.0117872846296,0.0,-0.00845685801951,0.00847209423283,-0.999928350019,0.0,0.661696346029,0.260893558949,0.303338440439,1.0,0.0,0.0,0.0
0.465054602204,0.547651789412,-0.123966563228,-1.35576324379,0.0794517596099,1.89408689099,0.159159703305,-0.000218174606495,0.000664684025893,-0.00101922294767,5.1589078986e-05,-0.000330659200529,-0.000173010686377,-0.00177381872611,0.573789540595,0.81898838212,0.00208325637104,0.0,0.818947354188,-0.57373081381,-0.0117869103235,0.0,-0.00845827709095,0.0084694462158,-0.999928360449,0.0,0.661696434489,0.260891825136,0.303337245539,1.0,-0.00016,-0.000210285714286,0.009
0.465050439142,0.547650727687,-0.123963588422,-1.35576721007,0.0794523517447,1.89408603801,0.159163676886,0.000269255863672,-0.00112696938512,-0.000592691730432,0.000942888860837,-0.00032761645806,0.00184550468499,0.000765821988887,0.573794491532,0.818984918535,0.00208124963623,0.0,0.818943839615,-0.573735747093,-0.0117909696833,0.0,-0.00846270196384,0.00847018309967,-0.999928316768,0.0,0.661695752504,0.260890372551,0.30333593829,1.0,-0.00048,-0.000630857142857,0.025
0.465048144376,0.547640566019,-0.123966186145,-1.35578233376,0.0794502004191,1.89409161407,0.159166837177,-8.99847650015e-05,0.00347880908125,-0.00202549458769,-0.00191342866399,0.000361356386085,5.96369886523e-05,0.000549550060222,0.573801050415,0.81898032541,0.00208039319579,0.0,0.81893926002,-0.573742333225,-0.0117885692402,0.0,-0.00846115952984,0.00846817211579,-0.999928346853,0.0,0.661694982349,0.260885719207,0.303336504852,1.0,-0.0008,-0.00105142857143,0.041
0.465053079735,0.547537125662,-0.123961895135,-1.35586061907,0.0794494091934,1.89410184932,0.159163244923,-0.00040301621769,-0.012773186799,0.000134360963765,-0.00710234481345,-3.41713897996e-05,0.000290763134387,0.000767675062857,0.573795015549,0.8189844625,0.00211594337872,0.0,0.81894377924,-0.573736079774,-0.0117789690255,0.0,-0.00843296191766,0.0084917158742,-0.999928385393,0.0,0.661679584068,0.260884106494,0.303373266,1.0,-0.00114,-0.00149828571429,0.058
0.465049978854,0.547407057337,-0.123963680491,-1.35603427984,0.0794458021263,1.89414520371,0.159161225476,-0.000614344882302,-0.00286509740298,-0.00152607944105,-0.0143029605194,-0.000206366582338,0.00587102046193,-0.000820411031268,0.573803530331,0.818978462509,0.00212918447413,0.0,0.818937816547,-0.573744406008,-0.0117879643539,0.0,-0.0084326435958,0.00850780904765,-0.99992825128,0.0,0.661650192792,0.260868605131,0.303391156602,1.0,-0.0015,-0.00197142857143,0.076
0.465031370614,0.54723642792,-0.12396188347,-1.35625458754,0.0794414721359,1.89423033509,0.159159587028,8.47605015629e-05,-0.0103726781792,-0.00389269576491,-0.0122572923966,0.000177660307747,0.0118521884703,0.00105812896699,0.573829540226,0.818960168298,0.00215601633485,0.0,0.818919844973,-0.573770281987,-0.0117770080885,0.0,-0.00840800430592,0.00852376380821,-0.999928322888,0.0,0.661628932979,0.260834379494,0.303409893934,1.0,-0.00184,-0.00241828571429,0.093
0.465012038043,0.547051930963,-0.123959415799,-1.35645702972,0.0794385911315,1.89435239163,0.159142476952,-0.00134579205642,-0.0142578445226,-1.53527583751e-05,-0.00948324827602,0.00022026087542,0.00482018865037,-0.00240154110511,0.57383792299,0.818954022804,0.00225689432427,0.0,0.818914966479,-0.573778234095,-0.0117287107801,0.0,-0.00831047803818,0.00857874874079,-0.999928667968,0.0,0.66161543502,0.260808530952,0.303458500537,1.0,-0.0022,-0.00289142857143,0.111
0.464990956488,0.54684545097,-0.12396211973,-1.35669320424,0.0794334771488,1.89447137737,0.159126898061,-0.00144020363129,-0.0154487146509,-0.00137593052498,-0.0130959941415,-0.00125701069928,-0.000143247282902,-0.00229855620974,0.573858777731,0.818939204185,0.00233022982172,0.0,0.818901090386,-0.573798803679,-0.0116911916462,0.0,-0.00823745069514,0.00861748660345,-0.999928939141,0.0,0.661597793466,0.260775677289,0.30349898369,1.0,-0.00252,-0.003312,0.127
0.464960073899,0.54664706766,-0.123966832904,-1.3569925273,0.0794230449184,1.89459738248,0.159108535062,-0.00441888338912,-0.0119372818389,-0.00206162386785,-0.0160321774024,2.01509905032e-05,0.0123526052909,8.99125748802e-05,0.573886397824,0.81891978176,0.00235379178591,0.0,0.818881950738,-0.573826309942,-0.0116817667358,0.0,-0.00821592039292,0.00863165082756,-0.999928994107,0.0,0.661569221655,0.260726463211,0.303508094028,1.0,-0.00282,-0.00370628571429,0.142
0.464922505505,0.546396002173,-0.123961499544,-1.35736642215,0.079413187873,1.89472464501,0.159014897715,-0.00435205988369,-0.0133516087917,0.000127625122717,-0.0195760909705,1.37755065719e-05,0.0105216260543,-0.00727496384812,0.573846784856,0.818947508069,0.00236504524369,0.0,0.818909677975,-0.573786508149,-0.0116931299031,0.0,-0.00821918678853,0.00864698992008,-0.999928834735,0.0,0.661521274894,0.260668461697,0.303517193848,1.0,-0.00316,-0.00415314285714,0.159
0.464873871733,0.546035274447,-0.123961589369,-1.35796504336,0.0793810260213,1.8949345502,0.158939014952,-0.00573058345487,-0.0198648249816,0.00206122186163,-0.0316109210076,-0.00281652849196,0.00404591178995,-0.000471373801966,0.573857623543,0.818939971165,0.00234487327501,0.0,0.818901812582,-0.573797349744,-0.011711945896,0.0,-0.00824605732587,0.00864137678743,-0.999928662028,0.0,0.661453054245,0.260581155122,0.30350745816,1.0,-0.00358,-0.00470514285714,0.18
0.464822898901,0.545781542448,-0.123957278619,-1.35838521669,0.0793113023072,1.89508077508,0.158896975938,8.40707140536e-06,-0.0238021138177,-0.00222599124744,-0.0293230950927,-0.0054384368777,0.0132213373542,-0.00275080228492,0.573866869689,0.818933608526,0.00230382332706,0.0,0.818895269042,-0.573807114026,-0.011691070763,0.0,-0.00825241943763,0.00859587370254,-0.999929001744,0.0,0.661408640631,0.260502026681,0.303499543477,1.0,-0.00386,-0.00507314285714,0.194
0.464754765744,0.545404462938,-0.123967556904,-1.35905541757,0.0792539221701,1.89530632777,0.15880278832,-0.00400614054302,-0.0240812054645,0.000337705624028,-0.036850998636,-0.000584114375585,0.013292672817,-0.0121313131843,0.573874869757,0.818928196944,0.00223360993456,0.0,0.818889108523,-0.57381554224,-0.0117088995345,0.0,-0.00830722782811,0.00854868663217,-0.999928952437,0.0,0.661332955715,0.260382429161,0.303467324349,1.0,-0.00424,-0.00557257142857,0.213
0.464710601648,0.545106387247,-0.123967559985,-1.35958307229,0.0792477138178,1.89547547547,0.158713167836,-0.00425397337864,-0.0245459463336,-0.00174820891356,-0.043484514048,0.000191984612437,0.0124723913884,-0.00900257254161,0.573865355304,0.818934965291,0.00219624842815,0.0,0.818895122877,-0.573805895021,-0.0117609297715,0.0,-0.00837137749413,0.00854785184108,-0.999928424572,0.0,0.661265152997,0.260304976907,0.303441857592,1.0,-0.0045,-0.00591428571429,0.226
0.464642904347,0.544693496461,-0.123970735938,-1.36028246236,0.0792246895195,1.89570989901,0.158673719976,-0.00215106738833,-0.0213312703588,-0.000591129758148,-0.0447435330022,-0.000273145650516,0.012536649626,-0.0043768082887,0.573923512142,0.818894303348,0.00216079977585,0.0,0.818853810397,-0.573863988727,-0.0118028192447,0.0,-0.0084254184801,0.0085434590921,-0.999928008224,0.0,0.661181657193,0.260192961798,0.303421637385,1.0,-0.00484,-0.00636114285714,0.243
0.46456878525,0.544190009325,-0.123976455602,-1.36111925521,0.0791863282583,1.8960026441,0.158528807681,-0.00492579479719,-0.0262289736837,0.000596296502925,-0.0485246962471,-0.00506038606022,0.0109441088932,-0.00949226583638,0.573905939774,0.818906695773,0.00213138737604,0.0,0.818865704976,-0.573846417529,-0.0118318724076,0.0,-0.00846627353001,0.0085358662215,-0.999927727989,0.0,0.661083597875,0.26006159058,0.303405213307,1.0,-0.00522,-0.00686057142857,0.262
0.46450503253,0.543713801027,-0.123976893246,-1.36187936502,0.0791503641977,1.89627659084,0.158476524804,-0.00121244354802,-0.034557611872,0.00328456095542,-0.0535649874966,-0.00174865557282,0.0152557147779,-0.00145319581101,0.573948378837,0.818876962389,0.00212739309172,0.0,0.818835820062,-0.573888766864,-0.0118460943805,0.0,-0.0084797700463,0.0085411967766,-0.999927568106,0.0,0.660994561138,0.259947996741,0.303404127402,1.0,-0.00554,-0.00728114285714,0.278
0.464428668061,0.54318899421,-0.123985115106,-1.36270976043,0.0790960962805,1.89656343856,0.158342690467,-0.00490158224833,-0.0310038957043,-0.00172363332235,-0.0487464181003,-0.00371923911781,0.0131184663362,-0.0125387232764,0.573938714884,0.818883786589,0.00210772852235,0.0,0.81884242909,-0.573879223411,-0.0118515889417,0.0,-0.00849565598982,0.0085281474629,-0.99992754464,0.0,0.660899172704,0.259811771246,0.303405259493,1.0,-0.00588,-0.007728,0.295
0.464356731158,0.542622074131,-0.123980994133,-1.3636057631,0.079040718506,1.89688306931,0.158227457435,-0.00303703266123,-0.0407561351389,0.000548893356733,-0.0506178115108,-0.00445506379117,0.0206625963209,-0.00935841817163,0.573935369338,0.81888615155,0.00209988647804,0.0,0.818844657898,-0.573875875453,-0.0118597093846,0.0,-0.0085068413686,0.00852635166933,-0.999927464858,0.0,0.660792274399,0.259680442863,0.303407329206,1.0,-0.00622,-0.00817485714286,0.312
0.464292658138,0.542070123633,-0.123988532045,-1.36447248728,0.0789921138896,1.89721335389,0.158118090892,-0.0037001590467,-0.0381348016378,-0.000973320343225,-0.0596326985414,-0.000686699736996,0.0283421343539,-0.0110197622232,0.573938825099,0.818883697284,0.00211240805139,0.0,0.818842375401,-0.573879289544,-0.0118520960377,0.0,-0.00849338451611,0.00853227157412,-0.999927528755,0.0,0.660693975627,0.259552657991,0.303413998861,1.0,-0.00654,-0.00859542857143,0.328
0.464200138924,0.54143898139,-0.123987450941,-1.36543309978,0.0789257393336,1.89755837357,0.157987604777,-0.0079009146155,-0.0404027913841,-0.00100247636946,-0.0614854972847,-0.00142743533899,0.0257239717288,-0.00481241448489,0.573942472099,0.818881116753,0.00212185010659,0.0,0.81883996579,-0.573882946811,-0.0118414815313,0.0,-0.00847923528001,0.00853394915702,-0.999927634522,0.0,0.660585302767,0.259399105629,0.303432862946,1.0,-0.00688,-0.00904228571429,0.345
0.464124333186,0.540768917654,-0.123986119662,-1.366453317,0.0788763505101,1.8979416464,0.157859948287,-0.00522491058722,-0.0398098242559,0.000453490457641,-0.057102246784,-0.000383636405223,0.0252647914332,-0.0107963055945,0.573942466016,0.818881029499,0.00215687977506,0.0,0.81884021793,-0.57388268449,-0.0118367581901,0.0,-0.00845526356725,0.00855992289537,-0.999927615499,0.0,0.660466023011,0.259255525446,0.30345412687,1.0,-0.00722,-0.00948914285714,0.362
0.464039708511,0.540139400192,-0.123987149656,-1.3673991145,0.0788245897324,1.8982902874,0.157736944618,-0.00580783461193,-0.0453252701153,-5.9012157495e-05,-0.0611449536581,-0.000654004427235,0.0269723821416,-0.00838639055506,0.573950258357,0.818875486695,0.0021874926781,0.0,0.818835022636,-0.57389030387,-0.0118267379033,0.0,-0.00842940721104,0.00857932007021,-0.999927667565,0.0,0.660358741131,0.259110327851,0.303479119228,1.0,-0.00752,-0.00988342857143,0.377
0.463953537988,0.539451048268,-0.123998115216,-1.36847371845,0.0787587216724,1.89870066663,0.157615337987,-0.00705048723296,-0.0417878724879,-0.000259331669968,-0.0707692744951,-0.00570970535399,0.0290162736436,-0.0102864854982,0.573967214916,0.818863554642,0.0022049901608,0.0,0.818823374366,-0.573907247258,-0.0118110133991,0.0,-0.00840631042999,0.00858479723386,-0.999927814995,0.0,0.660230208874,0.258938420649,0.303488994789,1.0,-0.00786,-0.0103302857143,0.394
0.46384150112,0.538704302871,-0.12399347096,-1.36963529464,0.078682683195,1.89915076479,0.157463722141,-0.00433099133737,-0.0398298640263,0.000485518928817,-0.07072704333,-0.00136432472555,0.0205557867477,-0.0044241703595,0.573977461199,0.818856282771,0.00223810265912,0.0,0.818816576469,-0.573917408623,-0.0117885147453,0.0,-0.00836877441017,0.00859910288129,-0.999928006931,0.0,0.660103807728,0.258756660855,0.303506141417,1.0,-0.0082,-0.0107771428571,0.411
0.463734297516,0.537922094948,-0.124009830744,-1.37084733235,0.0786170073254,1.89961975087,0.157311970229,-0.00825570738181,-0.0425149432576,-0.000623793806636,-0.0710475981573,-0.0111835006749,0.0290657099771,-0.00584652448482,0.574003588247,0.81883790092,0.00226265281304,0.0,0.81879856121,-0.573943487347,-0.011770148377,0.0,-0.00833936930307,0.008608930019,-0.999928168042,0.0,0.659980447505,0.258571987741,0.303520211896,1.0,-0.00852,-0.0111977142857,0.427
0.463626188874,0.537117947237,-0.124011289662,-1.37211641443,0.0785502898973,1.90008575537,0.157163572936,-0.00293805812044,-0.0493737835231,-0.000845288436572,-0.081388444136,-0.00716397396029,0.0291479338659,-0.00990807838908,0.574023683432,0.81882379919,0.00226795942362,0.0,0.818784430315,-0.573963458456,-0.0117793010406,0.0,-0.00834360683573,0.00861873357355,-0.99992804824,0.0,0.659832503342,0.258380543382,0.303524421461,1.0,-0.00886,-0.0116445714286,0.444
0.463506951041,0.536275791487,-0.124013774698,-1.37343157674,0.0784608241951,1.90058871775,0.15699974522,-0.00689983041582,-0.0513201487278,-0.000358742133549,-0.0816539401627,-0.0117614122685,0.0255497715929,-0.0109912734106,0.574037388372,0.81881414096,0.00228609181077,0.0,0.818775116548,-0.573977205398,-0.0117568323426,0.0,-0.00831465606912,0.00862082239984,-0.999928271385,0.0,0.659686333157,0.258175038673,0.303536582918,1.0,-0.0092,-0.0120914285714,0.461
0.463386243444,0.535342398597,-0.124015496534,-1.37488490765,0.078380678603,1.90111446694,0.156823733746,-0.00710887371887,-0.0611161584979,0.00081715892324,-0.0858755735576,-0.0115949799293,0.0263624163337,-0.00523585077641,0.574051572821,0.81880417228,0.00229479870958,0.0,0.818765170873,-0.573991261636,-0.0117632236796,0.0,-0.00831474230633,0.00863176450047,-0.999928176272,0.0,0.659514397428,0.25795687679,0.303549173912,1.0,-0.00956,-0.0125645714286,0.479
0.463261435634,0.534454026653,-0.124019068069,-1.376330826,0.0783116699064,1.90164357651,0.156651138844,-0.00554041433044,-0.0519818553612,0.00622943418522,-0.0827382349784,-0.00405463470445,0.0357937021117,-0.011424870523,0.574075799462,0.818787232566,0.00227841183823,0.0,0.818747846402,-0.57401536969,-0.0117926363494,0.0,-0.00834797739198,0.00863547818552,-0.999927867293,0.0,0.659344166149,0.257737265791,0.303533728168,1.0,-0.0099,-0.0130114285714,0.496
0.463152697574,0.53364612746,-0.124035027362,-1.37764375334,0.0782241961689,1.90211566133,0.156483675532,-0.0112491242965,-0.0547759514561,-0.00129823148837,-0.0870975374024,-0.00298084144065,0.0340225972197,-0.00883423084017,0.574087302425,0.818779270004,0.00224122889123,0.0,0.818739510691,-0.574027127932,-0.0117990225709,0.0,-0.0083744301376,0.00860881743113,-0.99992787599,0.0,0.659190732012,0.257528963645,0.303520066281,1.0,-0.0102,-0.0134057142857,0.511
0.463023771062,0.532717487734,-0.12402758917,-1.37915522184,0.0781339889213,1.90268879128,0.156294314161,-0.0127808555264,-0.0614493962379,-0.000310490407871,-0.09251524194,-0.014125510793,0.0386973064429,-0.00986404384813,0.574091127497,0.818776610029,0.00223318161541,0.0,0.818736695841,-0.574030932051,-0.0118092689608,0.0,-0.0083873993659,0.00860815000318,-0.999927773034,0.0,0.65901409652,0.257305383251,0.303504907669,1.0,-0.01054,-0.0138525714286,0.528
0.46290229806,0.531741831902,-0.124027599022,-1.38070944805,0.0780607866726,1.90325802925,0.156095727298,-0.00677910727962,-0.0638581992436,-0.00116573748922,-0.090482243556,-0.00632641759347,0.0313576944223,-0.0113531649493,0.574093167622,0.818775172108,0.00223591834093,0.0,0.818735079448,-0.574032741603,-0.0118333490674,0.0,-0.00840552391639,0.00862423567342,-0.999927482234,0.0,0.658826396412,0.25708043228,0.303502271625,1.0,-0.01088,-0.0142994285714,0.545
0.462768484307,0.530747919547,-0.124025420744,-1.38233204064,0.0779496361988,1.90383393702,0.155893139622,-0.00882715746877,-0.0580055553805,-0.000164659357558,-0.0936674461756,-0.00379830058662,0.0352429556682,-0.0129116295978,0.574093657462,0.818774969946,0.00218356434771,0.0,0.818734239467,-0.574033481638,-0.0118555465381,0.0,-0.00845374847641,0.00859411843224,-0.999927334992,0.0,0.658628886391,0.256835120622,0.303480200736,1.0,-0.01122,-0.0147462857143,0.562
0.4626299555,0.529723631203,-0.124030004698,-1.38396368947,0.0778450573334,1.9044240433,0.15566366502,-0.01206946156,-0.0594006077487,-0.00131119431245,-0.0911114064033,-0.00282470621541,0.0430194131368,-0.00995108490121,0.57408287628,0.818782580316,0.00216430919431,0.0,0.818741628262,-0.574022807691,-0.0118620951767,0.0,-0.0084702771354,0.00858200098168,-0.999927299189,0.0,0.658434828581,0.256584142977,0.303476448155,1.0,-0.01156,-0.0151931428571,0.579
0.462494052661,0.52864358326,-0.124025479248,-1.38564719198,0.0777507936858,1.90504906594,0.155453219907,-0.00253760173931,-0.0629705048299,0.00103583068931,-0.107959377334,-0.00676528577367,0.0376216807503,-0.0119860090561,0.574084599559,0.81878131071,0.00218739174889,0.0,0.818740549892,-0.57402432819,-0.0118629469295,0.0,-0.00845770599369,0.00860140706464,-0.999927238856,0.0,0.658233296712,0.256338816667,0.303489785951,1.0,-0.0119,-0.01564,0.596
0.462354589091,0.527539093768,-0.124028525878,-1.38737037197,0.0776299481817,1.90571495849,0.155202270399,-0.00748063724159,-0.0650084194825,0.00417078569218,-0.103665100195,-0.00601144938451,0.0396942263262,-0.0106566076377,0.574056284051,0.818801085286,0.00221638838812,0.0,0.818760876031,-0.57399607975,-0.0118268851727,0.0,-0.00841183012274,0.00860415550905,-0.99992760219,0.0,0.658034884002,0.256080865722,0.303504929434,1.0,-0.01224,-0.0160868571429,0.613
0.462199200644,0.526383361948,-0.124033895554,-1.38916088021,0.07752351851,1.90639823792,0.154964708371,-0.0068945430351,-0.0670296611839,-0.000885225009225,-0.108499438151,-0.00553099358566,0.0381269418936,-0.0158928395071,0.574055211809,0.81880171928,0.00225946885075,0.0,0.818762034082,-0.573994803043,-0.0118086632364,0.0,-0.00837219157302,0.00862895812171,-0.999927721133,0.0,0.657840496676,0.255827965254,0.303525601455,1.0,-0.01256,-0.0165074285714,0.629
0.462059373609,0.525272082347,-0.124036115036,-1.39088774841,0.0774085941716,1.90701954053,0.154727691004,-0.00428756393129,-0.0667638493496,-0.000640987535766,-0.10494674089,-0.00847568258427,0.0354099202526,-0.00560157680048,0.574044772453,0.818809048409,0.00225574031961,0.0,0.818769414635,-0.573984482323,-0.0117985851563,0.0,-0.00836618941987,0.00862001327435,-0.99992784852,0.0,0.657619307903,0.255547254147,0.303539122132,1.0,-0.0129,-0.0169542857143,0.646
0.461903470305,0.524088818336,-0.12405066463,-1.39276041261,0.0772852564853,1.90768119275,0.154466738356,-0.00762426101736,-0.0682223721716,-0.00278956054969,-0.11459349945,-0.0068454918813,0.0412002575584,-0.0169170796792,0.574036212156,0.81881513683,0.00222390028934,0.0,0.818775169868,-0.573976129151,-0.0118055611355,0.0,-0.0083902680155,0.00859785946923,-0.999927837504,0.0,0.657392337643,0.255254528015,0.303537676959,1.0,-0.01324,-0.0174011428571,0.663
0.46173200523,0.522732751553,-0.124052334122,-1.39491319356,0.0771620213569,1.90850067494,0.154191143087,-0.00504816394201,-0.0761490215146,-0.00128720959509,-0.118522284651,-0.00321463453074,0.0493562740932,-0.0134456053031,0.574034531275,0.818816258303,0.0022447591966,0.0,0.818776501975,-0.573974305583,-0.0118018322837,0.0,-0.00837525930031,0.00861278116867,-0.999927834912,0.0,0.657135898807,0.254938800589,0.303537348125,1.0,-0.01362,-0.0179005714286,0.682
0.46156412993,0.521521439503,-0.124053161915,-1.39685793539,0.0770490463022,1.90926405863,0.153908924139,-0.0133372411521,-0.0729661273929,-0.000504774321481,-0.112554876056,-0.00408089645931,0.0509373346035,-0.0152197758114,0.57401537686,0.818829616993,0.00226988203691,0.0,0.818790171047,-0.573955040131,-0.0117904455632,0.0,-0.00835171658555,0.00862662024375,-0.999927912528,0.0,0.656911052427,0.254646596341,0.303529061652,1.0,-0.01396,-0.0183474285714,0.699
0.46141094649,0.52031096348,-0.124058860989,-1.39876061393,0.0769251636096,1.90996893085,0.153646282809,-0.00567165742249,-0.0781545846437,0.000221828916342,-0.115274289348,-0.00493248927714,0.0431405366677,-0.0131605332735,0.573997789408,0.818841933918,0.00227418402148,0.0,0.818802612599,-0.573937509405,-0.0117798047301,0.0,-0.00834071915781,0.00862385572898,-0.999928028168,0.0,0.656681729739,0.254360549017,0.303534905773,1.0,-0.01428,-0.018768,0.715
0.461240284907,0.518997831198,-0.124062875731,-1.40081039379,0.0767984731125,1.91070771586,0.153375570626,-0.0100789449216,-0.0756499315798,-0.000335877599112,-0.118943922747,-0.00650231806059,0.0356999675989,-0.0107152628557,0.573993389271,0.818845017922,0.00227433474595,0.0,0.818805675904,-0.573933085813,-0.0117824028754,0.0,-0.00834280655965,0.00862542562527,-0.999927997214,0.0,0.656430681471,0.254049797014,0.303545344862,1.0,-0.01462,-0.0192148571429,0.732
0.461071307633,0.517704519884,-0.124063642478,-1.40280616132,0.076662669473,1.91141866508,0.153097642154,-0.00752740068169,-0.0844106763598,0.00510989949806,-0.124299790759,-0.000817134232473,0.041097733021,-0.0194585727211,0.573973582629,0.818858900336,0.0022747935668,0.0,0.818819624258,-0.573913341894,-0.0117747962576,0.0,-0.00833652284107,0.00862123359181,-0.999928085773,0.0,0.656184940331,0.253744913011,0.303564637659,1.0,-0.01494,-0.0196354285714,0.748
0.460883870555,0.51637263703,-0.124071612063,-1.40494305756,0.0765243076648,1.91221671225,0.152807085333,-0.0149151510217,-0.0760530616387,-0.00125063981532,-0.127594808837,-0.00431938818574,0.053700399721,-0.0197243515868,0.573970527382,0.818861080869,0.0022607159858,0.0,0.818821701758,-0.573910423276,-0.0117725819479,0.0,-0.00834282133531,0.00860840411842,-0.999928143774,0.0,0.65592991236,0.25341298334,0.303551286594,1.0,-0.01528,-0.0200822857143,0.765
0.460720170545,0.515146631442,-0.124075410031,-1.40687615807,0.0764084008945,1.91293573447,0.152547939506,-0.0136334938467,-0.0831144299113,0.0012899894596,-0.1332528225,-0.00252394421335,0.0475527678333,-0.0168428709402,0.573965801818,0.818864367118,0.00227013437105,0.0,0.818825083241,-0.573905634338,-0.011770846715,0.0,-0.00833604453414,0.00861507230501,-0.999928142864,0.0,0.655695734886,0.253120157421,0.303553318596,1.0,-0.01558,-0.0204765714286,0.78
0.460525606162,0.51375047587,-0.124081233772,-1.40913275391,0.0762728006256,1.9137294047,0.152228515693,-0.0132764673026,-0.0865375614018,-0.000875594590211,-0.134603974613,-0.00417050943534,0.0430185083718,-0.0273827833152,0.573949612954,0.818875869636,0.00221332765804,0.0,0.818835752448,-0.5738895687,-0.0118118733339,0.0,-0.00840241416581,0.00859193736799,-0.999927786417,0.0,0.655412697226,0.252771749947,0.303526841958,1.0,-0.01592,-0.0209234285714,0.797
0.460307923346,0.512180407415,-0.124080209235,-1.41167651551,0.0761216923663,1.9146285847,0.151876763927,-0.0080900230197,-0.0872378773774,-0.00126980626401,-0.135052539199,-0.0135737858781,0.0497008214839,-0.0137232232738,0.573931510705,0.818888719648,0.00215238344387,0.0,0.818847654318,-0.57387155086,-0.0118620838374,0.0,-0.00847869826218,0.00857066284291,-0.999927325066,0.0,0.655091153379,0.252385128961,0.303494001631,1.0,-0.0163,-0.0214228571429,0.816
0.460120785727,0.510821856076,-0.124088037202,-1.41385180688,0.0759939898271,1.91545416945,0.151562642002,-0.0101899017321,-0.0821626340074,0.00114265204079,-0.130043609361,-0.00944569363193,0.0529088060076,-0.0216532048604,0.573912554604,0.818901987801,0.00215892189931,0.0,0.818860982844,-0.573852546056,-0.0118614106508,0.0,-0.0084745930936,0.00857543449986,-0.999927318956,0.0,0.654829188164,0.252053076659,0.303481799415,1.0,-0.01662,-0.0218434285714,0.832
0.459920869285,0.509327513493,-0.124094015321,-1.41621421139,0.07584177758,1.91633285103,0.151238202941,-0.00914426406818,-0.0906697165128,-0.000959214472771,-0.136083426757,-0.0103678273592,0.0532611323845,-0.0175955042734,0.573896777196,0.818913038922,0.00216118234607,0.0,0.818872121398,-0.573836820341,-0.0118532408607,0.0,-0.00846677050025,0.00857243374767,-0.999927410954,0.0,0.654539996979,0.251693078403,0.303479634294,1.0,-0.01696,-0.0222902857143,0.849
0.459730185541,0.508003270365,-0.124097214852,-1.41830093812,0.0757095045795,1.91707976103,0.150932514906,-0.0123338093782,-0.084783344063,-0.0018888889328,-0.138798614448,-0.00477303087639,0.0524636126818,-0.0252199510928,0.573877314707,0.818926719533,0.00214536749626,0.0,0.818885574353,-0.573817401162,-0.011863942872,0.0,-0.00848481397459,0.00856542308252,-0.999927318088,0.0,0.654280967797,0.251365606777,0.303477686719,1.0,-0.01726,-0.0226845714286,0.864
0.459517090891,0.506469997511,-0.124098217607,-1.42071667577,0.0755502904397,1.91796172163,0.150611144701,-0.0128114120775,-0.0950586050682,0.000174273472437,-0.14480378436,-0.0127530189264,0.0525460823574,-0.0248557565493,0.57387120203,0.818931021972,0.00213813793122,0.0,0.818889824548,-0.573811360339,-0.0118627526051,0.0,-0.00848805170065,0.00855875627478,-0.999927347695,0.0,0.65398140635,0.250993359768,0.303476506753,1.0,-0.0176,-0.0231314285714,0.881
0.459301605203,0.504868300621,-0.124106791675,-1.42316772571,0.0753923643892,1.91891123224,0.150270823545,-0.0129081142968,-0.0963140211527,-0.000272079110498,-0.145098972162,-0.0107148364701,0.0565407261406,-0.0225670673593,0.573859006551,0.818939361821,0.00221566269293,0.0,0.818899301222,-0.573798991269,-0.0118067344536,0.0,-0.00839781624439,0.00858997091868,-0.999927841938,0.0,0.653689916353,0.250616621211,0.303511829402,1.0,-0.01794,-0.0235782857143,0.898
0.459075524015,0.503209840829,-0.124110686759,-1.42563562567,0.07524321161,1.91984659935,0.14993274961,-0.0135109687415,-0.099801664455,0.000832126907235,-0.146427463989,-0.00809993555663,0.0616086034782,-0.0110907463494,0.573856673793,0.818940696811,0.00232377950452,0.0,0.818902038897,-0.573796243101,-0.0117502763218,0.0,-0.00828956312895,0.00864608872436,-0.999928261573,0.0,0.653393122852,0.25023498847,0.30357674432,1.0,-0.01828,-0.0240251428571,0.915
0.458856692783,0.501607930735,-0.124119575614,-1.42799920378,0.0750924020021,1.92071247094,0.14960210669,-0.0136995694268,-0.0991900620977,0.000362862109238,-0.145650250873,-0.00694288658428,0.0553315012897,-0.01727633384,0.573851492713,0.818944079188,0.00240964213845,0.0,0.818906584604,-0.573790795459,-0.0116993862868,0.0,-0.00819867050012,0.00868714935276,-0.999928655074,0.0,0.653104399207,0.249861977832,0.303645299619,1.0,-0.0186,-0.0244457142857,0.931
0.458620667611,0.499890077613,-0.124120604831,-1.43061323864,0.0749263092118,1.92162831244,0.149231971287,-0.0172714709657,-0.0994719555752,0.000463170583333,-0.155556532311,-0.0102495475933,0.048225421377,-0.0271540591624,0.5738304458,0.818958777512,0.0024263366219,0.0,0.818921436635,-0.57376962347,-0.0116981496046,0.0,-0.00818830169955,0.00869990097486,-0.999928629172,0.0,0.652770642649,0.24945526285,0.303679082306,1.0,-0.01894,-0.0248925714286,0.948
0.458374138429,0.498210443201,-0.124123149508,-1.43324380652,0.0747607875268,1.9226150518,0.148855941435,-0.0105948283797,-0.098606774603,0.000156452125313,-0.154705020473,-0.00776607825696,0.0605092693745,-0.0260890763732,0.573806863604,0.81897524758,0.00244418347027,0.0,0.818938157087,-0.573745999401,-0.0116863142286,0.0,-0.008168618872,0.00870749006748,-0.999928724101,0.0,0.652425605156,0.249018804585,0.303678304579,1.0,-0.0193,-0.0253657142857,0.966
0.458095870826,0.496441614035,-0.1241188281,-1.43607003375,0.0745864208271,1.9236209803,0.148425801978,-0.0149206332088,-0.101774861749,0.000503090999658,-0.160450256261,-0.0103093715556,0.056807757718,-0.0202516927675,0.57379632284,0.818982730981,0.00241104799723,0.0,0.818945040935,-0.573735400938,-0.0117241861222,0.0,-0.0082187606161,0.00870197822603,-0.999928361208,0.0,0.652109068666,0.248616300027,0.303658501187,1.0,-0.01962,-0.0257862857143,0.982
0.457846924593,0.494876510772,-0.124123439299,-1.43864016111,0.0744270566082,1.92450348728,0.148067244624,-0.014123923422,-0.0947410623525,-0.00102765873723,-0.167167694782,-0.0162096729224,0.057094545758,-0.0180946825669,0.573783546942,0.818991984772,0.00230587074504,0.0,0.818952818673,-0.573722906576,-0.0117921227189,0.0,-0.00833488359656,0.00865469197543,-0.999927810405,0.0,0.651755577126,0.248177853919,0.303602501967,1.0,-0.01996,-0.0262331428571,0.999
0.457563940716,0.493130454565,-0.12412616254,-1.44145542991,0.0742507626878,1.92552929621,0.147671847405,-0.0195228926975,-0.109227115719,-0.0036778523214,-0.177294484289,-0.00793709737927,0.0628710107809,-0.0232384547199,0.573787256922,0.818989497382,0.00226580529636,0.0,0.818949755722,-0.573726713892,-0.0118195714752,0.0,-0.00838031322173,0.00863766649055,-0.999927577911,0.0,0.65140337372,0.247722347206,0.303567293182,1.0,-0.02166,-0.0284674285714,1.016
0.45727412225,0.49123441329,-0.124131617978,-1.4445028771,0.0740552692027,1.9266445722,0.147244333201,-0.0153331064053,-0.115209655544,0.000758159875999,-0.188157928562,-0.0131949579566,0.061178819586,-0.0249345123164,0.573777979757,0.818996099101,0.00222856540829,0.0,0.818955870197,-0.573717580213,-0.0118392451215,0.0,-0.00841789048793,0.00861836080109,-0.999927428855,0.0,0.651018406117,0.247238392384,0.303533044872,1.0,-0.023564,-0.0309698285714,1.033
0.456963184736,0.48931455809,-0.124148658961,-1.44762325182,0.0738639534214,1.92772932711,0.146795896381,-0.0189662540556,-0.12595783909,-0.00142953080059,-0.196241189585,-0.0145397428908,0.0726013914155,-0.032972569721,0.573780625781,0.818994472597,0.00214341644228,0.0,0.818952972097,-0.573720399341,-0.0119029313303,0.0,-0.0085188772448,0.00858519394477,-0.999926858913,0.0,0.650589866927,0.246694953059,0.303488395506,1.0,-0.025468,-0.0334722285714,1.05
0.456597194722,0.487049224598,-0.124164975284,-1.45112855258,0.0736469229448,1.92906957156,0.146286853358,-0.0254684918443,-0.141198307226,-2.3936808855e-05,-0.206978751426,-0.0125370355051,0.0889682419144,-0.0268834271465,0.57379114678,0.81898692988,0.00220804515093,0.0,0.818946381052,-0.573730772327,-0.0118563378761,0.0,-0.00844352487104,0.00861149809014,-0.99992727185,0.0,0.650192979003,0.246147225115,0.303499985485,1.0,-0.02726,-0.0358274285714,1.066
0.456205301694,0.484603529347,-0.12419589913,-1.45483273657,0.0734184285581,1.93045477277,0.145719707871,-0.0244182578813,-0.146742809388,0.00049643207161,-0.226583140268,-0.0159779594528,0.080329659595,-0.028984843306,0.573790889755,0.818986826533,0.00231077923672,0.0,0.818947699246,-0.573730203744,-0.0117926295859,0.0,-0.00833240486332,0.00865907747607,-0.999927793096,0.0,0.649742888004,0.245524921131,0.30355591341,1.0,-0.029164,-0.0383298285714,1.083
0.455780777421,0.482028570852,-0.124231248544,-1.45885265113,0.0731765347951,1.9318173742,0.145114299403,-0.0209315897592,-0.157662260361,-0.0026519212419,-0.23798460525,-0.00761395620339,0.0890883770965,-0.0347665020799,0.573799451375,0.818981016076,0.00224316972915,0.0,0.818940823476,-0.57373883428,-0.0118500879582,0.0,-0.00841816556687,0.0086367635188,-0.999927267757,0.0,0.649221260912,0.244840098464,0.303548159289,1.0,-0.031068,-0.0408322285714,1.1
0.455328128714,0.479257122631,-0.12425762187,-1.46310344578,0.0729108555999,1.93337113533,0.144490472001,-0.0313773482754,-0.169869588348,-0.000475502850552,-0.25021635218,-0.0167467095015,0.0917377998196,-0.0283377147785,0.573813501819,0.818971008924,0.00230186294325,0.0,0.818931597172,-0.573752672278,-0.0118176609031,0.0,-0.00835778257127,0.00866636853718,-0.999927518137,0.0,0.648689436753,0.244126836776,0.303581272971,1.0,-0.032972,-0.0433346285714,1.117
0.454870185473,0.476539077039,-0.124277603392,-1.4672483444,0.0726465543128,1.93490328533,0.143891634888,-0.0320951551075,-0.172911905412,-0.0032988148844,-0.265994941578,-0.0245026530735,0.0947878637101,-0.0358373827705,0.57384162626,0.818951064915,0.00238498355698,0.0,0.818912796781,-0.57378054273,-0.0117671982345,0.0,-0.008268461559,0.00870576933938,-0.999927918464,0.0,0.648174637699,0.243424872578,0.303623913463,1.0,-0.034764,-0.0456898285714,1.133
0.454363583244,0.473512517973,-0.124286688876,-1.47193231122,0.0723631379905,1.93659790536,0.143221967823,-0.0301969482185,-0.180559618269,0.00100801385895,-0.280144806474,-0.0187790972288,0.101949272338,-0.0421385633137,0.573863315008,0.818935759312,0.00242171622652,0.0,0.818897778431,-0.573801890363,-0.0117714059247,0.0,-0.00825059875003,0.00873848430707,-0.999927780648,0.0,0.647574197184,0.242646548652,0.303635470187,1.0,-0.036668,-0.0481922285714,1.15
0.453823999636,0.470317323841,-0.124288216339,-1.47683482235,0.0720596855924,1.93831417308,0.142478569768,-0.0303555662916,-0.191318990214,0.00156261664934,-0.2875903266,-0.0176677056417,0.104950431303,-0.0464985723761,0.573848879314,0.8189458295,0.00243699724363,0.0,0.818907781672,-0.573787117599,-0.0117955795259,0.0,-0.00826178210012,0.0087647248466,-0.999927458646,0.0,0.64693162469,0.241826726311,0.303658885564,1.0,-0.038572,-0.0506946285714,1.167
0.453272452384,0.466959685002,-0.12429776597,-1.48187503014,0.0717309498481,1.94025575847,0.14164222457,-0.0310573194865,-0.200148452534,-0.003121334114,-0.299580812644,-0.0247777923142,0.102527940758,-0.051207541794,0.573772341063,0.818998800414,0.00264810364342,0.0,0.818963681372,-0.573710024516,-0.0116637586169,0.0,-0.00803351537943,0.00886121340149,-0.999928468205,0.0,0.646305869578,0.240991679397,0.303745983837,1.0,-0.040476,-0.0531970285714,1.184
0.452709766506,0.463679725926,-0.124297123494,-1.48696305273,0.0713846003316,1.94197918015,0.140880711235,-0.037798129058,-0.207952449948,-0.00298057007518,-0.321062768934,-0.0233336123923,0.105286780703,-0.0542962166147,0.573752576374,0.81901289636,0.00256974732954,0.0,0.818976628884,-0.573690396864,-0.0117199312817,0.0,-0.00812469192436,0.00882907375987,-0.999928015828,0.0,0.645619135991,0.240132702173,0.303735199212,1.0,-0.042268,-0.0555522285714,1.2
0.452076707439,0.460105509445,-0.124308484559,-1.49257010664,0.0710013964516,1.94394432932,0.140061926048,-0.0378399600206,-0.21773749404,-0.000710783418156,-0.336199928027,-0.0196939162297,0.11824925812,-0.0448885371778,0.57376471654,0.819004614631,0.00249763238837,0.0,0.818967409716,-0.573702797865,-0.0117570593917,0.0,-0.00819634501209,0.0087914346391,-0.999927762694,0.0,0.644875034703,0.239174996613,0.303698873189,1.0,-0.044172,-0.0580546285714,1.217
0.45141114014,0.456405602319,-0.124308380305,-1.49835528882,0.0706171395527,1.94601469556,0.139161815187,-0.0447106399357,-0.222696677189,0.0016952306069,-0.354142948032,-0.0223612906619,0.121001335789,-0.0658112464155,0.573734517333,0.819025830145,0.00247791791495,0.0,0.81898828147,-0.573672581853,-0.0117775441262,0.0,-0.00822475763924,0.00878673850138,-0.999927570671,0.0,0.644110133841,0.238191476241,0.303669956021,1.0,-0.046076,-0.0605570285714,1.234
0.450694369177,0.452544104627,-0.124359466667,-1.50434366893,0.0702024835209,1.94810250221,0.138199920683,-0.0440512963913,-0.236693952715,-0.0084430202424,-0.348488115047,-0.0340429420215,0.131431224755,-0.0576717224679,0.573730709717,0.819028665844,0.00242160143607,0.0,0.818990557163,-0.573669168479,-0.0117855553908,0.0,-0.00826366872701,0.00874517213982,-0.999927614252,0.0,0.643320478515,0.23712063222,0.303654894008,1.0,-0.04798,-0.0630594285714,1.251
0.449917579573,0.448197455302,-0.124408513567,-1.51086179678,0.0697723070806,1.95048082407,0.137227109151,-0.0379009628234,-0.243557593976,-0.000239719558066,-0.375749902932,-0.0274761335476,0.125209780971,-0.0596340503799,0.573783561611,0.818991147193,0.00258304964732,0.0,0.818955319977,-0.573721621898,-0.0116803831346,0.0,-0.00808433459843,0.00881758385219,-0.999928444314,0.0,0.64247535962,0.235974293117,0.303741312444,1.0,-0.049996,-0.0657090285714,1.269
0.449173130325,0.444249288192,-0.124436979564,-1.51696145717,0.0693559080774,1.95249039301,0.136314805658,-0.0442000945674,-0.2472369692,-0.00630185168678,-0.380953746636,-0.0277647710382,0.130981812824,-0.0604604656882,0.573824663821,0.818962745335,0.00245435228091,0.0,0.818925072137,-0.573762998571,-0.0117683727135,0.0,-0.00822980075049,0.00876308185122,-0.999927736777,0.0,0.641632008417,0.234884440613,0.303717549842,1.0,-0.051788,-0.0680642285714,1.285
0.448321183533,0.439714649364,-0.12443223623,-1.52396080746,0.0688670933907,1.95496312533,0.135168745387,-0.046017471491,-0.249976370729,0.000676264840921,-0.392953820288,-0.0254952901663,0.137521103347,-0.0671217576864,0.573755178153,0.819011450189,0.00244681507045,0.0,0.818973661159,-0.573693530755,-0.0117737843606,0.0,-0.00823930085855,0.00875931548371,-0.999927691543,0.0,0.640681527842,0.233667994083,0.303701920724,1.0,-0.053804,-0.0707138285714,1.303
0.447560189646,0.435813838624,-0.124450499539,-1.52990150509,0.0684817494778,1.95710490179,0.134213927628,-0.0546527301482,-0.270574015761,-0.00774746194285,-0.385623345009,-0.0322986413297,0.145754023683,-0.0640870196738,0.573764819986,0.819004436013,0.00253220025645,0.0,0.818967662108,-0.57370275492,-0.0117415637816,0.0,-0.00816381973855,0.00881085598979,-0.99992785783,0.0,0.63989016737,0.232607411626,0.303724504159,1.0,-0.055484,-0.0729218285714,1.318
0.446661081278,0.431242849809,-0.124483442962,-1.53678733076,0.0679764813375,1.95959780164,0.133090869222,-0.053686097731,-0.266432076079,-0.000346099527519,-0.421114856229,-0.0384346743945,0.134996359495,-0.0703742503114,0.573763510548,0.819004985977,0.00264835968825,0.0,0.818970160706,-0.573701514825,-0.0116273239872,0.0,-0.0080036224487,0.00884043199439,-0.999928891867,0.0,0.638977675554,0.23135414253,0.303780769613,1.0,-0.057388,-0.0754242285714,1.335
0.445777936153,0.426843657053,-0.124532506624,-1.54366415118,0.0674826656587,1.96178990004,0.132009781122,-0.0567130710365,-0.279483415004,-0.00553143420566,-0.431267091859,-0.031175098679,0.148887071799,-0.0714394087962,0.573793467639,0.818984802918,0.00238662641342,0.0,0.818946445545,-0.573732267544,-0.0117792787668,0.0,-0.00827792509107,0.00871356019101,-0.999927772304,0.0,0.637993036754,0.230085145173,0.303694612904,1.0,-0.05918,-0.0777794285714,1.351
0.444806405192,0.422007381663,-0.124577136081,-1.55101826264,0.0669441952212,1.96428256293,0.130787710832,-0.0587028394603,-0.292688593117,-0.00013397916411,-0.436604112797,-0.0301823478502,0.138688159443,-0.0732396533657,0.573781162007,0.818993567176,0.00233708163289,0.0,0.818954737699,-0.57372033107,-0.0117841511703,0.0,-0.00831047275733,0.00867565506067,-0.999927831922,0.0,0.636968930868,0.228726983457,0.303698757102,1.0,-0.061084,-0.0802818285714,1.368
0.443776304561,0.417028738674,-0.1245932412,-1.5584260908,0.066447227372,1.96698196314,0.129608943634,-0.0594878947161,-0.297525701062,-8.60962574549e-05,-0.436106203747,-0.0305783444386,0.163298765036,-0.0713340476482,0.573843397573,0.818949291343,0.00256128321016,0.0,0.818913385074,-0.573781748941,-0.0116670145876,0.0,-0.00808523143453,0.00879267768056,-0.999928656381,0.0,0.635971582467,0.227365586289,0.303784794179,1.0,-0.062988,-0.0827842285714,1.385
0.442719851645,0.411970831862,-0.124608770235,-1.56606461552,0.0659144641148,1.96967491039,0.128278839691,-0.0614107113587,-0.297582955956,-0.00135057892874,-0.460845819315,-0.0370529823137,0.151852276712,-0.0873654016995,0.573796810605,0.818981664553,0.00264578277218,0.0,0.818946833661,-0.573734850255,-0.0116254952731,0.0,-0.00800324377467,0.00883759768439,-0.999928919952,0.0,0.634911904379,0.225958892457,0.303808417416,1.0,-0.064892,-0.0852866285714,1.402
0.441690930107,0.407099374296,-0.124662222908,-1.57355879437,0.0653812211137,1.97205527694,0.127080364373,-0.0639009888309,-0.300358207342,-0.00122340709803,-0.476865066225,-0.031335911591,0.160636598148,-0.0742865428497,0.57385015296,0.818945026966,0.00240658590411,0.0,0.818906772864,-0.573788705843,-0.0117883546881,0.0,-0.00827330192321,0.0087356868263,-0.999927617506,0.0,0.633741158565,0.224454141292,0.303731542081,1.0,-0.066796,-0.0877890285714,1.419
0.440551214076,0.40183294858,-0.124694807937,-1.58160841245,0.0648344737341,1.97479587118,0.125727234151,-0.0651436644682,-0.313059355335,-0.00195603232909,-0.46594614106,-0.034863718162,0.159789704627,-0.0803949719092,0.57387074998,0.818930634976,0.00239255433111,0.0,0.818891933063,-0.573809073915,-0.0118277452816,0.0,-0.00831339362738,0.00874700890352,-0.99992718601,0.0,0.632661802568,0.223037011256,0.303704301009,1.0,-0.068588,-0.0901442285714,1.435
0.439210987124,0.395663512784,-0.124707182921,-1.59056892317,0.0641646789277,1.97803201777,0.124172897488,-0.0716065918679,-0.328004788035,-0.00167944755341,-0.480901414814,-0.0307592526141,0.165509690174,-0.0784044771343,0.57386785515,0.81893158399,0.00273723749093,0.0,0.818897846751,-0.573805472555,-0.0115906494029,0.0,-0.00792145953568,0.00889319022149,-0.999929078308,0.0,0.631424955807,0.221337380762,0.303873014147,1.0,-0.070716,-0.0929410285714,1.454
0.437986466713,0.390126564176,-0.124724986481,-1.59902755795,0.0635304327044,1.9807400894,0.122772240402,-0.0719320870173,-0.330460631748,-0.00096591290641,-0.503224207667,-0.0368373878323,0.159251321889,-0.079251669019,0.573882860336,0.818921710375,0.00253806814681,0.0,0.818885161729,-0.573820920004,-0.0117213722802,0.0,-0.00814264640782,0.00880525052449,-0.99992807985,0.0,0.630158666143,0.219733726617,0.303803070325,1.0,-0.07262,-0.0954434285714,1.471
0.436736690641,0.384467827358,-0.12472529163,-1.60759970465,0.0628876273751,1.98354910945,0.121212087874,-0.073188304206,-0.345368017941,-0.000179533988473,-0.500197769687,-0.0409857386977,0.167313944702,-0.0880848558893,0.573770961148,0.819000428818,0.0024348800406,0.0,0.818962331055,-0.573709193508,-0.0117986651472,0.0,-0.00826635790368,0.00876397520936,-0.999927427399,0.0,0.628874626136,0.218121897094,0.303761123365,1.0,-0.074524,-0.0979458285714,1.488
0.435908160306,0.380635395027,-0.124725146475,-1.61308866548,0.062502943594,1.98550792374,0.120254118367,-0.0786355356809,-0.340931699194,0.0032984384891,-0.502552222134,-0.0370020509748,0.179272939688,-0.0916844177208,0.573762193484,0.819005769012,0.00269119932311,0.0,0.818971015663,-0.573699513717,-0.0116657775582,0.0,-0.00801055360518,0.00889756766924,-0.999928329592,0.0,0.628088143278,0.217090613274,0.303882217943,1.0,-0.075756,-0.0995650285714,1.499
0.434291194946,0.373792284181,-0.124746684065,-1.62342766309,0.0617081595924,1.9889412802,0.118403389301,-0.0844162829744,-0.352774076762,-0.0062822700684,-0.530156393884,-0.0428924137278,0.1722801131,-0.0888476310657,0.573739594916,0.81902187707,0.00260557236383,0.0,0.818986037637,-0.573677247945,-0.0117060773305,0.0,-0.00809293165934,0.0088503378481,-0.999928085403,0.0,0.626549888712,0.21507374701,0.303830865944,1.0,-0.077996,-0.102509028571,1.519
0.432687175922,0.367062480083,-0.124817806587,-1.63349159113,0.0609456793033,1.99215221131,0.116694358168,-0.084631159775,-0.355220982069,-0.0012062784985,-0.527288373578,-0.0384015109098,0.176301918724,-0.0896451726339,0.573850618936,0.81894449051,0.00247699643834,0.0,0.818906853584,-0.573788590705,-0.0117883514939,0.0,-0.00823289172129,0.00879335145994,-0.9999274456,0.0,0.625025023709,0.213062751926,0.303804724299,1.0,-0.080124,-0.105305828571,1.538
0.431314715358,0.361249362681,-0.124850953417,-1.64187640984,0.0602709720863,1.99508246304,0.115104098568,-0.088473098483,-0.362154906721,0.0003540957276,-0.533911970891,-0.0425062929791,0.173491271568,-0.108988817562,0.573797911006,0.818980603323,0.00273415546003,0.0,0.818946939774,-0.573735675139,-0.0115772107571,0.0,-0.00791298087122,0.00888227860593,-0.999929242427,0.0,0.62380132522,0.211396796349,0.303930736873,1.0,-0.081916,-0.107661028571,1.554
0.429751943955,0.355073528583,-0.124873582698,-1.65115601453,0.059597087419,1.99800345333,0.113378403782,-0.0898987907806,-0.367426123681,-0.00607064121423,-0.547528952455,-0.0401401379096,0.16931970301,-0.0966285171947,0.57380956326,0.818972912731,0.00258847940119,0.0,0.818936713295,-0.573747118157,-0.0117324731547,0.0,-0.00812360152073,0.00885217654194,-0.999927820429,0.0,0.622362961397,0.209527930452,0.30386367912,1.0,-0.08382,-0.110163428571,1.571
0.428151108579,0.348797375342,-0.124931117322,-1.6605635387,0.058878234364,2.00101050453,0.111641016461,-0.100693992366,-0.377246285531,-0.000938030245236,-0.541329563912,-0.0406698692767,0.182873816408,-0.106682548444,0.573852261847,0.818943373492,0.00246566181284,0.0,0.818905364301,-0.573790036256,-0.0118214006381,0.0,-0.00826644469167,0.00880305066548,-0.999927083437,0.0,0.620909911084,0.207606000826,0.303800531113,1.0,-0.085724,-0.112665828571,1.588
0.426611995458,0.342643057547,-0.124951988438,-1.66932730078,0.0582075759292,2.00400503645,0.110011902567,-0.0945022600894,-0.385105564765,-0.00113999638735,-0.558614848323,-0.0391960168599,0.18556412146,-0.099709317626,0.573891008209,0.818915234525,0.00277421356528,0.0,0.818881444034,-0.573827898329,-0.0116391846102,0.0,-0.00793973731962,0.00895154774613,-0.99992841262,0.0,0.619592079667,0.205825632203,0.303948485317,1.0,-0.087516,-0.115021028571,1.604
0.424820548584,0.335754746623,-0.124952232821,-1.67959081062,0.0573786226701,2.00716080982,0.108017469911,-0.0979961291133,-0.383439580835,0.000525410626563,-0.575053654994,-0.0420035271639,0.175408994602,-0.104166935391,0.573813027198,0.818970546953,0.0025690353365,0.0,0.818933736253,-0.573750262999,-0.0117863580549,0.0,-0.00817885287107,0.00886720622298,-0.999927236863,0.0,0.617945614343,0.203737982655,0.303871622003,1.0,-0.089532,-0.117670628571,1.622
0.423316406638,0.329851170816,-0.124954058416,-1.68815779594,0.0566530110785,2.00988934069,0.106371592639,-0.103368748126,-0.400986860605,0.000193878958308,-0.569987113109,-0.0442649137015,0.190610534818,-0.110981002632,0.57375334137,0.819012309297,0.00258599835435,0.0,0.818975939128,-0.573690761601,-0.0117502376624,0.0,-0.008140182641,0.00885977912973,-0.999927618251,0.0,0.616583032137,0.20199725878,0.303905683963,1.0,-0.091212,-0.119878628571,1.637
0.421537419347,0.323113479687,-0.124953598094,-1.69788930368,0.0559032937362,2.0131246726,0.104433948061,-0.107306914171,-0.387762945332,-0.00190094323063,-0.585365516821,-0.0417791079611,0.182876733722,-0.115266712674,0.57370498094,0.819045540417,0.00278288860809,0.0,0.819011622864,-0.573641595093,-0.0116631425346,0.0,-0.00795641740579,0.0089705937924,-0.99992810935,0.0,0.615057574367,0.200003808611,0.303965670747,1.0,-0.093116,-0.122381028571,1.654
0.419676975669,0.316277908703,-0.124999955308,-1.70790851192,0.0550769846986,2.01616961813,0.102521993017,-0.110691085437,-0.402370449018,-0.00229766867765,-0.598014792001,-0.0487284703029,0.177317992638,-0.12220245187,0.57375396569,0.819011702383,0.00263915075369,0.0,0.818975743008,-0.573690886698,-0.0117577968039,0.0,-0.00811587269629,0.00890765449336,-0.999927390515,0.0,0.613424729673,0.197888168517,0.303926259464,1.0,-0.09502,-0.124883428571,1.671
0.417880772267,0.309698491889,-0.125044761466,-1.71729560314,0.0542672536055,2.01918220187,0.100564685397,-0.11343437194,-0.421453809515,-0.00423255033407,-0.59166966473,-0.0511177650041,0.198630079203,-0.115749636133,0.57368859889,0.819057084835,0.00276227911565,0.0,0.819023219093,-0.573625645161,-0.0116332584386,0.0,-0.00794394154954,0.0089364105211,-0.999928514625,0.0,0.611926893168,0.195885975301,0.304004034444,1.0,-0.096812,-0.127238628571,1.687
0.415886522784,0.30268967062,-0.125048492252,-1.72745335524,0.0534426222787,2.02233685571,0.0984485732853,-0.115632144069,-0.40622419119,-0.000985473209126,-0.603210198112,-0.0435359092778,0.176014113625,-0.132149149296,0.57363558709,0.819094230098,0.00275723502069,0.0,0.819059998436,-0.573572319893,-0.0116730336766,0.0,-0.00797999448455,0.00895458084137,-0.999928064998,0.0,0.610262102835,0.193723544596,0.30399486704,1.0,-0.098716,-0.129741028571,1.704
0.413799231434,0.295623512632,-0.12512937606,-1.73780781658,0.0526042610245,2.02538146833,0.0964289267884,-0.118580936906,-0.416445743807,-0.00228958005522,-0.606863267961,-0.0444454325563,0.182913613237,-0.120525081403,0.573789919396,0.818986817328,0.00254329389148,0.0,0.818949261429,-0.573726811118,-0.0118490637463,0.0,-0.008245229858,0.00888187298948,-0.999926561562,0.0,0.608532732081,0.191439739105,0.303909277853,1.0,-0.10062,-0.132243428571,1.721
0.411422319258,0.287476852771,-0.125196110298,-1.74919484264,0.0516448556179,2.02911275074,0.0939724214728,-0.130820927131,-0.414920202457,-0.000889615397532,-0.609963736608,-0.0558837586535,0.196344128744,-0.130805295672,0.573793537745,0.818983051903,0.00291266868693,0.0,0.818950908594,-0.573729808341,-0.0115872013409,0.0,-0.00781878720559,0.0090341678533,-0.999928622642,0.0,0.606707683743,0.188923247063,0.304070189431,1.0,-0.102748,-0.135040228571,1.74
0.409483664373,0.281063636589,-0.125228302249,-1.75857278657,0.0508277933432,2.03176646784,0.0919894689723,-0.125151350271,-0.437212950904,-0.00300503728434,-0.637603226994,-0.0605296584528,0.185548338165,-0.142431425402,0.57376956116,0.819000867941,0.0026107275783,0.0,0.818964382995,-0.573706413316,-0.0117914208883,0.0,-0.00815954988331,0.00890382271505,-0.999927069184,0.0,0.604976770628,0.186715194764,0.303957841314,1.0,-0.10454,-0.137395428571,1.756
0.407088440551,0.273176660671,-0.125301757893,-1.76969970802,0.0498501969748,2.03518808922,0.0896139574632,-0.132790088403,-0.451067716097,-0.00689328280905,-0.615686504866,-0.0575308527388,0.20155293106,-0.127574384791,0.573830038586,0.818958082732,0.00273723309427,0.0,0.818923573996,-0.573766796416,-0.0116871804223,0.0,-0.00800093145037,0.00894821218193,-0.999927954702,0.0,0.603226783708,0.184349633784,0.304026920256,1.0,-0.106444,-0.139897828571,1.773
0.405014957063,0.266593699542,-0.125368498884,-1.77904159421,0.0490491993327,2.03804797529,0.0875336606798,-0.140425614975,-0.444389508546,-0.00256220262685,-0.624872435701,-0.0508209528931,0.186363136153,-0.137282731271,0.573859426456,0.818937287601,0.00279723911115,0.0,0.818903612003,-0.573796034512,-0.011650404662,0.0,-0.00793605887754,0.00897653657524,-0.999928217804,0.0,0.601655173361,0.182217343544,0.304039887386,1.0,-0.108124,-0.142105828571,1.788
0.402589553389,0.259045191995,-0.125465883989,-1.78988735091,0.0480818956388,2.04109852844,0.0851826688304,-0.148097716834,-0.441146312123,-0.00497416435093,-0.635021824815,-0.0562351881074,0.184616649757,-0.145064874043,0.573951849051,0.818873296095,0.00255867455502,0.0,0.818836247766,-0.573888994063,-0.0118054537406,0.0,-0.00819893350482,0.00887106827075,-0.999927038157,0.0,0.599759611822,0.179709878977,0.303958555668,1.0,-0.110028,-0.144608228571,1.805
0.399995964998,0.250840214144,-0.125469151517,-1.80117990914,0.0470517232174,2.04454064663,0.0826410632019,-0.145710662395,-0.454319276394,0.00336529331371,-0.638139609318,-0.0572920201646,0.190703246705,-0.147528142957,0.573930620155,0.81888734706,0.00281122285534,0.0,0.818854021923,-0.573867363209,-0.0116226986979,0.0,-0.00790456404237,0.00897277656693,-0.999928501018,0.0,0.597820557612,0.177144030292,0.304093010096,1.0,-0.112044,-0.147257828571,1.823
0.397478178194,0.243131308742,-0.12547098565,-1.81217845524,0.0461177615773,2.04765713051,0.0801075979268,-0.152425028704,-0.445986052551,-0.00129296882673,-0.647378565929,-0.0485718296176,0.184170336129,-0.140858683175,0.573869165397,0.818930852643,0.00268076418227,0.0,0.818894949266,-0.573805385954,-0.0117977971834,0.0,-0.00812349958303,0.00896582889221,-0.999926808655,0.0,0.595848048093,0.174658434812,0.304011597081,1.0,-0.113948,-0.149760228571,1.84
0.394896840002,0.235183767069,-0.125477701885,-1.82303441605,0.0451463742496,2.0508632793,0.0775745361528,-0.151346774225,-0.479145833459,0.00127310328878,-0.64737080234,-0.0591099611022,0.197711985941,-0.146943031112,0.573835184138,0.818953875634,0.00291168857803,0.0,0.818921041511,-0.573770670517,-0.0116744304299,0.0,-0.00789033045195,0.00908381686996,-0.999927610858,0.0,0.593933016849,0.17216184552,0.304134844351,1.0,-0.115852,-0.152262628571,1.857
0.392582676766,0.228205006648,-0.125451223223,-1.83279156726,0.0442239357207,2.0536535467,0.0752660131412,-0.156693316472,-0.466810098035,0.0008378550941,-0.669208699504,-0.0603474625115,0.182025298621,-0.163068236932,0.573719659944,0.819034890383,0.00288912258415,0.0,0.819001749074,-0.573655222186,-0.0116862300661,0.0,-0.00791422227652,0.00907099103393,-0.999927538478,0.0,0.5921643518,0.169938580886,0.304121624347,1.0,-0.117532,-0.154470628571,1.872
0.389800899607,0.220205454777,-0.125504654884,-1.84399778612,0.0431644887668,2.05667656366,0.0725751522513,-0.163691136735,-0.475866595502,-0.0066831925642,-0.640374588631,-0.059299922979,0.182253298088,-0.165702202495,0.573711186609,0.819041452154,0.00270571872607,0.0,0.819005623329,-0.573647059682,-0.0118146847516,0.0,-0.00812474539073,0.00899438882993,-0.999926542043,0.0,0.590107341131,0.167267694911,0.304065977268,1.0,-0.119436,-0.156973028571,1.889
0.386622567078,0.211094657741,-0.12556543405,-1.85636315593,0.042059275471,2.0603179053,0.0695518167187,-0.174701236316,-0.47445182852,-0.00131906071441,-0.670846181947,-0.0677936260025,0.188094899112,-0.161609891544,0.573760847012,0.81900558758,0.0030141084323,0.0,0.818973870697,-0.57369575188,-0.0116503344061,0.0,-0.0078126581903,0.00915315801295,-0.999927588413,0.0,0.587894553973,0.164301293287,0.304182880979,1.0,-0.121564,-0.159769828571,1.908
0.383845073013,0.203429946939,-0.125600101444,-1.86710618971,0.0410252067405,2.06304501485,0.0668679432856,-0.174147978242,-0.471682230834,-0.000169475605097,-0.677991780385,-0.068867451559,0.159427263132,-0.167884628926,0.573713942901,0.819039521258,0.00270577891582,0.0,0.81900309695,-0.573649156184,-0.0118877961556,0.0,-0.00818456465845,0.00903640969544,-0.999925675339,0.0,0.585853151552,0.161706463266,0.304075916708,1.0,-0.123356,-0.162125028571,1.924
0.380823845017,0.195108102705,-0.125688339913,-1.87825914718,0.0399544385742,2.06627480534,0.0640160797934,-0.177007650669,-0.482398967647,-0.00594630319928,-0.667832174384,-0.0561935008806,0.188157564536,-0.162525477518,0.573757649063,0.819007910481,0.0029915902909,0.0,0.818975829611,-0.573692545982,-0.0116704797703,0.0,-0.00784211318541,0.00914624327029,-0.999927421114,0.0,0.583830931117,0.158942343847,0.304202185453,1.0,-0.12526,-0.164627428571,1.941
0.378031039371,0.187773533606,-0.125769323453,-1.88836889803,0.0390057808252,2.06894857427,0.0613937905671,-0.190339736144,-0.493980845359,-0.0090026843091,-0.683183933773,-0.0602693232892,0.171656417668,-0.175409945879,0.573809972308,0.81897157886,0.00290096547526,0.0,0.818937861423,-0.573744645214,-0.0117731948523,0.0,-0.00797765216352,0.00913146288348,-0.999926484023,0.0,0.581925888392,0.156408137929,0.304152662529,1.0,-0.12694,-0.166835428571,1.956
0.374781253631,0.179311070617,-0.125916848435,-1.89975090359,0.0379073279711,2.07195999958,0.0584135472189,-0.190162437702,-0.508702376581,-0.00628707879635,-0.662739713358,-0.0651319085097,0.189903929319,-0.173884354488,0.573954141102,0.818870365713,0.00295211276248,0.0,0.818837299437,-0.573888598908,-0.0117515954277,0.0,-0.0079290020464,0.00916235330607,-0.99992658841,0.0,0.579787307707,0.153477230809,0.304201619913,1.0,-0.128844,-0.169337828571,1.973
0.371127070622,0.169841038105,-0.125923445005,-1.91257286059,0.0365719296944,2.07536345522,0.0549998111994,-0.199520173859,-0.509849950894,0.000343940421133,-0.676638824431,-0.0739881748533,0.164779500259,-0.18660481735,0.573883050255,0.818920270373,0.00292955700226,0.0,0.818887247929,-0.573817984787,-0.0117193180549,0.0,-0.0079163070282,0.00912467054168,-0.999927033573,0.0,0.57732404327,0.150280931219,0.304193870313,1.0,-0.130972,-0.172134628571,1.992
0.367948785964,0.161802070282,-0.125950531556,-1.92349612779,0.0355113780977,2.07810653341,0.0519799472242,-0.204169230507,-0.510867834752,-0.00138190554375,-0.669659895733,-0.0671162449398,0.176385503798,-0.19574256974,0.573819605811,0.818965120692,0.0028174417442,0.0,0.818929917698,-0.573754127671,-0.0118632955396,0.0,-0.00809926236911,0.00911485439506,-0.999925657926,0.0,0.575176423353,0.147530820012,0.304137061925,1.0,-0.132764,-0.174489828571,2.008
0.364487630763,0.153086607127,-0.125976415946,-1.93494546578,0.0342847682598,2.08121379703,0.0487991429933,-0.206160655822,-0.504119978351,0.000709579016319,-0.685234399063,-0.0703972688163,0.169468154121,-0.192954251881,0.573786882424,0.818987217439,0.00304928357198,0.0,0.818956011739,-0.573721731867,-0.0116263545789,0.0,-0.00777254517923,0.00916845538172,-0.999927760874,0.0,0.57297658971,0.144593279818,0.30424755263,1.0,-0.134668,-0.176992228571,2.025
0.361130452114,0.144876950566,-0.126000373883,-1.94606249896,0.0331802435852,2.08376932534,0.0457171434562,-0.209675935746,-0.512311810147,-0.00499111298667,-0.687586267378,-0.0703887675938,0.165137234209,-0.190797796557,0.573777647537,0.818994656656,0.00277677079095,0.0,0.818958716179,-0.573712094395,-0.0119080158135,0.0,-0.00815969143586,0.0091067892763,-0.999925240118,0.0,0.5707091479,0.141752361662,0.304146269917,1.0,-0.13646,-0.179347428571,2.041
0.357462543239,0.13598649665,-0.126087204361,-1.95755904171,0.032025680734,2.08680853491,0.0423279385746,-0.217404168809,-0.524102597535,-0.00554297853519,-0.673230472219,-0.0691199148855,0.182748399447,-0.207878638382,0.573797676193,0.818979416896,0.00311261891708,0.0,0.818948267207,-0.573731406677,-0.0116942520886,0.0,-0.00779169454108,0.00925938681377,-0.999926773945,0.0,0.568466139336,0.138709595555,0.304288965381,1.0,-0.138364,-0.181849828571,2.058
0.353002669238,0.125565625845,-0.12617900563,-1.97147351486,0.0305295079954,2.09004853541,0.0382698111663,-0.224501324589,-0.526319878157,-0.00768343010988,-0.69669175663,-0.0658970728549,0.160578481776,-0.201542951906,0.573805181235,0.818975063456,0.00286466876557,0.0,0.818940251549,-0.57373927746,-0.0118681419733,0.0,-0.00807629483167,0.00915617020004,-0.999925466227,0.0,0.56561766064,0.135017629891,0.304196467042,1.0,-0.140604,-0.184793828571,2.078
0.349760946979,0.118058726971,-0.126299755795,-1.98102642567,0.0294969610591,2.09245702833,0.0353945812085,-0.236375728224,-0.540236255348,-0.00622188318448,-0.684422105876,-0.0781635867404,0.175307301366,-0.207629188652,0.573918660718,0.818894624429,0.00311638591736,0.0,0.818863817744,-0.573852712392,-0.0116558728008,0.0,-0.00775673440923,0.00924159650654,-0.999927210333,0.0,0.56371722997,0.13238003799,0.304333846141,1.0,-0.142172,-0.186854628571,2.092
0.345750796544,0.109066267256,-0.1263592151,-1.99283626874,0.0282041992808,2.09522728641,0.0317211285104,-0.239057265938,-0.542594303202,-0.0024273979989,-0.693568124801,-0.0791548403547,0.15148798041,-0.207489596246,0.573871396153,0.818928030273,0.00304118597231,0.0,0.818896171753,-0.573805616753,-0.0117013234949,0.0,-0.00783764310771,0.00920564763843,-0.99992691103,0.0,0.561278147358,0.129178478847,0.304297243821,1.0,-0.144076,-0.189357028571,2.109
0.341698576919,0.0999101166441,-0.126357195057,-2.00461038538,0.0268971482174,2.09794007118,0.0280371737082,-0.239325293326,-0.549360430353,-0.00166374088442,-0.687062358141,-0.0708254707814,0.171819174495,-0.220557723389,0.573762277857,0.81900420431,0.00311588401841,0.0,0.818973482555,-0.573696461004,-0.0116426974775,0.0,-0.00774799572227,0.0092321447583,-0.999927365395,0.0,0.55867082474,0.125829464998,0.304356249853,1.0,-0.146092,-0.192006628571,2.127
0.337779205882,0.0912977222163,-0.12636469187,-2.01573739092,0.025762787465,2.10053021836,0.0244629170639,-0.247347568891,-0.541605536279,-0.000746587205124,-0.694668070554,-0.0769069794375,0.154660353295,-0.219984375533,0.57372724121,0.819028529801,0.00317284824838,0.0,0.818997837836,-0.573660391256,-0.0117065804765,0.0,-0.00776803558789,0.00931511932092,-0.999926440382,0.0,0.556465638388,0.123008508348,0.304339323231,1.0,-0.147772,-0.194214628571,2.142
0.333442226478,0.0820711936703,-0.126454091676,-2.02767363994,0.0244321167826,2.10303599283,0.0205258969711,-0.260469952966,-0.549939230293,-0.00230921064847,-0.684862151149,-0.07979845311,0.152475289638,-0.238234337555,0.573699887774,0.819048357882,0.00299551645746,0.0,0.81901473076,-0.573632922906,-0.0118696022485,0.0,-0.00800360546342,0.00926313992691,-0.999925065462,0.0,0.553892110047,0.119666484367,0.304282891913,1.0,-0.149676,-0.196717028571,2.159
0.328751007368,0.0721508602743,-0.126580262867,-2.04013973793,0.0230243158864,2.10592797612,0.016357156124,-0.263381867747,-0.541351808187,-0.00987852319192,-0.700130272681,-0.0757881398533,0.154463050571,-0.23302626318,0.573762213535,0.819003798791,0.00323214898907,0.0,0.818973915655,-0.573695208128,-0.0116739260453,0.0,-0.00770686977208,0.00934528328764,-0.999926632228,0.0,0.551258168637,0.116112267597,0.304379924827,1.0,-0.151692,-0.199366628571,2.177
0.32467117855,0.0638680093352,-0.126698216166,-2.05080432404,0.0218103541475,2.10799578481,0.0127098234404,-0.275379027767,-0.551811109877,-0.00641860092411,-0.703218625196,-0.0844130044206,0.141195314521,-0.247314502311,0.573794048376,0.818982461998,0.00297722839034,0.0,0.818948374946,-0.573726881986,-0.0119067611862,0.0,-0.00804346749099,0.00927040354016,-0.999924678288,0.0,0.548895847713,0.113037934135,0.304290840701,1.0,-0.153372,-0.201574628571,2.192
0.319927455758,0.0543416145827,-0.126823712364,-2.06253172155,0.0204362885345,2.11060514298,0.00855017400369,-0.280434330059,-0.552899201132,-0.00729073459545,-0.688840460474,-0.0802261314487,0.155082148257,-0.240535184033,0.573885592074,0.818917253143,0.00325678013239,0.0,0.818887713346,-0.573818517745,-0.0116605542636,0.0,-0.00768037619053,0.00935894151159,-0.999926708332,0.0,0.546377648596,0.109560307957,0.304429457753,1.0,-0.155276,-0.204077028571,2.209
0.315446184537,0.0454233498366,-0.126840596207,-2.07389744786,0.0191717295175,2.11285209957,0.00458103291833,-0.281394464319,-0.56176309997,-0.000552586769628,-0.716739439854,-0.0799352642307,0.145740848412,-0.249778193194,0.573859488434,0.818936075299,0.00312073859516,0.0,0.818903735482,-0.573791646714,-0.0118560143398,0.0,-0.00791881657638,0.00935945101536,-0.999924843686,0.0,0.543813638946,0.106337098671,0.304339960667,1.0,-0.157068,-0.206432228571,2.225
0.310241390076,0.0351941954836,-0.12688954116,-2.0864167168,0.0176912820018,2.1154110949,-8.63044400579e-05,-0.297049438374,-0.569466177859,-0.00369727603218,-0.69929955296,-0.086250053059,0.149027736993,-0.255006401585,0.573780761443,0.818990495707,0.00330947740527,0.0,0.818961016031,-0.573712764648,-0.0117160062455,0.0,-0.00769675651743,0.00943293357618,-0.999925887105,0.0,0.541017335895,0.10265506398,0.304442780312,1.0,-0.159084,-0.209081828571,2.243
0.305165141745,0.0255613758232,-0.127001070611,-2.09838430612,0.016212699664,2.11772182768,-0.00456568854115,-0.296613119746,-0.572358992448,-0.00941128827321,-0.698124421735,-0.0862433205567,0.133920579892,-0.273569118682,0.573784317046,0.818988271199,0.00324284633915,0.0,0.818958065289,-0.573716713268,-0.0117289009168,0.0,-0.00774550626657,0.00938579527182,-0.999925954249,0.0,0.538295795186,0.0990680099953,0.304420510944,1.0,-0.15998,-0.210259428571,2.26
0.299646580936,0.0153062379071,-0.127126423791,-2.11085613333,0.0146802336303,2.12003846952,-0.00939448449023,-0.308647762142,-0.582262192935,-0.00308709136508,-0.679297729002,-0.089049702888,0.131376329092,-0.275533247767,0.573838019663,0.818950446623,0.00329242549515,0.0,0.818921054336,-0.57377044984,-0.0116843723389,0.0,-0.00767997335129,0.00940135464696,-0.999926313555,0.0,0.535432655196,0.0952418504137,0.304476143507,1.0,-0.15998,-0.210259428571,2.278
0.294957402731,0.00689809275886,-0.127221401963,-2.12120816724,0.0134637401463,2.12189290402,-0.0134880238128,-0.312445719099,-0.561420471378,-0.00416838204085,-0.683916778694,-0.0762525862971,0.125405265412,-0.274197265561,0.573906161882,0.818902895927,0.00324211310276,0.0,0.81887216911,-0.573837925055,-0.0117963268342,0.0,-0.00779974891947,0.00942504230795,-0.999925163447,0.0,0.53301808831,0.092049106047,0.304436142101,1.0,-0.15998,-0.210259428571,2.293
0.289320534146,-0.00320559200701,-0.127229558688,-2.13343554214,0.0120081096613,2.12402356119,-0.0184385341497,-0.312576927902,-0.563815292897,0.00304232339036,-0.653533251894,-0.076696709609,0.119222269076,-0.270159900788,0.573864572049,0.818931923964,0.00327166016725,0.0,0.818900999668,-0.573795533292,-0.0118568805861,0.0,-0.0078328648471,0.00948359207346,-0.999924350993,0.0,0.530124299912,0.0883165631349,0.304447727715,1.0,-0.15998,-0.210259428571,2.311
0.284598344382,-0.0116207251964,-0.127229265482,-2.14345906236,0.01072214747,2.12589602813,-0.0226140217553,-0.319321882721,-0.556895089657,0.000938114993457,-0.672267582618,-0.0810572485473,0.117123083244,-0.276781845645,0.573760312067,0.819004308749,0.00343415918872,0.0,0.818976291826,-0.57369171366,-0.0116789556624,0.0,-0.00759511256872,0.0095135993697,-0.999925900101,0.0,0.52776495967,0.0852311511653,0.304514949581,1.0,-0.15998,-0.210259428571,2.326
0.279418438786,-0.0204949364375,-0.127263281997,-2.1542550293,0.0093549138712,2.12748165425,-0.0271955332714,-0.328862535369,-0.556532282571,-0.00679641648355,-0.676427032809,-0.0837569884914,0.0917919025775,-0.297161637834,0.573678530813,0.819062627143,0.00317852204438,0.0,0.819030228896,-0.57360954242,-0.0119299581025,0.0,-0.00794830527922,0.00944744836714,-0.999923782177,0.0,0.525111406851,0.081860706046,0.304425645579,1.0,-0.15998,-0.210259428571,2.342
0.273807969399,-0.0299941277887,-0.127420392705,-2.16525469774,0.0079280947393,2.12940928837,-0.0320095347142,-0.333536471856,-0.547290176577,-0.0115041708226,-0.64038019102,-0.0868202441836,0.106160391616,-0.281511718539,0.573821569849,0.818961220646,0.00347447195531,0.0,0.818933770958,-0.573752888094,-0.0116554317582,0.0,-0.00755200370041,0.0095336841222,-0.999926035318,0.0,0.522492232659,0.0782332431992,0.304576327683,1.0,-0.15998,-0.210259428571,2.359
0.267766549431,-0.0398685352365,-0.127522296641,-2.17705947564,0.00644979147797,2.13115245186,-0.0372384550906,-0.338066469685,-0.549670243376,-0.00159841530717,-0.660474135209,-0.0728375938855,0.0900162771447,-0.302940387079,0.573894565547,0.81891055831,0.00335738375527,0.0,0.818880643578,-0.573825090928,-0.0118323072941,0.0,-0.0077631997993,0.00953997709833,-0.999924357922,0.0,0.519564091568,0.0744026085804,0.304511972722,1.0,-0.15998,-0.210259428571,2.377
0.262407661789,-0.0486360828276,-0.127533742554,-2.18729934758,0.00516020602228,2.13271166416,-0.0419177856916,-0.33523954607,-0.561378814851,-0.000957636021586,-0.616352442746,-0.0845239670313,0.100769449745,-0.286743987988,0.573859123459,0.818935042099,0.00344240423157,0.0,0.818906055975,-0.573789138629,-0.0118170546022,0.0,-0.00770233424312,0.00960051510792,-0.999924249209,0.0,0.517013303881,0.0710967326683,0.304540592867,1.0,-0.15998,-0.210259428571,2.393
0.255911050276,-0.0589476859396,-0.127566273551,-2.19931772621,0.00352760902663,2.13448793286,-0.0476181433131,-0.345889599275,-0.538577732513,-0.000343740343249,-0.648045883032,-0.0874409707432,0.0810928592912,-0.292197680764,0.573765403598,0.819000657606,0.00345418245349,0.0,0.818972233972,-0.573695903215,-0.011757445252,0.0,-0.0076478523155,0.00957507919073,-0.999924911288,0.0,0.513991633603,0.0671276823098,0.304549675386,1.0,-0.15998,-0.210259428571,2.412
0.250732877016,-0.0670513261668,-0.127601980621,-2.20887246642,0.00229036061098,2.13567385381,-0.0521798039437,-0.348039494683,-0.544817168318,-0.00196246175251,-0.625539154731,-0.0802970018756,0.084775860922,-0.313098244208,0.573700717313,0.819046683258,0.00328092978864,0.0,0.819014900592,-0.573630484861,-0.0119752388938,0.0,-0.00792639095935,0.0095575175399,-0.999922910121,0.0,0.511512593709,0.0639971693561,0.304465472203,1.0,-0.15998,-0.210259428571,2.427
0.243945248903,-0.0773185768968,-0.127791200163,-2.22045431096,0.000741173111979,2.13734634347,-0.0580113150816,-0.362274592096,-0.542580261976,-0.0132027234432,-0.616579227937,-0.078375585632,0.0805376449542,-0.318227685393,0.573877700605,0.818921572451,0.00354821423966,0.0,0.81889407791,-0.573807499492,-0.0117554069128,0.0,-0.00759091052184,0.00965196334699,-0.999924605998,0.0,0.50857738606,0.0599140384469,0.304581219362,1.0,-0.15998,-0.210259428571,2.446
0.238969405048,-0.084812108912,-0.127829202136,-2.2291347224,-0.000391089456503,2.13834351339,-0.0623537007706,-0.355828498852,-0.53126805801,0.00134250234486,-0.617757052531,-0.0818135205108,0.0721796912098,-0.306439641961,0.573860483745,0.81893409611,0.0034406868201,0.0,0.818904253384,-0.573789467705,-0.0119254954335,0.0,-0.00779211498684,0.00966134966085,-0.999922967666,0.0,0.506279794719,0.0569921164769,0.304522600224,1.0,-0.15998,-0.210259428571,2.46
0.232881225772,-0.0939096901245,-0.127842308898,-2.23941321515,-0.00176851656388,2.1395555403,-0.0677307712248,-0.369483335598,-0.540002611713,-0.00652498467567,-0.595907262251,-0.08725963657,0.0817051704237,-0.320360865969,0.57375515449,0.819007713386,0.00348353436924,0.0,0.818978219093,-0.573683737614,-0.0119328433378,0.0,-0.00777479340813,0.00969965589511,-0.999922731646,0.0,0.503554995013,0.0534830987108,0.304546010281,1.0,-0.15998,-0.210259428571,2.477
0.227015846076,-0.10239356579,-0.127907521396,-2.24891840079,-0.00315279374001,2.1406782248,-0.0728283034575,-0.367335841891,-0.530349696879,-0.00319901948355,-0.592316959856,-0.0840929295966,0.0646226883072,-0.318079808204,0.573728186406,0.819026469082,0.00351539019351,0.0,0.818998066292,-0.573657508987,-0.011831174665,0.0,-0.00767356296927,0.00966716227716,-0.999923828301,0.0,0.500867587421,0.0499072371068,0.304583895119,1.0,-0.15998,-0.210259428571,2.494
0.220284935221,-0.111902067075,-0.128060342115,-2.25972034301,-0.00463807846925,2.14170639781,-0.0786279395776,-0.382702597616,-0.519060866592,-0.0051647471487,-0.592133153336,-0.0936673087185,0.0499798403416,-0.322635160907,0.573844652295,0.818945555225,0.00335253795953,0.0,0.818913854376,-0.573773096668,-0.0120531967757,0.0,-0.00794746885234,0.00966228832414,-0.999921735899,0.0,0.498073017404,0.0462683175199,0.304502034561,1.0,-0.15998,-0.210259428571,2.511
0.213850901292,-0.120908231252,-0.12814853079,-2.26945617532,-0.00601843936178,2.14284256341,-0.0842070465693,-0.382451617928,-0.523462993675,0.00252547057269,-0.57409043443,-0.0855464656397,0.0743108441248,-0.329807309061,0.57388897503,0.818913261393,0.00364164176201,0.0,0.818886557798,-0.573817917968,-0.0117706999743,0.0,-0.0075496883659,0.00973735390513,-0.999924090191,0.0,0.495451021197,0.0426853681983,0.304641247234,1.0,-0.15998,-0.210259428571,2.528
0.207820718622,-0.129216342927,-0.128155266046,-2.27872453933,-0.00728641634936,2.14364121139,-0.0895405713007,-0.375490557136,-0.516708095724,-0.000544600720842,-0.581894693591,-0.0921282398641,0.0474157885067,-0.334012972486,0.573783337509,0.818987626216,0.00356322924174,0.0,0.818959044398,-0.573711471683,-0.011915442073,0.0,-0.00771448265419,0.00975520875336,-0.999922658339,0.0,0.49285352011,0.0393963272104,0.304595715471,1.0,-0.15998,-0.210259428571,2.544
0.201225821948,-0.138045622022,-0.128221973332,-2.28847575143,-0.00870079823697,2.14446322079,-0.0953193418464,-0.386931748846,-0.520802020739,-0.00183645192863,-0.570207981666,-0.0739221501329,0.0469288979248,-0.343186474882,0.573742566534,0.819016494703,0.00349222739338,0.0,0.818986685329,-0.573670585509,-0.0119839675116,0.0,-0.00781182933242,0.00973598746261,-0.9999220899,0.0,0.490104318401,0.0358142975027,0.304565089101,1.0,-0.15998,-0.210259428571,2.561
0.194562622097,-0.146912251047,-0.128364072527,-2.29787797998,-0.0100474016093,2.14538689192,-0.101121689017,-0.391758766747,-0.511743959387,-0.0132003920846,-0.559230787976,-0.0816606679197,0.0503927232223,-0.342795783044,0.573824420212,0.818957844029,0.00378568005978,0.0,0.818932912442,-0.573752768039,-0.0117214754909,0.0,-0.00742749288588,0.00982647606461,-0.999924133481,0.0,0.487475398775,0.0322217836695,0.304693935561,1.0,-0.15998,-0.210259428571,2.578
0.187770125881,-0.155622271393,-0.128481917524,-2.30743024441,-0.0114400588918,2.14597105483,-0.107057596437,-0.393926287161,-0.508276756317,-0.00255472334611,-0.564558387514,-0.0814073426357,0.0363580172679,-0.346704450687,0.573849958459,0.818940659782,0.00362875092922,0.0,0.818912691419,-0.573777543459,-0.0119197884023,0.0,-0.0076796514417,0.0098119891806,-0.999922370898,0.0,0.48469200915,0.0286070069207,0.304625071048,1.0,-0.15998,-0.210259428571,2.595
0.180984592391,-0.164319634465,-0.128495051723,-2.31669407902,-0.0127776350808,2.14657683899,-0.113008187201,-0.407450106399,-0.515554927858,-0.000993790983986,-0.528525532066,-0.0687713435672,0.0389573680996,-0.349652879827,0.573792272381,0.818980837236,0.00368283826542,0.0,0.818953527487,-0.573719614701,-0.0119025386055,0.0,-0.00763518148262,0.00984584762525,-0.999922378632,0.0,0.481982318068,0.0250995303348,0.304659432389,1.0,-0.15998,-0.210259428571,2.612
0.173258855837,-0.17395167593,-0.128553065964,-2.32690855631,-0.0142205952893,2.14726341777,-0.119846344064,-0.407446115182,-0.500218834121,-0.00517571052426,-0.544769808801,-0.0732475558212,0.0264939919878,-0.362762775719,0.573740668754,0.819016390863,0.00381358323936,0.0,0.818990705094,-0.573667459871,-0.0118582189006,0.0,-0.00752449190587,0.00992702279433,-0.99992241511,0.0,0.478973563231,0.0211485606269,0.304690595369,1.0,-0.15998,-0.210259428571,2.631
0.166557988439,-0.182024747834,-0.128727348038,-2.33553097207,-0.0155683297464,2.14763237665,-0.125655543856,-0.423732681246,-0.500802703788,-0.0157795515505,-0.539639394337,-0.0754809926934,0.0208361084802,-0.371283579485,0.573846820808,0.818942601093,0.00368636206026,0.0,0.818914772388,-0.573773414988,-0.0119754214678,0.0,-0.00769219435641,0.00989106431829,-0.999921495415,0.0,0.476366763697,0.0176927072082,0.304646765631,1.0,-0.15998,-0.210259428571,2.647
0.159854191196,-0.190083022876,-0.128808631059,-2.34386163382,-0.0167752442915,2.14806825629,-0.131558182905,-0.417088978337,-0.506684372106,-0.00339851655877,-0.50319862874,-0.0747429203369,0.0316039520141,-0.372503057424,0.573864572652,0.818929410091,0.00384973298197,0.0,0.818903938795,-0.573790881287,-0.0118789931981,0.0,-0.0075192599808,0.00996968680477,-0.999922029998,0.0,0.473848679547,0.0143377146839,0.304713998141,1.0,-0.15998,-0.210259428571,2.663
0.152295125665,-0.19904621574,-0.128835100464,-2.35317745304,-0.0182380094413,2.14849009844,-0.138308845348,-0.430480834747,-0.491565699368,-0.0018527720642,-0.5236047791,-0.0818563259364,0.0167909735491,-0.377490743193,0.573700981764,0.819043893387,0.00387700004324,0.0,0.819019353055,-0.573627989284,-0.0117888138975,0.0,-0.00743174337783,0.00993878352639,-0.999922991921,0.0,0.47098880506,0.0106163607316,0.304737038885,1.0,-0.15998,-0.210259428571,2.681
0.145416944029,-0.20692713374,-0.128943697386,-2.36151404984,-0.0194503744167,2.1486707183,-0.144349604173,-0.439248281252,-0.48696194384,-0.00651995566828,-0.515126037779,-0.0846586159577,0.0149542750063,-0.383071999233,0.573751645812,0.819008932207,0.00376361447723,0.0,0.818981464414,-0.573677134575,-0.0120271823009,0.0,-0.00769141824843,0.00998313834204,-0.999920586364,0.0,0.468359246833,0.00724629012249,0.304652827969,1.0,-0.15998,-0.210259428571,2.697
0.137939877681,-0.215323899256,-0.129131556692,-2.36996348294,-0.0207195527464,2.1489275342,-0.150866674453,-0.440096478473,-0.496109971148,-0.00932886198891,-0.485719101661,-0.0748570036832,0.0224782769661,-0.378304834828,0.573929198587,0.818883568002,0.00396534559984,0.0,0.818859096337,-0.573854417918,-0.0119010202219,0.0,-0.00747016263493,0.0100775963378,-0.999921316266,0.0,0.465697913208,0.00359842002955,0.30474143507,1.0,-0.15998,-0.210259428571,2.714
0.130558894954,-0.223597771638,-0.129144931901,-2.37839782528,-0.0220603358972,2.14912399079,-0.157469609457,-0.431962307423,-0.478052418872,0.000441012940157,-0.499490682597,-0.0807966700804,0.010750472166,-0.397486445591,0.57377851722,0.818989075072,0.0039818324872,0.0,0.818965224565,-0.573704252671,-0.0118380032961,0.0,-0.00741094382247,0.0100535678775,-0.9999219988,0.0,0.462996993667,0.000107753153181,0.304754738555,1.0,-0.15998,-0.210259428571,2.731
0.124754017445,-0.229866845213,-0.129205695492,-2.38489012786,-0.0230644803278,2.14914630025,-0.162585501951,-0.450073894106,-0.481679342665,-0.00487502580365,-0.493932013816,-0.0848855356835,0.00659873708474,-0.397714754067,0.573788489908,0.818982574639,0.00388048828048,0.0,0.818956528099,-0.573713407252,-0.0119949290999,0.0,-0.00759749603899,0.0100606971639,-0.999920527055,0.0,0.460547104091,-0.00304666950717,0.304691060233,1.0,-0.15998,-0.210259428571,2.746
0.115704679625,-0.239508566333,-0.129377441661,-2.39454845747,-0.0246027434902,2.14918441085,-0.170603338451,-0.458163071309,-0.476131268583,-0.0111416061147,-0.467509339907,-0.0831169038239,0.00461188670507,-0.410931504165,0.573832498869,0.818951492734,0.00393226285032,0.0,0.818926209766,-0.573757339625,-0.0119634896838,0.0,-0.00754149826039,0.0100854664688,-0.999920701441,0.0,0.457680508025,-0.0068718382137,0.30471949231,1.0,-0.15998,-0.210259428571,2.764
0.107931637713,-0.247675660514,-0.129486468922,-2.4025420258,-0.0258305869933,2.149238927,-0.177522990244,-0.452706134694,-0.475358997466,-0.00244249747749,-0.476179854511,-0.0725216794608,-9.09193761555e-05,-0.409522625275,0.573858567261,0.818932160463,0.00414828172279,0.0,0.818910306151,-0.573783498974,-0.0117963421064,0.0,-0.00728032849405,0.0101666983762,-0.999921814474,0.0,0.454857206997,-0.0106540029734,0.304808477246,1.0,-0.15998,-0.210259428571,2.782
0.100096906884,-0.255674451355,-0.129527092903,-2.41067939484,-0.0270917642221,2.14915979476,-0.184527577771,-0.469793065614,-0.469048668317,-0.00386176413335,-0.476038903496,-0.0781871488738,-0.0150330624845,-0.414072392923,0.573785444798,0.818983893261,0.00404880457108,0.0,0.818959824566,-0.57370946323,-0.01195844675,0.0,-0.00747108162098,0.0101775869189,-0.999920296656,0.0,0.452246588537,-0.0139758831645,0.304720210858,1.0,-0.15998,-0.210259428571,2.798
0.0921265169212,-0.263662685862,-0.129635930171,-2.41854494827,-0.028360034377,2.14904709903,-0.191563257326,-0.471206050925,-0.476902781463,-0.00787721439145,-0.461645133796,-0.0641737833583,-0.00813758573968,-0.412415152967,0.573848419736,0.818939563356,0.004090187927,0.0,0.818916090586,-0.573772358411,-0.0119358369163,0.0,-0.00742803531204,0.0101990782235,-0.999920398379,0.0,0.449532182159,-0.0175573656038,0.304727957521,1.0,-0.15998,-0.210259428571,2.815
0.0849756587626,-0.270694189347,-0.129780903752,-2.42519039097,-0.0294578179357,2.14897852192,-0.197940251757,-0.478658798915,-0.467500410871,-0.00488864156788,-0.454947473686,-0.0726419191502,-0.000592612797014,-0.423415767446,0.573912296693,0.818893625301,0.00431891738664,0.0,0.818874409103,-0.573837269804,-0.0116720521716,0.0,-0.00707994966683,0.0102355822586,-0.999922550585,0.0,0.447220962522,-0.0207592226019,0.304845316807,1.0,-0.15998,-0.210259428571,2.83
0.0769406513724,-0.278514772416,-0.129818339631,-2.4329245852,-0.0307151583775,2.1487198425,-0.205219474404,-0.47239298813,-0.452051812664,-0.00304009458145,-0.462425589183,-0.0764436153254,-0.0145754261644,-0.434577649471,0.573768375895,0.818994897178,0.00423746627936,0.0,0.818974076083,-0.573692849293,-0.0117781269701,0.0,-0.0072153607013,0.0102284887439,-0.999921655225,0.0,0.444465410717,-0.0242555828398,0.304788419064,1.0,-0.15998,-0.210259428571,2.847
0.0691537303255,-0.285813519142,-0.129895402202,-2.4400359573,-0.0319112967522,2.14844740792,-0.212164569772,-0.485162487015,-0.451868767608,-0.00777446852518,-0.451763627916,-0.0710711526665,-0.0107675920766,-0.432122589126,0.573765649914,0.818997015389,0.00419698275168,0.0,0.818975556631,-0.573690100764,-0.0118090146312,0.0,-0.0072639201329,0.0102130298724,-0.999921461658,0.0,0.441891873911,-0.0276286696098,0.304762484331,1.0,-0.15998,-0.210259428571,2.863
0.06077207622,-0.293573202638,-0.130074609294,-2.44734985293,-0.0330343805449,2.14814772763,-0.219671761818,-0.500225637052,-0.459805475158,-0.00966043041865,-0.412741876741,-0.0656355624114,-0.0151649815473,-0.44466662372,0.573897676033,0.818903262,0.00443303861536,0.0,0.818885032427,-0.573821572309,-0.0116984495389,0.0,-0.00703626076922,0.0103440611291,-0.999921742655,0.0,0.439057520889,-0.0314590725747,0.304838436428,1.0,-0.15998,-0.210259428571,2.881
0.0524117778971,-0.301230905432,-0.130141851325,-2.45448994406,-0.0342324114644,2.14782338941,-0.227261963712,-0.49206472161,-0.450591272991,-0.000988933278655,-0.426016281209,-0.0749901396617,-0.0204883251959,-0.441654700802,0.573806265599,0.818966690797,0.00454706770723,0.0,0.818950777933,-0.573731081174,-0.0115332874456,0.0,-0.0068367158095,0.010341896349,-0.999923149295,0.0,0.436553601568,-0.034777564984,0.304902636819,1.0,-0.15998,-0.210259428571,2.897
0.0438733883412,-0.308714328128,-0.130209444549,-2.46176144959,-0.0354945566188,2.14727198026,-0.234882431827,-0.500296727423,-0.43934622818,-0.00268059224842,-0.420859573484,-0.0698217978478,-0.0372282654746,-0.452564290981,0.573805864815,0.818968045779,0.00434929868128,0.0,0.818948534982,-0.573729761828,-0.0117560343827,0.0,-0.00713263173322,0.0103077317148,-0.99992143503,0.0,0.433765520137,-0.038341624964,0.304806957966,1.0,-0.15998,-0.210259428571,2.914
0.0352129782739,-0.316223487318,-0.130385947366,-2.46882161819,-0.0366214227159,2.14680100059,-0.242717472656,-0.515734835243,-0.437919653587,-0.0134439880502,-0.409005028789,-0.0699507927296,-0.0264609936705,-0.462225783892,0.573876172089,0.818918279341,0.00444272113139,0.0,0.818899523134,-0.573799083259,-0.0117868555352,0.0,-0.00710337890339,0.0104025380325,-0.999920661458,0.0,0.431033464423,-0.0419487015596,0.304805092842,1.0,-0.15998,-0.210259428571,2.931
0.0265865539859,-0.323632505079,-0.130468051414,-2.4755373561,-0.0378046519223,2.14636772926,-0.250609015432,-0.503403281096,-0.433874732295,-0.000732943280034,-0.387353892747,-0.0778270751387,-0.0144411146245,-0.462959155768,0.573778658539,0.818985725393,0.00460211996409,0.0,0.818970457121,-0.573703215969,-0.0115220333029,0.0,-0.00679626062795,0.0103802969558,-0.999923027176,0.0,0.428403989672,-0.0454823472883,0.304902903529,1.0,-0.15998,-0.210259428571,2.948
0.0182581030401,-0.330487900626,-0.130526395232,-2.4819212356,-0.0388664307835,2.14581602235,-0.258116448362,-0.521336370883,-0.420631012968,-0.00641832328659,-0.405164723591,-0.063243890016,-0.0417394186051,-0.467433369578,0.573795269859,0.818974052418,0.00460832462965,0.0,0.818958575334,-0.573719365264,-0.0115623834103,0.0,-0.00682553832843,0.0104086682816,-0.999922532825,0.0,0.425839796027,-0.048836471482,0.304888360002,1.0,-0.15998,-0.210259428571,2.964
0.0092996410973,-0.337710047808,-0.130691065618,-2.48866407223,-0.0399610026433,2.14510687595,-0.266214178576,-0.533593616749,-0.428840481949,-0.0157224889503,-0.383267802566,-0.0560185037854,-0.0378643229331,-0.464917422911,0.573894271806,0.818904781813,0.00459020839937,0.0,0.818887764175,-0.573816431753,-0.0117592191377,0.0,-0.00699587846982,0.0105076163014,-0.999920320668,0.0,0.423064363233,-0.0524368492797,0.304836025559,1.0,-0.15998,-0.210259428571,2.981
0.000366318199588,-0.344874619007,-0.130782095068,-2.49519443873,-0.0410689142805,2.14445558787,-0.274441013487,-0.525572352677,-0.412602567967,-0.00440966198193,-0.381586201711,-0.0668121086,-0.0483792483985,-0.498446147825,0.573806179656,0.818966219373,0.00464183309689,0.0,0.818949836296,-0.573728131556,-0.0117449390064,0.0,-0.00695569198379,0.0105409499823,-0.999920250181,0.0,0.420350169205,-0.0559661575108,0.304845220086,1.0,-0.15998,-0.210259428571,2.998
-0.00876622075597,-0.351956366089,-0.130887898468,-2.5014219638,-0.0422188360284,2.14378933146,-0.282732490167,-0.540037486286,-0.421335217871,-0.00101996360717,-0.360875947437,-0.0639210173598,-0.0338894464621,-0.494892291886,0.573826301021,0.818951488385,0.00475213952354,0.0,0.818937754924,-0.573749787932,-0.0115274155524,0.0,-0.00671398434504,0.0105066429847,-0.999922263412,0.0,0.417695058607,-0.0595631628238,0.304938705196,1.0,-0.15998,-0.210259428571,3.015
-0.019118898207,-0.359690891811,-0.1310720257,-2.50842725267,-0.0434341851161,2.14295086561,-0.292142303989,-0.545565586992,-0.404749977809,-0.0147568564225,-0.373030170496,-0.0642559024685,-0.0550102035362,-0.48750670006,0.573927099785,0.818880707975,0.0047767290049,0.0,0.818866795194,-0.573849718602,-0.0115939247031,0.0,-0.00675304669088,0.0105657757757,-0.999921377281,0.0,0.414641168691,-0.063599954272,0.304919662989,1.0,-0.15998,-0.210259428571,3.034
-0.0271839922992,-0.36573026568,-0.131116528235,-2.51392611336,-0.0444322743214,2.1422120774,-0.299713667347,-0.543734241501,-0.401459914033,-0.00475310942032,-0.369811408367,-0.0586488637152,-0.0411753828412,-0.507465326611,0.573704170335,0.819037456752,0.00468148248095,0.0,0.819021755467,-0.573626265564,-0.0117054870817,0.0,-0.00690194394043,0.0105499258731,-0.999920527959,0.0,0.412210428175,-0.0666675731529,0.304873143641,1.0,-0.15998,-0.210259428571,3.049
-0.0372039890756,-0.372872797251,-0.13121782722,-2.52028897566,-0.0455442071853,2.14135743853,-0.308834006512,-0.555760566917,-0.395577869199,-0.00657745940731,-0.346595933129,-0.059224762348,-0.0418258376855,-0.50558912694,0.573767808538,0.818992728684,0.0047073505723,0.0,0.818977133083,-0.573689457968,-0.0117306523611,0.0,-0.0069068945673,0.010586086989,-0.999920111594,0.0,0.409325245521,-0.0704666874596,0.304867469758,1.0,-0.15998,-0.210259428571,3.067
-0.0456601842201,-0.378745677417,-0.131369048848,-2.52537067227,-0.0464293014195,2.14062833819,-0.316487674049,-0.564653246782,-0.39139522749,-0.00483402874655,-0.331711488058,-0.0619717954546,-0.0532488070024,-0.519287149667,0.573938195486,0.818872645818,0.00482541137757,0.0,0.81885878639,-0.573859757457,-0.0116624878717,0.0,-0.00678111345497,0.0106450826992,-0.999920346185,0.0,0.406954631242,-0.0736718152779,0.30491496548,1.0,-0.15998,-0.210259428571,3.082
-0.0551051536752,-0.385308436062,-0.131444187179,-2.53103102666,-0.047470949341,2.13982453907,-0.325351117495,-0.564872296985,-0.383688252694,-0.00504168664075,-0.342626007429,-0.0704220796064,-0.0462715283762,-0.522266866586,0.573772831771,0.818988063036,0.00490275706998,0.0,0.818975980677,-0.573695417921,-0.0115177007998,0.0,-0.00662029766366,0.0106239886275,-0.999921648193,0.0,0.404292530595,-0.077182873267,0.304966206466,1.0,-0.15998,-0.210259428571,3.099
-0.0648731056241,-0.391760127755,-0.131575983857,-2.53679028404,-0.0485413718756,2.13885659968,-0.334301571194,-0.579878850357,-0.3804535332,-0.0102735193397,-0.336587004955,-0.052899612996,-0.0621524192491,-0.525987027269,0.573823934219,0.818952843173,0.00480417297285,0.0,0.818938466663,-0.573745204608,-0.0117036281075,0.0,-0.00682847977822,0.0106503490255,-0.999919967762,0.0,0.401500583661,-0.080788336598,0.304898675555,1.0,-0.15998,-0.210259428571,3.116
-0.0741055915328,-0.397777327861,-0.131696738832,-2.54195679494,-0.0494842963558,2.13799281975,-0.342816068276,-0.57015156503,-0.372125008105,-0.000488155315514,-0.321395832682,-0.0538191445459,-0.0578936041234,-0.551002855644,0.573862632999,0.81892541313,0.00485727058675,0.0,0.818911801899,-0.573783847815,-0.0116749132466,0.0,-0.00677399016688,0.0106776782426,-0.999920046926,0.0,0.398938872252,-0.0841681005901,0.304920015485,1.0,-0.15998,-0.210259428571,3.132
-0.0837934291196,-0.403962887565,-0.131752684455,-2.54732830488,-0.0504564675515,2.137042195,-0.351957513485,-0.586392805552,-0.363996132732,-0.00166484494401,-0.307926071068,-0.0493782865544,-0.0547198946428,-0.543653657173,0.573687301182,0.819048352734,0.00483975700882,0.0,0.819034093573,-0.573607941317,-0.0117401074698,0.0,-0.00683972431566,0.0106992825591,-0.999919368511,0.0,0.396232738589,-0.0876453332053,0.304898764667,1.0,-0.15998,-0.210259428571,3.149
-0.0939083051969,-0.410075977733,-0.131915666989,-2.55245306642,-0.0514643837829,2.13613326803,-0.361210383649,-0.603707216987,-0.35079651441,-0.0146065057796,-0.294333382697,-0.0559770574205,-0.0462106798545,-0.549608701034,0.57384194514,0.818939596996,0.00490972211439,0.0,0.818926975565,-0.573763491721,-0.0116108208707,0.0,-0.0066916704963,0.0106836856092,-0.999920537047,0.0,0.393540025886,-0.0913129223605,0.304949417226,1.0,-0.15998,-0.210259428571,3.166
-0.1044863134,-0.416443465795,-0.131999149208,-2.55780776475,-0.0523867716198,2.13515849374,-0.371135351398,-0.578160825564,-0.353746756414,-7.4117377213e-05,-0.301853030573,-0.0526210896172,-0.0652404514696,-0.55000296269,0.573790498189,0.818974897837,0.00503267357497,0.0,0.818964050329,-0.573711976545,-0.0115411931479,0.0,-0.00656476876735,0.0107440125565,-0.999920731861,0.0,0.39069701417,-0.0950508106777,0.304981772768,1.0,-0.15998,-0.210259428571,3.184
-0.114602679805,-0.422347220008,-0.132114226621,-2.56286952909,-0.0533280659303,2.13405494849,-0.380636795674,-0.603986069348,-0.338342190173,-0.00653969401548,-0.293889581389,-0.0549240092361,-0.066590654106,-0.553901247834,0.573733500396,0.819015145862,0.00498079039841,0.0,0.819002511586,-0.573653346098,-0.0117248210388,0.0,-0.00674568881042,0.0108064105189,-0.999918855295,0.0,0.387922014135,-0.0985957837451,0.304938357962,1.0,-0.15998,-0.210259428571,3.201
-0.124373960491,-0.427760331421,-0.132277554118,-2.56744070814,-0.0542267608946,2.13311208554,-0.389583600959,-0.606097162554,-0.336267060494,-0.00308684399273,-0.28224018526,-0.0549948237092,-0.0540817301462,-0.555209024884,0.573922572331,0.818882647429,0.00498373460916,0.0,0.81886980191,-0.573841976374,-0.011763527192,0.0,-0.00677320257734,0.0108325921188,-0.999918386007,0.0,0.385332369229,-0.1020305168,0.304925243446,1.0,-0.15998,-0.210259428571,3.217
-0.135709804068,-0.433968729658,-0.13233233879,-2.57264238412,-0.0551788297938,2.13205545171,-0.400423534435,-0.601045584604,-0.324350916587,-0.00813303106149,-0.27951110168,-0.0427535956956,-0.0605614430708,-0.577419022045,0.573706160484,0.819033997241,0.00502987941569,0.0,0.819021765845,-0.573625472969,-0.011743540118,0.0,-0.00673322128121,0.0108571310661,-0.999918389888,0.0,0.382347517464,-0.105918597502,0.304922708702,1.0,-0.15998,-0.210259428571,3.236
-0.144991022822,-0.438778916762,-0.132451209703,-2.57664080068,-0.0559599576626,2.1311154573,-0.40907823142,-0.629649153867,-0.324456474172,-0.0118373162067,-0.264413503584,-0.0533215668154,-0.0657078583755,-0.579244132008,0.573773571192,0.818986782398,0.00502853453649,0.0,0.818974094486,-0.57369217011,-0.011809886357,0.0,-0.00678744061657,0.0108946499448,-0.999917615233,0.0,0.379932476689,-0.109111133504,0.304914674232,1.0,-0.15998,-0.210259428571,3.251
-0.155518002821,-0.444208921673,-0.132561150812,-2.58095548682,-0.0568308248264,2.13013742912,-0.418930871712,-0.608078934679,-0.317709627427,0.000882944996274,-0.2579681124,-0.0391872035439,-0.0571026269005,-0.587702468245,0.573815948927,0.8189565032,0.00512342907248,0.0,0.81894613196,-0.57373599749,-0.0116183058994,0.0,-0.00657551808214,0.0108627907883,-0.999919377919,0.0,0.37725600588,-0.112708996852,0.304994807015,1.0,-0.15998,-0.210259428571,3.268
-0.164767024656,-0.448907527411,-0.132625701996,-2.58479626608,-0.0575996045625,2.12922589069,-0.427700441766,-0.62333988908,-0.3144365041,-0.00885444668594,-0.260794605074,-0.0515169222826,-0.06029868686,-0.581953970261,0.573731914282,0.819015376858,0.00512346624404,0.0,0.819005104083,-0.573652139277,-0.0116021330416,0.0,-0.00656336435914,0.0108528679555,-0.999919565518,0.0,0.374852359119,-0.115813898688,0.305003229411,1.0,-0.15998,-0.210259428571,3.283
-0.175540700147,-0.454006356804,-0.132807016402,-2.58904541242,-0.0583939257483,2.12815811172,-0.437785791206,-0.639915949546,-0.30633885153,-0.0113613480813,-0.24815820832,-0.0458028447994,-0.0608369433459,-0.583917374158,0.573872438546,0.81891673572,0.00515277938599,0.0,0.818905718736,-0.573790690977,-0.0117649339229,0.0,-0.00667801301219,0.0109714230601,-0.999917512607,0.0,0.372076492346,-0.119433938543,0.304958535728,1.0,-0.15998,-0.210259428571,3.3
-0.186137609803,-0.458933678638,-0.132843855794,-2.59299496379,-0.0591286676907,2.12718251786,-0.447986583885,-0.62827982761,-0.283217753013,-0.0035382633609,-0.232957311616,-0.0432404818999,-0.0509268377947,-0.605842198094,0.573705491117,0.819033239617,0.00522577894022,0.0,0.81902342691,-0.573623955612,-0.0117017358309,0.0,-0.00658660543246,0.0109935971385,-0.999917875353,0.0,0.369418516766,-0.122931274338,0.304986785079,1.0,-0.15998,-0.210259428571,3.317
-0.197028222554,-0.4636832995,-0.132986413995,-2.59690647582,-0.0599174045679,2.12618732939,-0.458260028088,-0.652338159246,-0.286234419306,-0.0107867104235,-0.229386270524,-0.042203103254,-0.0629266021505,-0.612672219587,0.573774413024,0.818984926164,0.0052307337863,0.0,0.818974617493,-0.573691915764,-0.0117859488347,0.0,-0.00665181281742,0.0110465267563,-0.99991686036,0.0,0.366682327523,-0.126536476313,0.304952286634,1.0,-0.15998,-0.210259428571,3.334
-0.207340955469,-0.46807697747,-0.133093712108,-2.60049141476,-0.0606663935257,2.12521942984,-0.467968224961,-0.633794521224,-0.275731019227,-0.0049765894473,-0.214869132972,-0.0463449221653,-0.0601830430564,-0.612164478413,0.57383911985,0.818939733281,0.00520813647257,0.0,0.818928641552,-0.573755880844,-0.0118665978333,0.0,-0.00672995910778,0.0110748234075,-0.999916024443,0.0,0.364094069088,-0.129914189999,0.304925808918,1.0,-0.15998,-0.210259428571,3.35
-0.21821073026,-0.472692349345,-0.133181223381,-2.60402961527,-0.0613972697207,2.12425336236,-0.478415476172,-0.648055455859,-0.274447439333,-0.00469493767715,-0.206961494426,-0.0370266137999,-0.0616767049714,-0.619983344946,0.573747847843,0.819003091742,0.00529997296605,0.0,0.8189941506,-0.573665908197,-0.0116941847215,0.0,-0.00653728550034,0.0110503729277,-0.999917573181,0.0,0.361426644662,-0.133452672315,0.304999850048,1.0,-0.15998,-0.210259428571,3.367
-0.230718199484,-0.477635627856,-0.133333374435,-2.60784616373,-0.0622442734114,2.1231859707,-0.490207390173,-0.65167120443,-0.256604647746,-0.000824403762573,-0.201001605897,-0.0473879040236,-0.0544189888119,-0.636339880449,0.573877339728,0.818911989634,0.00535715238085,0.0,0.818904585725,-0.573796554443,-0.0115559720191,0.0,-0.00638953147883,0.0110189192797,-0.999918875362,0.0,0.35839014546,-0.13752522608,0.305055409321,1.0,-0.15998,-0.210259428571,3.386
-0.240998271129,-0.48154263652,-0.133365971165,-2.6110270986,-0.0628418546349,2.12228471585,-0.500254140214,-0.649355269627,-0.240845535087,-0.00300011320291,-0.193030037298,-0.0394965752952,-0.0525653735541,-0.62042001226,0.573666539356,0.819059579373,0.00537158837502,0.0,0.819051648184,-0.573584518341,-0.011659538074,0.0,-0.00646892096653,0.0110885086575,-0.999917595623,0.0,0.355854385968,-0.140781419155,0.305016607293,1.0,-0.15998,-0.210259428571,3.402
-0.252996346721,-0.485809362902,-0.133523814389,-2.61446236502,-0.0636193407901,2.12123322756,-0.511595017145,-0.673191293559,-0.232575240239,-0.0132604615707,-0.181939169142,-0.0440942189195,-0.052137034298,-0.635079506013,0.573800751737,0.818965792086,0.00533625333715,0.0,0.818956634541,-0.573717518676,-0.0117892496404,0.0,-0.0065936170938,0.0111350547644,-0.999916263879,0.0,0.352919727863,-0.144620277599,0.304977515981,1.0,-0.15998,-0.210259428571,3.42
-0.262873528848,-0.489197868791,-0.133551856722,-2.6171758235,-0.0641721273804,2.12040509938,-0.521136672522,-0.650827959337,-0.228503653452,-0.000729133673483,-0.179603452649,-0.0325166791348,-0.0502752769126,-0.634386249944,0.573712160127,0.819027884736,0.00533181468761,0.0,0.819018141796,-0.573628070805,-0.0118687275845,0.0,-0.00666246854809,0.0111763014768,-0.999915347316,0.0,0.350530791163,-0.147721090361,0.304952195784,1.0,-0.15998,-0.210259428571,3.435
-0.273526503774,-0.492644408284,-0.133661379501,-2.61990659276,-0.0647452755399,2.11959083575,-0.531408243548,-0.67588382781,-0.214863782029,-0.00618423692562,-0.162281687411,-0.0392337004456,-0.0529851375376,-0.652248242605,0.573709362618,0.819029556276,0.00537588048649,0.0,0.819020084627,-0.573624606171,-0.0119020617588,0.0,-0.00666453134706,0.0112314945975,-0.999914715139,0.0,0.347986272303,-0.151084168504,0.304936510844,1.0,-0.15998,-0.210259428571,3.451
-0.286327272616,-0.496702761941,-0.13377292717,-2.62301581535,-0.0654125263889,2.11859115603,-0.543663929162,-0.660178700064,-0.208973893051,-0.00201313117937,-0.152722477613,-0.032251388162,-0.0444291571845,-0.650537337531,0.573779300402,0.818980130852,0.00544119489491,0.0,0.818971578929,-0.573694411055,-0.0118752908317,0.0,-0.00660417128935,0.0112701970261,-0.999914680151,0.0,0.344937861528,-0.15509270825,0.304958572352,1.0,-0.15998,-0.210259428571,3.47
-0.297688429791,-0.500146090941,-0.133806987044,-2.62563080301,-0.0659817404016,2.11772684852,-0.554709451213,-0.675554562593,-0.196402768253,-0.00438203918516,-0.149435340361,-0.0390355627605,-0.0408519962803,-0.655378397784,0.573673812751,0.81905380434,0.0054744006153,0.0,0.819045898026,-0.573589189668,-0.0118323845422,0.0,-0.00655142869614,0.011271931542,-0.999915007559,0.0,0.342249234336,-0.158608717467,0.304983926833,1.0,-0.15998,-0.210259428571,3.487
-0.309365587062,-0.503380784533,-0.13394894794,-2.62809115641,-0.0665539242829,2.116929593,-0.565852370529,-0.676371922102,-0.185835742811,-0.0018301254202,-0.134590815724,-0.0351061888474,-0.040980362655,-0.659041099067,0.573831422054,0.818942978711,0.00553566468165,0.0,0.818936080685,-0.573746919316,-0.0117862304622,0.0,-0.00647630481397,0.0112968824252,-0.999915215367,0.0,0.339513939151,-0.162252003834,0.305001250268,1.0,-0.159644,-0.209817828571,3.504
-0.319430077145,-0.506030709222,-0.133959351305,-2.63013283297,-0.0670066774315,2.1163027837,-0.575703825642,-0.676117288317,-0.173642424933,0.00180055440232,-0.136629904267,-0.0289154435173,-0.0428595411398,-0.646687331527,0.573705923811,0.819030742834,0.00555897278079,0.0,0.81902444252,-0.573621880137,-0.0117323519815,0.0,-0.0064205321556,0.0112840716681,-0.999915719695,0.0,0.33717579213,-0.165338978997,0.305006104823,1.0,-0.157964,-0.207609828571,3.519
-0.331051705336,-0.508892397404,-0.134031938407,-2.63229452113,-0.0675073975429,2.11557838669,-0.586833304447,-0.690811841156,-0.165333446576,0.000578966309877,-0.1303542209,-0.0271941237475,-0.0387687244004,-0.649733355523,0.573825495485,0.818946659061,0.00560510880973,0.0,0.818941211876,-0.57374172206,-0.0116822411759,0.0,-0.00635136988407,0.0112940398777,-0.999916048858,0.0,0.334487403396,-0.168912383134,0.3050229532,1.0,-0.15606,-0.205107428571,3.536
-0.343059374618,-0.511739985785,-0.133990771671,-2.63445423188,-0.0679444059654,2.11481914562,-0.598592156482,-0.659478213577,-0.149677351002,0.0018494476622,-0.116310799417,-0.0250092908514,-0.0391263535128,-0.643932502089,0.57369168769,0.819040110875,0.0056472253923,0.0,0.81903520237,-0.573607784164,-0.0116702239139,0.0,-0.00631921070878,0.0113206048016,-0.999915952209,0.0,0.331709206129,-0.172531676413,0.305032911774,1.0,-0.154044,-0.202457828571,3.554
-0.354491788591,-0.514120399124,-0.134009027023,-2.63633594438,-0.0683593197335,2.11410329991,-0.609594063523,-0.671644598581,-0.137197093062,-0.00405810498379,-0.109066458585,-0.0242914505487,-0.0422014551711,-0.644089378564,0.573774317996,0.818982176726,0.00565447739178,0.0,0.818976480642,-0.573688801238,-0.0118080646534,0.0,-0.00642680787224,0.0114062678436,-0.999914292924,0.0,0.329063893819,-0.17598338196,0.304996350834,1.0,-0.15214,-0.199955428571,3.571
-0.365149390455,-0.516203240223,-0.133988288262,-2.6379552574,-0.0686959719365,2.11351876187,-0.619888970062,-0.645974779103,-0.133718361154,0.00103284835268,-0.0972535593483,-0.0160119962346,-0.031226039398,-0.646789133677,0.573821520813,0.818948883609,0.00568640380843,0.0,0.818943242371,-0.573735238446,-0.0118570165101,0.0,-0.00644792433151,0.0114608738758,-0.999913532583,0.0,0.326626208916,-0.179182084964,0.304979839239,1.0,-0.150348,-0.197600228571,3.587
-0.376927790357,-0.518327905914,-0.133961098333,-2.63963339999,-0.0690376234403,2.11288780923,-0.631369528519,-0.659004822116,-0.112692937691,-0.000592529613937,-0.0900566184447,-0.0259904874506,-0.0417869385635,-0.64411446216,0.573805591944,0.81895979684,0.00572195029467,0.0,0.818953884609,-0.57371787512,-0.0119616701433,0.0,-0.00651346719027,0.0115499090101,-0.999912083309,0.0,0.323929516266,-0.182696020977,0.30494687443,1.0,-0.148332,-0.194950628571,3.605
