nelsonifechukwu/NELSON_IML_WORK/CNN-GradCAM/train2dof/data_sample_2022-07-05-18-59-15/robot_state.csv
position_joint1,position_joint2,position_joint3,position_joint4,position_joint5,position_joint6,position_joint7,velocity_joint1,velocity_joint2,velocity_joint3,velocity_joint4,velocity_joint5,velocity_joint6,velocity_joint7,ee_T_00,ee_T_10,ee_T_20,ee_T_30,ee_T_01,ee_T_11,ee_T_21,ee_T_31,ee_T_02,ee_T_12,ee_T_22,ee_T_32,ee_T_03,ee_T_13,ee_T_23,ee_T_33,v_x,v_y,w_z,time
0.46509099353188504,0.5473205862239913,-0.12399883981293283,-1.3555653875691078,0.07944268395545276,1.8941602735519407,0.15915490337290253,0.00033481707282150447,0.002701621085178616,0.004522490602984459,-0.0007124112357434285,-0.0003331592373363198,0.00013512575180158718,0.0016606091295966873,0.5737648883595867,0.8190042257668103,0.0025841755023564977,0.0,0.8189702215267263,-0.5737049279086085,-0.011453333447149777,0.0,-0.007897926331605243,0.008688050642175218,-0.9999310678920319,0.0,0.661763584762784,0.26092864695036483,0.3036735159125914,1.0,5e-324,6.90624750127553e-310,6.90603530169653e-310,0.0
0.4650907256748596,0.5473227461645221,-0.12399883978134456,-1.355570676313766,0.07944359652259085,1.8941594597498574,0.1591565472437126,0.0005283707567251795,0.0023082886967534773,0.0023666670960497986,-0.0024194517900217633,-8.339137584215368e-05,-0.00014410643549497091,0.0015622735539366599,0.5737669867995349,0.8190027759326463,0.002577746071762841,0.0,0.8189686749731465,-0.5737070319710192,-0.011458524378857395,0.0,-0.007905844438374054,0.008685783519083043,-0.9999310250154138,0.0,0.6617621728532879,0.26092790555291173,0.3036693982774735,1.0,-6e-05,-7.885714285714287e-05,-3e-05,0.004
0.4650907223266468,0.5473166255645185,-0.12399625502213756,-1.355568574659868,0.0794449316197323,1.8941586459484385,0.15915490727333698,0.004042352884034883,0.0018040428000038456,0.0010550501205406184,-0.0007703684683985656,0.00026780718321131554,0.00015822397994956323,-0.007694676034810145,0.5737640584323621,0.8190048026928152,0.0025855982936873363,0.0,0.8189707808667713,-0.5737040538962848,-0.011457117030394409,0.0,-0.007900217753743666,0.00869137875485633,-0.9999310208683313,0.0,0.6617619847132731,0.26092989034183,0.3036745815143518,1.0,-0.00042000000000000023,-0.0005520000000000004,-0.00021000000000000012,0.022000000000000013
0.4650900107414603,0.5473050338748261,-0.12400483842082041,-1.355575515594813,0.07944229063170759,1.8941601022168648,0.15915012180012442,0.00013408470003856067,-0.003055893405633722,-0.001025450262497804,-0.0016033342894791146,-0.00022525089253872915,-0.0005823964437982669,-0.0008478395777857159,0.5737663861657708,0.8190031651916146,0.00258774295412848,0.0,0.8189692286278903,-0.573706437733107,-0.011448701473762962,0.0,-0.007892069899165133,0.008688329199181902,-0.9999311117114186,0.0,0.6617632941305578,0.2609234510421553,0.30367989520180605,1.0,-0.0007400000000000005,-0.0009725714285714294,-0.00037000000000000027,0.03800000000000003
0.46509030879120095,0.5472309504266986,-0.12399907924816163,-1.355645173552204,0.07944420521789218,1.89416901974401,0.1591572425663471,0.0002783093330371943,-0.007889401342108159,0.00010784055879151954,-0.0035096461600108327,0.00015978275697553748,0.003757977974253555,0.0017724759837716181,0.5737721817661804,0.8189990495366117,0.0026052237163269893,0.0,0.8189652415732215,-0.5737120689102038,-0.01145172401416892,0.0,-0.007884454595075419,0.00870443593015277,-0.9999310317071253,0.0,0.6617495485247313,0.2609205988669129,0.30369980425147247,1.0,-0.0010800000000000009,-0.0014194285714285728,-0.0005400000000000004,0.05500000000000004
0.46508498295827894,0.5470935367731471,-0.12399846405990328,-1.3558096989511998,0.07944187811674314,1.8942001027612776,0.15915648028709192,-0.0005056857346717937,-0.009370142266706483,0.00021699887105926566,-0.002898922218986387,0.0007172639582646677,0.005392645160157294,0.0006394465500996142,0.5737838232916238,0.8189908631687695,0.0026147803212982915,0.0,0.8189570775077929,-0.5737235663309419,-0.01145956096927402,0.0,-0.007885266454467799,0.008716871383234695,-0.9999309169768831,0.0,0.6617230345195332,0.2609014339884414,0.3037214993559959,1.0,-0.001420000000000001,-0.0018662857142857157,-0.0007100000000000005,0.07200000000000005
0.4650685282759038,0.5469612926905277,-0.12400441921589657,-1.3560007351295664,0.07943727856331073,1.894252286604586,0.15915167010186632,-0.0008598916337605589,-0.009833361984700712,-0.0012273140046018954,-0.008320348677564808,-0.0004843505994379502,0.0008198883074046584,-0.00018210077903905232,0.5738068611648293,0.8189747305321247,0.002612227250521049,0.0,0.8189408603130659,-0.5737465526741874,-0.011467672187049669,0.0,-0.007893129326630444,0.00871965649480104,-0.9999308306578238,0.0,0.6616990554687281,0.2608689542905235,0.30372895433098546,1.0,-0.0017400000000000013,-0.002286857142857145,-0.0008700000000000007,0.08800000000000006
0.4650474347056229,0.5467665240635998,-0.12400202862900041,-1.356230692717881,0.07943247063770048,1.8943878322412124,0.15914537897869718,1.166133800658913e-05,-0.01536746926776909,-0.00017802311780850416,-0.011718011734522419,-0.0003870603431551964,0.0049074916295027285,-0.0009282911093399717,0.5738291237387566,0.8189588402135275,0.0027021633060922024,0.0,0.818926109771252,-0.5737685002862456,-0.01142285933574668,0.0,-0.007804585708319933,0.008767810254964273,-0.9999311045993389,0.0,0.6616837218286848,0.2608400755133196,0.3037691433098452,1.0,-0.0021000000000000016,-0.0027600000000000025,-0.0010500000000000008,0.10600000000000008
0.46502291806933016,0.5465746376261554,-0.12400201986844439,-1.3564572590327926,0.07942771711157197,1.8944988580495226,0.1591380598404304,-0.0021740512842499623,-0.013490588063873026,-0.0011980448049096679,-0.01365632331455847,0.00023235584895059166,0.0032931944669702447,-0.0006092049897848997,0.5738546823098325,0.8189406979883023,0.0027719434918471965,0.0,0.8189088316123356,-0.5737937970900091,-0.01139082216335837,0.0,-0.007738032852726284,0.00880681519848893,-0.9999312790655316,0.0,0.6616656240334595,0.26080625635954313,0.3038068428751989,1.0,-0.002420000000000002,-0.003180571428571432,-0.001210000000000001,0.1220000000000001
0.4649842513298789,0.5463530318421937,-0.12399952297586023,-1.356759080382389,0.0794181370830642,1.8946348071164965,0.15913288549576177,-0.0014704682456168716,-0.014538489057754614,0.0006298287272306457,-0.01874020118243391,-0.0004066398681103104,0.005810814662969274,0.001115667978390988,0.5738947992320503,0.8189124074563904,0.0028240448990352494,0.0,0.8188811647578732,-0.5738336946877111,-0.011369949298388079,0.0,-0.007690608502267937,0.008837882102744846,-0.9999313708354202,0.0,0.661639404637642,0.2607568824118972,0.3038318293184401,1.0,-0.002760000000000002,-0.003627428571428575,-0.001380000000000001,0.1390000000000001
0.46495256326165346,0.546108858961668,-0.12399975977597974,-1.3571323362630787,0.07940448047281942,1.8947561243803512,0.15912398105963016,-0.0037652498772362646,-0.018752563203043263,-0.0026442939565200236,-0.02817356573278684,-0.0007701826175316546,0.013913989587872601,-0.0010627479738218298,0.5739346304508446,0.8188844837421537,0.0028265096509980416,0.0,0.8188531921711164,-0.5738734207917701,-0.011379520250564476,0.0,-0.007696601986736162,0.008845767508573563,-0.9999312549945831,0.0,0.6615917141700569,0.26069247669178036,0.3038419947564193,1.0,-0.003100000000000002,-0.004074285714285718,-0.001550000000000001,0.1560000000000001
0.46491143782315175,0.5458241587561681,-0.12400211632475407,-1.3575720295244205,0.07938021719491462,1.8949142392612852,0.15910781426518686,-0.0032321178212523487,-0.015079624242002512,-0.00018580560485205336,-0.025929289936721216,-0.0002371096107648383,0.016839339639181584,-0.0016282208429118901,0.5739709760757327,0.8188590127400587,0.0028253810814917726,0.0,0.81882768516543,-0.5739097406918229,-0.011383252912785434,0.0,-0.007699913765299937,0.00884732737440444,-0.9999312156975285,0.0,0.6615442711340866,0.2606304800896635,0.303843638796576,1.0,-0.0034200000000000025,-0.004494857142857147,-0.0017100000000000012,0.17200000000000013
0.4648572556136951,0.5455222835573411,-0.12399993521495552,-1.3580788874645777,0.07933716256722201,1.8950838010806625,0.15907900811802003,-0.0012937339224235126,-0.014854729630745996,-0.0013853897565053498,-0.02978491309030513,-0.002496626753533502,0.00728392867535025,-0.005609459555619573,0.5740070896701013,0.8188338252437025,0.002788287365798275,0.0,0.8188020874894626,-0.5739460415776493,-0.011394287228875814,0.0,-0.007729850124733151,0.008823627048911542,-0.9999311941442526,0.0,0.661485746943417,0.2605442367980789,0.3038306705197812,1.0,-0.003760000000000003,-0.004941714285714291,-0.0018800000000000015,0.18900000000000014
0.46480680675545527,0.5451773149370237,-0.12401068681657977,-1.3586605071360647,0.07927969196875591,1.8952712661280466,0.15896133007112598,-0.0009553802354677952,-0.02210014470306561,-0.0005684088899436892,-0.03772891793919615,-0.005459457812183808,0.014034733435269623,-0.007121620878407656,0.573976699199554,0.8188553181615432,0.0027319582263662873,0.0,0.8188230433009748,-0.5739160444057334,-0.011399326042115843,0.0,-0.007766633626050512,0.00878010692810366,-0.9999312922018441,0.0,0.6614175156362295,0.2604435502905334,0.3038145546978821,1.0,-0.004100000000000003,-0.0053885714285714335,-0.0020500000000000015,0.20600000000000016
0.46474502022205977,0.5447847419494111,-0.12400591557336707,-1.359300436213355,0.07926739533923083,1.895491407983998,0.15893778169170078,0.00011295191106744634,-0.024894931263359576,0.00042047839302382774,-0.03866231113440095,0.00018888439858546905,0.018124342948800366,0.0019444295925379633,0.5740370701946598,0.818813025340058,0.0027236881247861763,0.0,0.8187803844180341,-0.5739761411173462,-0.011437588098227518,0.0,-0.007802064327746494,0.008795871319626503,-0.9999308778310401,0.0,0.661340456525652,0.26034759617696296,0.3038067657666669,1.0,-0.004440000000000004,-0.005835428571428577,-0.002220000000000002,0.22300000000000017
0.4646871294425868,0.5444082935058597,-0.1240116144573243,-1.3599681549875275,0.07923808639320556,1.8957116333802968,0.1589290924409407,-0.0016084216678346405,-0.0293085116695938,0.0005342243560164873,-0.03977148149519687,0.00014706820322458577,0.012277253273102466,0.00231762203118514,0.5741134714110231,0.8187596761092203,0.0026573714676444236,0.0,0.8187260712242278,-0.5740526255426698,-0.011486962458207116,0.0,-0.00787974230317412,0.00877064805649068,-0.9999304902811519,0.0,0.6612505848922366,0.2602398208432339,0.3037712605332418,1.0,-0.004780000000000004,-0.00628228571428572,-0.002390000000000002,0.24000000000000019
0.46462216519785826,0.5439540192176509,-0.12401725758885694,-1.3607113349770132,0.07919659190584223,1.8959522152822854,0.15888018219533004,-0.0024283583631219082,-0.027805254259021965,-0.0005324730533809845,-0.03705601187238788,-0.0010001739232925156,0.015818119004460788,0.00011651102442511397,0.5741580977956642,0.8187284851054403,0.002625512106946076,0.0,0.8186944275590482,-0.5740973055664352,-0.011509340829516969,0.0,-0.00791587816076711,0.008757841984599918,-0.999930317110506,0.0,0.6611684743013979,0.26012303508865026,0.30376334299454405,1.0,-0.005100000000000004,-0.006702857142857149,-0.002550000000000002,0.25600000000000017
0.4645617785708901,0.5434775456708022,-0.12402332457459088,-1.3614934897891153,0.07915600645539961,1.8962376237215095,0.15881338309250448,-0.00723823558497878,-0.02529474349731285,0.00037465627521006905,-0.049661052340690556,-0.004387239557665129,0.013354234987001855,-0.0009879067818194974,0.574189909600297,0.8187062276034326,0.0026091181972691287,0.0,0.8186719206076062,-0.5741291263779206,-0.011523001101581193,0.0,-0.007936134806518391,0.008752571280611104,-0.9999302026943233,0.0,0.6610773912376543,0.2600058127761597,0.3037530881896278,1.0,-0.005440000000000004,-0.007149714285714292,-0.002720000000000002,0.2730000000000002
0.46449263797149803,0.5429676994800673,-0.12401910095060267,-1.3623227916706724,0.07910882511771408,1.89652686622414,0.15875024129586127,-0.004358904313574826,-0.02632889089176747,0.001324778877526602,-0.04894887963089124,-0.0032825070005089306,0.012748384955645434,-0.0009230254724572415,0.5742308538305009,0.8186776165403589,0.00257557490661505,0.0,0.8186428054029121,-0.5741701007584741,-0.011549868322285075,0.0,-0.007976954146887316,0.00874093490549556,-0.9999299796783355,0.0,0.6609835972481752,0.25988466387483444,0.3037389757263235,1.0,-0.005760000000000004,-0.00757028571428572,-0.002880000000000002,0.2890000000000002
0.4644290113859983,0.5424139154070223,-0.12402722405660097,-1.3632121765966694,0.07905906783223675,1.8968338517505794,0.15868634032795767,-0.001605945618121212,-0.03370396894959211,-0.00042545885314855005,-0.055576805034389665,0.00022931138227987258,0.013772312497331707,-0.0028335390864688403,0.574266979498609,0.8186523235352341,0.0025605329746921594,0.0,0.8186172890960319,-0.5742062415647604,-0.01156170585786503,0.0,-0.007994897275318602,0.008735770653886435,-0.9999298815060185,0.0,0.6608694288034517,0.25975052318721353,0.3037391323314863,1.0,-0.006120000000000005,-0.00804342857142858,-0.0030600000000000024,0.3070000000000002
0.46435135126954385,0.5418757282487471,-0.12402207238873078,-1.3640718604273847,0.07901152513584747,1.8971515981108495,0.1586328362814122,-0.0011074901680202594,-0.035746567213641625,-0.0008852079075267644,-0.05201880352113443,-0.00021445671987813607,0.01736746985850398,-0.007287966907759003,0.5743230739381232,0.8186129648378648,0.0025627022522349743,0.0,0.8185779177626932,-0.5742622771821739,-0.011566177330720729,0.0,-0.007996713446947357,0.008740662276607622,-0.9999298242361878,0.0,0.6607648270912179,0.25961195048976965,0.3037420111412262,1.0,-0.006460000000000005,-0.008490285714285723,-0.0032300000000000024,0.32400000000000023
0.46426333144697285,0.5412178873730061,-0.12403044028445269,-1.3650826031693835,0.07894124320171628,1.8975161170657306,0.15855073617625448,-0.001968542800626575,-0.040770511314856546,-0.0007536533995989609,-0.05317408279817433,-0.0051828533957480605,0.02256957710348305,-0.0028482949127121363,0.5743662510973199,0.8185826729282278,0.002562046700769159,0.0,0.8185476960308918,-0.5743055372127893,-0.011557082263984279,0.0,-0.0079891835005933,0.008735323619674787,-0.9999299310792998,0.0,0.6606561463038723,0.25946009348266,0.3037537204785784,1.0,-0.006800000000000005,-0.008937142857142866,-0.0034000000000000024,0.34100000000000025
0.46418253339166754,0.540603567339047,-0.12402550555812825,-1.3660401921515493,0.07888811423284334,1.8978629223513328,0.15849052901368302,-0.0010128783262754338,-0.03653436389390248,0.0008219723778724188,-0.059742114287160586,-0.001662241690279018,0.026891462012448828,-0.0007018640479156349,0.5744185112146267,0.8185459828175303,0.0025680514915803485,0.0,0.8185110086442009,-0.5743576884454407,-0.011563794925166935,0.0,-0.007990671608798072,0.008744604642266368,-0.9999298380670971,0.0,0.6605433173141213,0.25931891194924317,0.30376205823725344,1.0,-0.007120000000000006,-0.009357714285714294,-0.003560000000000003,0.35700000000000026
0.4640825328288567,0.539911772723228,-0.12403435123355591,-1.3671120936445689,0.07883489075047201,1.8982631357647384,0.15841760717389392,-0.005502119507360185,-0.040414403121123196,-0.0014755805065935308,-0.0665045190874075,0.0001835494898192355,0.02643420131001142,-0.0041703259520500455,0.5744920477198096,0.8184943099800195,0.0025881534421341706,0.0,0.8184595426906583,-0.574431089265035,-0.011560604032316433,0.0,-0.007975726376880765,0.008759942622106456,-0.9999298231346131,0.0,0.6604247545791565,0.25914812072465937,0.3037757449389555,1.0,-0.007460000000000006,-0.009804571428571437,-0.003730000000000003,0.3740000000000003
0.4639753407549795,0.5391317470849677,-0.12403186006361858,-1.368310726820222,0.0787530915608611,1.8987053105581793,0.15830712130271032,-0.00692351287109328,-0.041588903478538546,0.0016723030078644027,-0.06998666414432747,-0.004279409603266878,0.02217107565405902,-1.742195691924192e-05,0.5745320001020615,0.8184662191817866,0.0026030401850092692,0.0,0.8184317049410021,-0.5744710529838468,-0.011545584965820907,0.0,-0.00795445318704896,0.008763887371397786,-0.9999299580233791,0.0,0.660288235947548,0.25896351083876934,0.30379455764094376,1.0,-0.007820000000000006,-0.010277714285714295,-0.003910000000000003,0.3920000000000003
0.46388903294925965,0.538483104977017,-0.12404071209502517,-1.3693415953547161,0.07870678179922021,1.8991101297861328,0.15825210545922197,-0.004275921322998643,-0.04341458040609852,-0.001240549049092569,-0.06900893850359602,-0.001756756371572847,0.020031385699109106,0.00015022073279424624,0.5746085752266048,0.8184123867223811,0.0026262971338722896,0.0,0.8183781072380099,-0.5745474677022417,-0.011542436990602546,0.0,-0.007937693863575956,0.00878185642922541,-0.9999299335522388,0.0,0.6601745970140186,0.2588075104173062,0.3037974842576142,1.0,-0.008120000000000006,-0.01067200000000001,-0.004060000000000003,0.4070000000000003
0.46377075465663725,0.5376791026023232,-0.12404082052786838,-1.3706114314216649,0.07862521659784151,1.8996021537745316,0.15815501892837824,-0.006178619436233803,-0.04946716316974909,0.0009116888158850629,-0.06387323843968934,-3.4779802247863817e-05,0.025579177165359554,-0.0031786364935463742,0.5746743846829349,0.8183661227086307,0.0026434245479072804,0.0,0.8183321280455597,-0.5746132821400005,-0.011526105063297808,0.0,-0.007913779419797928,0.008787125750058522,-0.9999300768135476,0.0,0.6600351516406413,0.2586093809009947,0.3038035117833745,1.0,-0.008480000000000007,-0.011145142857142867,-0.004240000000000003,0.4250000000000003
0.4636788662545344,0.5369159524817978,-0.12405318300697595,-1.3718102186476255,0.07855689969061375,1.9000504534920697,0.15804446736464958,-0.00907170295400208,-0.04939187040277008,-1.9372096293474734e-05,-0.07413459091726105,0.00019606087281249368,0.032190299766387424,-0.004018341433084547,0.5747155911274797,0.8183371568216031,0.0026521654048398636,0.0,0.818303295387113,-0.5746544770160062,-0.011519362189791441,0.0,-0.00790279553241724,0.008790801991188882,-0.9999301313707495,0.0,0.6598973329091604,0.2584286450221239,0.30381099494103414,1.0,-0.008800000000000007,-0.011565714285714297,-0.004400000000000004,0.44100000000000034
0.4635683920321225,0.5361404584640004,-0.12405566761780705,-1.3730550293834478,0.07848601742520546,1.9005067776693412,0.1579745362537306,-0.005667241782925135,-0.05375576940013808,0.00028091626282555785,-0.08172483764966335,-0.0008125487852956794,0.025643863942405164,-0.005053925885927248,0.5748000328792838,0.8182778834636327,0.0026409349594969257,0.0,0.8182438401124849,-0.5747389046383536,-0.01153067709582395,0.0,-0.00791760242141265,0.008788931550713475,-0.9999300306791937,0.0,0.659753200547365,0.2582362207592571,0.30380552607113026,1.0,-0.009120000000000007,-0.011986285714285725,-0.004560000000000003,0.45700000000000035
0.4634623577158549,0.5353630121402226,-0.12406061555640897,-1.37426633997737,0.07841170933086915,1.9009508021164827,0.15786033421835075,-0.006471441210422352,-0.05244958505741178,0.00039368972026222125,-0.07919769014686509,-0.0006918797722889726,0.02810548642660026,-0.00680553208577332,0.574843417907972,0.8182473860687842,0.002647070208871608,0.0,0.8182134404003416,-0.5747822843111716,-0.011525558185033757,0.0,-0.007909421077365641,0.008791428945214133,-0.9999300734728014,0.0,0.6596137722965132,0.2580479255161999,0.30381624609953184,1.0,-0.009420000000000008,-0.012380571428571442,-0.004710000000000004,0.47200000000000036
0.4633525216267344,0.534476368276948,-0.12406841725095223,-1.3756833828448716,0.07834420066952132,1.9014548012136314,0.1577919530707998,-0.010396094156740057,-0.044287354169654666,-0.00040474000886313717,-0.0844988719218145,-0.010781086036386592,0.030429790310756964,-0.004198734804954324,0.5749423876165531,0.818177899298396,0.002631144741308689,0.0,0.8181435979526117,-0.5748811286230547,-0.011553699989469684,0.0,-0.007940539408043734,0.008795535424451911,-0.9999297907305826,0.0,0.6594423776252932,0.25783765793334384,0.303811262912324,1.0,-0.009760000000000008,-0.012827428571428585,-0.004880000000000004,0.4890000000000004
0.46322833417595405,0.5335592655773436,-0.12407479838725073,-1.3771624756454055,0.07825599521148222,1.901991920352631,0.15767870821347207,-0.009110810611879063,-0.05548383605571076,-7.878862867319643e-05,-0.08526389224095886,-0.0013111508592355257,0.034500040344035206,-0.008373646300452422,0.5750131553988722,0.8181282419182083,0.002607258188727657,0.0,0.818093624459316,-0.5749519602173394,-0.011567712067096919,0.0,-0.007964977080558933,0.00878473705137478,-0.9999296912958653,0.0,0.6592681328637062,0.25761070982890494,0.30380084893703463,1.0,-0.010100000000000007,-0.013274285714285725,-0.005050000000000003,0.5060000000000003
0.46311103666401826,0.5326827418098224,-0.12407233364315377,-1.37855775885935,0.07817912897206968,1.9025252065714715,0.15755255968528595,-0.006595507429210991,-0.05849129150541545,0.0006381585218517029,-0.09169581318871606,-0.0013759647848516298,0.0359784238722343,-0.004672057507833757,0.575076301682142,0.8180838080533883,0.002622431250828377,0.0,0.8180492935281644,-0.5750149441422419,-0.011572133440906544,0.0,-0.007959191072518967,0.008800307167018337,-0.9999296004575711,0.0,0.6590959156051865,0.2573899350975011,0.3038014126475899,1.0,-0.010440000000000007,-0.013721142857142868,-0.005220000000000003,0.5230000000000004
0.46297854442178943,0.5316537385289835,-0.12406713422314117,-1.3801890663762224,0.07808122391176038,1.9031420341237815,0.1574426458748766,-0.006199745137514107,-0.0583485432734517,0.0015188872874999442,-0.0933607881812856,-0.003061272558127654,0.0310045604617647,-0.009540266769229932,0.5751376035752183,0.8180406768836003,0.002633404409543432,0.0,0.8180063082685163,-0.5750762056650313,-0.011566512526771374,0.0,-0.007947622537122723,0.008806647270848622,-0.999929636654427,0.0,0.6589151815272875,0.25716601870654815,0.30380309663665317,1.0,-0.010780000000000008,-0.014168000000000014,-0.005390000000000004,0.5400000000000004
0.4628336306077679,0.530595341200025,-0.1240719617483412,-1.3818883769972188,0.07797806939537467,1.9037410676806685,0.15732605555471343,-0.010511608796873125,-0.05558701847165357,-0.000487769491501659,-0.09948233721063005,-0.003184590732686398,0.03290032053365393,-0.00571519860641671,0.57522884086079,0.8179766458369078,0.002595073903120499,0.0,0.8179417519890955,-0.5751675293925695,-0.011590961421100655,0.0,-0.007988687306793918,0.008790243837014433,-0.9999294537558139,0.0,0.6587102465438758,0.25690389369532596,0.3037921438361544,1.0,-0.011140000000000008,-0.01464114285714287,-0.005570000000000004,0.5580000000000004
0.46269349661382797,0.5295907242912236,-0.12407799918031955,-1.3835312473150252,0.07787488190573606,1.9043406865041475,0.15721367798914893,-0.004106676606463017,-0.06245181660706865,-0.0013355342190335129,-0.10295820852057518,-0.0058527711428747855,0.03649139653943073,-0.0148798505423314,0.5753173512639276,0.8179145182264863,0.002555994953376991,0.0,0.8178791494809858,-0.5752561970997577,-0.011608248954622319,0.0,-0.008024357908242852,0.0087690908521037,-0.999929353867456,0.0,0.6585157526022599,0.25665026716954026,0.3037700276009089,1.0,-0.011480000000000008,-0.015088000000000013,-0.005740000000000004,0.5750000000000004
0.4625631418185437,0.528570537877634,-0.12408121440254287,-1.3851019947569982,0.07777393738014161,1.9049202481506895,0.1570851836674498,-0.006297333744560698,-0.06487953878454247,-0.0002023292443463018,-0.1005163512973475,-0.0061244242062287665,0.04710684788086107,-0.011458164418704108,0.5753790822800297,0.8178710311762664,0.002575837430827354,0.0,0.8178359700518484,-0.5753179076581091,-0.011592157627297638,0.0,-0.007999118518843717,0.008776666499203695,-0.9999294896281853,0.0,0.6583307795323923,0.2564125102130435,0.30379111575875695,1.0,-0.011800000000000008,-0.015508571428571443,-0.005900000000000004,0.5910000000000004
0.4624235822265334,0.5274679020533153,-0.12408934425159841,-1.3868245284430047,0.07767157370746966,1.905580153776882,0.1569878065598842,-0.012205897787556562,-0.06680192373606073,-0.002033162175471544,-0.10294280679770032,-0.012717669885244228,0.032813778264600794,-0.007512485473722069,0.5754851153257892,0.8177963298473272,0.0026061135648648825,0.0,0.817761700258963,-0.5754238680234636,-0.01157240682372125,0.0,-0.007964405219416881,0.008791096991276864,-0.9999296399563276,0.0,0.6581316012848529,0.25615412759428435,0.30380490640192026,1.0,-0.012140000000000008,-0.015955428571428586,-0.006070000000000004,0.6080000000000004
0.46226994957583434,0.5263255844600792,-0.12409504358897772,-1.3885849104747334,0.07755981381143853,1.9062604441126478,0.15684354100638753,-0.005975820357044306,-0.06309484708771956,-0.002037984862096785,-0.10875635420649028,-0.010886341934601506,0.04533191491795967,-0.011856717639190795,0.5755618671403848,0.8177421644029372,0.0026526501242728146,0.0,0.8177082304490808,-0.5755005581604744,-0.011537084294732481,0.0,-0.00790791090674009,0.008809569228658595,-0.9999299257623487,0.0,0.6579317084079707,0.2558838200490293,0.3038299956740064,1.0,-0.012480000000000008,-0.016402285714285727,-0.006240000000000004,0.6250000000000004
0.4621161636479719,0.5251556522834728,-0.12409435076992432,-1.3903963124048944,0.07744329118829249,1.9069179587465328,0.15670565847782703,-0.007871581313175039,-0.06674729465610243,0.0007436926454689112,-0.10296720598852761,-0.011341212179480384,0.03296721887198157,-0.013313347158376182,0.5756404136439597,0.8176868440753103,0.002661974300852208,0.0,0.8176530526925339,-0.5755790885251068,-0.011530185445002755,0.0,-0.007896056229916237,0.008813981828696707,-0.9999299805588074,0.0,0.6577143119289134,0.2556091887700249,0.3038477321762753,1.0,-0.01282000000000001,-0.016849142857142875,-0.006410000000000005,0.6420000000000005
0.4619652551890723,0.5240078685465617,-0.12409854636438747,-1.3922668089939707,0.07732956766116633,1.9075848455332343,0.15657845298190445,-0.008724780514438538,-0.06063715462807526,0.0016056866715611659,-0.11158849920702667,-0.004533935205064283,0.040968900436487016,-0.004348925796471257,0.5757325638675537,0.8176221278414623,0.002611104689804907,0.0,0.8175876446201755,-0.5756713591513251,-0.01156185618783136,0.0,-0.00795024433926489,0.008791513303156556,-0.9999297489867907,0.0,0.6574839752282441,0.25532743573590455,0.30382247830543413,1.0,-0.01316000000000001,-0.017296000000000016,-0.006580000000000005,0.6590000000000005
0.4618059186597977,0.5228009265173453,-0.12410006674173985,-1.3941833714704066,0.07721761855171273,1.9082998185746216,0.15642204493647774,-0.009168339359962186,-0.07335098705683407,0.002079697742319651,-0.11129677981280255,-0.00800635132093659,0.044314842114974884,-0.01266499227687282,0.5758128010411856,0.817565664114719,0.0025980606172277387,0.0,0.8175310222041048,-0.5757516414232159,-0.011568147370800853,0.0,-0.00796203571676013,0.008785251635906127,-0.9999297102001414,0.0,0.6572678844566442,0.2550523550909193,0.3038145286334315,1.0,-0.01348000000000001,-0.017716571428571443,-0.006740000000000005,0.6750000000000005
0.46165197540209285,0.521579229652852,-0.12410781020463617,-1.3961247465188193,0.07708443261655283,1.9090619217355052,0.1562880250618574,-0.0060832846589377034,-0.06928988347137653,0.000753241017171576,-0.11539447057584849,-0.006825648486451789,0.04494256787718176,-0.0063345262567472685,0.5758985544797053,0.8175051371412316,0.0026367777855867986,0.0,0.8174711431894464,-0.5758374177136119,-0.011530191441055727,0.0,-0.007907787673565203,0.008795879682438945,-0.9999300472506674,0.0,0.6570301294481877,0.2547506608066215,0.3038213331116645,1.0,-0.01384000000000001,-0.018189714285714302,-0.006920000000000005,0.6930000000000005
0.4614856807063465,0.5203138297351805,-0.12411905844700803,-1.398159931738423,0.076959300647606,1.9098216915456703,0.15614422378039264,-0.012754676613460787,-0.07528210932428463,-0.00048301746356095305,-0.11710364942484384,-0.005541871791378117,0.04641510894753979,-0.01248933336379961,0.575999782733436,0.817433865823181,0.002621487671625549,0.0,0.8173997224347112,-0.5759387376464349,-0.011533045699045865,0.0,-0.00791783827305731,0.008786004269866116,-0.9999300545368419,0.0,0.6567868562024202,0.2544412360023081,0.3038076451907716,1.0,-0.01418000000000001,-0.018636571428571447,-0.007090000000000005,0.7100000000000005
0.4613236663299296,0.5190911187659927,-0.12411957869222211,-1.4000890617387907,0.07683620820003072,1.9105174508306697,0.15599207581025568,-0.010646980016729526,-0.07356257767720167,0.0002539625787443211,-0.12640388981174,-0.01518972431759415,0.04550724844605706,-0.0068677576433787465,0.5760774546159279,0.8173791728400548,0.0026078711144923742,0.0,0.817344859257266,-0.5760164516691211,-0.011540162626380707,0.0,-0.007930664606079552,0.008779726597638648,-0.9999300080304504,0.0,0.65655037819007,0.2541489609154847,0.30380818201347015,1.0,-0.014500000000000011,-0.019057142857142877,-0.007250000000000006,0.7260000000000005
0.46115174274452564,0.5177294036843606,-0.12411873672300444,-1.4021802797467355,0.07670432915542162,1.911263915250294,0.1558454206020714,-0.011354460212941108,-0.07962328083706006,0.0018199644509542087,-0.1299548998783378,-0.012284576122404073,0.04412658939523674,-0.007547333309345717,0.5761725447862264,0.8173121082487108,0.0026197797273508497,0.0,0.8172779301121168,-0.5761114697797897,-0.011537167808119562,0.0,-0.007920334286228514,0.008788656697424582,-0.9999300114599268,0.0,0.6562913547692368,0.2538356353067441,0.30383308088861655,1.0,-0.014840000000000011,-0.019504000000000018,-0.007420000000000006,0.7430000000000005
0.46096866628076266,0.5164013799553014,-0.12412883973241559,-1.4043006303127086,0.07655920581104281,1.9120567139023312,0.15567807998713093,-0.00712006381234224,-0.07652390967523479,-0.0004994939569236299,-0.12358498343887683,-0.008529485003140711,0.04968592140469407,-0.013403009722359192,0.576265507765053,0.8172466092458224,0.00260598113960428,0.0,0.8172124160922457,-0.576204648126019,-0.011524641593266396,0.0,-0.00791704824701367,0.008771062453072673,-0.9999301919686686,0.0,0.6560390840638306,0.25350575856742114,0.30382447192248685,1.0,-0.015180000000000011,-0.019950857142857163,-0.007590000000000006,0.7600000000000006
0.46079751220091747,0.5151040696286647,-0.12413237085680046,-1.4063490183397396,0.0764370689433917,1.9128338658068145,0.15551621261676615,-0.012701581756144957,-0.07877123326953447,0.0007332860234169427,-0.12857074238932187,-0.00501923670086358,0.04335503634686827,-0.008437120480172158,0.5763507984213818,0.8171863979278012,0.0026258526290080424,0.0,0.817152456328698,-0.5762898566665867,-0.011515690182905325,0.0,-0.007897365193774486,0.00878296825639735,-0.9999302431127899,0.0,0.6557934198849313,0.25319833543667764,0.30382664251029795,1.0,-0.015500000000000012,-0.02037142857142859,-0.007750000000000006,0.7760000000000006
0.4605950127485628,0.5136107427589746,-0.12413374469907676,-1.4087241391197527,0.07629460476423032,1.9136809984545837,0.15533708213879982,-0.007471955060563154,-0.08173570469209625,-0.0009772054654354893,-0.1309185069621695,-0.00759973928011927,0.04917600273493973,-0.012353684695561718,0.5764571187777192,0.8171114972050402,0.002595813367034623,0.0,0.8170770835393424,-0.5763961705512073,-0.011543007838272237,0.0,-0.007935860322658583,0.008775197605574547,-0.9999300065644207,0.0,0.6554970343614641,0.2528369991028587,0.3038162630062163,1.0,-0.015860000000000013,-0.02084457142857145,-0.007930000000000006,0.7940000000000006
0.4604168344842478,0.5123078570072169,-0.12414088735873237,-1.4108709268197528,0.07616631734227046,1.9144327404654151,0.15517246218920475,-0.013402831225291015,-0.08976751316336028,-0.0015670540300800552,-0.1385400906538879,-0.010530045123604812,0.040892210083500156,-0.011116865528789195,0.5765572761011448,0.8170410863502359,0.002513462087099929,0.0,0.8170055562037322,-0.5764965387030055,-0.011593485105547634,0.0,-0.008023505949200316,0.008737988916805703,-0.9999296329752275,0.0,0.6552091139307984,0.2524836385717016,0.30377460567680126,1.0,-0.016200000000000013,-0.021291428571428593,-0.008100000000000007,0.8110000000000006
0.46022037691359413,0.5108727107774717,-0.12414500869038717,-1.4131814218561445,0.07603201945633183,1.9152915324091455,0.15498938307091267,-0.01197610503675138,-0.08494964484411241,-0.0012474610824347978,-0.13584726176011613,-0.0057220703158953065,0.05491461092643657,-0.00881978319260825,0.5766495040705633,0.8169760363329106,0.0025004827830887345,0.0,0.8169402426195536,-0.5765886961737667,-0.011613024349795206,0.0,-0.008045967405232501,0.008739558007125031,-0.9999294387777341,0.0,0.6549409961483198,0.2521588689322071,0.30375249694406165,1.0,-0.016520000000000014,-0.021712000000000023,-0.008260000000000007,0.8270000000000006
0.46002203245062107,0.5094003912019948,-0.1241444358751193,-1.4155273404818784,0.07587926889494719,1.9161797150083206,0.15481178609563706,-0.008882983342673416,-0.09147222253330682,-0.0007509298241225298,-0.13944367779854727,-0.006452559298384102,0.04575913266826535,-0.012525108311205454,0.5767470221042171,0.816907185017014,0.002504089196478392,0.0,0.8168715100013825,-0.5766862678129354,-0.011603084299309093,0.0,-0.008034723772806507,0.008737731668367207,-0.9999295451476499,0.0,0.6546555012758166,0.25180588483634836,0.30374339022739394,1.0,-0.016860000000000014,-0.022158857142857164,-0.008430000000000007,0.8440000000000006
0.459811505423926,0.5079069853601916,-0.12415101150125274,-1.4179163537698798,0.07572819623340928,1.917023451855033,0.1546232383815419,-0.014647404554603997,-0.07877335914559525,-0.0009837446689970458,-0.13740879934023614,-0.011616673231939783,0.04559563343758697,-0.013569825937487939,0.5768525796629828,0.8168328005569363,0.002454418807542837,0.0,0.8167964658886154,-0.5767919676983264,-0.011632119831273314,0.0,-0.008085963644491267,0.008714946729160886,-0.9999293309506666,0.0,0.6543549954925483,0.25143332168283866,0.3037244034245416,1.0,-0.017200000000000014,-0.02260571428571431,-0.008600000000000007,0.8610000000000007
0.4595969928459005,0.5063602936463956,-0.12415349707707846,-1.4203272498597517,0.07557663092975907,1.9179046162374056,0.15443019272532127,-0.02007615275969578,-0.09568123544392326,-0.00010586256383258632,-0.14217363946079126,-0.010139528842038139,0.05206568991200395,-0.012362718985587058,0.5769554864433942,0.8167600865413668,0.0024646697575193824,0.0,0.8167238847278494,-0.5768948257453012,-0.011627684402198572,0.0,-0.008075328763433975,0.00872177889068386,-0.9999293573239783,0.0,0.654057241181148,0.2510611453948652,0.3037348137370707,1.0,-0.017540000000000014,-0.02305257142857145,-0.008770000000000007,0.8780000000000007
0.45938552152318346,0.5047489418068158,-0.12416071391476238,-1.4227887506446102,0.07542592180117029,1.9188550177620936,0.15424127292910442,-0.01319474697915456,-0.09483390502725143,-0.0006191912782386146,-0.14456568603765282,-0.018031499348826408,0.058216542269528375,-0.008522278646624085,0.5770653629075155,0.8166822111979155,0.0025455346214210226,0.0,0.8166471141632827,-0.5770044720956549,-0.011579162819707936,0.0,-0.007987865226143809,0.008760905971894384,-0.9999297177980463,0.0,0.65376214057651,0.25068787037737505,0.3037718919546373,1.0,-0.017880000000000014,-0.023499428571428595,-0.008940000000000007,0.8950000000000007
0.4591698554288899,0.503198522464652,-0.12415967719837434,-1.425110501791692,0.07527990759654463,1.919744009052217,0.15405408290938152,-0.013548124777749731,-0.09603541666252717,-0.0008327954910027266,-0.14570465087124673,-0.006282058006475357,0.0524613376889412,-0.005778982134267119,0.5771676512280123,0.8166096169441188,0.0026424972142553935,0.0,0.8165758190488223,-0.5771064731831299,-0.011523769178635207,0.0,-0.007885570308666823,0.008809115719966759,-0.999930106187997,0.0,0.6534846341380957,0.25032915200257433,0.30382670244809584,1.0,-0.018200000000000015,-0.023920000000000025,-0.009100000000000007,0.9110000000000007
0.45894124897393107,0.5015089706957063,-0.1241700339397207,-1.4276289472219106,0.07511982593323965,1.9206749813818778,0.15385131695168078,-0.012562804069363298,-0.1017126175817161,-0.00041150478070968417,-0.15630758372419623,-0.0066562162029113634,0.053287836899457756,-0.011124718285892149,0.5772815134410169,0.8165288607201722,0.002724105628457623,0.0,0.8164961847964233,-0.5772201332906459,-0.011473658441080621,0.0,-0.0077963147444498615,0.008847923112128175,-0.9999304634488377,0.0,0.6531774281887212,0.24993452702798488,0.3038884056672415,1.0,-0.018540000000000015,-0.024366857142857166,-0.009270000000000007,0.9280000000000007
0.458707179046044,0.4997777710020852,-0.1241628346703284,-1.4302148318027723,0.07495002699418471,1.9215926988656185,0.1536480927875782,-0.014550416065291548,-0.09930529367443947,0.001501034434940891,-0.15786749240081022,-0.007678024148451952,0.06012891821976655,-0.016333453394267235,0.5773869062626259,0.8164541668476647,0.002775034192079604,0.0,0.8164221335040639,-0.5773253351624085,-0.011450074475455513,0.0,-0.0077465126155449315,0.008876893321208418,-0.9999305937450164,0.0,0.6528492116612943,0.24953687639057232,0.30394467758920285,1.0,-0.018880000000000015,-0.02481371428571431,-0.009440000000000007,0.9450000000000007
0.4584591046678512,0.4981164767574443,-0.12417134393580746,-1.432827949348315,0.07478423979472393,1.9225781672470188,0.15344437371145417,-0.016171785756603097,-0.09612646558853491,-0.001679082987806669,-0.15695885862857092,-0.0076564445094850575,0.061937786192091754,-0.012628343589053515,0.5775067168460593,0.8163693591963834,0.0027943271426581293,0.0,0.8163375998496021,-0.5774450992956703,-0.011437975013632508,0.0,-0.007724190532630015,0.008886792808622188,-0.9999306784943605,0.0,0.6525485770562598,0.24915063032545712,0.303943663201593,1.0,-0.019200000000000016,-0.02523428571428574,-0.009600000000000008,0.9610000000000007
0.45821608937345665,0.49654246256599605,-0.12416820637917748,-1.4353365402864515,0.07463240682759932,1.9234795236591387,0.15324163200514232,-0.017854481764041117,-0.09718649729687157,-0.006504284429350876,-0.16123420791743473,-0.007043182586132499,0.059099166790398165,-0.015473303595410506,0.5776336574074518,0.8162796365831424,0.0027676038357448496,0.0,0.8162474696332674,-0.5775720354168439,-0.01146120076346329,0.0,-0.007757203563574122,0.008879595902891571,-0.9999304868686995,0.0,0.6522147607098997,0.2487252423845187,0.3039262189597991,1.0,-0.019540000000000016,-0.02568114285714288,-0.009770000000000008,0.9780000000000008
0.457942934795332,0.4948694676129325,-0.12417107384080155,-1.4380614627538442,0.07446489901588167,1.9244079842335946,0.15302133009756877,-0.01922880327489057,-0.09627057336112954,-0.001197227546351742,-0.16902970391658317,-0.008428977710810864,0.0555064019060607,-0.012573393567804117,0.5777705980440363,0.8161830677139147,0.002661374484793131,0.0,0.8161493843133333,-0.5777091373065987,-0.01153611973937465,0.0,-0.007878236921211923,0.008837480096994588,-0.99992991370823,0.0,0.6518618531557749,0.2482805184841563,0.30387532532946326,1.0,-0.019880000000000016,-0.026128000000000026,-0.009940000000000008,0.9950000000000008
0.4576624314232297,0.49313198758189425,-0.12419595007448034,-1.4408709747621646,0.07428574963042806,1.9254268068986726,0.15282257929685678,-0.014316268679877545,-0.1105689785016335,-0.009881261364877556,-0.16773486275746455,-0.010564812160670506,0.06978921199948672,-0.01276139906529117,0.5779476974676058,0.8160578570562711,0.002603810635902381,0.0,0.8160235114896778,-0.5778864970701483,-0.011557339713676998,0.0,-0.00792690349005487,0.008804478088220227,-0.9999298202207259,0.0,0.6515142429255607,0.24781323368032948,0.30383692655160693,1.0,-0.022494285714285606,-0.0295639183673468,-0.021274087885713736,1.0119999999999993
0.4574060668592066,0.4910459404942847,-0.12427498613154056,-1.444105247663878,0.0741055743913383,1.9266366011327676,0.15273789499521667,-0.013822701620712804,-0.12966854503759742,-0.0038645985887657995,-0.1995945429309222,-0.013454985610754486,0.0708949093272391,-0.0020473613639672918,0.578257920258955,0.8158379324445526,0.0026443418073093137,0.0,0.8158042735068224,-0.5781967284751581,-0.011518568046338658,0.0,-0.007868486450437417,0.00881813832634111,-0.9999301612399921,0.0,0.6511154563218541,0.24729691354786734,0.30385624512637815,1.0,-0.026379999999999463,-0.03467085714285645,-0.03871313279999754,1.0289999999999975
0.4570619055068308,0.48870518494427123,-0.12433531369238991,-1.4479212856098993,0.07389841867177956,1.928009134088522,0.1527787660811422,-0.021249039872380603,-0.1461306532563881,-0.0024165247827079937,-0.23634491714989475,-0.002393061782328051,0.08389059960684929,0.004217209080150558,0.5787496765109531,0.8154894549640116,0.0025510159103346473,0.0,0.8154545137035399,-0.578688649767977,-0.011581433911530024,0.0,-0.007968446692818487,0.008783157671445274,-0.9999296775266862,0.0,0.6506311001612259,0.2466757717453224,0.30378846540351095,1.0,-0.03026571428571332,-0.03977779591836609,-0.05615217771428133,1.0459999999999956
0.456696286740945,0.48612028838676696,-0.12442820544766266,-1.4519634153755752,0.0736737149239703,1.929549459819707,0.15306817565698966,-0.025872967002783836,-0.1731422134977151,-0.008443511268241367,-0.264177858849995,-0.0192103231057098,0.09238673204863276,0.029874044666670284,0.5795539906621003,0.8149178239840033,0.0026189620118425893,0.0,0.8148840092676908,-0.579492912268812,-0.011522281511644552,0.0,-0.007872194217569517,0.008812104156247655,-0.9999301852522208,0.0,0.6501125082309425,0.2459617054356505,0.3038064797469909,1.0,-0.03415142857142718,-0.04488473469387573,-0.07359122262856514,1.0629999999999937
0.45624698799065855,0.4830708322370535,-0.1245344700865864,-1.4566917815040032,0.0734110735715392,1.931280116052165,0.15367955662430619,-0.026187109739713076,-0.18395140522045808,-0.005662006132282416,-0.28968710664579084,-0.010646581445362905,0.10286368412185175,0.04559519086995015,0.5805927701684546,0.8141780417673915,0.0026264868444302496,0.0,0.8141444909828253,-0.5805317239986701,-0.01150704717363871,0.0,-0.007844177223220228,0.008819417991159623,-0.9999303409488022,0.0,0.6495582303148936,0.2452071244182274,0.3038158431056214,1.0,-0.03780857142856964,-0.0496912653061201,-0.09000444137142048,1.078999999999992
0.45572660442127344,0.4796766522705059,-0.12463052280946886,-1.4620418952795395,0.07311538629634774,1.933174149199772,0.15447624981321975,-0.029782730339174338,-0.2058537675337041,-0.010499234854418608,-0.3172984988625552,-0.017746743084859944,0.11315095487425568,0.0536505422751071,0.5819149529229879,0.8132337875209185,0.0025575965722612224,0.0,0.8131993440410681,-0.5818539637098775,-0.01155589319305866,0.0,-0.007909647371659556,0.008804552413223726,-0.9999299562145635,0.0,0.6488756288756993,0.24430477981986326,0.30378973420524946,1.0,-0.04169428571428349,-0.05479820408162975,-0.10744348628570427,1.09599999999999
0.45515402748466866,0.47592313760046134,-0.12473436454291718,-1.4677771149712482,0.07279072932862611,1.9352863083732295,0.15553587367632346,-0.035228191410892624,-0.22819609333195023,-0.005035097523393103,-0.34754197497618666,-0.018084852210003183,0.12831941823408077,0.06497924533926563,0.5834010549395897,0.8121680823698217,0.002638555723899587,0.0,0.8121348800666349,-0.5833398337590886,-0.011503122631680459,0.0,-0.0078034446321835205,0.008853967481110808,-0.9999303543305983,0.0,0.6482056990477096,0.2433943068942181,0.30384333723097157,1.0,-0.04535142857142595,-0.05960473469387412,-0.12385670502855961,1.1119999999999883
0.45455458401452575,0.47215230402024266,-0.12481212379241274,-1.4736413650986373,0.07245250721159446,1.9374252411413646,0.15671311315866965,-0.040747608632314226,-0.23739563343412254,-0.01144353208925409,-0.3678787963946218,-0.021290494599839286,0.12810596122614917,0.0830295238640931,0.5851939032480892,0.8108771560717394,0.0026608764500002345,0.0,0.8108443262938093,-0.5851324798571624,-0.01149810569415812,0.0,-0.0077667355434357654,0.008886349013330463,-0.9999303528847453,0.0,0.6474175414253145,0.24234579596668904,0.3038495223508349,1.0,-0.04923714285713981,-0.06471167346938377,-0.14129574994284338,1.1289999999999865
0.45386509523645163,0.4677763834691387,-0.12487991310733555,-1.480243030931837,0.07206974271727648,1.9399279047485856,0.15811662459706577,-0.04245787530848067,-0.26423433384524847,-0.0016662871371178182,-0.3958103285375657,-0.019047670916134785,0.15034324027411644,0.08827699057083523,0.587271213811212,0.8093731656372183,0.002889130717326208,0.0,0.8093434467788059,-0.5872090311526323,-0.011379182316723666,0.0,-0.007513625825235459,0.009021138909155374,-0.9999310798648775,0.0,0.6465423842685664,0.24117526818805132,0.30395737336005196,1.0,-0.053351428571425066,-0.07011902040815868,-0.15976062102855565,1.1469999999999845
0.45311811517541317,0.46310526692811155,-0.12491663428546067,-1.487398246387668,0.07162634152012173,1.9424846982709438,0.15987354687254,-0.041911330348954785,-0.2807626396518115,0.0005733596196379059,-0.4395780733202262,-0.02377592197074631,0.1490954833994893,0.1033523293723807,0.5894147050173046,0.8078134722938854,0.0029062675492550717,0.0,0.8077840316291907,-0.5893522649269303,-0.011384769281635735,0.0,-0.007484098734118094,0.009058161343430945,-0.9999309666068025,0.0,0.6456529766688724,0.2400580305148554,0.3039857529894374,1.0,-0.05700857142856752,-0.07492555102040305,-0.176173839771411,1.1629999999999827
0.45231563968619726,0.4581675147110294,-0.12499030196107168,-1.4950650534819019,0.07114144021972431,1.9451451366928878,0.16176954048985018,-0.04689981118803004,-0.2896653074384317,-0.0023407056867835985,-0.4484253904833297,-0.03048724435874231,0.16372640497175228,0.11826511455061163,0.5918676105043469,0.8060183673150411,0.0028053676904488288,0.0,0.8059877667699661,-0.5918053132000752,-0.011442813750647606,0.0,-0.007563032163905137,0.009033896802343164,-0.9999305922178061,0.0,0.6446255219888977,0.23875939700119972,0.3039684945461351,1.0,-0.06089428571428139,-0.0800324897959127,-0.1936128846856948,1.1799999999999808
0.4514485297664058,0.452998269107277,-0.12503945000931493,-1.5031211914520353,0.07061644507957932,1.9480389509243254,0.16389536706015276,-0.05274975975946575,-0.31448100382742117,-0.00239960075919288,-0.4822726654691746,-0.026635505156591025,0.17329381522450274,0.12010053198066481,0.5945369641059448,0.804051573745119,0.0027589800456604844,0.0,0.8040206516409607,-0.5944747858215855,-0.011457209888673426,0.0,-0.007572189358095782,0.009030185577567892,-0.9999305564371755,0.0,0.6435542194111364,0.23740148877939857,0.30393870807571344,1.0,-0.06477999999999524,-0.08513942857142233,-0.2110519295999786,1.196999999999979
0.4505674557764969,0.44771307090923335,-0.12512455252928978,-1.5109683317717857,0.07007537813470752,1.9510475766735633,0.16607829527587809,-0.05570307654231229,-0.32721291568528077,-0.007052228065348483,-0.4979977250400861,-0.032387560832950996,0.18664229198866625,0.134088240392531,0.597264000770455,0.8020268429064646,0.0030665195853394507,0.0,0.8020007417249952,-0.5972016981522182,-0.011211106005775425,0.0,-0.00716041511169957,0.00915551728010626,-0.9999324501978929,0.0,0.642562615163252,0.23604584357119365,0.304091541632853,1.0,-0.0684371428571377,-0.08994595918366671,-0.22746514834283393,1.2129999999999772
0.4495621572824573,0.44196852812175114,-0.12522506277274464,-1.519961424600405,0.06949807882621623,1.9541128550079843,0.16863300421170033,-0.06409505424223108,-0.34713089369699496,-0.003833480333392405,-0.5318171039771229,-0.04654659552063187,0.18135820719297974,0.15937393761629695,0.6004278721658532,0.7996617869505416,0.0028537201440910617,0.0,0.7996331251846175,-0.6003659171486064,-0.011330381061678753,0.0,-0.007347337914042629,0.009085180666794826,-0.999931735728909,0.0,0.6413251489666865,0.23447393884197532,0.3040128736481445,1.0,-0.07232285714285155,-0.09505289795917635,-0.24490419325711774,1.2299999999999753
0.4484754810091493,0.43591065822282354,-0.12527113660617425,-1.5293341371579996,0.06889405965099892,1.9573602675310995,0.17142381383759775,-0.06749407313600941,-0.3619285398932288,-0.0026362505695843286,-0.5627439519584397,-0.03777133511880769,0.19657559744884304,0.1722806829981211,0.6037996905550963,0.7971192703172072,0.002747630932490354,0.0,0.7970892814850755,-0.603737627966118,-0.01141493848689876,0.0,-0.007440362505718723,0.009082618360408426,-0.999931071149158,0.0,0.6400290972826728,0.2328520903145198,0.30397346070492853,1.0,-0.07620857142856542,-0.100159836734686,-0.26234323817140154,1.2469999999999735
0.44728896103962495,0.42955004674846037,-0.12533313872527838,-1.5389110124395897,0.06826053150906129,1.9609410294464313,0.174437050840834,-0.07354171236709602,-0.36756873780321464,-0.0013693331439237348,-0.5836517437976335,-0.041953754476577225,0.2069957912727947,0.18463130130584562,0.6074231431053287,0.7943606908005199,0.002994166356877136,0.0,0.7943343822713251,-0.6073605900585004,-0.011258316331980354,0.0,-0.0071247624672321486,0.00921710863385626,-0.999932139031553,0.0,0.6387676739855563,0.23115669640127956,0.3040628342826225,1.0,-0.08009428571427928,-0.10526677551019564,-0.2797822830856853,1.2639999999999716
0.44610085557519846,0.4233573102863815,-0.12546426536522093,-1.5484775709151997,0.06756445749290833,1.9641692762035476,0.17746382850481854,-0.07362843886377549,-0.3860967975220647,-0.010949436403494738,-0.6029213898998912,-0.04371617374224117,0.20272908227403522,0.19717499504422903,0.6110679290706796,0.7915611643481927,0.0027669582961233462,0.0,0.7915327228604426,-0.6110064546821171,-0.011305214687563188,0.0,-0.0072582792668940965,0.009098567336616237,-0.9999322644331988,0.0,0.6374353690043967,0.22939017363466602,0.30400521683491233,1.0,-0.08375142857142173,-0.11007330612244001,-0.29619550182854065,1.2799999999999698
0.44476234395753766,0.41647204129497156,-0.12559067734971407,-1.558919363372541,0.06683808870047568,1.9678406134854645,0.18087571369380148,-0.07468980132759748,-0.4186444573781683,-0.01017563456814032,-0.6073325331974696,-0.03811935370527491,0.22827383412935356,0.2097530534253396,0.6153893478703176,0.788206046806633,0.00281517431320276,0.0,0.7881789622130708,-0.6153281128512214,-0.011224257698823993,0.0,-0.007114908875682169,0.009126325504283259,-0.9999330418855457,0.0,0.6359205355775271,0.22735205544287318,0.3040454521201798,1.0,-0.08786571428570698,-0.11548065306121492,-0.3146603729142529,1.2979999999999678
0.4432202821624493,0.40891065975950985,-0.12566194168331052,-1.57033254364942,0.0660827452251942,1.9718992415971222,0.184742238404273,-0.0893436832887293,-0.41734207225328124,-0.0035257958839797813,-0.6453306748980198,-0.04161765589695751,0.21618430472410358,0.22012928848821223,0.6196989981054184,0.7848220020760509,0.002885083306920116,0.0,0.7847959993208236,-0.6196372588288602,-0.011209541573779607,0.0,-0.007009924711268545,0.009210920858239713,-0.9999330077022588,0.0,0.6344196744663038,0.2253653956136631,0.3040674833588374,1.0,-0.09175142857142085,-0.12058759183672457,-0.3320994178285367,1.314999999999966
0.4417609014751982,0.4020245475992527,-0.12579140961982388,-1.580955849451171,0.06533994604962819,1.975469527810777,0.18836871043546308,-0.09229603596016972,-0.4262898966931308,-0.007307268755940731,-0.6745147922300944,-0.045772947198706296,0.23079138354239206,0.23776395514342924,0.6239870574844196,0.7814178598416365,0.0026509080821969936,0.0,0.7813893533971795,-0.6239259352862264,-0.011307191337972262,0.0,-0.0071818092236781705,0.009127108128772377,-0.9999325564824262,0.0,0.6329026079856686,0.22334258242644234,0.30397292848225915,1.0,-0.09540857142856331,-0.12539412244896894,-0.34851263657139203,1.3309999999999642
0.4402212087282076,0.3947371384820628,-0.1258957533157388,-1.5916164981103391,0.06460645359533924,1.9793826758719135,0.1922193258438572,-0.1004417113374774,-0.4478440522643592,-0.004290878819314026,-0.6784574079875435,-0.050901637893796196,0.24894700045442988,0.253306322061729,0.6284726052231886,0.7778134080860012,0.0030386817580001398,0.0,0.7777904253618657,-0.6284107568582217,-0.01107798634650856,0.0,-0.006707195145802536,0.0093258480683856,-0.999934018868786,0.0,0.6314466776625554,0.22131235054889783,0.3041454786334788,1.0,-0.0990657142857058,-0.13020065306121337,-0.36492585531424765,1.3469999999999627
0.4384101877094302,0.3864594741372541,-0.12598059776883908,-1.6042774848216415,0.06364831148845985,1.9835520265629734,0.1967910507673253,-0.09751788621742276,-0.4600806997563487,-0.008839055522342786,-0.7109295313249895,-0.05059075608420107,0.21692975960496597,0.2615982731256406,0.633690587491973,0.7735693493660893,0.0027290926351583693,0.0,0.7735431403704299,-0.6336296363173182,-0.011191106622878472,0.0,-0.006927996480455723,0.009202947003147208,-0.9999336521145911,0.0,0.6295761395498303,0.21889591028655345,0.30404022766444316,1.0,-0.10317999999999107,-0.1356079999999883,-0.38339072639995986,1.3649999999999607
0.4367343965708977,0.3787383263788128,-0.12608507626652637,-1.6156270637197117,0.06279225559937181,1.9874693374325851,0.20092965861995368,-0.1048134106080641,-0.488168220035178,-0.0020237281731780242,-0.7106077336415054,-0.055933815980951034,0.24217869209126602,0.2675357246305854,0.638426347772815,0.7696650565332765,0.0028716062231704713,0.0,0.7696414261494714,-0.6383654799397327,-0.011060564051204272,0.0,-0.0066799239801441646,0.00927164112828091,-0.9999347055115189,0.0,0.6279357348626267,0.21670219253519513,0.3041467046304226,1.0,-0.10683714285713353,-0.14041453061223266,-0.3998039451428152,1.380999999999959
0.4348323098642541,0.3704445930321092,-0.1261277884444493,-1.6281139523490165,0.061912040387299895,1.9916952378973782,0.20564695594162713,-0.11156665954474795,-0.4939371753706701,-0.005191866535573072,-0.7574837301870909,-0.05925119236912433,0.24293231739207166,0.27094823704422666,0.6437360557267398,0.7652298252813716,0.0028199217063853126,0.0,0.7652056909385008,-0.643674748516011,-0.011127244914629564,0.0,-0.006699916280842544,0.009321008348470688,-0.9999341127920367,0.0,0.6260763931356232,0.21430483363204644,0.30410507093506206,1.0,-0.11072285714284738,-0.1455214693877423,-0.41724299005709903,1.397999999999957
0.4328412970044444,0.36182774591827416,-0.12626456368120131,-1.6408107165846342,0.060904188604699254,1.996016622338837,0.21046478738969504,-0.11904955814408417,-0.5100670754073104,-0.008305049169763006,-0.7403604001424853,-0.06225971949216893,0.2635549019788023,0.28402728201384553,0.6491814265313831,0.7606154655774385,0.0028871910748918123,0.0,0.7605932739027002,-0.6491207550512362,-0.010993814483293724,0.0,-0.006488054586327452,0.009333137973148053,-0.9999353967548398,0.0,0.6242023552256799,0.2117723661789154,0.30416977332744133,1.0,-0.11460857142856129,-0.15062840816325201,-0.434682034971383,1.4149999999999554
0.430741432328852,0.3530679437370346,-0.1263083175146614,-1.653934690160261,0.059912703787174906,2.0003309738181976,0.21563493687330576,-0.12505994081816085,-0.5147223908099053,-0.0035139997741580743,-0.7898972169174698,-0.05401993626313516,0.2513639673689601,0.3013874191597421,0.6548843735001942,0.7557113997908285,0.0027357764259468417,0.0,0.7556877063797359,-0.6548237398842522,-0.011077319700342262,0.0,-0.006579932110033548,0.009321935660659711,-0.9999349008855356,0.0,0.6221860814752426,0.20919364102433924,0.30410527806158727,1.0,-0.11849428571427516,-0.15573534693876165,-0.45212107988566685,1.4319999999999535
0.42849006563196773,0.3439966587078438,-0.12643466569841444,-1.6671784202486832,0.05891270791725302,2.004718851527032,0.22090433094418452,-0.13455964593195036,-0.5398500763263937,-0.006707446546884573,-0.7624892900256214,-0.05615734302157067,0.27728031845760454,0.3181822066840894,0.6607849580034705,0.7505571731121533,0.002813550684330651,0.0,0.750534998323055,-0.6607240923025576,-0.011028918549949968,0.0,-0.006418976792477271,0.009399592710285426,-0.9999352200986913,0.0,0.6201759885642928,0.20647667803201578,0.3041759548236465,1.0,-0.12237999999998901,-0.1608422857142713,-0.46956012479995063,1.4489999999999517
0.4261848225340146,0.3347977132560205,-0.1264979867346565,-1.6808094306314845,0.057835314891821865,2.0092110089438937,0.22645040187313728,-0.13809330074083484,-0.545031000867871,-0.0034043511087478205,-0.8440651440592665,-0.07218019325833747,0.2533181313140186,0.3351798505766069,0.6668228070905566,0.7451983662543854,0.002736014779473701,0.0,0.7451758837149991,-0.6667621564229774,-0.01103974605501559,0.0,-0.0064026528806023775,0.009400547674797075,-0.9999353157777279,0.0,0.6180507298862428,0.2037297110936808,0.3041338107059741,1.0,-0.12626571428570288,-0.16594922448978094,-0.48699916971423446,1.4659999999999498
0.4239168288166383,0.32582050614509206,-0.126517695270696,-1.6937817760235205,0.05675408327467828,2.0134487370636003,0.23182523124971455,-0.14303273605499717,-0.5632017843081705,-0.0068343049437933154,-0.8273070228024176,-0.07555523993830279,0.26479176582817565,0.34132131099507423,0.6725949710575327,0.7399924490151447,0.002815530126536252,0.0,0.7399717138984772,-0.6725344380728274,-0.010956237375347183,0.0,-0.006214111596751837,0.009452704807496395,-0.9999360135473097,0.0,0.6160038970663634,0.20109834880329858,0.304212810438408,1.0,-0.12992285714284532,-0.17075575510202531,-0.5034123884570898,1.481999999999948
0.4213886848619055,0.3161989938301801,-0.12654161748980894,-1.7078642772125598,0.05562187728479057,2.018019547645219,0.23774902854396995,-0.15395431244637145,-0.5731723870002063,-0.0026299265117881265,-0.8656529365099787,-0.06626811842121155,0.2686515466354028,0.3411432866897385,0.6789294019808537,0.7341851667047479,0.0027847832681445134,0.0,0.7341645806624538,-0.6788687587319604,-0.010969221470065172,0.0,-0.006163055990964061,0.009491998963553822,-0.9999359572975303,0.0,0.6137492063465638,0.1982168947079201,0.30419295692677717,1.0,-0.13380857142855918,-0.17586269387753495,-0.5208514333713736,1.4989999999999462
0.418766222686915,0.3062957020559728,-0.12661126077134577,-1.7220487353010325,0.05446109970740421,2.022622575430964,0.24382296576437182,-0.1569618056237477,-0.5811765832030379,-0.00429032902010125,-0.8186751996726777,-0.07389188482109542,0.2762477138912157,0.36325351098109915,0.6854018085404538,0.7281459250510458,0.002935912505542021,0.0,0.7281278604379611,-0.6853409375049253,-0.010879574215716111,0.0,-0.005909930386957085,0.009594784264024561,-0.9999365044030286,0.0,0.6114707230469645,0.19525626155645429,0.30428488763154904,1.0,-0.13746571428570165,-0.18066922448977932,-0.537264652114229,1.5159999999999445
0.4159415916927743,0.29633087421985715,-0.1266583649190773,-1.7367125704849935,0.05322124363545884,2.0270857500216612,0.2500791769782669,-0.16804552773197218,-0.5839031478179539,0.00017322860379303991,-0.8692847316051111,-0.07305296570045097,0.25385400591913293,0.36825768887332283,0.692055248997032,0.7218266043380314,0.0025753653510358614,0.0,0.7218047584566065,-0.6919949581595143,-0.011027939627153396,0.0,-0.006178239325829615,0.009491037201612651,-0.9999358727296818,0.0,0.6090271850980988,0.19213305329153216,0.30415299375257254,1.0,-0.14157999999998697,-0.1860765714285543,-0.5557295231999414,1.5329999999999426
0.413144120565144,0.28659426998179377,-0.12678874489625253,-1.7504264244478505,0.05211910724213384,2.031536035538566,0.25622453709071125,-0.17585694054982648,-0.5915206642019926,-0.004594985757695267,-0.8771485912146467,-0.07053614103356069,0.27540073169510093,0.3875357113460707,0.6990186507886443,0.71508416244373,0.002883292038716084,0.0,0.7150666627090484,-0.6989576227195781,-0.010892953022380518,0.0,-0.005774190410619051,0.009676309639494216,-0.9999365118630594,0.0,0.6066720734860036,0.1889182114675436,0.30429868318107833,1.0,-0.14546571428570082,-0.19118351020406396,-0.5731685681142252,1.5499999999999408
0.409894776974952,0.2756239644576255,-0.12690075686038801,-1.7663163170477556,0.05073773733281267,2.036359613024594,0.2633292273634422,-0.18044635374807433,-0.6112707706557696,-0.01245654414406798,-0.8596533734516218,-0.08072347808494078,0.2693582793292706,0.3996797459197464,0.7060497321182344,0.7081438249971743,0.0026164470851021207,0.0,0.7081239049971086,-0.7059893403847042,-0.010969655237268531,0.0,-0.005921023864914332,0.009598075661522557,-0.9999364071879706,0.0,0.6041299878780092,0.18561515256831468,0.30420383246679106,1.0,-0.14935142857141467,-0.1962904489795736,-0.5906076130285091,1.5669999999999389
0.4068222218523704,0.26557123307280395,-0.1270077914739187,-1.7805047249408386,0.04947504305966067,2.0408067538071686,0.2697769060164546,-0.19397612362338001,-0.6218180944500946,-0.002008814623465642,-0.8941991082520695,-0.08390278331910174,0.2734092056659152,0.40473431112166297,0.7127996821541454,0.7013486238063601,0.00273274716771227,0.0,0.7013310667118908,-0.7127395440207475,-0.010854683554417741,0.0,-0.005665289476883217,0.009653961342329806,-0.9999373508003109,0.0,0.6017600127673788,0.18241243657915515,0.30426767928656295,1.0,-0.15300857142855714,-0.20109697959181796,-0.6070208317713643,1.5829999999999371
0.40338788673907744,0.25471800811652934,-0.12718270977836907,-1.7958242421297899,0.04807980997766166,2.045410545920495,0.27687142945222243,-0.20994915333989955,-0.6471674130218497,-0.009230413018471101,-0.8836146895633713,-0.0813235286232293,0.2658026091277659,0.4119733316157031,0.7197635390499086,0.6942004789622419,0.0026248360239638268,0.0,0.6941826066870744,-0.7197040516298102,-0.01083206083727958,0.0,-0.005630625107058473,0.009618823148837927,-0.9999378852219446,0.0,0.5992938169829769,0.17907235848301836,0.3042635475622806,1.0,-0.1566657142856996,-0.20590351020406233,-0.6234340505142197,1.5989999999999354
0.40004976130357717,0.24445535970752957,-0.12727708092103474,-1.810363353590768,0.046749010767087304,2.049803089949541,0.2836235228151754,-0.21159115954364546,-0.6403275481862184,-0.004196251277190109,-0.9047612873929091,-0.0821242033332958,0.26050220467911156,0.42559207994877063,0.7271487770431505,0.6864609376517273,0.002604615935244795,0.0,0.6864438348027092,-0.7270897858304678,-0.010772738907235919,0.0,-0.005501380727437222,0.00962149171611,-0.9999385789673527,0.0,0.5966336436494343,0.17550256142621057,0.30425725679102267,1.0,-0.16055142857141344,-0.211010448979572,-0.6408730954285036,1.6159999999999335
0.3961773011049156,0.232520355248204,-0.1273168037594264,-1.826823586556422,0.04528094354106602,2.054852390102281,0.2914195764205817,-0.21165799824243117,-0.6686071180047545,-0.003965443076714904,-0.9079989318473682,-0.08347226822424166,0.28472467277553803,0.435263197868756,0.7350421559580176,0.6780009228906845,0.002919661825955021,0.0,0.6779882065338041,-0.7349824994387053,-0.010651958557829643,0.0,-0.0050762351197017885,0.00980932372846581,-0.9999390026421611,0.0,0.5937627325574644,0.17172946845431555,0.30438649568333004,1.0,-0.1646657142856987,-0.2164177959183469,-0.6593379665142158,1.6339999999999315
0.39330427466744144,0.2238983911794579,-0.1273085101179481,-1.8389850322960126,0.044122161576706724,2.0583598431019348,0.2972530354603872,-0.22359039048499224,-0.6733053698908862,0.001610600391313925,-0.9388585813665318,-0.09327997386414817,0.2649200065784698,0.4462194056040701,0.7408068267412452,0.6716981830061597,0.002746507054164506,0.0,0.6716840687243092,-0.7407475366376997,-0.010693254338385645,0.0,-0.005148270294942525,0.00976660888436344,-0.9999390524746345,0.0,0.5915551878380322,0.16895279216328193,0.3043167398534274,1.0,-0.16763714285712697,-0.22032310204079544,-0.6726737067427857,1.64699999999993
0.38861969196733215,0.21028732548335782,-0.12737262626542528,-1.8576355634058495,0.04236753126567635,2.0637027725380737,0.3063569427756369,-0.23499888250014775,-0.6612181870303782,-0.006325541313871631,-0.9219021738520832,-0.07452385263590001,0.2633531230378883,0.459165080215566,0.749865066918554,0.6615702273637778,0.0028218047912772354,0.0,0.6615578533782769,-0.7498055960086922,-0.010654657609902541,0.0,-0.004933094211472866,0.00985653243080635,-0.9999392548299828,0.0,0.5881748981639083,0.16452597974315677,0.3044040599594169,1.0,-0.17220857142855509,-0.22633126530610098,-0.6931902301713552,1.666999999999928
0.38445992756110936,0.19859219291855282,-0.12746335097277778,-1.873737401230904,0.040814085364875075,2.0682444340569064,0.31430122371784414,-0.2426958031944634,-0.6956484247479142,-0.004246465202017779,-0.933367601116899,-0.09129191033424229,0.2676937258145486,0.4700238703052963,0.7576945153693309,0.6525888169916771,0.002757574631139478,0.0,0.6525765537419603,-0.7576352866896199,-0.010647101493457095,0.0,-0.004859037073294936,0.009866968925375794,-0.9999395145122258,0.0,0.5852103972247352,0.16064250826342327,0.30439843316731546,1.0,-0.17609428571426894,-0.23143820408161062,-0.710629275085639,1.6839999999999262
0.3801081953796455,0.18673354428265185,-0.12752134095836196,-1.8899783339418192,0.03925950390337506,2.072763524711128,0.32234773326419036,-0.2589261168600371,-0.7041864778469222,-0.003938618127128236,-0.956944970824033,-0.09386464723697296,0.2498665496305888,0.4691813664647949,0.7655678513165481,0.6433344991014788,0.002708172376556406,0.0,0.6433223411206325,-0.7655084528153043,-0.010673377375304677,0.0,-0.004793515331552145,0.009913613244722341,-0.9999393694035655,0.0,0.5821754585324938,0.1566887109222716,0.30438557775366215,1.0,-0.1799799999999828,-0.23654514285712028,-0.7280683199999227,1.7009999999999244
0.3755177734996651,0.17459446722727068,-0.1276720065369349,-1.9062745209299927,0.03768818097417249,2.077282725374013,0.3305561668659759,-0.2695889235144757,-0.7129814326486348,-0.00977764679597606,-0.9514765721986886,-0.09396584298310141,0.26815295516053833,0.49294281826157194,0.7731416509942446,0.6342117460444032,0.0028627920656926127,0.0,0.6342020945279259,-0.7730819571205996,-0.010617804489792656,0.0,-0.00452085047203532,0.010024848626833546,-0.9999395303322188,0.0,0.5793118329754903,0.15281680643866685,0.3044712833740862,1.0,-0.18363714285712524,-0.24135167346936465,-0.7444815387427781,1.7169999999999226
0.37108845294776827,0.16320928069991147,-0.12771445788296867,-1.9218592750791061,0.03604333564940191,2.0813802215991317,0.33843967451086227,-0.27315425565357565,-0.7179132074651896,-0.00039192519725428745,-0.9664717095378398,-0.09389865478995124,0.2456613829449747,0.48775876732462703,0.7811194738357642,0.6243609215580326,0.002560102918145955,0.0,0.6243488636606894,-0.7810607272098049,-0.010648180938771389,0.0,-0.004648801720707585,0.009916089755455701,-0.9999400281049474,0.0,0.5761066873340309,0.14868366196086627,0.3043688209701486,1.0,-0.18752285714283912,-0.24645861224487428,-0.7619205836570618,1.7339999999999207
0.3662303705656741,0.15080305647422992,-0.1277109086098536,-1.9382546948143706,0.034313144045896825,2.0858556945361073,0.3470114238985147,-0.287941636478721,-0.7226749586274036,0.0016242703185434897,-0.9761660211238026,-0.10323437365093316,0.24830418390219,0.5071471057110498,0.7891373620600706,0.6141946999098632,0.0028002329750598655,0.0,0.6141864625753537,-0.7890789185720067,-0.010497445194641708,0.0,-0.004237951987141608,0.010003984002300875,-0.9999409782917372,0.0,0.5729410711175588,0.14455496300159146,0.3044824780792498,1.0,-0.19140857142855297,-0.2515655510203839,-0.7793596285713457,1.7509999999999188
0.3611114482157557,0.1382475175920683,-0.12776443041635327,-1.9549057650270865,0.03259283449534089,2.0901661038940724,0.35569268718146935,-0.3029217147917577,-0.753880337057697,-0.0060966241884200375,-0.9678815121155937,-0.09384881885986732,0.2600661956013829,0.49524489106714686,0.7972668008179628,0.6036046047489888,0.0028064818752556813,0.0,0.6035972426433277,-0.7972083039802246,-0.010489787393175172,0.0,-0.004094412147556181,0.010057337592564414,-0.9999410411367836,0.0,0.5696531884327355,0.14026187809835147,0.30450695455895704,1.0,-0.19529428571426682,-0.2566724897958936,-0.7967986734856295,1.767999999999917
0.35612281162006754,0.12634368639990162,-0.12787424539140185,-1.9707024204197028,0.030885252332055788,2.0942081087764715,0.363964566655489,-0.3082052253475678,-0.7480354595257781,-0.012299040074338023,-0.9867983172028941,-0.11291648554953013,0.24295713242155548,0.5127654633248664,0.8054137236962426,0.5926905633473231,0.0027160084671707754,0.0,0.5926832544693397,-0.8053559140345913,-0.01044789463713128,0.0,-0.004005092187106318,0.010024803470498542,-0.9999417295782544,0.0,0.5662965995690302,0.1358526571972433,0.30447163296020896,1.0,-0.19917999999998068,-0.2617794285714032,-0.8142377183999133,1.784999999999915
0.3501849908262793,0.11272139563559828,-0.12804584896493998,-1.988418260305727,0.028933343379772884,2.0986614973392967,0.37338589323836474,-0.33813730420306953,-0.7436290730912742,-0.007704971864774059,-0.9973422097431441,-0.10910176547425184,0.2364854297206119,0.5401801667096681,0.8136715260136227,0.5813014039910965,0.002841192329063493,0.0,0.5812965942367045,-0.813614276819678,-0.01033561731146872,0.0,-0.0036965453821083405,0.010061566650908349,-0.9999425485640498,0.0,0.5629421752168359,0.13128374411560506,0.3045504081824473,1.0,-0.20306571428569453,-0.26688636734691285,-0.831676763314197,1.8019999999999132
0.344377984485597,0.09971241386367563,-0.12815189825863255,-2.00525795026762,0.027050995353820256,2.1027089525291704,0.3824468248324879,-0.345898091294532,-0.767017564415797,-0.007185111014422045,-0.9779011111928186,-0.11619977078686676,0.24701038714749213,0.5289986699425419,0.8218949377650213,0.569615196261688,0.0028260157817692083,0.0,0.5696112244318003,-0.8218381704333149,-0.01028695879912614,0.0,-0.003537148516665034,0.010064723448831137,-0.999943093341951,0.0,0.5594749544459637,0.12667981290886232,0.30458436121594645,1.0,-0.20695142857140844,-0.27199330612242256,-0.8491158082284811,1.8189999999999116
0.3387904112499153,0.08742312059684898,-0.12814621683860047,-2.021308688521411,0.02539126490668361,2.106461929508989,0.3911084283203649,-0.3550644943715575,-0.752090489542071,0.00015120880807657016,-1.013300982035224,-0.10068230524428574,0.231319740799826,0.5315900693671612,0.8295816704646585,0.5583618235519303,0.002659498080114657,0.0,0.5583564188509925,-0.8295239370094607,-0.010435245920799294,0.0,-0.003620595331344123,0.010142031832180917,-0.9999420135586672,0.0,0.5560776051493243,0.12238634204206086,0.30449830737008454,1.0,-0.2106085714285509,-0.27679983673466696,-0.8655290269713365,1.8349999999999098
0.3325588484331551,0.07404938019046325,-0.1282091263546854,-2.038193392313453,0.02339213685353899,2.110424681689391,0.4003892105364442,-0.36180295466667245,-0.765574953324237,-0.006129488506530025,-1.0042249204056262,-0.1138120108096911,0.23227943386573538,0.5491823300726412,0.8377342502467153,0.5460530718624057,0.002848784725486039,0.0,0.5460509784795591,-0.8376774257257154,-0.010276489296583834,0.0,-0.0032252079883169915,0.010164744445700313,-0.9999431363851574,0.0,0.5525162806709754,0.11766282668220626,0.30461115621664964,1.0,-0.21449428571426477,-0.28190677551017657,-0.8829680718856202,1.851999999999908
0.32604127612514233,0.060689046998781186,-0.12831938584389915,-2.0553047454661644,0.021449265875941332,2.1141702144679826,0.4096913697935454,-0.38701738183111845,-0.8176314111209264,-0.016547598090841067,-0.9915984978707687,-0.12376187342706138,0.22508141399176218,0.5505656319146104,0.8458912096467863,0.5333309125672104,0.0026355348093116886,0.0,0.5333273133032526,-0.8458344169615511,-0.010337449842942685,0.0,-0.0032841187390009186,0.0101501560732348,-0.9999430928286854,0.0,0.5488074665113766,0.11280023996688521,0.30454030988547276,1.0,-0.21837999999997862,-0.28701371428568623,-0.900407116799904,1.868999999999906
0.31925234203748,0.04712713558417731,-0.12844267001379425,-2.0723022321054523,0.019444814200216022,2.1179460759021818,0.41920265797218537,-0.3953820519851376,-0.7625141836689195,5.7381403758073536e-05,-0.9860478314457054,-0.11545674539695581,0.22106541936271543,0.5591638647169113,0.8540754859628497,0.5201233701702842,0.0027369656986344706,0.0,0.5201219227224967,-0.85401911575554,-0.010260717752031892,0.0,-0.0029994758209561656,0.010187179496766827,-0.9999436106694718,0.0,0.5451146981179085,0.10785099798572916,0.30458205442975866,1.0,-0.21998000000000004,-0.2891165714285715,-0.9075879000000002,1.8859999999999042
0.31238823916383696,0.03360282638728202,-0.1284337526248084,-2.0891354325612697,0.017470808215834185,2.121455609646061,0.42857839447145674,-0.404684754497223,-0.8108021785390861,-0.0005331304889820828,-0.9767326293434206,-0.12054909766475588,0.20173011719474473,0.543147416045792,0.8619447002815399,0.5069759933649944,0.0027244649661461854,0.0,0.506975252709162,-0.8618882454455221,-0.010270949543697989,0.0,-0.0028589955627924546,0.01023442388513296,-0.9999435397621765,0.0,0.5413474955215029,0.10300576257448131,0.30459931377872135,1.0,-0.21998000000000004,-0.2891165714285715,-0.9075879000000002,1.9029999999999023
0.3056706473473481,0.021022111404529607,-0.12846339520620467,-2.1047838270690256,0.015532801190200266,2.1245578813485104,0.4373325278438472,-0.41678759968830986,-0.7745448180223858,-0.00027013508430383395,-0.9645834959199963,-0.11013528528080976,0.1878458011709582,0.5376217257152066,0.8692399756205926,0.49436437895939955,0.0025441109266093396,0.0,0.4943626566840114,-0.8691841642043016,-0.010256669732639848,0.0,-0.0028592862833013988,0.010173416654721643,-0.9999441614787895,0.0,0.5377942218311257,0.0983426333362727,0.3045561522492055,1.0,-0.21998000000000004,-0.2891165714285715,-0.9075879000000002,1.9189999999999008
0.29835110645180546,0.007664523559731908,-0.12852187095454956,-2.121004595206871,0.013488019849480271,2.12782957137216,0.44644044251551523,-0.4317594756467121,-0.7677881118738854,-0.0049766675382507085,-0.9480087377006639,-0.1078721926519189,0.1843895557983602,0.5166522427212294,0.876782811159301,0.48085890027696776,0.0027142183454497894,0.0,0.4808600935858467,-0.8767277801895274,-0.010134926825723414,0.0,-0.0024938871579048283,0.010191485138427187,-0.9999449555638134,0.0,0.5341071725017175,0.09337034672581725,0.3046359733301797,1.0,-0.21998000000000004,-0.2891165714285715,-0.9075879000000002,1.935999999999899
0.29092845755145175,-0.005655266585886408,-0.12857244442024543,-2.1369613137049166,0.011567739757207084,2.130900695199908,0.4555185918618877,-0.4296934711283525,-0.7828811384124148,0.006000550503503468,-0.9192808221375667,-0.11427826267483279,0.190778422368156,0.5326834412160966,0.8841609319247397,0.46715254703303905,0.002948077293503578,0.0,0.46715704951246456,-0.8841056367468025,-0.010112421299958632,0.0,-0.002117672385950675,0.010318421592345126,-0.9999445212808101,0.0,0.5304091687395506,0.08844308014594433,0.304744203968804,1.0,-0.21998000000000004,-0.2891165714285715,-0.9075879000000002,1.952999999999897
0.2834397296389903,-0.01871852219693024,-0.12855153128597005,-2.152881298847269,0.009513107013628817,2.1337541923976406,0.4644671637617274,-0.43926549893140904,-0.7693736237399199,-0.0004834399833953222,-0.9450283001484768,-0.11685704475083801,0.16282328488817285,0.5221450869658822,0.8912169264384965,0.45354789378491034,0.002728547965386646,0.0,0.4535510170698537,-0.8911623252472026,-0.0100961317398622,0.0,-0.002147541483435378,0.010235576269504248,-0.9999453090264525,0.0,0.5266114356782645,0.0835663073684801,0.30465965773621195,1.0,-0.21998000000000004,-0.2891165714285715,-0.9075879000000002,1.9699999999998952
0.27617051007675225,-0.03108666845846799,-0.12856433323953578,-2.1673779017579595,0.007634011520539401,2.13633020185221,0.4727811551084952,-0.4555994169210866,-0.7610424163632236,0.0001857388274371245,-0.9132696160744262,-0.11601151615384415,0.15965725881578016,0.5177975633332901,0.8977298295742546,0.4405145444812856,0.0029725568511372114,0.0,0.44052115064944797,-0.8976758155674739,-0.0099996438419057,0.0,-0.0017366295918281316,0.010286650776334748,-0.9999455829861277,0.0,0.5231468822448611,0.07893906650743131,0.30478327628191115,1.0,-0.21998000000000004,-0.2891165714285715,-0.9075879000000002,1.9859999999998934
0.26821973968841173,-0.04395942718641784,-0.1286601179550564,-2.1828200616947395,0.005742993966305239,2.138779719354509,0.4813941288780378,-0.4600240643057692,-0.7433341878971538,-0.003069914565308803,-0.8880820708222503,-0.1022995923141803,0.13527151894944164,0.5009848572520734,0.90449088671875,0.42646189771116194,0.0026893390511104486,0.0,0.4264661844988357,-0.9044360476823238,-0.010137851497770557,0.0,-0.0018911086158899804,0.010316705083134467,-0.999944993139338,0.0,0.519347560577729,0.07393465816549982,0.3046795459736036,1.0,-0.21998000000000004,-0.2891165714285715,-0.9075879000000002,2.0029999999998918
0.2602860703335696,-0.05685590238886123,-0.1286289955267783,-2.197731185578986,0.003701288824102048,2.1412317832094425,0.4899251517699768,-0.468481604375588,-0.73036259476812,-4.131688975388169e-05,-0.8944811290768782,-0.12172171576955891,0.13303712560071626,0.505216332159506,0.9108930287298967,0.4126090113389179,0.0029053182965745,0.0,0.41261659955527696,-0.9108394309550621,-0.009990980437732565,0.0,-0.0014761185165796942,0.010299695288116584,-0.9999458672103689,0.0,0.5156642288867676,0.06908500316770456,0.30477907809081484,1.0,-0.21998000000000004,-0.2891165714285715,-0.9075879000000002,2.01999999999989
0.25214901857405064,-0.06956034199708291,-0.1286334194555355,-2.2126607632374338,0.0017496338164150844,2.1433205728075877,0.4983850703329795,-0.47977839283509305,-0.7497342205664282,0.0040523759334254,-0.8543537718128817,-0.11243216826852052,0.12611651876621938,0.4897546271135627,0.9171580309192455,0.3984911152083507,0.002593129681532642,0.0,0.39849621004378166,-0.9171042692434183,-0.010063638380139526,0.0,-0.0016321316031109867,0.010263496714971114,-0.9999459969326403,0.0,0.5118499883431926,0.0641869970249302,0.30468808766767497,1.0,-0.21998000000000004,-0.2891165714285715,-0.9075879000000002,2.036999999999888
0.24376671652513748,-0.08226626565963387,-0.12870806177687955,-2.2272106978922595,-0.00018068428572856464,2.145484314358635,0.5066622542875208,-0.49295679325100916,-0.7292833656643104,0.0006011236225340244,-0.8653263038130077,-0.10448085785677369,0.12263489970226152,0.4793254635433444,0.9232494042731325,0.38416641852038447,0.0027289726519022493,0.0,0.38417379330099116,-0.9231958655336353,-0.010031814568536157,0.0,-0.0013345356986124157,0.010310465108078794,-0.999945955201442,0.0,0.508144127273276,0.05922425333488851,0.3047265141945138,1.0,-0.21998000000000004,-0.2891165714285715,-0.9075879000000002,2.053999999999886
0.2353464609596534,-0.0948817710880305,-0.1286779308167492,-2.241558261927612,-0.0020929242314381698,2.1473662169355143,0.5147847483139184,-0.4887750192554855,-0.7381680836276804,0.00284786090709351,-0.7955666199594614,-0.11817023311672818,0.11971957504428862,0.45639948554648674,0.9290292615897111,0.3699703404284195,0.0027065133592465793,0.0,0.36997828741457767,-0.9289757342726185,-0.010044843235892944,0.0,-0.001202031979149032,0.010333503423707029,-0.9999458854488643,0.0,0.5043854213174701,0.05437439254278286,0.30473660290177407,1.0,-0.21998000000000004,-0.2891165714285715,-0.9075879000000002,2.0709999999998843
0.22673626863276602,-0.10735182567629668,-0.12868216815545172,-2.255700308113137,-0.00410190342151561,2.149166565574635,0.5227718398201834,-0.5056843268381487,-0.7371815194313694,-3.1796280511585916e-05,-0.8320917610635022,-0.11442798102683396,0.10309087684613982,0.4579557980649712,0.9345950874125988,0.35567651274548995,0.0026434384147230234,0.0,0.35568470829126975,-0.9345425177700888,-0.009970840932743726,0.0,-0.001076009056941496,0.010259127094528905,-0.9999467948424894,0.0,0.5006344600782914,0.0494805406397171,0.3047099958512192,1.0,-0.21998000000000004,-0.2891165714285715,-0.9075879000000002,2.0879999999998824
0.2183942799469586,-0.11909703972064828,-0.12877987794670645,-2.26869328289837,-0.005957354439747093,2.1506464969332932,0.5301048039471474,-0.5256698124107798,-0.7395027486218789,-0.013254838164353536,-0.8088313980943999,-0.11607774325269482,0.09945040342354819,0.44816128502908836,0.9396821813100805,0.34200997466296307,0.002705967586041586,0.0,0.34201962846716827,-0.9396302727980683,-0.00991317738246877,0.0,-0.0008478128073763358,0.010240927344480025,-0.9999472009164128,0.0,0.4971342189742668,0.044790307679996914,0.3047690756528525,1.0,-0.21998000000000004,-0.2891165714285715,-0.9075879000000002,2.1039999999998806
0.2089674438432007,-0.13211728190082703,-0.12878238303999215,-2.2832030443437423,-0.007920575337780301,2.1522343026497057,0.538313597637883,-0.5197966373416417,-0.7306431553499501,0.006290375457966404,-0.7821117995821399,-0.11635493666736789,0.08740534077544497,0.44791582650902406,0.9451463995979803,0.3266068794392682,0.0026413123871438585,0.0,0.32661668638454006,-0.9450942679109711,-0.009955492866606469,0.0,-0.0007552578026434054,0.010272292712158251,-0.999946953387072,0.0,0.4931487450266084,0.03964575808067144,0.30473146985733224,1.0,-0.21998000000000004,-0.2891165714285715,-0.9075879000000002,2.1219999999998786
0.2003812380597353,-0.14370236676992112,-0.12880074373778683,-2.295697116066255,-0.009753031353903046,2.153481588585071,0.5454311936547542,-0.5319877167839648,-0.7276032936760186,0.0010150062859857112,-0.7834434356706126,-0.12211407395315405,0.0751386644041069,0.43547554188292387,0.9497843045602792,0.3128619527476509,0.0028142912218848087,0.0,0.3128743375761455,-0.9497331786954228,-0.009863319551992943,0.0,-0.00041303961996785876,0.010248742923198988,-0.9999473949497375,0.0,0.48967200233644925,0.03503239724074884,0.30482709469576247,1.0,-0.21998000000000004,-0.2891165714285715,-0.9075879000000002,2.137999999999877
0.19105077009413546,-0.15581073706483056,-0.12890946742899306,-2.308969696574208,-0.011652907078998664,2.1546571124430605,0.5528095506145562,-0.5483396062605252,-0.7070196480785562,-0.01091535692269922,-0.7903605188697442,-0.11262752082963698,0.06405688903184178,0.4258595136098327,0.954528042385699,0.2980768835550841,0.0026710841660618416,0.0,0.29808859038787,-0.954477031981445,-0.009875960797446903,0.0,-0.00039431472140011303,0.010223298070701353,-0.9999476629766471,0.0,0.48589766272112356,0.03006754314150797,0.3047720750059508,1.0,-0.21998000000000004,-0.2891165714285715,-0.9075879000000002,2.154999999999875
0.18223675570302517,-0.1672242540024684,-0.12890452681086198,-2.3210541159393614,-0.01339123298243859,2.1556929475250985,0.5595638825793634,-0.5449315562965532,-0.7114274192500873,-0.0001996173957094102,-0.7524355130645248,-0.10456126916834557,0.07716748968148435,0.4209153984106468,0.9587108360109644,0.28433415785584937,0.002892489026934546,0.0,0.28434886904341744,-0.95866043798735,-0.009830168505167563,0.0,-2.2138312294250895e-05,0.010246962335025332,-0.9999474982581833,0.0,0.4824223899101129,0.025515262661807748,0.30486577732359527,1.0,-0.21998000000000004,-0.2891165714285715,-0.9075879000000002,2.1709999999998733
0.17262437247229345,-0.1791329546789864,-0.1289200586809278,-2.3338276911217952,-0.015235895392029077,2.1565639695172236,0.5666173783118396,-0.564844793080539,-0.6983253176845102,-0.0013274527313745315,-0.7310892308201369,-0.11392371497779749,0.05089270448920939,0.4005714485711031,0.9629730305401264,0.26954794624124223,0.0027557268916773505,0.0,0.2695620324777407,-0.9629227015866697,-0.009845217961401465,0.0,-2.06302396166258e-07,0.010223715556698595,-0.9999477364543474,0.0,0.4786539608055888,0.020625087716180986,0.3048257429887952,1.0,-0.21998000000000004,-0.2891165714285715,-0.9075879000000002,2.1879999999998714
0.16273604312081416,-0.19104225490648574,-0.1290560758340778,-2.3462477263792594,-0.017099408384124673,2.157374190774308,0.573562636512696,-0.5725834709351887,-0.7023490488152941,-0.008716899860854815,-0.7292691977852909,-0.11363967303132759,0.05925386489365554,0.4000501946278884,0.9670732710183196,0.2544436769823108,0.002906996191536991,0.0,0.2544600842429881,-0.9670236699099897,-0.009799707244332274,0.0,0.00031766669702476547,0.01021694614346433,-0.9999477551849251,0.0,0.47495130197615737,0.01562899793222519,0.30489432919732884,1.0,-0.21998000000000004,-0.2891165714285715,-0.9075879000000002,2.2049999999998695
0.1528766938045079,-0.2027763711245931,-0.1290667216359448,-2.358586955661451,-0.018917261612321264,2.1580582921720133,0.5803158923191112,-0.5815674428136862,-0.6878991091214062,-0.004906383872570092,-0.710249077907286,-0.10877037066593835,0.029246309513116138,0.3894222874408314,0.9708563059059834,0.23960522011371016,0.002849329404693531,0.0,0.23962179366229314,-0.9708070064685053,-0.009792808327182063,0.0,0.00041974903651703643,0.010190367335809752,-0.9999479887595693,0.0,0.4711894946533363,0.01079193326523878,0.30486270713218383,1.0,-0.21998000000000004,-0.2891165714285715,-0.9075879000000002,2.2219999999998676
0.14326937627767666,-0.2137402940541595,-0.12914765274774262,-2.369872320789702,-0.0205694941513593,2.158507978663092,0.5864903064982059,-0.600433362384741,-0.6783571360664029,-0.010694448259265738,-0.6760392717151779,-0.10449981917402537,0.03414789242686489,0.3737437888909935,0.9742622408406374,0.22535672381000577,0.0028600711545251297,0.0,0.22537414456545662,-0.9742128881917649,-0.009822949844951124,0.0,0.0005726614101822514,0.010214911886162407,-0.999947662447424,0.0,0.4676776254993159,0.006134106754393303,0.30488645463963066,1.0,-0.21998000000000004,-0.2891165714285715,-0.9075879000000002,2.237999999999866
0.1330052098759866,-0.22527922247225504,-0.12923234519805882,-2.381678879451133,-0.022416137162185316,2.1589553887498845,0.5928758228924493,-0.596069254571584,-0.6632505270729581,0.0012273697952153873,-0.7009228119352168,-0.10853353432651758,0.01919137806265715,0.3677201370071075,0.9776132522598239,0.21034414288808045,0.0029012858971152002,0.0,0.21036268941315261,-0.9775648865764278,-0.009755938544789419,0.0,0.0007841057841329047,0.010148052495149397,-0.9999481997627053,0.0,0.463950732244281,0.00122823303678028,0.30489946611923213,1.0,-0.21998000000000004,-0.2891165714285715,-0.9075879000000002,2.254999999999864
0.12257063041822208,-0.23670561273888446,-0.129275665751997,-2.393335475258325,-0.024180028879753113,2.159175302318031,0.5990922976173058,-0.6251093724538525,-0.6566503589262527,-0.0029743926267557907,-0.6701296852264794,-0.0996295434501216,0.01832994531891119,0.3605721545889544,0.9807317498447121,0.19529032302292187,0.0027697439123889563,0.0,0.19530828804058747,-0.9806834522301313,-0.00976657800127099,0.0,0.0008089394236888148,0.010119541907560968,-0.9999484689165687,0.0,0.46017340201445295,-0.003645567811986479,0.304867050311695,1.0,-0.21998000000000004,-0.2891165714285715,-0.9075879000000002,2.271999999999862
0.11244239127926121,-0.2474131997011766,-0.1294144257385269,-2.403895623715752,-0.025849180846247155,2.159424051185054,0.6047113661446174,-0.6361937248325813,-0.6493537482170713,-0.005556203666478264,-0.6716731049621683,-0.09545218341076785,0.002842733086651895,0.35773409340327583,0.9834834567518217,0.1809191806376242,0.003047502929707993,0.0,0.18094058860450601,-0.9834363538838844,-0.009705058280835888,0.0,0.0012412178747236435,0.010096375626407077,-0.9999482599501828,0.0,0.45672107519076993,-0.008346514834314863,0.30496565174675194,1.0,-0.21998000000000004,-0.2891165714285715,-0.9075879000000002,2.2879999999998604
0.10174435238474447,-0.25860533935203306,-0.12945795891838413,-2.415198570401981,-0.027506665222002513,2.159441254449788,0.6106043011006932,-0.6276838614628286,-0.6583580599264303,-0.001101074940391012,-0.6597592555439873,-0.09549580825827791,-0.009506773899730056,0.3325092266537414,0.9861450665187504,0.16580266368084062,0.0028515606736327984,0.0,0.16582291195213406,-0.9860972762907255,-0.009781127999156973,0.0,0.0011902020524614532,0.010118660031428276,-0.9999480967221461,0.0,0.45291679722098666,-0.013167803265609283,0.30488950062390546,1.0,-0.21998000000000004,-0.2891165714285715,-0.9075879000000002,2.3049999999998585
0.09065441327751661,-0.26970421195487676,-0.12960193643368648,-2.4259096679210406,-0.029253640647089636,2.159488773606941,0.616263070667537,-0.6573153056887542,-0.6371917464032402,-0.014626752615734592,-0.634457839456844,-0.10353527330495321,-0.0024300426224593834,0.32198053861160975,0.988604283742113,0.150440320198083,0.0031665638554015637,0.0,0.1504643567197923,-0.9885581462421587,-0.009696172253737333,0.0,0.0016716694211218464,0.010062326150420742,-0.9999479762036567,0.0,0.4492667196290214,-0.018149217700702325,0.3050009361644176,1.0,-0.21998000000000004,-0.2891165714285715,-0.9075879000000002,2.3219999999998566
0.07952955583372116,-0.2805795356110434,-0.1296738024558793,-2.4366511228355097,-0.030928099563373872,2.1594041794325567,0.6217468869939046,-0.6398521733697246,-0.6398104648412658,-0.0009387011970496517,-0.643947872492711,-0.09699228346441807,-0.008093025009023638,0.3152273779857017,0.9908001100689452,0.1352265179281424,0.0031108901626789105,0.0,0.13525069425174885,-0.9907542928908784,-0.009691631644044064,0.0,0.0017715962918382067,0.010023412735665404,-0.9999481949799747,0.0,0.44551972817885005,-0.023019416105823753,0.30494982234642704,1.0,-0.21998000000000004,-0.2891165714285715,-0.9075879000000002,2.3389999999998548
0.06820718176343095,-0.29143783029942605,-0.12973814667053066,-2.447081768441309,-0.03258273358151632,2.159194110932982,0.6270309023907403,-0.6735331284311981,-0.6510794744007425,-0.006144890061989583,-0.5905506338476318,-0.09788969191194945,-0.01150313562566933,0.3116211731647443,0.9927609146095651,0.11998377111262204,0.003226142337533324,0.0,0.12000974370557443,-0.9927159856081501,-0.009663344916226706,0.0,0.0020432378443657195,0.009980751812706648,-0.9999481035395611,0.0,0.44179957731587965,-0.027894654271680322,0.30498334810188277,1.0,-0.21998000000000004,-0.2891165714285715,-0.9075879000000002,2.355999999999853
0.05652003697767991,-0.3021212867798311,-0.12988533709240907,-2.45718876086055,-0.03420340131925326,2.158925242192797,0.6321028220595208,-0.6764968523007231,-0.6153148100132365,0.0015493255624092822,-0.5907701952905965,-0.10424656578210216,-0.02736856154322539,0.2905867476195849,0.9945129007322949,0.1044654375712526,0.0034364998605738873,0.0,0.10449416287089852,-0.9944690354553551,-0.009646468141972083,0.0,0.002409816582655877,0.009952822812511839,-0.9999475656763713,0.0,0.4381108618127823,-0.03288578225059942,0.30504322355377206,1.0,-0.21998000000000004,-0.2891165714285715,-0.9075879000000002,2.372999999999851
0.045624706316504435,-0.31203743400240913,-0.1299354276601336,-2.4667408584701174,-0.03574439310069783,2.158455387712644,0.6366878050750076,-0.6793808675295868,-0.6151294897213319,-0.004329824979100134,-0.5906326474622683,-0.0826162737872284,-0.029700986647734844,0.28239537003001314,0.9959053786283765,0.09023695860674491,0.0032426874167628826,0.0,0.09026435981382569,-0.9958615693913755,-0.009634669582032308,0.0,0.0023599099352185626,0.009888108738538053,-0.999948326730273,0.0,0.43453384749896157,-0.037419189438403444,0.3049705578829458,1.0,-0.21998000000000004,-0.2891165714285715,-0.9075879000000002,2.3889999999998492
0.03356604604376459,-0.32245934419741007,-0.1301290721117564,-2.476371545016756,-0.03732176713076881,2.1580000827027437,0.6413734347679195,-0.7122832433360894,-0.6110085537590939,-0.007599948785559786,-0.564602216029958,-0.09352092543812537,-0.024728033458194795,0.277356944528977,0.9971956563460384,0.0746283756336924,0.0034893288865700694,0.0,0.07465885970533426,-0.9971530449641967,-0.009623226451560413,0.0,0.0027612823289311916,0.009856938709953321,-0.9999476066670534,0.0,0.430847307147832,-0.042433521621522925,0.3050465954165634,1.0,-0.21998000000000004,-0.2891165714285715,-0.9075879000000002,2.4059999999998474
0.021594286174430034,-0.33266403231695124,-0.13015693166331718,-2.48592485679786,-0.03886464264025126,2.1573831482481483,0.6458750588541936,-0.7081845593085202,-0.5930341297230067,-0.0035250928212206874,-0.565235578486756,-0.0971294362752674,-0.04315462336530011,0.26790474463249825,0.9982174777291569,0.05942035158989295,0.003440330533790268,0.0,0.0594509463643943,-0.998175380928976,-0.009604206624160627,0.0,0.002863423036504553,0.009791806340614252,-0.9999479593144343,0.0,0.4271054538948607,-0.04725361931506773,0.3050193074862727,1.0,-0.21998000000000004,-0.2891165714285715,-0.9075879000000002,2.4229999999998455
0.009251646553799701,-0.3427688409724475,-0.13034994078646348,-2.495234203339446,-0.040354204048848014,2.156600235921668,0.6501512973688057,-0.738916352549827,-0.5864807956703938,-0.016713195927395365,-0.5399780920657956,-0.08905534049821988,-0.03646596233680298,0.2420348843624628,0.9990218774884596,0.04387046022090313,0.0033790413799976637,0.0,0.04390129287595329,-0.9989794722585009,-0.009666301834454685,0.0,0.0029515846915696975,0.009805380076241613,-0.99994756996023,0.0,0.42333423912601115,-0.05221242218048152,0.3050096276112319,1.0,-0.21998000000000004,-0.2891165714285715,-0.9075879000000002,2.4399999999998436
-0.0024341934204878623,-0.3521567224841613,-0.1304211040147196,-2.50360134551473,-0.04178725578426436,2.1559764179404732,0.6540707724231637,-0.7068891645205925,-0.5792215076400536,-0.0008779970843589442,-0.5082381966626127,-0.08115073333665208,-0.04366904589000416,0.236105177045291,0.9995784910166767,0.028457365024820602,0.003710198630296828,0.0,0.028491799411730245,-0.9995384468134032,-0.009584237546079068,0.0,0.003435810179955423,0.009686094426340067,-0.9999471859969262,0.0,0.419682367428686,-0.05710773217576747,0.3051146916612009,1.0,-0.21998000000000004,-0.2891165714285715,-0.9075879000000002,2.4569999999998418
-0.015824286439684112,-0.3624151189668896,-0.13061067649514463,-2.512971027914371,-0.04331472724029944,2.155021821134067,0.6581586338788814,-0.7416574482123693,-0.5611667312654416,-0.01926721964943617,-0.5165749264419112,-0.07585897651060312,-0.06629050577549389,0.22810150685149522,0.9998995383954297,0.012999335983549187,0.003560517069462893,0.0,0.013033125876875884,-0.9998589941554612,-0.009637237027018741,0.0,0.0034348034642895375,0.009682859946935615,-0.999947220781382,0.0,0.4159041476727455,-0.06203063517233852,0.3050595600946159,1.0,-0.21998000000000004,-0.2891165714285715,-0.9075879000000002,2.47399999999984
-0.02783801540949916,-0.37136950404582886,-0.13070808118037286,-2.521071028698772,-0.04472159293788335,2.154077228671459,0.6616482568570897,-0.7430403875665452,-0.5527911886169345,-0.008535645788001714,-0.49910171851595914,-0.08703449983728066,-0.06566362997681867,0.2076573694444367,0.9999835606583126,-0.0014332964200584053,0.0034016136910289423,0.0,-0.001400601879499086,-0.9999433648943331,-0.009594384783917583,0.0,0.003415238391563713,0.009589647382447282,-0.9999481860625625,0.0,0.4123571710906135,-0.06662144841136033,0.3050148857568219,1.0,-0.21998000000000004,-0.2891165714285715,-0.9075879000000002,2.489999999999838
-0.04006817657349141,-0.3802568416923169,-0.13085342177128803,-2.5287499243338805,-0.04596703384142829,2.153229032212898,0.6649578771781186,-0.7672455219985839,-0.5486203550224611,-0.013120812576233105,-0.46718866600512815,-0.06900881523149581,-0.05626943647766524,0.19863072507513127,0.9998390687428971,-0.016990368331049444,0.003729731963573806,0.0,-0.016953763357183405,-0.9998002141823337,-0.009635794217210093,0.0,0.0038927774569653684,0.009571194798796388,-0.9999466178320692,0.0,0.4086954560964322,-0.07155688878921877,0.3051233201644298,1.0,-0.21998000000000004,-0.2891165714285715,-0.9075879000000002,2.5069999999998362
-0.05404357233917148,-0.38993675839374836,-0.13098228406000104,-2.537378878232141,-0.04746742782338526,2.152096818802612,0.6684610853910732,-0.7620140477432092,-0.5313187503515212,-0.004547726366589416,-0.4864784058260849,-0.07510560650682235,-0.07189441653736786,0.18341625196701605,0.9994595099966961,-0.032384862818021776,0.003557448331393161,0.0,-0.032349469020590826,-0.9994209507147532,-0.009592811251832397,0.0,0.0038661247047900305,0.009472727248012014,-0.9999476588893299,0.0,0.40491825269108384,-0.07645755089769536,0.30505976154344994,1.0,-0.21998000000000004,-0.2891165714285715,-0.9075879000000002,2.5239999999998344
-0.065010400908609,-0.3973743306036014,-0.13111317785551765,-2.54384907698562,-0.04857145527636197,2.1511583154846705,0.6709819088998232,-0.7942795198915428,-0.51648055145183,-0.017893461890743863,-0.4596529813130759,-0.0714403168195372,-0.07070768462519908,0.18081047144559642,0.9989689887700661,-0.04504634108424882,0.003540272848384691,0.0,-0.04501059226801507,-0.9989307387965669,-0.009600654781620909,0.0,0.003969038158187221,0.009431588208329705,-0.9999476445694382,0.0,0.40182981748051044,-0.08049560106489774,0.3050622319901785,1.0,-0.21998000000000004,-0.2891165714285715,-0.9075879000000002,2.537999999999833
-0.08092373886536182,-0.4077359499413437,-0.1312654680042169,-2.552717944791046,-0.05011818575258812,2.1498103022044104,0.6744297891953839,-0.779554784115194,-0.5190618416935038,-0.002267647867576435,-0.4318103050802956,-0.07440370631150692,-0.05647769496433545,0.1645648177731495,0.9979841449847662,-0.06320827983400329,0.00362030670790269,0.0,-0.06317120896739814,-0.9979471439143046,-0.009573046123770395,0.0,0.0042180517280669405,0.009325228638707966,-0.9999476227035369,0.0,0.3974542013610101,-0.08627536204333983,0.3050996136655728,1.0,-0.21998000000000004,-0.2891165714285715,-0.9075879000000002,2.5579999999998306
-0.09384859673128754,-0.4157776455428008,-0.13144253934251185,-2.559545615027956,-0.05134730357289331,2.148777582590793,0.6769170541204356,-0.8303785601181031,-0.49721601629495815,-0.014412765179401672,-0.42075197103034995,-0.0765385226044988,-0.0684191099783756,0.15891059311609412,0.9969594128095307,-0.07770844528055693,0.003751485540744055,0.0,-0.07766978022829679,-0.9969238518261272,-0.009538647737195923,0.0,0.004481265179326344,0.009218445073226306,-0.9999474678866009,0.0,0.39396960618844884,-0.09093367392717976,0.3051305227357599,1.0,-0.21998000000000004,-0.2891165714285715,-0.9075879000000002,2.573999999999829
-0.10772582460428787,-0.42413962471675254,-0.13153032257439284,-2.56673909323832,-0.05251221151358227,2.147428374521966,0.6793795471138961,-0.8119866135567859,-0.4837582661980487,-0.007128318584938053,-0.41656233249335123,-0.06776326799600293,-0.08250340737703483,0.14809233491137253,0.9956463638212145,-0.09304078620120715,0.0035323099896879878,0.0,-0.09300332783071191,-0.995609874263922,-0.009597196559354985,0.0,0.004409818320572079,0.009227074923013626,-0.9999477059280374,0.0,0.39017425468467853,-0.09579713012764257,0.3050763244457658,1.0,-0.21998000000000004,-0.2891165714285715,-0.9075879000000002,2.590999999999827
-0.12175802370483406,-0.43223470364729977,-0.13174828854100598,-2.5736063640959803,-0.05367465282829386,2.1461723242351445,0.6816048045279772,-0.8432675027254789,-0.47414373453865916,-0.012098868048468542,-0.3986484237637995,-0.07189634014485291,-0.06759079255872982,0.12246743288799941,0.9940916057416336,-0.10840026033341965,0.003465523752001392,0.0,-0.1083625849932055,-0.9940548439576592,-0.009657343274017557,0.0,0.004491865679893847,0.009224928378801442,-0.9999473605341032,0.0,0.38641736092713536,-0.10071361120067969,0.3050484239261727,1.0,-0.21998000000000004,-0.2891165714285715,-0.9075879000000002,2.607999999999825
-0.13508765772816309,-0.4396598709786402,-0.1318434815992989,-2.5796479977146496,-0.05478721625641376,2.1451066797772587,0.6836167510411141,-0.8197468761691353,-0.46781779215795494,-0.01439693782515837,-0.36759437155485114,-0.063349748124058,-0.058074020475717074,0.11777765990383629,0.9924169220763461,-0.12278192175489477,0.003741572917221141,0.0,-0.12274155007005177,-0.9923826845600642,-0.009584684291589004,0.0,0.004889992280308786,0.009052930721141994,-0.9999470648093611,0.0,0.3829846422082806,-0.10532474702577786,0.30513188133115837,1.0,-0.21998000000000004,-0.2891165714285715,-0.9075879000000002,2.6239999999998234
-0.1495474106944774,-0.44737575758131815,-0.1320240393109031,-2.585944176358079,-0.05588200492311554,2.143789027709331,0.6855221647930955,-0.8527442003458627,-0.4556682316336416,-0.008702488276677309,-0.3708045047062674,-0.06265890674965582,-0.08378074929658427,0.1152999186603645,0.9903849880593231,-0.1382165386242749,0.0038093015984105422,0.0,-0.13817487131584805,-0.9903514444856265,-0.009616040936366954,0.0,0.005101741458293452,0.00899740605772581,-0.9999465080284671,0.0,0.37924179525477747,-0.11027470948891971,0.30517190441568126,1.0,-0.21998000000000004,-0.2891165714285715,-0.9075879000000002,2.6409999999998215
