nelsonifechukwu/NELSON_IML_WORK/CNN-GradCAM/train2dof/data_sample_2022-07-06-11-27-23/robot_state.csv
position_joint1,position_joint2,position_joint3,position_joint4,position_joint5,position_joint6,position_joint7,velocity_joint1,velocity_joint2,velocity_joint3,velocity_joint4,velocity_joint5,velocity_joint6,velocity_joint7,ee_T_00,ee_T_10,ee_T_20,ee_T_30,ee_T_01,ee_T_11,ee_T_21,ee_T_31,ee_T_02,ee_T_12,ee_T_22,ee_T_32,ee_T_03,ee_T_13,ee_T_23,ee_T_33,v_x,v_y,w_z,time
0.4650970849900722,0.5472931682968548,-0.12397575539873357,-1.3555915828646719,0.07946585017703976,1.894175146632724,0.15913671471818425,-0.0007201918782126912,-0.0007684596655593193,-0.0002945236067381113,-0.00012379409527464688,0.00024456854302635616,-0.004037759292473894,-0.0017569003791568808,0.5737364787883561,0.8190240219608855,0.0026174911196262616,0.0,0.8189901368654873,-0.5736760702050727,-0.011474715348244407,0.0,-0.007896627530621592,0.00872733021745821,-0.9999307360917145,0.0,0.6617530777995134,0.26094805434952106,0.30368104220504744,1.0,5e-324,6.9325602490835e-310,6.9323480495045e-310,0.0
0.46510010908849053,0.5473016655614614,-0.12397609057089774,-1.3555888262041818,0.07946245394673755,1.894177977979824,0.1591496141175252,0.0011520285628153566,-0.002112046616611932,8.290467824249945e-05,0.0012256315188321663,9.673613912940983e-05,0.005293094529867236,0.0017105367370422308,0.5737437878189107,0.8190189178773333,0.002612469992050238,0.0,0.818985004612814,-0.5736834352698628,-0.01147280338569009,0.0,-0.007897864312750247,0.008722191349109329,-0.9999307711623674,0.0,0.6617535299920626,0.2609497196858981,0.30367658565495514,1.0,-0.00020000000000000004,-0.00026285714285714297,-0.00010000000000000002,0.011000000000000003
0.4650942375073417,0.5472975043850558,-0.12397396295668245,-1.3555990853272157,0.07946443302893413,1.894176206270878,0.1591385530742421,-0.0008212127768922084,0.0009565514299102263,0.0006507818085237833,-0.0017321221363309916,0.0001347807627826351,0.0002778134185648942,-0.001981222316986116,0.5737391195965746,0.8190222023252162,0.002607996186442864,0.0,0.8189881918744162,-0.5736787387733887,-0.011480119810199196,0.0,-0.007906473271053316,0.008722679852534027,-0.9999306988669788,0.0,0.6617518677596025,0.26094610165461174,0.30367442812323664,1.0,-0.0005200000000000003,-0.0006834285714285719,-0.00026000000000000014,0.027000000000000017
0.4650888996171265,0.5472712956032434,-0.12397939788814794,-1.3556096417182002,0.07946123117793749,1.8941766446952009,0.1591386003740928,-0.0018251729205319281,-0.0020673095061059183,0.0004079005129801604,-0.00334461269443753,0.00021611562327561088,-6.243188468890369e-05,-0.0015494941014515093,0.5737470043801276,0.8190166417543912,0.002619617414365288,0.0,0.8189828256515046,-0.5736866334802788,-0.011468424266226534,0.0,-0.007890142742983552,0.00872556373399111,-0.9999308026983764,0.0,0.6617530445561987,0.2609380255668196,0.3036881825449047,1.0,-0.0008600000000000006,-0.0011302857142857154,-0.0004300000000000003,0.04400000000000003
0.46509601630646147,0.5471787185634522,-0.1239771259839933,-1.3557068490190538,0.07946122531412289,1.8941941934438966,0.15914532149271643,0.0006427203963078539,-0.009136957601084426,0.0007981210945890558,-0.011993127007859294,-0.0011630225536846588,0.0006894450645787743,0.001276179122716394,0.5737503469941444,0.8190142483146948,0.002635769872840709,0.0,0.8189805605258073,-0.5736898341908946,-0.01147007097042528,0.0,-0.007882188929205891,0.008739769754855575,-0.9999307413627787,0.0,0.6617343227689628,0.2609349146027319,0.30370893886684447,1.0,-0.001200000000000001,-0.0015771428571428588,-0.0006000000000000005,0.06100000000000005
0.46508470774871424,0.5470417513993836,-0.12397470653324164,-1.3558725835108003,0.0794584741464413,1.8942327386939803,0.1591362609079665,-0.0011581886473546207,-0.00481095242117299,-0.0012598425976857977,-0.013008764284666248,0.00022751211585648453,0.003962061429220627,-0.0017033215485217747,0.573758833300743,0.8190082564162834,0.0026502891422956138,0.0,0.818974658169184,-0.5736981634543167,-0.011474904227068577,0.0,-0.00787772696065292,0.008754515857480313,-0.9999306475301346,0.0,0.6617101776305268,0.26091312490485497,0.3037303294631759,1.0,-0.0015400000000000012,-0.002024000000000002,-0.0007700000000000006,0.07800000000000006
0.46506876918079115,0.5468846207077906,-0.12397958306547147,-1.3560635810467925,0.07945109202880837,1.8943015939842398,0.15913762424578876,-0.0015508749926152453,-0.004988983846538105,-0.0007879426096789137,-0.012942111566350726,0.00013424373798541413,0.00863846718610467,-0.0013440749351866493,0.5737850582620978,0.8189897811141376,0.002681836495091236,0.0,0.8189565802019194,-0.5737242718636759,-0.01145977834342755,0.0,-0.007846957744949423,0.008771926115895015,-0.9999307368844936,0.0,0.6616899563685964,0.26088262650467253,0.3037568414201175,1.0,-0.0018600000000000014,-0.002444571428571431,-0.0009300000000000007,0.09400000000000007
0.46504919718573723,0.5466987187221687,-0.12397715665748613,-1.3562631047001035,0.07944714835340297,1.8944176843410323,0.15913766466533588,-0.001902554021634412,-0.013114360777903539,2.5668984384180654e-06,-0.008762981951271448,0.00010884020519961027,0.008033430730699493,-0.0003259127853009674,0.5738055763590106,0.8189751168591323,0.002768646976853367,0.0,0.8189429507626189,-0.5737444150522547,-0.011425256836017118,0.0,-0.007768654882881754,0.008823409886667036,-0.9999308953319137,0.0,0.6616728384985642,0.2608569173411008,0.3037960805879218,1.0,-0.002200000000000002,-0.0028914285714285743,-0.001100000000000001,0.11100000000000008
0.4650282848604728,0.5464876147658205,-0.12397685718315427,-1.3565154098892482,0.07944463690137125,1.8945415111684851,0.1591345435681944,0.00019310296884642085,-0.011676480883430939,0.0006487391933246292,-0.01567417528541993,0.00039384132565574486,0.0016838107218522112,-0.002326124209274184,0.5738339522623386,0.8189549586989725,0.0028491673444369127,0.0,0.8189238193053949,-0.5737725249990396,-0.011384842190370864,0.0,-0.0076890470624299545,0.00886643069979616,-0.9999311301094278,0.0,0.6616516091744912,0.260822139742703,0.30384259886042053,1.0,-0.002540000000000002,-0.0033382857142857172,-0.001270000000000001,0.12800000000000009
0.46499421928070206,0.5462606849383281,-0.12398285827353499,-1.3568463616450754,0.07943251556678556,1.894676523383862,0.15912602507612944,-0.0045334141146272065,-0.013880549720202445,0.00093213379622675,-0.02141620469842108,-0.002826926825752254,0.007933675404442436,-0.00022461494655400238,0.573875069841664,0.8189260079171325,0.0028887146522822375,0.0,0.8188953633737793,-0.5738135005178406,-0.011366502082713552,0.0,-0.007650888011257739,0.008888678346038806,-0.9999312252899696,0.0,0.6616217447736981,0.2607668650479747,0.3038643851524177,1.0,-0.002880000000000002,-0.00378514285714286,-0.001440000000000001,0.1450000000000001
0.4649550819982089,0.5459703578261493,-0.12397755687958734,-1.3572816526784075,0.0794158860581775,1.894827826166898,0.1591010968998567,-0.0018757182874290848,-0.018778186866196176,-0.00010999232743948545,-0.02588242596714617,-0.000499980738766756,0.010287481317912593,-0.0023596330734381023,0.5739058094019694,0.8189044557837977,0.002891562435898297,0.0,0.8188737497681321,-0.5738441135950885,-0.01137814282535279,0.0,-0.007658453224249517,0.00889797815590046,-0.9999310846648128,0.0,0.6615707870310038,0.26070603183238694,0.30387010276104104,1.0,-0.0032200000000000024,-0.004232000000000004,-0.0016100000000000012,0.16200000000000012
0.46491401204064764,0.5456864583902701,-0.12398035554797132,-1.3577193038052184,0.07939077305864681,1.8949820821819783,0.15908867955175404,0.0003644980117827096,-0.02180723477491535,-0.0014971228752255115,-0.030026933906688362,-0.00027854420848646337,0.012877279379134876,-0.005146869628191417,0.5739489871553509,0.8188741936845786,0.0028917057226184924,0.0,0.8188434840922056,-0.5738872792145752,-0.011379201054470371,0.0,-0.0076587684138363366,0.008899106644108062,-0.9999310722081397,0.0,0.6615213624088746,0.2606354226571269,0.3038762338702389,1.0,-0.0035400000000000028,-0.004652571428571433,-0.0017700000000000014,0.17800000000000013
0.4648576554461342,0.5453740480164416,-0.12397788352536089,-1.3582484925755862,0.0793405195279492,1.895156497373763,0.1590338927103157,-0.0013707709858721167,-0.02412944557683107,-0.0003251731206811346,-0.032338276568054526,-0.006610812666970097,0.00785112284328249,-0.006930589749912404,0.5739647270234687,0.8188633221205612,0.0028458249702641254,0.0,0.8188321270290504,-0.57390327913448,-0.011389505914671631,0.0,-0.0076933684895059695,0.008867598295546453,-0.9999310865163427,0.0,0.6614598506729216,0.2605445615277142,0.3038604815839692,1.0,-0.003880000000000003,-0.005099428571428576,-0.0019400000000000014,0.19500000000000015
0.4647981846036554,0.5450197250211312,-0.12397574610088491,-1.3588508021974952,0.07930068492464809,1.8953494754852307,0.15894046105082735,-0.004727845913450499,-0.02174853047668816,0.003033111065396378,-0.03440259100422807,8.501210023028751e-05,0.011796034908116976,-0.001544573373045067,0.573964696358043,0.8188634959495296,0.0028016490041735728,0.0,0.8188317284917833,-0.57390338142207,-0.011412979833545325,0.0,-0.00773794570807862,0.00884489689308969,-0.9999309436131923,0.0,0.6613823111198309,0.26044071186591544,0.30384638337398095,1.0,-0.004240000000000003,-0.005572571428571434,-0.0021200000000000017,0.21300000000000016
0.4647444522392842,0.5446750020669564,-0.12398086264847623,-1.3594371876021425,0.07928036037648203,1.8955485962115224,0.15893272470521133,-0.006972082154074149,-0.023076507199725604,-0.0009998062213246975,-0.04654892805327639,-0.00021833075289229748,0.01506564121808105,-0.0011079469006476058,0.5740514099534831,0.8188028876108532,0.002748976492241445,0.0,0.818770245787157,-0.5739900289671559,-0.011466392681675357,0.0,-0.0078109807274077125,0.008833249111629471,-0.9999304787285004,0.0,0.661293350687163,0.26032654910718483,0.3038157342962841,1.0,-0.004600000000000003,-0.006045714285714291,-0.0023000000000000017,0.23100000000000018
0.4646856760331427,0.5442283148269651,-0.1239899296576271,-1.3602121497981117,0.07924409461804371,1.8957932826444175,0.15891640343428914,-0.0065486854514199685,-0.027534822527193387,-0.00018718923435298018,-0.04521423264300967,-0.0005489650808819495,0.015683192263733128,0.001598235448216417,0.5741014832326923,0.818767946650076,0.0026987755833745436,0.0,0.8187346010482868,-0.5740401959313027,-0.011500147940907363,0.0,-0.00786689831326437,0.008812002599199925,-0.9999302278264821,0.0,0.6612188742491465,0.2602334125183302,0.30379223834645097,1.0,-0.004880000000000004,-0.0064137142857142925,-0.002440000000000002,0.2450000000000002
0.4646086656134758,0.5437381943170192,-0.12398748844307085,-1.3610000303963126,0.07920490796921659,1.8960659671037052,0.15884793112696854,-0.0026031495523551264,-0.031154651477733553,6.669678212961474e-05,-0.04389228494257199,-0.0005334435342545256,0.01910886258278289,-0.006405042687516521,0.5741401793426677,0.8187408667835973,0.002682242349541968,0.0,0.8187071987715673,-0.5740788199143781,-0.01152293827705834,0.0,-0.007894633946270546,0.008811922626181579,-0.9999300099379379,0.0,0.6611266592483099,0.2601089857609493,0.3037875571095028,1.0,-0.005240000000000003,-0.0068868571428571486,-0.0026200000000000017,0.2630000000000002
0.4645474995591316,0.5432832771461097,-0.12399600451793835,-1.3617544269308182,0.0791656074241543,1.896343269163708,0.15875754363163774,-0.002561431224250036,-0.029512836303436717,-0.00016847682425027925,-0.049516706797221664,-0.0014236631321944196,0.020993603433405155,-0.006439324836913179,0.5741443446966237,0.8187379893586488,0.0026689202029824485,0.0,0.818704114233987,-0.5740829899944628,-0.011534332948569577,0.0,-0.007911567198905012,0.008807597556558994,-0.9999299142088603,0.0,0.6610334957986537,0.2599885674257719,0.3037781741306659,1.0,-0.005580000000000004,-0.007333714285714292,-0.002790000000000002,0.2800000000000002
0.4644776486971627,0.5427657773623721,-0.12399567887033235,-1.3626050336102473,0.07911793814320288,1.8966322546355519,0.15873762563629285,-0.0058569695443422,-0.030548781507659606,-0.0021633251208690355,-0.04817967555407181,-0.004590456240231129,0.015715556575058427,-0.004188789580615476,0.57422903594678,0.8186787284545862,0.0026269284006055034,0.0,0.81864425441339,-0.5741677495092341,-0.011564040844558893,0.0,-0.007959089923667395,0.00879109712359269,-0.9999296822771842,0.0,0.6609366347268303,0.25986424198875746,0.30376081657202486,1.0,-0.005900000000000004,-0.007754285714285721,-0.002950000000000002,0.2960000000000002
0.4644101864267523,0.5422406266147608,-0.12399673760631424,-1.3634468214692195,0.07906828915842778,1.8969264428071246,0.15868165817505653,-0.006693476353588258,-0.030079182190979003,-0.0002359308175789631,-0.050767427948709073,-0.0025689468782332274,0.014189716994697572,-0.00524489338955674,0.5742726874501362,0.8186481711846015,0.0026075210668529145,0.0,0.8186134148246617,-0.5742114270158506,-0.011578473765369933,0.0,-0.007981581650537362,0.008783922088293358,-0.9999295660530809,0.0,0.6608357820585827,0.25973794574343356,0.30375705706200934,1.0,-0.006220000000000004,-0.00817485714285715,-0.003110000000000002,0.3120000000000002
0.4643262792958411,0.541633621394266,-0.12399520665677338,-1.364392136149435,0.07901687866236563,1.8972627900916894,0.1585707616505918,-0.007007652945285892,-0.035718963355264796,3.521318344605334e-06,-0.05672988831717228,-0.0030242269736545867,0.017439392288878697,-0.009983784669541506,0.5742882378636025,0.8186372565386119,0.0026093983332634903,0.0,0.8186024461729351,-0.5742268829075964,-0.011587448689018388,0.0,-0.007987684321561161,0.008790764597059575,-0.999929457190345,0.0,0.6607252728993727,0.25959365170396453,0.30376541113280126,1.0,-0.006560000000000005,-0.008621714285714293,-0.0032800000000000025,0.32900000000000024
0.4642461649071958,0.541011891215761,-0.12400546169125005,-1.3653660642357133,0.07894335489204356,1.8976077797613238,0.15853230365335536,-0.00581242270275181,-0.03851805053153233,-0.001131208166311409,-0.05996002562292848,-0.005089001415223277,0.01563914201800772,-0.000790738991707608,0.5743638544966055,0.8185842609470273,0.0025917713672051557,0.0,0.8185493736917365,-0.5743027165505616,-0.011578406311716222,0.0,-0.007989593661192729,0.00877187979337142,-0.9999296077814775,0.0,0.6606130658667042,0.2594388484411231,0.30377156993167564,1.0,-0.006900000000000005,-0.009068571428571436,-0.0034500000000000025,0.34600000000000025
0.46416062977393857,0.5403688249941008,-0.12400062585426387,-1.3663239373865785,0.07889384075573425,1.897976561520353,0.15846659308536462,-0.0030919267835687178,-0.042004068618062565,0.0004249256386396145,-0.06086652117229769,-0.00798142155682896,0.02271895196889802,-0.002537307350696313,0.574416592836785,0.8185470915484394,0.002642667701039902,0.0,0.818512790650425,-0.5743551961603439,-0.011561448286218402,0.0,-0.0079459129264009,0.008804314557906229,-0.9999296707833664,0.0,0.66050631353589,0.25929690080916473,0.3038019814527288,1.0,-0.007220000000000005,-0.009489142857142866,-0.0036100000000000025,0.36200000000000027
0.4640446455779486,0.5396381344165558,-0.1240063244150119,-1.3674579617131066,0.07882923268804323,1.8983996858229806,0.15836587862887952,-0.0034727591792918576,-0.0397707438931648,-0.0031245289653331018,-0.0644864323660756,-0.005724447289882946,0.025939102072029197,-0.002517007168686522,0.5744786277318946,0.8185035013135744,0.002659232578540072,0.0,0.8184694099484019,-0.5744171623962726,-0.01155402200696326,0.0,-0.007929651305396745,0.008814208927652903,-0.9999297127054253,0.0,0.6603829948691946,0.25911023377674586,0.30381541276520574,1.0,-0.007580000000000006,-0.009962285714285724,-0.003790000000000003,0.3800000000000003
0.4639532721448997,0.5389065674849728,-0.1240097865629092,-1.3686248449772713,0.07875737072151537,1.8988277811292482,0.158295689185055,-0.006320031061080395,-0.04380080087621904,-0.00025225030771291155,-0.06770042321602955,-0.0032830413592080995,0.024965800271264618,-0.00568487676190343,0.5745437165011207,0.8184578446677615,0.002649760761006221,0.0,0.8184236480800455,-0.5744822939997318,-0.011557380558059951,0.0,-0.007937140955580457,0.008809016848279227,-0.9999296990366962,0.0,0.6602463819991794,0.25893640708837523,0.30381404983657456,1.0,-0.007920000000000007,-0.010409142857142869,-0.0039600000000000034,0.3970000000000003
0.46384815504923477,0.53814652944896,-0.1240180450547206,-1.3697856849929029,0.0786975959836142,1.899288832209775,0.15818862411300383,-0.00825113808502705,-0.036848962352293534,0.0007392428754676497,-0.0676521669862694,-0.00913079619749774,0.022527595381848852,-0.0031476359579731515,0.5745962008185737,0.8184208251269846,0.0027029436796363908,0.0,0.8183873063293332,-0.5745345835823924,-0.011531522364098462,0.0,-0.007884855234666033,0.008838193899823168,-0.9999298552331144,0.0,0.660122235159315,0.25875600716574626,0.3038385962589212,1.0,-0.008260000000000007,-0.010856000000000011,-0.0041300000000000035,0.4140000000000003
0.46374309701148164,0.5373605786989067,-0.12402525534415305,-1.371038673507303,0.0786180973721245,1.8997544969512539,0.1581183820312901,-0.0021401360200593257,-0.04619153058754333,-5.730682945015306e-05,-0.07052151682696362,-0.008024678327667336,0.029740341399602705,-0.002225019211675849,0.5746776200990977,0.8183636798351694,0.002695808799933472,0.0,0.8183301305424555,-0.5746160853822608,-0.011528172775517292,0.0,-0.007885334611917483,0.008831214490137546,-0.9999299131182581,0.0,0.659978951755197,0.25856280151158456,0.3038377799324047,1.0,-0.008600000000000007,-0.011302857142857154,-0.0043000000000000035,0.4310000000000003
0.4636493925798609,0.5365873113737931,-0.12403146539300337,-1.3722464111828,0.07855727203687662,1.9002002223171053,0.1579992510209484,-0.00011049847958043764,-0.0462888066047573,-4.998711888037847e-05,-0.07473628314890135,-0.0037376812451708407,0.02811772152059116,-0.0072225440264900055,0.5747113955176626,0.8183399147751481,0.0027097323026878794,0.0,0.8183064634039516,-0.5746497186281069,-0.011531683882374787,0.0,-0.007879842011596194,0.008844951886824631,-0.9999298349964321,0.0,0.6598373691048137,0.2583845469345701,0.3038476768735247,1.0,-0.008920000000000008,-0.011723428571428584,-0.004460000000000004,0.44700000000000034
0.46353158838370045,0.5357290114316074,-0.12404390806643162,-1.3735979023384914,0.07846422713473455,1.900689740029284,0.1579369236887409,-0.005948823917898522,-0.049714744284709615,0.0005069183640200583,-0.07897743662127282,-0.005825037885693672,0.027193875508537645,0.0012462786378415313,0.5748148457735768,0.8182672992069583,0.002695742580004261,0.0,0.8182338003968944,-0.5747533516092379,-0.011523003220129871,0.0,-0.007879661348653921,0.00882951101040376,-0.9999299728842753,0.0,0.6596825866601653,0.2581686102961731,0.3038529762721637,1.0,-0.009260000000000008,-0.012170285714285727,-0.004630000000000004,0.46400000000000036
0.46342030462421796,0.5348915009103888,-0.12404468291775336,-1.3748915527145205,0.07839894791904169,1.9011621461436983,0.15783067802097336,-0.0038736845141477913,-0.05143926682890055,0.00014387160503576805,-0.08856646948048867,-0.006782565141065398,0.025806806796403844,-0.008391724061229712,0.5748729823318324,0.8182263899029552,0.0027158704847991613,0.0,0.8181930337534136,-0.5748112827806551,-0.011528035680520791,0.0,-0.007871581572649,0.008849432942334659,-0.999929860410291,0.0,0.6595310634483358,0.25797367533153387,0.3038691539199603,1.0,-0.009580000000000007,-0.012590857142857154,-0.0047900000000000035,0.48000000000000037
0.4633077809689352,0.5339977371635438,-0.12405574616095376,-1.3763439981807821,0.07832580061041561,1.9016881945156294,0.15771959676100422,-0.006614865799481388,-0.052879667277053136,-0.0006856979859793494,-0.08741369075933153,-0.009283292614824613,0.024613455411080343,-0.010243769673713602,0.5749419683392485,0.8181779975044334,0.002691531726362696,0.0,0.8181442266336574,-0.5748802285177419,-0.01155396843564772,0.0,-0.00790604659988986,0.008845092792691175,-0.9999296269041383,0.0,0.6593576313210812,0.25775622400659054,0.3038542637070548,1.0,-0.009920000000000009,-0.0130377142857143,-0.004960000000000004,0.4970000000000004
0.46318279691737946,0.5330768192929416,-0.12405421185979403,-1.3778203795342763,0.07822721619371743,1.9022360801454299,0.15762928060267442,-0.006897475395804804,-0.05004807010015904,-0.0006421021690611391,-0.08367806385220422,-0.001256865228852722,0.03199927424924093,-0.0032513737027013863,0.5750236144538339,0.8181206626857765,0.0026778738287094907,0.0,0.81808677715589,-0.5749619791975112,-0.011553978586529842,0.0,-0.007913025331531598,0.008834713793925128,-0.9999296634575263,0.0,0.6591850721089718,0.2575327839444205,0.3038483883734732,1.0,-0.010260000000000007,-0.01348457142857144,-0.0051300000000000035,0.5140000000000003
0.4630607276603936,0.5321842284668322,-0.12405426456534605,-1.3792415861414555,0.07816336117501362,1.9027808789575102,0.1575123147456511,-0.007681855710673434,-0.055149579375323436,-3.34134328369726e-05,-0.09335327531388556,-0.002423997152246987,0.03366327192000242,-0.004936385879738586,0.5750933805059133,0.8180715589220088,0.002697236067409579,0.0,0.8180377575088877,-0.5750314858143853,-0.011565660946907495,0.0,-0.007910694922756145,0.008857946538717881,-0.9999294763576861,0.0,0.6590112318469564,0.2573063009986693,0.303843677478849,1.0,-0.010600000000000007,-0.013931428571428582,-0.0053000000000000035,0.5310000000000004
0.46292943095906525,0.5311622578195238,-0.12405391636801447,-1.3808998343647785,0.07805197785285142,1.9033914851406082,0.15740234123936905,-0.0077000014611531414,-0.05545923311431014,0.0004000702360112758,-0.09427248456044111,-0.004525928658963015,0.030072823972920215,-0.011649637757688612,0.5751662193177589,0.8180204366396367,0.0026706360332844296,0.0,0.81798635785438,-0.5751044792366672,-0.011571656201964268,0.0,-0.00793010919299747,0.008840339794885146,-0.9999294783936005,0.0,0.6588233782837253,0.2570756076362836,0.30383233926592246,1.0,-0.010940000000000007,-0.014378285714285725,-0.0054700000000000035,0.5480000000000004
0.46280497818687283,0.5302541385489917,-0.1240542736178388,-1.3823267560699901,0.07796484078743372,1.903897450268503,0.1572958695723107,-0.005354316007551103,-0.06105649931800284,-0.0004698119188425609,-0.0978012956018658,-0.0048677600666865144,0.03878064007201317,-0.009836286850105815,0.5752431921577087,0.8179663752386184,0.0026506143464035343,0.0,0.8179319807590192,-0.5751814470466035,-0.011589854451681751,0.0,-0.007955680211555405,0.00883517721855058,-0.9999293209001765,0.0,0.6586271153643439,0.25682712579327355,0.30382836072765407,1.0,-0.011280000000000009,-0.014825142857142872,-0.005640000000000004,0.5650000000000004
0.4626487598186538,0.5291661990822636,-0.12405745687286616,-1.3840840570184922,0.07785525804829642,1.904533550564347,0.15717286676701023,-0.006862350135322371,-0.06358024119298743,0.0006750426046429421,-0.09762046211332293,-0.008495205798176525,0.03486818909424714,-0.0046392786944815904,0.5753305907442697,0.8179049852448989,0.002625522157551393,0.0,0.8178702966001022,-0.5752689540363344,-0.011599800102196956,0.0,-0.007977306533928141,0.008821226266979884,-0.9999292717725641,0.0,0.6584440841918605,0.2565826065759867,0.3038219172211898,1.0,-0.011600000000000008,-0.015245714285714298,-0.005800000000000004,0.5810000000000004
0.46251932347441016,0.5282263570138002,-0.12406627603258459,-1.3855656148131414,0.07776709325455868,1.9050895101909842,0.15706108904544783,-0.0029943327965683687,-0.058897022118393025,-0.001504978767825246,-0.10051871360363564,-0.007588952988901379,0.03832805166655731,-0.006365518596019835,0.5754100655305465,0.8178490364530577,0.0026376050018075024,0.0,0.8178145421994574,-0.5753484197233472,-0.011589537960914931,0.0,-0.007961103860545105,0.00882597845205009,-0.9999293589697652,0.0,0.6582619307450299,0.2563406123778689,0.30382749358215116,1.0,-0.011920000000000009,-0.01566628571428573,-0.005960000000000004,0.5970000000000004
0.46236615587620694,0.5270418112755726,-0.12406707730886725,-1.3874121369365124,0.0776439066035425,1.9058009659644768,0.15691646839039539,-0.010550471608522594,-0.0650189219251573,0.0006331127205157581,-0.10476511065464966,-0.012555882163562146,0.046379655547148756,-0.014861083790853514,0.5754822462103707,0.8177981514275399,0.002667343167504144,0.0,0.8177641517475375,-0.5754206131593305,-0.011561010733451463,0.0,-0.007919881447758903,0.008834584141263771,-0.9999296103230989,0.0,0.6580603930497138,0.25607562673050105,0.3038434997466209,1.0,-0.012260000000000009,-0.01611314285714287,-0.006130000000000004,0.6140000000000004
0.4622234347261916,0.5258776806672221,-0.12407098013056235,-1.3892185435824256,0.0775377190969464,1.9064786948512342,0.15679988814417442,-0.00695970968646813,-0.0708223589087715,0.0009441836596158922,-0.11043693687903447,-0.009274007561790577,0.03552753194183739,-0.0028278153258863743,0.5755766131441619,0.8177316715398486,0.002687501320847818,0.0,0.817697949176399,-0.575514919589285,-0.011549378513952092,0.0,-0.007897747547010447,0.008845286786626966,-0.9999296907709792,0.0,0.6578628689398425,0.25581705373141234,0.30385623877997525,1.0,-0.01258000000000001,-0.0165337142857143,-0.006290000000000005,0.6300000000000004
0.4620714940563772,0.5248039120632735,-0.12408188919522696,-1.3909277085903298,0.07743159873128973,1.9071047000014147,0.15668075530975029,-0.01144485789333955,-0.0629423575182836,-0.0007088760329601439,-0.10636809806048982,-0.006823270715511973,0.031110495226451793,-0.009641156639062514,0.5756731963002535,0.8176636978422627,0.002682385799022996,0.0,0.8176299296334277,-0.5756115303358793,-0.011550377190004698,0.0,-0.007900464038339994,0.00884261171522531,-0.9999296929714773,0.0,0.657645285967841,0.2555393674183817,0.3038579783609715,1.0,-0.01292000000000001,-0.016980571428571446,-0.006460000000000005,0.6470000000000005
0.4619155770246987,0.5236114700205231,-0.1240872482083022,-1.392810212162082,0.07730324651996127,1.9077740530473448,0.15653773081881217,-0.010363500510451271,-0.07209898248214973,-9.428354252389772e-05,-0.10948930594465252,-0.005825881469270353,0.03540930704397714,-0.006828528232548643,0.5757537915896425,0.8176070391848316,0.002654778102282958,0.0,0.8175730009786193,-0.5756923046861631,-0.011554449236415002,0.0,-0.007918816167213072,0.008823162730835443,-0.9999297196053005,0.0,0.6574159581959521,0.255250633831472,0.3038585115618962,1.0,-0.01326000000000001,-0.017427428571428587,-0.006630000000000005,0.6640000000000005
0.46176634000634476,0.5224099290680614,-0.1240858344565353,-1.3947457393623692,0.0771828198466157,1.908503272763046,0.1563908601944791,-0.010658149385210893,-0.07653670218364104,-0.0003469694678811044,-0.11467941742934182,-0.005567666451075041,0.044797676126311234,-0.006215037434694462,0.5758260666609382,0.8175561669975749,0.0026460648584272634,0.0,0.8175220281900945,-0.575764613291554,-0.011558131613295115,0.0,-0.007926063870753064,0.008818859564991566,-0.9999297001427099,0.0,0.6571820570185528,0.25496940440272325,0.3038449041358286,1.0,-0.01360000000000001,-0.01787428571428573,-0.006800000000000005,0.6810000000000005
0.461603733119949,0.5211841663240527,-0.12408524394892849,-1.3967169797788055,0.07707141756544358,1.9092769280442612,0.15624131729298882,-0.006607111456510903,-0.07454447526886758,0.0010235624861652459,-0.11278457183407065,-0.003453637916503863,0.048142534782122,-0.0106633687781229,0.5759119938876891,0.817495561372439,0.002670081248828892,0.0,0.8174616974952458,-0.5758504098018092,-0.011550998246377096,0.0,-0.007905474619375796,0.008835217686901056,-0.9999297187300054,0.0,0.6569517093698296,0.2546794597533345,0.30383489813491843,1.0,-0.01394000000000001,-0.018321142857142873,-0.006970000000000005,0.6980000000000005
0.461441861797071,0.5199911250078557,-0.12409401575602595,-1.3986144832799658,0.07695612052611017,1.9099755067605575,0.15612439626671176,-0.010278937470835678,-0.07227161243880288,-0.006279316439572833,-0.1174250684861562,-0.009661624144723612,0.03718083941264881,-0.00946044330927873,0.5760249727176314,0.8174159891445257,0.002660525838438824,0.0,0.8173820179701479,-0.5759634244516422,-0.011554968377066892,0.0,-0.007913002682546855,0.00883078634283975,-0.999929698329394,0.0,0.6567243873089355,0.2543872333906279,0.30383042788607423,1.0,-0.01426000000000001,-0.018741714285714303,-0.007130000000000005,0.7140000000000005
0.46127160164055875,0.5186510412016807,-0.12410037874543034,-1.4006967858196813,0.07681794479538517,1.9107163005180343,0.15595145558140386,-0.007131215516454121,-0.07685881139395696,-0.0015638910670701203,-0.1215605433112734,-0.012137963356288913,0.04023873190066506,-0.009737997118329159,0.576100365303595,0.817362885729309,0.0026512318890088505,0.0,0.8173288584667404,-0.5760389100688944,-0.011552406905220237,0.0,-0.00791544831439378,0.008822444030993914,-0.9999297526123033,0.0,0.6564678657814063,0.2540701496955095,0.3038444060775004,1.0,-0.01460000000000001,-0.019188571428571447,-0.007300000000000005,0.7310000000000005
0.4610982980455392,0.5173059794188963,-0.12410109041454412,-1.4028024697934551,0.07668080201321,1.9114771774677342,0.1558018518404532,-0.010340998648382217,-0.07785857351495765,1.9193503780509693e-05,-0.12612258372580418,-0.010061460548694785,0.047342789675577986,-0.00927243140360945,0.5761946120512924,0.8172964699471225,0.002645024809267842,0.0,0.8172623954291807,-0.5761332024875317,-0.01155235517229133,0.0,-0.007917964933227606,0.008818253897082434,-0.9999297696486104,0.0,0.6562086356769239,0.25375322496274766,0.30385191765063296,1.0,-0.01494000000000001,-0.01963542857142859,-0.007470000000000005,0.7480000000000006
0.4609125128977089,0.5159515721685847,-0.12411266259028804,-1.404934337682731,0.07654135760291955,1.912272760538702,0.15563893623764682,-0.011027184096277768,-0.08363219257244874,-0.0024986817429379317,-0.12366914814869921,-0.004286886421045715,0.04412393193646801,-0.007602944829006159,0.5762964868865827,0.8172246226121318,0.002649962235547784,0.0,0.8171907295100427,-0.5762351792039551,-0.011535889728945693,0.0,-0.007900563776883307,0.008813786989055356,-0.9999299466717251,0.0,0.6559553659632145,0.2534208075887746,0.3038564801914873,1.0,-0.015280000000000012,-0.020082285714285733,-0.007640000000000006,0.7650000000000006
0.4607215241667574,0.5145756537800934,-0.12410763415102957,-1.4071279829636705,0.07641107463373777,1.9131019551860353,0.15546880495969875,-0.01509888568935044,-0.08262149545453397,0.002224554004642173,-0.12742348612582083,-0.008419272194795014,0.05302634169640849,-0.013775197939053904,0.576390526451385,0.8171582686418126,0.0026593060408862104,0.0,0.8171244427023289,-0.5763291161690509,-0.011538712901241678,0.0,-0.007896471188106546,0.008823958658899983,-0.9999298892904249,0.0,0.6556909760703364,0.25309140428200344,0.3038487305776297,1.0,-0.015620000000000012,-0.020529142857142878,-0.007810000000000006,0.7820000000000006
0.4605509829521551,0.513262907161814,-0.12411486695033051,-1.4092488931607303,0.07629305316312987,1.9138523449705171,0.155308401218868,-0.01094628850581363,-0.08292702440769185,-0.001118850853010533,-0.13647358704334506,-0.0076507957714278645,0.05028702849919546,-0.006521007604600629,0.5764834457630322,0.8170928685970126,0.0026129964206720174,0.0,0.8170583062926372,-0.576422026014748,-0.01158097338173624,0.0,-0.007956695261895241,0.008811379516576595,-0.9999295228122451,0.0,0.6554225826692841,0.2527727949996848,0.30382449265394884,1.0,-0.015940000000000013,-0.020949714285714308,-0.007970000000000007,0.7980000000000006
0.46035572224287913,0.5118582004291746,-0.1241171081202614,-1.4115298791795954,0.07614091028069403,1.914659992449114,0.15512406831562045,-0.0085165456956706,-0.07967327646859405,-0.0013044297115913565,-0.1272313905426921,-0.010155560518904748,0.04768913642759795,-0.019352069130480275,0.5765720692365236,0.8170305493843251,0.002545044256859829,0.0,0.816995142205775,-0.5765109089853357,-0.011612766004523014,0.0,-0.008020893237666915,0.008775054266327229,-0.999929329349976,0.0,0.6551361025115134,0.25242159754631766,0.30379284960861436,1.0,-0.016280000000000013,-0.02139657142857145,-0.008140000000000007,0.8150000000000006
0.4601759774431774,0.5104762937184307,-0.12411989455170315,-1.4137307703932631,0.07601333493793261,1.9154854864334578,0.1549542806251867,-0.010292712269519087,-0.08523212378908254,-0.0005388337939430277,-0.13312277931432823,-0.011658168585678468,0.05098182021030883,-0.010209726121617833,0.5766781291158034,0.8169556587398067,0.002556159954619529,0.0,0.8169203341775804,-0.5766168500229688,-0.011615626456958437,0.0,-0.008015681189334267,0.008786825951674099,-0.9999292677708588,0.0,0.6548513986742079,0.25207214763691477,0.30378589497535724,1.0,-0.016620000000000013,-0.021843428571428593,-0.008310000000000007,0.8320000000000006
0.4599620511543483,0.508903792957422,-0.12411817577920976,-1.4162375459121312,0.07585998441243143,1.916424619817307,0.15476671685761964,-0.011510719033605702,-0.08738393041649103,0.0007888872142141465,-0.14179856216931708,-0.006547571938124552,0.05031835117553835,-0.013103101231174502,0.5767722271217308,0.8168892431048347,0.002551356865867685,0.0,0.8168538343344549,-0.5767109287109815,-0.011621744259118674,0.0,-0.008022436940572641,0.008787354141808007,-0.9999292089506742,0.0,0.6545580528055976,0.25171768499934016,0.3037731923252179,1.0,-0.016960000000000013,-0.022290285714285735,-0.008480000000000007,0.8490000000000006
0.4597651611255572,0.5074934484120366,-0.12412412021952715,-1.418464120530872,0.07571794704006869,1.9172075937659607,0.15458349482857436,-0.010511544808243397,-0.09055580141809613,0.0003042154232798803,-0.14059635772642848,-0.013157322573674492,0.04510465809208586,-0.0148066223809879,0.5768643940729943,0.816824263405768,0.002518027726238623,0.0,0.8167884130249126,-0.5768031893440811,-0.011641134478625182,0.0,-0.008056509785138,0.008772220750234275,-0.9999290678809128,0.0,0.6542777435602016,0.2513699595235157,0.3037679485489438,1.0,-0.017280000000000014,-0.022710857142857165,-0.008640000000000007,0.8650000000000007
0.45955190801161305,0.5059355495494724,-0.12412830805876626,-1.4208863277375707,0.07556746968774394,1.9180984483279968,0.15439055052746856,-0.013710563026211726,-0.0888884962116332,0.0013741091102082636,-0.14425354995209821,-0.005866575313610832,0.0507911916364333,-0.009316022152407202,0.5769683972342109,0.8167507451883106,0.0025368737717118943,0.0,0.8167151402157818,-0.5769071150398092,-0.011632164887439685,0.0,-0.008037193551992672,0.008783463858540966,-0.9999291246295676,0.0,0.6539792977080717,0.2509972596404038,0.30378155271151214,1.0,-0.017620000000000014,-0.02315771428571431,-0.008810000000000007,0.8820000000000007
0.4593161402857393,0.5042073400123579,-0.12414324866512728,-1.4234909636873183,0.07539945123221466,1.9191260067090652,0.15418583932984084,-0.01112717855816258,-0.0988871719086616,-0.0024723247238621062,-0.14673362427532755,-0.002107156399504661,0.05904366929680204,-0.007727585972840769,0.5770932990250841,0.8166621251374715,0.0026541453430639194,0.0,0.8166282389115007,-0.5770318248295445,-0.011547270127397116,0.0,-0.00789884390832768,0.008831472283083189,-0.9999298042173886,0.0,0.6536768574846723,0.2505905783938654,0.30383886178112246,1.0,-0.017980000000000013,-0.023630857142857165,-0.008990000000000007,0.9000000000000007
0.4591021658240643,0.5026433974325784,-0.12414416147811946,-1.4258334566682556,0.07524976419418018,1.9200129750304786,0.15400737897196026,-0.011393677458792092,-0.10375646080705775,-0.0008892726349527178,-0.14754583872219737,-0.00788241495559108,0.05707516310976016,-0.01223113102660494,0.5772025720623845,0.8165846070067371,0.0027417704916717104,0.0,0.8165519165276524,-0.5771408696917513,-0.011494826996313406,0.0,-0.007804261235548948,0.008873812505726594,-0.9999301720411182,0.0,0.6533942389264888,0.25022885929408534,0.30389292424044123,1.0,-0.018300000000000014,-0.024051428571428595,-0.009150000000000007,0.9160000000000007
0.4588851902584138,0.5010313793357265,-0.12414297989894695,-1.4282110611630177,0.07509447601027201,1.9208712705588387,0.15381616511872379,-0.014905840596310192,-0.10257309383708806,-0.0001858733185217881,-0.14983494471801526,-0.00704222575246182,0.04844550027748812,-0.011449054335023386,0.5773071082533485,0.8165104588231256,0.002814301656529113,0.0,0.8164787433399645,-0.577245207330086,-0.011453348403281032,0.0,-0.007727385392725883,0.008910088473232367,-0.9999304465003511,0.0,0.6530764458299884,0.24984051039489655,0.30396153998758996,1.0,-0.018640000000000014,-0.024498285714285736,-0.009320000000000007,0.9330000000000007
0.45865574633080936,0.4993475278269539,-0.12414546494299644,-1.4308074169160323,0.07492809460581057,1.9218057578611167,0.15361186156552692,-0.016183867220434224,-0.10012175808307418,0.00010271305078171674,-0.1541490105951597,-0.008494702029357173,0.05767033734174342,-0.013609065290464888,0.577411137781438,0.8164368371408639,0.0028312235122461976,0.0,0.8164053322988133,-0.5773491621255349,-0.011446627809773091,0.0,-0.007710992542855455,0.0089210081167799,-0.9999304756872772,0.0,0.6527702638737012,0.24945971827365093,0.30398057467124806,1.0,-0.018960000000000015,-0.024918857142857166,-0.009480000000000008,0.9490000000000007
0.45840533691884955,0.49768197086054505,-0.124149295476772,-1.433436266186942,0.07476376765343151,1.9227857219339135,0.15340632947576185,-0.016867178867786835,-0.10324190578703861,-0.0017862602509909368,-0.14946131893071984,-0.0038991161628534436,0.051012752010664054,-0.017920574442249326,0.5775395495472121,0.8163459744169729,0.002840011129343847,0.0,0.8163145959238977,-0.5774775454431537,-0.011441673468613554,0.0,-0.0077004696785948346,0.008926533342027379,-0.9999305074700056,0.0,0.652447254354663,0.2490441628804816,0.30397570724331313,1.0,-0.019300000000000015,-0.02536571428571431,-0.009650000000000008,0.9660000000000007
0.4581397541803054,0.4960149164787049,-0.1241409677457961,-1.4361132470974876,0.0746000487559603,1.9237412340214557,0.15319397539369004,-0.017790175750913694,-0.10086070683093243,0.0013170880663806487,-0.15522280558848794,-0.008988115792030033,0.04913375141424364,-0.013592663945007381,0.5776679996305345,0.8162552430398005,0.0027941571361716757,0.0,0.8162231414966727,-0.5776059713742712,-0.011483554297142151,0.0,-0.007759738955984363,0.00891450918692617,-0.9999301565495917,0.0,0.6521075364836272,0.24861879094510325,0.3039458872597495,1.0,-0.019640000000000015,-0.025812571428571452,-0.009820000000000008,0.9830000000000008
0.45786969540232714,0.49433951034090157,-0.12414652157480104,-1.4388737459133518,0.07443052214959507,1.9246763608626658,0.15296713229643324,-0.01234521278647375,-0.1002372169515712,0.0005693068664768565,-0.1609987048100505,-0.011247309760122032,0.058231049451748916,-0.01764070411470997,0.5778000920757718,0.8161621777355496,0.0026646073638217508,0.0,0.8161282500835247,-0.5777382961351397,-0.01157097643579863,0.0,-0.007904499794240016,0.008860543187919886,-0.9999295023437491,0.0,0.6517469754486064,0.2481705179532088,0.3038802370636156,1.0,-0.019980000000000015,-0.026259428571428597,-0.009990000000000008,1.0000000000000007
0.457603737667746,0.4923376882982599,-0.12423614962877239,-1.4418954713774184,0.07426801783120851,1.9257786145706859,0.1528715713006845,-0.014749061028878317,-0.14856004779580964,-0.008637881987677957,-0.22869462889338515,-0.009133341373159033,0.08113610439578826,-0.0019657715485935866,0.5781414259859983,0.8159202237449246,0.002725242029036086,0.0,0.8158872177734402,-0.5780795426052228,-0.011525502004657441,0.0,-0.0078286342342474,0.00888703140390025,-0.9999298641199053,0.0,0.651349506751924,0.2476216926267626,0.30393365982702003,1.0,-0.03388628571428478,-0.044536261224488574,-0.07240126426971004,1.0169999999999988
0.4572919431983576,0.48909231786401536,-0.1243773570182773,-1.446930170072807,0.07405504563159146,1.9277466351987504,0.15327983664414724,-0.022657905633313043,-0.2130984328737157,-0.009648792420472545,-0.3399171992917798,-0.017431672574500984,0.1374559901694652,0.047173733468500116,0.579089121618733,0.8152473301272066,0.0028856272306126323,0.0,0.8152163306621301,-0.5790265352279432,-0.01146091728022297,0.0,-0.007672775200908366,0.0089894760386183,-0.9999301564815752,0.0,0.6507131336541372,0.24686469913544998,0.303963505058545,1.0,-0.04866171428571173,-0.063955395918364,-0.13871323255627416,1.033999999999997
0.45677931595315735,0.48462525451810917,-0.124592496208532,-1.4540033211759227,0.07375565576019238,1.930484752181812,0.1547882303629686,-0.041255285240021866,-0.2913746489068634,-0.012978644131660685,-0.4534018858377199,-0.0196572766384942,0.17175865747316343,0.1023430968510304,0.5810693587357877,0.8138367302425049,0.0029872642629925252,0.0,0.813807053724186,-0.5810062232269708,-0.011427807379334756,0.0,-0.007564895911905178,0.009071580090255368,-0.999930236958813,0.0,0.6498815789348805,0.2458174078276141,0.30394974896118393,1.0,-0.0625679999999959,-0.08223222857142322,-0.2011244968259816,1.0499999999999952
0.456056794966316,0.47890715528142397,-0.12488086579669755,-1.4631943913846457,0.07329597395732365,1.9337294810352557,0.15713616919872445,-0.040788998072404346,-0.36381363221869617,-0.019120326808093918,-0.5870545739192122,-0.02797529419501519,0.2027226787236331,0.14426204787185018,0.5840991082438076,0.8116658267499928,0.002750333842968406,0.0,0.8116332326195257,-0.5840364818699872,-0.01155986391422138,0.0,-0.007776600923104504,0.008984541531733517,-0.9999293987535056,0.0,0.6486889260402343,0.24431087434775042,0.30383048784269967,1.0,-0.07734342857142286,-0.10165136326529864,-0.26743646511254576,1.0669999999999933
0.4551063814486494,0.4718830529108832,-0.12517985628330586,-1.4742701992399192,0.07272078915099428,1.937665032010111,0.16029661989521618,-0.06429435413703749,-0.43128417067476693,-0.025416453581600607,-0.6807471577368114,-0.03266326136210374,0.24431943171026418,0.2024087961423646,0.5880244365299393,0.8088270805224981,0.0026005303896963552,0.0,0.8087927345758087,-0.5879620078270998,-0.011650611594188986,0.0,-0.007894469085681366,0.0089543068012857,-0.9999287463352395,0.0,0.6472506368954618,0.24247383651270726,0.30376918561560257,1.0,-0.0921188571428498,-0.12107049795917406,-0.33374843339910987,1.0839999999999914
0.45397063890499306,0.46363356467214445,-0.12546529458297112,-1.4869046678957003,0.07205493627872728,1.9424264115984078,0.164351942474906,-0.07642803620841401,-0.496261710739828,-0.016171593279045368,-0.798540917142171,-0.045924877461076416,0.283514758569921,0.2521749088262344,0.5928393532123306,0.8053036947190617,0.0028648657598128813,0.0,0.8052732122949515,-0.592775971085842,-0.011508630005986144,0.0,-0.007569864425519268,0.009129944202024856,-0.9999296681624398,0.0,0.6456454044876898,0.2403992960333626,0.3038695121959928,1.0,-0.10689428571427674,-0.14048963265304945,-0.400060401685674,1.1009999999999895
0.452538275670141,0.454322797377952,-0.12573908099955922,-1.5015664781820606,0.07121411109688944,1.9475252114200308,0.1691610321901204,-0.09322523282009194,-0.5738668094801707,-0.019968429071881674,-0.8903560341027049,-0.05123243339884123,0.2925858943948613,0.2959064664265608,0.5984993770704111,0.8011071303879218,0.00257063983619139,0.0,0.8010729839562464,-0.5984363395834027,-0.01169481691443246,0.0,-0.00783058768785383,0.009058785172180811,-0.9999283075839325,0.0,0.6436734734117471,0.2379146141487587,0.30374738816139335,1.0,-0.12166971428570388,-0.15990876734692513,-0.466372369972239,1.117999999999988
0.4509552390083168,0.4442875568945233,-0.1260766353732351,-1.5166454956018616,0.07023997397937372,1.9530752102211324,0.17453258246419756,-0.10056081829113077,-0.629696832604347,-0.016467520794604694,-0.9762821608448757,-0.0655576877730334,0.35691818713604795,0.3593798106293782,0.6047102622756417,0.7964283267240746,0.0028576198528798558,0.0,0.7963994768652352,-0.6046474307683429,-0.011406341009718277,0.0,-0.007356622220031972,0.009173515038096755,-0.9999308609755764,0.0,0.6417233006195453,0.2352695886993687,0.30394100665094026,1.0,-0.13557599999998807,-0.17818559999998437,-0.5287836342419465,1.1339999999999861
0.44902222375820217,0.4326890976127122,-0.1263778948688563,-1.5343650482778446,0.0691645640392467,1.959347284338861,0.18099207209345802,-0.12054498712879001,-0.6968128686960413,-0.015514841654307401,-1.0639161969346225,-0.06447341097171379,0.3810656499487722,0.3908931538089837,0.6116104010370889,0.7911418385026646,0.0028382415477564817,0.0,0.7911131133950862,-0.6115471541868126,-0.01143970810609472,0.0,-0.007314853995171011,0.009242192510774225,-0.9999305349816171,0.0,0.6394569500499457,0.23236902538188553,0.3039610657034544,1.0,-0.14948228571427227,-0.19646243265304358,-0.591194898511654,1.1499999999999844
0.4467962799825605,0.4200192862017417,-0.12668079603030646,-1.5535714176299698,0.06792380794326604,1.966070075173281,0.18835859853911,-0.13100812062754716,-0.7584565490561982,-0.021056993331628707,-1.1500572730951721,-0.07852829172301509,0.39260924752454757,0.4412492487858432,0.6203113394251607,0.7843380586702114,0.0028980688769227082,0.0,0.7843110677268772,-0.620247969513198,-0.011373313373391014,0.0,-0.00712313833799888,0.009328162343586674,-0.9999311207715808,0.0,0.6366633857009272,0.22874120443923043,0.3040472465539411,1.0,-0.16512685714284198,-0.2170238693877352,-0.6614075708150748,1.1679999999999824
0.4442605877646283,0.40634145523384485,-0.12698525597421018,-1.5740465796424143,0.06648248867956244,1.9734522402093302,0.19653840421986277,-0.15934245484276002,-0.7932932082389985,-0.019198724769831855,-1.2395368369596318,-0.09316860143981193,0.43160707908802803,0.50164285110022,0.6293277254167972,0.7771210477683229,0.003199693484145477,0.0,0.7770996149444044,-0.6292647372149215,-0.011082682540903978,0.0,-0.006599258644980566,0.009461302128837654,-0.9999334645601994,0.0,0.6338477588491832,0.22500409455961212,0.3042064856103607,1.0,-0.17990228571426892,-0.23644300408161062,-0.7277195391016389,1.1849999999999805
0.4417037618601995,0.3933987428238784,-0.12726297041723114,-1.5932861239165976,0.06523114011013946,1.9801941733544686,0.20437929615997216,-0.16799137952246654,-0.8743558120754914,-0.012627933041463781,-1.3164813724649638,-0.09134219496289163,0.45676470776595046,0.5394977808919836,0.6385602878369532,0.769551530213188,0.0034565944709654506,0.0,0.7695339630834499,-0.6384963855826781,-0.010981446177268567,0.0,-0.006243885847685371,0.009672468498828607,-0.9999337264252368,0.0,0.6309351353486726,0.22116399811913198,0.3043527366567878,1.0,-0.1938085714285531,-0.2547198367346698,-0.7901308033713463,1.2009999999999788
0.43827303378657795,0.3770355498350385,-0.12761051559563566,-1.6178211636026951,0.0634648475815018,1.9885590394696944,0.21457949882240637,-0.19103784198499213,-0.9428044936646526,-0.017315228611616006,-1.399863356992598,-0.10361291112596342,0.5003821885697947,0.5766676021115469,0.6490742784877549,0.7607047431827336,0.0034090476822899412,0.0,0.7606878040832182,-0.6490107670837406,-0.010946955267769449,0.0,-0.006115009877182609,0.009698794819376105,-0.9999342678562695,0.0,0.6275569791674669,0.2167033092488654,0.30437336198728693,1.0,-0.20858399999998004,-0.27413897142854526,-0.8564427716579105,1.2179999999999769
0.43489241059469297,0.361626590064964,-0.1279103276687284,-1.640683093163588,0.06177926241755502,1.9963132197481432,0.2244909443672461,-0.21650729009723996,-1.005218105149141,-0.02511284164936248,-1.4393720002653299,-0.11002739866200156,0.5127144420753498,0.6247727905690039,0.6596703065703508,0.7515343298086825,0.0034618852670456517,0.0,0.7515192409734889,-0.6596069788950047,-0.010872476297700866,0.0,-0.005887668861346396,0.009774111342641958,-0.9999348989323458,0.0,0.6241622637037624,0.21224117848208546,0.3044298313116201,1.0,-0.2224902857142642,-0.29241580408160445,-0.9188540359276179,1.2339999999999751
0.43085370242720644,0.34449362503281233,-0.1282560852836916,-1.6660954099998102,0.05984500655367529,2.004715634293099,0.23581725166069709,-0.24508702470075416,-1.0366294464631178,-0.029824410077885263,-1.4857036359428162,-0.10462827901569866,0.5234737785172598,0.6885075006752838,0.6716790942233475,0.7408217801415846,0.0033213479741760286,0.0,0.7408062743457835,-0.6716162456830901,-0.010882523865313501,0.0,-0.005831451718827485,0.009770227298424417,-0.9999352663194693,0.0,0.620296388164883,0.20711408864277964,0.3044061734455293,1.0,-0.23726571428569118,-0.3118349387754799,-0.9851660042141821,1.2509999999999732
0.426381472416936,0.3265016758628579,-0.128612377837928,-1.6925018626012707,0.05781800150769595,2.0134661303740327,0.24783652261989544,-0.27097707177708125,-1.0861175891346713,-0.019230050543452157,-1.5766369013420931,-0.11532784381255133,0.5262814812387083,0.7094319069076889,0.6843004783834133,0.7291791568405048,0.0033703730965821306,0.0,0.7291655084851937,-0.6842376093888773,-0.010830606378731362,0.0,-0.0055914240492004885,0.009869138950409626,-0.9999356659673059,0.0,0.6162171572554509,0.20166463452709374,0.30442494798582104,1.0,-0.2520411428571181,-0.3312540734693553,-1.0514779725007461,1.2679999999999714
0.42152899269690886,0.30766086515600877,-0.12888613809339433,-1.7198524967389177,0.055522416617932314,2.02232997943999,0.26063347576334794,-0.29102095627951224,-1.1305871417973952,-0.022988080398343234,-1.579776115021253,-0.13000099350747707,0.5415245523177327,0.772542422543906,0.6973879165291746,0.7166724823666966,0.0033754701394070764,0.0,0.7166606478442893,-0.6973259356424537,-0.010714579459237168,0.0,-0.005325143910893226,0.009891475304001474,-0.9999368987884378,0.0,0.6118527601524284,0.1959583348905514,0.30446699221520535,1.0,-0.26681657142854504,-0.3506732081632307,-1.1177899407873102,1.2849999999999695
0.4162136823951437,0.28801959600287186,-0.12914220487192865,-1.7481639923219099,0.053093295752765404,2.0312592048305285,0.2743011653338571,-0.3305827210781646,-1.181084675146148,-0.013769398373150553,-1.6936277350583198,-0.15105234102428622,0.5403468195562803,0.8094295199599187,0.711102149248946,0.7030673210764266,0.0032897217443210404,0.0,0.7030560570034134,-0.711040825319157,-0.01067109841926538,0.0,-0.005163473527289353,0.009901290449510575,-0.9999376495504945,0.0,0.6071942109379121,0.18993399200361355,0.30447758619436377,1.0,-0.281591999999972,-0.3700923428571061,-1.1841019090738745,1.3019999999999676
0.41071106598457174,0.2688838983838643,-0.1293948875024282,-1.7754561785413558,0.0508014735240054,2.0397820158348696,0.28775365144828585,-0.3485290610348233,-1.2273280960562227,-0.01682644639199782,-1.7265414830172305,-0.1520757013763332,0.5506522478894262,0.8509583413335545,0.7244867972411886,0.6892665458255477,0.0033550454738346318,0.0,0.6892571074378926,-0.7244249245373423,-0.0106731184113917,0.0,-0.004926239741785521,0.010045215714593506,-0.9999374109429318,0.0,0.6026178663807905,0.1839668599482258,0.30450964177696443,1.0,-0.2954982857142562,-0.38836917551016537,-1.246513173343582,1.3179999999999659
0.4046833817520848,0.24913712791587883,-0.12969290835604028,-1.8033308157997765,0.04823371571299186,2.0483358020292477,0.3017955392877518,-0.3864245041186483,-1.2622674548228108,-0.02326374149659197,-1.7805379121000027,-0.16091940379640654,0.5606330123746187,0.8971023562675288,0.7382592392744932,0.6744942683493336,0.0033947740649715907,0.0,0.674487151251368,-0.7381984528220358,-0.010529669946161557,0.0,-0.004596273556362662,0.010063551367038112,-0.99993879772878,0.0,0.5978602831271037,0.17764217262268733,0.3045532900236272,1.0,-0.30940457142854033,-0.4066460081632246,-1.3089244376132894,1.333999999999964
0.3972294818358483,0.22612645236179718,-0.13004914139715268,-1.835426522891507,0.0452296863877244,2.0578978528818834,0.3184441907853216,-0.4160748716251062,-1.3002094527167998,-0.012405776864633076,-1.7781765713089503,-0.16005484164210657,0.5380799461805152,0.927895294538451,0.7534406994305876,0.6574922474191474,0.003435684280318652,0.0,0.6574874579628922,-0.7533808262965676,-0.010407693856140935,0.0,-0.004254681277722994,0.010100693931918162,-0.9999399350307592,0.0,0.5925609986068827,0.17054333216648784,0.3046100678908698,1.0,-0.32417999999996727,-0.4260651428571,-1.3752364058998534,1.3509999999999622
0.3896892590560657,0.20373916393219552,-0.13028771474207593,-1.8665120073424202,0.04224338802364371,2.0667261039011255,0.33473098907868704,-0.4620687445570341,-1.3358909900456155,-0.017650115774125417,-1.8884670511886932,-0.18885451933632397,0.5118717533162365,0.9620741428525711,0.7696027235320857,0.6384999425915476,0.003196583143739503,0.0,0.638493904851279,-0.7695429588895659,-0.010484025584967974,0.0,-0.004234223205278276,0.010109728140994104,-0.9999399305712133,0.0,0.5865467507942324,0.1628208550505556,0.30455476927760583,1.0,-0.339824571428537,-0.44662657959179164,-1.4454490782032743,1.3689999999999602
0.38138255408789473,0.1806234227632816,-0.1305694709325029,-1.8978867139032731,0.03910967150147937,2.0754910220525917,0.3518012900639189,-0.4919622240489657,-1.3455152214982569,-0.016396527571614753,-1.8662853975584188,-0.19117760790463784,0.4973285803551023,1.0137590002012522,0.7843777194671772,0.6202595933358745,0.003221331944107984,0.0,0.6202554798550256,-0.7843184191054211,-0.01041652835608619,0.0,-0.0039344774151833795,0.010168737327181446,-0.9999405565675592,0.0,0.5810443261831407,0.15558760624369827,0.30461926072865475,1.0,-0.3537308571428212,-0.4649034122448508,-1.5078603424729817,1.3849999999999585
0.3728114454489018,0.15829533460949652,-0.13095155129015393,-1.927831765713305,0.03605343688906069,2.0836688764801123,0.3683297208948388,-0.5398648124958597,-1.4091808097500238,-0.018355927163329323,-1.8479877726667424,-0.19060077830971933,0.5097976578424136,1.0446598285952755,0.8013375707822978,0.5981864349195491,0.0034400046764761372,0.0,0.5981866952647807,-0.8012787882203904,-0.010282414963008054,0.0,-0.003394463724391561,0.010297648718997132,-0.99994121629568,0.0,0.574682732556985,0.1469646126588897,0.3047434023575166,1.0,-0.3693754285713909,-0.48546484897954245,-1.5780730147764026,1.4029999999999565
0.3631173876561739,0.13397147337619725,-0.13118059045584918,-1.9601285225673089,0.032509302534945834,2.09226927914462,0.38644441758501585,-0.5857455708965293,-1.4687519670670925,-0.010570986569434131,-1.9269176990889452,-0.20809361743732552,0.5191111663537172,1.0777325219922549,0.816284094680096,0.5776229534214503,0.0035703437069107805,0.0,0.5776265714803634,-0.8162267011370778,-0.010112525497245721,0.0,-0.002927073333683583,0.010317217753290642,-0.9999424919761788,0.0,0.568730703503521,0.13914936661917104,0.3048004507762018,1.0,-0.3832817142856751,-0.5037416816326017,-1.64048427904611,1.4189999999999547
0.35257710274023946,0.10905029727638191,-0.1314801959629766,-1.9928232464197255,0.02887415798013053,2.1004054306268904,0.4050947083223139,-0.6444667624346673,-1.4710266222378083,-0.022127007043155355,-1.953442364598651,-0.2200553513763779,0.45737954754491483,1.0912982372272522,0.8322838280091236,0.5543214531016013,0.0034789606231150224,0.0,0.5543258580406876,-0.8322272396926903,-0.010070328800462517,0.0,-0.0026869652299157387,0.010310048136232791,-0.9999432399517891,0.0,0.5621126939427211,0.13044899157029172,0.30480469193884113,1.0,-0.39805714285710203,-0.523160816326477,-1.706796247332674,1.4359999999999529
0.34184232961777605,0.08508583003192799,-0.13176970888005182,-2.023882928860651,0.0252950419294035,2.107712270640361,0.4230343090167307,-0.6752447164342733,-1.5290646708322637,-0.014955041719143379,-1.9789998273775558,-0.21920463075582508,0.44690275024695764,1.142756992871071,0.8482137379848903,0.5296258263359672,0.0032688947446487724,0.0,0.5296297338753745,-0.848157868653874,-0.010065869899105292,0.0,-0.0025586551256687184,0.01026951070676882,-0.9999439936485401,0.0,0.5552207796257159,0.1213959258755657,0.3047735104607691,1.0,-0.40998,-0.5388308571428573,-1.7603059050000003,1.4529999999999512
0.32971580112693644,0.059593700631310816,-0.13197075257138854,-2.0563877108422837,0.02148114993538128,2.1150968564760437,0.4423467220435451,-0.7251164513106939,-1.4709480255573415,-0.01183693116874204,-1.86104275092267,-0.22581222859446307,0.4102962186249732,1.1126838792093767,0.8628530456301335,0.5054257950658708,0.0031834305463161196,0.0,0.5054304360932182,-0.8627976675361252,-0.01005017741383273,0.0,-0.0023330073774363025,0.010281026821570852,-0.9999444272378695,0.0,0.5486674840017879,0.11278430463277939,0.30474881309804525,1.0,-0.40998,-0.5388308571428573,-1.7603059050000003,1.4689999999999495
0.3167420362219275,0.034160767079471153,-0.13222728020668215,-2.0881245162037243,0.01759855592519919,2.1218137210250925,0.4611444793484034,-0.7617389693439705,-1.4816759326516922,-0.005744237352954572,-1.8081690699989177,-0.22516915181417813,0.3885022048948788,1.1145628883880927,0.8777550279119948,0.47907925062400836,0.0031511105915387532,0.0,0.47908532058975534,-0.8777003324176657,-0.010006446449124108,0.0,-0.002028189101502431,0.01029305768346836,-0.9999449681919967,0.0,0.5416857162935068,0.10339679895959,0.3047979428609202,1.0,-0.40998,-0.5388308571428573,-1.7603059050000003,1.4859999999999476
0.3025963476820636,0.00753938403243303,-0.13234029032368672,-2.120608393862629,0.013420455700779729,2.128373582851953,0.48073071549650837,-0.8027759844772936,-1.4654741454695097,-0.00424106235860993,-1.798546227002316,-0.2384441734268327,0.3583276683646896,1.0732704289239914,0.8925437720418986,0.45092686919814756,0.0033645988742067668,0.0,0.4509371428382355,-0.8924906974444413,-0.009838449330632278,0.0,-0.0014335755593370414,0.010298667561001146,-0.9999459396925334,0.0,0.5343194880187652,0.09363117049320085,0.3049342781715709,1.0,-0.40998,-0.5388308571428573,-1.7603059050000003,1.5039999999999456
0.28946568463633204,-0.015705461239864882,-0.1324769522838793,-2.1485050900293423,0.009857735637418139,2.1336990255502983,0.49766270414777336,-0.8170178756706173,-1.428607916577653,0.003070619066054091,-1.7418555920767267,-0.22549474621549356,0.31252285308461236,1.0579214167484048,0.9049649600297455,0.42544777875945117,0.0036545270855160984,0.0,0.42546261768812876,-0.9049125164073318,-0.009779851763893092,0.0,-0.0008538053467106455,0.010405488158715684,-0.9999454969310122,0.0,0.5278286426672368,0.08492528635112785,0.30505423164888257,1.0,-0.40998,-0.5388308571428573,-1.7603059050000003,1.5199999999999438
0.2750887725534601,-0.04008037645303059,-0.13251009777934036,-2.1774091964859497,0.005964275373799346,2.1387022975883276,0.5153718986884133,-0.8587007321872601,-1.421710539465349,-0.008957670648845435,-1.6746893166576253,-0.218983871907945,0.2695587299359035,1.0343689827252893,0.9173112322335146,0.398129432108903,0.0037155629562840905,0.0,0.39814651782992433,-0.9172602134244485,-0.00968494241847476,0.0,-0.00044773117501439863,0.010363644449094482,-0.9999461957578157,0.0,0.5208572397372908,0.075759143101541,0.30510906291946327,1.0,-0.40998,-0.5388308571428573,-1.7603059050000003,1.536999999999942
0.26099818992529344,-0.06269342416839192,-0.13260948683347595,-2.203873666949032,0.0024163849829402636,2.1428066673528954,0.5315103186514337,-0.8854877913074807,-1.3899724568919551,-0.0007860560310971967,-1.6547297435679118,-0.22393755248446356,0.24479833133298898,1.0037222882365255,0.9288464804884239,0.3704218935892928,0.003547299705236189,0.0,0.3704387507243402,-0.9287956240885801,-0.009724584150671801,0.0,-0.0003074883520097771,0.010346902243748617,-0.9999464220971399,0.0,0.513839491899313,0.06653491125044624,0.30507615971435104,1.0,-0.40998,-0.5388308571428573,-1.7603059050000003,1.55399999999994
0.245575939757884,-0.08634655845869574,-0.13269317858903515,-2.231221389296168,-0.0013661317802081032,2.146722324229551,0.5483177876694748,-0.9469332168837938,-1.3484162541755156,-0.014088574697624466,-1.5850488047106146,-0.21580130921030308,0.2299013637850299,0.9755798318511057,0.9389554725817085,0.34399310770140523,0.003479836777543576,0.0,0.3440106999711964,-0.9389051872763915,-0.009717742125635732,0.0,-7.560096788039594e-05,0.010321826962785975,-0.9999467256672447,0.0,0.5072596015285689,0.057900575765785806,0.30505383580383205,1.0,-0.40998,-0.5388308571428573,-1.7603059050000003,1.5699999999999383
0.22969395921335048,-0.10971097684773258,-0.13270783491244445,-2.257692987737224,-0.00515158035763839,2.1500694390113706,0.564511962587948,-0.9419822150098545,-1.3378826582335026,-0.002604856419877641,-1.5497662923924693,-0.22152231159382768,0.18817676420674215,0.9387824493363286,0.9487625097270973,0.3159416388623679,0.0033656901979568945,0.0,0.3159595355618094,-0.9487132276645591,-0.009671113848388528,0.0,0.00013756990078511722,0.010239209294953096,-0.9999475684592349,0.0,0.5002525854616332,0.048813610374313164,0.30502980305582356,1.0,-0.40998,-0.5388308571428573,-1.7603059050000003,1.5869999999999365
0.2131602703400846,-0.13274060658931297,-0.1328118933330172,-2.2834050371244246,-0.008866806447991676,2.1528982761308186,0.580296798413629,-0.9916697940945648,-1.3378458390685701,0.0007481392486674695,-1.5113383403187124,-0.21371072313639106,0.15087215157201828,0.9225136916889766,0.9578140461545082,0.2873375667662828,0.0031816057533771208,0.0,0.28735505499176983,-0.9577652736494995,-0.009669532718007069,0.0,0.0002688166776229073,0.010176060673983023,-0.9999481864210531,0.0,0.49323340749564676,0.03964909163266418,0.3049684141947035,1.0,-0.40998,-0.5388308571428573,-1.7603059050000003,1.6039999999999346
0.196142271338897,-0.15547588682268673,-0.1328766328284712,-2.308301684074658,-0.012577234472649936,2.1552234257045204,0.5954916461470731,-1.0317361754214849,-1.316969704075773,-0.0145089607331449,-1.4432388212728802,-0.2157136202430291,0.11843567999408845,0.8839885266513278,0.9659470192350856,0.25868504415387966,0.003025039366162363,0.0,0.2587023683880276,-0.9658992001706899,-0.009621153842186207,0.0,0.0004330428352002924,0.01007630372402623,-0.9999491389951611,0.0,0.4862124712700198,0.030552407463847357,0.3049231768066113,1.0,-0.40998,-0.5388308571428573,-1.7603059050000003,1.6209999999999327
0.17956837748571763,-0.1765442444681565,-0.1329875709892494,-2.330963813698052,-0.015955198181119658,2.156953382734011,0.6092422735581485,-1.0384102145284002,-1.2939999838422207,-0.0015139993029640799,-1.405792657250366,-0.2017567464000096,0.08848607118279282,0.842642055921,0.9728321948423656,0.2314518085115707,0.0028858129040977005,0.0,0.2314690765411852,-0.9727846887258451,-0.009631349175468464,0.0,0.000578092552638243,0.01003785626548467,-0.9999494523477646,0.0,0.4796161079082224,0.02197229444168855,0.30488238053712,1.0,-0.40998,-0.5388308571428573,-1.7603059050000003,1.636999999999931
0.16131260611029577,-0.19870296605400833,-0.13320509078946863,-2.354218297662391,-0.019564957904928442,2.1584009106258497,0.6233893600764621,-1.079913057642369,-1.2772634787168038,-0.0005587690219735,-1.3420015645506833,-0.20926642310526525,0.07282278662006773,0.8311499332786492,0.9793487923104731,0.20210886702916248,0.0029488590021143086,0.0,0.20212813060930407,-0.9793024784572542,-0.00957190707622705,0.0,0.0009532759884237074,0.009970474955278143,-0.9999498391889747,0.0,0.47264428827677096,0.012777510710097686,0.30491594453601606,1.0,-0.40998,-0.5388308571428573,-1.7603059050000003,1.653999999999929
0.14254790748759255,-0.22051269491199554,-0.13340771663833997,-2.376710328315292,-0.023084780652868814,2.159350498624623,0.636851735700042,-1.113126179202252,-1.3073226984303707,-0.02298737980564919,-1.3224306291585832,-0.22160912466583377,0.060696566399579835,0.7792649696600465,0.9849468984982546,0.17277629966095526,0.0029503076695228704,0.0,0.17279692140681807,-0.9849014239412777,-0.009547563667136204,0.0,0.0012561936892139247,0.009913838176762727,-0.9999500676483903,0.0,0.46564766338656477,0.0036472243119682213,0.30493346385373277,1.0,-0.40998,-0.5388308571428573,-1.7603059050000003,1.6709999999999272
0.12433008437875827,-0.24061117182110706,-0.13357035656254698,-2.397066599425194,-0.02631288171097048,2.159720616960857,0.6489233340371394,-1.1469057866945738,-1.274043873977624,-0.012793826599069169,-1.2179199886491965,-0.19917504911850786,0.03274754751936304,0.7364980748929346,0.9896554576856521,0.14336859014023884,0.0028756452164308706,0.0,0.14338979553464204,-0.9896106692507343,-0.009530831173387948,0.0,0.0014793758415357905,0.009844766808906075,-0.9999504447789389,0.0,0.45865928869186107,-0.005452337863235869,0.304949093746291,1.0,-0.40998,-0.5388308571428573,-1.7603059050000003,1.6879999999999253
0.10310609205315681,-0.2628740780166106,-0.13382577807619409,-2.419276560031584,-0.02987719828133288,2.159893172072363,0.6619954184772625,-1.1778131480162513,-1.2126886733188638,-0.0052156975066723135,-1.2018138860286431,-0.1912589164782934,-0.0072261039245649205,0.7023989989434608,0.9935210826724429,0.11352845552221474,0.002809799516928286,0.0,0.11355036935915985,-0.9934767502149464,-0.009539774732951303,0.0,0.001708467494665189,0.00979720972075203,-0.9999505466874385,0.0,0.4516415410851009,-0.014618550619155263,0.3049248184490535,1.0,-0.40998,-0.5388308571428573,-1.7603059050000003,1.7049999999999235
0.0824770610759364,-0.28343208862722613,-0.1341488571158506,-2.4392967263065133,-0.03325056883691531,2.159829561394256,0.6735556670298833,-1.2161834695406615,-1.1853677040781996,-0.016343358257569288,-1.1716877438413302,-0.18997463974407458,-0.008989970102081114,0.6564611438588277,0.996470976261767,0.08376743900421058,0.0030588448481248705,0.0,0.08379289126823997,-0.9964287376852986,-0.009448226764808783,0.0,0.0022565105963947008,0.009671379406060061,-0.9999506850741751,0.0,0.44471158588014004,-0.02378821939749074,0.30497136185679513,1.0,-0.40998,-0.5388308571428573,-1.7603059050000003,1.7219999999999216
0.06122619616052765,-0.30357830482235326,-0.13445114438586003,-2.4583913776779514,-0.036378080014344574,2.159391693176098,0.6844189817928715,-1.2552012948482252,-1.1737250908793175,-0.029725108863321723,-1.116108377052515,-0.1891642507977602,-0.042174585747922544,0.623655050236721,0.9985300071825212,0.05391180567238957,0.003476904719046588,0.0,0.05394261300054293,-0.9984894249964733,-0.009476791339603396,0.0,0.002960798665138986,0.009650599654049276,-0.9999490485007633,0.0,0.43782214506906975,-0.032922058363586665,0.30509072587713454,1.0,-0.40998,-0.5388308571428573,-1.7603059050000003,1.7389999999999197
0.0406832799100962,-0.3219335088542919,-0.1346980025986602,-2.4756818193518257,-0.03938068090289125,2.158531645386117,0.6941202377751106,-1.2826814439649972,-1.1431597219479606,-0.019200630719747053,-1.0344883999802574,-0.17892826412101304,-0.04272317215551144,0.5826195992467017,0.9996503612901726,0.02583882453425579,0.0035010313228850433,0.0,0.02587073214747143,-0.9996114946708914,-0.00939743801196515,0.0,0.00325691510740439,0.009484909161350329,-0.9999497132367128,0.0,0.431283697444213,-0.04149599311448149,0.3050944455724547,1.0,-0.40998,-0.5388308571428573,-1.7603059050000003,1.754999999999918
0.01829948077490395,-0.3410065053827519,-0.1350700920037671,-2.4933905827974967,-0.042356004082151115,2.1572986280872564,0.703735579939204,-1.2930691001535608,-1.0977859783026411,-0.01748621276344942,-1.0381057317627422,-0.16878903719060823,-0.08769132036772258,0.530157031578073,0.9999760492378726,-0.004080031730022693,0.0034642737920780784,0.0,-0.004047085246108084,-0.9999373926897053,-0.009464602639999048,0.0,0.00350274022090058,0.009450537696336081,-0.999949207784173,0.0,0.42428763754925836,-0.05059423542961245,0.3050693434517454,1.0,-0.40998,-0.5388308571428573,-1.7603059050000003,1.771999999999916
-0.0034487127605618063,-0.35842584690093254,-0.1354294439308738,-2.5090913946621005,-0.0452599221309705,2.1559356805255674,0.7121150630838048,-1.3680261334361763,-1.0699852991614278,-0.023186016057909962,-0.97127503641509,-0.16660589278831958,-0.09338414077460215,0.5169800942463068,0.9994650645975887,-0.03220128343224338,0.003661815869630857,0.0,-0.03216590790159396,-0.9994292638043096,-0.009340659593972416,0.0,0.003960583419305663,0.009218054788578088,-0.9999496693558598,0.0,0.41777851279642547,-0.05923497726726721,0.3051380778105723,1.0,-0.40998,-0.5388308571428573,-1.7603059050000003,1.7879999999999143
-0.02847286948745649,-0.37732976512372496,-0.1358058649452316,-2.526052579508294,-0.04823925588839308,2.1540362019370987,0.720762154545334,-1.3878947596775788,-1.0442324027463636,-0.006968500855340594,-0.9224661650571543,-0.1628021148886484,-0.10879313858057124,0.46031769156313057,0.9979526910360219,-0.06370664779231111,0.0035547689428542134,0.0,-0.06367105993379235,-0.9979174117252625,-0.009358547091762537,0.0,0.004143647264207184,0.009113226805856502,-0.9999498883866806,0.0,0.41037866729385347,-0.06885477462334698,0.30510222965454437,1.0,-0.40998,-0.5388308571428573,-1.7603059050000003,1.8059999999999123
-0.05274071172183818,-0.3945653229477652,-0.13622758968587192,-2.5410901916623128,-0.05100507819694127,2.1520588551963336,0.7282617540426053,-1.427700883536105,-0.9905494975791913,-0.019719227873315155,-0.8460948775594422,-0.15235579046538017,-0.1260190183213828,0.4255278341145085,0.9956057670660861,-0.09346999413788487,0.003641933802519319,0.0,-0.09343271550224025,-0.995572212209076,-0.009329783074242547,0.0,0.004497949461215733,0.008948682359208204,-0.9999498435095024,0.0,0.40343297464199984,-0.07797167809782198,0.3051413532783572,1.0,-0.40998,-0.5388308571428573,-1.7603059050000003,1.8229999999999105
-0.07622380639353754,-0.4100808062203127,-0.1366684335080873,-2.554502892418089,-0.05342718301678109,2.150034735193055,0.7347171761043204,-1.4704074861514764,-0.9344645259198655,-0.01568251242860737,-0.8167025794324061,-0.14061453009845234,-0.11933370163196835,0.3851469805015665,0.9925637372875631,-0.12159337733104059,0.003609004320448159,0.0,-0.12155521483295706,-0.9925306443342393,-0.009380655924914976,0.0,0.004722763946911235,0.008872376428277082,-0.9999494869428238,0.0,0.39687094723699956,-0.08658080112622804,0.3051300055694453,1.0,-0.40998,-0.5388308571428573,-1.7603059050000003,1.8389999999999087
-0.10170573971562176,-0.4258914009654637,-0.13715718142818123,-2.567901064151334,-0.05596629097205751,2.147815751240935,0.7408064365155337,-1.4996885910906679,-0.9027565982251227,-0.02221369829759315,-0.7539789436939012,-0.15935508916949456,-0.136362771959559,0.34256921767837606,0.9884887070451428,-0.15118593410918252,0.0036927324523345715,0.0,-0.15114613282863398,-0.9884572976358883,-0.009368253973620469,0.0,0.005066554115567612,0.008702438576823124,-0.9999492975107342,0.0,0.3899186109485858,-0.09572027961120375,0.30514840309446556,1.0,-0.40998,-0.5388308571428573,-1.7603059050000003,1.8559999999999068
-0.1277710679027537,-0.44094870618462606,-0.13771331808676887,-2.5803927474119193,-0.05838137536561455,2.1453817666362043,0.7462392114350898,-1.5177452324869796,-0.8846684458794756,-0.02487883319140169,-0.7183092064942844,-0.1548061350602621,-0.13004897532366938,0.3171251441706308,0.9838317280909028,-0.1790040842573895,0.0036627205803269527,0.0,-0.17896341469361038,-0.9838008802801919,-0.009416531332231404,0.0,0.005289087130470271,0.008608955060149706,-0.9999489544222238,0.0,0.38334634640909393,-0.1043288427179475,0.30516276534595543,1.0,-0.40998,-0.5388308571428573,-1.7603059050000003,1.871999999999905
-0.15286453850477433,-0.454283142548513,-0.13818097193797116,-2.5913424898147226,-0.060440312864135995,2.1431573020966685,0.7506653328749784,-1.568133247631463,-0.8005630898513926,-0.017558886020215127,-0.6870003211157637,-0.1429521441743003,-0.14675950706358032,0.2609997100198815,0.9776784838015118,-0.2100262566222793,0.0038079839833939995,0.0,-0.20998338976864112,-0.9776497277455813,-0.009419806870100444,0.0,0.005701391049101778,0.008410091033758643,-0.9999483809221901,0.0,0.37600118876258304,-0.11400639228169336,0.3052094408803451,1.0,-0.40998,-0.5388308571428573,-1.7603059050000003,1.889999999999903
-0.18162673492455308,-0.4683070380423567,-0.13863433454463292,-2.6027419799285614,-0.06276764088833782,2.1405044294050164,0.755008785482727,-1.5852564207755573,-0.747786009190293,-0.011951524861013557,-0.6079999011969317,-0.12879763737494065,-0.13059341403111052,0.22039745551172368,0.9709847770891328,-0.23907248216980054,0.0036956503549385204,0.0,-0.23903008471562004,-0.9709571864846236,-0.009354545200906922,0.0,0.0058248447579240525,0.008199907242876739,-0.9999494150729598,0.0,0.36903087043102384,-0.1231057386325343,0.3051900850965531,1.0,-0.4025365714286571,-0.5290480653062352,-1.7268998757278133,1.9069999999999012
-0.2072242459655684,-0.47946484833045283,-0.13888390885172572,-2.611603484251958,-0.06450120819068757,2.138487791264648,0.7580074105258674,-1.5894678870541323,-0.6635042724970505,-0.0095534381468691,-0.5399040594233131,-0.11702373509728653,-0.1274149701008166,0.1587976476908218,0.9640933090874443,-0.26549849655346053,0.003922575924300032,0.0,-0.2654538411940476,-0.9640686608133653,-0.009307112014901581,0.0,0.00625277715082595,0.007931814286017275,-0.9999489932491727,0.0,0.36274307467534217,-0.13150312572847245,0.3052421645723218,1.0,-0.38863028571437297,-0.510771232653176,-1.664488611458106,1.9229999999998995
-0.2340070030043434,-0.49015596181338383,-0.13907089725168348,-2.620180015500377,-0.06593723284868008,2.1361779633038465,0.7603915204512255,-1.5544187444776327,-0.6060641272124812,-0.0004605932634980537,-0.480151590594344,-0.09581514215845104,-0.12775772013771494,0.1285795385580152,0.9562859872792775,-0.2923768927691711,0.00368917458932956,0.0,-0.29233258148022534,-0.9562601060303292,-0.009434952102665407,0.0,0.0062864934976402664,0.007944199505658084,-0.9999486835301692,0.0,0.3561500473178382,-0.140044216410127,0.30518527239154125,1.0,-0.373854857142946,-0.49135209795930057,-1.5981766431715418,1.9399999999998976
-0.2587825964998954,-0.4991447116312363,-0.13912727456385532,-2.6271236114519025,-0.06712965501970275,2.134337342253276,0.7621013505315861,-1.5254806044635076,-0.5397458946201568,0.006044943684142618,-0.40279715979037295,-0.08961021368999812,-0.10346846766520987,0.08869259594353976,0.9480633300918168,-0.3180277140180642,0.003878421440159345,0.0,-0.31798117852701957,-0.948039808320536,-0.009446631322177329,0.0,0.006681317119336838,0.0077228884186205105,-0.9999478571385731,0.0,0.3498837840865231,-0.14831174174932554,0.3052538509118142,1.0,-0.35907942857151887,-0.4719329632654249,-1.531864674884977,1.956999999999896
-0.2860462317398014,-0.5080244932125473,-0.1390470445243358,-2.633576969263733,-0.06825317492399548,2.1325562461431904,0.7632644911433192,-1.4871041447598081,-0.45544719344770906,0.015253890717401755,-0.3400592329614373,-0.0685991666411024,-0.09535731499070775,0.05975140090141455,0.9395409905172917,-0.34237881571211853,0.004496731097357407,0.0,-0.3423268729360306,-0.9395228985434929,-0.009475340599704948,0.0,0.007469081530520394,0.007363260763129903,-0.9999449960932976,0.0,0.3439700670830328,-0.1563095836433738,0.3054705130618314,1.0,-0.3443040000000919,-0.4525138285715495,-1.4655527065984126,1.973999999999894
-0.30953893100303137,-0.5147863225202822,-0.13893801619085186,-2.638565750228347,-0.06898757425071356,2.131124281340046,0.7638483681443425,-1.4364668854793092,-0.40306078923203764,0.005441500546079399,-0.2984711812967627,-0.05593582153980073,-0.08943563322454828,0.030798826148173246,0.9313289896591201,-0.3641204562746104,0.004832519436079587,0.0,-0.36406512548589093,-0.9313142023945765,-0.009549226372036975,0.0,0.007977816245508862,0.007134256910739184,-0.999942726773031,0.0,0.33859030637321247,-0.16348843985617936,0.30558775359333884,1.0,-0.3303977142858077,-0.43423699591849024,-1.4031414423287052,1.9899999999998923
-0.332372161538333,-0.5206665134606806,-0.13875789039398215,-2.64270784531516,-0.06960758773401644,2.1298180887018527,0.7640511416982888,-1.402821023939544,-0.3445270324872567,0.005787225005427917,-0.23655214990155765,-0.039423049111537996,-0.06683661644944303,0.005185097980282948,0.9224634617963782,-0.386023001342938,0.005305750280620275,0.0,-0.3859639859825995,-0.9224538584119704,-0.009561774233920677,0.0,0.008585539904318373,0.006772689229056106,-0.9999402078050257,0.0,0.33313247379021055,-0.17083466318032764,0.3057774602360035,1.0,-0.3156222857143808,-0.41481786122461484,-1.3368294740421411,2.0069999999998904
-0.3571927200279271,-0.5262571478314174,-0.13842535114470672,-2.64640685974703,-0.07011249135194385,2.1286963216081562,0.7639994426065853,-1.3647910760273538,-0.2930288864910371,0.012918377047265239,-0.18672285200081054,-0.020836536520340752,-0.0689205496424136,-0.003916154698040632,0.9135104228549122,-0.40674675703261626,0.006043995375380534,0.0,-0.40668280595414946,-0.9135088598892938,-0.00956060386327741,0.0,0.009410169116117306,0.006275843108884571,-0.9999360292091083,0.0,0.3279951113232567,-0.17786240433744546,0.30604909001657565,1.0,-0.30084685714295384,-0.39539872653073943,-1.2705175057555769,2.0239999999998886
-0.37838574918966633,-0.5302923525610227,-0.13804017916225853,-2.64917356778729,-0.07044056614103276,2.12776422936332,0.7636065292666873,-1.3023768795234207,-0.2355452902908521,0.02084618565500677,-0.1667906889752818,-0.023834860058772406,-0.05969639907679063,-0.04075161447582558,0.9051513464182996,-0.42501868351674765,0.006395751717991155,0.0,-0.42495306995531723,-0.9051547612075818,-0.009512807156959444,0.0,0.009832455198672041,0.005892749332792213,-0.9999342970065919,0.0,0.3233312898996517,-0.18413301797678505,0.3061969288641723,1.0,-0.2869405714286697,-0.3771218938776802,-1.2081062414858694,2.039999999999887
-0.39993409673482144,-0.5336676021264651,-0.13764754695925796,-2.6516501282742566,-0.0706088344165594,2.12691802144649,0.7628173964747287,-1.237522158468615,-0.17770862876914628,0.02562257894766482,-0.132504643801733,-0.0012311377181418526,-0.04185694934138958,-0.049965060768339876,0.8964026316901444,-0.44317176080696496,0.006469870435035329,0.0,-0.44310561426600625,-0.8964079979029793,-0.009532198210591775,0.0,0.010024237666348856,0.005677960966772172,-0.9999336355071113,0.0,0.3185737382355924,-0.19043854891889123,0.30623857202635746,1.0,-0.27216514285724236,-0.3577027591838043,-1.1417942731993036,2.0569999999998854
-0.4206881879870749,-0.5364948183780036,-0.13716667125861012,-2.653676748254285,-0.07074707709586062,2.1262893241648544,0.7618673911283224,-1.1912998893747402,-0.17182089057250108,0.03107003723999267,-0.12133295056331254,-0.007865517625003083,-0.016488433193226786,-0.062365797230475965,0.8877415879329348,-0.46027293040262773,0.00666704537991797,0.0,-0.4602065282317197,-0.8877506018952704,-0.009463990104644828,0.0,0.010274889831120793,0.0053334624815036535,-0.9999329881631652,0.0,0.31401788795397695,-0.19645769408712574,0.3063039285312437,1.0,-0.25738971428581536,-0.3382836244899289,-1.0754823049127396,2.0739999999998835
-0.44151766363419676,-0.5383220485932988,-0.13669733016447283,-2.655336620029371,-0.07076388565410063,2.12571186934634,0.7606040944836499,-1.1379567869004057,-0.0836792503782648,0.029047574258932184,-0.07836971891567007,-0.00023997170253274114,-0.04005891548521956,-0.07605277098120276,0.8788233582568484,-0.4770856630555782,0.006286651746613614,0.0,-0.47702187206248736,-0.8788299833399875,-0.009420236613055124,0.0,0.010019350783970926,0.005279955246184714,-0.9999358652846022,0.0,0.30942487196437113,-0.2024534882013946,0.30617334538688445,1.0,-0.2417451428572457,-0.3177221877552372,-1.0052696326093187,2.0919999999998815
-0.4589936532769719,-0.5398310046546435,-0.13623212980056623,-2.6564467190917025,-0.0707413679922635,2.1253747548034894,0.7592817037700454,-1.0908009334624735,-0.09286685882278262,0.014221395726286619,-0.06971569892566426,-0.0030294034651732462,-0.0134933685877274,-0.08649932201000791,0.8712319608120338,-0.49081050434767093,0.006377004219222784,0.0,-0.4907470470560886,-0.8712408409775563,-0.009353059374226917,0.0,0.010146681662595636,0.005019284905339344,-0.9999359237622563,0.0,0.3055998552409957,-0.2074566501991766,0.3061987963524849,1.0,-0.22783885714296148,-0.299445355102178,-0.9428583683396112,2.1079999999998797
-0.47662369416143585,-0.5405125230560126,-0.13576873237681789,-2.657267385283794,-0.07058007753167386,2.1250569419407292,0.7579191291061061,-1.0020566450678428,-0.025003042715292453,0.0283027141400604,-0.03443388248278579,0.019407003161547663,-0.017352628947774326,-0.07847236321427502,0.8633236165678702,-0.5045965355432037,0.00595115914572685,0.0,-0.5045354596539131,-0.8633292886709675,-0.009341101428850702,0.0,0.009851487082857768,0.005061920110867868,-0.9999386607022692,0.0,0.30173105483100016,-0.21247451500064515,0.3060556593472693,1.0,-0.21306342857153454,-0.2800262204083026,-0.8765464000530471,2.124999999999878
-0.49324018474147685,-0.5413039631828812,-0.13521810461957137,-2.6578334562967756,-0.07038570940893679,2.12491376157202,0.7563321296599562,-0.9312511262713858,-0.038811107335828925,0.04199749288994273,-0.029888209694247145,0.01502746301659608,-0.007512237077624528,-0.08352345790690428,0.8558549022178192,-0.5171617859808506,0.006067979237962313,0.0,-0.517100684628699,-0.8558628520427514,-0.009295555442609665,0.0,0.010000856618603171,0.0048179832372393094,-0.9999383830538859,0.0,0.2981180156950766,-0.21717165160747093,0.30608712349016115,1.0,-0.1982880000001076,-0.2606070857144272,-0.810234431766483,2.141999999999876
-0.5084926828018428,-0.5413223020943336,-0.13446079152880516,-2.658043531821251,-0.07007371766623792,2.1247782826603765,0.7547590502512689,-0.8716455347579447,-0.020178648639542066,0.0372267293847919,-0.012873199989287116,0.01725143700341801,-0.004666406302878215,-0.08799524353337468,0.8485589087216748,-0.5290509421728333,0.0057987857630781734,0.0,-0.5289922871981726,-0.8485655423806082,-0.009188431332854506,0.0,0.009781986373482432,0.004729503378484073,-0.9999409705279516,0.0,0.29466376411306405,-0.2216623341828728,0.3060098173057896,1.0,-0.1826434285715375,-0.24004564897973507,-0.7400217594630605,2.1599999999998745
-0.5228235901570013,-0.5414561780826976,-0.13383847586886957,-2.6580944106112003,-0.06968617993369311,2.1248010613351127,0.7531030900126622,-0.7882793561171164,0.015065703402470234,0.040480158348593455,0.00014857193758575037,0.028558904931181663,-0.003953382585490372,-0.0938747714709164,0.8423819439950475,-0.5388304764125913,0.00592663659364498,0.0,-0.5387712892123355,-0.8423905077283573,-0.009191153945326986,0.0,0.00994520774445129,0.004549448080744534,-0.9999401958942746,0.0,0.2917913668983505,-0.22541898824141776,0.3060493729512294,1.0,-0.16873714285725333,-0.22176881632667583,-0.677610495193353,2.1759999999998727
-0.5359602455373954,-0.541209794009134,-0.13313272103643042,-2.657962580071408,-0.06925441340276935,2.124832894263706,0.7514335812295742,-0.751281104471663,0.008763040266694888,0.033950266634803515,0.009211493120731409,0.024474741337608585,0.0031304303204251157,-0.09519971602786735,0.8363511830794468,-0.5481448786190072,0.0058853637586901075,0.0,-0.5480862339210231,-0.8363601075587791,-0.009165018916800664,0.0,0.009946233143740602,0.004439573031794208,-0.9999406795593155,0.0,0.28900451142208594,-0.22905041859234923,0.30604115116643743,1.0,-0.1539617142858264,-0.20234968163280043,-0.6112985269067888,2.192999999999871
-0.5480470174905994,-0.5408942578012037,-0.13249839716279704,-2.65778980712097,-0.06881323921321819,2.124954147405681,0.7496823371871638,-0.6668405270417322,0.025658629739437142,0.04257994884684796,0.015708816603828685,0.031248080941065702,0.007978793033014684,-0.10954905403455573,0.830808484132603,-0.5565097918695835,0.00590433296551357,0.0,-0.5564510619689383,-0.8308181449679745,-0.009174558671815098,0.0,0.010011351448166894,0.004336912332839615,-0.9999404802454988,0.0,0.2864273902285797,-0.23238212124762617,0.30603247763607744,1.0,-0.13918628571439945,-0.18293054693892502,-0.5449865586202247,2.209999999999869
-0.5589496636877783,-0.5404114684601526,-0.13183455392700408,-2.6575070772082685,-0.06835213763335823,2.1250812516407924,0.7479550701836502,-0.6228255852489968,0.031199801836775374,0.03566409012533612,0.013503966125546156,0.02432784404888661,0.005973155916753909,-0.10207214748148757,0.8258413870152616,-0.563854827344432,0.0058723142199639325,0.0,-0.5637963538408114,-0.8258512605467129,-0.009171354884641736,0.0,0.010021163764333707,0.004263377176140337,-0.9999406981875787,0.0,0.28412238679675084,-0.23536391771784773,0.3060142262252536,1.0,-0.12441085714297251,-0.16351141224504956,-0.47867459033366044,2.226999999999867
-0.5684229688286772,-0.5399198119877587,-0.1313223644614026,-2.6571716951218685,-0.0679168402679293,2.1252045833937045,0.746307538994543,-0.5621240729681299,0.03459415147102866,0.029889276619891963,0.023178702698659643,0.026974608181821635,0.014831887438213669,-0.10751077847029186,0.8215107335698065,-0.5701458936036456,0.005875503187563514,0.0,-0.5700869839923762,-0.8215208767342461,-0.009220990916398554,0.0,0.010084352790883544,0.004225676477702223,-0.9999402229569001,0.0,0.2821069512507481,-0.23796940596002306,0.3060125377800683,1.0,-0.1105045714286883,-0.14523457959199038,-0.416263326063953,2.2429999999998653
-0.5770879341012195,-0.539251240511689,-0.1306100837513941,-2.6567302315384134,-0.06738378511142103,2.125349525291412,0.744650445813865,-0.4820316470690922,0.036709663505850886,0.043577573148386596,0.026401054627676453,0.032884198438629865,0.009665389560731185,-0.10291832483131569,0.8178714822726498,-0.5753546424405698,0.005832735930146564,0.0,-0.5752958371198873,-0.8178815097219507,-0.009234865926414846,0.0,0.010084003999761948,0.004197465598412997,-0.9999403452935995,0.0,0.28043221793034323,-0.24017304444280574,0.3059993880273407,1.0,-0.0965982857144041,-0.12695774693893114,-0.3538520617942458,2.2589999999998636
-0.5848270649109104,-0.5386179565409923,-0.12994427832235092,-2.656330019299138,-0.06691638360009239,2.125486629586352,0.7428570942160346,-0.430851879951003,0.045367061758067984,0.04078893026093103,0.022871752305870213,0.0337489608252414,9.236641051352332e-05,-0.10982146385940537,0.8144059813136734,-0.5802501397445368,0.0057809885111529515,0.0,-0.5801917186699675,-0.8144158840182416,-0.009224117669641103,0.0,0.010060618133714117,0.004158175000353759,-0.9999407450161404,0.0,0.2787434148653512,-0.24236784907614445,0.3059825403139055,1.0,-0.08095371428583442,-0.10639631020423951,-0.2836393894908249,2.2769999999998616
-0.591035276951189,-0.5380115333939162,-0.12928556576968125,-2.6559450095323656,-0.06643637787461466,2.125588451307049,0.7412328658781658,-0.36059275572232946,0.029804423682537974,0.03919330743650028,0.021575180148367224,0.036332017896963095,0.007530188675630065,-0.09980385732133791,0.8119062747604192,-0.5837434747970599,0.005701187395725996,0.0,-0.583685350397931,-0.8119155947691031,-0.00923177137857858,0.0,0.010018062137094552,0.004167713788068184,-0.9999411325637118,0.0,0.2775012789791046,-0.24399223878815926,0.3059628057932283,1.0,-0.06704742857155022,-0.08811947755118033,-0.22122812522111746,2.29299999999986
-0.5964499423832776,-0.5375188735503662,-0.1286364290596918,-2.655612223688805,-0.06596054975261567,2.1257438872018826,0.7394592886192667,-0.2891086049002639,0.03317833147287608,0.04033984010708376,0.017586133665763438,0.021195506050864375,0.007972194860651753,-0.10414887966585225,0.8099426815760452,-0.5864645580621825,0.005737734704736979,0.0,-0.5864061720603989,-0.8099525054625224,-0.009245926976820227,0.0,0.010069894954799485,0.004124107246603337,-0.9999407927247581,0.0,0.27644114805351633,-0.24538956895092381,0.30596516281002983,1.0,-0.052272000000123275,-0.06870034285730486,-0.15491615693455318,2.309999999999858
-0.6005312797847254,-0.5371114105880864,-0.1279073269404472,-2.6553452849732477,-0.06554170096505649,2.1257883988034187,0.7379223146329185,-0.23442901798396773,0.015481516571703186,0.04097048233051944,0.018226563402229674,0.0328263202723569,0.00440523028610041,-0.09680648199275924,0.8086775575836851,-0.5882083741648584,0.005680081339932176,0.0,-0.5881508529845343,-0.8086871763276741,-0.009185416590813317,0.0,0.00999654036338965,0.004087374263565369,-0.9999416795755602,0.0,0.2756825455655969,-0.24637329124776178,0.305960398013705,1.0,-0.038365714285839125,-0.05042351020424568,-0.09250489266484574,2.325999999999856
-0.6038551908783,-0.536824697121717,-0.12714578215685052,-2.6551389703275716,-0.06510448484864623,2.125890082688196,0.7361745556545416,-0.17759842639809562,0.025412823536412686,0.0450330563177941,0.00636710028034673,0.02206807105203053,0.006401595137969899,-0.095901383906162,0.807991823454203,-0.5891493713674147,0.005742677924164127,0.0,-0.5890921756534258,-0.808002364197514,-0.009128797092157881,0.0,0.010018515295199648,0.003993103655632491,-0.9999418405459767,0.0,0.27511353025821383,-0.24713168484232903,0.30597787048507186,1.0,-0.02359028571441213,-0.031004375510370275,-0.02619292437828169,2.3429999999998543
-0.6061235687933206,-0.5365676593512021,-0.1265464385719456,-2.654968164315123,-0.06471053473173667,2.125920939344132,0.7344976526131246,-0.11584536094011567,0.015823903344984257,0.02999675312191548,0.0067716997614347425,0.024614681427864604,0.004719642014884612,-0.09177537348798119,0.8078188600184844,-0.5893866889169901,0.005724266513015023,0.0,-0.5893295969871948,-0.807829244058835,-0.009126086754467267,0.0,0.01000321653790115,0.003998822310982142,-0.9999419708558199,0.0,0.2747478481440002,-0.24762205612467075,0.30597954872301486,1.0,-0.019723076923079886,-0.02592175824176214,-0.009861538461539943,2.3599999999998524
-0.6078102673020732,-0.5363969026250447,-0.12610620758736543,-2.654830493180009,-0.06446531906128186,2.1259287345612132,0.7330429329681816,-0.1008655903718054,0.015269401330654702,0.02653789358185069,0.007624702822095297,0.010294748147822249,0.000920824483259904,-0.07473959327583599,0.8078190979383135,-0.5893862792079225,0.0057328691576528645,0.0,-0.5893295467029958,-0.8078297247109878,-0.00908670223016133,0.0,0.009986952010909378,0.0039619386964130365,-0.9999422802498641,0.0,0.27445274508304296,-0.24801943693298362,0.3059949639271543,1.0,-0.01938307692307992,-0.02547490109890504,-0.00969153846153996,2.3769999999998506
-0.609453666025376,-0.5361840542330523,-0.12579953698487956,-2.654636844853868,-0.0642902408497729,2.125966806678714,0.7316985093548192,-0.09024336491204779,0.010396681876322124,0.014487032652651144,0.015478295082356866,0.007751770789138622,0.001239775236758069,-0.07412997991274523,0.8077381670392118,-0.5894967714106903,0.00577554375925057,0.0,-0.5894402678292653,-0.8077493835672073,-0.009047149239897226,0.0,0.009998649683680416,0.0039034648374465797,-0.9999423933241183,0.0,0.27417246799854345,-0.24843261506381595,0.30601658106136964,1.0,-0.01904307692307996,-0.02502804395604795,-0.00952153846153998,2.3939999999998487
-0.6109638863157928,-0.5359708445738923,-0.12564449234957872,-2.6544671869557552,-0.06416898364509867,2.126063652532106,0.7302734206314537,-0.08618208176089727,0.01714083392584171,0.00732559288381536,0.006119300627415355,8.737824288996231e-05,0.008459269031673527,-0.07806032682434982,0.8077257689483719,-0.5895131400317833,0.005838390860199859,0.0,-0.5894564817838259,-0.8077376509471584,-0.009038264579495487,0.0,0.010044257234502418,0.0038590361701041354,-0.9999421086925206,0.0,0.27390581799469765,-0.248824881921392,0.30602514274566894,1.0,-0.018723076923079996,-0.02460747252747657,-0.009361538461539998,2.409999999999847
-0.6124700872621253,-0.535768558760484,-0.12559102372029723,-2.65433027449053,-0.06411340912190294,2.1260565862750407,0.7289889067099254,-0.08708038687702627,0.005566360503280431,0.0005292226188375917,0.0033648945870842686,0.005547934656944448,0.00026612672334691334,-0.06766310679326566,0.807600160637017,-0.5896857831958504,0.00577966581812172,0.0,-0.5896293854016926,-0.8076114780472257,-0.009035225420875473,0.0,0.009995860883949437,0.0038890635736496537,-0.9999424773204253,0.0,0.2735732080553806,-0.2492492081748345,0.3060143531693754,1.0,-0.018383076923080034,-0.02416061538461948,-0.009191538461540017,2.426999999999845
-0.6139677879135722,-0.5356256313913339,-0.12560276211350563,-2.6541741969873365,-0.06406207677092415,2.1260653174449047,0.7277135802967062,-0.09009846238678935,0.015334486561315742,7.415591425513781e-05,0.013102018457950351,0.008819775139438688,-4.315518707165515e-05,-0.07823922378294478,0.8074410025055703,-0.5899033553155644,0.005814272219908635,0.0,-0.5898465735634864,-0.8074525838656159,-0.009060428541940653,0.0,0.010039719620464738,0.00388630778182375,-0.9999420486417039,0.0,0.2732366180530313,-0.24969356818934785,0.3060339809558488,1.0,-0.01804307692308007,-0.02371375824176238,-0.009021538461540034,2.443999999999843
-0.615322451955756,-0.5354581081258719,-0.1256137256874867,-2.654013543704337,-0.06402285002873867,2.1260751243974743,0.7265245389400733,-0.0853716501266881,0.0105352614311943,0.000900625088371925,0.003789650592266979,0.007684281031712721,0.00033365547007944166,-0.06884407371494758,0.8073193581746491,-0.5900696802882945,0.00582865526091628,0.0,-0.5900127037448016,-0.8073310411690127,-0.009074485435304282,0.0,0.010060426734391281,0.0038871019464633005,-0.9999418374347477,0.0,0.2729349392303528,-0.2501004014202624,0.30604676699862354,1.0,-0.017723076923080106,-0.023293186813191,-0.008861538461540053,2.4599999999998414
-0.6167601500457794,-0.5352797626473234,-0.12562153310815616,-2.6538632818635097,-0.06397384245488073,2.1261211664425526,0.7253096072861277,-0.08244271321128065,0.007824437065697354,7.915054404501203e-05,0.010644222894052712,-0.000715934439687744,0.0024572142945458167,-0.06447330494289903,0.807162631828498,-0.5902837512530379,0.0058588128099884475,0.0,-0.5902264668538714,-0.8071745592282817,-0.00909371546911811,0.0,0.010097151528898118,0.0038821556698817594,-0.999941486487263,0.0,0.2726164949589292,-0.2505299426532508,0.306054122593257,1.0,-0.017363076923080145,-0.022820043956048194,-0.008681538461540073,2.4779999999998394
-0.6180830855892917,-0.5350857111392675,-0.125597427414887,-2.6537195803951192,-0.06393446310923828,2.126136774432152,0.7240714084893938,-0.07790181951944637,0.01072878269453615,0.0009663086929158994,0.0064253652916879365,0.0011517297274579916,-0.0006290585303136392,-0.06741313105868978,0.8071072663563209,-0.5903596733140287,0.005836404765684373,0.0,-0.5903025090560218,-0.807118985394628,-0.009090551078992546,0.0,0.010077561882364527,0.0038918803847456385,-0.9999416463042121,0.0,0.2723252123420317,-0.2509157250987995,0.30605072792179194,1.0,-0.017023076923080183,-0.0223731868131911,-0.008511538461540092,2.4949999999998376
-0.6192732457189759,-0.5349202631618377,-0.12552882962763437,-2.6536004579690937,-0.06389390331046739,2.126158285454993,0.7229727655736723,-0.07362831875962524,0.007449427597539424,0.007167368913803713,0.009773792281780037,0.0036193496358947093,-0.0007012982083959374,-0.06631301461195,0.807071047459332,-0.5904093175606432,0.005823142766593161,0.0,-0.5903524232269203,-0.8070827205497987,-0.009068929443280102,0.0,0.010054331926870497,0.0038816386756411747,-0.9999419199587023,0.0,0.2720719196612129,-0.2512501529882794,0.3060481504264569,1.0,-0.016703076923080217,-0.021952615384619716,-0.008351538461540109,2.510999999999836
-0.6204985505837994,-0.5347380075823605,-0.12543460514040367,-2.6534867396864597,-0.06385598463739928,2.1261946982286712,0.7218489385066953,-0.07132773043815283,0.008609855160455725,0.0028480422356103705,0.007175215065324386,0.0010004929439717584,0.0007340089652141547,-0.06510725268503965,0.8070433942630869,-0.5904474025249209,0.005794094329438953,0.0,-0.5903909821909094,-0.8070549180077382,-0.009032960112001295,0.0,0.010009832879518121,0.003869284242680182,-0.9999424142845295,0.0,0.27179923127820654,-0.25160736577092346,0.30603610519158203,1.0,-0.016343076923080256,-0.021479472527476912,-0.008171538461540128,2.528999999999834
-0.6217192829678497,-0.5345583162869785,-0.12541776382569006,-2.6533691814904468,-0.06381373055071445,2.1262134602900864,0.7206804724449477,-0.07331394639448183,0.007737372764906642,-0.0011536732172479649,0.006797871458158304,0.0072597249925415675,0.0012067032186425723,-0.06964488613654778,0.8070032003640514,-0.5905025598918927,0.005771331259687091,0.0,-0.5904461842292915,-0.8070144830747432,-0.009037396631925947,0.0,0.009994346181234515,0.003885622294987956,-0.9999425058391058,0.0,0.27154166828684495,-0.2519414224225552,0.30602882359174133,1.0,-0.016023076923080293,-0.02105890109890553,-0.008011538461540147,2.544999999999832
-0.62302023967096,-0.534365423550635,-0.12542555184708967,-2.6532319878827137,-0.06377414027023723,2.126255145802792,0.7195308205157459,-0.0719539124803669,0.014024245562040958,-0.0015857230573246555,0.003854155566933851,0.0007028510349947419,0.010792753323493434,-0.06060048572569832,0.8068921939790938,-0.590654261636303,0.005768657355587762,0.0,-0.5905977685240538,-0.8069034099861395,-0.009050396033125924,0.0,0.010000596820206098,0.003895812756426531,-0.999942403694436,0.0,0.271249991801062,-0.25232900417225995,0.3060243946668127,1.0,-0.015663076923080332,-0.020585758241762727,-0.007831538461540166,2.56299999999983
-0.6242331670531783,-0.5341701936458492,-0.12542483255365786,-2.653079279433529,-0.06373331033994639,2.1262992979715905,0.7184898470439317,-0.07104960369727618,0.006917260390269827,-0.00010065879982315925,0.00621213617912137,0.004513506008463267,0.0012994131400437265,-0.0659770473859832,0.8067722542847491,-0.5908179588904676,0.005780663457927338,0.0,-0.5907613349501539,-0.8067835683294926,-0.009059023272459216,0.0,0.01001617077359962,0.0038936511306869592,-0.999942256234782,0.0,0.270985872428699,-0.2526945580725425,0.3060266298847137,1.0,-0.01532307692308037,-0.020138901098905634,-0.007661538461540185,2.579999999999828
-0.6252759192230218,-0.5339908652236531,-0.1254223258926944,-2.6529590907850897,-0.06369963481465118,2.1263258317835145,0.7175068420251716,-0.07195697549645907,0.00803638383196333,0.001355647975327111,0.006784422378206343,0.0015075593718791907,0.0001889574832264477,-0.06570680383578066,0.8067197370944469,-0.5908898864544523,0.0057580178289701085,0.0,-0.5908332735791647,-0.8067307989664803,-0.009066847955074599,0.0,0.01000287166857855,0.003912452002200417,-0.9999423159751328,0.0,0.27073905714754304,-0.25302273610601705,0.3060180920156214,1.0,-0.015003076923080404,-0.01971832967033425,-0.007501538461540202,2.5959999999998264
-0.6264165240676565,-0.5338370602459996,-0.12541561749130575,-2.6528385908456444,-0.06366069013043694,2.1263345190065275,0.7165082565823738,-0.06820867274022338,0.009055091694544222,-0.0012215395247897813,0.01023050214552285,0.0005521091662573044,0.004574407003728721,-0.05335438231019091,0.8066260673745261,-0.5910178903240374,0.005743487619823129,0.0,-0.5909612472147542,-0.8066369580694036,-0.009075740638091525,0.0,0.009997026941163722,0.003926625971959474,-0.9999423188668504,0.0,0.2704961490652506,-0.2533359516629907,0.30601792255289967,1.0,-0.01468307692308044,-0.01929775824176287,-0.00734153846154022,2.6119999999998247
-0.6276215557733844,-0.533643808247769,-0.12538131455299287,-2.6526932019891896,-0.06361240091330575,2.1263543657511255,0.7154063157516886,-0.0623163482750602,0.009493465396691691,-0.000481420640039126,0.011486115838229371,0.0035156145119212335,-0.0004127386038885459,-0.0606904895949011,0.8065621199687844,-0.5911053155961403,0.005727076623923928,0.0,-0.5910487380793558,-0.8065728528013396,-0.009075750102224476,0.0,0.009984220886408435,0.00393525059707156,-0.9999424129098782,0.0,0.27023485178864554,-0.2536852955605509,0.30601614114678755,1.0,-0.014303076923080481,-0.01879832967033435,-0.007151538461540241,2.6309999999998226
-0.6286353655917472,-0.533490477164613,-0.12533267457295688,-2.652554696027717,-0.06357586622333236,2.126395300856473,0.7144650852917089,-0.0588571037766319,0.007915115094274127,0.0059541970992025945,0.0076347239969492406,0.0032125148794038424,0.0020036365213699477,-0.053029168705120235,0.8065271004681762,-0.5911527503507523,0.0057627132798368725,0.0,-0.5910962030865576,-0.8065382591189645,-0.009058817539456525,0.0,0.01000318623222951,0.0038999389904907367,-0.9999423617094507,0.0,0.27002633026045425,-0.2539825427942847,0.30602807855644465,1.0,-0.013983076923080517,-0.01837775824176297,-0.0069915384615402585,2.646999999999821
