nelsonifechukwu/NELSON_IML_WORK/CNN-GradCAM/train2dof/data_sample_2022-02-21-10-24-49/robot_state.csv
position_joint1,position_joint2,position_joint3,position_joint4,position_joint5,position_joint6,position_joint7,velocity_joint1,velocity_joint2,velocity_joint3,velocity_joint4,velocity_joint5,velocity_joint6,velocity_joint7,ee_T_00,ee_T_10,ee_T_20,ee_T_30,ee_T_01,ee_T_11,ee_T_21,ee_T_31,ee_T_02,ee_T_12,ee_T_22,ee_T_32,ee_T_03,ee_T_13,ee_T_23,ee_T_33,v_x,v_y,time
0.465064985418,0.547647634563,-0.123972557481,-1.35573760008,0.0794444796973,1.89408283422,0.159169711908,0.000199404934438,-0.00220656759811,0.00429087576385,0.000644896103597,-4.00268883441e-06,0.00306743332353,-0.00196330655675,0.573790055742,0.818987980695,0.00209912103765,0.0,0.818947276162,-0.573731384513,-0.0117645311636,0.0,-0.00843084032212,0.00846960351437,-0.999928590824,0.0,0.661700692142,0.26089687401,0.303352227651,1.0,0.0,0.0,0.0
0.465070470963,0.547653934975,-0.123972891984,-1.35573723733,0.0794469613819,1.89408348717,0.159166251959,0.000181296645858,-0.000161623813682,-0.00682354708669,0.00237758629996,-0.000321545629468,0.000135024092922,-0.00180643570828,0.573783617054,0.81899250034,0.00209573119047,0.0,0.818951731626,-0.573724939576,-0.0117686820673,0.0,-0.00843625152533,0.00846914270921,-0.999928549088,0.0,0.661699244987,0.260900716286,0.303348009315,1.0,-0.00018,-0.000236571428571,0.01
0.46505981255,0.5476448109,-0.123973242911,-1.35574757323,0.0794477975633,1.89408314302,0.15916694429,-0.0021554076233,-0.000767439351441,-0.0016427759707,-0.000629832181335,-9.83637649996e-05,4.1869402054e-05,-0.000250661451324,0.573793925643,0.818985279078,0.00209534020239,0.0,0.81894448937,-0.573735232459,-0.0117708651837,0.0,-0.00843815727,0.00847018133129,-0.999928524211,0.0,0.661699862324,0.260892465253,0.303349536477,1.0,-0.00052,-0.000683428571429,0.027
0.465045022379,0.547623813223,-0.123987065744,-1.35576655701,0.0794489521303,1.89408603577,0.159172334426,-0.000501077783381,-0.00334023793883,-0.00268314756533,-0.00633941389234,0.000146799847494,2.75046620862e-05,0.00138421413747,0.573821435308,0.818965998661,0.00209769361215,0.0,0.818925284771,-0.573762775041,-0.0117644737113,0.0,-0.00843128778203,0.00846872457855,-0.999928594496,0.0,0.661703610813,0.260873085596,0.303356086634,1.0,-0.00084,-0.001104,0.043
0.465036072276,0.547507357006,-0.123984842196,-1.35586880376,0.0794480157335,1.89409899726,0.159170232149,0.000306418601737,-0.0101694060752,-0.00092837454229,-0.0121084013984,-0.000182991862114,-0.000382661022942,0.000946367658778,0.573830703398,0.818959430267,0.00212657384936,0.0,0.818919003333,-0.573771841164,-0.0117595565172,0.0,-0.00841059344257,0.00848964977719,-0.999928591333,0.0,0.661687710879,0.260858575023,0.303390967326,1.0,-0.00118,-0.00155085714286,0.06
0.465010722589,0.547386971289,-0.123979648954,-1.35603748695,0.0794434933056,1.8941484639,0.15916834946,-0.00375677743322,-0.0030451434122,0.000282702032374,-0.0111227479215,-0.000594948721914,0.00487394332226,0.00023494448804,0.573854430829,0.818942788829,0.00213254412018,0.0,0.818902347913,-0.573795450147,-0.0117674498297,0.0,-0.00841338605133,0.0084993122495,-0.999928485756,0.0,0.661667757462,0.260828992686,0.303400072199,1.0,-0.00152,-0.00199771428571,0.077
0.464990911969,0.54725564789,-0.123982959773,-1.35623957034,0.0794352538407,1.894233915,0.159156488003,-0.00085118378749,-0.00493356652932,0.000845759669114,-0.0133971866433,-0.000372801771626,0.00360302553851,-0.00139738687852,0.573872457278,0.818930122405,0.00214576244312,0.0,0.818889848362,-0.573813418367,-0.0117611246496,0.0,-0.00840043370076,0.00850669236486,-0.999928531895,0.0,0.661648324391,0.260796177785,0.303404424728,1.0,-0.00184,-0.00241828571429,0.093
0.464991257538,0.547063832741,-0.123980352307,-1.35645447509,0.0794347615368,1.89433666429,0.159146551261,-0.000244401458784,-0.0132002051263,0.000356391375778,-0.0156730814407,-0.00227371247012,0.000895735083337,0.000437973424614,0.57387452177,0.818928452017,0.00222949341796,0.0,0.818889170951,-0.573815066617,-0.0117278268969,0.0,-0.00832509449593,0.0085561738014,-0.999928739807,0.0,0.661622613315,0.26078285244,0.303450317568,1.0,-0.0022,-0.00289142857143,0.111
0.464981777961,0.54684318812,-0.123982539557,-1.35673380733,0.0794266326393,1.89449280071,0.159129362596,-0.0003487624768,-0.0116253171799,-0.000919386773724,-0.0179435996344,-6.52862714497e-05,0.00822054656875,-0.00091972056711,0.573883135556,0.818922200196,0.0023073039592,0.0,0.818883934815,-0.573823395222,-0.0116858589031,0.0,-0.00824598305314,0.00859589699155,-0.999929054643,0.0,0.661600280252,0.260753339795,0.303483782956,1.0,-0.00256,-0.00336457142857,0.129
0.46496194538,0.546630254821,-0.123974028135,-1.35704002753,0.0794166634974,1.89460962957,0.159089987034,-0.00505806140122,-0.0150167044166,0.00166998032981,-0.0193326712153,-0.000701877241646,0.00342965262289,-0.00162316627032,0.573875665147,0.818927358669,0.00233432584007,0.0,0.818889331099,-0.573815708596,-0.0116851565002,0.0,-0.00822997996498,0.00861754739915,-0.999929000133,0.0,0.661562732738,0.26071791432,0.303498680389,1.0,-0.00286,-0.00375885714286,0.144
0.464939907945,0.546360921107,-0.123974709087,-1.35743131263,0.0794076982161,1.89475523031,0.158959682039,-0.00137441094313,-0.0189630284462,0.00121490823735,-0.0206989043341,-0.000184822907927,0.018195124312,-0.00881856026817,0.573806958926,0.818975417278,0.00236361657115,0.0,0.818937637503,-0.573746764806,-0.011685146821,0.0,-0.00821388877557,0.00864083949565,-0.999928931437,0.0,0.661515505041,0.260668468584,0.303515822674,1.0,-0.0032,-0.00420571428571,0.161
0.46490601808,0.54607948248,-0.123975121539,-1.35788828896,0.0793913869949,1.89491450159,0.158941305043,-0.00373170161872,-0.0176687358438,0.000214680133781,-0.0209301371761,-0.00160172743928,0.00898690707914,0.00412262748491,0.573841139713,0.818951491851,0.00235526390151,0.0,0.818913494143,-0.573780856886,-0.0117031740715,0.0,-0.00823308503808,0.00864468657569,-0.999928740313,0.0,0.661459657844,0.260603433063,0.303511415166,1.0,-0.00354,-0.00465257142857,0.178
0.464845169624,0.545785511814,-0.123974452509,-1.35837738686,0.0793591999207,1.89507206365,0.158906826518,-0.00280480003732,-0.0206774194645,4.88974407964e-05,-0.030457823526,0.000355002340516,0.00423382542588,-0.00333804932153,0.573880948579,0.818923691782,0.00232180913302,0.0,0.818885247493,-0.573820771832,-0.0117226342862,0.0,-0.00826779981911,0.00862885786281,-0.999928590599,0.0,0.66140405215,0.260514855797,0.303500358998,1.0,-0.00386,-0.00507314285714,0.194
0.464785012107,0.545443302072,-0.123975170617,-1.35897147557,0.0792516561382,1.89526393755,0.158790266849,-0.005448190319,-0.0199732716738,0.000361698073751,-0.0367137018412,-0.00267900488888,0.0114175638477,-0.00457767601536,0.573839777803,0.818952793527,0.00223120760129,0.0,0.818913759352,-0.573780551463,-0.0116995901145,0.0,-0.00830134830621,0.0085410212375,-0.99992906677,0.0,0.661336757423,0.260404231805,0.303476347686,1.0,-0.0042,-0.00552,0.211
0.464708688248,0.545064405276,-0.123984980127,-1.35964707069,0.0792392811499,1.89549148372,0.158743623263,-0.0072660850235,-0.0242493344317,-0.000260288923975,-0.0420412783523,-0.000646163056086,0.0104811859385,0.00115792889966,0.573905326615,0.818906986374,0.00218418218177,0.0,0.818867107185,-0.573846030069,-0.0117533589133,0.0,-0.0083716846344,0.00853403453733,-0.999928540022,0.0,0.661259710885,0.260286298571,0.303443062127,1.0,-0.00454,-0.00596685714286,0.228
0.464642025053,0.544645180581,-0.123985599176,-1.36034422172,0.0792165225536,1.8957379212,0.158644022884,-0.00779458685588,-0.0294197530466,8.58621590149e-07,-0.0419589564757,-0.000406401135103,0.00958087701168,-0.0106150247178,0.573911607043,0.818902629572,0.00216736775419,0.0,0.818862340342,-0.573852179622,-0.011785177738,0.0,-0.00840732619695,0.00853859052084,-0.999928202092,0.0,0.661178416606,0.260177657102,0.303429346052,1.0,-0.00488,-0.00641371428571,0.245
0.464583212175,0.544193100367,-0.123979289427,-1.36110673695,0.079181237179,1.89600893826,0.158529735784,-0.00541038810213,-0.0263585732655,0.00137144900388,-0.0526966126485,-0.00167550355332,0.0197194629449,-0.00640555477313,0.5738948812,0.818914421833,0.00214054824241,0.0,0.818873630974,-0.573835405698,-0.0118173839696,0.0,-0.00844926646651,0.00853493900488,-0.999927879756,0.0,0.661084836497,0.260070536457,0.303409614894,1.0,-0.00522,-0.00686057142857,0.262
0.464508279647,0.543700188384,-0.12398594846,-1.3619143718,0.07914269059,1.89629608468,0.158470512934,-0.00639764883454,-0.0280482348507,1.71429365708e-05,-0.0491889304518,-0.00541618800553,0.0159886743659,-0.00430640838129,0.573947104391,0.818877874923,0.002119958638,0.0,0.818836738307,-0.573887625247,-0.0118379258642,0.0,-0.00847736076221,0.00853040752499,-0.999927680636,0.0,0.660992411684,0.259941000953,0.30339907544,1.0,-0.00556,-0.00730742857143,0.279
0.464441183868,0.543237251235,-0.12398981862,-1.36265863559,0.0790948057182,1.89655460535,0.158346055394,-0.00414375856638,-0.0362610381469,0.000331528449172,-0.0452288834722,-0.00562056194115,0.0250966954601,-0.012787591895,0.57392535697,0.818893152679,0.00210618680772,0.0,0.818851871371,-0.573865969914,-0.0118409554871,0.0,-0.00848797185413,0.00852064366259,-0.999927673867,0.0,0.660899707291,0.25981583679,0.303401977849,1.0,-0.00588,-0.007728,0.295
0.464344503782,0.542639410923,-0.123992439733,-1.36361491862,0.0790492963798,1.8968720603,0.158223177486,-0.0079987437494,-0.0393467383044,-0.00130580458375,-0.05263565125,-8.19898332404e-05,0.0225723159154,-0.00945260243541,0.573952641824,0.818874121136,0.00207016357838,0.0,0.818832194403,-0.573893219415,-0.0118809519643,0.0,-0.00854111570026,0.00851438428124,-0.999927274657,0.0,0.660792826436,0.259665052578,0.30339014954,1.0,-0.00622,-0.00817485714286,0.312
0.464247280817,0.542046337816,-0.124004036214,-1.36453299973,0.0789985864743,1.89721694442,0.15809572291,-0.00344607790588,-0.0378874614894,-0.0033012583242,-0.0556610167613,-0.00298324879282,0.0164097532071,-0.00689966107931,0.573973526747,0.818859440954,0.00208649356777,0.0,0.818817741943,-0.5739140509,-0.0118707438692,0.0,-0.00852316681015,0.00852211475256,-0.999927361956,0.0,0.660696328346,0.2595081086,0.303402853808,1.0,-0.00656,-0.00862171428571,0.329
0.464169572481,0.541439416284,-0.124004158402,-1.36543867581,0.0789458430929,1.8975525789,0.157983092588,-0.00696252130268,-0.0369466431879,7.21211980577e-05,-0.0526611681505,-0.00300434901077,0.014594496184,-0.0014573048834,0.57398116513,0.818854002709,0.00211925069956,0.0,0.818812708475,-0.573921535306,-0.0118560807991,0.0,-0.00849227910626,0.00854060090921,-0.999927467035,0.0,0.660593482669,0.25937141705,0.303429985362,1.0,-0.00688,-0.00904228571429,0.345
0.464083999427,0.54072805582,-0.124002008648,-1.36651235912,0.0788699509102,1.89796116546,0.157848031574,-0.00584063640035,-0.0443646306905,0.00110200700371,-0.0558870551529,-0.0058106089784,0.0229939799916,-0.00524668371195,0.573978420905,0.818855838829,0.00215277771189,0.0,0.818815076417,-0.573918754891,-0.0118271009746,0.0,-0.00844933386134,0.00855139222873,-0.999927738613,0.0,0.660471811019,0.259213491744,0.303457113611,1.0,-0.00724,-0.00951542857143,0.363
0.464008357391,0.540021494703,-0.1240118827,-1.36759912897,0.0788064680556,1.89836779305,0.157706564801,-0.00523871723631,-0.0426019812524,-0.00064654810397,-0.0677549470436,-0.00107474046776,0.0245862127462,-0.00260965083981,0.57397467726,0.818858407584,0.00217372836239,0.0,0.818817942799,-0.573914954966,-0.0118130401536,0.0,-0.00842583425715,0.00856043851051,-0.999927859503,0.0,0.660345884224,0.259055416023,0.303474758353,1.0,-0.00758,-0.00996228571429,0.38
0.463949078929,0.539380624098,-0.124009108625,-1.3686127137,0.0787470461249,1.89876551534,0.157577295147,-0.00866052418144,-0.0465540187288,-0.000728379975225,-0.0733688233536,-0.000698866157815,0.0246519369953,-0.00572581255784,0.573954595293,0.818872424911,0.00219571477491,0.0,0.818832243826,-0.573894787537,-0.011801534192,0.0,-0.00840400346034,0.00857163186741,-0.999927947331,0.0,0.660218100415,0.258912524828,0.303481788558,1.0,-0.0079,-0.0103828571429,0.396
0.463846872884,0.53858674517,-0.124006327813,-1.36984142124,0.0786730943758,1.89924498989,0.157424626226,-0.0130592856937,-0.0476345581098,0.000131128295742,-0.0681475817212,-0.00855503852604,0.0241240390431,-0.0127466523671,0.573960731586,0.818868024384,0.00223251871011,0.0,0.818828318692,-0.573900777731,-0.0117825603476,0.0,-0.00836727878604,0.00859094190116,-0.999928089596,0.0,0.660088045325,0.25874264337,0.303496985236,1.0,-0.00824,-0.0108297142857,0.413
0.463739911732,0.537808738229,-0.124019852757,-1.37107009341,0.0786079721358,1.89970282454,0.157272610672,-0.00384804129876,-0.0484389241563,-0.000750283244997,-0.0783266536578,-9.9869586782e-05,0.0247636669206,-0.00682968459924,0.573983735732,0.818851880995,0.00223942137297,0.0,0.818812242314,-0.573923729193,-0.011781842273,0.0,-0.00836248764506,0.00859641698524,-0.999928082622,0.0,0.659949749354,0.258549095542,0.303501776747,1.0,-0.00858,-0.0112765714286,0.43
0.463634093976,0.537038082856,-0.124009410002,-1.3722664431,0.0785451026976,1.90013873438,0.157125521042,-0.00370457971925,-0.0487033940857,0.000702203630094,-0.0725547146503,-0.00398805769296,0.0241972923679,-0.0113799719749,0.573991622819,0.818846307595,0.00225574216439,0.0,0.818806726651,-0.573931393692,-0.0117918033623,0.0,-0.00836119437782,0.00861557908229,-0.999927928516,0.0,0.65980820902,0.258372844217,0.303513936894,1.0,-0.0089,-0.0116971428571,0.446
0.463502133521,0.536195316741,-0.124020499213,-1.373593896,0.0784739701004,1.90064742681,0.156965254249,-0.00631842224451,-0.0512793163043,9.65789657522e-05,-0.0770322251786,-0.00326649916204,0.0302719637891,-0.0122558526747,0.574030346633,0.818819103105,0.00227693578058,0.0,0.818779782778,-0.573970016112,-0.0117828188077,0.0,-0.00834126485667,0.00862817066732,-0.999927986393,0.0,0.659664551992,0.258155844844,0.303521480466,1.0,-0.00924,-0.012144,0.463
0.46338552336,0.535311287031,-0.124028384767,-1.37496791172,0.0783778959005,1.90114752441,0.156792385472,-0.00548639612964,-0.0520621499725,-0.000833272520939,-0.0900991919631,-0.0145219971902,0.0273464210096,-0.0128150822206,0.574039438643,0.818812730701,0.00227636238852,0.0,0.818773529961,-0.573979240614,-0.011767959931,0.0,-0.00832933101616,0.00861926432861,-0.999928162683,0.0,0.659505818474,0.257941264094,0.303534917001,1.0,-0.00958,-0.0125908571429,0.48
0.463271718083,0.534486358399,-0.124027548735,-1.37632813793,0.0783190108005,1.90164007498,0.156631169689,-0.013391398915,-0.0461906044035,0.000964149163496,-0.0875651957986,-0.00737013358188,0.0295147977658,-0.00279514813624,0.574058885599,0.818799165308,0.00225158995861,0.0,0.818759398384,-0.573998528191,-0.011810338445,0.0,-0.00837804724177,0.00862350619539,-0.99992771912,0.0,0.659342121121,0.257739959363,0.303512198305,1.0,-0.0099,-0.0130114285714,0.496
0.463137832922,0.533523718685,-0.124030798237,-1.37790372053,0.0782100911731,1.90222249233,0.156432392573,-0.0074222804712,-0.0553805035532,-0.000893121119981,-0.0885332668833,-0.00370689850406,0.0368169601517,-0.0124604934334,0.574065099847,0.818794907141,0.00221541822284,0.0,0.818754781334,-0.574004996508,-0.0118160453591,0.0,-0.00840341842517,0.00859722904478,-0.999927732494,0.0,0.659158409942,0.257497331886,0.303491799117,1.0,-0.01026,-0.0134845714286,0.514
0.463004258402,0.532577628365,-0.124030651901,-1.37942482714,0.0781276170822,1.90279856551,0.156247445953,-0.00854733253113,-0.0524065506161,0.00052634963709,-0.0906882261273,-0.00561868564856,0.0349131670531,-0.011844793273,0.57408405625,0.818781604874,0.00221963536363,0.0,0.818741446604,-0.57402384477,-0.011824387935,0.0,-0.00840762957758,0.00860566574268,-0.999927624522,0.0,0.658982943432,0.257266984497,0.303484834684,1.0,-0.0106,-0.0139314285714,0.531
0.462874281068,0.531660073274,-0.124031673237,-1.3808959296,0.0780376611958,1.90332918481,0.156057368503,-0.00407845398784,-0.0576533958646,0.00274419474402,-0.0937264938062,-0.0114532221242,0.0299623936437,-0.00748652538929,0.574091572173,0.818776391346,0.00219878051197,0.0,0.818735934936,-0.57403141402,-0.0118385583895,0.0,-0.0084311253558,0.00859680273139,-0.999927502926,0.0,0.658808661625,0.25703963867,0.303477432178,1.0,-0.01092,-0.014352,0.547
0.462725941372,0.530666266633,-0.124040299857,-1.38253203094,0.0779392676457,1.90390012117,0.155851638668,-0.0133885577673,-0.054333709939,-0.00158235123903,-0.0983872505186,-0.00663425050649,0.0335825079001,-0.0121928420516,0.574113140598,0.818761435012,0.00213570376581,0.0,0.81872011899,-0.574053190991,-0.011876345206,0.0,-0.00849804949558,0.00856707442905,-0.999927191545,0.0,0.658612434175,0.256778597569,0.303448789233,1.0,-0.01126,-0.0147988571429,0.564
0.462589551859,0.529635990708,-0.124042882367,-1.38416120958,0.0778441399847,1.90449966174,0.155627212745,-0.00937018301034,-0.0635219295841,0.000102271968652,-0.0938837660175,-0.00203981626388,0.0409307598294,-0.0169775404164,0.574105812299,0.818766570101,0.00213702360244,0.0,0.818725223272,-0.574045809924,-0.0118812368324,0.0,-0.00850137376291,0.00857088726496,-0.999927130613,0.0,0.658419407657,0.256532726143,0.303451179871,1.0,-0.0116,-0.0152457142857,0.581
0.462466669025,0.528620533489,-0.124041856609,-1.38573724426,0.0777510339857,1.90508829891,0.155413553473,-0.00228149040803,-0.0682449551953,0.00132095197086,-0.0981118050561,-0.00334528873592,0.0400834522907,-0.0189232251172,0.574091188515,0.818776758165,0.00216204981578,0.0,0.818735697156,-0.57403104733,-0.0118727336695,0.0,-0.00848019793442,0.0085863444602,-0.999927177814,0.0,0.658231398527,0.256303569478,0.303467119005,1.0,-0.01192,-0.0156662857143,0.597
0.462325927759,0.527502822521,-0.124041418213,-1.3874492881,0.0776358142774,1.9057594788,0.155174553285,-0.00518798600923,-0.0695432230384,-0.000129044121472,-0.0989059633026,-0.00973402410546,0.0414685472282,-0.0147544782426,0.574072197762,0.818789918543,0.00221989856548,0.0,0.818749741196,-0.574011963699,-0.0118268222152,0.0,-0.00840959637425,0.00860715691205,-0.999927595148,0.0,0.65803619395,0.256049561813,0.303497206393,1.0,-0.01226,-0.0161131428571,0.614
0.462176608336,0.526353126865,-0.124043527076,-1.38924835279,0.0775227577254,1.90643380562,0.154921497053,-0.0100048326763,-0.0681071683757,-0.000625266589775,-0.103145691505,-0.00272249396837,0.035054888385,-0.0200943450967,0.574055459192,0.818801605595,0.00223771051845,0.0,0.818761690406,-0.573995189126,-0.0118137244165,0.0,-0.00838882295891,0.0086140504886,-0.999927710279,0.0,0.657824183925,0.255779122552,0.303508475873,1.0,-0.0126,-0.01656,0.631
0.462036684608,0.525230929022,-0.124046769354,-1.39097708651,0.0774180368708,1.90706065599,0.15469822958,-0.0116726625706,-0.0733881140805,-0.00075879397998,-0.107579789312,-0.0014704316609,0.0432641703375,-0.00691354100955,0.574054287303,0.818802380371,0.00225477937975,0.0,0.818762661474,-0.573993924879,-0.0118078482216,0.0,-0.00837422579478,0.00862464111249,-0.999927741343,0.0,0.657615325285,0.255520360347,0.303529493914,1.0,-0.01292,-0.0169805714286,0.647
0.461870874601,0.523989863527,-0.124054837465,-1.39297152003,0.0772923591423,1.90776723166,0.154422668165,-0.00641534151999,-0.069064617569,0.00107849408413,-0.110706453498,-0.00739159316121,0.0410941443018,-0.0105472055193,0.574043258441,0.818810233279,0.0022104790097,0.0,0.818769938345,-0.573983069872,-0.0118309113547,0.0,-0.0084186558436,0.0086014942723,-0.999927567642,0.0,0.657371354441,0.255213867919,0.303514428131,1.0,-0.01328,-0.0174537142857,0.665
0.461707903352,0.522779978849,-0.124059514939,-1.39490688908,0.0771641896767,1.90849945263,0.154167224122,-0.00859558019072,-0.0757083617088,0.000205671997199,-0.114926267483,-0.00328023442524,0.0443691541051,-0.0150735632128,0.574040125076,0.818812438774,0.00220721822282,0.0,0.818772207686,-0.5739800582,-0.0118199666336,0.0,-0.00841159841083,0.00859250949432,-0.999927704283,0.0,0.65714355275,0.25491917149,0.303507325508,1.0,-0.01362,-0.0179005714286,0.682
0.4615495271,0.521620008169,-0.124067387002,-1.39673986385,0.077059487843,1.9092148043,0.153910590231,-0.00743406169655,-0.0703031630198,-0.000152416262584,-0.115056327612,-0.00483018392242,0.0380408493787,-0.0182277911989,0.574035333857,0.818815701051,0.00224278808896,0.0,0.818775932719,-0.573975129685,-0.011801245884,0.0,-0.00837590209962,0.0086108388157,-0.999927846256,0.0,0.656932844703,0.254639779325,0.303512229103,1.0,-0.01394,-0.0183211428571,0.698
0.461369548685,0.520271342152,-0.124072386973,-1.39889412403,0.0769220840997,1.91000992476,0.153616880627,-0.00920950406792,-0.0803087562286,-0.000118927104594,-0.124180352321,-0.000246259283062,0.04873665866,-0.0149193813299,0.574023566528,0.818823990957,0.00222795988809,0.0,0.818784069164,-0.573963461553,-0.0118042275331,0.0,-0.00838697860461,0.00860028843399,-0.999927844211,0.0,0.656673197295,0.2543124383,0.303503221688,1.0,-0.0143,-0.0187942857143,0.716
0.461209778711,0.519033349039,-0.124080972438,-1.40082838425,0.0767974657112,1.91070483674,0.153364038225,-0.0103851465721,-0.0748186047476,-0.00271862070658,-0.121168173719,-0.00800436988708,0.0518336685161,-0.0133186369751,0.574022498432,0.818824757706,0.0022213427732,0.0,0.818784792393,-0.573962462797,-0.0118026245895,0.0,-0.00838947537434,0.00859393919624,-0.999927877855,0.0,0.656436825887,0.254016269847,0.30351222822,1.0,-0.01462,-0.0192148571429,0.732
0.46102520309,0.517592184185,-0.124086554029,-1.40307581671,0.0766477962071,1.91150620834,0.153057558392,-0.0133185537776,-0.078605012296,-0.00359468031586,-0.124694479774,-0.0106790763865,0.0491927688195,-0.00708265699392,0.574005121419,0.818836970689,0.00220973280453,0.0,0.818796914921,-0.573945194851,-0.0118013696217,0.0,-0.00839529386138,0.0085835342654,-0.999927918392,0.0,0.656159226691,0.25367431795,0.303523494204,1.0,-0.01498,-0.019688,0.75
0.460870595638,0.516408232424,-0.124081953891,-1.40494448774,0.0765226301931,1.91220554951,0.152794631296,-0.0128027805747,-0.0698341197358,-0.000730849877185,-0.120890528204,-0.0115940412717,0.0481599861668,-0.0222407792012,0.573978162164,0.818855851389,0.00221605646142,0.0,0.818815933024,-0.573918270922,-0.0117912267839,0.0,-0.00838364116554,0.00858261426011,-0.999928024056,0.0,0.655932201979,0.253396592666,0.303525040825,1.0,-0.01528,-0.0200822857143,0.765
0.460685233683,0.51494573103,-0.12408762314,-1.40726212428,0.076382733871,1.91307140126,0.152472727214,-0.00972773042345,-0.0790912903684,-0.000598308784336,-0.12851838082,-0.0161912794346,0.0442704951223,-0.0167225207707,0.573954939709,0.818872109082,0.0022232978895,0.0,0.818832267764,-0.57389500589,-0.0117892486624,0.0,-0.00837810866581,0.00858717088765,-0.999928031306,0.0,0.655649467151,0.25305202988,0.303522647234,1.0,-0.01564,-0.0205554285714,0.783
0.460515637663,0.513691692478,-0.124082857382,-1.40925225972,0.0762770283297,1.91377045973,0.152204524982,-0.00801405456242,-0.0884426057719,0.000739738598839,-0.134682194219,-0.00665524868979,0.0437100948199,-0.023920135566,0.573946833772,0.818877847251,0.00220231371802,0.0,0.81883748299,-0.573886726836,-0.0118299667532,0.0,-0.00842358127689,0.00859327443042,-0.999927596835,0.0,0.655396684618,0.252754310576,0.303514805547,1.0,-0.01594,-0.0209497142857,0.798
0.460303394879,0.51221017467,-0.12408763301,-1.41166145148,0.076125735054,1.91462246998,0.151860776185,-0.0128735399385,-0.0843238766846,-3.20436947353e-05,-0.134399820362,-0.00636806087322,0.053973084282,-0.0174501492845,0.573927794981,0.818891371056,0.00213435204268,0.0,0.818850073514,-0.573867910172,-0.011871212331,0.0,-0.00849656078065,0.0085610978716,-0.999927255383,0.0,0.65509533963,0.252379456594,0.303480062165,1.0,-0.0163,-0.0214228571429,0.816
0.460107516725,0.510767297514,-0.124096769124,-1.41397174975,0.0759851726816,1.91550100292,0.151533218469,-0.00997024300182,-0.0871391061218,-0.000695814113729,-0.134430004846,-0.0134830296441,0.0532006055483,-0.0326583437921,0.573909479215,0.818904193588,0.00213969420097,0.0,0.818862989718,-0.573849599631,-0.0118654108395,0.0,-0.00848893547286,0.00856195299017,-0.999927312826,0.0,0.654817161304,0.252027525989,0.303467271417,1.0,-0.01664,-0.0218697142857,0.833
0.459909077977,0.509364919319,-0.124094377841,-1.41620394659,0.0758498189715,1.91633220592,0.151235438307,-0.0161789714822,-0.0897145537809,0.000837037834218,-0.138597627917,-0.0119751197402,0.0489755581995,-0.0264653904239,0.573906236335,0.81890646381,0.00214063708731,0.0,0.818865214974,-0.573846295651,-0.0118716289722,0.0,-0.00849352056503,0.00856626007836,-0.999927237001,0.0,0.654543950075,0.251687110606,0.3034583614,1.0,-0.01696,-0.0222902857143,0.849
0.459683735217,0.507763589231,-0.12410785005,-1.41871989556,0.075686052178,1.91722559907,0.150873973677,-0.012172361089,-0.0904278218625,-0.00180943283995,-0.13561529536,-0.0142918529799,0.05469664596,-0.0159964133299,0.573890421594,0.818917612838,0.00211525138812,0.0,0.818876081206,-0.573830632795,-0.0118792001264,0.0,-0.00851445409698,0.0085496525435,-0.999927201107,0.0,0.654231495589,0.251288561312,0.303458935531,1.0,-0.01732,-0.0227634285714,0.867
0.45947144345,0.506196417659,-0.124109010727,-1.42116496516,0.0755307129582,1.91812707102,0.150539242812,-0.0138663659553,-0.0976407436443,-0.00074137020437,-0.147065725934,-0.00815945259402,0.0472883872215,-0.0229586918419,0.57387542413,0.81892807995,0.00213174815171,0.0,0.818886768141,-0.573815576025,-0.0118698178375,0.0,-0.00849746043987,0.00855762186104,-0.999927277493,0.0,0.653929144831,0.250915652471,0.303469091803,1.0,-0.01766,-0.0232102857143,0.884
0.459261855671,0.504681786601,-0.124120823498,-1.42347317636,0.075387351414,1.91903606896,0.150221729479,-0.0161422175568,-0.0995330284934,-0.000679514807772,-0.144865813299,-0.0117312929993,0.0547265552633,-0.0138395161037,0.573876067263,0.818927383186,0.00222427337237,0.0,0.81888738909,-0.573815969899,-0.011807776218,0.0,-0.00839354929882,0.00859779512783,-0.999927810519,0.0,0.653659846428,0.250556258056,0.303508067051,1.0,-0.01798,-0.0236308571429,0.9
0.459039189287,0.503018735193,-0.124117073026,-1.42594858501,0.0752277859501,1.91996747883,0.149872269608,-0.0102411277364,-0.10045724941,0.00032672239945,-0.151524297708,-0.0120810967068,0.0562527199298,-0.0198868372163,0.573853477165,0.818942938307,0.00232323994859,0.0,0.818904268604,-0.573793043913,-0.0117511072163,0.0,-0.00829058696971,0.00864609131155,-0.999928253063,0.0,0.653358416297,0.250178597405,0.303571940153,1.0,-0.01832,-0.0240777142857,0.917
0.458803452792,0.501326680659,-0.124125558033,-1.42847192412,0.0750670914849,1.9208851009,0.149527682932,-0.0146563758743,-0.106179242245,-0.000296314696286,-0.155481572062,-0.00441549184193,0.0621486617452,-0.0151371214359,0.57385585589,0.818941068065,0.0023938667943,0.0,0.818903347919,-0.573795193864,-0.0117102163578,0.0,-0.00821654602396,0.00868048888929,-0.999928566191,0.0,0.653048451648,0.249778963347,0.303631789095,1.0,-0.01866,-0.0245245714286,0.934
0.458582267346,0.499713043255,-0.124123827277,-1.43092344879,0.0749089148314,1.92174755249,0.149174826813,-0.0180280963846,-0.105330013757,-0.000718198383904,-0.154237929315,-0.010848571016,0.0538689008254,-0.0219718879773,0.573828615314,0.818960096526,0.00241401024272,0.0,0.818922591801,-0.573767834107,-0.0117050452299,0.0,-0.00820104143829,0.00869374480259,-0.99992857831,0.0,0.65273553079,0.249399124742,0.303665402996,1.0,-0.01898,-0.0249451428571,0.95
0.458333402209,0.498037732781,-0.124126545419,-1.43355746405,0.0747472572853,1.9227244877,0.148790991748,-0.0171451796284,-0.0992640192661,-0.00148510174396,-0.155045251833,-0.00496271647019,0.0573260690712,-0.0233005194576,0.573810295206,0.818972889877,0.00242851060539,0.0,0.818935533165,-0.573749420655,-0.0117022100265,0.0,-0.00819059390477,0.0087038097926,-0.999928576383,0.0,0.652410063656,0.248985009554,0.303664745087,1.0,-0.01932,-0.025392,0.967
0.4580717827,0.496369036087,-0.124125971389,-1.43622793597,0.0745855950627,1.92367611039,0.148395868796,-0.0144558279498,-0.0994003261965,-0.0020653889077,-0.163149939846,-0.00595080879682,0.060715685175,-0.0237809807129,0.57379420211,0.818984308748,0.00237961137263,0.0,0.818946184619,-0.573733369677,-0.0117436841961,0.0,-0.00825278952396,0.008687398817,-0.999928207706,0.0,0.652050120786,0.248532099364,0.303635514306,1.0,-0.01968,-0.0258651428571,0.985
0.457822982134,0.494779223811,-0.124120959664,-1.43881374429,0.0744192906713,1.92455907781,0.148032059474,-0.0193111889389,-0.102387955551,-0.00392144832152,-0.165330833895,-0.00970114502919,0.0621672013514,-0.0204885126589,0.573779219982,0.818995059056,0.00229060260549,0.0,0.818955638257,-0.573718580471,-0.0118067730514,0.0,-0.00835568839016,0.00865054950061,-0.999927672617,0.0,0.651732947025,0.248146934772,0.303592408251,1.0,-0.01998,-0.0262594285714,1.0
0.45752282855,0.492921769517,-0.124131913013,-1.44180781347,0.0742270087101,1.92566463846,0.147609317475,-0.0193848948612,-0.110206442186,0.00100332423065,-0.180230683796,-0.0109279813183,0.0642306847584,-0.0262392442171,0.57378514256,0.818991006562,0.00225571486577,0.0,0.818951173241,-0.573724679709,-0.0118200947726,0.0,-0.00838655349374,0.00862968124809,-0.99992759454,0.0,0.651363032628,0.247658526223,0.303556760494,1.0,-0.0221657142857,-0.0291320816327,1.018
0.457257138083,0.491072707913,-0.124141376946,-1.44474801841,0.0740503823619,1.92672489568,0.147189097599,-0.0213460974403,-0.1160176222,-0.00064023838891,-0.192219740969,-0.00537285877567,0.0595717165426,-0.030530744523,0.573764737177,0.819005372014,0.00223022118609,0.0,0.81896509715,-0.573704263672,-0.0118462819715,0.0,-0.00842284333548,0.0086236182036,-0.99992734182,0.0,0.650985683319,0.247199338729,0.303536113748,1.0,-0.0242228571429,-0.031835755102,1.034
0.45691067749,0.488966120997,-0.12415068213,-1.44815408913,0.073841625902,1.92792912639,0.146707396672,-0.0245097812595,-0.125611673995,-0.00233695054858,-0.200315875982,-0.0125584939731,0.0754874043907,-0.0293340195496,0.573773681276,0.81899932442,0.00214852873822,0.0,0.818957841581,-0.573713385693,-0.0119059518767,0.0,-0.00851849085427,0.00859104169958,-0.99992681198,0.0,0.650550304194,0.24664071094,0.303484518301,1.0,-0.0264085714286,-0.0347084081633,1.051
0.456535605989,0.486588157683,-0.124186538131,-1.45180770595,0.0736137662956,1.92933594884,0.146179765192,-0.0266334076523,-0.144879052543,-0.00138551881489,-0.215322084595,-0.0141316094201,0.0834563359426,-0.0286730429099,0.573794332651,0.818984585809,0.00224920591912,0.0,0.81894460394,-0.573733828298,-0.0118311810739,0.0,-0.00839927112079,0.00863080586912,-0.999927478088,0.0,0.650114030855,0.246032803493,0.303520683453,1.0,-0.0285942857143,-0.0375810612245,1.068
0.456119519318,0.484043312478,-0.124211902518,-1.45570348895,0.0733728174377,1.9307474199,0.145570380949,-0.0252791479092,-0.150594884375,-0.000942031280294,-0.235216288064,-0.0183908963321,0.0841704409389,-0.0365679697031,0.573780899683,0.818993860568,0.00229834974339,0.0,0.818954505168,-0.573720193541,-0.0118069847548,0.0,-0.00835139915672,0.00865703288667,-0.99992765234,0.0,0.649629700632,0.245376595084,0.30355611222,1.0,-0.03078,-0.0404537142857,1.085
0.455663600084,0.481318530125,-0.124268525787,-1.45996514407,0.0731061310548,1.93221506786,0.144943121271,-0.0289956082329,-0.170775532033,-0.000935546549155,-0.258123062415,-0.0100051636159,0.083602126671,-0.0343119293419,0.573817468275,0.818968426552,0.00223076560881,0.0,0.818928202319,-0.573757030648,-0.0118412892401,0.0,-0.00841788663597,0.00862174147794,-0.999927399744,0.0,0.649086687061,0.244635456019,0.303546591957,1.0,-0.0329657142857,-0.0433263673469,1.102
0.455188049993,0.478404493604,-0.12429813077,-1.46444849301,0.0728302104272,1.93386642195,0.144284372633,-0.0265963791893,-0.175933796603,-0.00282663107199,-0.270610064686,-0.0176458966519,0.0983849336555,-0.038281886697,0.573832424596,0.818957764081,0.00229696219168,0.0,0.818918403031,-0.573771730203,-0.0118066802056,0.0,-0.0083514012418,0.00865624719821,-0.999927659124,0.0,0.648526783509,0.243884826387,0.303575903839,1.0,-0.0351514285714,-0.0461990204082,1.119
0.454694945102,0.475488198569,-0.124321935416,-1.46887527313,0.0725684017402,1.9355114512,0.143654799206,-0.0290261872665,-0.182305880401,-3.83389894652e-05,-0.275111271107,-0.0187275548847,0.104009018651,-0.0379651466409,0.573884799477,0.818920731547,0.00241231692541,0.0,0.818882758929,-0.573823545289,-0.0117606505622,0.0,-0.00824695509083,0.00872483130895,-0.999927929928,0.0,0.647942205167,0.243085584391,0.30362476318,1.0,-0.0373371428571,-0.0490716734694,1.136
0.454182150899,0.472431463363,-0.124331800404,-1.47360511413,0.072265679815,1.93716812275,0.142957419811,-0.0297325103169,-0.194816220184,-0.00173846850334,-0.300423736787,-0.0177895219389,0.104874784635,-0.0383680449829,0.573881701402,0.818922938196,0.00240020697129,0.0,0.818884699686,-0.573820378324,-0.0117800229371,0.0,-0.00826980254267,0.0087260003731,-0.99992773103,0.0,0.64736101295,0.242342073673,0.303637422711,1.0,-0.0392657142857,-0.0516063673469,1.151
0.453615132202,0.469000736637,-0.124337549709,-1.47879800071,0.0719448600855,1.9390961097,0.142141226757,-0.0337435621476,-0.207809596691,-0.0013146092327,-0.306034407548,-0.0199977557505,0.124846199968,-0.0547515756185,0.57384299746,0.818949600509,0.00255205679853,0.0,0.818913222593,-0.57378099978,-0.0117151634388,0.0,-0.00812996324371,0.00881274723326,-0.999928117008,0.0,0.646662115645,0.241429779302,0.303704329447,1.0,-0.04158,-0.054648,1.169
0.45298323922,0.465186342543,-0.124330057548,-1.48459051839,0.071555479546,1.94119793589,0.141231076236,-0.0336366429367,-0.208581744822,0.000838812987946,-0.328528544474,-0.0170249029861,0.104226855668,-0.0492117095878,0.573775869353,0.8189963475,0.00264223981439,0.0,0.818961180486,-0.573713603858,-0.011663297376,0.0,-0.00803646375141,0.00885618093788,-0.999928489098,0.0,0.645949080466,0.240524287869,0.303759133668,1.0,-0.0437657142857,-0.0575206530612,1.186
0.452381790226,0.461670690413,-0.124330783161,-1.49009357027,0.0711905400088,1.94308747378,0.140413605515,-0.0387479274865,-0.224190737935,0.00227986046969,-0.351242668495,-0.0229567586372,0.117256115788,-0.0565611545764,0.573756704925,0.81901004918,0.00255534682144,0.0,0.818973561205,-0.573694540673,-0.0117314513067,0.0,-0.008142344756,0.00882393022017,-0.999927917641,0.0,0.645205872622,0.239602206263,0.303726335861,1.0,-0.0458228571429,-0.0602243265306,1.202
0.451663456066,0.457562241286,-0.124339772041,-1.49645687087,0.0707536344616,1.94533895697,0.139454438736,-0.0407299427895,-0.226183408977,-0.00180688570657,-0.354442859246,-0.0228614763452,0.134478835397,-0.0575687228068,0.573740769297,0.81902127105,0.00253655586757,0.0,0.818984577719,-0.573678717294,-0.0117361698946,0.0,-0.00815716171854,0.00881108892076,-0.999927910114,0.0,0.644362317975,0.238520053315,0.303720373884,1.0,-0.0481371428571,-0.0632659591837,1.22
0.450920926533,0.453562245934,-0.124359985303,-1.50278256489,0.0703338736877,1.94755050969,0.138458751744,-0.0442945306699,-0.243007084961,0.000342413861474,-0.378057028254,-0.0263834200713,0.131168212978,-0.0639154609689,0.573723336026,0.819033806438,0.00242992022587,0.0,0.818995604211,-0.573661550801,-0.0118056053116,0.0,-0.00827539737757,0.0087634139696,-0.999927357548,0.0,0.64351753794,0.237420040656,0.303651090108,1.0,-0.0503228571429,-0.0661386122449,1.237
0.450245037912,0.449753184421,-0.124416557974,-1.50842212369,0.0699483765134,1.94968598906,0.137564860464,-0.0435530158892,-0.252650765988,-0.00285911449427,-0.380628863354,-0.0292094560701,0.140913809717,-0.0566276306374,0.573737024338,0.819023490489,0.00266380034108,0.0,0.818988790992,-0.573674896458,-0.0116284265486,0.0,-0.00799595306279,0.00885345192292,-0.99992883803,0.0,0.642809945922,0.236420538092,0.303767100561,1.0,-0.0522514285714,-0.0686733061224,1.252
0.449336251973,0.444819992039,-0.124447918134,-1.51601536073,0.0694414636125,1.95220089739,0.136445020316,-0.0483587562266,-0.266963412231,-0.00276339907453,-0.400052788499,-0.0267218404648,0.136926512037,-0.0628275962759,0.573788084475,0.818988122736,0.00253689440957,0.0,0.818951481549,-0.573726076834,-0.0117305809886,0.0,-0.00815188097448,0.0088086306239,-0.999927974838,0.0,0.641759918818,0.235080094822,0.303752238154,1.0,-0.0546942857143,-0.0718839183673,1.271
0.44854357378,0.440567590489,-0.124465439788,-1.52263172368,0.0689775718329,1.9544772117,0.135376920898,-0.0512762353792,-0.26297046929,-0.000179569091042,-0.408015349601,-0.0345907761866,0.146548434211,-0.0732031153395,0.573740574141,0.819021684857,0.00244544852912,0.0,0.818983834886,-0.573678887802,-0.0117795919786,0.0,-0.00824499781865,0.00876138136309,-0.999927626485,0.0,0.640851564064,0.233920398254,0.303710313807,1.0,-0.0567514285714,-0.0745875918367,1.287
0.447690495433,0.43617329141,-0.124469687365,-1.52938410277,0.0685382990707,1.95689020161,0.1342889006,-0.0536333616547,-0.28605600944,-0.00102822649856,-0.425809435199,-0.0327770401271,0.151083320154,-0.0617022634585,0.57372741309,0.819030758603,0.00249375847321,0.0,0.818993325672,-0.573665323075,-0.011780344102,0.0,-0.00821803962902,0.00880124734366,-0.999927498307,0.0,0.639941622308,0.232729936174,0.303707506836,1.0,-0.0588085714286,-0.0772912653061,1.303
0.446726249351,0.431307533835,-0.124507617754,-1.5366497915,0.0680157032068,1.95957163597,0.133101947111,-0.0600900520135,-0.282006321661,-8.58740222478e-05,-0.435492902593,-0.0359525941129,0.149015995008,-0.0702273709511,0.573743332345,0.819018955479,0.00269926972325,0.0,0.818984681521,-0.573681044058,-0.0116145608742,0.0,-0.00796417897765,0.00887460827804,-0.999928904063,0.0,0.638994447516,0.231400937039,0.303800500703,1.0,-0.0609942857143,-0.0801639183673,1.32
0.445667155201,0.426056621858,-0.124573430477,-1.54485177678,0.0674161359104,1.96221147778,0.131779482996,-0.0606887706726,-0.296383107772,-0.00367027738989,-0.457211416988,-0.0315128493947,0.151056777381,-0.0805273333412,0.573758739584,0.819009082522,0.00240382976018,0.0,0.818970964244,-0.57369749556,-0.0117681865779,0.0,-0.00825933959682,0.00872093457971,-0.999927861703,0.0,0.637827955295,0.229879523583,0.303702355746,1.0,-0.0633085714286,-0.0832055510204,1.338
0.444736698632,0.421491582471,-0.124634022827,-1.55180648299,0.0669167643648,1.96453789313,0.130636620813,-0.0649596394034,-0.304943541878,-0.00113156671744,-0.466603060744,-0.0297961588253,0.157374691973,-0.070426836055,0.573783433418,0.818992004964,0.00232685242924,0.0,0.818952981048,-0.573722577063,-0.0117968767333,0.0,-0.00832674027153,0.008674602182,-0.999927705723,0.0,0.63685793803,0.228576496578,0.303697609233,1.0,-0.0652371428571,-0.085740244898,1.353
0.443647478463,0.416175204494,-0.124657083017,-1.55967107778,0.0663818049561,1.96744559169,0.129379692559,-0.0659414345515,-0.314434179068,0.000959170549501,-0.467732973048,-0.0316937680451,0.182773639277,-0.0805974276984,0.573843256335,0.8189492052,0.00261980210984,0.0,0.818914154396,-0.573781508633,-0.0116247573145,0.0,-0.00801704610946,0.00881635136302,-0.999928996939,0.0,0.635807514041,0.227132569341,0.303812519904,1.0,-0.0674228571429,-0.0886128979592,1.37
0.44244105003,0.410458168636,-0.124675284413,-1.5683603316,0.0657768154755,1.97042965467,0.127881711581,-0.0669548853716,-0.315298389305,-0.00141877627844,-0.486751579543,-0.0298007979739,0.155592259008,-0.0801682139125,0.573805716066,0.818975501736,0.00262195863713,0.0,0.818940301722,-0.57374377082,-0.011645366509,0.0,-0.00803309210609,0.00882957546261,-0.999928751476,0.0,0.634583448121,0.225524507735,0.303806264523,1.0,-0.0697371428571,-0.0916545306122,1.388
0.441333418376,0.405232921986,-0.124729708369,-1.5764325044,0.0651999911907,1.97303268776,0.126597844051,-0.0642348193003,-0.326521874952,-0.00785224610063,-0.507343519301,-0.0426648703161,0.166533236601,-0.083702475952,0.573865549981,0.818934256893,0.00240006922911,0.0,0.818895938823,-0.573804147411,-0.0117893466083,0.0,-0.00827768949734,0.00873107492014,-0.999927621474,0.0,0.633403298952,0.22400610337,0.303722267617,1.0,-0.0717942857143,-0.0943582040816,1.404
0.440082660563,0.399488266279,-0.124755196701,-1.58497273777,0.0646063624275,1.9760465753,0.125132816842,-0.0761406186734,-0.354790004005,0.000965728558316,-0.504572317018,-0.0354857327689,0.187540092532,-0.0842672420881,0.573883049687,0.818921455977,0.00257703773829,0.0,0.818885418321,-0.573820974504,-0.0117007598948,0.0,-0.00810340103836,0.00882533631351,-0.999928221589,0.0,0.632209986847,0.222393343648,0.303792238002,1.0,-0.07398,-0.0972308571428,1.421
0.438786324231,0.393596408698,-0.124768658287,-1.59368946886,0.0639453359148,1.97906664722,0.123641781036,-0.076319295317,-0.3522650375,0.00143197811944,-0.523144342329,-0.041052158405,0.176149063831,-0.0905744631169,0.573892474549,0.818914390054,0.0027196173802,0.0,0.818880477596,-0.573830207637,-0.0115932358037,0.0,-0.00793342176395,0.00888048333944,-0.999929096404,0.0,0.631048550005,0.220835639816,0.303873674196,1.0,-0.0760371428571,-0.0999345306122,1.437
0.437862613964,0.389409192893,-0.124786272462,-1.60006739063,0.0634828564693,1.9811059594,0.122574542861,-0.0689580723439,-0.359048708863,-1.59634921977e-05,-0.530501202523,-0.0408751750682,0.17020535416,-0.087514044178,0.573896503693,0.818912025676,0.00257762541767,0.0,0.818875987809,-0.573834416165,-0.0117015518432,0.0,-0.00810356736562,0.00882640518634,-0.999928210807,0.0,0.630014743406,0.219525663517,0.303822762876,1.0,-0.0777085714286,-0.102131265306,1.45
0.436194612305,0.381824658235,-0.124792490672,-1.61132291189,0.0626644957487,1.98486070101,0.12052317312,-0.0760118384603,-0.377865093409,0.000281699857192,-0.531834269053,-0.0321541523909,0.185452224627,-0.0972536419772,0.573780468224,0.818993125968,0.00264212099262,0.0,0.818957641095,-0.573717854239,-0.0117026800433,0.0,-0.00806873787255,0.0088787253533,-0.999928029263,0.0,0.628347276108,0.217400000781,0.303872795947,1.0,-0.0804085714286,-0.105679836735,1.471
0.434770701211,0.375639955583,-0.124798471071,-1.62060385456,0.0619898766429,1.98803027101,0.118898159013,-0.0814901709153,-0.364842042331,-0.00200726015449,-0.554491312206,-0.0401493509315,0.187055130807,-0.105568277466,0.573772629385,0.81899844889,0.00269395355203,0.0,0.818963481115,-0.573709660858,-0.0116956632871,0.0,-0.00803333757882,0.00891707273685,-0.999927973057,0.0,0.626978679656,0.215625093094,0.303863995013,1.0,-0.0825942857143,-0.108552489796,1.488
0.433343833764,0.369655165531,-0.124841174986,-1.6296075902,0.0612646496447,1.99089338705,0.117324666237,-0.0934463174031,-0.386952715917,-0.00266080766362,-0.568837467177,-0.0415304678595,0.178054075994,-0.0860711893967,0.573800976536,0.818979142964,0.00251984459054,0.0,0.818942048895,-0.573738780243,-0.0117677312038,0.0,-0.0081919515746,0.00881611208571,-0.999927581426,0.0,0.62561311899,0.213834106693,0.303818760705,1.0,-0.0846514285714,-0.111256163265,1.504
0.431813035454,0.363098980866,-0.124905193883,-1.63912810708,0.0605108790434,1.99413511498,0.115612607296,-0.0935151936417,-0.398269075892,-0.0037330368281,-0.556295286279,-0.0515914836433,0.19288354426,-0.0994286251975,0.57382187914,0.818963899552,0.00270724074776,0.0,0.818929790927,-0.573759622992,-0.0116034244017,0.0,-0.00794963332045,0.00887550977526,-0.999929011808,0.0,0.624210062087,0.211938279642,0.303929695594,1.0,-0.0868371428571,-0.114128816327,1.521
0.430092637626,0.356139095494,-0.124917273384,-1.6495219535,0.0597516205983,1.99752867362,0.113669002469,-0.0931092013707,-0.387755373866,-0.00350820029863,-0.585750211658,-0.0422347858641,0.18839212903,-0.107546784282,0.573792586044,0.818984526836,0.00267580016583,0.0,0.818949521589,-0.573729898474,-0.0116803932693,0.0,-0.00803102941965,0.0088936395558,-0.999928200293,0.0,0.622620261046,0.209877064401,0.303895165855,1.0,-0.0891514285714,-0.11717044898,1.539
0.428575767735,0.350278700268,-0.124975908815,-1.65841767273,0.0590723567566,2.00031177215,0.112035469606,-0.103816708524,-0.393188262461,-0.00757199256618,-0.589073208636,-0.0489519244122,0.18761990103,-0.110036110436,0.573847888515,0.818946492499,0.00244748282248,0.0,0.818908183166,-0.573785664987,-0.0118382895894,0.0,-0.00829075480028,0.00879781058109,-0.999926928287,0.0,0.621236764198,0.208049626523,0.303783719925,1.0,-0.09108,-0.119705142857,1.554
0.426732571235,0.34292204779,-0.125031778441,-1.66891313186,0.058274677243,2.00388285598,0.110052348358,-0.103168839998,-0.407152076354,-0.00195381084943,-0.586274943387,-0.047171786654,0.185969512655,-0.110433129805,0.573894903164,0.818912446333,0.00279146267791,0.0,0.818878873361,-0.573831727141,-0.0116312763811,0.0,-0.00792331969399,0.00896117257547,-0.999928456636,0.0,0.619663528221,0.205897941417,0.303953027664,1.0,-0.0933942857143,-0.12274677551,1.572
0.424928113365,0.335964076733,-0.125035697526,-1.67925187666,0.0574499677113,2.00707590237,0.108071919101,-0.101692368895,-0.415853410566,-0.0056381245631,-0.618889754151,-0.0481308025537,0.187494396424,-0.110728117355,0.57384676596,0.818946754004,0.00261728969665,0.0,0.818910528452,-0.573783774284,-0.0117674831424,0.0,-0.00813534039226,0.00889622951334,-0.999927334028,0.0,0.618009342305,0.203795099684,0.30388974405,1.0,-0.09558,-0.125619428571,1.589
0.423200752038,0.32923340269,-0.125034265801,-1.68901548063,0.0566197458858,2.01017125472,0.106175529879,-0.108203649777,-0.425538354178,0.0008707850529,-0.599592021243,-0.0525019237186,0.209180912098,-0.117453536693,0.573768666574,0.819001443009,0.00262688165305,0.0,0.818965576365,-0.573705906644,-0.0117330435714,0.0,-0.00810247809326,0.0088835494477,-0.999927713586,0.0,0.616455222356,0.201804062242,0.30392845264,1.0,-0.0976371428571,-0.128323102041,1.605
0.421297175309,0.322024780094,-0.125029006303,-1.6994472021,0.0558269374645,2.01362433275,0.104128311002,-0.110612703087,-0.429005128297,-0.00187140154641,-0.629640480323,-0.0464267639123,0.2009255296,-0.115442185114,0.573737743993,0.81902245891,0.00282131532141,0.0,0.818988867041,-0.573674026313,-0.011665937497,0.0,-0.00793630229276,0.00900398785441,-0.99992796906,0.0,0.614812135145,0.199673556294,0.303980793304,1.0,-0.0998228571428,-0.131195755102,1.622
0.419176760881,0.314295688693,-0.125081384087,-1.71080269333,0.0548956204458,2.01705908439,0.101889953328,-0.123245637166,-0.432553847283,-0.000695299011274,-0.627493849164,-0.0423395049937,0.187974538068,-0.124203455099,0.573744301853,0.819018486093,0.00263484925429,0.0,0.818982163599,-0.573680903034,-0.0117976312275,0.0,-0.00815107230128,0.00892689010547,-0.999926932657,0.0,0.612955031993,0.197270157777,0.303919943999,1.0,-0.102137142857,-0.134237387755,1.64
0.417380621702,0.307657692562,-0.125121472317,-1.72018657512,0.0540635553014,2.02012390002,0.0999450098123,-0.119374083317,-0.436904403313,0.00037247790923,-0.623386911807,-0.0550507484296,0.200992266633,-0.131270914384,0.573675262019,0.819066160745,0.00283988921051,0.0,0.819033293919,-0.573612040536,-0.0115947102244,0.0,-0.00786799162675,0.00897773508971,-0.999928744952,0.0,0.611465125487,0.195273690919,0.304037559323,1.0,-0.104065714286,-0.136772081633,1.655
0.414958803648,0.299266842894,-0.12514843069,-1.73245202739,0.0530651546451,2.02381964869,0.0974604592833,-0.131422789171,-0.445784423051,-0.00395069338056,-0.64879860582,-0.0563653975963,0.186015302685,-0.11647387691,0.57369258398,0.819054567711,0.00267975733485,0.0,0.819019055677,-0.573629277679,-0.011746707102,0.0,-0.00808416248828,0.00893394307853,-0.999927412855,0.0,0.609427712982,0.192637397834,0.30396496943,1.0,-0.106508571429,-0.139982693878,1.674
0.412448843988,0.290628743232,-0.125265017727,-1.74467868536,0.0520813007558,2.02766724517,0.0949253722256,-0.13435915037,-0.459019126391,-0.00302212982388,-0.639767488385,-0.0531243659636,0.211645168723,-0.136277377357,0.573802605732,0.818976822284,0.00287769316455,0.0,0.818943925271,-0.573738646097,-0.0116430295732,0.0,-0.00788447938219,0.0090376440463,-0.999928075401,0.0,0.607443142682,0.189925471284,0.304063522326,1.0,-0.108951428571,-0.143193306122,1.693
0.410685558977,0.284733206785,-0.125291944251,-1.75319381331,0.0513461758698,2.03026705751,0.0931092153402,-0.136308776626,-0.455041994843,-0.00204919488735,-0.65361437002,-0.0562964463199,0.190637096387,-0.139457013151,0.573781811658,0.818991544364,0.00283368512726,0.0,0.818958067712,-0.573717994436,-0.0116658943827,0.0,-0.00792868536056,0.0090145208673,-0.999927934584,0.0,0.606019237486,0.188054663326,0.30403637742,1.0,-0.110622857143,-0.145390040816,1.706
0.40814791522,0.276430724985,-0.125332575127,-1.76521595383,0.0502890387331,2.0337218419,0.090551824229,-0.141885124628,-0.462220970452,-0.000348117186381,-0.659149596708,-0.0559549042198,0.195585385011,-0.131182803625,0.573780300004,0.818993443773,0.00257939631549,0.0,0.818956298909,-0.573716993028,-0.0118380441639,0.0,-0.00821559523502,0.00890502084102,-0.999926599606,0.0,0.603950729195,0.185379729351,0.303950376139,1.0,-0.112937142857,-0.148431673469,1.724
0.405680405273,0.26840894949,-0.125434070861,-1.77642614414,0.0493111384608,2.03729677246,0.0880718176069,-0.146173622548,-0.470458003863,-0.00516648434915,-0.672034209208,-0.0544638393309,0.198103602402,-0.143139881716,0.573826932522,0.818959867615,0.00285195548551,0.0,0.818926916151,-0.573763376017,-0.0116207248359,0.0,-0.00788071139372,0.00900400135196,-0.999928408611,0.0,0.602105875598,0.182823420325,0.304060721808,1.0,-0.115122857143,-0.151304326531,1.741
0.403413357731,0.261275774511,-0.125516777639,-1.78661095016,0.0484242536204,2.04019259666,0.0858732907309,-0.149202128652,-0.474920722367,-0.00287203669818,-0.680243689647,-0.0597885108338,0.190155367704,-0.157112830228,0.573916652505,0.818897502962,0.00270231781863,0.0,0.818862277985,-0.573853229694,-0.011738286273,0.0,-0.00806187472624,0.00894979640008,-0.999927451028,0.0,0.600335111445,0.180482147675,0.304018611776,1.0,-0.117051428571,-0.153839020408,1.756
0.400786309349,0.253045596818,-0.125600818184,-1.79803025857,0.0473767008412,2.04358794819,0.0833300017995,-0.148818496641,-0.495296145984,-0.00217923293398,-0.671655605001,-0.0599953539729,0.19359966139,-0.148343844184,0.573985653059,0.818848740819,0.00282075224221,0.0,0.81881551061,-0.573922324409,-0.0116220493152,0.0,-0.00789795982424,0.00898073816059,-0.999928481729,0.0,0.598377499177,0.177827356502,0.304111915704,1.0,-0.119237142857,-0.156711673469,1.773
0.397945198922,0.244340102501,-0.125590253876,-1.81041460562,0.0463107870708,2.04719805682,0.0804835692473,-0.160550589511,-0.488687328907,-0.00167542031482,-0.693979366457,-0.0576094636032,0.198805550237,-0.167113382894,0.573914708995,0.818898654606,0.00276535452294,0.0,0.818864036295,-0.573850825213,-0.0117331737577,0.0,-0.00802153366885,0.0089984636175,-0.999927338685,0.0,0.596182980745,0.175032483127,0.304048324314,1.0,-0.121551428571,-0.159753306122,1.791
0.395516153731,0.236919967685,-0.125600822752,-1.82069184266,0.0454027870135,2.05012738783,0.078068937461,-0.162521232915,-0.51334100305,-0.0011746882298,-0.674460940056,-0.0604847281624,0.215429208736,-0.166938928326,0.573866465041,0.818932270466,0.00282198366015,0.0,0.818898043959,-0.573801999441,-0.0117475928838,0.0,-0.00800137709758,0.00905264079174,-0.999927011166,0.0,0.594347417508,0.172667810619,0.304094950846,1.0,-0.12348,-0.162288,1.806
0.392555880974,0.227932947951,-0.125580021437,-1.83316919293,0.0442286240112,2.0537942444,0.0751618290356,-0.168586329376,-0.501684437005,0.00116135753553,-0.696641687307,-0.067710316332,0.196442729522,-0.16455377482,0.573770732373,0.818998995109,0.00292225661553,0.0,0.81896631248,-0.573706207781,-0.011666750981,0.0,-0.00787869225779,0.00908744494079,-0.999927669661,0.0,0.592111964431,0.169821649564,0.304126991965,1.0,-0.125794285714,-0.165329632653,1.824
0.389590689481,0.219348514712,-0.125613255134,-1.84515257138,0.0431108171391,2.05701550253,0.0722627527711,-0.174628918616,-0.509288908468,-0.00179707916985,-0.689781764991,-0.0619309785376,0.203547895319,-0.163831626502,0.573722275432,0.819033519319,0.00275532304347,0.0,0.818998169202,-0.573657779921,-0.0118108966973,0.0,-0.00809306360479,0.00903295296857,-0.999926451336,0.0,0.589902742984,0.166988045686,0.304083125263,1.0,-0.12798,-0.168202285714,1.841
0.386535365379,0.210635886742,-0.12569699152,-1.85698666,0.0420301784845,2.06049973166,0.0693642732886,-0.1816658359,-0.518985069778,-0.00334018002803,-0.699844380772,-0.0711610695093,0.204629358775,-0.176333220339,0.573787659671,0.818986748227,0.0030289832443,0.0,0.818955260205,-0.573722553652,-0.0116387334111,0.0,-0.00779432249283,0.00915893970446,-0.999927678565,0.0,0.587789775448,0.164124238269,0.304189536328,1.0,-0.130165714286,-0.171074938775,1.858
0.383570667201,0.202423907395,-0.125730268221,-1.86847340366,0.0409204028345,2.0634261932,0.0664999936134,-0.185822609846,-0.521612935108,-0.00373422435154,-0.710660330734,-0.0735145815272,0.177797645486,-0.186620374667,0.573732342885,0.819026584853,0.00272009800383,0.0,0.818990389447,-0.573667546653,-0.0118758078573,0.0,-0.00816632763029,0.00904144326488,-0.999925778944,0.0,0.585605970453,0.16135659441,0.304084358048,1.0,-0.132222857143,-0.173778612245,1.874
0.38032171797,0.193508907648,-0.125823903315,-1.88045371946,0.0397911036107,2.06686554759,0.0634419573517,-0.192714867204,-0.51949496096,-0.0121040291351,-0.715313693432,-0.0681135045553,0.200177905265,-0.177382908522,0.573801715148,0.818977097306,0.00297534579921,0.0,0.818944607596,-0.573736431049,-0.0117040282715,0.0,-0.00787841850457,0.00915261111045,-0.999927077457,0.0,0.583286207575,0.158210504292,0.304184523119,1.0,-0.134537142857,-0.176820244898,1.892
0.376911881595,0.184605437128,-0.125971084553,-1.89274968375,0.0386489478549,2.07004731015,0.0602547505533,-0.20677424055,-0.526997376717,-0.0127432374205,-0.718992351345,-0.0659304207327,0.178126557599,-0.184995899586,0.573908324852,0.8189029287,0.00282399257248,0.0,0.81886770207,-0.573842687946,-0.011874464109,0.0,-0.00810366196765,0.00912750584656,-0.999925506875,0.0,0.58109106466,0.155276020267,0.304117464277,1.0,-0.136594285714,-0.179523918367,1.908
0.373432979963,0.175497860146,-0.126074959927,-1.90485518014,0.0374399315871,2.07337096072,0.0570517453392,-0.206517054559,-0.5299363247,0.000643357340744,-0.7216169074,-0.0690004601899,0.203363042465,-0.183178893806,0.573989429921,0.818845298717,0.00304269781493,0.0,0.818813502606,-0.573923679929,-0.0116963442045,0.0,-0.00783137091537,0.00920515722514,-0.999926964688,0.0,0.578828747802,0.15218609987,0.304234165086,1.0,-0.13878,-0.182396571429,1.925
0.369914234502,0.166414459834,-0.126064792881,-1.91729987662,0.0361609222865,2.0765339733,0.0537044945338,-0.207218503192,-0.540449173005,0.00161091626799,-0.739963596095,-0.0752174297059,0.178261186354,-0.195836480712,0.573857215958,0.818938687704,0.00284048857501,0.0,0.818903928984,-0.573791810762,-0.0118346904599,0.0,-0.00806219201393,0.00911768531707,-0.999925931694,0.0,0.576386404221,0.149113263406,0.304140756548,1.0,-0.140965714286,-0.18526922449,1.942
0.366476167707,0.15762995603,-0.126098883616,-1.92878280716,0.0350060830126,2.07961488958,0.0504853676364,-0.212381234438,-0.551999458699,-0.00592536364312,-0.707840275028,-0.0763213999045,0.200284800209,-0.197997203933,0.573817032097,0.818965807676,0.0031251294653,0.0,0.818935169779,-0.573751134497,-0.0116434644128,0.0,-0.00774270173178,0.00924067453353,-0.999927327611,0.0,0.574182845548,0.146179282951,0.304285724016,1.0,-0.143022857143,-0.187972897959,1.958
0.362715343098,0.148375146511,-0.126138276517,-1.94127350562,0.0336959780835,2.08270392695,0.0470223637252,-0.218385609951,-0.561674796541,-0.00236844144741,-0.731342768845,-0.0808127006369,0.168925137314,-0.208761985532,0.573787435641,0.818987147795,0.00296265882053,0.0,0.818954191567,-0.573721847503,-0.0117482217739,0.0,-0.00792205307431,0.00916744040589,-0.999926596862,0.0,0.571697536303,0.142976000595,0.304219357477,1.0,-0.145208571429,-0.19084555102,1.975
0.358588624522,0.13834813666,-0.126225385047,-1.95442671318,0.0324007872562,2.08596612003,0.0432698922867,-0.232585547052,-0.576507088442,-0.00282224625037,-0.728850655031,-0.0769245902177,0.191758855302,-0.207940478385,0.573860541644,0.818935481313,0.00308270854504,0.0,0.818903637224,-0.573794003422,-0.0117482543351,0.0,-0.0078523738236,0.00926647924458,-0.999926233573,0.0,0.569081854014,0.139524888582,0.304288040238,1.0,-0.147522857143,-0.193887183673,1.993
0.354343579004,0.128330445469,-0.126341708566,-1.96768334877,0.0309777902487,2.08922764297,0.0393060525103,-0.241753079016,-0.566524616686,-0.0104880233252,-0.756581779068,-0.0874528533089,0.176212797361,-0.219860650323,0.573814402205,0.818967939922,0.00304829497844,0.0,0.818935821214,-0.573748192145,-0.0117422163745,0.0,-0.00786769649888,0.00923438861157,-0.999926410002,0.0,0.566419602156,0.135994123114,0.304274486148,1.0,-0.149837142857,-0.196928816327,2.011
0.350421282583,0.119252016135,-0.126479607565,-1.97948904691,0.0296905736741,2.09205980232,0.0358440718089,-0.24428116645,-0.574855954999,-0.00631766710487,-0.720424334443,-0.0846750376046,0.180804453049,-0.22731814267,0.573949857453,0.818872883955,0.00308349700174,0.0,0.818841542096,-0.57388388602,-0.0116859404985,0.0,-0.00779988072772,0.00923221707206,-0.999926961347,0.0,0.564030178308,0.132772752943,0.304322226641,1.0,-0.151894285714,-0.199632489796,2.027
0.346376115077,0.110194199406,-0.126543128145,-1.99133388479,0.0284229288209,2.09492337287,0.0321247317369,-0.25235340762,-0.571221087685,-0.000996225965124,-0.751925086026,-0.0803544595385,0.171428203771,-0.241636027607,0.573910221917,0.818900527,0.0031194485111,0.0,0.818869639768,-0.573844121251,-0.0116698103286,0.0,-0.00776648616734,0.00925202324407,-0.999927038218,0.0,0.561608989315,0.129551053801,0.304318128456,1.0,-0.153951428571,-0.202336163265,2.043
0.342293635217,0.101017576184,-0.126555570486,-2.00322468456,0.0270815700364,2.09761713286,0.0284371606365,-0.254172611556,-0.57925548615,0.000638749981776,-0.71561236882,-0.0887472979245,0.180434240274,-0.23695482872,0.573840680849,0.818949489831,0.0030582690955,0.0,0.818917840079,-0.573774832265,-0.0116944414147,0.0,-0.00782254960148,0.00921539477054,-0.99992693944,0.0,0.559110513572,0.126344577245,0.30432127526,1.0,-0.156008571429,-0.205039836735,2.059
0.337878727744,0.0911924100311,-0.126554664568,-2.01587829526,0.0257907384748,2.10054660713,0.0243960001541,-0.263457316477,-0.575399028056,-0.000194600257823,-0.751357762652,-0.0650316787501,0.168769432276,-0.238303983957,0.573759089564,0.819006214039,0.00317417848792,0.0,0.818975331792,-0.573691981998,-0.0117329709627,0.0,-0.00778852533289,0.00933165228099,-0.999926126841,0.0,0.55643620114,0.122952892975,0.304336860779,1.0,-0.158194285714,-0.207912489796,2.076
0.33323745033,0.0812712746467,-0.126642228788,-2.02861854451,0.0243748566693,2.10327309551,0.0201748959784,-0.279745816343,-0.587444939333,-0.00683204756862,-0.714353633444,-0.0881660099768,0.168046421391,-0.253509932679,0.573719466679,0.819034306784,0.00308622200744,0.0,0.819001814759,-0.573652118078,-0.0118330785082,0.0,-0.00792143197378,0.00931666829049,-0.999925222508,0.0,0.553700799077,0.119388249616,0.304320872525,1.0,-0.16038,-0.210785142857,2.093
0.328772515515,0.0718491606747,-0.126764756476,-2.04048030227,0.0230100387644,2.10601558206,0.0162113578486,-0.288906568452,-0.582020249092,-0.0105738804646,-0.767823123814,-0.0787314026975,0.16685393374,-0.252521287395,0.573773034953,0.818996040822,0.00327664167178,0.0,0.818966766961,-0.573705921179,-0.0116489278089,0.0,-0.00766074451972,0.00936748165234,-0.99992677896,0.0,0.551191407624,0.116002105603,0.304400984161,1.0,-0.162437142857,-0.213488816327,2.109
0.323806643538,0.0618051586097,-0.126925017198,-2.05336103078,0.0215535986006,2.10854080036,0.0117967871232,-0.297328907146,-0.590177646291,-0.0065182410829,-0.739363741837,-0.0855541070354,0.148645051978,-0.267384844082,0.573852250075,0.818941496315,0.00302780410007,0.0,0.818907983529,-0.573784790931,-0.0118943310238,0.0,-0.00800360739801,0.00930526072636,-0.999924674359,0.0,0.548346681866,0.112265214113,0.304314449976,1.0,-0.164622857143,-0.216361469388,2.126
0.318729443637,0.0516033112683,-0.127039323161,-2.06597588811,0.0200862826592,2.1113139941,0.007310544437,-0.298261741509,-0.602165796532,-0.00803841106519,-0.76636919786,-0.0865843259428,0.160776906258,-0.265734140379,0.573904175226,0.818904147903,0.00327736277685,0.0,0.818874577259,-0.573836667124,-0.0116898709887,0.0,-0.00769236101003,0.00939279566708,-0.99992629877,0.0,0.545615269163,0.108558438976,0.304427823232,1.0,-0.166808571429,-0.219234122449,2.143
0.313907032594,0.0420385403493,-0.127060893794,-2.07814150902,0.0187274625698,2.11366529185,0.00302356126226,-0.311926432014,-0.602931676879,-0.00118193359381,-0.767558251178,-0.0902618226186,0.140134881078,-0.278776800105,0.573861604468,0.818934638456,0.00310865819651,0.0,0.818901638138,-0.573793213244,-0.0119248643756,0.0,-0.007982111201,0.00938908786223,-0.999924062582,0.0,0.542852698713,0.105101081045,0.304328835709,1.0,-0.168865714286,-0.221937795918,2.159
0.308277083182,0.0310825292426,-0.127136374113,-2.0915174669,0.0170790298308,2.11644693681,-0.00199041750764,-0.317845773531,-0.605012097453,-0.00506251597038,-0.743377837533,-0.0904286235982,0.15326219538,-0.2763986095,0.573796106936,0.818979668699,0.00332818613474,0.0,0.818950588874,-0.573728238722,-0.0116870858684,0.0,-0.00766215886364,0.00943180595913,-0.999926163453,0.0,0.539871985111,0.101125795516,0.304444890391,1.0,-0.16998,-0.223402285714,2.177
0.30313992591,0.0214845246477,-0.127214321493,-2.10354191671,0.0156625426373,2.11862080845,-0.00653650856744,-0.323057611376,-0.59574541218,-0.00682362671777,-0.760139336282,-0.0886392131798,0.137527515466,-0.293660608277,0.573793043469,0.818982561145,0.00313922092745,0.0,0.818949987845,-0.573724583215,-0.0119065916715,0.0,-0.00795039579316,0.00940296544913,-0.99992418485,0.0,0.536915381264,0.0973095173611,0.304352477334,1.0,-0.16998,-0.223402285714,2.194
0.29753218235,0.0111783059253,-0.12739696863,-2.11592242759,0.014100180881,2.12096328862,-0.0113807900692,-0.333131589802,-0.590198767199,-0.00798990027335,-0.738099356443,-0.0897362929613,0.130173347325,-0.290245950963,0.57392903276,0.818886647641,0.00329705510326,0.0,0.818856988735,-0.573861035244,-0.0117256611379,0.0,-0.00771008432883,0.00942969551978,-0.999925814969,0.0,0.534262007108,0.0936549605776,0.304467941827,1.0,-0.16998,-0.223402285714,2.21
0.291887408565,0.0010424422046,-0.12745217014,-2.12838876926,0.0126850613973,2.12312077599,-0.0163433405151,-0.330485477814,-0.590366484966,-0.00327683069419,-0.727198905511,-0.0868883063341,0.119839236523,-0.29974543587,0.57394753247,0.818873960606,0.00322699782491,0.0,0.818841949959,-0.57387803616,-0.0119418383085,0.0,-0.00792710987955,0.00949657266021,-0.999923485091,0.0,0.531313226795,0.0898682781471,0.304403234363,1.0,-0.16998,-0.223402285714,2.227
0.286191066686,-0.00912784668616,-0.127454679897,-2.14041220935,0.0111227110061,2.12536388981,-0.0213657477459,-0.337205871436,-0.59754357277,-0.00130384713961,-0.710417029234,-0.0924424565596,0.130201066099,-0.299301215642,0.573835830413,0.818951253502,0.00346857652402,0.0,0.818923616226,-0.573767025553,-0.0116729635307,0.0,-0.00756957901828,0.00953904760743,-0.999925851273,0.0,0.528499885436,0.0861330619594,0.304534486383,1.0,-0.16998,-0.223402285714,2.244
0.28072950381,-0.0185418210106,-0.127482585157,-2.15189440384,0.00967306351231,2.12716579066,-0.0261608376458,-0.342452482515,-0.591108705014,-0.00459954414009,-0.723005328424,-0.0835145589246,0.100466580525,-0.306363005157,0.573756630899,0.819007604531,0.00325869928841,0.0,0.818976299599,-0.573687397604,-0.011888541801,0.0,-0.00786748290091,0.00949010988881,-0.999924017377,0.0,0.525525946233,0.0823545114667,0.304445235389,1.0,-0.16998,-0.223402285714,2.261
0.274459207499,-0.0292404246654,-0.12761888544,-2.1643377437,0.00809051576575,2.12926240265,-0.0316134660313,-0.349893164703,-0.5868502352,-0.011205078939,-0.68161908039,-0.0862012020422,0.121456194417,-0.307933763977,0.573847759265,0.818942678345,0.00351932839977,0.0,0.818915518215,-0.573778559072,-0.0116741627923,0.0,-0.00754130015982,0.00958140927173,-0.999925659931,0.0,0.522717082449,0.0785260881125,0.304585710422,1.0,-0.16998,-0.223402285714,2.278
0.268403486282,-0.0391354227904,-0.127752773408,-2.17617012405,0.00657094665622,2.13104082616,-0.0368347810083,-0.349749933613,-0.586053459178,-0.00225399841161,-0.692238828192,-0.0816877509029,0.107941994891,-0.313197867878,0.57394792555,0.818872986867,0.00339956447538,0.0,0.818843649291,-0.573878331852,-0.0118103830361,0.0,-0.00772041588455,0.00956244073113,-0.999924474601,0.0,0.519794329069,0.0746625866146,0.304524614531,1.0,-0.16998,-0.223402285714,2.295
0.262371013652,-0.049054837657,-0.127759382229,-2.18774810709,0.00513511032782,2.1328003348,-0.0421257828541,-0.357352389933,-0.584978565183,-1.24389259145e-05,-0.665752642571,-0.0944207560283,0.111147345225,-0.297505260574,0.573890624939,0.818912667553,0.00351289485102,0.0,0.81888444952,-0.573820206672,-0.0118057465105,0.0,-0.00765225264752,0.00965204804092,-0.999924137621,0.0,0.51690736822,0.0709440434442,0.30456025089,1.0,-0.16998,-0.223402285714,2.312
0.25617884081,-0.0588374235747,-0.127818327371,-2.19916607294,0.00356093041449,2.13447778182,-0.0475430796793,-0.360994521134,-0.569860292497,-0.00842853154807,-0.680063474509,-0.088923842174,0.0889848547666,-0.313826534783,0.573829110529,0.81895585037,0.00349484697744,0.0,0.818927841946,-0.573759322304,-0.0117548566923,0.0,-0.00762165436557,0.0096074914273,-0.999924800419,0.0,0.514037245904,0.0671459412055,0.304560089974,1.0,-0.16998,-0.223402285714,2.329
0.249922961015,-0.0685942899856,-0.127881661778,-2.21062604545,0.00209695410483,2.13592988385,-0.0530391664357,-0.368244359626,-0.568612750661,-0.00553292206947,-0.661272135174,-0.090500503145,0.0921628741485,-0.32766978718,0.57379279829,0.818981894303,0.00335087086462,0.0,0.818950722184,-0.573721926578,-0.0119838432751,0.0,-0.00789223452831,0.00962062630851,-0.999922575094,0.0,0.511072305239,0.0633648173438,0.304478406706,1.0,-0.16998,-0.223402285714,2.346
0.243840532945,-0.07777974588,-0.128065129229,-2.22098791361,0.000694625991582,2.13739410096,-0.0582606693064,-0.382569428419,-0.568525254475,-0.0163690477326,-0.650812058723,-0.0845850060616,0.0885947145406,-0.341066183495,0.573958461,0.818864916624,0.00356093666016,0.0,0.818837178283,-0.573887685121,-0.0118045427069,0.0,-0.00762289494705,0.00969133107986,-0.999923981898,0.0,0.508437584634,0.0597014719305,0.304575882993,1.0,-0.16998,-0.223402285714,2.362
0.237807527093,-0.0868563876686,-0.128101312221,-2.23153789143,-0.000671661925555,2.13862584588,-0.0635490295671,-0.371811275219,-0.562589678601,-6.65622919723e-05,-0.663874759688,-0.0928864480672,0.071560099775,-0.332973615996,0.573911545141,0.818898364538,0.00342838327958,0.0,0.818867638092,-0.573839673117,-0.0120236326881,0.0,-0.00787894249764,0.00970808064348,-0.999921834663,0.0,0.50564246095,0.0561702474566,0.304487090332,1.0,-0.16998,-0.223402285714,2.378
0.231326217094,-0.0965559059595,-0.128122530699,-2.24231559848,-0.00218933957512,2.13994905541,-0.0692930800927,-0.390069377405,-0.568046513449,-0.00467961508811,-0.628143412632,-0.0929917901646,0.0872391874811,-0.333135725179,0.573768065544,0.818998224156,0.00358645959377,0.0,0.818970502241,-0.57369682793,-0.01183270823,0.0,-0.00763357350485,0.00972662199368,-0.999923557768,0.0,0.502633334685,0.0522189042353,0.304593246971,1.0,-0.16998,-0.223402285714,2.396
0.225067213417,-0.105542418262,-0.128203208806,-2.25246427046,-0.00361698654625,2.14104403707,-0.0746512674262,-0.389664164672,-0.554912301702,-0.0104707507888,-0.643250830382,-0.0843554634073,0.0652548072904,-0.329625662086,0.5738333618,0.818952719263,0.0035303538349,0.0,0.818923960584,-0.573761923139,-0.0118974467276,0.0,-0.00771801233982,0.00971843030716,-0.999922989234,0.0,0.500066925015,0.048860487098,0.304571766071,1.0,-0.16998,-0.223402285714,2.411
0.217858302756,-0.115632363379,-0.128394308273,-2.26378236319,-0.00521301715115,2.14214067182,-0.080896420125,-0.408088915664,-0.568578161729,-0.00990114775683,-0.609905042906,-0.0871315386096,0.0717271113281,-0.343777839624,0.573943873916,0.818875613536,0.00345051464393,0.0,0.818845209042,-0.573871955153,-0.012010396276,0.0,-0.00785501826778,0.00971891787013,-0.999921917613,0.0,0.496975014509,0.0447500516565,0.304544126057,1.0,-0.16998,-0.223402285714,2.429
0.211051888047,-0.125115932633,-0.128440017315,-2.27417675525,-0.00659524836087,2.14326756408,-0.0868911624041,-0.396341535291,-0.545929529529,-0.00218238647956,-0.616734535631,-0.0744196714104,0.053425350407,-0.362464918584,0.573905004304,0.818901929503,0.00366371289726,0.0,0.818874381023,-0.573832411117,-0.0119104557465,0.0,-0.00765128529752,0.00983578015668,-0.999922354617,0.0,0.494133942711,0.0410089494598,0.3046084745,1.0,-0.16998,-0.223402285714,2.446
0.204529517228,-0.133987096834,-0.128479460371,-2.28398838567,-0.00802406751175,2.14407786202,-0.0926076386942,-0.405475088203,-0.556539969588,-0.00416327146885,-0.613028836473,-0.0945951337572,0.0465511355741,-0.368600353087,0.573830823106,0.818954345016,0.00356568842142,0.0,0.818925161786,-0.573758141662,-0.0119967150473,0.0,-0.00777906892269,0.00980430560083,-0.999921677772,0.0,0.491371900081,0.0374534200785,0.304581492859,1.0,-0.16998,-0.223402285714,2.462
0.19751689203,-0.143403653205,-0.128582951754,-2.29408691311,-0.00949118958972,2.14503507394,-0.0987700225558,-0.411950629442,-0.554739219105,-0.00359070355889,-0.588835060292,-0.0907127648098,0.0577473042623,-0.36213844118,0.573813027989,0.81896592495,0.00376425052717,0.0,0.818940184646,-0.573740749564,-0.0118014050875,0.0,-0.0075053892162,0.0098546857428,-0.999923274207,0.0,0.488544974936,0.0336659537748,0.304676635853,1.0,-0.16998,-0.223402285714,2.479
0.189895111578,-0.153205353088,-0.128769679858,-2.30478077094,-0.0110519750599,2.14582348925,-0.105391741516,-0.426368224896,-0.542543813061,-0.00947932560266,-0.598379297228,-0.0930548878186,0.0324577760882,-0.377977445192,0.573922700135,0.81888929597,0.00371512017406,0.0,0.818862410464,-0.573849914349,-0.0118901401011,0.0,-0.00760493348121,0.00986638353115,-0.999922406721,0.0,0.485471980002,0.0295701922837,0.304644283771,1.0,-0.16998,-0.223402285714,2.497
0.183574645361,-0.16134840332,-0.128801167089,-2.31361918813,-0.0123751241716,2.1463396511,-0.110943292468,-0.415356548803,-0.535729391946,-0.0011493713781,-0.584771682663,-0.0848710793589,0.0344198924581,-0.377167999131,0.573841722179,0.818946605894,0.00358907817694,0.0,0.818917551118,-0.573768729478,-0.0120098478352,0.0,-0.00777627301375,0.00983110015546,-0.999921436438,0.0,0.482874115048,0.0262693772875,0.304603957287,1.0,-0.16998,-0.223402285714,2.512
0.17626379827,-0.170596907583,-0.128840928645,-2.32326335835,-0.0136981365922,2.14708601475,-0.117401167357,-0.429505595717,-0.534961624702,-0.005135961479,-0.576875371514,-0.0820805685035,0.0460897097019,-0.390478406143,0.573806476353,0.81896981949,0.00391271776572,0.0,0.818945487902,-0.573733005628,-0.0118098686948,0.0,-0.00742721370613,0.0099810738682,-0.999922604335,0.0,0.479897943034,0.0223062232758,0.304724347376,1.0,-0.16998,-0.223402285714,2.53
0.167920172342,-0.180768266619,-0.129011124592,-2.33416006901,-0.0153675085114,2.147582273,-0.124691407644,-0.446399123931,-0.543988657851,-0.0143226492626,-0.569071421022,-0.0820806369235,0.0353035779902,-0.393542781122,0.5738654443,0.818929210859,0.00376116227208,0.0,0.818902219995,-0.573791586419,-0.0119631243083,0.0,-0.00763897575632,0.00994543926132,-0.999921364052,0.0,0.476785564901,0.0182349105342,0.304665216582,1.0,-0.16998,-0.223402285714,2.548
0.161641680145,-0.188260434571,-0.129112135217,-2.34200413052,-0.0165050478003,2.14795846447,-0.130161352168,-0.44740843132,-0.531907470047,-0.00454337508914,-0.545504249437,-0.0734758690903,0.0269139180171,-0.39104849344,0.573946925928,0.818871785173,0.00383047861447,0.0,0.818845425251,-0.57387244802,-0.01197204454,0.0,-0.00760550977472,0.0100080807374,-0.99992099415,0.0,0.474409006536,0.0150730433554,0.304683873686,1.0,-0.16998,-0.223402285714,2.562
0.15365483643,-0.197825653431,-0.129160063323,-2.35184505185,-0.018050757183,2.14845718257,-0.137303309762,-0.450527487064,-0.525276467185,-0.00461149709218,-0.54254861009,-0.0878268351906,0.0185627566602,-0.40479372704,0.573783554906,0.818985632975,0.00396383660065,0.0,0.818962109739,-0.573710111589,-0.0117693489011,0.0,-0.00736497631959,0.00999948335756,-0.999922880755,0.0,0.471407534329,0.011124459176,0.304762425983,1.0,-0.16998,-0.223402285714,2.58
0.145910282107,-0.206718086661,-0.129252881772,-2.36124465271,-0.0194315820395,2.14866629331,-0.144116130225,-0.455572787722,-0.517348981139,-0.00829409943538,-0.545006442614,-0.0798913138564,0.0226429968353,-0.407149724352,0.573800749927,0.818974213168,0.00383202958476,0.0,0.818947496559,-0.573725793252,-0.0120191072366,0.0,-0.00764495186779,0.0100349969858,-0.999920423607,0.0,0.468446263018,0.00733756078125,0.304673250039,1.0,-0.16998,-0.223402285714,2.597
0.138451480216,-0.215127130087,-0.129434721692,-2.36972971867,-0.0207092697018,2.14891239246,-0.150635589392,-0.469738066475,-0.530914417625,-0.00276178490442,-0.514567902193,-0.0867949570404,0.0161341444997,-0.402367089786,0.573951748477,0.818867544602,0.0040102017527,0.0,0.818843403894,-0.573876464241,-0.0119176587707,0.0,-0.00745776715734,0.0101240832626,-0.999920939198,0.0,0.46577104051,0.00369912978979,0.304750989024,1.0,-0.16998,-0.223402285714,2.613
0.130602927338,-0.223905248273,-0.129472218782,-2.37870109429,-0.0221334297032,2.14912986858,-0.157645657219,-0.464819421323,-0.518156261386,3.94306099614e-05,-0.537007035372,-0.0907016933648,0.00471323602941,-0.421029391334,0.573819501154,0.81896015178,0.00402452401027,0.0,0.818936525807,-0.573744634081,-0.011866274235,0.0,-0.00740909934109,0.010105123828,-0.999921492778,0.0,0.46289919445,-2.23394263063e-05,0.304754882506,1.0,-0.16998,-0.223402285714,2.63
0.122531073567,-0.232607132197,-0.129551284632,-2.38767811312,-0.0235330553589,2.14916643896,-0.164792482856,-0.472715177324,-0.515475788997,-0.00297254688057,-0.530192705008,-0.0788275933992,0.00197632290111,-0.418044963001,0.573793271575,0.818979112954,0.00390396477228,0.0,0.818952961986,-0.573717557466,-0.0120398177323,0.0,-0.00762073283564,0.010105724486,-0.999919896174,0.0,0.45995381214,-0.00381270015085,0.304680602985,1.0,-0.16998,-0.223402285714,2.647
0.114798213741,-0.240832542652,-0.129729289456,-2.39578303888,-0.0248456681618,2.14920002352,-0.171619855065,-0.487314306802,-0.516165401078,-0.0176672550247,-0.494578719958,-0.0893431932143,0.0014104076193,-0.428946273155,0.573880983189,0.818917026211,0.00403338788375,0.0,0.818893149798,-0.573805577097,-0.0119128421464,0.0,-0.00744139207185,0.010139662492,-0.999920903336,0.0,0.457274134152,-0.00744553166428,0.304758429093,1.0,-0.16998,-0.223402285714,2.663
0.106066465971,-0.249950109154,-0.129841564876,-2.40483076213,-0.0262060582319,2.14922966358,-0.179403855651,-0.483675473503,-0.499149342506,-0.00235020726927,-0.507208168229,-0.0792363398377,-0.00326232813243,-0.438172100683,0.573897656062,0.818904567613,0.00418764968927,0.0,0.818882654796,-0.573821651062,-0.0118599050495,0.0,-0.00730930708457,0.0102357624741,-0.99992089847,0.0,0.454245442113,-0.0114415819534,0.3047911678,1.0,-0.16998,-0.223402285714,2.681
0.0976849994066,-0.258436143205,-0.129916431686,-2.41341781065,-0.0275795355533,2.14912992622,-0.186891906182,-0.511106734307,-0.499217501917,-0.00679789146514,-0.497435214991,-0.082416751292,-0.00449913501685,-0.443197020814,0.573838074799,0.818946806419,0.00409134072986,0.0,0.818922906436,-0.573761404655,-0.0119946131648,0.0,-0.00747564067072,0.0102336553977,-0.999919690322,0.0,0.451306216199,-0.0152209760617,0.304711974386,1.0,-0.16998,-0.223402285714,2.698
0.0896788470706,-0.266432204618,-0.130062167478,-2.42112899895,-0.0288312083078,2.14902837272,-0.193974947317,-0.509149964087,-0.498899172032,-0.0100437960078,-0.47450558099,-0.082441517271,0.00217790974717,-0.445374442314,0.573928965304,0.818882304648,0.00424980238015,0.0,0.818861160397,-0.573852687229,-0.0118423078178,0.0,-0.00725883555724,0.0102768394422,-0.999920844806,0.0,0.448638013997,-0.0188201567889,0.304786114683,1.0,-0.16998,-0.223402285714,2.714
0.0811063522327,-0.274819251405,-0.130172755085,-2.42919810113,-0.0301575114207,2.14886195437,-0.20164308113,-0.497764191525,-0.484068477616,-0.00550918274657,-0.480408913381,-0.0711327148288,-0.0203357553818,-0.453232054232,0.573925682734,0.818883939648,0.00437618390182,0.0,0.818865121938,-0.57384997363,-0.0116990059388,0.0,-0.0070689911565,0.0102980626048,-0.999921986592,0.0,0.445800302238,-0.0226085730643,0.304845925588,1.0,-0.16998,-0.223402285714,2.731
0.0719177586671,-0.283557864162,-0.130239127331,-2.4378225932,-0.0315956912766,2.148515405,-0.209943605747,-0.521609310581,-0.478950108156,-0.00345250520863,-0.463596922642,-0.0761884414138,-0.00713533674157,-0.465016097191,0.57380027832,0.818972480377,0.00425016301949,0.0,0.818951342677,-0.573724021942,-0.0118402650006,0.0,-0.00725857032441,0.0102748218863,-0.999920867465,0.0,0.442691644005,-0.0265930127911,0.304771916033,1.0,-0.16998,-0.223402285714,2.749
0.0641201879146,-0.290850344516,-0.130381477526,-2.44479560454,-0.0326806089059,2.14824049145,-0.216928052682,-0.524252368392,-0.483645852936,-0.0125373271277,-0.462780186162,-0.0742043881354,-0.020151107678,-0.465514397565,0.57387487635,0.818919567346,0.0043721177411,0.0,0.818899817235,-0.573797912479,-0.0118233611083,0.0,-0.00717380784846,0.0103656558842,-0.999920541673,0.0,0.440147528433,-0.0299599772944,0.304792657567,1.0,-0.16998,-0.223402285714,2.764
0.0551952758162,-0.299045827148,-0.130522392562,-2.45238999936,-0.0339188617205,2.14795208186,-0.224939338908,-0.525512671845,-0.482421013743,-0.00355243574409,-0.446203181763,-0.0716952817091,-0.0222257310425,-0.476594988907,0.573935100521,0.818875948239,0.00462911305867,0.0,0.818860685429,-0.57385902817,-0.0115646248151,0.0,-0.00681366597454,0.010428143572,-0.999922410879,0.0,0.437343736438,-0.033770638129,0.304907018702,1.0,-0.16998,-0.223402285714,2.781
0.0462059844366,-0.307021200321,-0.130631580806,-2.46010737681,-0.0352925624345,2.14740380747,-0.233041605647,-0.541537557372,-0.471793052864,-0.00866082753967,-0.452386525246,-0.0813431653328,-0.0351622711973,-0.480502154728,0.573877838097,0.818917092952,0.00444620220834,0.0,0.818898732547,-0.573801251968,-0.0117360970831,0.0,-0.00705979003507,0.0103762751502,-0.999921243038,0.0,0.434401968653,-0.0375539341598,0.304827091256,1.0,-0.16998,-0.223402285714,2.798
0.0375855463203,-0.31451703537,-0.130772688652,-2.46720745072,-0.0364239423113,2.14690127353,-0.240790007471,-0.537883515472,-0.466586901364,-0.00802381385195,-0.43273615543,-0.0685464982434,-0.0341395076282,-0.490277189811,0.57395603276,0.818862080908,0.00448461935938,0.0,0.818843447263,-0.573878171498,-0.011832161826,0.0,-0.00711542049053,0.0104635432922,-0.999919939322,0.0,0.431658136492,-0.0411379451914,0.304803290796,1.0,-0.16998,-0.223402285714,2.814
0.0278557784937,-0.322873210515,-0.130903151618,-2.47483239055,-0.0377512397227,2.14638955258,-0.249689157135,-0.538014107223,-0.464191789202,-0.00601710244295,-0.411899618727,-0.0709663641213,-0.0307100063005,-0.496965814102,0.573917545314,0.818888242776,0.00463075856206,0.0,0.818872529953,-0.573840750994,-0.0116326733248,0.0,-0.00686867369008,0.0104683978484,-0.999921613912,0.0,0.428836803968,-0.0449310876232,0.304882294268,1.0,-0.16998,-0.223402285714,2.831
0.0185056653942,-0.330616378646,-0.130982527762,-2.48201822168,-0.0389620670967,2.14580901419,-0.258159396068,-0.557724344405,-0.453249518868,-0.00594903715784,-0.430410402235,-0.0721198082666,-0.0391201127157,-0.499914357232,0.573864095646,0.818925392394,0.00468490367651,0.0,0.818910494897,-0.573787319611,-0.0115956933048,0.0,-0.00680800044162,0.0104910708256,-0.999921791223,0.0,0.425797923485,-0.0489172239847,0.304889998886,1.0,-0.16998,-0.223402285714,2.849
0.0100942010713,-0.337378972081,-0.131126388556,-2.48833234544,-0.0399900902497,2.1451334492,-0.265744534062,-0.567155013556,-0.458471336483,-0.0123038349629,-0.416959287614,-0.0664690736866,-0.0368072563939,-0.497861051396,0.573982198112,0.818842755856,0.00466093699555,0.0,0.818826329273,-0.573903616026,-0.0117825677578,0.0,-0.00697327591519,0.0105796857638,-0.999919718614,0.0,0.423026082385,-0.0525242622772,0.304840740186,1.0,-0.16998,-0.223402285714,2.865
6.39667703653e-05,-0.345423198951,-0.131233433218,-2.4956797821,-0.0412590650444,2.14439020514,-0.274982037205,-0.554040797202,-0.446187873904,-0.00264590660532,-0.408915396491,-0.0741309199306,-0.0387157287228,-0.518580049239,0.573854971954,0.818931752524,0.00469071138861,0.0,0.818915593977,-0.573776131516,-0.0117876098253,0.0,-0.00696196377704,0.0106058794047,-0.999919519953,0.0,0.420139645152,-0.0562596678849,0.304841955803,1.0,-0.16998,-0.223402285714,2.882
-0.00964387003915,-0.352960016087,-0.13135861984,-2.50229314175,-0.0424609594695,2.14368373118,-0.283796808864,-0.578027964208,-0.445164440176,-0.00431194974545,-0.377888594585,-0.0661010306965,-0.0381402304061,-0.52524248031,0.573893329534,0.818904015291,0.00483807368184,0.0,0.818891019807,-0.573815964171,-0.0115535208133,0.0,-0.00668518938092,0.010592547558,-0.999921550012,0.0,0.417316306163,-0.0600800710396,0.304945943721,1.0,-0.16998,-0.223402285714,2.899
-0.0189508070197,-0.359869632147,-0.131523190559,-2.50856148078,-0.0435636946213,2.14292094121,-0.292223276754,-0.581729972912,-0.432209212017,-0.011029268574,-0.398952842759,-0.0760212099951,-0.0528731266655,-0.522292559051,0.574005476144,0.818825403285,0.00483933813482,0.0,0.818811931968,-0.573927310192,-0.0116279656103,0.0,-0.0067439751538,0.0106372285439,-0.999920680938,0.0,0.414575371619,-0.0637073567521,0.304921690548,1.0,-0.16998,-0.223402285714,2.915
-0.0292491835302,-0.367587832224,-0.13157148841,-2.51553709173,-0.0447910159563,2.14200067526,-0.301863712316,-0.587966247673,-0.426325571146,-0.00791333637182,-0.384449542345,-0.0671156993984,-0.0498576248786,-0.542468997602,0.573757942109,0.818999176603,0.0047874306036,0.0,0.818984492782,-0.573679137253,-0.0117215598209,0.0,-0.00685363073707,0.0106463744414,-0.999919838016,0.0,0.411489139421,-0.0676109410948,0.304885341323,1.0,-0.16998,-0.223402285714,2.933
-0.0393420042371,-0.374690915528,-0.131722899267,-2.52190622656,-0.045895036968,2.1410968841,-0.311022152567,-0.59529372119,-0.41790686976,-0.0135265149465,-0.369863375024,-0.0614053580509,-0.0588611971865,-0.540836330726,0.573889581712,0.81890691923,0.00479088110322,0.0,0.818891452051,-0.573809461157,-0.0118422525877,0.0,-0.00694878346461,0.0107195633521,-0.999918399356,0.0,0.408574069053,-0.0714416746478,0.304851052758,1.0,-0.16998,-0.223402285714,2.95
-0.0489116019862,-0.381346606876,-0.131846556789,-2.52753027048,-0.0469458963913,2.1403251516,-0.319753459316,-0.595594707286,-0.411971276891,-0.00324882473366,-0.347399271374,-0.0664629690208,-0.0465976667142,-0.547076497369,0.573969471169,0.818849921813,0.00495969898946,0.0,0.818838142083,-0.573891156992,-0.0115664989306,0.0,-0.00662502690584,0.0107002139925,-0.999920804084,0.0,0.405938894513,-0.0750537130301,0.304966779724,1.0,-0.16998,-0.223402285714,2.966
-0.0590029466539,-0.388225910736,-0.131942456941,-2.53361022093,-0.0480747545352,2.13940365653,-0.32923360422,-0.604878549396,-0.40408600462,-0.0113471456934,-0.359525359765,-0.0596908306112,-0.0603605714182,-0.557250229201,0.573786184442,0.818978572639,0.00492534291517,0.0,0.818966140098,-0.57370767102,-0.0116067431746,0.0,-0.0066800955578,0.0106936838424,-0.999920507565,0.0,0.403052621486,-0.0787870648854,0.304940882753,1.0,-0.16998,-0.223402285714,2.983
-0.069465703941,-0.395083104728,-0.13212940169,-2.53962508489,-0.0491784696302,2.13834642627,-0.338773308671,-0.619158510357,-0.403531075879,-0.0139069645193,-0.345136021846,-0.0589669969885,-0.0648377455624,-0.560538129946,0.573936502575,0.818873408233,0.00489685642433,0.0,0.818859677088,-0.573856577581,-0.0117560413171,0.0,-0.00681674759563,0.0107572666188,-0.999918903295,0.0,0.400091106751,-0.0826473706743,0.304906962296,1.0,-0.16998,-0.223402285714,3.0
-0.0791588275581,-0.401353323283,-0.13217755621,-2.54503940617,-0.0501891397744,2.13745279173,-0.347855150228,-0.603158253051,-0.398537131618,-0.00225252652009,-0.338681473313,-0.0694845546,-0.0649349239618,-0.573844543896,0.573789903956,0.818976117783,0.00490015503951,0.0,0.818962641234,-0.573710327753,-0.0117217316934,0.0,-0.00678867946529,0.0107390619764,-0.999919289932,0.0,0.397396324231,-0.0861462550959,0.30491062065,1.0,-0.16998,-0.223402285714,3.016
-0.0896630537417,-0.407863444429,-0.132317381627,-2.55060383869,-0.0512520828205,2.13645359466,-0.357657469821,-0.629118496315,-0.384034546752,-0.0147419562028,-0.325996750018,-0.0690010357613,-0.0479387974172,-0.585851052466,0.57375312946,0.819001769297,0.00491886418888,0.0,0.81898857679,-0.573673564314,-0.0117089536563,0.0,-0.00676796171377,0.0107467492927,-0.999919347785,0.0,0.394525955955,-0.0899407718098,0.304919079719,1.0,-0.16998,-0.223402285714,3.033
-0.101080596054,-0.414666850078,-0.132483530092,-2.55624242849,-0.0522823419946,2.13544992039,-0.36817003545,-0.626787183935,-0.37434797391,-0.00465178828678,-0.315245008002,-0.0507379995477,-0.0605603509485,-0.589000377624,0.573909139189,0.818891392356,0.00509258111082,0.0,0.818881305143,-0.57383039539,-0.0115252902318,0.0,-0.00651580858235,0.0107848965051,-0.999920611972,0.0,0.391517344968,-0.0940389347508,0.30499675831,1.0,-0.16998,-0.223402285714,3.051
-0.110413395226,-0.420253072691,-0.132554520074,-2.5610171132,-0.0531052723794,2.13446799677,-0.377012746787,-0.621697671997,-0.370657495392,-0.00913367800792,-0.320656951106,-0.0592378867602,-0.0698339300134,-0.586172452068,0.573782483716,0.818980019877,0.00511227193943,0.0,0.818969349476,-0.573702318252,-0.01164480792,0.0,-0.00660406990742,0.0108685900894,-0.999919126735,0.0,0.38894671914,-0.0972965072553,0.304971961047,1.0,-0.16998,-0.223402285714,3.066
-0.122006145979,-0.426755699197,-0.132762752877,-2.5665861378,-0.0542219830025,2.13326239583,-0.387744579749,-0.651657962468,-0.355491089389,-0.00670394301274,-0.299968059928,-0.0568688575111,-0.0614267481999,-0.601841387264,0.573892676413,0.818903275131,0.00503674896066,0.0,0.818890613669,-0.573811097353,-0.0118209263533,0.0,-0.0067901835897,0.0109086995362,-0.999917443433,0.0,0.385816963824,-0.101377767484,0.304917425729,1.0,-0.16998,-0.223402285714,3.084
-0.13284179356,-0.432718547927,-0.132808241845,-2.57155231202,-0.0551617177521,2.1322626312,-0.397939364516,-0.633370101119,-0.344144778826,-0.00104968428266,-0.292703867516,-0.0491364067075,-0.056780359114,-0.600488030888,0.573803933391,0.818965220217,0.00507552962465,0.0,0.818953437373,-0.573722844101,-0.0117521262889,0.0,-0.00671276464414,0.0109002485864,-0.999918058329,0.0,0.382975244962,-0.105106377983,0.304931899314,1.0,-0.16998,-0.223402285714,3.101
-0.143239489551,-0.43816554822,-0.132942736252,-2.57610453484,-0.056024217375,2.13122663141,-0.407737122176,-0.66107154108,-0.342191230742,-0.00935981103038,-0.279520198244,-0.0626048470711,-0.0629323985745,-0.60693058528,0.573798833428,0.818968669214,0.00509553762392,0.0,0.818956571758,-0.573716745152,-0.011831179458,0.0,-0.00676610030397,0.0109619520464,-0.999917024305,0.0,0.380256510032,-0.108682118868,0.304915686146,1.0,-0.16998,-0.223402285714,3.117
-0.154479570672,-0.443936674273,-0.133091050481,-2.5806836046,-0.0569910090381,2.13017536076,-0.418211744614,-0.641395475861,-0.34424616037,-0.00437005473943,-0.272969435347,-0.0514324878566,-0.0589466125902,-0.609802757605,0.573888490753,0.818905334458,0.00517689853706,0.0,0.818895502571,-0.57380810472,-0.0116259076118,0.0,-0.00655009753306,0.0109115235829,-0.999919014158,0.0,0.377404498132,-0.112545172129,0.305002790187,1.0,-0.16998,-0.223402285714,3.134
-0.166253315973,-0.449907436313,-0.133200416819,-2.58557666332,-0.0579161588551,2.12902060676,-0.429434827301,-0.665303238445,-0.324286923188,-0.00996642800274,-0.271915412577,-0.0429860631422,-0.0708880733362,-0.63172747292,0.573774989998,0.818984531535,0.00522923132557,0.0,0.818975205907,-0.573694171353,-0.0116342926823,0.0,-0.00652845190292,0.01095828795,-0.999918644311,0.0,0.374340871402,-0.116495530763,0.305006849482,1.0,-0.16998,-0.223402285714,3.152
-0.176371354843,-0.454659261798,-0.133369377273,-2.58956523527,-0.0587056590922,2.12799250123,-0.438893542372,-0.675973807178,-0.312325653315,-0.00750648559857,-0.26031162779,-0.0512610070913,-0.0609148731079,-0.640286398854,0.573896514115,0.818899560617,0.00520073162414,0.0,0.81888864242,-0.573813735182,-0.0118294350191,0.0,-0.00670299695407,0.0110479042871,-0.999916503336,0.0,0.371722336771,-0.11989178094,0.304948024803,1.0,-0.16998,-0.223402285714,3.167
-0.188309752903,-0.460182930169,-0.133414947657,-2.59397867042,-0.0595198903625,2.12690935237,-0.450350199503,-0.660440418392,-0.299322696471,-0.00200552061457,-0.241172411837,-0.0481209120867,-0.0594207495471,-0.642319619849,0.573746847607,0.819003775962,0.00530252044948,0.0,0.818994570776,-0.573664398172,-0.0117387482375,0.0,-0.00657233846698,0.0110780185418,-0.999917037495,0.0,0.368735485325,-0.12382701877,0.30498520059,1.0,-0.16998,-0.223402285714,3.185
-0.19996049683,-0.465183721682,-0.133602324064,-2.59810218377,-0.0603786946379,2.12585534962,-0.461299873531,-0.687946611719,-0.295958595508,-0.011840304845,-0.24565057084,-0.0519513431771,-0.0683640471689,-0.643629809903,0.573874654335,0.818914235109,0.00530127797141,0.0,0.818904382425,-0.573791125439,-0.0118365414284,0.0,-0.00665141407707,0.0111341452508,-0.999915891213,0.0,0.365813544858,-0.127690919137,0.304942881793,1.0,-0.16998,-0.223402285714,3.202
-0.210817125344,-0.469831103102,-0.133663919449,-2.6017922569,-0.0611761823237,2.1248476201,-0.471618179772,-0.674641911822,-0.286935937318,-0.00635338079868,-0.223226132367,-0.0476841923823,-0.060967962239,-0.642309812375,0.57382328671,0.818950314782,0.00528814234772,0.0,0.818940564179,-0.573740269846,-0.0117983897172,0.0,-0.0066284023725,0.0111010787733,-0.999916411673,0.0,0.363112769742,-0.131228594893,0.304961261884,1.0,-0.16998,-0.223402285714,3.218
-0.222483678266,-0.474687412727,-0.133819163091,-2.60549703636,-0.0619284631311,2.12381777561,-0.482807679955,-0.691421448752,-0.281623602313,-0.0187323346551,-0.218537102922,-0.0445651379335,-0.0646171562211,-0.668800290225,0.57380657892,0.818961103835,0.00542837875051,0.0,0.81895403257,-0.57372456238,-0.0116260896044,0.0,-0.00640704430812,0.0111169334056,-0.999917678399,0.0,0.360257997556,-0.135035348419,0.30504189432,1.0,-0.16998,-0.223402285714,3.235
-0.234981153453,-0.479525568158,-0.133916543575,-2.60932669581,-0.0627456640923,2.12274357093,-0.494682834213,-0.682264469707,-0.26145486577,0.00217380806008,-0.209425287719,-0.0390122281351,-0.0526158269735,-0.672462546474,0.573831314897,0.818943668361,0.00544398705058,0.0,0.818936928455,-0.573749468556,-0.0116017862983,0.0,-0.00637784754695,0.0111159643373,-0.999917875827,0.0,0.357205597905,-0.139059047826,0.30504923297,1.0,-0.16998,-0.223402285714,3.253
-0.244663296451,-0.483107243584,-0.133946602235,-2.61224006261,-0.0633729307236,2.12190863706,-0.504014736805,-0.696414633217,-0.24644711265,-0.00398346707978,-0.203661499913,-0.0475051467263,-0.0553311544511,-0.658971510389,0.573714439723,0.819025876669,0.00539461780984,0.0,0.819018056016,-0.573632011785,-0.0116827170038,0.0,-0.00647404671426,0.0111210469464,-0.999917201089,0.0,0.354829079576,-0.142130576781,0.305012090162,1.0,-0.16998,-0.223402285714,3.267
-0.258119377135,-0.487785302282,-0.134116101789,-2.61600140956,-0.064188074079,2.12073075201,-0.516808058491,-0.705822562311,-0.238507190265,-0.00232923249877,-0.195198010307,-0.0396986020542,-0.0593737555528,-0.686930229856,0.573826673086,0.818947300912,0.00538650946093,0.0,0.818938299104,-0.573742416753,-0.0118510919055,0.0,-0.00661507813361,0.0112119074005,-0.999915263347,0.0,0.351549022943,-0.146416373118,0.304966896628,1.0,-0.16998,-0.223402285714,3.286
-0.270020504443,-0.491777724543,-0.13418458252,-2.61917073724,-0.0648175997264,2.1197929239,-0.528368482598,-0.708308423514,-0.22822681758,-0.00250463913344,-0.182685862752,-0.034031642729,-0.0535058158132,-0.688808623035,0.573712670361,0.819026833719,0.00543731707511,0.0,0.819018132434,-0.573627639021,-0.0118902227596,0.0,-0.00661954358936,0.0112750498066,-0.999914523794,0.0,0.348686944561,-0.150150493977,0.304949231062,1.0,-0.16998,-0.223402285714,3.303
-0.281511038597,-0.495437354219,-0.134359276906,-2.62198416842,-0.0654217684061,2.11891581411,-0.539318666618,-0.716992391379,-0.219995464323,-0.00180586899788,-0.173347959139,-0.038765674302,-0.0539600703414,-0.685388975531,0.573867182942,0.818917946526,0.00553173581103,0.0,0.818910508013,-0.573781836518,-0.0118630033431,0.0,-0.006540942738,0.0113380031847,-0.999914329206,0.0,0.345949527649,-0.153782388133,0.304966129543,1.0,-0.16998,-0.223402285714,3.319
-0.29351398867,-0.499140063298,-0.134386856398,-2.62480015863,-0.0660238163542,2.11798251534,-0.55099628689,-0.706612496262,-0.212840139128,-0.00442330386121,-0.168532046505,-0.0307681719531,-0.0484741154506,-0.688461392098,0.573739341981,0.819007262527,0.00556940678628,0.0,0.819000482577,-0.573654176966,-0.0118254678419,0.0,-0.00649035553857,0.0113463014353,-0.999914564715,0.0,0.343104397181,-0.157499570364,0.304992685421,1.0,-0.169765714286,-0.223120653061,3.336
-0.30583395564,-0.502604049826,-0.134513104939,-2.62745326873,-0.0666214665211,2.11710427394,-0.562780652423,-0.732252379863,-0.196287607037,-0.00889898510267,-0.155441186818,-0.0334900351532,-0.0496120599214,-0.689686206173,0.57386483555,0.818918944271,0.00562673388652,0.0,0.818912883869,-0.573779394887,-0.0118170020364,0.0,-0.00644878702667,0.0113893860851,-0.999914343847,0.0,0.340209978747,-0.16133612775,0.305002326632,1.0,-0.16758,-0.220248,3.353
-0.317196478471,-0.505604128542,-0.134501277981,-2.62975342227,-0.0671316955091,2.11638273032,-0.573810402409,-0.710593211487,-0.18358028786,0.00111949905376,-0.141151047325,-0.0211833853152,-0.0446487435145,-0.686158814719,0.573781914553,0.81897692693,0.00564398696667,0.0,0.818971462149,-0.573697086871,-0.0117534506612,0.0,-0.00638798901077,0.0113664005198,-0.999914995655,0.0,0.337579855035,-0.164822007904,0.305013028538,1.0,-0.165522857143,-0.217544326531,3.369
-0.330045722304,-0.508816352033,-0.134558298083,-2.63217011072,-0.0676508235391,2.11558664723,-0.586139844596,-0.727598526121,-0.176425617103,-0.00658236931863,-0.130655790353,-0.0255950478739,-0.0403784018957,-0.68974825895,0.57389032552,0.818900401832,0.00572477565372,0.0,0.818896364201,-0.573805878205,-0.0116750047822,0.0,-0.00627587701607,0.0113883895254,-0.999915455402,0.0,0.334610795542,-0.168762361153,0.305038702528,1.0,-0.163208571429,-0.214502693878,3.387
-0.341304098771,-0.511478358509,-0.134489709378,-2.63420043546,-0.0680784916468,2.11487937147,-0.597074847824,-0.694854458274,-0.162147064032,0.00708287459717,-0.124301163621,-0.025154519074,-0.0440597663205,-0.685165641533,0.573808878123,0.818957416365,0.00573310294612,0.0,0.818953529982,-0.573724496697,-0.0116646697951,0.0,-0.00626376683276,0.0113886552511,-0.999915528311,0.0,0.332011130871,-0.172151825387,0.305043899751,1.0,-0.161151428571,-0.211799020408,3.403
-0.352481095811,-0.513849069405,-0.134467630184,-2.63605693965,-0.0684605854633,2.11418935666,-0.607902004669,-0.704984592744,-0.142297118469,0.00314525229028,-0.11351602914,-0.0241611383137,-0.0449435137161,-0.677978298872,0.573811713715,0.818955291107,0.00575284897281,0.0,0.818951019897,-0.573726100032,-0.0117616347465,0.0,-0.0063318153095,0.0114604859734,-0.999914279014,0.0,0.32943451108,-0.175515271076,0.30501862627,1.0,-0.159094285714,-0.209095346939,3.419
-0.365054230904,-0.516293927113,-0.134442825838,-2.63796057027,-0.0688635757444,2.11348905692,-0.620009165268,-0.682053312956,-0.13541464682,0.000903312336389,-0.102711839897,-0.0112591512718,-0.0367421870791,-0.670730327746,0.573895853478,0.818896129776,0.00578142713194,0.0,0.818891739641,-0.573809232354,-0.0118334489418,0.0,-0.00637305197684,0.0115257521082,-0.999913266862,0.0,0.326560096139,-0.179291806384,0.304996773984,1.0,-0.15678,-0.206053714286,3.437
-0.376652378633,-0.518364143151,-0.134361083513,-2.63959641622,-0.0691963794836,2.11290267525,-0.631296302933,-0.689126099633,-0.117617820548,0.00292863108054,-0.0908391994535,-0.0220781715658,-0.0398552235935,-0.656927941693,0.573857822974,0.818922681676,0.00579545938097,0.0,0.818918022648,-0.573770341371,-0.0119001868549,0.0,-0.00642019383288,0.0115752443175,-0.999912393578,0.0,0.323923360469,-0.182742158222,0.304968097148,1.0,-0.154594285714,-0.203181061225,3.454
-0.38764735249,-0.520217759517,-0.134351263136,-2.64099608181,-0.0695140759489,2.11234830618,-0.641897541806,-0.672233071485,-0.11210625171,0.00193343280556,-0.0833168470695,-0.0217458640564,-0.031283528929,-0.663511262894,0.573957843036,0.818852323546,0.00583211290113,0.0,0.818847928519,-0.573869815082,-0.0119269526492,0.0,-0.00641966293595,0.0116214053326,-0.999911861549,0.0,0.321420581793,-0.186025461246,0.304966758276,1.0,-0.152537142857,-0.200477387755,3.47
-0.398919947209,-0.521938702617,-0.134214667847,-2.64227161124,-0.0697620036152,2.11184822814,-0.653037824947,-0.661473623125,-0.0992972052593,0.00316849823507,-0.0733474163715,-0.0238560099886,-0.0279444685455,-0.649072300204,0.573790564487,0.818969319758,0.00586415399536,0.0,0.818965462142,-0.573702664484,-0.0118983815432,0.0,-0.00638025150617,0.0116299425615,-0.999912014543,0.0,0.318898831108,-0.18935085743,0.304980000847,1.0,-0.150351428571,-0.197604734694,3.487
-0.410378202867,-0.52354766846,-0.13418040755,-2.64343382171,-0.0700295671413,2.11136939523,-0.664026873585,-0.668594840659,-0.0905641294804,0.000939751930484,-0.0604224844417,-0.0176844326251,-0.0268464513229,-0.649839900954,0.5739695733,0.818843491442,0.00591712349535,0.0,0.818840542247,-0.573881836442,-0.0118554238854,0.0,-0.0063121285169,0.0116500575,-0.999912212744,0.0,0.31632244977,-0.192754502152,0.305002010602,1.0,-0.148165714286,-0.194732081633,3.504
-0.421434919744,-0.524902292309,-0.13405018134,-2.64442583079,-0.0702526155671,2.11097336073,-0.674979896634,-0.645176685716,-0.0719131827049,0.0064828363795,-0.0570305809069,-0.00734261957741,-0.0241940631529,-0.646602978976,0.57381024326,0.818955035164,0.00593312813575,0.0,0.818952564397,-0.57372297855,-0.011806271727,0.0,-0.00626495435099,0.0116337341388,-0.999912699478,0.0,0.313863691406,-0.196007877018,0.305016974275,1.0,-0.14598,-0.191859428571,3.521
-0.43056962719,-0.525882847765,-0.133984834303,-2.64518639639,-0.0704261648408,2.11066238562,-0.683843697563,-0.662798665606,-0.0732080220205,0.00471933731384,-0.049104739954,-0.0120001866739,-0.0174420549124,-0.625283121894,0.573868509757,0.818914055362,0.00595401895403,0.0,0.818911661931,-0.57378079375,-0.0118337474008,0.0,-0.00627464115893,0.0116670551695,-0.999912250501,0.0,0.311816753203,-0.198694340455,0.305005322894,1.0,-0.14418,-0.189493714286,3.535
-0.443445538162,-0.527117080374,-0.133906170625,-2.64613065275,-0.0706450795102,2.1102643386,-0.696433294406,-0.630516023439,-0.0601723584545,0.00819667597963,-0.043023021586,-0.00987881762406,-0.0103145344182,-0.635121548671,0.573900096485,0.81889158497,0.00599985174657,0.0,0.818889601832,-0.573811852474,-0.0118543187163,0.0,-0.00626473641264,0.0117166364444,-0.999911732859,0.0,0.308930834058,-0.202474891781,0.304995538481,1.0,-0.141608571429,-0.186114122449,3.555
-0.452851397417,-0.527870242255,-0.13379162021,-2.64672708263,-0.0707869128749,2.1100363775,-0.705701043675,-0.635483495332,-0.0478605836986,0.00204073746129,-0.0366827802396,-0.0137878345863,-0.015746700148,-0.622261745985,0.573837911533,0.818935106795,0.00600741607188,0.0,0.818933188697,-0.573749588634,-0.0118570187693,0.0,-0.00626349702384,0.0117239050086,-0.999911655426,0.0,0.306837916341,-0.205218614103,0.304983109397,1.0,-0.13968,-0.183579428571,3.57
-0.464261944395,-0.528618899351,-0.133750155596,-2.64729595158,-0.0709333221549,2.10975011571,-0.71674588065,-0.631631895167,-0.0398438916679,0.00276821198186,-0.0238493214522,-0.011879118145,-0.00913394957782,-0.620102159004,0.574013176004,0.818811842938,0.00606519086788,0.0,0.818810415973,-0.573924101924,-0.0118901145855,0.0,-0.00625492784139,0.0117915509177,-0.999910913634,0.0,0.304287011692,-0.208569667709,0.3049745529,1.0,-0.137365714286,-0.180537795918,3.588
