nelsonifechukwu/NELSON_IML_WORK/CNN-GradCAM/train2dof/data_sample_2022-02-21-08-59-10/robot_state.csv
position_joint1,position_joint2,position_joint3,position_joint4,position_joint5,position_joint6,position_joint7,velocity_joint1,velocity_joint2,velocity_joint3,velocity_joint4,velocity_joint5,velocity_joint6,velocity_joint7,ee_T_00,ee_T_10,ee_T_20,ee_T_30,ee_T_01,ee_T_11,ee_T_21,ee_T_31,ee_T_02,ee_T_12,ee_T_22,ee_T_32,ee_T_03,ee_T_13,ee_T_23,ee_T_33,v_x,v_y,time
0.465086416449,0.547588990557,-0.123982570966,-1.35575500406,0.0794421707127,1.89408614479,0.159151709912,2.08825173034e-05,-0.000804473773078,-0.000349633241547,-0.000276593355201,-0.000315036674308,-0.000182832988227,-0.000351858413108,0.573765009957,0.819005433233,0.0021355525705,0.0,0.818965257453,-0.573706257073,-0.011738167691,0.0,-0.00838860474979,0.00848405660721,-0.999928823514,0.0,0.661695753096,0.260903821568,0.303386103308,1.0,0.0,0.0,0.0
0.465083243937,0.547594619506,-0.123984678833,-1.35575778812,0.0794428827895,1.89408684885,0.159150121636,-0.00193921764839,-1.38765402834e-05,-0.000708258920932,-0.00103662301373,-0.000127722540015,-2.44929667706e-05,-0.00136881731088,0.573768136847,0.819003260305,0.00212876741117,0.0,0.818962998597,-0.573709411845,-0.011741575321,0.0,-0.00839525620429,0.00848048681359,-0.999928797973,0.0,0.661696378061,0.260900260122,0.30338092265,1.0,-8e-05,-0.000105142857143,0.005
0.465088245849,0.547586621528,-0.123976816822,-1.35575560962,0.0794441920746,1.89408685176,0.159158305902,0.000637031667869,-0.00163386878059,0.00181057538737,0.00103396820758,0.000302961403168,5.72402080258e-06,0.00104726069013,0.573765461577,0.819005104786,0.00214017220074,0.0,0.818964943014,-0.573706644393,-0.0117411751589,0.0,-0.00838841288257,0.00848957023946,-0.999928778327,0.0,0.661693905668,0.260908697409,0.303387368053,1.0,-0.00034,-0.000446857142857,0.018
0.465088216661,0.547576380223,-0.123982141335,-1.35576450238,0.0794428827895,1.89408720496,0.159155654454,0.000283016228794,-0.00226715156049,-0.000400521618112,-0.000632929337562,-4.03600454253e-05,5.42032290182e-05,0.000226533400222,0.573767157318,0.819003916883,0.00214014364157,0.0,0.818963784391,-0.573708370047,-0.0117376699697,0.0,-0.00838554080764,0.00848755307959,-0.999928819541,0.0,0.661693512165,0.260904487446,0.303390594746,1.0,-0.00066,-0.000867428571429,0.034
0.465085036579,0.547534566469,-0.123979662961,-1.35580342314,0.0794423889436,1.89409410247,0.159149409721,-0.00103432779119,-0.00763469516293,0.000601225742338,-0.00429090477262,0.000191615863147,0.00261303596475,-0.00198073531023,0.57376488187,0.819005482791,0.002150904783,0.0,0.818965451561,-0.573706014685,-0.0117364715939,0.0,-0.00837840888334,0.00849565551221,-0.999928810517,0.0,0.661687358856,0.260900136097,0.303402206343,1.0,-0.001,-0.00131428571429,0.051
0.465090618232,0.54740360115,-0.123977156333,-1.3559444334,0.0794394145015,1.89411910522,0.159154330576,0.000400332209324,-0.00356813255174,-0.000854793553171,-0.00854510898997,-0.000119889899786,0.00123301996025,0.00131371554217,0.573769436296,0.8190022437,0.00216925997256,0.0,0.818962355681,-0.573710401777,-0.0117380480444,0.0,-0.00836912180615,0.00851163934231,-0.99992875236,0.0,0.661661613065,0.260891477928,0.303429944597,1.0,-0.00134,-0.00176114285714,0.068
0.465079024401,0.547252448877,-0.123982193996,-1.35613858832,0.0794360798229,1.89417097984,0.159148377652,-0.00356168702353,-0.00921785183701,0.00453681730754,-0.0159242440721,2.73362385561e-05,0.00897118535937,2.1021942739e-05,0.573787379275,0.818989640648,0.00218146649684,0.0,0.818949837293,-0.573728220783,-0.0117405100455,0.0,-0.00836394824318,0.00852323222164,-0.999928696899,0.0,0.661635805386,0.260862811754,0.303449265393,1.0,-0.00168,-0.002208,0.085
0.46506517706,0.547105520164,-0.123982138109,-1.35633873871,0.079434509898,1.89427525308,0.159133577478,0.000732267840007,-0.00594691365852,0.000487374835629,-0.0206419211186,0.000363369463986,0.0105325623383,-0.00160789691332,0.573797518826,0.818982406555,0.00222980775489,0.0,0.818943176747,-0.573738120411,-0.0117213202223,0.0,-0.00832038952676,0.00855191495811,-0.999928815401,0.0,0.661618279161,0.260838688645,0.303467124737,1.0,-0.002,-0.00262857142857,0.101
0.465042437866,0.546887630139,-0.123975357666,-1.35657127386,0.0794305619998,1.89440231218,0.15913088356,-0.00224371415436,-0.00688805701203,-0.00141198619504,-0.0157883225661,-0.00130670596132,0.00563705194734,0.00242529897493,0.573821302153,0.818965456552,0.0023326104899,0.0,0.818927496789,-0.573761452868,-0.0116746351757,0.0,-0.00822291925978,0.00860955898887,-0.999929127035,0.0,0.661600644176,0.260810830807,0.303521579758,1.0,-0.00236,-0.00310171428571,0.119
0.465012758159,0.546683081357,-0.123978221762,-1.35683807379,0.0794227899114,1.89452892023,0.159117437422,-0.000427710341329,-0.0157056687776,0.000542062953435,-0.0115973529643,0.000205062269296,0.0125518193592,-0.00041181508544,0.573849585583,0.818945470977,0.00239073072203,0.0,0.81890824523,-0.573789501476,-0.0116464926574,0.0,-0.00816622345046,0.00864129045694,-0.999929317949,0.0,0.661578935418,0.260767899172,0.303550537498,1.0,-0.00268,-0.00352228571429,0.135
0.464972626158,0.546429835,-0.123982857199,-1.35722206561,0.07941109482,1.89466090846,0.159082556582,-0.00335696714835,-0.0194577320354,-0.000431793952296,-0.0250291182576,-0.00118704221534,0.00465966179993,-0.00962720593944,0.57387542978,0.818927341852,0.00239724069143,0.0,0.818890110507,-0.573815223804,-0.0116543016091,0.0,-0.00816861030509,0.00865136060493,-0.999929211377,0.0,0.661536033855,0.260703476942,0.303558703375,1.0,-0.00302,-0.00396914285714,0.152
0.46493980683,0.546143282626,-0.123983566919,-1.3576543309,0.0793867515141,1.89481796395,0.158937245861,-0.00251547230865,-0.0194638152443,0.000363973813645,-0.0279253801058,-0.00155384591226,0.0137943392051,-0.00855157184845,0.573801487774,0.818979118593,0.0024089081,0.0,0.818942012631,-0.573741221533,-0.0116506464868,0.0,-0.00815970341454,0.00865808103021,-0.999929225932,0.0,0.661485807182,0.260640527433,0.303569486138,1.0,-0.00336,-0.004416,0.169
0.464892317011,0.545871474491,-0.123982478543,-1.35811825089,0.0793599637512,1.89498019936,0.158924487292,-0.00545353129066,-0.0171026573953,0.000159229959473,-0.0282887492711,5.91376112493e-05,0.0114750037482,-0.00175187702795,0.573842767309,0.818950269631,0.00238352246507,0.0,0.818912805239,-0.573782556575,-0.0116679941491,0.0,-0.00818804098597,0.0086476576139,-0.999929084487,0.0,0.661427951724,0.260562495279,0.30355792177,1.0,-0.0037,-0.00486285714286,0.186
0.464840490382,0.54554380427,-0.123982717658,-1.35865845462,0.0792985566873,1.89516581956,0.158869435209,-0.00240235012011,-0.0210640282516,0.000316411180728,-0.0406723118232,-0.00653339513067,0.0130479186244,-0.00262927711363,0.573859346061,0.818938766516,0.00234404293562,0.0,0.818901019914,-0.573799518459,-0.0116610077043,0.0,-0.00820479852576,0.00861148320403,-0.999929259317,0.0,0.661371092296,0.26047333336,0.30354600366,1.0,-0.00402,-0.00528342857143,0.202
0.46476452315,0.545132649736,-0.123980048463,-1.35937044595,0.0792612814283,1.89540082748,0.158753119241,-0.00434478692902,-0.0270482920306,0.0016648978972,-0.0415778221396,-0.000247358652799,0.00953359475871,-0.00498587376221,0.573854197205,0.818942522822,0.0022916294055,0.0,0.818903987241,-0.573794448839,-0.011702011117,0.0,-0.00826850946898,0.00859203807601,-0.999928901789,0.0,0.661286503869,0.260355435529,0.303518422285,1.0,-0.0044,-0.00578285714286,0.221
0.464705234569,0.544786810095,-0.123983541469,-1.35997510469,0.0792390104222,1.89559896268,0.158700304617,-0.00485268277328,-0.0188918500878,0.000910349250678,-0.0382741713337,-0.00103144284908,0.0178250840206,-0.000596661652098,0.573889680053,0.818917783668,0.00224624635829,0.0,0.818878512827,-0.573829946369,-0.0117439678605,0.0,-0.00832854105472,0.00857931001365,-0.999928512867,0.0,0.66121365329,0.260256814117,0.303492693977,1.0,-0.0047,-0.00617714285714,0.236
0.464638520762,0.54435447025,-0.123991745833,-1.36071173524,0.0792032285326,1.89585299263,0.158596076044,-0.00225284376839,-0.0268056165542,-8.54742092398e-05,-0.0451354531387,-0.000398136807166,0.0134156838386,-0.012448954954,0.57389622354,0.818913308413,0.00220563199695,0.0,0.818873439769,-0.57383657206,-0.0117739164531,0.0,-0.00837630584106,0.00856330451906,-0.999928251084,0.0,0.661127583395,0.260137637078,0.303470326868,1.0,-0.00504,-0.006624,0.253
0.464561725873,0.54385900282,-0.123989934077,-1.36153001786,0.0791691791086,1.89614729399,0.158516835811,-0.00657474113602,-0.0262048389174,-7.30821953934e-05,-0.0430594392271,-0.000483446540007,0.01899289709,-0.00267475188721,0.573929495399,0.818890034721,0.00218912012681,0.0,0.818849788703,-0.573869737597,-0.0118023181201,0.0,-0.00840869279582,0.00856642396671,-0.999927952538,0.0,0.661032552515,0.260011755379,0.303456893712,1.0,-0.0054,-0.00709714285714,0.271
0.464490209968,0.543308678158,-0.12399572392,-1.36240993056,0.0791129152875,1.89644328804,0.158381354834,-0.00193970144583,-0.0297517745122,-0.00100060020793,-0.046670291077,-0.00415954212188,0.0147244437518,-0.00366623938203,0.573915006913,0.818900271365,0.00215807758795,0.0,0.81885962787,-0.573855378499,-0.0118178388077,0.0,-0.00843936945954,0.00854976226103,-0.9999278367,0.0,0.660926605756,0.259874890852,0.303453235384,1.0,-0.00576,-0.00757028571429,0.289
0.464423347328,0.542871248255,-0.123996412484,-1.36312441598,0.0790700359434,1.89670274201,0.158302334746,-0.00444440483318,-0.0308723042603,-0.000137689370781,-0.0503180601568,-0.0041096593309,0.0166170252063,-0.00291106432345,0.573933863813,0.818887097072,0.00214222259741,0.0,0.81884623545,-0.573874283427,-0.0118277813355,0.0,-0.00845641387681,0.00854267962469,-0.999927753235,0.0,0.66084524944,0.259761904556,0.303445079315,1.0,-0.00604,-0.00793828571429,0.303
0.464360796693,0.542286211763,-0.123996476453,-1.36403030926,0.0790179604339,1.8970292724,0.158184010067,-0.00439838495413,-0.0339518015799,0.00157649808811,-0.0508581874973,-0.00158910146726,0.0188396402797,-0.00809276810234,0.573924640436,0.818893544661,0.00214860759913,0.0,0.818852722644,-0.573864992082,-0.011829470941,0.0,-0.00845422947759,0.00854878262936,-0.999927719548,0.0,0.660736202398,0.259634419496,0.303455953467,1.0,-0.00638,-0.00838514285714,0.32
0.464263889611,0.541600494422,-0.124000243008,-1.36508425605,0.078948693681,1.8974218149,0.158037366925,-0.00806822906466,-0.0424141788956,5.9658269863e-05,-0.0549161798152,-0.00648325049656,0.0215698407498,-0.017379241048,0.573926590535,0.818892134347,0.00216515174271,0.0,0.818851590652,-0.573866940863,-0.0118132795177,0.0,-0.0084314550024,0.008553057858,-0.999927875283,0.0,0.66061940748,0.259467543245,0.303473294013,1.0,-0.00676,-0.00888457142857,0.339
0.4641956712,0.54098868567,-0.124004426836,-1.36602858804,0.0789012882486,1.89776873231,0.15792146038,-0.00442528898051,-0.0364271975939,0.00045566759868,-0.0603189561872,-0.00330905536554,0.0184268088971,-0.0128122328321,0.573930172286,0.818889580563,0.00218153310326,0.0,0.81884917328,-0.573870380254,-0.0118137626006,0.0,-0.0084224120269,0.00856678631999,-0.99992783397,0.0,0.660508107153,0.259331865,0.303486546991,1.0,-0.00708,-0.00930514285714,0.355
0.464106221324,0.540295472903,-0.124002719383,-1.36709413126,0.078837811541,1.89816217448,0.157787575921,-0.00619807202042,-0.0384190490966,0.000181483489121,-0.0631008912979,-0.000443110035101,0.0212610358817,-0.00712277197673,0.573934642855,0.818886397157,0.00220026896433,0.0,0.818846207376,-0.573874750574,-0.0118070411607,0.0,-0.00840610843769,0.00857831700756,-0.999927872308,0.0,0.660385128233,0.259172825262,0.303503374931,1.0,-0.00742,-0.009752,0.372
0.464016154405,0.539653103611,-0.124007447532,-1.36807007859,0.0787778842124,1.89853214146,0.157661316948,-0.0026323686524,-0.0496228351959,-0.00135853098845,-0.0689064554537,-0.000967905760643,0.0336437105768,-0.00135160252295,0.573946342999,0.818878118258,0.0022292818155,0.0,0.818838342323,-0.573886374466,-0.011787503804,0.0,-0.00837333568784,0.00859098153076,-0.999928038554,0.0,0.660278078361,0.259018605265,0.303524990801,1.0,-0.00772,-0.0101462857143,0.387
0.463916600497,0.538909096111,-0.124005941881,-1.36922505002,0.0787102397985,1.89896959226,0.15752463265,-0.00582515746813,-0.045348679142,0.000689472387238,-0.0671333378035,-0.00170179926039,0.0296215077002,-0.0131939033243,0.573960692194,0.818867997371,0.0022524648298,0.0,0.81882850056,-0.573900610049,-0.0117780880017,0.0,-0.00835216920001,0.00860470760862,-0.999928097553,0.0,0.660147040588,0.25884516032,0.3035387546,1.0,-0.00806,-0.0105931428571,0.404
0.463802099457,0.538141582936,-0.12401160832,-1.37042659578,0.078647588095,1.89943405608,0.157377018431,-0.00952529276131,-0.0418044170007,-0.000763507037949,-0.0694465793106,-0.00508857656365,0.0209345483713,-0.00428564372923,0.573987267799,0.818849290294,0.00228102836365,0.0,0.818810120998,-0.573927028287,-0.0117685535611,0.0,-0.00832768823494,0.0086228950324,-0.999928145063,0.0,0.660016225214,0.258655117677,0.303549421715,1.0,-0.0084,-0.01104,0.421
0.46369975022,0.537390749853,-0.124017963304,-1.37158786151,0.0785772882623,1.89987870395,0.157234985448,-0.00584263232971,-0.0464727916079,9.96683227152e-05,-0.0728007192622,-0.00429170556539,0.0217493568734,-0.00255980044592,0.574006997623,0.818835392698,0.0023050481512,0.0,0.818796546047,-0.573946675667,-0.0117548531947,0.0,-0.00830247495652,0.00863489970303,-0.999928251134,0.0,0.659878272632,0.258461767348,0.303563203241,1.0,-0.00874,-0.0114868571429,0.438
0.463583663014,0.536560205492,-0.124025840086,-1.37290189658,0.0784930412698,1.90036129012,0.157077150286,-0.00553064317598,-0.0502086207122,3.73637426572e-05,-0.0745943875655,-0.0100066974935,0.0319627270162,-0.00826434594041,0.574025627232,0.818822343137,0.00230142605416,0.0,0.818783542874,-0.573965413778,-0.0117456633008,0.0,-0.0082968323279,0.0086268476153,-0.999928367471,0.0,0.659737508329,0.258267570053,0.303568603932,1.0,-0.00906,-0.0119074285714,0.454
0.463471118596,0.535703553984,-0.124041503789,-1.37424158104,0.0784170347743,1.90085825804,0.156905154765,-0.0107402517286,-0.056172243819,-0.00213948397647,-0.0861905233461,-0.00575624090946,0.0309109318932,-0.00619087918673,0.574041245186,0.81881136536,0.00231164067132,0.0,0.81877271705,-0.573981011525,-0.0117381056483,0.0,-0.00828461596632,0.00863103126986,-0.999928432658,0.0,0.659585188568,0.258057880796,0.303579151161,1.0,-0.0094,-0.0123542857143,0.471
0.463353274581,0.534803681304,-0.12403721646,-1.37563864272,0.078339529906,1.90137414686,0.156730669379,-0.00662984756048,-0.0550991292013,3.83613343149e-05,-0.0832065871325,-0.00774774579255,0.0318031969705,-0.0080663566854,0.574047723967,0.818806765331,0.00233207152118,0.0,0.818768285143,-0.573987311587,-0.0117391772161,0.0,-0.00827369755542,0.00864844067166,-0.999928372636,0.0,0.659421022346,0.257851094029,0.303593704428,1.0,-0.00974,-0.0128011428571,0.488
0.463224469466,0.533907877513,-0.124038175149,-1.37711129883,0.0782579087084,1.90190212762,0.156557020092,-0.00973684841544,-0.0503050756073,0.00215548225094,-0.0852185788438,-0.0030972619645,0.0339191003387,-0.00803615033063,0.574070454388,0.818790939326,0.00229302826516,0.0,0.818751847643,-0.574010077758,-0.0117724047834,0.0,-0.00832307728295,0.0086357771575,-0.999928072282,0.0,0.659245485101,0.257625185981,0.303570461702,1.0,-0.01008,-0.013248,0.505
0.463097140561,0.533040259063,-0.124040650982,-1.37851484552,0.0781805484478,1.90243743871,0.156378868894,-0.00884168391287,-0.0483338419959,0.000271498536095,-0.0892916276269,-0.000262732479683,0.0384446055675,-0.00922400886219,0.574086765722,0.818779500166,0.00229399919926,0.0,0.81874036935,-0.574026329677,-0.0117782568876,0.0,-0.0083271396699,0.00864009750282,-0.999928001138,0.0,0.659086118243,0.257408401392,0.303560750478,1.0,-0.0104,-0.0136685714286,0.521
0.46297365172,0.532078366143,-0.124044254494,-1.38005484845,0.0780856258212,1.90302642856,0.15618939483,-0.00564496177111,-0.056361617871,0.00229099272595,-0.0945381416903,-0.00253384637542,0.0346989916121,-0.00647636592001,0.574094026826,0.818774394115,0.00229930536002,0.0,0.818735370158,-0.574033609055,-0.0117709909526,0.0,-0.00831806757977,0.00864034457414,-0.999928074512,0.0,0.658908031193,0.25717935989,0.303557045114,1.0,-0.01074,-0.0141154285714,0.538
0.462844833632,0.531075721711,-0.124049155322,-1.38165999685,0.0779990001877,1.90359252015,0.155986445776,-0.0119946380316,-0.0640173445944,0.000465007960874,-0.10209771908,-0.00494518165269,0.0313065083664,-0.00803427904147,0.574100866206,0.818769672393,0.00227285989787,0.0,0.81873017445,-0.574040413691,-0.0118004998093,0.0,-0.00835733883158,0.00863570240691,-0.999927787158,0.0,0.658712032212,0.256938675773,0.30354891094,1.0,-0.01108,-0.0145622857143,0.555
0.462712297417,0.530056640198,-0.124047455404,-1.38329348538,0.0778912428596,1.90417319163,0.155768259012,-0.00643729172975,-0.06536723239,6.62640961097e-05,-0.0973076177002,-0.00414191768727,0.0331250881768,-0.0191517399989,0.574089258149,0.818777903471,0.00223950137474,0.0,0.818737983054,-0.574028947638,-0.0118164834073,0.0,-0.00838969842094,0.00861744694438,-0.999927673669,0.0,0.658512920777,0.256693844208,0.30353965803,1.0,-0.01142,-0.0150091428571,0.572
0.462550385313,0.528890341784,-0.124052099159,-1.38514957704,0.0777754781234,1.90484793042,0.155521880642,-0.00742262088505,-0.0622796489704,-0.00130365194178,-0.101034847035,-0.00418083908271,0.036254768795,-0.0134953966968,0.574092901048,0.81877539383,0.00222313406067,0.0,0.818735268162,-0.574032661604,-0.0118241693471,0.0,-0.00840534918098,0.00860849568452,-0.999927619334,0.0,0.658293350167,0.256406601486,0.303536256871,1.0,-0.0118,-0.0155085714286,0.591
0.462439614581,0.527996004893,-0.124049944289,-1.38654932482,0.0776872795395,1.90539046231,0.155337834734,-0.00691958689682,-0.0652684920787,-1.4781730066e-05,-0.0960839861992,-0.0020098519451,0.0388536175382,-0.0104646976863,0.574083599044,0.818781837393,0.00225188036363,0.0,0.818742119753,-0.574023284286,-0.0118049710198,0.0,-0.00837322531036,0.00862091553135,-0.999927781849,0.0,0.658130341348,0.256203074294,0.303546633925,1.0,-0.01208,-0.0158765714286,0.605
0.462271360878,0.526705171453,-0.124055559714,-1.3885091572,0.0775605321505,1.90615018028,0.155060900146,-0.00881326981787,-0.0785758423485,-0.00130372083578,-0.102862786411,-0.00750455793436,0.0382642856817,-0.013227498989,0.57407047932,0.818790838612,0.00232255889356,0.0,0.818752160574,-0.574010022208,-0.0117533340199,0.0,-0.00829050975458,0.00864900872681,-0.999928228472,0.0,0.657908091057,0.255904449404,0.303588309581,1.0,-0.01246,-0.016376,0.624
0.462125792899,0.525619951266,-0.124053851148,-1.39022309828,0.0774636245585,1.9067740987,0.154829822457,-0.00547453123711,-0.0649931361402,-0.0029199489476,-0.106262656306,-0.00438223562645,0.0468625807641,-0.00745444592141,0.574069812709,0.818791322791,0.00231662659277,0.0,0.81875246318,-0.574009269126,-0.0117690226727,0.0,-0.00830676843586,0.00865315097059,-0.9999280577,0.0,0.657689626822,0.25562836437,0.303586364511,1.0,-0.0128,-0.0168228571429,0.641
0.461981789983,0.524540594668,-0.124067376219,-1.39195778297,0.0773398601137,1.90739144134,0.154599037849,-0.00900293800345,-0.0742561457911,-0.00144461034975,-0.108252454466,-0.00524086163228,0.0382490970056,-0.0161184060414,0.574063820605,0.818795636583,0.00227646356389,0.0,0.818756412807,-0.57400359397,-0.0117710449306,0.0,-0.00833154236798,0.00862136615484,-0.999928126141,0.0,0.657492111502,0.255374777024,0.303577437573,1.0,-0.0131,-0.0172171428571,0.656
0.461834893935,0.523413461271,-0.124074833049,-1.3937519861,0.0772270207745,1.90803604906,0.154349756585,-0.0120249998908,-0.0702701773042,0.000901524791359,-0.11235585088,-0.00889079361491,0.0376050734949,-0.0175993889899,0.574051037213,0.818804662926,0.0022533411942,0.0,0.818765151274,-0.573990913492,-0.0117815614073,0.0,-0.00835356087834,0.00860834052683,-0.999928054659,0.0,0.657273891959,0.255101218646,0.30357199607,1.0,-0.01342,-0.0176377142857,0.672
0.461668424848,0.522107743078,-0.124077990574,-1.39581427075,0.0771038753079,1.90884342602,0.154072100302,-0.00400162789169,-0.0748937267728,0.000455489812305,-0.113816071546,-0.00569558747375,0.0420933125145,-0.0164527967977,0.57403977473,0.818812445261,0.00229421333337,0.0,0.81877348881,-0.57397952179,-0.0117571037241,0.0,-0.00831019137445,0.00862765233731,-0.999928249593,0.0,0.657033735084,0.254797184678,0.303578142636,1.0,-0.01378,-0.0181108571429,0.69
0.461505483036,0.520869982804,-0.124087099939,-1.39780843592,0.0769843987918,1.90960648108,0.153804552984,-0.0104905767449,-0.0721044546329,0.00118859985501,-0.116144798907,-0.0112845980531,0.0458713156209,-0.0181857190962,0.574035097944,0.818815718847,0.00229603960267,0.0,0.818776812882,-0.573974866476,-0.0117528822956,0.0,-0.0083057356522,0.00862667701808,-0.999928295029,0.0,0.656798530243,0.254496836265,0.30356496608,1.0,-0.01412,-0.0185577142857,0.707
0.46134599771,0.519647216283,-0.124091117386,-1.39973968205,0.076856840774,1.91030723166,0.15354210346,-0.0101439843798,-0.0744648246563,-0.000682008241627,-0.122950949239,-0.0142583522653,0.0476812046571,-0.0225095310793,0.574021941519,0.818824979165,0.00228277293442,0.0,0.818785956376,-0.573961819384,-0.0117530605295,0.0,-0.00831363509972,0.00861578292473,-0.999928323309,0.0,0.656563062593,0.254203556614,0.303565247547,1.0,-0.01444,-0.0189782857143,0.723
0.461173195099,0.518301287747,-0.124093029243,-1.40179982169,0.0767235511983,1.91104863512,0.153266234717,-0.0134042441872,-0.0767084591504,1.84692792158e-06,-0.12116623608,-0.0108769569088,0.0422303009243,-0.0190523838821,0.574012103622,0.818831821091,0.00230229567972,0.0,0.818793071781,-0.573951929817,-0.0117403051104,0.0,-0.00829208801374,0.00862434703076,-0.999928428396,0.0,0.656311026083,0.253890964213,0.303593691436,1.0,-0.01478,-0.0194251428571,0.74
0.460997344352,0.51693001344,-0.12409470494,-1.40394818896,0.0765863618321,1.91181408826,0.152976027299,-0.0125863876318,-0.0874809414267,0.00172902444508,-0.119246486085,-0.0052608612573,0.0356356629327,-0.0121819590234,0.573996169666,0.818843027395,0.00228923504202,0.0,0.818804095192,-0.57393603321,-0.0117486331426,0.0,-0.00830657177841,0.00861827137837,-0.999928360566,0.0,0.65604374543,0.253567436408,0.303599619387,1.0,-0.01512,-0.019872,0.757
0.460827911788,0.515672681423,-0.124105449142,-1.40597393699,0.076465181618,1.91259010074,0.152690082194,-0.00989776819442,-0.0791693937166,-0.00147679326522,-0.133082054982,-0.00888220800245,0.0556784256141,-0.025648079749,0.573982965324,0.818852275828,0.00229189670396,0.0,0.818813405497,-0.573922848805,-0.0117438281166,0.0,-0.00830124831949,0.00861755894658,-0.999928410915,0.0,0.655803450006,0.253259171384,0.303584868735,1.0,-0.01544,-0.0202925714286,0.773
0.460622430639,0.51411139024,-0.124101012794,-1.40846092023,0.0763162074538,1.91349789121,0.152358840764,-0.00835374185146,-0.0827976324245,0.000727703040515,-0.132441929571,-0.0045438778024,0.0477376741029,-0.0116230362197,0.573967561339,0.818863110964,0.0022783621467,0.0,0.818823957501,-0.573907386656,-0.0117637181315,0.0,-0.00832546625126,0.00861773603594,-0.999928208042,0.0,0.655494330262,0.25288993088,0.303574178478,1.0,-0.01582,-0.020792,0.792
0.460441376869,0.512783884744,-0.12410718209,-1.41060370861,0.0761891616356,1.91423101544,0.152058577006,-0.011018620844,-0.0846719040695,-0.00117060384191,-0.131654077035,-0.011040828912,0.0397769484571,-0.0134963366881,0.573952234951,0.818874040179,0.00221025266509,0.0,0.818833869318,-0.573892188357,-0.0118151386571,0.0,-0.00840682544607,0.00859132038997,-0.99992775464,0.0,0.65522006822,0.252560105356,0.303548208253,1.0,-0.01614,-0.0212125714286,0.808
0.460224630937,0.511272000548,-0.124112745746,-1.41304081104,0.0760329085953,1.91514351774,0.151711963205,-0.0143032833254,-0.0846947197667,-0.000733310837486,-0.140729449052,-0.0160940363208,0.055638049364,-0.0200639561941,0.57393527502,0.818885976303,0.00219198603534,0.0,0.818845623653,-0.573875358727,-0.0118179596558,0.0,-0.00841979676549,0.00857780724675,-0.999927761513,0.0,0.654925996111,0.252182208441,0.303526389937,1.0,-0.0165,-0.0216857142857,0.826
0.46002658035,0.509808577713,-0.124110734941,-1.41536250917,0.075895821588,1.91601783251,0.151392982352,-0.0188513021516,-0.0840232540404,-0.00059120012211,-0.13856343093,-0.0112807869836,0.0498298743656,-0.0179543904208,0.57391907676,0.818897288407,0.00220709555251,0.0,0.818857056717,-0.573859026393,-0.0118188575274,0.0,-0.00841203063402,0.00859052896283,-0.999927717664,0.0,0.65464209029,0.251834589335,0.303521508001,1.0,-0.01684,-0.0221325714286,0.843
0.459849816922,0.508479667003,-0.124112482896,-1.41744694818,0.075762924937,1.91675950242,0.151089561328,-0.0104066563374,-0.083725526259,-0.00010374038351,-0.133491091332,-0.00790979642316,0.0477074662393,-0.0282433996195,0.573888836361,0.818918519304,0.00219297591544,0.0,0.818878076816,-0.573828817321,-0.0118292275223,0.0,-0.00842894299435,0.00858460679823,-0.999927626104,0.0,0.654379205563,0.25151692034,0.303523542447,1.0,-0.01714,-0.0225268571429,0.858
0.45963390466,0.506960923331,-0.124116696668,-1.41984189613,0.0756011829146,1.91762863966,0.150761095044,-0.00901595686682,-0.0901448154111,-0.000228345638764,-0.138291442283,-0.00914517237145,0.0548634517502,-0.0206435160708,0.573879841306,0.818924863864,0.00217761083475,0.0,0.81888430444,-0.573819968069,-0.0118273872062,0.0,-0.00843634730388,0.00857087544263,-0.999927681454,0.0,0.654083618084,0.251141918463,0.303521243015,1.0,-0.01748,-0.0229737142857,0.875
0.459422662759,0.505454948914,-0.124127337609,-1.42215668319,0.075452041777,1.91850278425,0.150451113072,-0.0138860699136,-0.0996338668883,-0.00108755792554,-0.141449465219,-0.011287170735,0.0561185644481,-0.0235084364361,0.573885859878,0.818920515943,0.00222605051161,0.0,0.818880687044,-0.573825900038,-0.0117899844634,0.0,-0.00837785602103,0.00858914051162,-0.999928016506,0.0,0.653806539617,0.25077794762,0.303548244812,1.0,-0.0178,-0.0233942857143,0.891
0.459199705336,0.503814829952,-0.124126266369,-1.42463501067,0.0753021782772,1.91945787904,0.150102083591,-0.0154582343467,-0.0979610709923,-0.00526112997999,-0.144268911031,-0.00790932049349,0.0563504740335,-0.0230324751635,0.573869129685,0.818931961313,0.00232629238662,0.0,0.818893427031,-0.573808782969,-0.0117380856372,0.0,-0.00827800586698,0.00864127690488,-0.999928398913,0.0,0.653509278687,0.250400934382,0.303597204635,1.0,-0.01814,-0.0238411428571,0.908
0.458971003835,0.502139489617,-0.124131339915,-1.42711434201,0.0751329530395,1.92037821329,0.14975302508,-0.0119534356581,-0.100420317067,0.00567421821019,-0.145774052701,-0.0100804179448,0.0506344850427,-0.018874651493,0.573855256698,0.818941421338,0.00241654246658,0.0,0.818904200025,-0.573794728787,-0.0116733585004,0.0,-0.00817335483532,0.00867790199071,-0.999928942619,0.0,0.653208530582,0.250011626909,0.303666731983,1.0,-0.01848,-0.024288,0.925
0.458732402528,0.500426872509,-0.12413237035,-1.4297012371,0.0749761275455,1.92128938946,0.149387994016,-0.0147285748748,-0.103838407154,-0.00100453411643,-0.155104565358,-0.0075810566414,0.0555519807213,-0.0226742085154,0.573841915373,0.818950663987,0.00245214568043,0.0,0.818913787807,-0.573781136559,-0.011668863289,0.0,-0.00814938530387,0.00870434635302,-0.99992890841,0.0,0.65288080912,0.249607474751,0.303709574937,1.0,-0.01882,-0.0247348571429,0.942
0.458474238102,0.498643539066,-0.124135215748,-1.43247786678,0.0747957783826,1.92230280236,0.149004419531,-0.0116861132442,-0.0965036088561,0.000832478653708,-0.158048327895,-0.0188982913231,0.058804547894,-0.0195085091781,0.573833641311,0.818956427128,0.00246362877266,0.0,0.818919724323,-0.573772848506,-0.0116597741494,0.0,-0.00813544031238,0.00870845251704,-0.999928986211,0.0,0.652534942267,0.249171168642,0.303719741043,1.0,-0.01918,-0.025208,0.96
0.458241795448,0.497161222219,-0.124135488683,-1.43481377473,0.0746576115293,1.92316758587,0.148651512022,-0.0161640395271,-0.10157995354,-2.23913920457e-05,-0.15726979165,-0.0091821993814,0.0559629558724,-0.0221507075399,0.573816470077,0.818968421866,0.00247579407724,0.0,0.818931783576,-0.573755535985,-0.0116647193156,0.0,-0.00813269279114,0.00872108242939,-0.999928898487,0.0,0.652247506261,0.248798236926,0.303716270292,1.0,-0.01948,-0.0256022857143,0.975
0.457959381792,0.495397236472,-0.124133436815,-1.43765875988,0.0744869590014,1.92414845249,0.148232452761,-0.0111539811178,-0.101016466555,0.00628640452851,-0.155757202384,-0.0130436208668,0.0530481597883,-0.0180989325492,0.57380048921,0.81897985799,0.00239534758121,0.0,0.818941958147,-0.573739618531,-0.0117331247078,0.0,-0.00823504554966,0.00869429072796,-0.999928294096,0.0,0.651879966421,0.24834033234,0.303676254649,1.0,-0.01984,-0.0260754285714,0.993
0.457677962404,0.493717231306,-0.124139462563,-1.44042019438,0.0743096108858,1.92512939405,0.147851048796,-0.0140104398134,-0.0952515783427,-0.00246152320041,-0.165571053003,-0.00614358111673,0.0512785920256,-0.0202409214447,0.573813800314,0.818970794377,0.00230378558508,0.0,0.81893166368,-0.573753229044,-0.0117859783589,0.0,-0.00833072803294,0.00864976652928,-0.999927887655,0.0,0.65153101847,0.247886213459,0.303617150906,1.0,-0.0207205714286,-0.0272327510204,1.01
0.45738629261,0.491793365201,-0.12414120153,-1.4435007387,0.0741198395638,1.92628058648,0.147418081399,-0.0149388564902,-0.105355837669,-0.000204778360167,-0.171154062928,-0.00717551834406,0.0676865270216,-0.0183231060045,0.573802629942,0.818978640497,0.00229677632973,0.0,0.818939368151,-0.573742034438,-0.0117955971775,0.0,-0.00834274563993,0.00864943176681,-0.999927790356,0.0,0.651145803015,0.247402893975,0.303589755467,1.0,-0.0222017142857,-0.0291793959184,1.028
0.457085758826,0.489981928221,-0.124146561951,-1.44644492897,0.0739321150146,1.92728919158,0.146991019848,-0.0172872155332,-0.111271417285,-0.0029022834406,-0.191886887082,-0.0138544614935,0.0586784520666,-0.0211147241607,0.573798540657,0.818981802039,0.00218850853054,0.0,0.818941000195,-0.57373824402,-0.0118664421696,0.0,-0.00846293208818,0.00860137216771,-0.999927194938,0.0,0.650763550611,0.246917417401,0.303536028506,1.0,-0.0235182857143,-0.0309097469388,1.044
0.456750574741,0.487895910652,-0.124157099344,-1.44970719909,0.073727888711,1.92849880886,0.146522438779,-0.0220873190273,-0.127593077261,0.000548919828903,-0.194441274273,-0.01854745284,0.0741609932781,-0.0357543519282,0.573803720539,0.818978107748,0.00221274172215,0.0,0.818937624995,-0.573743331019,-0.0118534121973,0.0,-0.00843830174881,0.0086137953128,-0.999927296154,0.0,0.650360104286,0.246383262468,0.303538390283,1.0,-0.0249171428571,-0.032748244898,1.061
0.456396292818,0.485663298206,-0.124173648243,-1.45308811885,0.0735203598172,1.92981310322,0.146031482143,-0.023218211106,-0.138636582896,-0.00177799499591,-0.20149425891,-0.0130564968319,0.0844891311075,-0.0269436435527,0.573815103884,0.818969750476,0.00234973650684,0.0,0.818931144832,-0.573754282844,-0.0117707197606,0.0,-0.00829185168475,0.00867865628085,-0.999927960466,0.0,0.649956769524,0.245827665919,0.303594158417,1.0,-0.026316,-0.0345867428571,1.078
0.456033446656,0.483486983567,-0.124212798414,-1.45644497804,0.0733079494801,1.930973779,0.145515338018,-0.0235654065724,-0.136007994837,-0.00351235011608,-0.208454040441,-0.00863513647424,0.0730778850526,-0.0258126361413,0.57382490624,0.818962948768,0.00232646193593,0.0,0.818924061523,-0.573764193903,-0.0117804140816,0.0,-0.0083130421485,0.00866525749647,-0.999927900722,0.0,0.649532434116,0.245244753006,0.303608594416,1.0,-0.0276325714286,-0.0363170938776,1.094
0.455637254739,0.481018758839,-0.124248082221,-1.46025215576,0.0730723354794,1.93231047019,0.144951140129,-0.0242596196722,-0.147742709982,0.000470356775259,-0.230932441482,-0.0135474855774,0.0863023580585,-0.0363440399235,0.573834957324,0.818955920746,0.00232132063535,0.0,0.818916929956,-0.573774225035,-0.0117875959648,0.0,-0.00832176777793,0.00866527022885,-0.999927828032,0.0,0.649046731892,0.244601430071,0.303625097057,1.0,-0.0290314285714,-0.0381555918367,1.111
0.455258471726,0.478794441903,-0.124259095743,-1.46369883347,0.0728650841449,1.93359328146,0.144434962453,-0.0242036800862,-0.144223113888,0.000621922391802,-0.22935835801,-0.0178728156509,0.0798545121995,-0.0338710152376,0.573842320762,0.81895060927,0.00237431673885,0.0,0.818912233348,-0.573781309642,-0.0117690135596,0.0,-0.00827606159702,0.00869808254244,-0.999927922485,0.0,0.648619038883,0.244024126157,0.303637469712,1.0,-0.0302657142857,-0.0397777959184,1.126
0.454799725517,0.476129685137,-0.12427605514,-1.46774750284,0.0726106456667,1.93507718429,0.143855006376,-0.0272432966069,-0.165037023982,-0.000649348217147,-0.243776472922,-0.0182195200753,0.0881704444714,-0.0323538710563,0.573882194069,0.818922425926,0.00245653163249,0.0,0.818885120522,-0.573820875359,-0.0117264355265,0.0,-0.00819358964915,0.00874137804914,-0.999928224123,0.0,0.648115526964,0.243332495269,0.303684435306,1.0,-0.0316645714286,-0.0416162938775,1.143
0.454275717921,0.473051551961,-0.124287105668,-1.47253086453,0.0723078583184,1.93677532862,0.143174986223,-0.0269389991252,-0.169014163524,-0.000919470886362,-0.265181549652,-0.0174581660161,0.0860807582836,-0.0380669305659,0.573909878739,0.818903046498,0.00244916780247,0.0,0.818865521328,-0.573848451347,-0.0117456275976,0.0,-0.00821323720242,0.00874663917954,-0.999928016928,0.0,0.647497720287,0.242528019971,0.303684410001,1.0,-0.033228,-0.0436710857143,1.162
0.453849982502,0.470531958099,-0.124290706045,-1.47642163715,0.0720704724222,1.93815170155,0.142581260607,-0.0241184603728,-0.168783976378,-0.000264575860884,-0.260430607281,-0.0172406840969,0.0933225061616,-0.0402558293301,0.573896168746,0.818912622232,0.00245998954242,0.0,0.818875025625,-0.573834477053,-0.0117657237069,0.0,-0.00822363117099,0.00876689654741,-0.999927754098,0.0,0.646989863443,0.241878876015,0.303693086642,1.0,-0.0344622857143,-0.0452932897959,1.177
0.453327719424,0.467359687651,-0.124293182642,-1.48118566121,0.071760263807,1.9399983773,0.141798991921,-0.034211982195,-0.173198898903,-0.0031352386874,-0.270342681201,-0.0120309520482,0.0983948310183,-0.0440872300444,0.573826970745,0.818960457217,0.0026690937505,0.0,0.818925736126,-0.573764713291,-0.0116378431445,0.0,-0.00799965555027,0.00886406850281,-0.99992871436,0.0,0.646399859207,0.241093587286,0.303775489453,1.0,-0.0359434285714,-0.0472399346939,1.195
0.452803557832,0.464268375568,-0.124294238329,-1.48596546716,0.0714301975561,1.94161221239,0.141086478299,-0.028329739243,-0.185908849086,-0.00195071270375,-0.286263762576,-0.021133877253,0.102888086414,-0.0479797211205,0.573807147861,0.818974577986,0.00259703254474,0.0,0.818938842189,-0.573745057241,-0.0116845601966,0.0,-0.0080794787249,0.00883166502264,-0.999928359292,0.0,0.645754185084,0.240287495896,0.303772188309,1.0,-0.0373422857143,-0.0490784326531,1.212
0.452313819454,0.461503180661,-0.124297827896,-1.49034591642,0.0711330545925,1.94314865148,0.140444990473,-0.0325474474716,-0.191337738634,-0.000554610795372,-0.296498506629,-0.0219508020998,0.0996175983405,-0.0411948436246,0.57380856946,0.818973821951,0.00252021308567,0.0,0.818937044333,-0.573746706501,-0.011729496941,0.0,-0.00816034409363,0.00879455103801,-0.999928029738,0.0,0.645171196067,0.239545417425,0.303725812146,1.0,-0.0385765714286,-0.0507006367347,1.227
0.451734334827,0.458254585062,-0.124298514578,-1.49538474169,0.0707991754963,1.94492466912,0.139685618892,-0.0299786677259,-0.19469825859,-0.000390657998121,-0.300687626278,-0.0155729395976,0.107993918478,-0.0482107614144,0.573803794469,0.818977217857,0.00250379416445,0.0,0.81894011959,-0.573741876691,-0.011751015201,0.0,-0.00818743980711,0.00879340390392,-0.999927818333,0.0,0.644502585871,0.238686793301,0.303717311172,1.0,-0.0399754285714,-0.0525391346939,1.244
0.451103084424,0.454970141331,-0.124317939046,-1.50064169294,0.0704465755001,1.94675268377,0.138861990925,-0.0335799038457,-0.199067591274,-0.000605030851711,-0.311089276118,-0.0186234845981,0.10452641025,-0.0523507383746,0.573805408205,0.818976486236,0.0023696853755,0.0,0.818937561889,-0.57374390696,-0.0118298713315,0.0,-0.00832895426828,0.00872883656941,-0.999927215318,0.0,0.643803107587,0.237760023267,0.303632606977,1.0,-0.0413742857143,-0.0543776326531,1.261
0.450462972663,0.451418723097,-0.124367929164,-1.50597982604,0.0700859439525,1.94869486556,0.138005041236,-0.0411709046898,-0.211357273269,-0.00623551739769,-0.321098523149,-0.0182371711686,0.12209222805,-0.0452269337006,0.573808908078,0.818973695936,0.00248380271218,0.0,0.818936509892,-0.573747247518,-0.0117403420868,0.0,-0.00819011406595,0.00877095846577,-0.999927993567,0.0,0.643117242469,0.236810426833,0.303699878078,1.0,-0.0427731428571,-0.0562161306122,1.278
0.449793923321,0.4477813196,-0.124391772203,-1.51145536611,0.0697113826262,1.95061598473,0.137194603015,-0.0464347158502,-0.219376101668,-0.00115725053001,-0.32903084695,-0.0151638790062,0.110510879583,-0.0464171615083,0.573854562955,0.818941526611,0.00254233547404,0.0,0.818905169736,-0.573792758356,-0.0117021510289,0.0,-0.00812476017072,0.00879743380507,-0.999928294144,0.0,0.642391130218,0.235840199292,0.303755057586,1.0,-0.044172,-0.0580546285714,1.295
0.449110457459,0.444088590659,-0.124399390962,-1.51713397709,0.0693269059852,1.95254156563,0.13633115422,-0.0428736055866,-0.219606826205,0.000608949943507,-0.334732541359,-0.0201086730285,0.117873093687,-0.0557378600548,0.573860530978,0.818937514637,0.00248696756985,0.0,0.818900263909,-0.573798738945,-0.0117521000856,0.0,-0.00819737460533,0.00878081385238,-0.999927847576,0.0,0.641610488437,0.234847210837,0.303748533041,1.0,-0.0455708571429,-0.0598931265306,1.312
0.448450509411,0.440575139074,-0.124405687044,-1.52257868426,0.0689380683981,1.95447577437,0.135440521493,-0.0434657923848,-0.218318490416,-0.00187371252225,-0.341814114951,-0.0257664362428,0.117421533694,-0.0582486261694,0.573809935352,0.818973016618,0.00247043393035,0.0,0.818935663798,-0.573748331221,-0.0117463987132,0.0,-0.00820273417169,0.00876349546132,-0.999927955555,0.0,0.640875413983,0.233895927242,0.303728364249,1.0,-0.0468874285714,-0.061623477551,1.328
0.447699645741,0.436748749074,-0.124412490538,-1.52849084264,0.0685529823007,1.95658138233,0.134487772297,-0.0485726605785,-0.229714633755,-0.000386822171544,-0.348960506274,-0.0292060070837,0.127525991327,-0.0486084239559,0.573803746085,0.818977301095,0.0024876037251,0.0,0.818939987027,-0.573741882189,-0.0117599817786,0.0,-0.00820407364839,0.00878528890482,-0.999927753327,0.0,0.640078741778,0.232848463577,0.303711328695,1.0,-0.0482862857143,-0.0634619755102,1.345
0.446914029919,0.432729715296,-0.124433775122,-1.53447484116,0.0681226859124,1.95876884364,0.133532517409,-0.0493824724696,-0.233972873816,0.000452753371901,-0.35779878038,-0.0269445170451,0.135274111871,-0.0657627282927,0.573821185646,0.818964566335,0.00265196023153,0.0,0.818929725066,-0.573759100964,-0.0116338456927,0.0,-0.00800627521986,0.00884768653765,-0.999928806466,0.0,0.639292191752,0.231763847177,0.303794654704,1.0,-0.0496851428571,-0.0653004734694,1.362
0.446099527875,0.428689841923,-0.124473840347,-1.54078553148,0.0676623612148,1.96081268471,0.132540223121,-0.0470369171363,-0.243564048481,-0.00553914054991,-0.383400842374,-0.0305401277208,0.113178953021,-0.0509350203015,0.573847260411,0.818946965612,0.00243641856109,0.0,0.818909304564,-0.573785919682,-0.0117480285513,0.0,-0.00822318799108,0.00873694804222,-0.999928019869,0.0,0.638398338212,0.230600011941,0.303721771337,1.0,-0.051084,-0.0671389714286,1.379
0.445322574124,0.424744130218,-0.124512141669,-1.54679467447,0.0672221916233,1.96284312241,0.13153898233,-0.0478663658647,-0.252875335947,0.00136456072844,-0.372101429303,-0.0293106522896,0.128323655219,-0.0575272160663,0.573824024072,0.818963399481,0.00238466136573,0.0,0.818925210793,-0.573763032018,-0.0117570879968,0.0,-0.00826055325953,0.0086995263501,-0.999928038161,0.0,0.637560462882,0.229498596615,0.303722748704,1.0,-0.0524005714286,-0.068869322449,1.395
0.444443692858,0.420491495008,-0.124529176735,-1.55324935123,0.0667823335162,1.96505948135,0.130495103118,-0.0543352323174,-0.254516875264,0.000321916415575,-0.383845867575,-0.0231494975347,0.135150266859,-0.0543098051593,0.573850812799,0.818944603537,0.00239330093138,0.0,0.818906363839,-0.573789612975,-0.0117726040717,0.0,-0.00826801854392,0.00871577558428,-0.999927834959,0.0,0.636664056422,0.228310662893,0.303731742029,1.0,-0.0537994285714,-0.0707078204082,1.412
0.443540097459,0.416131842852,-0.12454950754,-1.55971457757,0.0663414732873,1.96745132233,0.1294427644,-0.0536870082698,-0.25331126061,0.00196967169059,-0.383406798086,-0.0230552746098,0.136779515349,-0.0716778175398,0.573891204094,0.818915588595,0.00262517065382,0.0,0.818880515173,-0.573829330329,-0.0116339342033,0.0,-0.00802096458593,0.00882648354288,-0.999928876128,0.0,0.635801843773,0.227117752206,0.303818597509,1.0,-0.0551982857143,-0.0725463183673,1.429
0.442617966787,0.411683223265,-0.124565775164,-1.56646029602,0.0658658665958,1.96975074108,0.128271284214,-0.0557050173728,-0.266843308114,-0.00174262789747,-0.399184176129,-0.0240929831313,0.126315456297,-0.0676842989823,0.573843038287,0.818949362904,0.00261826472912,0.0,0.818914098446,-0.573781083045,-0.0116496783962,0.0,-0.00803834069157,0.00882939073919,-0.999928710928,0.0,0.634846932234,0.225875279158,0.303819878057,1.0,-0.0565971428571,-0.0743848163265,1.446
0.441563297921,0.406609041026,-0.124594144545,-1.57420510729,0.0653123854654,1.97225611486,0.127040861005,-0.0555212674959,-0.266751703255,0.000929863757693,-0.402665741708,-0.0272737198868,0.139047016399,-0.0671704233088,0.573877935903,0.818925373803,0.00246854756726,0.0,0.818887897885,-0.573816224871,-0.0117600031075,0.0,-0.00821423044419,0.00877043889587,-0.999927800303,0.0,0.63371388134,0.22443830425,0.303781670052,1.0,-0.0581605714286,-0.0764396081633,1.465
0.440740382065,0.402891549917,-0.124592380801,-1.57993329863,0.064927753418,1.974248579,0.126071915293,-0.0620069958495,-0.272020279701,-0.00210282446686,-0.406092107858,-0.0274933267392,0.140125592142,-0.0747839107121,0.573879505729,0.818924308323,0.00245703951171,0.0,0.818886394599,-0.57381753025,-0.0118009160341,0.0,-0.00825432357778,0.00878450921697,-0.999927346631,0.0,0.632899672314,0.223375549616,0.303737254696,1.0,-0.0593125714286,-0.0779536653061,1.479
0.439715610262,0.398115996628,-0.124605602076,-1.58685803121,0.0644325229799,1.97678332558,0.124868134154,-0.0620392846857,-0.286504397612,-0.00163736030413,-0.405469944204,-0.0353943582557,0.142835056643,-0.0703016280008,0.573877773945,0.818924528929,0.00276828307209,0.0,0.818890937732,-0.573814997276,-0.0116072349626,0.0,-0.00791711950953,0.00892822797886,-0.999928800447,0.0,0.631951584477,0.222071517838,0.303877997898,1.0,-0.0607114285714,-0.0797921632653,1.496
0.438593389531,0.393031618625,-0.124610591829,-1.59455449359,0.0638409415831,1.97928229285,0.123597999007,-0.0632416319081,-0.285753915863,-0.000409908815211,-0.437431034181,-0.0284347507313,0.136427462756,-0.0691383099867,0.573890783971,0.818915809773,0.00264791967598,0.0,0.818880621367,-0.573828379163,-0.0116733079312,0.0,-0.00804015975934,0.00886770468053,-0.999928357256,0.0,0.630813571104,0.220612857736,0.303851245058,1.0,-0.0621925714286,-0.0817388081633,1.514
0.437466629562,0.387881075725,-0.124621935736,-1.60239411989,0.0632589019574,1.98181136076,0.122246304197,-0.0573390995424,-0.282317172151,0.000272777364479,-0.443023679007,-0.0342614074235,0.135844088401,-0.0769244843394,0.573849698895,0.81894506526,0.00250001309155,0.0,0.818907701316,-0.573787556889,-0.0117797786792,0.0,-0.00821267333464,0.00880727198946,-0.99992748935,0.0,0.629635965069,0.219138612216,0.303797397322,1.0,-0.0636737142857,-0.0836854530612,1.532
0.436481729844,0.383508956828,-0.124624191042,-1.60888841221,0.0627824597753,1.98402272747,0.121045029156,-0.0663142072678,-0.303288851616,0.000149337122246,-0.428793664937,-0.0268247802199,0.148066313384,-0.0777679734047,0.573784283909,0.818990691858,0.00256692238732,0.0,0.818954143861,-0.57372184586,-0.0117516269909,0.0,-0.00815193061944,0.0088452609025,-0.999927651076,0.0,0.62868776442,0.217900878607,0.303827575229,1.0,-0.064908,-0.0853076571429,1.547
0.435401820126,0.378761549798,-0.124635136164,-1.61584287933,0.0622822371113,1.9864950892,0.119824407701,-0.0704362716725,-0.290206159759,-0.0014042472692,-0.440003335096,-0.0360280904674,0.1552869301,-0.0791989983237,0.573795290648,0.818982280594,0.00278125958642,0.0,0.818948617046,-0.573732209176,-0.0116302060959,0.0,-0.00792938717069,0.00895123851813,-0.999928497518,0.0,0.627693383116,0.21656569816,0.303907162574,1.0,-0.0662245714286,-0.0870380081633,1.563
0.434183663985,0.373691258156,-0.12467060824,-1.62361047879,0.061655510889,1.98895378683,0.118439609844,-0.0746188759161,-0.301504578458,-0.00450906886423,-0.466693097068,-0.0356663855953,0.146183644216,-0.087305550564,0.573788690794,0.818987686807,0.00254048752473,0.0,0.818950974146,-0.573726542309,-0.0117432319865,0.0,-0.00816017438555,0.00881883823036,-0.999927817218,0.0,0.626515306649,0.215025099754,0.303810527358,1.0,-0.0676234285714,-0.0888765061224,1.58
0.432958367437,0.368479293675,-0.12474177769,-1.631421013,0.0610650568576,1.9914220821,0.117124387,-0.068167301112,-0.304232475072,-0.00368025911213,-0.45960158642,-0.0301945299986,0.149661626722,-0.0777878441183,0.573880844758,0.818923509699,0.00241001756184,0.0,0.818885003034,-0.573819067032,-0.0118227330909,0.0,-0.00829915983269,0.00875853592094,-0.999927203348,0.0,0.62532712751,0.21346546084,0.303782248306,1.0,-0.0690222857143,-0.0907150040816,1.597
0.431685106388,0.363129574669,-0.124762204382,-1.63909635891,0.0604599478692,1.99412777953,0.115696773642,-0.0775754457207,-0.319256949101,-0.000160541957905,-0.452732363212,-0.0362866135497,0.156347762792,-0.0940258899863,0.573867598149,0.818931899447,0.00269643519507,0.0,0.818897630421,-0.573805350229,-0.0116119696748,0.0,-0.00796233674032,0.00887200835256,-0.999928941806,0.0,0.624216910603,0.211938328714,0.303920347123,1.0,-0.0704211428571,-0.0925535020408,1.614
0.430354173082,0.357788084737,-0.124767908119,-1.64702717192,0.0598823966038,1.99669909659,0.11422009041,-0.0753673640819,-0.312611801398,-5.31657082368e-05,-0.465957519028,-0.0403469248044,0.145429862744,-0.0788743428756,0.573863577382,0.818934751329,0.00268598590009,0.0,0.818899942996,-0.573800916917,-0.0116678193182,0.0,-0.0080141158362,0.00889546149989,-0.999928319787,0.0,0.623005846112,0.210355388423,0.303913741045,1.0,-0.07182,-0.094392,1.631
0.429057511716,0.3526969124,-0.124809135852,-1.65470177266,0.0592896325228,1.99909996373,0.112840124205,-0.0790701454552,-0.313195431449,-0.000681446962017,-0.481998848086,-0.0391533977669,0.151153375918,-0.0853681539024,0.57391750484,0.818897499786,0.00251582645728,0.0,0.818860255154,-0.573855202832,-0.0117828525241,0.0,-0.00820538634953,0.00882266547892,-0.99992741347,0.0,0.621813458999,0.208789803742,0.303842971141,1.0,-0.0731365714286,-0.0961223510204,1.647
0.427655374053,0.347179460438,-0.124837463037,-1.66277815051,0.0587038795771,2.00177967403,0.11127510374,-0.083049586549,-0.333762697019,-0.000558794911119,-0.474643033835,-0.0338144344222,0.16722471091,-0.092743977865,0.57390969206,0.81890264504,0.00262110810668,0.0,0.818866508618,-0.57384672161,-0.0117612950895,0.0,-0.00812739784144,0.0088964301709,-0.999927396832,0.0,0.620585102254,0.207148710327,0.303878396317,1.0,-0.0745354285714,-0.0979608489796,1.664
0.426225601832,0.341531976757,-0.124838240101,-1.67088852983,0.0580562577928,2.00444902556,0.109795510607,-0.0816117188811,-0.335260427599,-2.77191908467e-06,-0.492259931622,-0.0513906642896,0.148085504814,-0.085436234802,0.57394729574,0.818875788545,0.0027733641581,0.0,0.818841774688,-0.573883942265,-0.0116668649502,0.0,-0.0079622773781,0.00896728466504,-0.999928092387,0.0,0.619339267282,0.205499386049,0.303972819383,1.0,-0.0759342857143,-0.0997993469388,1.681
0.424855224789,0.336235720534,-0.124841435823,-1.67881762511,0.0574045725558,2.00686501564,0.108241985692,-0.0835092359264,-0.32865708635,-6.11992517343e-05,-0.498893174278,-0.0482412268665,0.149805685086,-0.0968341880135,0.573863303158,0.818935318791,0.00256901275189,0.0,0.818898416559,-0.573800433699,-0.0117979890662,0.0,-0.00818784694724,0.00887436430982,-0.999927099753,0.0,0.618059813843,0.203890323414,0.303894762341,1.0,-0.0772508571429,-0.101529697959,1.697
0.423391508552,0.330488410649,-0.124836017551,-1.68720833673,0.0567069907202,2.00955031179,0.106654161177,-0.0874244888488,-0.340818129127,-0.000693104030898,-0.483213478718,-0.0390397545501,0.165329228724,-0.0968134804575,0.573816476703,0.818968115537,0.00257365484353,0.0,0.818931374406,-0.573753705317,-0.0117828922416,0.0,-0.00817332641385,0.00886903516611,-0.99992726583,0.0,0.616724386303,0.202197383343,0.303907481589,1.0,-0.0786497142857,-0.103368195918,1.714
0.421863179557,0.324678325422,-0.124831138749,-1.69553005888,0.0560633691647,2.01238808044,0.104966811885,-0.0891924934768,-0.332446281454,4.54413393656e-05,-0.497971913673,-0.0400018553865,0.171162446414,-0.10160442347,0.573752889033,0.81901179127,0.00283813131997,0.0,0.818978578173,-0.573689294691,-0.0116373773756,0.0,-0.00790309589397,0.00900152095029,-0.999928254274,0.0,0.615438847337,0.200494382763,0.303997767138,1.0,-0.0800485714286,-0.105206693878,1.731
0.420252715076,0.318813258549,-0.12486222306,-1.70419304264,0.0553399649737,2.0149932069,0.103343427346,-0.094367553711,-0.349009887066,-0.00101372415156,-0.507103048136,-0.0434583334254,0.161746387173,-0.0984202702462,0.573812874377,0.818970400442,0.00264864120139,0.0,0.818934557269,-0.573749745583,-0.0117544568135,0.0,-0.00810705107396,0.00891409408446,-0.99992740469,0.0,0.614024169608,0.198663905622,0.303935187305,1.0,-0.0814474285714,-0.107045191837,1.748
0.418617036627,0.312853358582,-0.12490842768,-1.71289457092,0.0546329073403,2.01765446831,0.1015507944,-0.0970065659966,-0.351450596092,-0.00412015601848,-0.499929379784,-0.0382476055437,0.168017497667,-0.101721316027,0.573767554986,0.819002419779,0.00256439892697,0.0,0.818965279639,-0.573704522391,-0.0118211097217,0.0,-0.00821046828187,0.00888289392979,-0.999926838527,0.0,0.612605341703,0.196817695958,0.303911594714,1.0,-0.0828462857143,-0.108883689796,1.765
0.417020630813,0.307125255563,-0.124919926759,-1.72093660631,0.0539408817208,2.02034809405,0.0999038288517,-0.0995531174133,-0.349837636165,-0.000417514971636,-0.508298618156,-0.0353589642544,0.164071467304,-0.101068792301,0.573760109935,0.819006723541,0.00284076438346,0.0,0.818973791077,-0.573696786813,-0.011604879601,0.0,-0.00787488863622,0.00898510156338,-0.999928624492,0.0,0.611346867109,0.195093751311,0.304041469395,1.0,-0.0841628571429,-0.110614040816,1.781
0.415257961307,0.301068564189,-0.124961366487,-1.72981882241,0.0532059826932,2.02297873857,0.09807421401,-0.104598241785,-0.354117089463,-0.00269840591435,-0.527133398804,-0.0520157405527,0.148785772461,-0.098281587086,0.573767901234,0.819001865349,0.00266213609301,0.0,0.818966264942,-0.573704803776,-0.0117389058798,0.0,-0.0080870612488,0.00891577869864,-0.999927551541,0.0,0.609869430335,0.193161293514,0.303973916442,1.0,-0.0855617142857,-0.112452538776,1.798
0.413450450112,0.294958424198,-0.125044544105,-1.73877381299,0.0525010173105,2.02565514845,0.0963247100127,-0.105004540376,-0.364060851022,-0.00597467963934,-0.521619822829,-0.041540909726,0.16658991809,-0.111608224159,0.573917411401,0.818897554576,0.00251930585284,0.0,0.818859580696,-0.573854264581,-0.0118750590329,0.0,-0.0082789017896,0.00887843181205,-0.999926313902,0.0,0.608381626709,0.191183811246,0.303901542269,1.0,-0.0869605714286,-0.114291036735,1.815
0.41160918954,0.288633637938,-0.125069306924,-1.7475235477,0.0517577269967,2.02857496831,0.0944063808072,-0.108299164307,-0.365731475543,0.00064644847717,-0.524009242668,-0.0415974887099,0.165951962776,-0.112220579829,0.573884389512,0.818919437677,0.00289982230468,0.0,0.818887021075,-0.573820567551,-0.0116081812745,0.0,-0.00784233859042,0.00903655485447,-0.999928416639,0.0,0.60699032859,0.189259448309,0.304070778337,1.0,-0.0883594285714,-0.116129534694,1.832
0.409725810775,0.282380139685,-0.125097353367,-1.75662870117,0.0509782839655,2.03118451328,0.0924998233569,-0.115656469927,-0.368223687516,-0.000300875072105,-0.534865927898,-0.047220385249,0.159036780727,-0.116073360404,0.573887454795,0.81891803181,0.00268203383146,0.0,0.818882344697,-0.573823888949,-0.0117727191929,0.0,-0.0081020329363,0.00895265837252,-0.999927100828,0.0,0.605425215359,0.18725475382,0.303991511664,1.0,-0.0897582857143,-0.117968032653,1.849
0.407906428994,0.276399802648,-0.125118663041,-1.76525099287,0.0502134648882,2.03371533647,0.0906642759277,-0.113313486114,-0.374218215982,0.00165074757081,-0.526089073598,-0.0454961354908,0.158591403696,-0.110036364481,0.573876318768,0.818926136009,0.00258871004257,0.0,0.818889192819,-0.573813051796,-0.0118244820104,0.0,-0.00819809959216,0.00890582834946,-0.999926736008,0.0,0.603862935681,0.185229601327,0.303965368473,1.0,-0.0911571428571,-0.119806530612,1.866
0.405925886507,0.26992677145,-0.125147785137,-1.77423560318,0.0494277756512,2.03660480311,0.088637588048,-0.117975979951,-0.372555561849,-0.00453271868238,-0.524920302562,-0.0456573968232,0.159017115872,-0.131792485759,0.573840933384,0.818950099095,0.00283994136334,0.0,0.818916871726,-0.573777278547,-0.0116421100948,0.0,-0.00790496558421,0.00900656862486,-0.999928194042,0.0,0.602469364386,0.183326200152,0.304067137046,1.0,-0.0924737142857,-0.121536881633,1.882
0.403873353447,0.263430232682,-0.125230567971,-1.78351448779,0.0486277594579,2.03926070396,0.0866726375866,-0.11980848134,-0.386121520922,-0.00171631623843,-0.54387007633,-0.051775652526,0.151774020261,-0.118973518223,0.573953825706,0.818871401143,0.00271684533579,0.0,0.818836291192,-0.57389026425,-0.0117405164209,0.0,-0.00805495712692,0.00896333844608,-0.999927385478,0.0,0.600863140211,0.181196256857,0.30403242761,1.0,-0.0938725714286,-0.123375379592,1.899
0.401541260075,0.256058394029,-0.125277995085,-1.79387860896,0.0477008906028,2.04229688045,0.0843778434364,-0.121980469034,-0.396614059403,0.000218234862192,-0.535679384369,-0.0424721789461,0.165616020806,-0.109651819953,0.573973596165,0.818857526141,0.0027220741656,0.0,0.818822503229,-0.573910034774,-0.0117357186225,0.0,-0.00804781078495,0.00896506080878,-0.99992742758,0.0,0.599066651087,0.178831024044,0.304057172497,1.0,-0.095436,-0.125430171429,1.918
0.399540463985,0.249789934743,-0.125244802306,-1.80260241365,0.0469045863597,2.04493296009,0.0823966082218,-0.125160544451,-0.385976094503,0.00145771694088,-0.556363912179,-0.0436808438587,0.163644765781,-0.118775506286,0.573909437823,0.818902077482,0.00284456939616,0.0,0.818868809811,-0.573845644071,-0.0116531541049,0.0,-0.00791060065208,0.00901735788917,-0.999928052239,0.0,0.597550825244,0.176872001001,0.304111515135,1.0,-0.0967525714286,-0.127160522449,1.934
0.397380459193,0.243152387808,-0.125264954929,-1.81210018745,0.0460948750068,2.0476010393,0.080211227153,-0.128278240292,-0.38893397149,-0.00111396557354,-0.560194698027,-0.0518509258992,0.165786790912,-0.127415155334,0.573859205588,0.818937791719,0.00269302030367,0.0,0.818901795138,-0.573795103364,-0.0118226975324,0.0,-0.00813696860766,0.00899005606128,-0.999926481614,0.0,0.595841942054,0.174722064918,0.304026635092,1.0,-0.0981514285714,-0.128999020408,1.951
0.395409852417,0.23714038031,-0.125260307587,-1.8203335085,0.0453753672548,2.05001191324,0.0782656238436,-0.13121749092,-0.415061405781,0.00068573712678,-0.536468481348,-0.0511440328055,0.174577724214,-0.134902455428,0.573823404825,0.81896234666,0.00284986503015,0.0,0.818928245135,-0.573758576888,-0.0117631487193,0.0,-0.00799859537301,0.00908397991235,-0.999926749208,0.0,0.594387200707,0.172826559138,0.304110328859,1.0,-0.0993857142857,-0.13062122449,1.966
0.393160804247,0.230308815843,-0.125249373912,-1.82980846323,0.04448387125,2.05279694096,0.0760809695045,-0.130340003861,-0.40798560629,0.000824661173695,-0.568477425094,-0.0489521752132,0.150554587672,-0.13314755118,0.573775350061,0.818995731908,0.00293013297955,0.0,0.818962902401,-0.573710510642,-0.0116945017238,0.0,-0.00789685094951,0.00910986242281,-0.999927322435,0.0,0.592694597881,0.170659894655,0.304141695811,1.0,-0.100784571429,-0.132459722449,1.983
0.39049815863,0.22264207261,-0.1252853759,-1.84064264102,0.0434424219021,2.05568338495,0.0734772233367,-0.139966051634,-0.401355932817,-0.00295809591066,-0.571174005893,-0.0545035789796,0.152516895521,-0.129043450388,0.573727006144,0.819030523556,0.00265909849278,0.0,0.818993847369,-0.573662785735,-0.0118673138095,0.0,-0.00819442416175,0.0089865567471,-0.99992604387,0.0,0.590697088091,0.168093458038,0.304048303501,1.0,-0.102348,-0.134514514286,2.002
0.38805407305,0.215631080992,-0.125339951576,-1.8500692545,0.0426146242856,2.05854685419,0.0711509716715,-0.145242420248,-0.409996790201,-0.00126751571038,-0.552956355867,-0.0525730669736,0.157635857593,-0.135016880185,0.573781015094,0.81899143078,0.00302157707872,0.0,0.818959744203,-0.5737158143,-0.0116554149976,0.0,-0.0078123088622,0.0091623822444,-0.999927506663,0.0,0.589043447446,0.165816319202,0.304191880716,1.0,-0.103746857143,-0.136353012245,2.019
0.385666021813,0.209074115757,-0.12539231115,-1.85920814304,0.0417569251288,2.06103125882,0.0689194075531,-0.153027476768,-0.413475052491,-0.00349538449697,-0.57709858337,-0.0463363348246,0.15404251665,-0.144170159851,0.573837459965,0.818952248245,0.00292087925215,0.0,0.818919006698,-0.573772308207,-0.0117365116292,0.0,-0.007935875745,0.00912698928084,-0.999926857296,0.0,0.587361719596,0.163584033805,0.304147095094,1.0,-0.105063428571,-0.138083363265,2.035
0.383120765449,0.202045192397,-0.125477418178,-1.86905685162,0.0407679108069,2.06354374534,0.0664770327271,-0.151010148754,-0.420070739155,-0.00695498739054,-0.579577876742,-0.0594661001887,0.16029750259,-0.146411856986,0.57383271443,0.818956590944,0.0026200955495,0.0,0.818919232246,-0.573768437984,-0.0119087166233,0.0,-0.00824955266701,0.00897943070301,-0.999925654589,0.0,0.585497726071,0.161173247462,0.304048960899,1.0,-0.106462285714,-0.139921861224,2.052
0.380310860334,0.194429377975,-0.125514951055,-1.87919665374,0.039836663464,2.06654274058,0.0638889617197,-0.155110103256,-0.421805465749,-0.00157930517391,-0.575318349078,-0.0442875219833,0.165473498259,-0.137511418011,0.573896230804,0.81891075944,0.00300520286627,0.0,0.818878814433,-0.573831015904,-0.0116704481877,0.0,-0.00783272777892,0.00915869952032,-0.999927380663,0.0,0.583779782221,0.158801687825,0.304205390885,1.0,-0.107861142857,-0.141760359184,2.069
0.378058403923,0.188546457852,-0.125611498227,-1.88732297459,0.0390775361328,2.0686543648,0.0617469129469,-0.159565989235,-0.420294247051,-0.00970060718279,-0.576138634439,-0.0573652750373,0.152527198828,-0.152159365744,0.573955503278,0.818869652194,0.00288441929245,0.0,0.818835677036,-0.57389016716,-0.011788000314,0.0,-0.0079976498268,0.00912782881602,-0.999926357458,0.0,0.582138535204,0.156598905318,0.304146524755,1.0,-0.109095428571,-0.143382563265,2.084
0.375112462759,0.180848373773,-0.125710706655,-1.89772900811,0.0380691052817,2.07138789653,0.0590174222983,-0.165303366422,-0.432079524314,-0.00210641646837,-0.563018662011,-0.0474445222181,0.155519037975,-0.152947848753,0.574033566613,0.818814931596,0.00288428458186,0.0,0.818780835079,-0.573968084139,-0.0118037874377,0.0,-0.00800978432099,0.00913754306698,-0.999926171606,0.0,0.580172068561,0.153950479546,0.304168601729,1.0,-0.110576571429,-0.145329208163,2.102
0.372335066247,0.173530182004,-0.125696766888,-1.90750793912,0.037042073374,2.07409817332,0.056450717309,-0.159682031879,-0.431904994138,-0.000249800627492,-0.585153593576,-0.064274733702,0.150917525268,-0.151828989002,0.573986413019,0.818847471052,0.0030271640574,0.0,0.818815932599,-0.573921255285,-0.0116450914491,0.0,-0.00779835002988,0.0091629908469,-0.999927610048,0.0,0.578322462647,0.151529431004,0.304234768383,1.0,-0.111975428571,-0.147167706122,2.119
0.369841254573,0.167066519978,-0.125689726271,-1.91637951678,0.0361663126818,2.07624455182,0.0540429854416,-0.165698964846,-0.435281624479,-0.000892457473919,-0.606046226619,-0.0560675558276,0.141335394933,-0.157048768752,0.573875255611,0.818926143279,0.00281242824406,0.0,0.818891052201,-0.573809988,-0.0118443741329,0.0,-0.00808602389221,0.00910044076875,-0.999925896352,0.0,0.576553843524,0.149348260512,0.304150841264,1.0,-0.113209714286,-0.148789910204,2.134
0.366933759573,0.159589282217,-0.125693940366,-1.92622958627,0.0352037395156,2.07887018254,0.051298207405,-0.171393410611,-0.455066896927,0.00148930154045,-0.568311635201,-0.0537470450304,0.164751268147,-0.162267512413,0.573812465122,0.818969430839,0.00301216239881,0.0,0.818936969315,-0.573746528683,-0.0117434243381,0.0,-0.00788943972226,0.00920547164822,-0.999926505316,0.0,0.574651421975,0.146869699361,0.304242181495,1.0,-0.114608571429,-0.150628408163,2.151
0.363564867484,0.151235658608,-0.125702339006,-1.93734310852,0.0340357211913,2.0816930092,0.0482177180819,-0.175075293102,-0.435701786072,-0.00183213525782,-0.593704060433,-0.0593436106364,0.133256188202,-0.162210634894,0.573785747551,0.818988122191,0.00301968866407,0.0,0.818955928169,-0.573719986966,-0.0117179850743,0.0,-0.00786458626855,0.00919678182487,-0.999926781063,0.0,0.572465857854,0.144020293272,0.304265270503,1.0,-0.116172,-0.1526832,2.17
0.360451758377,0.14374834878,-0.125749820228,-1.94752842571,0.033025336005,2.08407824422,0.0453999431512,-0.187579467173,-0.44918426519,-0.00407443478017,-0.593817484725,-0.0573816716169,0.146962508166,-0.166693442917,0.573832230372,0.818956428147,0.00277255917942,0.0,0.818920005388,-0.573766209648,-0.0119627899209,0.0,-0.00820636093079,0.00913531448306,-0.999924597992,0.0,0.570401478672,0.141386818806,0.304153401739,1.0,-0.117570857143,-0.154521697959,2.187
0.357482697138,0.136548424165,-0.125800018435,-1.95676696276,0.0320822934569,2.08659993173,0.0426462381757,-0.186508524346,-0.441573492212,-0.00164215354029,-0.578758995694,-0.0612612759469,0.157682269286,-0.178336466554,0.57381896759,0.818964398442,0.00313901585842,0.0,0.818933475296,-0.573752468047,-0.0116968094243,0.0,-0.0077784021562,0.00928267499415,-0.999926661513,0.0,0.568617024903,0.138943120208,0.304306682787,1.0,-0.118887428571,-0.15625204898,2.203
0.354217822475,0.128919067728,-0.125870757125,-1.96687867398,0.0309664573471,2.08894601671,0.0396333079508,-0.195601516193,-0.44656917231,-0.0138239524697,-0.596019059222,-0.0758077645129,0.128362869007,-0.17778809503,0.573785334671,0.818988554395,0.00298066892317,0.0,0.818955551837,-0.573719358816,-0.0117749027842,0.0,-0.00793359589227,0.00919747897757,-0.999926229497,0.0,0.566557405118,0.136235792233,0.304275882684,1.0,-0.120286285714,-0.158090546939,2.22
0.350876000997,0.121216697177,-0.125996058035,-1.97701300838,0.0298923553389,2.09141176484,0.0367175148642,-0.195611036611,-0.457244903055,-0.00348786316045,-0.582708058574,-0.0638761736149,0.156034843199,-0.173237649457,0.57394676281,0.818875449905,0.00297622313783,0.0,0.818842451506,-0.573880852859,-0.0117708637909,0.0,-0.00793102660678,0.00919308401406,-0.999926290295,0.0,0.56451139509,0.133482578729,0.304270720429,1.0,-0.121685142857,-0.159929044898,2.237
0.347636607314,0.113906490435,-0.126040813463,-1.98645074057,0.0288958310101,2.09381533737,0.0337598176068,-0.204940695741,-0.450536413686,-0.00108536664935,-0.594334861127,-0.065855239091,0.144997274825,-0.185343258348,0.57393742159,0.818881247364,0.00317580163072,0.0,0.818851215335,-0.573871280653,-0.0116270068245,0.0,-0.00769878472813,0.00927386189324,-0.999927359461,0.0,0.562618720792,0.130911080871,0.304337776567,1.0,-0.123001714286,-0.161659395918,2.253
0.344165741889,0.106142509449,-0.126058537881,-1.99670832756,0.0277527941142,2.0960459378,0.0306396617599,-0.204067490781,-0.452723020685,0.000986746734795,-0.599221260038,-0.0648355362438,0.137506012272,-0.180829912103,0.573902372658,0.818906712979,0.00293410909405,0.0,0.818873064416,-0.573836499739,-0.0118035097855,0.0,-0.0079824281942,0.00917690186059,-0.99992602992,0.0,0.560446911764,0.128154782478,0.304255925403,1.0,-0.124400571429,-0.163497893878,2.27
0.340674236339,0.0982194400797,-0.126052924541,-2.00672858249,0.0266849764508,2.0984760062,0.0273829567204,-0.206265906182,-0.464521245718,0.00043166396573,-0.58605874691,-0.0541914301096,0.136775912182,-0.196958940511,0.573772036208,0.818997072873,0.0031924899934,0.0,0.818967060087,-0.573705625347,-0.0116428879102,0.0,-0.00770408997778,0.00929508660707,-0.999927121526,0.0,0.558373044948,0.125458569022,0.304373156769,1.0,-0.125799428571,-0.165336391837,2.287
0.33705596727,0.090328267818,-0.12605847041,-2.01696762891,0.0256443428859,2.10074122789,0.0241438181945,-0.21352068037,-0.466565734483,-6.9978470161e-05,-0.607142776531,-0.059159743377,0.122673901253,-0.196904714671,0.573772540693,0.81899683879,0.00316172421409,0.0,0.818965473777,-0.573705090421,-0.0117800206817,0.0,-0.00783405325286,0.00934857535394,-0.999925613108,0.0,0.556187171801,0.122685283618,0.304339118589,1.0,-0.127198285714,-0.167174889796,2.304
0.333292220741,0.0824108279637,-0.126157898528,-2.02723814021,0.0244664296346,2.10291966388,0.0207482390969,-0.223714457702,-0.469873506345,-0.0106264129757,-0.5872730905,-0.0641418562181,0.138719223851,-0.196683362207,0.573772841327,0.818997286693,0.00298627642304,0.0,0.818963388781,-0.573705726553,-0.0118934459999,0.0,-0.00802761067476,0.00926996583935,-0.999924809773,0.0,0.553983432866,0.11977657697,0.304279882922,1.0,-0.128597142857,-0.169013387755,2.321
0.329507269332,0.0743229056575,-0.126238887393,-2.03730235046,0.0233186544157,2.10528513761,0.0173503790636,-0.220497189355,-0.471611772924,-0.00390297929925,-0.602798196301,-0.0628095170775,0.131174183779,-0.202175802546,0.573774318792,0.818995222931,0.00325619604176,0.0,0.818965675907,-0.57370726192,-0.0116595972301,0.0,-0.00768119900422,0.00935687039906,-0.999926721394,0.0,0.551866754164,0.116916963651,0.30440826027,1.0,-0.129996,-0.170851885714,2.338
0.325774401089,0.0667357335634,-0.126326604696,-2.04709690582,0.0222232510982,2.10723807485,0.0140634632103,-0.238993983847,-0.475354715351,-0.00856381439118,-0.616458666348,-0.082764463492,0.120976913118,-0.207132776402,0.573838218784,0.818951233111,0.00305341608911,0.0,0.818918249848,-0.573770896629,-0.0118577041671,0.0,-0.00795907339911,0.00930508114951,-0.999925031498,0.0,0.549710668261,0.114109854601,0.304325778342,1.0,-0.131312571429,-0.172582236735,2.354
0.321726453628,0.0585955885515,-0.126454474637,-2.05723804251,0.021026506968,2.10942996205,0.0104875551876,-0.236256859256,-0.480484516648,-0.00260684922544,-0.589964232947,-0.0668082577023,0.143365932448,-0.211301837971,0.573906795597,0.818902766449,0.00316164058515,0.0,0.818871736175,-0.5738397285,-0.0117385088309,0.0,-0.00779857252728,0.00932596765711,-0.999926101566,0.0,0.547524185631,0.11110652909,0.304394850154,1.0,-0.132711428571,-0.174420734694,2.371
0.317660057189,0.0504660642342,-0.126464032669,-2.06743221213,0.0198787581585,2.11160939966,0.00688089053294,-0.238645716086,-0.47695637033,-0.000183386378201,-0.607265062153,-0.0635059243227,0.123445729158,-0.209480653982,0.573879625449,0.818921460105,0.00325031921122,0.0,0.818891487875,-0.57381214926,-0.0117087723508,0.0,-0.00772364100122,0.00938126524453,-0.99992616589,0.0,0.545280645085,0.108184368591,0.304412321313,1.0,-0.134110285714,-0.176259232653,2.388
0.313772109876,0.0427736331595,-0.126466889214,-2.07721986484,0.0187690713407,2.1134584276,0.00344309399918,-0.245056908675,-0.47998288601,-0.00131418761117,-0.599430850762,-0.0668892281486,0.11258098762,-0.224281352869,0.573841608266,0.818948796262,0.00306995514328,0.0,0.818915497461,-0.573773604342,-0.0119166219902,0.0,-0.00799779798903,0.00935246743526,-0.999924280423,0.0,0.543048479878,0.105402924595,0.30432724972,1.0,-0.135426857143,-0.177989583673,2.404
0.309488618246,0.034450206557,-0.126505810267,-2.08730475192,0.0175652684428,2.11562577216,-0.000397233407914,-0.257692418785,-0.481837304116,-0.0109672859805,-0.603296533186,-0.0802745721539,0.132500106936,-0.221919495921,0.573779418452,0.818991245983,0.00335631731973,0.0,0.818962564751,-0.573711501663,-0.0116695028841,0.0,-0.00763180979348,0.00944460065658,-0.999926274781,0.0,0.540825006644,0.102396110749,0.304460866416,1.0,-0.136825714286,-0.179828081633,2.421
0.304867536652,0.0256618399376,-0.126623136026,-2.09825038819,0.0162415091263,2.1176396408,-0.00447257285674,-0.258985177151,-0.489609305465,-0.0106695909848,-0.608916967853,-0.071735156441,0.0999762779189,-0.235421548795,0.573806380788,0.818972893279,0.00322247450465,0.0,0.818942104767,-0.573738459487,-0.0117794756624,0.0,-0.00779836384919,0.00939833929798,-0.999925425589,0.0,0.538312362974,0.0991198603973,0.304419380671,1.0,-0.138306857143,-0.181774726531,2.439
0.300625356705,0.0177813652099,-0.126738971282,-2.10791749578,0.0151070132583,2.11941868476,-0.00818667896974,-0.265016921512,-0.501803445452,-0.00585491832266,-0.59910782084,-0.0716759570135,0.120518235226,-0.227215105896,0.57388252912,0.818919526895,0.00322461495365,0.0,0.818888386524,-0.573814132598,-0.0118278716616,0.0,-0.00783589629799,0.00942859016939,-0.999924847384,0.0,0.536088736794,0.0961649100017,0.304427418618,1.0,-0.139623428571,-0.183505077551,2.455
0.296558845353,0.0103403324974,-0.126830743189,-2.11688306476,0.0139991036846,2.12113365522,-0.011729087914,-0.275079624394,-0.489744801319,-0.00276058098543,-0.607180853302,-0.0751416769799,0.110324651385,-0.235920981843,0.573935956288,0.818881591574,0.00334723194984,0.0,0.818852498769,-0.573867685013,-0.011713763641,0.0,-0.0076714648629,0.00946402159487,-0.999925787707,0.0,0.534035314455,0.0933805930269,0.304494665937,1.0,-0.13998,-0.183973714286,2.47
0.291901415063,0.00201688348225,-0.126847125961,-2.12718441147,0.0128093834147,2.12288497584,-0.0158071896962,-0.267492755585,-0.486169799864,0.00114129165241,-0.605233118489,-0.0710280541036,0.102689622228,-0.241063857479,0.573931323984,0.818885384635,0.00321077603978,0.0,0.818853302529,-0.573862057205,-0.0119312673159,0.0,-0.00792795051938,0.00947706507416,-0.999923663505,0.0,0.53158824836,0.0902661347816,0.304410939201,1.0,-0.13998,-0.183973714286,2.487
0.287242377558,-0.00637155858323,-0.126841101622,-2.1371291071,0.011567316084,2.12472885029,-0.0199701257948,-0.274043122932,-0.488131832676,0.0001324883972,-0.587455538581,-0.0750961444962,0.115068405868,-0.242625937532,0.573806226228,0.818972236229,0.00341144091617,0.0,0.818943407744,-0.573737052087,-0.0117574179008,0.0,-0.00767187648331,0.00954044032811,-0.999925058347,0.0,0.52925771264,0.0872081706483,0.304511209625,1.0,-0.13998,-0.183973714286,2.504
0.282503447466,-0.0146608294571,-0.126852373781,-2.1471398215,0.0102979304937,2.12642934446,-0.024112951993,-0.286806126396,-0.486645872234,-0.00203530454535,-0.596906109658,-0.0732679809852,0.0905953603758,-0.248515458478,0.573754864493,0.819008375372,0.00337393557276,0.0,0.818979006539,-0.573685759487,-0.0117806243823,0.0,-0.00771299974381,0.00952255628832,-0.999924912459,0.0,0.526856613935,0.0841147214003,0.304494723868,1.0,-0.13998,-0.183973714286,2.521
0.277638168179,-0.0228787553959,-0.126930562422,-2.15707552935,0.00905488053141,2.12791802099,-0.0283441060246,-0.287571827532,-0.487157215972,-0.00649804347993,-0.576744285573,-0.0758067129067,0.100120725784,-0.242109192936,0.573789764489,0.818984592065,0.00320796328769,0.0,0.818952191626,-0.573720191716,-0.0119664676756,0.0,-0.00796003259059,0.00949358801542,-0.999923251889,0.0,0.524425686325,0.0809495327624,0.304435265178,1.0,-0.13998,-0.183973714286,2.538
0.272996221973,-0.0306980572366,-0.127067549622,-2.16605433901,0.00787532954864,2.12957744026,-0.0323258665884,-0.293417115971,-0.483072726788,-0.00582043899021,-0.56378242038,-0.0803662643282,0.0972347413814,-0.2435984529,0.57391404932,0.818896094445,0.00354928105998,0.0,0.818869576038,-0.573845067138,-0.01162769373,0.0,-0.00748527966956,0.00957987951202,-0.999926095517,0.0,0.522309014087,0.0779575072013,0.304596422683,1.0,-0.13998,-0.183973714286,2.554
0.267998849746,-0.0388661034134,-0.127132598319,-2.17584058845,0.00666742956294,2.13095602341,-0.0366757016747,-0.294524603905,-0.485373630675,-7.99923124247e-05,-0.575445434504,-0.0686331415742,0.0735238746246,-0.258613027448,0.573945159485,0.818874917665,0.00340147371065,0.0,0.818845359073,-0.573875255195,-0.0118412964373,0.0,-0.0077446681603,0.00958172021201,-0.999924102496,0.0,0.519865039105,0.0747972202062,0.30452858188,1.0,-0.13998,-0.183973714286,2.571
0.263012603974,-0.0469699573435,-0.127124844819,-2.18543667648,0.00549127897653,2.13241612191,-0.0410243354711,-0.292905634547,-0.486313849164,0.000439205304781,-0.550023055358,-0.0725925186047,0.0931476312425,-0.248652712027,0.573913781565,0.818896870868,0.00341073498866,0.0,0.818866823435,-0.573843095601,-0.011915284747,0.0,-0.00780031285089,0.00963146928897,-0.99992319201,0.0,0.517470712897,0.0717255990174,0.304500575925,1.0,-0.13998,-0.183973714286,2.588
0.258265458485,-0.0546632492483,-0.1271252693,-2.19420921733,0.00427260650139,2.13382677579,-0.0451866465771,-0.299699016258,-0.476657313551,0.000214580302311,-0.556438055693,-0.0767370639259,0.0793092815422,-0.262383331136,0.573820748082,0.818961237071,0.00360390730832,0.0,0.818934985494,-0.573751038605,-0.0116611378511,0.0,-0.00748241837874,0.00964295428121,-0.99992551065,0.0,0.515301059021,0.0688279823496,0.304610446349,1.0,-0.13998,-0.183973714286,2.604
0.253122140582,-0.0627088205385,-0.127170250465,-2.20376765224,0.00307437856567,2.13501023095,-0.049682572928,-0.300672283959,-0.476160867357,-0.00818805967474,-0.560689234183,-0.0662009255369,0.0748852162878,-0.259253180273,0.573804413225,0.81897366613,0.00337289934476,0.0,0.818942836778,-0.573733525987,-0.0119673785282,0.0,-0.0078659738777,0.00962933176626,-0.999922698225,0.0,0.512681443168,0.0655175758533,0.304489334034,1.0,-0.13998,-0.183973714286,2.622
0.247577573125,-0.0712174840446,-0.127319916761,-2.21350710452,0.00175575136876,2.1363698971,-0.0544658585062,-0.310859397469,-0.474381622811,-0.00755738014114,-0.528349017712,-0.0742293873706,0.0786267219713,-0.263829161447,0.573917300362,0.818894092042,0.00348500570348,0.0,0.81886519901,-0.573846582565,-0.0118588544841,0.0,-0.00771143573126,0.00965993762355,-0.999923606764,0.0,0.510353975633,0.0623266094322,0.304549240057,1.0,-0.13998,-0.183973714286,2.639
0.242570358406,-0.078741903149,-0.127428673737,-2.222097679,0.000629734090537,2.13751813687,-0.0588490767295,-0.308000541505,-0.466934832744,-0.00879084703219,-0.542135075616,-0.0703094673291,0.0657156106111,-0.2714392538,0.573960475463,0.818863486235,0.00356516741751,0.0,0.818835571781,-0.573889391011,-0.0118330119418,0.0,-0.00764375681921,0.00971115403087,-0.999923630318,0.0,0.508143029518,0.0593381930656,0.304574382565,1.0,-0.13998,-0.183973714286,2.655
0.2372827402,-0.0867007420527,-0.127413423878,-2.23135077627,-0.000571866196779,2.13857073994,-0.0634589416649,-0.309580633471,-0.461535156565,0.0018243835243,-0.549561291079,-0.0697141840875,0.064118624004,-0.27552600105,0.57389955448,0.818906799731,0.00342076361378,0.0,0.818875879211,-0.573827596473,-0.012038723908,0.0,-0.00789581632471,0.00971038605417,-0.999921679177,0.0,0.50568180677,0.0562666662079,0.304492638095,1.0,-0.13998,-0.183973714286,2.672
0.231935384845,-0.0946936723136,-0.127420801116,-2.24022915961,-0.00178478080838,2.13967903929,-0.0681740218362,-0.321138447932,-0.470343108208,-0.00090092784411,-0.51710198106,-0.0776697081206,0.0673544600677,-0.272293905004,0.573808609731,0.818969832681,0.00358321895869,0.0,0.818941616237,-0.573736802144,-0.0118936101533,0.0,-0.00768483128733,0.00975929092872,-0.999922846828,0.0,0.503346081238,0.0531970890377,0.304582818676,1.0,-0.13998,-0.183973714286,2.689
0.226480178723,-0.102583410085,-0.127438635263,-2.24907577671,-0.00304051363233,2.14067542368,-0.0729144262468,-0.322863246007,-0.465537944194,0.000652466621085,-0.522678594223,-0.0676937494748,0.0509276798262,-0.283012133484,0.573766486221,0.818999313709,0.00359031122709,0.0,0.818971468718,-0.573695014851,-0.0118537024621,0.0,-0.00764857778748,0.0097418072292,-0.999923295283,0.0,0.500979405698,0.0500911440596,0.304605876598,1.0,-0.13998,-0.183973714286,2.706
0.220893392085,-0.110428801591,-0.127568081094,-2.25801938743,-0.00425439935405,2.14154777964,-0.0777011995037,-0.330338516244,-0.456798089162,-0.0067737166942,-0.521986398565,-0.0735535158105,0.0499875268507,-0.289093995609,0.573894317522,0.818910316173,0.00345735203577,0.0,0.818879711429,-0.573822022213,-0.0120437508428,0.0,-0.00787899876906,0.00974318319416,-0.999921492798,0.0,0.498539710894,0.0468960069687,0.30453182094,1.0,-0.13998,-0.183973714286,2.723
0.215587085874,-0.117847344214,-0.127663841256,-2.26606781602,-0.00543156563476,2.14247554649,-0.0822775169383,-0.329447921906,-0.46112008215,-0.00342519779764,-0.493872418817,-0.0694070365976,0.0612043733066,-0.295431618612,0.573955016868,0.818866959595,0.0036452705315,0.0,0.81883994934,-0.573883481941,-0.0118166586172,0.0,-0.00758445679351,0.00976731168433,-0.999923534895,0.0,0.496376288334,0.0439150023977,0.304638051278,1.0,-0.13998,-0.183973714286,2.739
0.210018410788,-0.125589981586,-0.127658929477,-2.27468000817,-0.00657665608768,2.1433015972,-0.0872317411246,-0.331014246078,-0.453392076239,0.00135298300796,-0.516472319158,-0.0731816516132,0.0463396705138,-0.289302460273,0.573839802822,0.818947636711,0.0036600442365,0.0,0.818920237241,-0.573767485232,-0.0118854881854,0.0,-0.00763372505606,0.00981783951506,-0.999922665144,0.0,0.493988296605,0.0408731632973,0.304622727499,1.0,-0.13998,-0.183973714286,2.756
0.204267874759,-0.133375905335,-0.127698305822,-2.2832951712,-0.00780181085423,2.14400147953,-0.0922451435717,-0.341205491693,-0.458294793894,-0.00660158206534,-0.506069085524,-0.0654354280824,0.0401242086184,-0.295207121304,0.573816642806,0.818964223506,0.00357882066862,0.0,0.818935263051,-0.573743980031,-0.0119844570142,0.0,-0.0077616641546,0.00980789216772,-0.999921777851,0.0,0.491561876782,0.0377398077515,0.304596858655,1.0,-0.13998,-0.183973714286,2.773
0.198503371027,-0.141114445104,-0.12776534031,-2.29164079754,-0.00899488866471,2.14479699926,-0.0973226798348,-0.339152951382,-0.455582836607,-0.000760740442489,-0.480380734803,-0.0655844767259,0.0585339618701,-0.302600716763,0.573785105723,0.818985688428,0.00372041684804,0.0,0.818959117738,-0.573712641157,-0.0118539340061,0.0,-0.00757389794746,0.00984866969381,-0.999922816909,0.0,0.489227915535,0.034629387688,0.304658801675,1.0,-0.13998,-0.183973714286,2.79
0.192922843953,-0.148331481404,-0.127905676528,-2.2994381549,-0.0101031246035,2.14547529503,-0.102111152869,-0.346902640272,-0.450506799537,-0.00854192145798,-0.495323101495,-0.0653793144942,0.0352502835938,-0.311388031551,0.573937596367,0.818878397216,0.00381483292089,0.0,0.818853163886,-0.573864930406,-0.0118018874049,0.0,-0.00747525573546,0.00989752545477,-0.999923076812,0.0,0.487021879934,0.0316200941774,0.304686736612,1.0,-0.13998,-0.183973714286,2.806
0.187020115784,-0.155964226106,-0.127948983896,-2.3077960505,-0.0113487047143,2.145965229,-0.107331478245,-0.343522350337,-0.444718387546,0.000425369394437,-0.490730671869,-0.0681986179828,0.0329546331038,-0.298738674202,0.573843964668,0.818944778363,0.00364706835502,0.0,0.818916680185,-0.573771013542,-0.0119600098286,0.0,-0.00770215378213,0.00985001421052,-0.999921823968,0.0,0.484577154213,0.0285052665526,0.304628945448,1.0,-0.13998,-0.183973714286,2.823
0.181102286019,-0.1635845938,-0.127937856516,-2.3159060513,-0.0125052392701,2.14651737729,-0.112540239924,-0.360589687791,-0.453909654458,0.000276276768498,-0.463200784652,-0.0568207035977,0.0361702954907,-0.316706738369,0.573764611163,0.819000064037,0.00371658237285,0.0,0.818972909397,-0.573691470156,-0.0119255039964,0.0,-0.00763496392805,0.00988640278624,-0.999921980139,0.0,0.482209301452,0.0254569899181,0.304664881331,1.0,-0.13998,-0.183973714286,2.84
0.175032368498,-0.171155125013,-0.127966163914,-2.32384690689,-0.0136219564124,2.14709785643,-0.11790128826,-0.351441258367,-0.43785280928,0.000806786117101,-0.473735620713,-0.0692666873273,0.0210210001335,-0.314585140114,0.573730789187,0.81902288392,0.00390436352662,0.0,0.818998581928,-0.573657543523,-0.0117937466714,0.0,-0.00741972367403,0.00996429562048,-0.999922827279,0.0,0.479888933225,0.0223558313201,0.304737177922,1.0,-0.13998,-0.183973714286,2.857
0.168123428398,-0.179519106965,-0.128113566592,-2.33286973766,-0.0149738064512,2.14748794892,-0.123877245092,-0.364879834831,-0.443671158286,-0.0140248662419,-0.475926672235,-0.066749954653,0.023132228589,-0.325491839217,0.573843882271,0.818944404901,0.0037426411475,0.0,0.818916983985,-0.573769850147,-0.0119949699575,0.0,-0.00767594666908,0.00994834406525,-0.99992105203,0.0,0.477165761974,0.0187977615194,0.304659654595,1.0,-0.13998,-0.183973714286,2.876
0.162581500893,-0.186118142365,-0.128222655605,-2.33984052499,-0.0160083543342,2.14783182906,-0.12870966173,-0.364109900862,-0.435604558233,-0.00694187934409,-0.454389672848,-0.0686298006512,0.029131087695,-0.319045198617,0.573917982359,0.818892401043,0.00375924736713,0.0,0.818864918939,-0.573843517495,-0.0120253424754,0.0,-0.00769038990457,0.00998006822843,-0.99992062492,0.0,0.4749188968,0.0158111339743,0.304652645861,1.0,-0.13998,-0.183973714286,2.892
0.156045273209,-0.194037467738,-0.128221657323,-2.34791133689,-0.0172206802776,2.14829313667,-0.134558345696,-0.369428301268,-0.436769295367,0.00157068937595,-0.446788371762,-0.066213157787,0.0234120203989,-0.325522656017,0.573774161269,0.818992181479,0.00397057143661,0.0,0.818968632281,-0.573700542975,-0.0117819026704,0.0,-0.00737150910526,0.0100121175459,-0.999922706191,0.0,0.472618338007,0.0127662231341,0.304765257535,1.0,-0.13998,-0.183973714286,2.909
0.150428168262,-0.200524758738,-0.128261548054,-2.35479422844,-0.0182794496374,2.14848110438,-0.139525823312,-0.383079074907,-0.429416555126,-0.00579122855618,-0.461853028952,-0.0694516199667,0.0100202592634,-0.338439501283,0.573721009138,0.819030053636,0.00383690191179,0.0,0.819004114804,-0.573646987035,-0.0119222942918,0.0,-0.00756383573927,0.0099827013641,-0.999921563955,0.0,0.470469278916,0.0100039793236,0.304702639636,1.0,-0.13998,-0.183973714286,2.924
0.144017955578,-0.207860517289,-0.128384544351,-2.3624725334,-0.0193852386655,2.14867758153,-0.145158636725,-0.372947290643,-0.43586683808,-0.00574579638756,-0.444068255963,-0.0626748513565,0.0128000235223,-0.33850709841,0.573795543335,0.81897795089,0.00381278198366,0.0,0.818950669843,-0.573720249207,-0.0120674319982,0.0,-0.0076956386654,0.0100469124937,-0.999919915141,0.0,0.468053191054,0.00686149521911,0.304660744808,1.0,-0.13998,-0.183973714286,2.941
0.137854643991,-0.214789495432,-0.128530316916,-2.36942389084,-0.0204103578352,2.14890050639,-0.150536115803,-0.376767460578,-0.435073769309,-0.00272803573927,-0.43087770895,-0.0712594069727,0.0179313845678,-0.333427101122,0.573940469027,0.818875457142,0.00400881586793,0.0,0.818851102488,-0.573864925736,-0.0119442816862,0.0,-0.00748050432855,0.0101381251166,-0.999920627087,0.0,0.465866304019,0.00386174913184,0.304744258376,1.0,-0.13998,-0.183973714286,2.957
0.13138806109,-0.222037001142,-0.128530583527,-2.3767751198,-0.0215506732674,2.14908639255,-0.156283315123,-0.373252078,-0.422965503998,-0.00187663241237,-0.436306985714,-0.0741516794807,0.00620957766365,-0.345639171913,0.573848166888,0.818939839015,0.00407042192476,0.0,0.818916724193,-0.573773019781,-0.0118603334831,0.0,-0.00737754335435,0.0101395624347,-0.999921377473,0.0,0.463519543007,0.000807260799411,0.304776597629,1.0,-0.13998,-0.183973714286,2.974
0.124759656001,-0.229207674147,-0.128573681397,-2.38423414517,-0.022731760667,2.14912602449,-0.162156509475,-0.388196117252,-0.430436646174,-0.00661733486821,-0.431867409288,-0.0728910136144,0.000813482515636,-0.350097368687,0.573792855743,0.818979360148,0.00391321493409,0.0,0.818953418782,-0.573717225449,-0.0120245577674,0.0,-0.00760293219183,0.0101045406328,-0.999920043644,0.0,0.461080722342,-0.00231206273812,0.304695017067,1.0,-0.13998,-0.183973714286,2.991
0.118062889427,-0.236389244102,-0.128678890407,-2.39149682122,-0.0238359568602,2.14914515912,-0.168071330929,-0.399418621824,-0.426158972969,-0.0159921802713,-0.417545200449,-0.0667795426368,0.00068499985532,-0.350354536576,0.573841790453,0.818945000528,0.0039284273271,0.0,0.818918763816,-0.573765439467,-0.012084107114,0.0,-0.00764237041442,0.010151623963,-0.999919266094,0.0,0.458685495559,-0.00544810338642,0.304688093362,1.0,-0.13998,-0.183973714286,3.008
0.11079897656,-0.244001116296,-0.128831952613,-2.39886341951,-0.025044976328,2.14923835681,-0.17446877064,-0.39679125938,-0.423377933786,-0.00135924314877,-0.410574282926,-0.0623654437079,0.00497618494426,-0.364150669688,0.573941183525,0.818874218434,0.00415681841494,0.0,0.818852426073,-0.573866005531,-0.0118008012648,0.0,-0.0072780552582,0.0101769826267,-0.999921726405,0.0,0.456254369371,-0.00883887605041,0.304817937525,1.0,-0.13998,-0.183973714286,3.026
0.104452041024,-0.250645623025,-0.128853279152,-2.4055549606,-0.026046340004,2.14922083321,-0.180171460503,-0.396856577777,-0.407303979567,0.000148547099906,-0.424684136989,-0.0587637310727,-0.000925143967196,-0.350379674034,0.573855799221,0.818933990068,0.00416995349928,0.0,0.818911890552,-0.573779922261,-0.0118601528065,0.0,-0.00732018760229,0.0102210387579,-0.999920969487,0.0,0.453856144709,-0.0118874364968,0.304789239132,1.0,-0.13998,-0.183973714286,3.043
0.0971169431561,-0.258044627194,-0.128894674568,-2.41304196756,-0.027213681398,2.14913335463,-0.186728970678,-0.407901889868,-0.407220600348,-0.00150197397057,-0.41448764593,-0.0705890506752,0.000676744215686,-0.362431588654,0.573803471735,0.818971028392,0.00409602004871,0.0,0.818947283173,-0.57372691851,-0.011979869013,0.0,-0.00746131233828,0.0102287118557,-0.999919847924,0.0,0.451436704115,-0.0150023584069,0.304722560517,1.0,-0.13998,-0.183973714286,3.06
0.0901102163443,-0.26504619908,-0.129031540592,-2.4198036843,-0.0283021244696,2.14903692276,-0.192914839332,-0.415934659968,-0.411374381182,-0.0173701577626,-0.386370416089,-0.0627466331265,-0.00505388425198,-0.368867827733,0.573905923704,0.818898571913,0.00422688506787,0.0,0.818877047998,-0.573829612251,-0.0118618407865,0.0,-0.00728827298263,0.0102690775716,-0.999920710418,0.0,0.449098299203,-0.0181603809402,0.304784717198,1.0,-0.13998,-0.183973714286,3.077
0.0838335573182,-0.271150543814,-0.129140072128,-2.42559787717,-0.0292614987751,2.14898817703,-0.198518367348,-0.404806469459,-0.398137647274,-0.000538705964523,-0.392179391614,-0.0649488629091,-0.00827209522395,-0.365856236857,0.573940163544,0.818873638678,0.00440448076779,0.0,0.818855549862,-0.573864893316,-0.0116369919234,0.0,-0.00700178383966,0.0102857686015,-0.999922585997,0.0,0.44694038888,-0.0211383518071,0.304871970392,1.0,-0.13998,-0.183973714286,3.093
0.0763972780339,-0.278392207563,-0.129127234835,-2.43281655265,-0.0304140265117,2.1487189248,-0.205288595248,-0.417370461028,-0.40358239611,0.00131961696359,-0.395290134766,-0.0725819096067,-0.0172809284212,-0.382302937558,0.573751959649,0.819006177413,0.00427984344757,0.0,0.818985628714,-0.573675899591,-0.0118003851532,0.0,-0.00720948410133,0.0102758222244,-0.999921212305,0.0,0.44450449036,-0.0241723435336,0.304794483616,1.0,-0.13998,-0.183973714286,3.11
0.0691372470526,-0.285200809926,-0.129186877703,-2.43943102546,-0.0314978473446,2.14847670149,-0.211747421753,-0.423568640164,-0.409997272106,-0.0043223566846,-0.389389990234,-0.0661480190472,-0.00362020699793,-0.37782231822,0.573769118526,0.818994183351,0.00427471223384,0.0,0.818973497109,-0.573692972003,-0.0118123582768,0.0,-0.0072220194007,0.0102786403191,-0.999921092881,0.0,0.442115017027,-0.0273113353185,0.304781311369,1.0,-0.13998,-0.183973714286,3.127
0.0626666574767,-0.291171602324,-0.129333833691,-2.44512201482,-0.032359835223,2.14824352854,-0.217536773732,-0.437754476355,-0.392216343295,-0.00666445902324,-0.373803586072,-0.0501678502322,-0.0200886883133,-0.382768451994,0.57387988958,0.818915900707,0.00440077341639,0.0,0.818896594425,-0.573802932271,-0.0118029427545,0.0,-0.00714057828448,0.0103774496463,-0.999920657193,0.0,0.440030850683,-0.0301122753247,0.304803781647,1.0,-0.13998,-0.183973714286,3.142
0.0548724398697,-0.298298064664,-0.129427486422,-2.45174232561,-0.0334191660059,2.1479822907,-0.224524934724,-0.431573548304,-0.394844219414,-0.000439203247834,-0.367484499256,-0.0566271153756,-0.0136058787521,-0.391546881785,0.573928320244,0.818880806694,0.00461026583578,0.0,0.818865110803,-0.573852016791,-0.0115991394391,0.0,-0.00685283425133,0.0104324613162,-0.999922098172,0.0,0.437585309823,-0.0334276255836,0.304896196293,1.0,-0.13998,-0.183973714286,3.16
0.0470407803859,-0.305310857546,-0.129448039258,-2.45851093514,-0.0345924509441,2.14751508696,-0.231566955096,-0.442120340403,-0.389599028697,-0.00242660977147,-0.376340585501,-0.0630924859133,-0.0327513723268,-0.384300089767,0.573845720896,0.818939491913,0.00446588130551,0.0,0.818921446101,-0.573769163688,-0.0117200178146,0.0,-0.00703573591221,0.0103828879513,-0.999921343936,0.0,0.43501748779,-0.0366963435495,0.304839468149,1.0,-0.13998,-0.183973714286,3.178
0.0399836275321,-0.311515824496,-0.129541890274,-2.46440952918,-0.0355536795779,2.14711836061,-0.237966795785,-0.440151481934,-0.387626444459,-0.00788050786064,-0.370044901855,-0.0545551007249,-0.0262363887506,-0.404719431694,0.57383116818,0.81894967803,0.00446790567789,0.0,0.818931210186,-0.573753946286,-0.0117825720933,0.0,-0.00708599153513,0.0104203151356,-0.999920599726,0.0,0.432754081869,-0.0396355310812,0.304817208312,1.0,-0.13998,-0.183973714286,3.194
0.032344504318,-0.318039400396,-0.129700725423,-2.47047382761,-0.0365384829543,2.14669949882,-0.244841033055,-0.446929677678,-0.383795327347,-0.012180946303,-0.355338541471,-0.0596254194048,-0.0288941539543,-0.413785094123,0.573934599314,0.818876613739,0.00457319172351,0.0,0.818859469841,-0.573856950374,-0.011752278942,0.0,-0.00699944328881,0.0104900428216,-0.999920480236,0.0,0.430390344598,-0.0428132797015,0.304841300911,1.0,-0.13998,-0.183973714286,3.211
0.0247903961432,-0.32450964849,-0.129708319208,-2.47631294997,-0.037553989792,2.1463131757,-0.251766754862,-0.442338088273,-0.379572623072,-0.00408646359373,-0.346553026,-0.0602796342686,-0.0276474605835,-0.413344812474,0.573797719482,0.818971737399,0.00471352947929,0.0,0.81895779913,-0.573721782388,-0.0114972413466,0.0,-0.00671179040952,0.0104574739323,-0.999922793574,0.0,0.428098969701,-0.0458750362753,0.304936237133,1.0,-0.13998,-0.183973714286,3.228
0.0174921001914,-0.33049239564,-0.129739781188,-2.48193074913,-0.0384880470798,2.14580691577,-0.258353533669,-0.456583093233,-0.36627479471,-0.00392188822539,-0.358438215451,-0.0607135864247,-0.0290586302024,-0.411640885375,0.573789130536,0.818978003574,0.00467014370449,0.0,0.818963021523,-0.573712575174,-0.0115843587011,0.0,-0.00680814586846,0.0104718557218,-0.999921991651,0.0,0.425837822435,-0.0488037639672,0.30490006604,1.0,-0.13998,-0.183973714286,3.244
0.0101077471542,-0.336437418061,-0.129879250201,-2.48750574336,-0.0393969694032,2.14523327487,-0.265055375714,-0.466189582389,-0.37476013246,-0.0104604652605,-0.345229146334,-0.0561941517145,-0.0290921680296,-0.409988330743,0.573849611479,0.818935794119,0.0046406267983,0.0,0.818919342192,-0.573771479592,-0.0117535991154,0.0,-0.00696291777879,0.0105453003606,-0.99992015402,0.0,0.423548169813,-0.0517772356725,0.304848099815,1.0,-0.13998,-0.183973714286,3.26
0.00224457986787,-0.342740619498,-0.129968031638,-2.49322710049,-0.0403382605812,2.14469052408,-0.272170428511,-0.463461013886,-0.373343346356,-0.00240154093598,-0.341204890003,-0.0489807552708,-0.0320305421899,-0.422624650339,0.573900520176,0.818899586544,0.00473360347253,0.0,0.81888444338,-0.573822234849,-0.0117071808554,0.0,-0.00687089092454,0.0105952354186,-0.999920262743,0.0,0.421180644296,-0.0548955023531,0.30487309775,1.0,-0.13998,-0.183973714286,3.277
-0.00569033588195,-0.348909075871,-0.129993306024,-2.49878445822,-0.0413378312528,2.14407670587,-0.279425280654,-0.471795351037,-0.366109260016,-0.00546387930827,-0.320840844017,-0.0625103341513,-0.0330565044984,-0.43015575115,0.573822687898,0.8189541383,0.00473171388785,0.0,0.818939360596,-0.573745023719,-0.011649820819,0.0,-0.00682600309506,0.0105601215568,-0.999920941632,0.0,0.418828528482,-0.0580002667011,0.304898094938,1.0,-0.13998,-0.183973714286,3.294
-0.013229974066,-0.354705249413,-0.130085807582,-2.50386391546,-0.0422206072793,2.14354735017,-0.286332571299,-0.4726062512,-0.353557622402,-0.00927843480042,-0.324336649816,-0.0544367571602,-0.032958069113,-0.430319174462,0.573819508576,0.818955493736,0.00488034412293,0.0,0.818943572055,-0.57374287421,-0.0114580532293,0.0,-0.00658369973201,0.0105717844618,-0.999922443128,0.0,0.416511577526,-0.0611379481951,0.304980639367,1.0,-0.13998,-0.183973714286,3.311
-0.0213541723471,-0.360760068004,-0.130240020825,-2.50942806979,-0.0431687751018,2.14280877367,-0.293737449722,-0.473804868492,-0.352900787292,-0.00270079658946,-0.329134552099,-0.0574318809323,-0.0400182296779,-0.442148006343,0.573894275216,0.818903437358,0.00482369761677,0.0,0.818889583231,-0.573815893104,-0.0116583960207,0.0,-0.00677931674228,0.0106409673371,-0.999920402171,0.0,0.414205810176,-0.0641039778037,0.304915927573,1.0,-0.13998,-0.183973714286,3.327
-0.0294381750343,-0.366727317184,-0.1302554959,-2.51483571017,-0.0441476867625,2.14210966864,-0.301245626933,-0.48416476201,-0.35070050191,-0.00182279430199,-0.310345561518,-0.0509963336071,-0.0354936217967,-0.445530063027,0.573729259559,0.81901949335,0.00474901459403,0.0,0.819004457848,-0.573650810781,-0.011712908136,0.0,-0.00686895626363,0.0106097065048,-0.999920122594,0.0,0.411810157956,-0.0671681671902,0.304882986108,1.0,-0.13998,-0.183973714286,3.344
-0.0377317853628,-0.372620285624,-0.130335813044,-2.52005605469,-0.0450569375616,2.14140569933,-0.308801813631,-0.486436269479,-0.341796471978,-0.00321716430607,-0.302564651452,-0.0495084813859,-0.0443158468436,-0.448038775936,0.573781100549,0.818982965729,0.00478512279579,0.0,0.818968367763,-0.573702479201,-0.0117057619589,0.0,-0.00684171455819,0.0106356139537,-0.999920034132,0.0,0.409437269749,-0.0703120581553,0.304891256307,1.0,-0.13998,-0.183973714286,3.361
-0.0460910057437,-0.378439687655,-0.130507781761,-2.52509141179,-0.0459008921954,2.1406821655,-0.316406087902,-0.493116930844,-0.349812878164,-0.00350170297219,-0.287911519496,-0.0455919461473,-0.0365784480941,-0.451992499993,0.573950007856,0.818863747652,0.00492931682193,0.0,0.818851062124,-0.573870967486,-0.0116532243159,0.0,-0.00671374038219,0.0107249509914,-0.999919947354,0.0,0.407089707348,-0.0734862243433,0.304938574349,1.0,-0.13998,-0.183973714286,3.378
-0.053891073858,-0.383842169946,-0.130543065242,-2.52977427361,-0.0467401311721,2.14002699279,-0.323711450501,-0.491312036469,-0.331093626805,-0.00220586962549,-0.294103419378,-0.0508672633354,-0.0451432525977,-0.458243408172,0.573815699994,0.818957513198,0.00498807760642,0.0,0.818946143255,-0.573737395806,-0.0115482467532,0.0,-0.00659580377644,0.0107117384466,-0.999920873886,0.0,0.404895123179,-0.0763785726283,0.304973054762,1.0,-0.13998,-0.183973714286,3.394
-0.0624150469363,-0.389510033505,-0.130601818753,-2.53485040085,-0.0477291409435,2.13919612036,-0.331517260603,-0.501579730747,-0.327998917968,-0.00243447558942,-0.299739497062,-0.0542442857662,-0.0536014920151,-0.462573034267,0.573797371174,0.818971222855,0.00484353908967,0.0,0.818957444096,-0.573718657032,-0.0116770815935,0.0,-0.00678449567273,0.01066713649,-0.999920088216,0.0,0.402455789601,-0.0795202993517,0.304912539197,1.0,-0.13998,-0.183973714286,3.411
-0.0709703172891,-0.395167718768,-0.130757024131,-2.53973430711,-0.0485637589023,2.1383878074,-0.339398482241,-0.501984981322,-0.33612103681,-0.0115125314129,-0.281270568078,-0.045175685729,-0.0443060640698,-0.467192976238,0.573889120918,0.818906404219,0.00493203019925,0.0,0.818893453769,-0.573809603513,-0.0116960331835,0.0,-0.00674804010543,0.0107512404405,-0.999919434146,0.0,0.400057316213,-0.0826703685365,0.304924864326,1.0,-0.13998,-0.183973714286,3.428
-0.0794465030565,-0.400608994316,-0.130805702285,-2.54441702207,-0.0493864298547,2.13761232166,-0.347362899663,-0.500555616339,-0.319826252075,-0.000838443895112,-0.272489244127,-0.0521149046681,-0.0507606806164,-0.467662119749,0.573778726286,0.818983470602,0.00497946214431,0.0,0.818971201495,-0.573699182241,-0.0116690324677,0.0,-0.00670016034766,0.0107736861083,-0.999919514531,0.0,0.397720559757,-0.0857324236426,0.304935943593,1.0,-0.13998,-0.183973714286,3.445
-0.0876914253334,-0.405684480049,-0.130842494767,-2.54880057972,-0.0502488520871,2.13678519986,-0.354946845739,-0.511645410482,-0.315186316635,-0.00243505763909,-0.271724109399,-0.0514574227956,-0.0509790973986,-0.471567205861,0.573774527553,0.818986894061,0.0048995701699,0.0,0.818973453744,-0.573695025193,-0.0117152478673,0.0,-0.00678390604312,0.010734735391,-0.999919368787,0.0,0.395463025101,-0.0886952315857,0.304921940657,1.0,-0.13998,-0.183973714286,3.461
-0.0964929788107,-0.411018177261,-0.131007316189,-2.55327360771,-0.0510831138703,2.13601248226,-0.363078714922,-0.519059559952,-0.316543350927,-0.0132808176979,-0.257089204126,-0.0446758577361,-0.0407609017232,-0.485127962539,0.573879743922,0.818912520984,0.00500693439854,0.0,0.81890099924,-0.573800729034,-0.0116027455514,0.0,-0.00662877862625,0.0107589713715,-0.999920148726,0.0,0.393112362868,-0.0918802210722,0.304964669331,1.0,-0.13998,-0.183973714286,3.478
-0.105203325154,-0.416309689672,-0.131070211149,-2.55772328958,-0.0518413401971,2.13518145935,-0.371293846807,-0.509151960911,-0.309760333968,-0.00500946490423,-0.263271625569,-0.0457522723469,-0.0523212731862,-0.479919749152,0.573798014338,0.818969212019,0.00510053023842,0.0,0.818958953883,-0.573718813109,-0.0115629685246,0.0,-0.00654357105057,0.0108121414548,-0.999920136448,0.0,0.390751865328,-0.0949487401266,0.304989481901,1.0,-0.13998,-0.183973714286,3.495
-0.114683088891,-0.421808279258,-0.131147233511,-2.56241020994,-0.0527023087394,2.13417885737,-0.380094042814,-0.524928853707,-0.300960865988,-0.00388709066632,-0.257347017544,-0.0444023808819,-0.0584917940159,-0.484181302198,0.573819554054,0.818954315309,0.00506909479773,0.0,0.818942929805,-0.573739265397,-0.0116824639637,0.0,-0.00665919376118,0.010855134602,-0.999918907308,0.0,0.388180716652,-0.0982675543482,0.304965086141,1.0,-0.13998,-0.183973714286,3.513
-0.124204266412,-0.427078200454,-0.131288034243,-2.56687641563,-0.0535264207466,2.13327159344,-0.388919641988,-0.527939696515,-0.282729777254,-0.00852285817822,-0.245024438559,-0.0403360294706,-0.0470672547218,-0.495036336494,0.573925870151,0.818879619757,0.00510008032018,0.0,0.818868230318,-0.57384479962,-0.0117351705011,0.0,-0.00668316605999,0.01091162177,-0.99991813255,0.0,0.385661475519,-0.101605909587,0.304947668295,1.0,-0.13998,-0.183973714286,3.531
-0.132530893137,-0.431669110138,-0.131306778511,-2.57073290821,-0.0542293551929,2.13248247132,-0.396881343343,-0.521036534148,-0.282912169637,-0.00128317777323,-0.238839693099,-0.0440434614265,-0.0547458731935,-0.508151963629,0.573749964648,0.819002775905,0.00511644673337,0.0,0.818991575281,-0.573668832307,-0.0117310425657,0.0,-0.00667273887339,0.0109212222947,-0.999918097376,0.0,0.383463547102,-0.10446091897,0.304943346111,1.0,-0.13998,-0.183973714286,3.547
-0.140641615661,-0.435939192191,-0.131375468318,-2.57434212704,-0.0549533869436,2.13164297974,-0.404418371838,-0.543814497416,-0.280851962745,-0.00633407477749,-0.239049429625,-0.0431373379951,-0.0526552932378,-0.506545504281,0.573782874586,0.818980132518,0.00504997766227,0.0,0.818967526322,-0.573701081669,-0.0118324394001,0.0,-0.0067934859363,0.0109252291509,-0.999917240534,0.0,0.381326399111,-0.107247682731,0.304913059673,1.0,-0.13998,-0.183973714286,3.562
-0.149882170087,-0.440732028458,-0.131522378975,-2.57818589335,-0.0556562613288,2.13077334592,-0.413014928749,-0.547334002676,-0.284816993671,-0.00860865060061,-0.222306816146,-0.0398506751421,-0.053785770659,-0.499030723115,0.573927012809,0.818878274419,0.00518676722541,0.0,0.818867857861,-0.573845404404,-0.0117315859437,0.0,-0.00663046597477,0.0109805624531,-0.9999177287,0.0,0.378969914421,-0.110431033952,0.304971035643,1.0,-0.13998,-0.183973714286,3.579
