nelsonifechukwu/NELSON_IML_WORK/CNN-GradCAM/train2dof/data_sample_2022-02-22-07-28-21/robot_state.csv
position_joint1,position_joint2,position_joint3,position_joint4,position_joint5,position_joint6,position_joint7,velocity_joint1,velocity_joint2,velocity_joint3,velocity_joint4,velocity_joint5,velocity_joint6,velocity_joint7,ee_T_00,ee_T_10,ee_T_20,ee_T_30,ee_T_01,ee_T_11,ee_T_21,ee_T_31,ee_T_02,ee_T_12,ee_T_22,ee_T_32,ee_T_03,ee_T_13,ee_T_23,ee_T_33,v_x,v_y,time
0.465067032387,0.547679489953,-0.124052080236,-1.35585324023,0.0795226123988,1.8941571455,0.159130914887,-0.0005791884975,2.38204535281e-05,-0.000122924894531,-0.00148719135038,1.06515094907e-05,-0.000106209661634,0.000517269646685,0.573839760623,0.818953254086,0.00206001230743,0.0,0.818911710993,-0.57378090691,-0.0118248621763,0.0,-0.00850217732167,0.00847270740987,-0.99992796051,0.0,0.661701498142,0.260855759226,0.303283852153,1.0,0.0,0.0,0.0
0.465066951942,0.547673940205,-0.124051784691,-1.35585046502,0.0795213281329,1.89415633164,0.159129419767,-0.00165531267775,-0.00199177112697,0.000105544733009,-0.00122243419623,0.00015293872328,-0.000142923342671,-0.000640112927018,0.57383788777,0.818954551547,0.00206590437076,0.0,0.818913097148,-0.573779022864,-0.0118202851701,0.0,-0.00849506730579,0.00847488678933,-0.999928002471,0.0,0.661702144852,0.260856017386,0.303289021723,1.0,-0.00032,-0.000420571428571,0.017
0.465071443161,0.547667549487,-0.124048096215,-1.35585473737,0.0795197648204,1.89415788301,0.159127530343,0.000963374736693,-0.00184805427898,0.000793186627527,-0.002207748953,-0.000440375288289,-0.000500506198048,-0.00101852477503,0.573829903626,0.81896013727,0.00206933987007,0.0,0.818918720323,-0.57377101883,-0.0118192366722,0.0,-0.00849231994543,0.00847701580769,-0.999928007761,0.0,0.661699713337,0.260860553367,0.303291525179,1.0,-0.00066,-0.000867428571429,0.034
0.46506524614,0.547614363062,-0.124054557762,-1.35589634209,0.0795206784394,1.89416230836,0.159124633321,-0.000992141508255,-0.00893195495941,-0.000907792795852,-0.000261623461622,0.000494503606947,0.000237139425413,-0.00105727590504,0.573839570593,0.81895332546,0.00208442811592,0.0,0.818912093512,-0.573780613588,-0.0118125980301,0.0,-0.00847812522593,0.00848566294868,-0.99992805487,0.0,0.661695514729,0.260848924443,0.303310000066,1.0,-0.00102,-0.00134057142857,0.052
0.465060955093,0.547511531165,-0.124052770862,-1.35602468306,0.0795215231388,1.89419248903,0.159127773434,-0.00466383563505,-0.00462305142092,-0.000548092864907,-0.0109733685351,-0.00244986163638,9.36742876034e-06,-0.000387229511766,0.573851667878,0.81894482282,0.00209460027514,0.0,0.818903615738,-0.573792561532,-0.0118199560996,0.0,-0.00847818902791,0.00849834088025,-0.999927946661,0.0,0.661675489872,0.260835421823,0.303324322156,1.0,-0.00134,-0.00176114285714,0.068
0.465054261936,0.547379465943,-0.124052771203,-1.35621635613,0.0795177020736,1.89422852684,0.159121110269,-0.00315823296241,-0.0093790084175,-0.000889269792469,-0.0139144461905,4.87846327379e-05,0.00407659790835,-0.00147171527317,0.573861165411,0.818938204305,0.00208020773109,0.0,0.818896694376,-0.573801999417,-0.0118412966766,0.0,-0.00850382660666,0.00849889917555,-0.999927724211,0.0,0.661644176733,0.26081179752,0.303329763943,1.0,-0.00166,-0.00218171428571,0.084
0.465042499561,0.547217995539,-0.124058353812,-1.35640710636,0.0795149463139,1.8943299221,0.159112626084,6.40566000848e-05,-0.00727489787609,-0.00105480914302,-0.0156044390433,2.5152479303e-05,0.00958982303361,-0.00294060949912,0.573877847476,0.818926348096,0.00214463761383,0.0,0.818885669166,-0.573818417386,-0.0118081160537,0.0,-0.00843950728296,0.00853279351386,-0.999927980482,0.0,0.661629435557,0.260786711734,0.303362335064,1.0,-0.00198,-0.00260228571429,0.1
0.465021120935,0.547014122028,-0.124055165586,-1.35663438332,0.0795131359787,1.89446540541,0.159100614101,-0.000786252573984,-0.010597157988,-0.00119069644332,-0.0116153549873,6.43819068708e-05,0.00631837069758,-0.000836219387512,0.573895778722,0.818913508598,0.00224666439196,0.0,0.818874106753,-0.573835902188,-0.0117601679603,0.0,-0.00834150431764,0.00858901141173,-0.999928321525,0.0,0.661614671796,0.260759033944,0.303410222499,1.0,-0.00234,-0.00307542857143,0.118
0.464995205329,0.546770102879,-0.124052505879,-1.35693987722,0.0795016924592,1.89460110271,0.159079143563,-0.00090787472198,-0.0143784625093,-5.91592439e-05,-0.0206188547062,0.000309696817117,0.00178538733915,0.00223626858656,0.573911691782,0.81890216764,0.00231447008673,0.0,0.818863605629,-0.573851515209,-0.0117294829438,0.0,-0.00827729620539,0.00862708881854,-0.999928527299,0.0,0.661584897812,0.260717736473,0.303449320999,1.0,-0.0027,-0.00354857142857,0.136
0.464964809463,0.546540896308,-0.124053195743,-1.3572920768,0.0794944945755,1.89472607226,0.158998385676,-0.00453961088707,-0.016930643836,-0.000488730553027,-0.0244638436477,-5.20800074519e-06,0.0064406847902,-0.00422338428655,0.573888704206,0.818918249688,0.00232430947194,0.0,0.818879683441,-0.573828356003,-0.0117400509164,0.0,-0.00828054669073,0.00864097877792,-0.999928380451,0.0,0.661543554684,0.26066574661,0.303454869232,1.0,-0.00302,-0.00396914285714,0.152
0.464936332178,0.546260160191,-0.12404792558,-1.35770478551,0.0794780193083,1.89486824068,0.158925513794,-0.00100692605006,-0.0136416228814,0.00137319516548,-0.0266400314454,0.000158520052306,0.0140537247621,-0.00209695703108,0.573867292879,0.818933209741,0.00233988207347,0.0,0.818894728819,-0.573806766842,-0.011745822252,0.0,-0.00827656309997,0.00865682698514,-0.999928276353,0.0,0.66149174394,0.260611635985,0.303469372874,1.0,-0.00336,-0.004416,0.169
0.464891239133,0.545958951857,-0.124050677777,-1.35819879886,0.0794570551163,1.89503287655,0.158899137844,-0.000795105767244,-0.0150467879828,0.000462705454014,-0.0318981082945,1.51805849972e-05,0.0129159807012,-0.0011802475856,0.573906533321,0.8189057679,0.00231974391605,0.0,0.818866935322,-0.573845984228,-0.0117675623476,0.0,-0.00830550885672,0.00865320910493,-0.99992806766,0.0,0.661432680054,0.260533301945,0.303461862499,1.0,-0.0037,-0.00486285714286,0.186
0.464834882786,0.545629240603,-0.12405346174,-1.35875650641,0.0794126596676,1.89522320599,0.158808208634,-0.00348029225012,-0.0190587642979,-0.00113897593666,-0.0377317751147,-0.000310631260694,0.0136404826164,-0.00533448995238,0.573899519832,0.818910792179,0.00228089661714,0.0,0.818871532575,-0.573839199998,-0.0117784797484,0.0,-0.00833681680095,0.00862759128837,-0.999928028487,0.0,0.661369073141,0.260438263876,0.303446384245,1.0,-0.00404,-0.00530971428571,0.203
0.464782279345,0.54530165161,-0.124048172135,-1.35931084835,0.0793797249826,1.89539910787,0.15875618669,0.000870734492971,-0.0237375014748,0.000741901504046,-0.037050994054,-0.000407889696551,0.0161248814183,-0.000812103675339,0.573918387241,0.81889768469,0.0022391286431,0.0,0.818857806547,-0.573858147814,-0.0118095616283,0.0,-0.00838604191608,0.00861141832949,-0.999927756278,0.0,0.66129977551,0.260351634136,0.303429483182,1.0,-0.00434,-0.005704,0.218
0.464712132138,0.544899459069,-0.12405347484,-1.36000423612,0.0793479905441,1.89560075871,0.15865301146,-0.00571467095333,-0.0241185132688,-0.00040021406564,-0.0393252200782,-0.00562617050344,0.00987636897951,-0.00997312143413,0.573925057172,0.818893201232,0.00216809310298,0.0,0.81885224912,-0.573864943188,-0.0118645687946,0.0,-0.00847178520422,0.00858488652312,-0.999927261644,0.0,0.661212487689,0.260233685297,0.303401771345,1.0,-0.00468,-0.00615085714286,0.235
0.464642400831,0.544503552024,-0.12405387015,-1.36069358323,0.079315657518,1.89583621984,0.158601683183,-0.00415160256953,-0.0213447941538,-0.000296975222459,-0.0431706315039,-0.00209431067886,0.0137231811951,0.000998356123941,0.573970237352,0.818861654065,0.00212250747027,0.0,0.818819992979,-0.573910184374,-0.0119023640935,0.0,-0.00852842509387,0.00856971928933,-0.999926910267,0.0,0.661131422914,0.260121458145,0.303374276396,1.0,-0.005,-0.00657142857143,0.251
0.464574614311,0.544027219046,-0.124059736064,-1.36145662911,0.0792776855723,1.89610729598,0.158477668534,-0.00539612755729,-0.0309162542661,6.23265291598e-05,-0.04147797122,-0.00393997977601,0.0128992961074,-0.00551861634028,0.57396070815,0.818868359736,0.00211230298139,0.0,0.818826496557,-0.573900628393,-0.011915710939,0.0,-0.00854531118703,0.00856892451692,-0.999926772914,0.0,0.661043607243,0.260001170635,0.303371840102,1.0,-0.00534,-0.00701828571429,0.268
0.464498044466,0.543526185597,-0.124059921082,-1.36228619454,0.0792314163494,1.89639090553,0.158372328862,-0.00655469912946,-0.0247317929556,0.000467304876966,-0.0467679329478,-0.00274966969303,0.0163472186802,-0.0146518352919,0.573971091926,0.81886117468,0.00207584606274,0.0,0.818818759462,-0.573911083469,-0.0119437986405,0.0,-0.00858912728923,0.00855530156143,-0.999926514154,0.0,0.66094496338,0.259870306599,0.303356056391,1.0,-0.00568,-0.00746514285714,0.285
0.464422146836,0.542993329843,-0.124067925956,-1.36314287168,0.0791777823716,1.89668456787,0.158285669673,-0.0074074838856,-0.032807742047,-0.000626285474188,-0.0537412826139,-0.00273025215051,0.0112226577425,-0.00906084605203,0.574001167664,0.818840165179,0.00204702484779,0.0,0.818797391959,-0.573941292461,-0.0119570326915,0.0,-0.00861619242574,0.0085396137474,-0.999926415405,0.0,0.660844826065,0.259732055708,0.303350938915,1.0,-0.00602,-0.007912,0.302
0.464346729894,0.542378562457,-0.124069442365,-1.36409166737,0.0791206009939,1.89703075025,0.158145755021,-0.00389055321044,-0.0289604594136,-0.000602558490895,-0.0550181945521,-0.00117293105032,0.0180301452631,-0.00287725368888,0.573986909695,0.81885013401,0.00205728734088,0.0,0.818807484762,-0.573926983906,-0.0119526960548,0.0,-0.00860689975715,0.00854537786903,-0.999926446192,0.0,0.660734550183,0.259591023717,0.303364181722,1.0,-0.00638,-0.00838514285714,0.32
0.464268874508,0.54181333374,-0.124076937373,-1.36497083675,0.0790722265493,1.89735419652,0.158027196039,-0.00437355010377,-0.036193545183,-0.00186934458465,-0.0498756982101,-0.00464215861307,0.0187820219862,-0.00780238346749,0.573994777779,0.818844596767,0.00206599334405,0.0,0.818802045413,-0.57393479943,-0.0119500347856,0.0,-0.00859964150954,0.00855106177155,-0.99992646005,0.0,0.660635849143,0.259452418011,0.303373690333,1.0,-0.0067,-0.00880571428571,0.336
0.464183274723,0.541171757287,-0.124069483719,-1.36596117687,0.0790150974088,1.89771645524,0.157899110428,-0.00884624417353,-0.032972469133,0.000309821699117,-0.0581054377406,-0.000405236892556,0.0207289832033,-0.00615897639255,0.573994457216,0.818844784027,0.00208078322803,0.0,0.81880234946,-0.573934342039,-0.0119511692926,0.0,-0.0085920851096,0.00856382000707,-0.999926415823,0.0,0.660520176419,0.259306393417,0.303387051572,1.0,-0.00704,-0.00925257142857,0.353
0.464108074775,0.540502351403,-0.124078341482,-1.36695470416,0.078953491959,1.89807753275,0.157790392041,-0.00509412888036,-0.0437237463097,-0.000964595337364,-0.0622047520185,-0.0117397165004,0.0234358502332,-0.00760246603414,0.574011762196,0.818832579058,0.00210979490589,0.0,0.818790568972,-0.573951571809,-0.0119308122752,0.0,-0.00855858246241,0.00857607186591,-0.999926598135,0.0,0.660405385619,0.259156975779,0.303418892717,1.0,-0.00736,-0.00967314285714,0.369
0.464011078138,0.539772980462,-0.124078782325,-1.36806395941,0.0788905047104,1.89847951243,0.157653963539,-0.008049930377,-0.0459519022538,-0.000588727672995,-0.0694896151287,-0.00395016306512,0.0241220482131,-0.00913503873751,0.574024306191,0.818823730224,0.00213110906893,0.0,0.818781944757,-0.573963973815,-0.0119260472905,0.0,-0.00854231516542,0.00859092005129,-0.999926609779,0.0,0.660277203525,0.258987651299,0.303441201948,1.0,-0.0077,-0.01012,0.386
0.463904196933,0.538977290441,-0.124076105082,-1.36928698525,0.0788212221312,1.89894016374,0.157497463567,-0.00533735267068,-0.0457411094547,0.000238551775432,-0.0665846954047,-0.000494262181705,0.0303788652684,-0.00580647702608,0.574030966659,0.818818979433,0.00216220677762,0.0,0.818777546247,-0.573970453726,-0.0119161618123,0.0,-0.0085163006139,0.00861077802801,-0.999926660873,0.0,0.660138132011,0.258803947026,0.303461078231,1.0,-0.00806,-0.0105931428571,0.404
0.463788264953,0.538155391126,-0.12407940743,-1.37055674753,0.0787542611206,1.89942611778,0.157342805039,-0.00553913730713,-0.0450963280029,0.0010568457119,-0.0705311762033,-0.00529162478052,0.0331021588461,-0.00891527696636,0.574053909687,0.818802798933,0.00219821173981,0.0,0.81876177714,-0.573993190177,-0.0119044876557,0.0,-0.00848583262168,0.0086337956595,-0.999926721424,0.0,0.659997295085,0.258607699368,0.30347947883,1.0,-0.00842,-0.0110662857143,0.422
0.463686315983,0.537453969487,-0.124085337347,-1.3716565582,0.0786888150366,1.89984719321,0.157203444216,-0.0116558104364,-0.0468409721306,-0.000352505609656,-0.074109256241,-0.00352849276417,0.0295223334323,-0.012775081197,0.574070700737,0.818790979954,0.00221553664453,0.0,0.8187502133,-0.574009939782,-0.0118921887859,0.0,-0.00846563984371,0.00864109461776,-0.999926829536,0.0,0.659876346409,0.258433607721,0.30348800533,1.0,-0.00872,-0.0114605714286,0.437
0.463569826007,0.536563422186,-0.124090749194,-1.3730308675,0.0785951654892,1.90035388587,0.157032311424,-0.00589629308336,-0.0450278170103,0.00028182635334,-0.0736757906169,-0.000989119056507,0.0268323329825,-0.00449093898396,0.574080334978,0.818784192078,0.00222771090822,0.0,0.81874368982,-0.574019632596,-0.0118734441383,0.0,-0.00844320112668,0.0086404013916,-0.999927025247,0.0,0.65971877421,0.258221388938,0.303506645093,1.0,-0.00908,-0.0119337142857,0.455
0.463465154415,0.535764988285,-0.124099906623,-1.37431319177,0.0785321228429,1.9008217971,0.156882935324,-0.00708526578496,-0.0526499126373,-0.000485371839354,-0.0804428937842,-0.00128654964653,0.0312569205328,-0.00661240372797,0.574103833273,0.818767740008,0.00221888368469,0.0,0.818727013475,-0.57404305126,-0.0118911567027,0.0,-0.00846252366862,0.0086435850733,-0.999926834389,0.0,0.659568172347,0.258026826272,0.30350070424,1.0,-0.0094,-0.0123542857143,0.471
0.4633462553,0.534871266307,-0.124095654963,-1.37571603304,0.0784507559305,1.90132544594,0.156714312598,-0.0040975545237,-0.0540411868842,0.00152342433845,-0.0834797114209,-0.0013192145506,0.0268394451494,-0.00818753679692,0.574115259451,0.818759732969,0.0022170782725,0.0,0.818718893934,-0.574054392355,-0.011902698612,0.0,-0.00847288994602,0.00864885129,-0.999926701067,0.0,0.659400534258,0.257817095759,0.303507115126,1.0,-0.00974,-0.0128011428571,0.488
0.463219364947,0.533978977555,-0.124099320874,-1.37719108262,0.0783730619899,1.90185296422,0.156534415271,-0.00363482367741,-0.0499047340892,0.00180678773641,-0.0809980096107,-0.00748434488797,0.0322321998706,-0.0112791330705,0.574134465772,0.818746380056,0.002174226089,0.0,0.818704846116,-0.574073630577,-0.0119410436788,0.0,-0.00852868462509,0.00863598043827,-0.999926337977,0.0,0.659224140704,0.257591136443,0.30348033013,1.0,-0.01008,-0.013248,0.505
0.463097961043,0.533109445996,-0.124102195655,-1.37858879593,0.0782933291794,1.90237992143,0.156357338927,-0.00711828034637,-0.0518361765858,-0.0013913094901,-0.0854293836705,-0.00110319624983,0.0340053859952,-0.0100129324967,0.574146133243,0.818738200109,0.00217353745892,0.0,0.81869662183,-0.574085263583,-0.0119456453309,0.0,-0.00853272461372,0.00863818016259,-0.99992628451,0.0,0.65906319209,0.257377784119,0.303474040754,1.0,-0.0104,-0.0136685714286,0.521
0.462954133514,0.532107243624,-0.124102074518,-1.38021634888,0.0782006544055,1.90300216875,0.156152385731,-0.00949794641681,-0.0521534898186,0.000117178853953,-0.0910712965192,-0.000725770879475,0.0370501002473,-0.0132719018415,0.574160259615,0.818728298863,0.00217159399031,0.0,0.818686645621,-0.574099345888,-0.0119525827238,0.0,-0.0085393714405,0.00864071936,-0.999926205829,0.0,0.658876630334,0.257130241406,0.303459878219,1.0,-0.01076,-0.0141417142857,0.539
0.46285403178,0.531301205979,-0.12410029063,-1.38151927879,0.0781307975553,1.90347263827,0.155985850506,-0.00655497179723,-0.0537096921932,0.000845035048768,-0.0975835394338,-0.00709005640805,0.0399215145879,-0.0135142039229,0.574156897841,0.8187307034,0.00215380446468,0.0,0.818688689388,-0.574095927576,-0.0119767571207,0.0,-0.00856941339766,0.00863999941575,-0.999925955041,0.0,0.658717027157,0.256941861691,0.303448555859,1.0,-0.01104,-0.0145097142857,0.553
0.462715757284,0.530273270509,-0.124099996103,-1.38315571701,0.0780234456483,1.90404197202,0.155769606739,-0.00520107426163,-0.0637966639702,0.00147655302414,-0.100250334565,-0.00548168808242,0.0344437530842,-0.0124631958081,0.574152834033,0.818733650407,0.00211654545096,0.0,0.818691144202,-0.574092012809,-0.0119965884352,0.0,-0.00860708451686,0.00862083824364,-0.999925796869,0.0,0.658517005909,0.256691486759,0.303443250309,1.0,-0.01138,-0.0149565714286,0.57
0.46257457072,0.529161254741,-0.124110297136,-1.38490544763,0.0779141244401,1.90468326111,0.155538287242,-0.0048045014454,-0.0637715557622,-0.000828054747323,-0.0965500058576,-0.00383051559158,0.0296269403177,-0.0135462969631,0.574151917458,0.818734297514,0.0021148651568,0.0,0.818691815902,-0.574091149946,-0.011992040249,0.0,-0.00860433493931,0.00861684159973,-0.999925854982,0.0,0.658309874775,0.256425264364,0.303449585069,1.0,-0.01174,-0.0154297142857,0.588
0.4624332801,0.528142177291,-0.124105697057,-1.3865144746,0.0778067284117,1.90530088974,0.155317659055,-0.00907756138544,-0.0634507018901,0.00124402661176,-0.0999358340957,-0.0101710299609,0.0401565093025,-0.0171340010056,0.574142166263,0.818741089894,0.00213249578935,0.0,0.81869891317,-0.574081401904,-0.0119741581733,0.0,-0.00857967432639,0.00862090707705,-0.999926031839,0.0,0.658124519083,0.256181849475,0.30345464768,1.0,-0.01206,-0.0158502857143,0.604
0.462293794883,0.527000834194,-0.124111223992,-1.38827312849,0.0777028816199,1.9059685336,0.155075652914,-0.011764495261,-0.0670581029279,-0.00151534020813,-0.110384968555,-0.00272007755044,0.0365497790364,-0.0124848719298,0.574129406933,0.81874992561,0.00217492760387,0.0,0.818708307146,-0.574068474677,-0.0119516146931,0.0,-0.00853699063235,0.00864257114866,-0.999926210155,0.0,0.657918490003,0.255921563386,0.30347897,1.0,-0.0124,-0.0162971428571,0.621
0.462138865002,0.525763242982,-0.12411210451,-1.39019561918,0.0775782786885,1.90668025452,0.15481217193,-0.00906410374226,-0.0676747162198,0.000267849073787,-0.106249143617,-0.011003129022,0.0344278537005,-0.0179405267172,0.574111291985,0.818762579922,0.00219295121161,0.0,0.818721245875,-0.574050338747,-0.0119363745618,0.0,-0.00851435637301,0.00864838967771,-0.999926352834,0.0,0.657688825323,0.255635324153,0.303496376508,1.0,-0.01276,-0.0167702857143,0.639
0.461986410589,0.524679649476,-0.124120300453,-1.39192122938,0.0774622659624,1.90730487799,0.154582640456,-0.0080864670994,-0.0608083072102,-0.000286311562264,-0.107395551148,-0.00673104093415,0.0434292068705,-0.0154042632542,0.574115517455,0.818759679313,0.00216957366798,0.0,0.818718131975,-0.574054751421,-0.011937740469,0.0,-0.00852885069224,0.00863007750296,-0.999926387525,0.0,0.657483907793,0.255363334744,0.303491557975,1.0,-0.01308,-0.0171908571429,0.655
0.461828252615,0.523407125879,-0.124126850461,-1.39393155296,0.0773530075792,1.90802536781,0.154297519837,-0.00798800379912,-0.0736464127873,-0.00365119650719,-0.109448722004,-0.0108301048811,0.0399730058076,-0.0245553268523,0.574094675779,0.818774316476,0.00216074572192,0.0,0.818732502109,-0.574033794889,-0.0119599003177,0.0,-0.00855228279918,0.00863535410392,-0.999926141832,0.0,0.657236291289,0.255064851187,0.303492061095,1.0,-0.01344,-0.017664,0.673
0.461688732116,0.522330033501,-0.124124183876,-1.39564779783,0.0772388565312,1.90869449507,0.154061056091,-0.0156634860802,-0.0717761137073,0.00034414482776,-0.114062615279,-0.00883664170626,0.0433849872883,-0.0161117902573,0.574074809313,0.818788197223,0.00217905976601,0.0,0.818746716466,-0.574013951998,-0.0119391829165,0.0,-0.00852501548157,0.0086382484976,-0.999926349675,0.0,0.657035311451,0.254812071611,0.30349007924,1.0,-0.01374,-0.0180582857143,0.688
0.461529262481,0.521151743631,-0.12413266363,-1.39751961955,0.0771227878422,1.90942441044,0.153817445161,-0.00979734277129,-0.0772585676567,-0.00128502640298,-0.115274428018,-0.00384961950633,0.0382519547025,-0.016542494846,0.574080968002,0.8187838122,0.00220407757759,0.0,0.818742742249,-0.5740200947,-0.0119163667221,0.0,-0.00849190684803,0.00864569831939,-0.999926567013,0.0,0.656819640982,0.254526388644,0.303490512099,1.0,-0.01406,-0.0184788571429,0.704
0.461337884405,0.519715097465,-0.12413335004,-1.39980544981,0.0769779114267,1.91026283449,0.153516314119,-0.018080104252,-0.0741045787957,0.000100355153697,-0.121271240358,-0.0096492924422,0.0448926226158,-0.0146814826196,0.574074323777,0.818788506878,0.00219059030868,0.0,0.818747265142,-0.574013509775,-0.0119228067078,0.0,-0.00850499241797,0.00863828333631,-0.999926519883,0.0,0.656541916265,0.254181340273,0.303484119462,1.0,-0.01444,-0.0189782857143,0.723
0.46117889411,0.518441196294,-0.124134415798,-1.40174632731,0.0768526672188,1.9109570872,0.153250467247,-0.0133210660044,-0.0823653961634,-0.000210494067539,-0.117296075756,-0.0131838671132,0.0435156241603,-0.015829384261,0.574056685247,0.818800817995,0.00221121579149,0.0,0.818759852955,-0.573995798408,-0.011911066291,0.0,-0.00848372558657,0.00864824845463,-0.999926614407,0.0,0.656302630721,0.253889607496,0.303514685881,1.0,-0.01476,-0.0193988571429,0.739
0.460975234058,0.516926836462,-0.124139736792,-1.4041313394,0.0766977134051,1.91180633842,0.152922340091,-0.00612635089387,-0.0807245904268,0.000254637547613,-0.123473704382,-0.00866600855964,0.0489365436737,-0.0184655555302,0.574042863295,0.818810572952,0.00218714978162,0.0,0.818769315111,-0.57398209633,-0.0119209323009,0.0,-0.00850576435312,0.00863406347238,-0.999926549763,0.0,0.656008641599,0.253522309677,0.3035157791,1.0,-0.01514,-0.0198982857143,0.758
0.460795354643,0.515664415853,-0.124145782143,-1.40615913807,0.0765691261589,1.91258022322,0.152644122085,-0.0127499148011,-0.0825914274821,0.00131181904999,-0.134895862491,-0.00700844261801,0.042755903828,-0.0173343748057,0.57403928009,0.818813083127,0.00218785636353,0.0,0.818771902089,-0.57397857935,-0.0119125856813,0.0,-0.00849856194602,0.00862981357543,-0.999926647691,0.0,0.655769483775,0.253208423991,0.303503270646,1.0,-0.01546,-0.0203188571429,0.774
0.460619945886,0.514348153633,-0.124157424984,-1.408249226,0.0764418690048,1.91335144617,0.152360292395,-0.0120808209668,-0.0854984229135,-0.00123098617011,-0.129745550784,-0.00819848797621,0.0462673012087,-0.0173206638636,0.574034613573,0.818816369812,0.00218216617681,0.0,0.818775125362,-0.57397394726,-0.0119142291565,0.0,-0.00850322304639,0.00862604939306,-0.999926640544,0.0,0.655515750556,0.252887624649,0.303498427624,1.0,-0.01578,-0.0207394285714,0.79
0.46044394585,0.513129370458,-0.124152668235,-1.41026267742,0.0763189306032,1.91405038757,0.152082706755,-0.00977869039651,-0.0819391183364,0.000962232054976,-0.135601498498,-0.0108989770146,0.0397302178936,-0.0285286225091,0.574020477738,0.818826490177,0.00210167161876,0.0,0.818784056357,-0.573960001658,-0.0119721532837,0.0,-0.00859700632635,0.00859324180712,-0.99992612111,0.0,0.655258673543,0.252579728594,0.303454645422,1.0,-0.01608,-0.0211337142857,0.805
0.460252162399,0.511702405518,-0.124153651822,-1.41255113727,0.0761862302879,1.9148733467,0.15175368535,-0.0136350920502,-0.0831284572492,-0.00174314200464,-0.13627351071,-0.0093318186016,0.0478003303163,-0.0285853054503,0.573992864349,0.818845921722,0.00207245178586,0.0,0.818802961622,-0.573932369207,-0.0120038542584,0.0,-0.00864002628823,0.00858722167974,-0.999925802032,0.0,0.65497142784,0.252235100527,0.303436333987,1.0,-0.01642,-0.0215805714286,0.822
0.460021248981,0.510069229432,-0.124161429454,-1.41513932514,0.076019845847,1.91587006202,0.151387965516,-0.01559728472,-0.0818956718361,-0.00052798544674,-0.137139431825,-0.00962452852786,0.055070160006,-0.0255314951073,0.573978483969,0.818855934386,0.00209894335548,0.0,0.818813437819,-0.573917997357,-0.0119763624906,0.0,-0.00860245975461,0.00859298285203,-0.999926076434,0.0,0.654665097105,0.251834397472,0.303434474946,1.0,-0.0168,-0.02208,0.841
0.459826157309,0.508637619067,-0.12416462579,-1.41737147122,0.0758741047325,1.91667400637,0.151080868369,-0.0180730430074,-0.0899030244385,-0.00296408463343,-0.137968834841,-0.0136355594591,0.0461028076278,-0.0186944067232,0.57396559931,0.818864971316,0.00209677419544,0.0,0.818822470849,-0.573905147695,-0.0119745389833,0.0,-0.00860234663856,0.0085900246561,-0.999926102824,0.0,0.654387747585,0.251489845082,0.303443562184,1.0,-0.01712,-0.0225005714286,0.857
0.459620780939,0.507116244726,-0.12416530996,-1.41975612675,0.0757157352202,1.91753890377,0.150742922488,-0.010104459517,-0.0901930078906,8.92452108369e-05,-0.142785587675,-0.0127117436253,0.048822282792,-0.0214374129467,0.573938198646,0.818884189787,0.00209159101081,0.0,0.818841663175,-0.573877813392,-0.0119721696799,0.0,-0.0086036684398,0.00858413263309,-0.999926142051,0.0,0.654090244412,0.251125293348,0.303447571046,1.0,-0.01746,-0.0229474285714,0.874
0.459382240352,0.505446254862,-0.124171354755,-1.42234893572,0.0755542848849,1.91851391724,0.150398749729,-0.0149718649272,-0.0956004923548,0.000901414046774,-0.141324833278,-0.0048493217718,0.057045493164,-0.0178430106416,0.57394650385,0.818878263995,0.00213222303434,0.0,0.818836297976,-0.573885980549,-0.0119476084885,0.0,-0.00856014880057,0.00860339537929,-0.999926350008,0.0,0.653777444254,0.250720170592,0.303465553339,1.0,-0.01782,-0.0234205714286,0.892
0.459174457936,0.503892213969,-0.124176464463,-1.42469362334,0.0754159409493,1.91940496052,0.150070651373,-0.0132648076413,-0.102017121037,-0.000132272599925,-0.146748819919,-0.00841500040459,0.0592756441161,-0.0201398986166,0.573935191594,0.818885960522,0.00221955185995,0.0,0.818845110929,-0.573874293568,-0.0119048893837,0.0,-0.00847516619543,0.00865027070284,-0.999926669499,0.0,0.653494119426,0.250361707383,0.303512641348,1.0,-0.01814,-0.0238411428571,0.908
0.458953278973,0.502331604342,-0.124185779706,-1.42702914397,0.0752627244221,1.92028526086,0.149746542712,-0.0133187438546,-0.0966036396564,-0.00245606068799,-0.146799088815,-0.00891060617143,0.0559566223389,-0.027931554307,0.573935943009,0.818885205419,0.00230229655977,0.0,0.818845558839,-0.573874847152,-0.0118472560644,0.0,-0.00838047397968,0.00868495860685,-0.999927166923,0.0,0.653215159435,0.24999020544,0.303567270738,1.0,-0.01846,-0.0242617142857,0.924
0.458706092979,0.500508825698,-0.12418355102,-1.4297602456,0.0750814534509,1.92124160284,0.149361553261,-0.0196997370574,-0.106219401264,-0.0010056316656,-0.153232311207,-0.0095250197745,0.056588918693,-0.0232306726975,0.573911516515,0.818902216818,0.00234038544866,0.0,0.818863057359,-0.573850267373,-0.0118283908188,0.0,-0.00834342528421,0.00870507249624,-0.999927301841,0.0,0.652867342828,0.249565861576,0.303622168573,1.0,-0.01882,-0.0247348571429,0.942
0.458486463203,0.499013807803,-0.124181055243,-1.43205238945,0.0749445896223,1.92209169379,0.149027814834,-0.016636895657,-0.107085010808,0.000189882945044,-0.15425897143,-0.00850421552389,0.0641081112218,-0.0296874804653,0.573896157158,0.818912841124,0.00238879517192,0.0,0.818874230722,-0.573834639971,-0.0118130067932,0.0,-0.00830320940032,0.00873573020176,-0.999927369228,0.0,0.652585092182,0.249207351178,0.303647583327,1.0,-0.01912,-0.0251291428571,0.957
0.458248060538,0.49746962313,-0.124181293411,-1.43454210998,0.0747935366327,1.92301111522,0.148669204713,-0.0144686029305,-0.0978517967008,-0.000850344727623,-0.161583817063,-0.00928660050872,0.0557225124761,-0.0238829604951,0.573883677214,0.818921652198,0.00236632398233,0.0,0.81888266963,-0.573822163833,-0.0118340430359,0.0,-0.00833346537233,0.00872927389921,-0.999927173914,0.0,0.652275333177,0.248814746965,0.303618955328,1.0,-0.01944,-0.0255497142857,0.973
0.457950155269,0.495574513586,-0.12417875304,-1.43757075622,0.0746052775652,1.92405381141,0.148220595638,-0.0172670705087,-0.102008303484,0.000343585337927,-0.161844537726,-0.0090034557787,0.0524790573922,-0.0246704922846,0.573860339161,0.818938220333,0.00229113893429,0.0,0.818898072603,-0.573798928499,-0.0118946728276,0.0,-0.00842651136778,0.00870225778583,-0.999926629616,0.0,0.651883892901,0.248328334003,0.303588303758,1.0,-0.01982,-0.0260491428571,0.992
0.457666747871,0.493898154594,-0.124193440837,-1.44033615112,0.0744292781752,1.92503710615,0.147837750756,-0.0203809122919,-0.108654788106,-0.00578871865933,-0.16837040287,-0.00650474895617,0.064960378761,-0.0191858164817,0.573881075988,0.818923955199,0.0021938836153,0.0,0.81888251635,-0.573820029253,-0.0119476083491,0.0,-0.00852545246551,0.00865320587139,-0.999926216622,0.0,0.651536751879,0.247867676702,0.303525345443,1.0,-0.0233125714286,-0.0306393795918,1.009
0.457417023086,0.491940965889,-0.124262128987,-1.44332025327,0.0742575153341,1.92614172422,0.147407085089,-0.0180454615549,-0.1380093401,-0.00296300447026,-0.206417529962,-0.0081317002312,0.0843445141595,-0.0319131950424,0.573885903796,0.818920413405,0.00225229536602,0.0,0.818879888831,-0.573824777202,-0.0118995646257,0.0,-0.00845253623354,0.00867351877106,-0.999926659662,0.0,0.651170284575,0.247383971863,0.30356496599,1.0,-0.0295611428571,-0.0388517877551,1.024
0.457058553867,0.489452929074,-0.124269610676,-1.44733602357,0.0740367365156,1.9276268554,0.146811975725,-0.025827939359,-0.170600106141,-0.000719503448578,-0.268870808044,-0.00761532129659,0.0966617528406,-0.0340697116138,0.573839105656,0.818953274618,0.00222749061355,0.0,0.818912108963,-0.573777759595,-0.0119493635584,0.0,-0.00850804964829,0.00868129827544,-0.999926121347,0.0,0.650656515287,0.246768129074,0.303513139137,1.0,-0.0362262857143,-0.0476116897959,1.04
0.456479610819,0.485700894202,-0.124325768392,-1.45320586156,0.0736801619673,1.92983070052,0.145947249211,-0.0340703258763,-0.209309963635,-0.00106406460841,-0.329217860673,-0.0224900978041,0.126380523028,-0.0509229518046,0.573840749656,0.818951949839,0.00229015075873,0.0,0.818911715355,-0.573779269115,-0.0119037678361,0.0,-0.0084347352461,0.00870646597152,-0.999926523646,0.0,0.649935609938,0.245804501006,0.303518797455,1.0,-0.0441411428571,-0.0580140734694,1.059
0.455867994656,0.481737036277,-0.124420139285,-1.45940574742,0.0733042467661,1.93201861784,0.144982445235,-0.0423641815732,-0.242963483902,-0.00378283476843,-0.385945839685,-0.0305687424555,0.134117841198,-0.0589850024243,0.573822567135,0.818964832322,0.00223869758313,0.0,0.818923959205,-0.573761327449,-0.011926234329,0.0,-0.00848285172163,0.00867703254693,-0.999926372456,0.0,0.649147370416,0.244757730175,0.303510745859,1.0,-0.0512228571429,-0.0673214693878,1.076
0.455129570821,0.477130550417,-0.124514301617,-1.46658256922,0.072880321507,1.93457895619,0.143931033204,-0.0469764868134,-0.286169291174,-0.00933369397724,-0.440129128137,-0.025400763878,0.158495067323,-0.061386174006,0.573869370661,0.818932068631,0.00222694540864,0.0,0.818890947907,-0.573808076082,-0.0119437917222,0.0,-0.00850347852021,0.00867796875334,-0.999926189132,0.0,0.648235929303,0.243539936089,0.303511247956,1.0,-0.0583045714286,-0.0766288653061,1.093
0.454398768999,0.472605941117,-0.124573995212,-1.47358104147,0.0724623409294,1.93712043459,0.142914766369,-0.0481481373793,-0.305410056101,-0.00454413088998,-0.486071450621,-0.0309434579353,0.171621097665,-0.0781109538106,0.573903360107,0.818908088621,0.00228529005179,0.0,0.818867596932,-0.573841691061,-0.0119297609692,0.0,-0.00845814589062,0.00871804772792,-0.999926224985,0.0,0.64734388927,0.242368075255,0.303532299741,1.0,-0.0645531428571,-0.0848412734694,1.108
0.453460582718,0.466879908612,-0.124624629005,-1.4822069272,0.0719321879963,1.94034201338,0.141538387288,-0.0570313157293,-0.350506141103,-0.00147457240127,-0.524921037461,-0.032810052841,0.194019310442,-0.0789944965606,0.573848907479,0.818945439719,0.00255832929372,0.0,0.818908535682,-0.573786227967,-0.011786504285,0.0,-0.00818472740047,0.00885888086358,-0.999927262588,0.0,0.646259052296,0.240919956254,0.30366114801,1.0,-0.0716348571429,-0.0941486693877,1.125
0.452330497535,0.460280495287,-0.124678372337,-1.49242647738,0.0712615548324,1.9439063784,0.139974814598,-0.0621860450554,-0.378805372324,-0.00390026312343,-0.590982667114,-0.0373126974042,0.204640174405,-0.0798849491988,0.573828947947,0.818959614742,0.00249696227277,0.0,0.818921794927,-0.573766374231,-0.0118316734543,0.0,-0.00825714871972,0.00883434364549,-0.999926884261,0.0,0.644906384652,0.239173238277,0.303655209227,1.0,-0.0791331428571,-0.104003559184,1.143
0.451133283118,0.453469451523,-0.124769077391,-1.50295430021,0.0705521456797,1.94750301396,0.138334142995,-0.0743144854482,-0.421167718997,-0.00375096711856,-0.620157939302,-0.0410441344104,0.220941404655,-0.112136806546,0.573822664517,0.818964397076,0.00236915812493,0.0,0.818924932939,-0.573760605212,-0.0118940749423,0.0,-0.00838165568711,0.00876542119544,-0.999926454915,0.0,0.643495217215,0.237327359663,0.303641402665,1.0,-0.0862148571429,-0.113310955102,1.16
0.449844417649,0.445992790308,-0.124855218901,-1.51401709522,0.0698033433927,1.95167154839,0.136613732366,-0.0838487398581,-0.440439458427,-0.00106473280209,-0.668642896928,-0.0430737768371,0.243706289969,-0.0970539281027,0.573829505629,0.818958153527,0.00282633035114,0.0,0.818925334635,-0.573766564354,-0.0115746630467,0.0,-0.00785766210545,0.00895660914497,-0.99992901563,0.0,0.642083017223,0.235405345927,0.303866034087,1.0,-0.0932965714286,-0.12261835102,1.177
0.448414637677,0.438181754957,-0.124875832029,-1.52608041723,0.0690043937159,1.95577876938,0.134698208098,-0.0931682229513,-0.466667454349,0.000769224827587,-0.743300627765,-0.0508589011092,0.243119143322,-0.125796786041,0.573763349184,0.819004913927,0.00270499486549,0.0,0.818969986836,-0.573700228891,-0.0117027745497,0.0,-0.00803292834805,0.00893010466194,-0.999927860044,0.0,0.640409976891,0.233312258801,0.303823540356,1.0,-0.100378285714,-0.131925746939,1.194
0.446955098009,0.430239985849,-0.124918438676,-1.53794671294,0.0682030672475,1.96002654825,0.132747576778,-0.0931224513258,-0.498060212719,-0.00741762344287,-0.751657691854,-0.0449377246531,0.26938537978,-0.120697213373,0.573688978116,0.819056107143,0.00296591307028,0.0,0.819024640209,-0.573625073208,-0.0115611858706,0.0,-0.00776808735079,0.00906185526197,-0.999928767262,0.0,0.638805445709,0.231225213881,0.303960837185,1.0,-0.107043428571,-0.14068564898,1.21
0.445242424032,0.42146021789,-0.124967316616,-1.55141662275,0.0672310497835,1.96461374929,0.130513422797,-0.10241976717,-0.52257000509,-0.00141911262346,-0.838516906522,-0.0578448410235,0.268744519998,-0.134974662021,0.573600656626,0.819118413058,0.00283883947697,0.0,0.819085349479,-0.573537239386,-0.0116177540241,0.0,-0.00788828795678,0.00898937623517,-0.999928480456,0.0,0.636916115184,0.228799395374,0.303919198214,1.0,-0.114125142857,-0.149993044898,1.227
0.443612248917,0.413229823825,-0.125083597794,-1.56375946433,0.0663357637251,1.96894921856,0.128523691558,-0.105112334899,-0.561815777018,-0.00870387565768,-0.858454864232,-0.0611089982061,0.304397494917,-0.150144956473,0.573656522992,0.819078810244,0.00297374160615,0.0,0.819048075925,-0.573593335681,-0.0114752554386,0.0,-0.00769356832962,0.00901866611345,-0.999929733865,0.0,0.635216904672,0.226511946656,0.30400244528,1.0,-0.120373714286,-0.158205453061,1.242
0.441585754952,0.403595434025,-0.12515103182,-1.57853602452,0.0653587192709,1.97389268542,0.126062415415,-0.119080649678,-0.575043278173,-0.00659447527461,-0.893024407804,-0.0587378178487,0.281550010052,-0.151023861421,0.57368041538,0.819062614773,0.00282152308623,0.0,0.819029027867,-0.573616706969,-0.0116649860005,0.0,-0.00793603394672,0.00900305666131,-0.999927979575,0.0,0.633087924386,0.223773717872,0.303910776157,1.0,-0.127455428571,-0.16751284898,1.259
0.439232941998,0.392718728265,-0.125298050015,-1.59465299612,0.0642003005237,1.97947731014,0.123283407762,-0.132779874777,-0.61173798243,-0.00443056344619,-0.910750627804,-0.0734953452859,0.31144010708,-0.166826413073,0.5737522022,0.819011444514,0.00306775606153,0.0,0.818981475,-0.573688178491,-0.0114875744622,0.0,-0.00764866682778,0.00910363180296,-0.999929308393,0.0,0.630820427194,0.220667656002,0.304048400657,1.0,-0.134953714286,-0.177367738775,1.277
0.437168191099,0.383444830936,-0.125397294432,-1.60876461573,0.0631335788437,1.98408786563,0.120789418972,-0.14061605296,-0.628809089926,-0.00465311787816,-0.946140351667,-0.0696727371489,0.302284547725,-0.175247898499,0.573711867467,0.819040561499,0.00282818827654,0.0,0.819007488281,-0.573648617944,-0.0116079357216,0.0,-0.00788513570842,0.00897609067458,-0.999928624668,0.0,0.628730120992,0.217945618596,0.303954385919,1.0,-0.141202285714,-0.185580146939,1.292
0.434634995023,0.372369815261,-0.125495338446,-1.6251533569,0.0619405365999,1.98960036307,0.117852032705,-0.154462281417,-0.654199251196,-0.00371174273325,-0.980928201192,-0.0689793611939,0.317286777313,-0.17920865781,0.573724861146,0.819030946816,0.00297300542414,0.0,0.818999661331,-0.573661033391,-0.0115464457677,0.0,-0.00775154828691,0.00905954785467,-0.999928916519,0.0,0.626320095654,0.214743549912,0.304032470269,1.0,-0.148284,-0.194887542857,1.309
0.431584031267,0.359539856912,-0.125660452951,-1.64412448107,0.0604344481886,1.99593004301,0.114486482303,-0.163737295233,-0.678316458918,-0.00712770813548,-1.02082702944,-0.0885595524941,0.340401131626,-0.18829856786,0.57383540721,0.81895326923,0.00303564678937,0.0,0.818923617354,-0.573772341677,-0.0114085830505,0.0,-0.00760147257151,0.00903278565933,-0.999930310771,0.0,0.623499337759,0.210930339493,0.304087265423,1.0,-0.156198857143,-0.205289926531,1.328
0.428795432412,0.348439229729,-0.125775055234,-1.66070162987,0.0592221111671,2.00119991358,0.11136169373,-0.173761807624,-0.70746759584,-0.00679367364495,-1.03131976283,-0.0732956700991,0.328355722399,-0.198555882037,0.573869649285,0.818929896252,0.00286313739337,0.0,0.818897208127,-0.573806185394,-0.0116004753118,0.0,-0.00785724137389,0.00900194923207,-0.999928611786,0.0,0.620938834773,0.20755712187,0.304005848109,1.0,-0.162864,-0.214049828571,1.344
0.425490379869,0.335409443492,-0.12590574785,-1.67972240303,0.0577330466669,2.00741595617,0.10774372481,-0.183748866544,-0.726470447079,-0.00433276827263,-1.07985960919,-0.0866679004877,0.342987384867,-0.207891826841,0.573907049016,0.818903184638,0.00300336155965,0.0,0.818872469187,-0.573843309061,-0.0115101153322,0.0,-0.00770235945966,0.00906528095508,-0.999929244667,0.0,0.618005144354,0.203644000498,0.304077852034,1.0,-0.170362285714,-0.223904718367,1.362
0.422428104901,0.32345303013,-0.125938461833,-1.69715406132,0.0562579500307,2.01298912276,0.104349462143,-0.190828763223,-0.750717622476,-0.000267856691842,-1.11139976003,-0.0907270244272,0.343654887599,-0.211134810255,0.57377076221,0.818998661787,0.0030085422277,0.0,0.818968410695,-0.573707492062,-0.0114543763189,0.0,-0.00765524304772,0.00903626125389,-0.999929869159,0.0,0.615226745866,0.200088650182,0.304102271244,1.0,-0.177027428571,-0.232664620408,1.378
0.419117111952,0.311215180469,-0.12599100306,-1.71494888228,0.054857949766,2.01853667882,0.100770668115,-0.208821634029,-0.764871102083,-0.00539883195598,-1.1065387674,-0.0791029246179,0.354327039583,-0.23788768978,0.573714644655,0.819038019028,0.00299613023169,0.0,0.81900691814,-0.573650609648,-0.0115495882933,0.0,-0.00774096901998,0.00908019415289,-0.999928811202,0.0,0.612340009204,0.196366271997,0.304097952513,1.0,-0.183692571429,-0.241424522449,1.394
0.415195178693,0.297038404995,-0.126119611273,-1.73550765185,0.0530852861132,2.02484894459,0.0965673603421,-0.220770885311,-0.811007046075,-0.00458105958304,-1.17342096982,-0.0896764248864,0.337334358645,-0.228662472442,0.573635762525,0.819093784965,0.00285136559234,0.0,0.819061058705,-0.573572498698,-0.0115895535443,0.0,-0.00785761767466,0.00898379787148,-0.999928772073,0.0,0.608949729577,0.191971593378,0.304061203798,1.0,-0.191190857143,-0.251279412245,1.412
0.411437985336,0.284009690801,-0.126257866223,-1.75395673348,0.0515900435842,2.03056567127,0.0927008016834,-0.245635363324,-0.793164382994,-0.00780550713537,-1.16975130935,-0.0988118014576,0.353193207613,-0.251351622497,0.573703757567,0.819045316624,0.00308460219868,0.0,0.819015347063,-0.573639428237,-0.0115071520799,0.0,-0.00765557697074,0.00912820867375,-0.999929031456,0.0,0.605903139297,0.187921969618,0.304181697656,1.0,-0.197856,-0.260039314286,1.428
0.407214152621,0.269876562827,-0.126414303508,-1.77402248487,0.0498701067048,2.03658815734,0.0883240365476,-0.255567394887,-0.858986540232,-0.0143180473624,-1.18457210453,-0.102891691551,0.366407421773,-0.266795434524,0.573686373276,0.819057382635,0.00311383514205,0.0,0.819027666387,-0.573621806029,-0.0115087897455,0.0,-0.00764034256867,0.00915292920206,-0.999928922,0.0,0.602504473146,0.183442941407,0.304220778451,1.0,-0.204937714286,-0.269346710204,1.445
0.402650870176,0.255440845488,-0.126601340109,-1.79443285639,0.0480462936945,2.04258253602,0.0838536092291,-0.27846419284,-0.863182660248,-0.0123626200702,-1.19815471657,-0.102740073763,0.36190593442,-0.268226978016,0.573829821222,0.818957096144,0.00305906066078,0.0,0.818926784138,-0.573765541165,-0.0115227120839,0.0,-0.00768157112652,0.0091173980627,-0.999928930733,0.0,0.59899777338,0.178735233268,0.304231475505,1.0,-0.212019428571,-0.278654106122,1.462
0.397871500593,0.240712695711,-0.126737616161,-1.81529726933,0.0461893862224,2.04856613285,0.0790868689306,-0.292592124828,-0.862037273902,-0.0071029650931,-1.22588406737,-0.103039885008,0.340218849022,-0.285928335139,0.573829860836,0.81895766456,0.00289506007034,0.0,0.818924641096,-0.573765435108,-0.0116792372101,0.0,-0.00790386760248,0.00907290577357,-0.999927603008,0.0,0.59530812071,0.173926801037,0.304152797649,1.0,-0.219101142857,-0.287961502041,1.479
0.393239398232,0.226408386046,-0.126850535149,-1.83497437946,0.044418602713,2.05433134789,0.0744530159246,-0.294936239141,-0.897798011819,-0.00752444190456,-1.24815880032,-0.116603427908,0.357141437205,-0.292469713503,0.573763143868,0.819003324505,0.00318686197564,0.0,0.81897412069,-0.573697818351,-0.0115303842795,0.0,-0.00761527391254,0.00922584464458,-0.999928443137,0.0,0.591805510559,0.169380824239,0.304288145012,1.0,-0.225766285714,-0.296721404082,1.495
0.387618895944,0.210035515056,-0.1269951874,-1.85749996735,0.0422613666345,2.06062417238,0.0689693377703,-0.320384437241,-0.920348097434,-0.0121396713277,-1.25425394649,-0.120294191993,0.339907485229,-0.300615484833,0.573717964083,0.81903482816,0.00322410452084,0.0,0.819006301214,-0.573652767257,-0.0114859954162,0.0,-0.00755805931771,0.00923046153898,-0.999928834627,0.0,0.587699397332,0.164003850621,0.304345510246,1.0,-0.233264571429,-0.306576293878,1.513
0.382296800856,0.195234437557,-0.127172753264,-1.87777851984,0.0403062219625,2.06617571786,0.0638492248945,-0.341275836513,-0.938596448389,-0.00681120570807,-1.27233563657,-0.123260773787,0.364886871281,-0.322363748876,0.573734229236,0.81902342989,0.00322527440163,0.0,0.818994915671,-0.573669023774,-0.0114859117555,0.0,-0.00755713632235,0.00923152180012,-0.999928831815,0.0,0.5839444103,0.159031994703,0.304360926948,1.0,-0.239929714286,-0.315336195918,1.529
0.376603176172,0.180221372442,-0.127415350693,-1.89824933751,0.0383441712575,2.07164030484,0.0584782513603,-0.365590098093,-0.954793189629,-0.0109246746044,-1.26317051891,-0.117549190884,0.345552761479,-0.336407550954,0.57386449435,0.818932271702,0.00319740375873,0.0,0.818903003653,-0.573798879171,-0.0115526520914,0.0,-0.00762631975865,0.00924819844922,-0.999928152455,0.0,0.580101163309,0.15384369168,0.304345383085,1.0,-0.246594857143,-0.324096097959,1.545
0.369561684693,0.162019439223,-0.127603146359,-1.9229034041,0.0358349139619,2.07797559008,0.0518882117637,-0.381201061401,-0.967447578462,-0.00765122100689,-1.29297892541,-0.126751396686,0.331020499189,-0.362953794734,0.573865504937,0.818932002701,0.00308287145735,0.0,0.818901086787,-0.57380006112,-0.0116295665985,0.0,-0.00775502174261,0.0091985509957,-0.999927620529,0.0,0.575085885729,0.147271266348,0.304320213613,1.0,-0.254926285714,-0.33504597551,1.565
0.362979877487,0.1453883637,-0.127777861552,-1.94511209485,0.0335272956611,2.08366625414,0.0457038911891,-0.394150728405,-0.966954130806,-0.0138194193378,-1.32310023166,-0.133467546932,0.304110782895,-0.363515189688,0.573817257074,0.818965942248,0.00304759299821,0.0,0.81893455708,-0.573751922363,-0.0116477339945,0.0,-0.00779068509942,0.00917962673029,-0.999927517213,0.0,0.570955951277,0.141915961845,0.304295266228,1.0,-0.261591428571,-0.343805877551,1.581
0.356842944615,0.130356194134,-0.127945006555,-1.96474248361,0.0315220001116,2.08856090093,0.039936897159,-0.409969737064,-1.00804847003,-0.0106089337289,-1.31382443163,-0.145060402996,0.323177507461,-0.401456945955,0.573762940454,0.81900311935,0.00327498974623,0.0,0.818974477634,-0.573696633923,-0.0115639141687,0.0,-0.00759217735544,0.00931725779934,-0.999927771167,0.0,0.567033704118,0.136771875585,0.304413853764,1.0,-0.26784,-0.352018285714,1.596
0.349440234914,0.113174262528,-0.128234380876,-1.98724509331,0.0290688721991,2.09398683547,0.033215051637,-0.44538986168,-1.017584583,-0.016582422228,-1.33980216483,-0.141101410097,0.31574465956,-0.403202265201,0.573880959478,0.818920415149,0.00327794176089,0.0,0.818892080641,-0.573814958469,-0.0115282523072,0.0,-0.00755993470212,0.00930030410362,-0.999928173286,0.0,0.56246340553,0.130667388724,0.304424570698,1.0,-0.274921714286,-0.361325681633,1.613
0.341731840688,0.0956547410766,-0.12843734244,-2.00978988178,0.0265481930516,2.09925427628,0.0261015232066,-0.454077042522,-1.04702262017,-0.0115499082981,-1.32860383398,-0.14516710302,0.312464876031,-0.42272508026,0.573779707858,0.81899087336,0.0033975143375,0.0,0.818964470405,-0.573713843936,-0.0114178978371,0.0,-0.00740209562445,0.00933398132352,-0.999929040369,0.0,0.557774677482,0.124520996019,0.304506141399,1.0,-0.282003428571,-0.370633077551,1.63
0.333144656258,0.0768270128098,-0.128681234943,-2.03385175162,0.0239421417713,2.10452764622,0.0181957564586,-0.487821740734,-1.07258640146,-0.0193634845406,-1.33402123378,-0.160586730756,0.314858815133,-0.437934681239,0.573710133201,0.819039402121,0.00344785992579,0.0,0.819012612315,-0.573642819224,-0.0115327240059,0.0,-0.00746805906975,0.00944046314846,-0.99992755025,0.0,0.552623710763,0.117857173976,0.304535294586,1.0,-0.289501714286,-0.380487967347,1.648
0.325095735507,0.0601258565026,-0.128930606218,-2.05519018009,0.0214774106647,2.10903324617,0.0109395499698,-0.512593409319,-1.05031479782,-0.0201586811635,-1.31046436743,-0.158181547299,0.271745630566,-0.456360234295,0.573716549709,0.819035509096,0.00330186781035,0.0,0.819006308317,-0.573649049955,-0.0116696753955,0.0,-0.00766391275011,0.00939951743987,-0.999926454052,0.0,0.547970360397,0.111767460396,0.30446010722,1.0,-0.28998,-0.381116571429,1.664
0.316174143813,0.0423283454468,-0.1291620463,-2.07755427319,0.01883502409,2.11357368104,0.00307384495127,-0.519950847566,-1.03551058541,-0.00766935911367,-1.31617074344,-0.150449307796,0.243366276392,-0.47002321804,0.573807204097,0.818972235486,0.00324298170642,0.0,0.818941880432,-0.573739413936,-0.0117485433923,0.0,-0.00776125385022,0.00939739330194,-0.99992572321,0.0,0.543002773342,0.105236800562,0.304436629229,1.0,-0.28998,-0.381116571429,1.681
0.307602184198,0.0256301168843,-0.129352757862,-2.09798342732,0.0163508396653,2.11763700893,-0.00455377719779,-0.543966154201,-1.03028701152,-0.0112200252592,-1.27640309064,-0.164181469161,0.249648599821,-0.488566825028,0.573771358556,0.818996424778,0.00346860254075,0.0,0.818969440387,-0.573703386559,-0.0115856317852,0.0,-0.00749878636149,0.00948836585129,-0.999926866884,0.0,0.538694991093,0.0995472493511,0.304566479553,1.0,-0.28998,-0.381116571429,1.696
0.298199600392,0.00819226298281,-0.12959887782,-2.11923935615,0.0136711522219,2.12156108691,-0.0128111536909,-0.564264358461,-1.01436570751,-0.0212026592537,-1.24607448558,-0.158216928359,0.219245359352,-0.49223143062,0.573836422218,0.818950787126,0.0034807618728,0.0,0.818924250528,-0.573768771976,-0.0115418847197,0.0,-0.00745522664705,0.00947381654149,-0.999927330557,0.0,0.533496854714,0.0926295199824,0.304612369829,1.0,-0.28998,-0.381116571429,1.714
0.288544790894,-0.00917530193383,-0.12978246753,-2.14007933472,0.0111133598945,2.12529669358,-0.021354902043,-0.563728990785,-1.02408201145,-0.00843781411176,-1.22211892873,-0.156436842877,0.225490310168,-0.507665672888,0.573817972533,0.818962760598,0.0036983852381,0.0,0.818938871096,-0.57374946269,-0.0114641341924,0.0,-0.00726689235308,0.00960726264046,-0.999927443758,0.0,0.528598399416,0.0861624476672,0.304704179782,1.0,-0.28998,-0.381116571429,1.731
0.279278644627,-0.0252347554129,-0.129958913114,-2.15937690706,0.00859556408923,2.1283980081,-0.0295047027713,-0.582675587751,-1.00335293418,-0.010560838772,-1.17994054122,-0.164250189782,0.187717850338,-0.515585555194,0.573770895645,0.81899636101,0.00355905391323,0.0,0.818970248086,-0.573702260436,-0.0115843006409,0.0,-0.00744580614958,0.00956167791237,-0.999926564447,0.0,0.523921697939,0.0800812056317,0.304662897646,1.0,-0.28998,-0.381116571429,1.747
0.268439756605,-0.043193016149,-0.130255568741,-2.18068479273,0.0058230981033,2.13173381349,-0.0389088695892,-0.607244598228,-0.974902829684,-0.013093701194,-1.18543708466,-0.14182017674,0.157563736288,-0.531287560324,0.573924520522,0.818888764005,0.00354736977644,0.0,0.818862008833,-0.573855271876,-0.0116569434889,0.0,-0.00751020779299,0.00959519678112,-0.999925761733,0.0,0.518689867739,0.0731308005869,0.304633883222,1.0,-0.28998,-0.381116571429,1.765
0.258076491221,-0.0601042215427,-0.130405673326,-2.20016919849,0.00323392589134,2.13465506072,-0.0479990483467,-0.619188446214,-0.986025534797,-0.00892286305108,-1.15550491878,-0.149674956594,0.163012384177,-0.543531595802,0.573866066824,0.818928562241,0.00380712416782,0.0,0.818905644398,-0.573796658534,-0.0114755012677,0.0,-0.00721323950527,0.00970326306517,-0.999926905259,0.0,0.513811906003,0.0667280371745,0.304760124735,1.0,-0.28998,-0.381116571429,1.782
0.248656454898,-0.0747862191129,-0.130622038979,-2.2170982993,0.000898864542477,2.13691484594,-0.0562574122992,-0.640458223105,-0.997996490246,-0.0177658331126,-1.10983970398,-0.154315870782,0.158417798583,-0.561297382456,0.573859157548,0.818933440155,0.00379931522842,0.0,0.81891035031,-0.573789677319,-0.0114887448516,0.0,-0.00722864865933,0.00970440684637,-0.999926782883,0.0,0.509466396421,0.0609966452384,0.304766538657,1.0,-0.28998,-0.381116571429,1.797
0.237083442738,-0.092177948116,-0.130853983991,-2.23710727208,-0.00178469110718,2.13927153727,-0.0664211281608,-0.64048671336,-0.969531471154,-0.00643727971422,-1.0961103377,-0.14046905099,0.124043359501,-0.557987339413,0.573854034417,0.818937594594,0.00367562855399,0.0,0.818911282883,-0.573782804579,-0.0117622632895,0.0,-0.00752369199933,0.00976002384778,-0.999924065114,0.0,0.504186527929,0.054150812195,0.304679056963,1.0,-0.28998,-0.381116571429,1.815
0.225925797887,-0.108491479243,-0.131069485437,-2.2554812147,-0.00444353444613,2.14132416601,-0.0761824030994,-0.671852898753,-0.942838480615,-0.0165853974601,-1.07809734777,-0.14760033451,0.114317569065,-0.575317832531,0.573808718081,0.818969497223,0.00364205629114,0.0,0.818942809973,-0.573737685361,-0.0117681472754,0.0,-0.00754831403938,0.00973548875377,-0.999924118728,0.0,0.499255264313,0.0477082741522,0.304675344852,1.0,-0.28998,-0.381116571429,1.832
0.214321241802,-0.124686731683,-0.131386431066,-2.27348325459,-0.00705290257173,2.14311555592,-0.0862556183517,-0.684159945082,-0.950197548503,-0.0133648579674,-1.0482215233,-0.149102464223,0.0994220397057,-0.599850695302,0.573944662802,0.818874216764,0.00364527946673,0.0,0.818847262747,-0.573873201635,-0.0118091337204,0.0,-0.00757841283545,0.00976290435057,-0.999923623762,0.0,0.494322610027,0.0411413196053,0.304674263648,1.0,-0.28998,-0.381116571429,1.849
0.204005950032,-0.138814601589,-0.131534639937,-2.28910070798,-0.00928765307082,2.14442809467,-0.0953665130818,-0.694224606993,-0.944638698659,-0.0151819603896,-1.0231568745,-0.14796583346,0.0922500784712,-0.607235777242,0.573840879838,0.818947272395,0.00357163346041,0.0,0.818918247383,-0.573768276758,-0.0119839722228,0.0,-0.00776510089078,0.00980195769603,-0.99992180936,0.0,0.489919336754,0.0354987486494,0.304623824041,1.0,-0.28998,-0.381116571429,1.864
0.191889458219,-0.154728075942,-0.131884204357,-2.30630241545,-0.0118729133566,2.14583331368,-0.105982692996,-0.723274489478,-0.929769695136,-0.0232237523989,-0.996266888837,-0.158646946415,0.0681048664637,-0.629217827228,0.573929289408,0.818884794804,0.00368924104939,0.0,0.818857519377,-0.573856525484,-0.0119078973753,0.0,-0.00763424803142,0.00985544360089,-0.999922291225,0.0,0.485310629014,0.0293331489531,0.304664354481,1.0,-0.28998,-0.381116571429,1.88
0.178941250877,-0.171465544092,-0.132057740983,-2.32405545173,-0.0144816497483,2.14694118323,-0.117440003195,-0.718677059634,-0.93000323066,-0.00903185202315,-0.977580354138,-0.140741080149,0.0515627556191,-0.649500711773,0.57381688399,0.818962939071,0.00382556901362,0.0,0.818936983573,-0.573743060279,-0.0119106934931,0.0,-0.00755966842334,0.00996764888296,-0.999921745633,0.0,0.479796307157,0.022204339727,0.304732348907,1.0,-0.28998,-0.381116571429,1.899
0.166254459971,-0.186983847602,-0.132389597323,-2.34049782035,-0.0170759006241,2.1477423144,-0.128579479075,-0.759196927118,-0.901171949953,-0.027310879654,-0.942108031703,-0.147509831583,0.0360668646334,-0.655938238557,0.573872204812,0.818924501885,0.0037549510535,0.0,0.818897211824,-0.573798084781,-0.0119942181476,0.0,-0.00766792303038,0.00995825908898,-0.999921014897,0.0,0.474840409255,0.0156726245267,0.304706391344,1.0,-0.28998,-0.381116571429,1.916
0.154124930548,-0.20144538996,-0.132572691005,-2.35546796098,-0.0194376797677,2.14843196105,-0.139382531115,-0.765016706968,-0.882134707455,-0.0118039959641,-0.931888201675,-0.145502417925,0.0320250741985,-0.691632583357,0.573731708189,0.819022275691,0.00389690163076,0.0,0.818997500133,-0.57365798301,-0.0118473713094,0.0,-0.00746791606182,0.00998895759114,-0.999922222453,0.0,0.470252482386,0.00963716477139,0.304768670448,1.0,-0.28998,-0.381116571429,1.932
0.14009157999,-0.217558669409,-0.132939109587,-2.37194193711,-0.0220307164109,2.14884406459,-0.151770389997,-0.79461363936,-0.907440447709,-0.0208736585587,-0.904032895896,-0.154654761276,0.0292826918216,-0.691671105313,0.573832814123,0.818950847342,0.00401969833039,0.0,0.818927361118,-0.573758237852,-0.0118409716817,0.0,-0.00739098106062,0.0100867732499,-0.999921812146,0.0,0.465046820605,0.00274987588818,0.304819217497,1.0,-0.28998,-0.381116571429,1.95
0.127416595502,-0.231630909634,-0.133153561505,-2.38628452459,-0.0244031078342,2.14903960491,-0.163052020663,-0.788965633771,-0.890181970955,-0.0146163239979,-0.886374937983,-0.151724177318,0.0146880489977,-0.711005149052,0.573727189009,0.819025054681,0.00397734810266,0.0,0.819000988319,-0.57365273416,-0.0118603804566,0.0,-0.0074324752364,0.0100622684968,-0.999921751471,0.0,0.460397011972,-0.00328993199247,0.304802317273,1.0,-0.28998,-0.381116571429,1.966
0.114338462235,-0.245598808265,-0.133505672315,-2.40015181297,-0.0266764081735,2.14914739908,-0.174631807785,-0.826359067623,-0.895803161672,-0.0258408106542,-0.835211943916,-0.145135986663,0.00496767997323,-0.736698613289,0.573846192811,0.818940565749,0.00420043664455,0.0,0.818919958929,-0.573771758734,-0.0116968649335,0.0,-0.00716908329223,0.010152218276,-0.999922765372,0.0,0.455519136764,-0.00981917008297,0.304889007409,1.0,-0.28998,-0.381116571429,1.983
0.0985672346301,-0.261860805179,-0.133819019337,-2.41643391692,-0.0293463255886,2.14899168603,-0.188789117166,-0.845630314909,-0.872480652655,-0.0245677542158,-0.866515654542,-0.14410035979,-0.0164202543176,-0.737536164445,0.573785557265,0.818983258398,0.00415976421447,0.0,0.818961259804,-0.57371005189,-0.011831238396,0.0,-0.00730322823889,0.0101954757523,-0.999921354473,0.0,0.450548031646,-0.0162595852311,0.304805113838,1.0,-0.28998,-0.381116571429,2.0
0.0865931704804,-0.273715571633,-0.134152131162,-2.42781422929,-0.0312987854009,2.14883310659,-0.199435735551,-0.865405288484,-0.832208691329,-0.0276230511012,-0.808494879095,-0.135951446868,-0.0226943158648,-0.767977444475,0.573900261564,0.818901577005,0.00440951883117,0.0,0.818883973986,-0.573825601536,-0.011574241788,0.0,-0.00694800382769,0.0102535421058,-0.999923292116,0.0,0.446283064458,-0.0220318442813,0.304914363122,1.0,-0.28998,-0.381116571429,2.015
0.071954403945,-0.287824953579,-0.134394785244,-2.44159716813,-0.0335887823187,2.1483098698,-0.212675717913,-0.867297129683,-0.817836531011,-0.019938521891,-0.824306436401,-0.122407285734,-0.028940710127,-0.787297976257,0.573779416875,0.818986346483,0.00439225967453,0.0,0.818967513502,-0.573703353323,-0.0117226752862,0.0,-0.00708099323077,0.0103235465345,-0.999921638891,0.0,0.44131514436,-0.0284141801002,0.304850179857,1.0,-0.28998,-0.381116571429,2.032
0.0559363946827,-0.302568778654,-0.134787596156,-2.45544665246,-0.0360776140695,2.14768139524,-0.227103431727,-0.890118007725,-0.795214328461,-0.012494726257,-0.769685998363,-0.13393477564,-0.0468817595496,-0.80952932114,0.573816310106,0.818959402154,0.00459203442625,0.0,0.818944511088,-0.573741666634,-0.0114514028847,0.0,-0.00674372241289,0.0103318220565,-0.999923884934,0.0,0.436177873345,-0.0353276678261,0.304955192025,1.0,-0.28998,-0.381116571429,2.05
0.0406259196768,-0.31618811582,-0.135061287216,-2.46838516139,-0.0383637204383,2.14675557119,-0.240975087568,-0.912381580503,-0.78176379325,-0.018976302683,-0.759658877831,-0.131177570942,-0.0582084073852,-0.828346963681,0.573736286666,0.819015899665,0.00451401818482,0.0,0.818999161195,-0.573660612672,-0.0116026863888,0.0,-0.00691340329819,0.0103540586588,-0.999922496159,0.0,0.431199978562,-0.0417343528597,0.304896394115,1.0,-0.28998,-0.381116571429,2.067
0.0267810948674,-0.328019916941,-0.135388219908,-2.47918388989,-0.0403155832121,2.14597198808,-0.253545431598,-0.910712817097,-0.775283077119,-0.00800183088143,-0.71371618421,-0.125259702156,-0.048097619605,-0.836407932089,0.573769508802,0.818991409116,0.0047296369518,0.0,0.81897854274,-0.573694885872,-0.0113609575734,0.0,-0.00659128502334,0.0103922423078,-0.999924275264,0.0,0.426933400897,-0.0474628570388,0.304996845274,1.0,-0.28998,-0.381116571429,2.082
0.00983103481665,-0.341853650849,-0.135767373152,-2.49198282575,-0.0426486010677,2.14476921438,-0.269005315008,-0.965573321953,-0.759131697467,-0.0300639599567,-0.698967549942,-0.134267903222,-0.0703608885317,-0.858769818561,0.573758763661,0.818998975885,0.00472287217066,0.0,0.81898546968,-0.573683292728,-0.011446702556,0.0,-0.00666553314483,0.0104358105112,-0.999923329324,0.0,0.421692753905,-0.0543212633472,0.304954553679,1.0,-0.28998,-0.381116571429,2.1
-0.00743068407591,-0.355443248027,-0.136092064936,-2.5040952704,-0.0449415485932,2.14343346181,-0.284853906971,-0.966858423403,-0.751807818457,-0.0168466389246,-0.654795847114,-0.127549231465,-0.0718025257678,-0.88974339656,0.573665518893,0.819063546743,0.00485033307215,0.0,0.819052690161,-0.573591331809,-0.0112437411071,0.0,-0.00642735320971,0.010423025603,-0.999925022023,0.0,0.416538452605,-0.0611529389574,0.305049402033,1.0,-0.28998,-0.381116571429,2.118
-0.0241298132653,-0.367853270622,-0.136504993974,-2.51532829992,-0.0470018321807,2.14202714002,-0.30018051,-0.981908861044,-0.70919221538,-0.0194537691914,-0.646242503859,-0.127159031838,-0.0795500666566,-0.911744053245,0.573729961525,0.819018312403,0.00486642564858,0.0,0.81900658713,-0.573653984775,-0.011404511849,0.0,-0.00654898567173,0.0105289475212,-0.99992312307,0.0,0.41157422449,-0.0676493359275,0.304988517317,1.0,-0.28998,-0.381116571429,2.135
-0.0400306381213,-0.379290157712,-0.136802587127,-2.52545553089,-0.0489576090268,2.14053893375,-0.314862720415,-1.0081585814,-0.711156301101,-0.0328955833972,-0.605539031546,-0.12230858451,-0.0901598916678,-0.92372519714,0.573656566901,0.819069908124,0.00483484836246,0.0,0.819057349373,-0.573580009493,-0.0114794620784,0.0,-0.00662943721745,0.0105454899235,-0.999922418593,0.0,0.406921134189,-0.0736944454616,0.304975870548,1.0,-0.28998,-0.381116571429,2.151
-0.0552649745997,-0.389752441656,-0.137116227972,-2.53448657553,-0.050740490172,2.13925967337,-0.328938301095,-1.01662040035,-0.70314328969,-0.0178042573608,-0.59701919488,-0.114829028655,-0.0909947874102,-0.94855196051,0.573658029639,0.819068099266,0.00496595378843,0.0,0.819058284607,-0.573582825777,-0.0112701060801,0.0,-0.00638272144604,0.010532795228,-0.99992415767,0.0,0.40263270071,-0.0794191813789,0.30503973195,1.0,-0.28998,-0.381116571429,2.166
-0.0728373147143,-0.401220659073,-0.13752498554,-2.54452822517,-0.0526923007153,2.13750757285,-0.34525347272,-1.03972586915,-0.679496555467,-0.02379377656,-0.591307583812,-0.120497140501,-0.106067179228,-0.968825992461,0.573681177171,0.819052102789,0.00493019051412,0.0,0.819040472406,-0.57360385566,-0.0114920944042,0.0,-0.00658477457651,0.010631028494,-0.999921807931,0.0,0.397646331161,-0.0859023355387,0.304974018111,1.0,-0.28998,-0.381116571429,2.183
-0.0916700947471,-0.413052711415,-0.137875746717,-2.55449152906,-0.0546150250015,2.13569740228,-0.362868654706,-1.06520472992,-0.653749847844,-0.029666199511,-0.539695432843,-0.111513003155,-0.086839616411,-0.984798967178,0.57362977575,0.819087021049,0.00510678208882,0.0,0.819078044297,-0.573552583425,-0.0113726997022,0.0,-0.00638634561729,0.0107067784045,-0.999922286723,0.0,0.392478420543,-0.0927058503069,0.305043879781,1.0,-0.28998,-0.381116571429,2.201
-0.107772905489,-0.422500777388,-0.138197554459,-2.56245125505,-0.0563051987588,2.13414764972,-0.377889134402,-1.07896900114,-0.636373028182,-0.0181211853447,-0.528395045482,-0.110091180929,-0.121136322908,-1.01364669239,0.573632346377,0.819085214169,0.0051078390608,0.0,0.819076564684,-0.573555677642,-0.0113231060785,0.0,-0.00634508083604,0.010679216787,-0.999922844162,0.0,0.388140033107,-0.0984595227548,0.305056233592,1.0,-0.28998,-0.381116571429,2.216
-0.127299939522,-0.433426323212,-0.138601122137,-2.57174024034,-0.0582289897481,2.13207137732,-0.396154179077,-1.09389568294,-0.595487191378,-0.0190616887758,-0.504924446212,-0.104839733655,-0.113320420969,-1.02786979287,0.573666802408,0.819061654283,0.00501529646057,0.0,0.819050089929,-0.573587553184,-0.0116196351376,0.0,-0.00664061380509,0.0107737853804,-0.999919910691,0.0,0.382842996613,-0.105295132606,0.304972180947,1.0,-0.28998,-0.381116571429,2.234
-0.144871191142,-0.442774909096,-0.13894022779,-2.57933593221,-0.0597289715949,2.13037847086,-0.412778354748,-1.11658548791,-0.579151221111,-0.029183460242,-0.456625148895,-0.0956050315745,-0.109282956797,-1.03922668726,0.573654247126,0.819069187837,0.00521700972301,0.0,0.819060544918,-0.573574903642,-0.0115065447867,0.0,-0.00643243428842,0.0108740344721,-0.999920186397,0.0,0.37826541741,-0.111357986514,0.305037875825,1.0,-0.28998,-0.381116571429,2.25
-0.163917286365,-0.452246227997,-0.139257400656,-2.58702434563,-0.0614721815711,2.12857598512,-0.430752422255,-1.11595085885,-0.545027330176,-0.0138531356894,-0.447418431676,-0.102401843914,-0.111981671709,-1.06961591579,0.573608648395,0.819101132531,0.00521536901771,0.0,0.819093249967,-0.57353064452,-0.0113839604991,0.0,-0.00633356292407,0.0108020197261,-0.999921598102,0.0,0.373370916698,-0.117847332642,0.305072743028,1.0,-0.28998,-0.381116571429,2.267
-0.184319584015,-0.461759940529,-0.139641083195,-2.59482631327,-0.0631730329013,2.12651705547,-0.450161526791,-1.13466482678,-0.514866686373,-0.016939385219,-0.417699468681,-0.0835435977427,-0.111585452071,-1.08224915618,0.573552826341,0.819140414116,0.00518500334846,0.0,0.819130864598,-0.573472769794,-0.0115911979044,0.0,-0.00652148597872,0.010895570368,-0.999919375133,0.0,0.368111356826,-0.124673731313,0.30502096936,1.0,-0.28998,-0.381116571429,2.285
-0.20394531958,-0.470231139074,-0.140036569923,-2.60167490308,-0.0647319880435,2.12475857354,-0.468799767167,-1.16256516805,-0.494337938711,-0.0116887020007,-0.382330753711,-0.0928786285178,-0.111291243611,-1.09280902771,0.573605744931,0.819103145058,0.00521862426722,0.0,0.819093885658,-0.573525331371,-0.0116037775677,0.0,-0.00651180286048,0.0109307471553,-0.999919054319,0.0,0.36317853108,-0.13118138707,0.305000960212,1.0,-0.288020571429,-0.378541322449,2.302
-0.223621259675,-0.478124621541,-0.140240494177,-2.60780333374,-0.066003416678,2.12303283607,-0.487521761743,-1.16722161229,-0.448762877219,-0.0190125638905,-0.352860395713,-0.0686357037897,-0.110965312511,-1.09170829197,0.573648262325,0.819072302621,0.00538341076115,0.0,0.819065735299,-0.573568300744,-0.0114661476628,0.0,-0.00630397157687,0.0109871145118,-0.99991976841,0.0,0.358384145353,-0.137567823224,0.305074020318,1.0,-0.280938857143,-0.369233926531,2.319
-0.240847461352,-0.48452216497,-0.140386044427,-2.61292084184,-0.0670691676364,2.12153009219,-0.503970284973,-1.14147853419,-0.412777104743,-0.00841175031709,-0.325820227322,-0.0624904607449,-0.107112737481,-1.0796280814,0.573646159755,0.819073505897,0.00542422698064,0.0,0.819066677018,-0.573564700085,-0.0115784418762,0.0,-0.00637257255076,0.0110849457062,-0.999918253808,0.0,0.354170993453,-0.143064216298,0.305042452251,1.0,-0.274690285714,-0.361021518367,2.334
-0.260321792177,-0.491188943533,-0.140450999183,-2.61826727557,-0.0681879704694,2.11984021274,-0.522460514906,-1.13777011638,-0.383960394643,0.004880155318,-0.305784181745,-0.0779745688533,-0.0818405600495,-1.08202315875,0.573716161095,0.819024599142,0.00540549718956,0.0,0.819016100113,-0.573632293061,-0.0118053807884,0.0,-0.00656825597925,0.0112003426149,-0.999915701616,0.0,0.349451014087,-0.14917743961,0.304981645814,1.0,-0.267608571429,-0.351714122449,2.351
-0.28068394761,-0.497552762444,-0.140466641359,-2.62316810033,-0.0691280271691,2.11836774798,-0.541804078801,-1.13389173416,-0.333762478588,-0.00359322441503,-0.263569625962,-0.0488315572788,-0.0848295000134,-1.06090864643,0.573867136799,0.8189177328,0.00556804355398,0.0,0.818911675287,-0.573783251942,-0.0117130171235,0.0,-0.00639727045693,0.0112816686819,-0.999915895904,0.0,0.344415581097,-0.155859613005,0.30501177054,1.0,-0.259693714286,-0.341311738776,2.37
-0.299396951095,-0.502935005069,-0.140290332991,-2.62728848549,-0.0699420360353,2.11699423995,-0.559779171337,-1.09857579262,-0.305481325303,0.00734313732975,-0.232113584049,-0.0517336413635,-0.0724926728135,-1.05897238596,0.573768177091,0.8189868216,0.00560463234921,0.0,0.818981445664,-0.573684553803,-0.0116692453909,0.0,-0.00634178928374,0.0112857488453,-0.99991620328,0.0,0.340323916894,-0.161227981838,0.305041247617,1.0,-0.253028571429,-0.332551836735,2.386
-0.317954977387,-0.507662597364,-0.140206099779,-2.63086819751,-0.0706335051625,2.11583629067,-0.577507571934,-1.08319963899,-0.266194183452,0.00612104964446,-0.200822735936,-0.0341297262202,-0.0607891126457,-1.03470178478,0.573882832364,0.818905686397,0.00572000059469,0.0,0.818902313484,-0.573799726379,-0.0115594930198,0.0,-0.00618411885309,0.0113181342242,-0.999916824797,0.0,0.336082651703,-0.16689620269,0.305076203758,1.0,-0.245946857143,-0.323244440816,2.403
-0.335075181227,-0.511721006502,-0.140025729041,-2.63394038388,-0.0711889288532,2.1147689963,-0.593896123353,-1.07017412296,-0.243034832185,0.0205785841534,-0.187367256345,-0.0435665926401,-0.0787054502587,-1.02568505732,0.573935830831,0.81886801122,0.00579561816197,0.0,0.81886574166,-0.573852703718,-0.0115203503977,0.0,-0.00610793286337,0.0113579937181,-0.99991684111,0.0,0.332168187599,-0.172035885433,0.305097806723,1.0,-0.239281714286,-0.314484538776,2.419
-0.351673896012,-0.515176325121,-0.139765575459,-2.63671641355,-0.0716235837214,2.11372529544,-0.609982204566,-1.03641606346,-0.204132340405,0.00950579918248,-0.167324106093,-0.0268511956068,-0.0559898874809,-1.00496430329,0.573822631401,0.81894717962,0.00581821153521,0.0,0.818943682662,-0.573736645703,-0.0117580996049,0.0,-0.00629126246523,0.0115120728798,-0.999913942394,0.0,0.328363267781,-0.176934776774,0.305030679126,1.0,-0.232616571429,-0.305724636735,2.435
-0.371126409657,-0.518669114547,-0.139489462654,-2.63953409629,-0.0720833871913,2.11273976699,-0.628686559059,-1.00424354168,-0.176415142866,0.0258000869714,-0.135196031161,-0.0178500861267,-0.0467019030798,-0.967914881173,0.573870416649,0.818913354719,0.00586594066565,0.0,0.818909265923,-0.57378203049,-0.0119391194833,0.0,-0.006411456483,0.0116554050394,-0.999911518465,0.0,0.323744288047,-0.182965308449,0.304954471134,1.0,-0.224285142857,-0.294774759184,2.455
-0.387122778406,-0.521217011055,-0.139271240963,-2.64151035098,-0.0724149656447,2.11201200342,-0.644047435265,-0.997158868415,-0.150259760174,0.0171095644199,-0.119023055066,-0.0212947071849,-0.0474440440804,-0.958329196966,0.57398565786,0.818832182293,0.00592188428581,0.0,0.818828594016,-0.573896610389,-0.0119649950386,0.0,-0.00639889687844,0.0117169693202,-0.999910879403,0.0,0.320386758359,-0.187391230614,0.304942229986,1.0,-0.218036571429,-0.28656235102,2.47
-0.403532842425,-0.523535103945,-0.138919079913,-2.64325623405,-0.072648408992,2.11130411965,-0.660039606151,-0.96024057351,-0.128283096246,0.0182140303252,-0.0957063004953,-0.0123524350219,-0.0404420407731,-0.92285180454,0.573875491976,0.818908959641,0.00598184165999,0.0,0.818905993399,-0.573785933018,-0.0119759737502,0.0,-0.00637505834602,0.0117715104527,-0.999910391071,0.0,0.316747854494,-0.192166971704,0.304948031563,1.0,-0.210954857143,-0.277254955102,2.487
-0.417814655737,-0.525298577363,-0.138691360563,-2.64452436904,-0.0728656764816,2.11078136239,-0.673793207285,-0.929606731694,-0.107490221564,0.0197908540471,-0.0817568770856,-0.010684199111,-0.0343958595067,-0.913848478002,0.573978749304,0.818836170946,0.00603882435758,0.0,0.818834368356,-0.573889725495,-0.0118998769138,0.0,-0.00627855127547,0.0117753001073,-0.999910957086,0.0,0.313590326984,-0.196347522021,0.304978929375,1.0,-0.204706285714,-0.269042546939,2.502
-0.433470482963,-0.526898680206,-0.138390316292,-2.64569713251,-0.073027304768,2.11031787049,-0.688956823993,-0.918240670494,-0.0871986044019,0.0112928857365,-0.065041847237,-0.011011754027,-0.0279599686534,-0.890199234331,0.574030467213,0.818799434659,0.00610372138955,0.0,0.818798894615,-0.573941970729,-0.0118208000283,0.0,-0.00617580140063,0.0117834465578,-0.999911501016,0.0,0.310151225898,-0.200902525143,0.304999557895,1.0,-0.197624571429,-0.25973515102,2.519
-0.448606150057,-0.52816999403,-0.138016528736,-2.64663428961,-0.0731262727761,2.10990988048,-0.703673426635,-0.873464886788,-0.0669680706439,0.0199945357336,-0.0469301307837,-0.00140296368596,-0.0286385054053,-0.85322293886,0.574011877026,0.8188121977,0.00613977459247,0.0,0.818812343194,-0.573923662292,-0.0117780896822,0.0,-0.00612039941427,0.0117883135486,-0.999911784296,0.0,0.306835647881,-0.205264880467,0.305013112711,1.0,-0.190542857143,-0.250427755102,2.536
-0.463350550712,-0.529089551823,-0.137684180466,-2.64732697089,-0.073163097334,2.109582855,-0.717897438519,-0.863432342266,-0.0487262799071,0.020910856963,-0.0327607245459,-0.00479060017671,-0.0274678160794,-0.830044538491,0.574146791721,0.818717122666,0.00620334687241,0.0,0.818718082556,-0.574058284038,-0.0117700774942,0.0,-0.00607539828896,0.0118367723829,-0.99991148626,0.0,0.303609467432,-0.209514678095,0.305014795138,1.0,-0.183461142857,-0.241120359184,2.553
-0.476621190173,-0.52966790393,-0.137247242065,-2.64776404179,-0.0731710583514,2.10934580352,-0.73088312239,-0.826323905337,-0.0293304917852,0.023488604938,-0.0235477079112,-0.00197859774077,-0.00821820528602,-0.800738515012,0.574042745238,0.818790193246,0.00618813259673,0.0,0.818791035302,-0.573954472645,-0.0117580075277,0.0,-0.00607575185163,0.0118166139216,-0.999911722541,0.0,0.300735359045,-0.213303698884,0.305018350156,1.0,-0.176796,-0.232360457143,2.569
-0.491162591826,-0.530044423243,-0.136850864272,-2.64808576246,-0.0731815450127,2.10911638492,-0.744946056378,-0.791790008226,-0.0137386854922,0.0289982828628,-0.0125990041266,-0.000420526570334,-0.0164299773372,-0.771090752402,0.574131887435,0.818727748092,0.00618039119395,0.0,0.818728119296,-0.574042908238,-0.0118217205471,0.0,-0.00613107894934,0.0118475148905,-0.999911019172,0.0,0.297557066252,-0.21746578655,0.305000175547,1.0,-0.169297714286,-0.222505567347,2.587
-0.504143695768,-0.530191707009,-0.136337380318,-2.64822595211,-0.0731579103849,2.10897860458,-0.757792177971,-0.754234565054,-0.00422099939723,0.0272804355326,-0.00880769127181,0.00372661839715,-0.00931920045729,-0.748286312385,0.573882455143,0.818903154511,0.00610721803715,0.0,0.818902487974,-0.573793647968,-0.0118453215882,0.0,-0.00619600759063,0.0117992654526,-0.999911189469,0.0,0.294748331434,-0.221137448284,0.304991743975,1.0,-0.162216,-0.213198171429,2.604
-0.516165016883,-0.530207953389,-0.135979962865,-2.64828312307,-0.0731351165305,2.10890984539,-0.76935615718,-0.740780601345,0.00416649680286,0.0195574733972,-0.00263901793474,-0.000363437935329,-0.00112893854502,-0.714402488341,0.574011669668,0.818812751895,0.00608500781977,0.0,0.818811704712,-0.573922748317,-0.0118666799603,0.0,-0.00622438430143,0.0117943154807,-0.999911071627,0.0,0.292110908115,-0.224555446102,0.304975069692,1.0,-0.155550857143,-0.204438269388,2.62
-0.5281566136,-0.530070679353,-0.135464758833,-2.64822223565,-0.0730411973878,2.10890120603,-0.781160230358,-0.708457527265,0.0114925452513,0.029305359146,0.00421164426169,0.00276149113098,0.000389313963423,-0.686682447248,0.573845809352,0.818929394865,0.00603160145154,0.0,0.818927756888,-0.573757326599,-0.011857743198,0.0,-0.00625009927146,0.0117441882017,-0.999911501235,0.0,0.289512787739,-0.227920347516,0.304965298861,1.0,-0.148469142857,-0.195130873469,2.637
-0.540508189905,-0.529815523408,-0.135070969365,-2.64803547707,-0.0728989102516,2.10889917267,-0.793102725008,-0.681072438089,0.0179823807568,0.0189734161332,0.00688903256798,0.00898394150452,-0.000494887113768,-0.652277234775,0.57397452663,0.818838908524,0.00606890181821,0.0,0.818837829254,-0.573886011758,-0.0118406837724,0.0,-0.00621287433324,0.0117659237845,-0.999911477697,0.0,0.28680311391,-0.231410166058,0.304967160028,1.0,-0.140970857143,-0.185275983674,2.655
-0.550798959898,-0.529393492723,-0.134558584738,-2.64774954456,-0.0726939597534,2.10892504222,-0.803202980063,-0.626860540461,0.0305781364359,0.0346954020337,0.0169452017118,0.0149578310147,0.000344825539933,-0.630021671133,0.573873093496,0.81891004694,0.00606254752616,0.0,0.818908691851,-0.573784259165,-0.011871193973,0.0,-0.00624296586917,0.0117774584253,-0.999911154478,0.0,0.284588449097,-0.234271740737,0.304958603055,1.0,-0.134305714286,-0.176516081633,2.671
-0.561893255322,-0.528793420061,-0.134067243118,-2.6473677277,-0.0724865279569,2.10898818165,-0.814060931,-0.612004500961,0.0310732276874,0.0214560364128,0.0254220983377,0.0124940102525,0.00547800333797,-0.596158263556,0.573830692718,0.818939753218,0.00606329904517,0.0,0.818937945011,-0.573740993512,-0.0119440984161,0.0,-0.00630285514066,0.0118195834916,-0.999910281707,0.0,0.282176520488,-0.237368406608,0.304931145267,1.0,-0.126807428572,-0.166661191837,2.689
-0.570764560703,-0.528192488344,-0.133683949776,-2.64695934035,-0.0722978662162,2.10909030643,-0.822602158234,-0.574735564025,0.0413983668735,0.0246645697291,0.031176131337,0.0116260584221,0.00799642775195,-0.574893037633,0.573934447954,0.81886696369,0.00607388916375,0.0,0.818865124505,-0.573844367282,-0.0119706687044,0.0,-0.00631703967382,0.0118443031804,-0.999909899687,0.0,0.280254751655,-0.239856029619,0.304915861871,1.0,-0.120558857143,-0.158448783674,2.704
-0.580049449131,-0.527395110577,-0.133160170751,-2.64644529522,-0.0720081936775,2.10921380637,-0.831855016571,-0.540912435964,0.0418027835595,0.0234661402982,0.0295738571483,0.0169534927177,0.00735343112173,-0.536155747274,0.57374404271,0.819000237054,0.00609360822387,0.0,0.818998058655,-0.573652803991,-0.012057665382,0.0,-0.0063797381919,0.0119088962706,-0.9999087344,0.0,0.278272268942,-0.242425611624,0.304882092751,1.0,-0.113477142857,-0.149141387755,2.721
-0.589051303338,-0.526603610859,-0.132705475785,-2.64589224322,-0.0717487079625,2.10933526279,-0.84046683578,-0.520693548768,0.0460509316005,0.0265598338274,0.0329967361367,0.0139258704767,0.0110894785356,-0.489764831515,0.573884408643,0.818901735309,0.00611394511639,0.0,0.818899488361,-0.573792429377,-0.0121087923767,0.0,-0.00640789904027,0.0119559838699,-0.999907992407,0.0,0.27632830344,-0.244928859258,0.304866009054,1.0,-0.106395428572,-0.139833991837,2.738
-0.597437425042,-0.525727883236,-0.132244250157,-2.64524323558,-0.0714721160331,2.10948985253,-0.848663435463,-0.466417916193,0.0522283191982,0.0326472953416,0.0389359021547,0.0186600378165,0.00969612747678,-0.476904945121,0.573868141714,0.818913018819,0.00612947272294,0.0,0.818910896773,-0.573775952702,-0.0121180093008,0.0,-0.00640677487773,0.011973862017,-0.99990778568,0.0,0.274543558093,-0.247270971584,0.304865461482,1.0,-0.0993137142858,-0.130526595918,2.755
-0.604666888153,-0.524877206881,-0.131732027878,-2.64463475011,-0.071166342527,2.10962611477,-0.85581231956,-0.447847706363,0.0479793328614,0.0355568704366,0.0393154324751,0.0139125658643,0.00400693950834,-0.446543173851,0.573736594801,0.819005119415,0.00613848998219,0.0,0.819002783394,-0.573643774787,-0.0121658268322,0.0,-0.00644269193438,0.0120076516254,-0.999907149701,0.0,0.273028693237,-0.24925783347,0.304855120493,1.0,-0.0926485714287,-0.121766693878,2.771
-0.612048418468,-0.524049158702,-0.131243017802,-2.64399520475,-0.0708949818536,2.1097806469,-0.86286577978,-0.41623586274,0.0479944962069,0.027954076674,0.0398085697553,0.015879415188,0.00478886493252,-0.403020975496,0.573810583285,0.81895338151,0.00612538368214,0.0,0.818951028884,-0.573718093916,-0.0121452832468,0.0,-0.00643230117549,0.0119857120949,-0.999907479824,0.0,0.271464465922,-0.25129607532,0.304867860031,1.0,-0.0855668571429,-0.112459297959,2.788
-0.618866924764,-0.523176543804,-0.130796505202,-2.64331638735,-0.0705833478217,2.10994575421,-0.869443481027,-0.39345162232,0.0525945904456,0.026244842655,0.0389507180408,0.0164548895311,0.0113020392707,-0.372670174349,0.573862138291,0.818917017259,0.00615727063166,0.0,0.818915210884,-0.573769739819,-0.012120641578,0.0,-0.00639306716634,0.0119980908716,-0.999907582983,0.0,0.270032269143,-0.253188368104,0.304881703563,1.0,-0.0784851428572,-0.103151902041,2.805
-0.624315980466,-0.522407264348,-0.130352073611,-2.64274029878,-0.0702879186688,2.11009995991,-0.874740843342,-0.343504046358,0.0489551338918,0.030128360843,0.038360423653,0.018018305842,0.011663383509,-0.337483910361,0.573827120614,0.818941440788,0.00617244752064,0.0,0.818939842086,-0.573734680618,-0.0121160307822,0.0,-0.00638109535437,0.0120076014384,-0.999907545291,0.0,0.268839597382,-0.254773704687,0.304885766242,1.0,-0.0718200000001,-0.0943920000001,2.821
-0.631017707441,-0.52153342826,-0.129726149547,-2.64206398983,-0.0699235891188,2.11028303858,-0.881239578585,-0.329873130095,0.0454131554812,0.0313023715088,0.0313068595751,0.021991845959,0.00710522950062,-0.309793650069,0.573744733569,0.818999256785,0.00615995037743,0.0,0.818997766922,-0.573652877841,-0.0120739564164,0.0,-0.00635501042375,0.0119725850201,-0.999908131305,0.0,0.267530788823,-0.256484291007,0.304903213389,1.0,-0.0639051428572,-0.0839896163266,2.84
-0.635629019144,-0.520879002493,-0.129308062639,-2.64156502921,-0.0696344370687,2.11041801262,-0.88558753705,-0.293099312059,0.044508313827,0.0261835957774,0.0290978060297,0.0207190891446,0.00852379663047,-0.285027533571,0.573814661101,0.818950085177,0.0061838171378,0.0,0.818949009709,-0.573722881942,-0.0120549215746,0.0,-0.00632470343072,0.011981752345,-0.999908213656,0.0,0.266583020914,-0.257728575984,0.304911411063,1.0,-0.0576565714287,-0.0757772081634,2.855
-0.640260730396,-0.520137796711,-0.128870735653,-2.64101565579,-0.0693192148455,2.11056609943,-0.890019187876,-0.266797157424,0.0448085072434,0.0221450155271,0.0290043547002,0.0194575620475,0.0048956518232,-0.251773695205,0.573832858507,0.81893709353,0.00621564482523,0.0,0.818936386813,-0.573740849609,-0.0120573108455,0.0,-0.00630813120781,0.0120093300801,-0.999907987503,0.0,0.265642562309,-0.258981171728,0.304912030106,1.0,-0.0505748571429,-0.066469812245,2.872
-0.644686043452,-0.519461361672,-0.128416542249,-2.64053846362,-0.0689848823452,2.11070245374,-0.894104593638,-0.238677332929,0.0345815716754,0.0317696120349,0.024227498103,0.0170821120685,0.0105852186506,-0.213562719317,0.573957784634,0.818849195694,0.00626123552589,0.0,0.818848917627,-0.573865232212,-0.0120785868384,0.0,-0.00629755698621,0.0120598370659,-0.99990744627,0.0,0.264738474978,-0.260151030694,0.304902893688,1.0,-0.0430765714287,-0.0566149224491,2.89
-0.648251909664,-0.518917162992,-0.127875419242,-2.64016441388,-0.06869914681,2.11082496906,-0.897416186338,-0.196350293412,0.0358145183503,0.0323157636332,0.0214055566144,0.0171728544232,0.00642591143496,-0.178553887368,0.573924481732,0.818872807562,0.00622584981828,0.0,0.818872001447,-0.573831965996,-0.0120940872969,0.0,-0.00633104947083,0.012039498683,-0.999907479862,0.0,0.264045638803,-0.261050638246,0.304896275698,1.0,-0.0359948571429,-0.0473075265307,2.907
-0.651345735263,-0.518423377586,-0.12727125553,-2.63980874319,-0.0683838235429,2.11090370678,-0.900414777506,-0.162723375648,0.0244727391645,0.0383059469144,0.016521580238,0.0165566561313,0.000597507631505,-0.160966896684,0.573727546306,0.819011094131,0.0061868571377,0.0,0.819009621658,-0.573634947411,-0.012121618764,0.0,-0.00637886559065,0.0120218335719,-0.999907388507,0.0,0.263479953419,-0.261797284886,0.304897515025,1.0,-0.0284965714287,-0.0374526367348,2.925
-0.653393685815,-0.518090360138,-0.126832605614,-2.63958412951,-0.068145115219,2.11100368868,-0.902289283409,-0.138577809528,0.0208433957765,0.0268050361259,0.0157454168348,0.0172277800904,0.00630412540854,-0.127278892206,0.573672279087,0.819049989663,0.00616259209658,0.0,0.819048306814,-0.573579999316,-0.0121079474188,0.0,-0.00638239751863,0.0119936853287,-0.999907703998,0.0,0.263120529837,-0.262283238165,0.304896094377,1.0,-0.0226645714287,-0.0297877224491,2.939
-0.655467754564,-0.517751830158,-0.126403690282,-2.63937516892,-0.0678814107937,2.11104904331,-0.904040987237,-0.112843125889,0.0171509089689,0.0175086042771,0.0109923495895,0.0109517382444,0.00136858665723,-0.106027255847,0.573755801022,0.818991412064,0.0061720872337,0.0,0.818989470075,-0.573662742234,-0.0121677023278,0.0,-0.00642467091805,0.0120363959864,-0.999906920056,0.0,0.262741221658,-0.26276329215,0.304880579322,1.0,-0.0197688888889,-0.025981968254,2.956
-0.657151944067,-0.517491063263,-0.126150415737,-2.63918973265,-0.0676859178219,2.11107575214,-0.905557802884,-0.0922322541737,0.0147573225364,0.0141313430835,0.0122978590129,0.0115096422994,0.00502863128343,-0.0946605254899,0.57380641762,0.818955658416,0.00621059959546,0.0,0.818954006417,-0.573712772868,-0.0121957584129,0.0,-0.00642480874331,0.0120844325288,-0.999906339775,0.0,0.262412306773,-0.263178076683,0.304877155004,1.0,-0.0194488888889,-0.0255613968254,2.972
-0.658868987462,-0.517212667912,-0.125954410231,-2.63895765733,-0.0675443333632,2.11116975272,-0.907215669239,-0.0931077757567,0.0163379959717,0.00669118100094,0.0150663777114,0.0080838543372,0.0135718742505,-0.0941237633958,0.573788234916,0.818968333093,0.00621914497694,0.0,0.818967191347,-0.573695307638,-0.0121317926418,0.0,-0.00636778230606,0.0120545876688,-0.999907064814,0.0,0.26207735793,-0.263640205887,0.30489272846,1.0,-0.0190888888889,-0.0250882539683,2.99
-0.660305949576,-0.516954159501,-0.125820728356,-2.6387594297,-0.0674870289383,2.11123399235,-0.908590093676,-0.082145000028,0.0103493117977,0.00878705705334,0.0152838298761,-0.000492943421928,0.00281351377321,-0.0825703415239,0.573779403581,0.818974728032,0.00619175030184,0.0,0.818973332385,-0.573686796261,-0.012119716952,0.0,-0.00637373921488,0.0120251538637,-0.999907381272,0.0,0.26178227806,-0.264037894095,0.304896157159,1.0,-0.0187688888889,-0.0246676825397,3.006
-0.661751287757,-0.51671396286,-0.125752285405,-2.63857185221,-0.0674526110906,2.11124434922,-0.910058267528,-0.0790023378929,0.0172985408575,0.00171754265271,0.0120162236329,0.00126996733679,0.000359015515645,-0.0916253833776,0.573734092998,0.819006538379,0.0061828412497,0.0,0.819004831304,-0.57364116779,-0.0121508773034,0.0,-0.00640503900066,0.0120353811419,-0.999907058219,0.0,0.261440912595,-0.264466842251,0.304897614169,1.0,-0.0184088888889,-0.0241945396825,3.024
-0.663120123572,-0.516469116689,-0.125707239027,-2.63835853119,-0.0674079495377,2.11130265585,-0.911384524264,-0.0828659801326,0.0146169923909,0.00540469969411,0.0127885197704,0.00520032077289,0.00111702481318,-0.0775952107926,0.573769615428,0.818981609219,0.00618862452477,0.0,0.818980183499,-0.573677044307,-0.012118365052,0.0,-0.00637456901586,0.0120217419602,-0.999907417009,0.0,0.261161215055,-0.264846688949,0.304907985935,1.0,-0.0180888888889,-0.023773968254,3.04
-0.664457564665,-0.516193983881,-0.12567754845,-2.63814976922,-0.0673670473352,2.11138827062,-0.912811274431,-0.0760710352438,0.0138576390062,0.00272750356422,0.0146243914082,0.00318388883062,0.00492833010039,-0.0785892227099,0.573703773665,0.81902767884,0.00619582749495,0.0,0.819026511427,-0.573611495284,-0.0120902009582,0.0,-0.00634833357867,0.0120109721411,-0.999907713346,0.0,0.260871524193,-0.26524700154,0.304909351469,1.0,-0.0177488888889,-0.0233271111111,3.057
-0.665891773935,-0.515931015137,-0.125674426086,-2.63794422009,-0.0673333735312,2.1114081976,-0.914192453652,-0.0789515979542,0.0165867548769,-0.00105056529936,0.0155257293711,0.000858549566587,0.00548105107452,-0.0741803095067,0.573770134909,0.818981025046,0.00621770066025,0.0,0.818979948228,-0.573677376655,-0.0121185319436,0.0,-0.00635801592111,0.0120456557892,-0.999907234602,0.0,0.260538261092,-0.265668666054,0.304907486609,1.0,-0.0173888888889,-0.022853968254,3.075
-0.667140334225,-0.515709506766,-0.125670526029,-2.63776202236,-0.0673028734539,2.1114482004,-0.915468255559,-0.0794824884775,0.0209388121091,-0.00080979840207,0.0148413621511,0.000313982985191,0.000207847789771,-0.0710915486201,0.573767543784,0.818982714681,0.00623423252051,0.0,0.818981893901,-0.57367478895,-0.0121095369783,0.0,-0.00634120153035,0.0120540149222,-0.999907240642,0.0,0.260252390052,-0.266039263087,0.30491202474,1.0,-0.0170688888889,-0.0224333968254,3.091
-0.668362670114,-0.515483629276,-0.125652860959,-2.63758229551,-0.0672709535257,2.111515607,-0.916652927809,-0.070830979894,0.0204924765896,-8.19399836689e-05,0.005992906182,0.00191042682055,0.00350516283733,-0.0677006212461,0.573808813211,0.818953747733,0.00624114225542,0.0,0.818953195767,-0.573716359085,-0.01208095038,0.0,-0.00631321572755,0.0120435910718,-0.999907543337,0.0,0.25997980324,-0.266402844367,0.304916476691,1.0,-0.0167488888889,-0.0220128253968,3.107
-0.669633582022,-0.515246138409,-0.125628625815,-2.63738012104,-0.0672410852866,2.11155515212,-0.91787895442,-0.0744049137918,0.0180860977309,0.00470570790895,0.0158845287057,0.000506313048115,0.00306628928828,-0.0775026264569,0.573851559395,0.818923772597,0.00624414582603,0.0,0.818923332972,-0.573759222513,-0.0120696394146,0.0,-0.00630159971418,0.012039889916,-0.999907661183,0.0,0.259695502089,-0.266779228104,0.304924598816,1.0,-0.0164088888889,-0.021565968254,3.124
-0.670869966326,-0.515017385847,-0.12559003896,-2.63717702921,-0.0672126742902,2.11160233826,-0.919197265896,-0.0717586748996,0.0125723435291,0.00191053602307,0.00594720230703,0.00010056751543,0.00150174422408,-0.0787664083651,0.573779614584,0.81897422718,0.00623826921819,0.0,0.818973888049,-0.573687657456,-0.0120411493983,0.0,-0.0062826939298,0.0120181770444,-0.999908041361,0.0,0.259424559786,-0.267144910769,0.304937336927,1.0,-0.0160688888889,-0.0211191111111,3.141
-0.672212962332,-0.514742238973,-0.125541781828,-2.63697060115,-0.0671809456405,2.11165881956,-0.920517093768,-0.0707811880617,0.0148501541247,0.00428053370317,0.00656401153383,0.00431845855891,0.00186182082522,-0.06671297917,0.573788640659,0.818967955531,0.00623141758148,0.0,0.818967501961,-0.573696663307,-0.0120464162095,0.0,-0.00629080649789,0.0120156566106,-0.999908020645,0.0,0.259128241701,-0.267536948869,0.304935461375,1.0,-0.0156888888889,-0.0206196825397,3.16
-0.673231045763,-0.514523092892,-0.125508022332,-2.63680260354,-0.0671601298687,2.11168815314,-0.921582152437,-0.0654254902429,0.0217626742343,0.00131190628545,0.0132483959,0.00140784535215,0.000336592863916,-0.0678079458536,0.57373308562,0.819006915643,0.00622619434353,0.0,0.819006297325,-0.573640958567,-0.0120616125935,0.0,-0.00630706546697,0.0120196700024,-0.999907869985,0.0,0.25888909906,-0.267855370559,0.304934608176,1.0,-0.0153688888889,-0.0201991111111,3.176
-0.674386109788,-0.514296438243,-0.125473221519,-2.63661329012,-0.067123551722,2.11174441492,-0.922763277557,-0.062032729672,0.0120660511859,0.000159042138289,0.0105488668527,-0.000184602828136,0.00344951254444,-0.0637374566905,0.57372313595,0.819013869016,0.00622836542113,0.0,0.819013432099,-0.573631293709,-0.0120367695138,0.0,-0.00628561687334,0.0120071192663,-0.999908155836,0.0,0.258650254205,-0.268177346267,0.304942022518,1.0,-0.0150488888889,-0.0197785396825,3.192
-0.675490978603,-0.514073140925,-0.125453335361,-2.63641623433,-0.0671007244404,2.11179136492,-0.923840923859,-0.0652640108729,0.00858238906855,0.00422161069044,0.0125828226723,0.00509328996954,-0.000508530100234,-0.0628185636013,0.573751148926,0.81899427298,0.00622469543762,0.0,0.818993958965,-0.573659642869,-0.0120106712347,0.0,-0.00626593503284,0.0119893552124,-0.999908492523,0.0,0.25840673513,-0.268511051053,0.304953501532,1.0,-0.0147088888889,-0.0193316825397,3.209
-0.676714637011,-0.513811926282,-0.125419584916,-2.63621656474,-0.0670651362953,2.11184639463,-0.925115084638,-0.0611001461618,0.0177574588497,0.00235370415459,0.0116960569647,0.00238747671185,0.000571465262523,-0.0649748367267,0.573711382923,0.81902210323,0.00622819599625,0.0,0.819021833459,-0.573619867796,-0.012009599827,0.0,-0.00626363133956,0.0119913034988,-0.999908483594,0.0,0.258136166672,-0.268872170741,0.304953160928,1.0,-0.0143288888889,-0.0188322539683,3.228
-0.677870719821,-0.51358144018,-0.125408492459,-2.63602966742,-0.0670390009576,2.11189078438,-0.926245725477,-0.0615615368521,0.0123848021177,0.000352228184695,0.011419273264,0.000589009316473,0.000359085846561,-0.0605036264927,0.573745161301,0.818998390678,0.00623480959979,0.0,0.81899825018,-0.573653693269,-0.0120022207322,0.0,-0.00625329830585,0.0119927451199,-0.999908530979,0.0,0.257873500482,-0.269217018847,0.304956910978,1.0,-0.0139688888889,-0.0183591111111,3.246
-0.678808591362,-0.51339518047,-0.125407087284,-2.63586994205,-0.0670157660376,2.11192903893,-0.927154561545,-0.061251746325,0.0119377013995,-0.000338083543106,0.00750250060688,0.000392237867981,0.0035648787919,-0.0604342366023,0.573786072778,0.81896966102,0.00624371016391,0.0,0.818969740027,-0.573694756998,-0.0119848911016,0.0,-0.00623339842983,0.01199040414,-0.999908683307,0.0,0.257660719107,-0.2695004896,0.304963903097,1.0,-0.0136688888889,-0.0179648253968,3.261
-0.67982217238,-0.51316694619,-0.125400259622,-2.63569143904,-0.0669916731541,2.11197692035,-0.928215034015,-0.0573505630016,0.00884596667388,0.00126190381668,0.0150685043565,0.000210440411026,0.00141904231362,-0.0651573445652,0.573762364267,0.818986218179,0.00625065474478,0.0,0.818986404636,-0.573671056825,-0.0119805878083,0.0,-0.00622623646176,0.0119934425532,-0.999908691489,0.0,0.257433255582,-0.2698076532,0.304964839999,1.0,-0.0133288888889,-0.017517968254,3.278
-0.680763651256,-0.512964215102,-0.1253900056,-2.63554115982,-0.0669691645925,2.11201049489,-0.92918010439,-0.0603929663306,0.0095903343889,-0.000573282967596,0.00972260164552,0.00240392651601,0.00230915806604,-0.0547788151234,0.57375321256,0.818992567876,0.00625873328938,0.0,0.818992769055,-0.57366169835,-0.0119936225829,0.0,-0.00623241218221,0.0120074679756,-0.999908484688,0.0,0.257217633583,-0.27008643965,0.304961234643,1.0,-0.0130088888889,-0.0170973968254,3.294
-0.681710296393,-0.51277137397,-0.125369902308,-2.63538514853,-0.0669513034938,2.1120350937,-0.930060763193,-0.0569868656259,0.0120411049649,0.000376300417907,0.00863559902511,-0.000291264249984,0.00035087395986,-0.0520962186176,0.573808646878,0.818953745794,0.00625666999125,0.0,0.818953879454,-0.573717051303,-0.0120014695979,0.0,-0.00623921034802,0.0120107024356,-0.999908403446,0.0,0.257002233474,-0.270365126426,0.304963342196,1.0,-0.0126888888889,-0.0166768253968,3.31
-0.682575392723,-0.51259556756,-0.125340777636,-2.6352312301,-0.0669223418601,2.11208230641,-0.930903908356,-0.0606520507512,0.00844661469535,0.00156344091838,0.00674094766333,0.000279904071031,0.00192544861729,-0.0679675803561,0.573826134067,0.818941505753,0.00625499140228,0.0,0.818941809557,-0.573734911928,-0.0119712278556,0.0,-0.00621514808531,0.0119921082634,-0.999908776476,0.0,0.256815067665,-0.270622730505,0.304972938325,1.0,-0.0123888888889,-0.0162825396825,3.325
-0.683291773646,-0.512438228577,-0.125326200459,-2.63510409488,-0.0669081511248,2.11211975049,-0.931665802697,-0.0530671687439,0.0143256228885,-0.000670154834296,0.00679918591868,0.00311040515878,-0.000422041621943,-0.0715343497351,0.573791101858,0.818966075028,0.00625190239336,0.0,0.818966405642,-0.573700029619,-0.0119603238428,0.0,-0.00620850241826,0.0119830561388,-0.999908926284,0.0,0.256656231271,-0.270838415821,0.304976009474,1.0,-0.0121288888889,-0.0159408253968,3.338
-0.684496370913,-0.512163087181,-0.12529640808,-2.63487988989,-0.0668780669223,2.11216107589,-0.932872977357,-0.0448936683674,0.0109809892896,0.000424581704579,0.0109375229612,0.000296713751997,0.00538238402995,-0.0598168893355,0.573792199293,0.818965316696,0.00625051850655,0.0,0.818965610406,-0.573701096205,-0.0119636151588,0.0,-0.00621197615806,0.0119838194832,-0.999908895561,0.0,0.256389294623,-0.271198574011,0.304980259888,1.0,-0.0116688888889,-0.0153362539683,3.361
-0.685425742482,-0.511960348675,-0.125248841726,-2.63471716737,-0.0668543969472,2.11221426224,-0.933787697813,-0.0488416832931,0.0138917667073,0.00345109345799,0.0114281880295,0.00388697525297,0.00242831549351,-0.0548742112748,0.573788824786,0.818967794243,0.00623565911775,0.0,0.818968015358,-0.573698017774,-0.0119465946867,0.0,-0.00620661052037,0.0119618582004,-0.999909191844,0.0,0.25618986603,-0.271471558728,0.30498479157,1.0,-0.0113088888889,-0.0148631111111,3.379
-0.686174582759,-0.511797362444,-0.125234514689,-2.63457983407,-0.0668406752903,2.1122524481,-0.934560066176,-0.0453508553146,0.00825823980774,0.0029337667673,0.0120361445744,0.0036373136413,0.00301064755945,-0.0493985802984,0.573772252055,0.818979441886,0.00623084596294,0.0,0.818979702737,-0.573681665962,-0.0119306137825,0.0,-0.00619652462687,0.0119486215609,-0.99990941266,0.0,0.25602366715,-0.271698011299,0.304990429641,1.0,-0.0110088888889,-0.0144688253968,3.394
-0.686949467982,-0.511616475816,-0.125216050405,-2.63444384559,-0.0668221043513,2.11228373521,-0.935353618786,-0.043558443539,0.0117467559229,0.0017450608998,0.0107647048916,7.46445711531e-05,0.0023285408805,-0.0499340069574,0.573758813175,0.818988856061,0.0062309591933,0.0,0.81898905826,-0.573668113583,-0.0119400507062,0.0,-0.00620438531659,0.0119540268763,-0.999909299309,0.0,0.255849851178,-0.271927994634,0.304988332237,1.0,-0.0106888888889,-0.0140482539683,3.41
-0.687752421897,-0.511424181929,-0.125211847265,-2.63429919579,-0.0668032883597,2.11232301649,-0.936118846388,-0.0475984609105,0.0107489802703,-0.000980529110659,0.00606332608005,-5.76797835635e-05,0.0052440979816,-0.0497628711503,0.573802260744,0.818958377956,0.0062359957072,0.0,0.818958620191,-0.573711481726,-0.0119440801841,0.0,-0.0062041616459,0.0119607929344,-0.999909219785,0.0,0.25566784182,-0.27217131604,0.304986281113,1.0,-0.0103488888889,-0.0136013968254,3.427
-0.688479703955,-0.511265490352,-0.125202210307,-2.63416717382,-0.0667834038936,2.11234858246,-0.936838097968,-0.0395500308775,0.0114492527789,-0.000212858148454,0.0091041897552,-0.000619168721932,-0.000184871258846,-0.0453857455847,0.573817245301,0.818947844133,0.00624055167585,0.0,0.8189481622,-0.573726475974,-0.0119409085318,0.0,-0.00619873092276,0.0119628178875,-0.999909229242,0.0,0.255503418872,-0.272389167804,0.304989887472,1.0,-0.0100288888889,-0.0131808253968,3.443
-0.689243184824,-0.511090723362,-0.125180873754,-2.63404313057,-0.0667613521379,2.1123791873,-0.93759913041,-0.047115576708,0.00760472998828,0.00374283846623,0.00940228945388,0.00291922684969,0.00151629191895,-0.0445229754286,0.573819956081,0.818945920784,0.00624369575943,0.0,0.818946179943,-0.573728980432,-0.0119565158461,0.0,-0.00620967023214,0.0119743687323,-0.999909023106,0.0,0.255330497166,-0.272611806353,0.304984613846,1.0,-0.00968888888889,-0.012733968254,3.46
-0.690059192518,-0.510907514954,-0.125144274908,-2.63389262091,-0.0667354535543,2.11241856979,-0.938463392353,-0.0437239722532,0.00931456437012,0.00389869888673,0.0114021539776,0.00100041857543,0.00155658302722,-0.0408904485179,0.573773150669,0.81897875569,0.00623828511472,0.0,0.818979014078,-0.573682341998,-0.0119453707232,0.0,-0.00620433028907,0.011963187917,-0.999909190087,0.0,0.255153886966,-0.272852301975,0.304989332258,1.0,-0.00930888888889,-0.0122345396825,3.479
-0.690763083697,-0.510741205806,-0.125132211533,-2.63378213523,-0.0667111462996,2.1124457765,-0.939152759683,-0.0418408872615,0.0102430387694,0.000257068215486,0.00635558293917,0.00338519679414,0.000275989207757,-0.0471511472249,0.57379265714,0.818965004289,0.00624942107049,0.0,0.81896525141,-0.573701496293,-0.0119690031396,0.0,-0.00621701218524,0.0119860155809,-0.99990883794,0.0,0.254991618882,-0.273057322769,0.304980509928,1.0,-0.00896888888889,-0.0117876825397,3.496
-0.691368959322,-0.510595471261,-0.125118363156,-2.6337098482,-0.0666920075391,2.11247014983,-0.939745890306,-0.0392676330825,0.00959936303153,-0.000137222714769,0.00654195653641,0.000281609183303,-0.000398961705113,-0.0367685884209,0.573805384987,0.818956004325,0.00626019491528,0.0,0.818956103636,-0.573713620479,-0.0120136961775,0.0,-0.00624724980787,0.0120205798295,-0.999908234555,0.0,0.254847529867,-0.273227182335,0.304961753923,1.0,-0.00866888888889,-0.0113933968254,3.511
-0.691993748346,-0.510450714474,-0.12509734548,-2.63362039679,-0.0666733902572,2.11250177078,-0.940360696136,-0.0396892470064,0.0100241958361,0.00277067232036,0.00310398303,-0.00042628270795,0.00113691780838,-0.0342273413628,0.573811288718,0.818951846964,0.00626292224146,0.0,0.818951855002,-0.573719267279,-0.0120336380262,0.0,-0.00626193148943,0.0120343008287,-0.999907977675,0.0,0.254704645588,-0.273405969482,0.304951934825,1.0,-0.00834888888889,-0.0109728253968,3.527
-0.692619097106,-0.510292323067,-0.125089619259,-2.63353171402,-0.0666536984147,2.11253219485,-0.940994378848,-0.0355690739229,0.00865577484109,-1.42449422825e-05,0.00321690694429,-0.000110020643443,0.00266904590562,-0.0328724607604,0.573812152717,0.818951151277,0.00627472042332,0.0,0.818951084014,-0.573719639362,-0.0120683181896,0.0,-0.00628355371485,0.0120638689995,-0.999907485729,0.0,0.254557885174,-0.273586908742,0.304936294405,1.0,-0.00800888888889,-0.010525968254,3.544
-0.693272099759,-0.510131772893,-0.125056698573,-2.63342611556,-0.0666207590677,2.11254669718,-0.941692647823,-0.0374355580976,0.00777573539591,0.00178893128948,0.0075186091201,0.000817553684531,0.000288166531233,-0.0362207719293,0.57377127385,0.81897970837,0.00628565703946,0.0,0.818979549153,-0.573678270642,-0.0121031716836,0.0,-0.00630642857384,0.0120925096211,-0.99990699576,0.0,0.254411706163,-0.273770320275,0.304926768264,1.0,-0.00762888888889,-0.0100265396825,3.563
-0.693885857621,-0.509977570995,-0.125020754867,-2.6333335744,-0.0665958186024,2.11257500431,-0.942282335414,-0.0340901723867,0.00826847792216,0.00122691995884,0.0013114047853,0.00107266826829,9.44800264283e-05,-0.0305068983376,0.573780961871,0.818972911005,0.00628694969595,0.0,0.818972581967,-0.573687593146,-0.0121326978913,0.0,-0.00632972773797,0.0121105836576,-0.999906629796,0.0,0.254275472759,-0.273942477391,0.304914901987,1.0,-0.00726888888889,-0.0095533968254,3.581
