nelsonifechukwu/NELSON_IML_WORK/CNN-GradCAM/train2dof/data_sample_2022-02-22-16-27-00/robot_state.csv
position_joint1,position_joint2,position_joint3,position_joint4,position_joint5,position_joint6,position_joint7,velocity_joint1,velocity_joint2,velocity_joint3,velocity_joint4,velocity_joint5,velocity_joint6,velocity_joint7,ee_T_00,ee_T_10,ee_T_20,ee_T_30,ee_T_01,ee_T_11,ee_T_21,ee_T_31,ee_T_02,ee_T_12,ee_T_22,ee_T_32,ee_T_03,ee_T_13,ee_T_23,ee_T_33,v_x,v_y,time
0.465069125174,0.547755163302,-0.123935617436,-1.35583762721,0.0795518601487,1.89410430545,0.159160767453,-0.000268735635799,-0.000661522545609,-0.000278956105215,-0.0010336488043,-4.5920941842e-05,0.000122527197108,-0.00110122797105,0.573787788972,0.818989797228,0.00200802523266,0.0,0.818946660246,-0.573728245892,-0.0119588644971,0.0,-0.00864229360607,0.00850647975249,-0.999926472579,0.0,0.66166358685,0.260926533395,0.303229283998,1.0,0.0,0.0,0.0
0.465066953908,0.54775513632,-0.12393805977,-1.35583520394,0.0795525722255,1.89410162311,0.159161581417,-0.000640136933269,-0.00136522024275,0.000108173142634,2.04660053534e-05,0.000300441537076,-0.000291260077551,0.00117612012304,0.573784100537,0.818992386259,0.00200602131737,0.0,0.818949223672,-0.573724566811,-0.0119598237968,0.0,-0.00864426734818,0.00850535009469,-0.999926465127,0.0,0.661663319513,0.260926162337,0.303230109435,1.0,-0.0001,-0.000131428571429,0.006
0.465069455544,0.547751627117,-0.123938797492,-1.35583734974,0.0795525722255,1.89410268275,0.159159701041,-0.000111535373766,-0.000287789673291,-0.000181860940472,-0.000404813840754,0.000307071338272,-0.000102814301544,2.57105164889e-05,0.5737890228,0.818988928764,0.00200967103863,0.0,0.818945821393,-0.573729480713,-0.011957068388,0.0,-0.00863986545303,0.00850681006782,-0.999926490752,0.0,0.661664025051,0.260924996726,0.303231886723,1.0,-0.00038,-0.000499428571429,0.02
0.465066982614,0.547734546555,-0.123933537445,-1.35584508317,0.0795518424345,1.89410335239,0.159153853711,0.00170101042984,-0.000844113382762,-0.00424539689608,0.000122063566163,-6.40640301641e-05,-0.000233186484855,6.09658680351e-05,0.57378278707,0.818993272487,0.00201984741621,0.0,0.818950271142,-0.573723177011,-0.0119547671933,0.0,-0.00863220682546,0.00851375814432,-0.999926497763,0.0,0.661662317009,0.260925640298,0.303240188789,1.0,-0.00074,-0.000972571428571,0.038
0.465069053776,0.547692369166,-0.123933774208,-1.35588929877,0.0795518594425,1.89410970615,0.159153437877,-0.000181098239032,-0.00223047449229,0.000720684227918,-0.00155698199957,-0.000155597515628,-0.00012560339959,-0.00026871892983,0.573783302975,0.818992896665,0.00202567037054,0.0,0.818949935512,-0.573723633319,-0.0119558603821,0.0,-0.00862975591109,0.00851915969949,-0.999926472912,0.0,0.661654076797,0.260922614495,0.303249582654,1.0,-0.00104,-0.00136685714286,0.053
0.465071154649,0.547555949322,-0.123931005377,-1.35605128153,0.0795477786566,1.89413652377,0.159152207784,0.000978901741194,-0.00554027940058,0.0014404062196,-0.0112496785231,-0.000285625178644,0.00104928249186,-0.000622683127294,0.573786344467,0.818990748747,0.00203255298091,0.0,0.818947768786,-0.573726538505,-0.0119648617747,0.0,-0.00863314773233,0.00852999325725,-0.999926351276,0.0,0.661624940275,0.260909331206,0.303271354311,1.0,-0.0014,-0.00184,0.071
0.465051372244,0.547414322436,-0.123933537676,-1.35625218098,0.0795443135013,1.89418811676,0.159150177959,-0.00124481574586,-0.0135877321353,0.00109291772343,-0.0164775956512,-0.000242843252284,0.00264285902692,0.00114817579467,0.573812807252,0.818972211865,0.00203109029143,0.0,0.818929117696,-0.573752910138,-0.0119768610144,0.0,-0.00864353880563,0.00853595956474,-0.999926210593,0.0,0.661598845189,0.260875730879,0.303280616113,1.0,-0.00174,-0.00228685714286,0.088
0.46503359644,0.547261607409,-0.123934576132,-1.3564335248,0.0795435148597,1.89429324117,0.159134276505,-0.00227460144513,-0.0150880195352,0.00088162726235,-0.00847984677127,0.000292761039294,0.00399895778527,-0.00306134395297,0.573833229004,0.818957730345,0.00209954732677,0.0,0.818915519439,-0.573773035678,-0.0119424642558,0.0,-0.00857587489056,0.00857249976302,-0.999926480606,0.0,0.661586329223,0.260849727201,0.303309451839,1.0,-0.00206,-0.00270742857143,0.104
0.465009889121,0.547057988457,-0.123936681022,-1.35667633151,0.079540718731,1.89442589634,0.159124772421,-0.0012613571822,-0.0065839091239,2.88677747264e-05,-0.0116273188986,6.41389377781e-05,0.00103906109813,-0.000518801670402,0.573851376886,0.818944788655,0.00218569958283,0.0,0.818903653999,-0.573790784015,-0.0119032998695,0.0,-0.00849417465785,0.00862076837103,-0.999926762993,0.0,0.661570174515,0.260816394884,0.303351883994,1.0,-0.0024,-0.00315428571429,0.121
0.46498345805,0.546840707728,-0.12393986325,-1.35698601526,0.0795336898456,1.89456838675,0.159111631078,0.00125856626653,-0.0162112976399,-0.00126728753421,-0.0228258405735,-0.000982362664621,0.0114026513439,0.001098062439,0.573880114965,0.818924523175,0.00223291101405,0.0,0.818883958396,-0.573819283787,-0.0118844072854,0.0,-0.00845130788442,0.00864888654702,-0.999926883405,0.0,0.661541317304,0.260771705316,0.3033708448,1.0,-0.00274,-0.00360114285714,0.138
0.464943846689,0.546607161796,-0.123938502694,-1.35734620019,0.0795264042648,1.89468461589,0.159064772737,-0.00396806485776,-0.0208561891285,-0.000895489069588,-0.025491954382,-0.000107770753956,0.0111562277428,0.000660373531078,0.573891337652,0.818916658351,0.00223296777377,0.0,0.818875933599,-0.573830340412,-0.0119034741192,0.0,-0.00846677160228,0.00865999098706,-0.999926656478,0.0,0.661498447895,0.260713310643,0.303374843089,1.0,-0.00306,-0.00402171428571,0.154
0.464900150507,0.546309869214,-0.123939590373,-1.35780019535,0.0795179559481,1.89485546246,0.158923686421,-0.00461340167463,-0.0204112010484,0.000224672394948,-0.0267672670975,0.000137417789253,0.00843935406119,-0.00729575870443,0.573835517261,0.818955710879,0.00225602526401,0.0,0.818915118604,-0.573774262791,-0.0119109521804,0.0,-0.00846025596356,0.00868258776886,-0.999926515669,0.0,0.661448293638,0.260644023798,0.303384142586,1.0,-0.00342,-0.00449485714286,0.172
0.464863252772,0.546035127405,-0.123942027211,-1.35827493275,0.0795023185069,1.89501713308,0.158918683848,-0.002056667581,-0.0204052889613,-0.00593788075936,-0.0263962478718,0.00044427426608,0.00671784943793,0.000241872394511,0.573885708729,0.818920614363,0.00222880914311,0.0,0.818879540018,-0.57382442707,-0.0119403827153,0.0,-0.00849944405997,0.00867770827572,-0.999926225694,0.0,0.661389851027,0.260573900218,0.303366816793,1.0,-0.00374,-0.00491542857143,0.188
0.464804309054,0.54569706737,-0.123939911078,-1.35884857764,0.079471236502,1.89520952214,0.158836563539,-0.00246439081856,-0.0248126771121,-0.000338588605757,-0.0320749980914,0.000602263559033,0.0071609742459,-0.00105449873259,0.57388898944,0.818918408466,0.00219430552831,0.0,0.818876803388,-0.57382776572,-0.0119675838502,0.0,-0.00854148573126,0.00866509732849,-0.999925976815,0.0,0.661322010525,0.26048050849,0.303349715515,1.0,-0.00408,-0.00536228571429,0.205
0.464750839237,0.545321511312,-0.123942045739,-1.35950145856,0.0793885691183,1.89542103888,0.158743306918,-0.00484919295255,-0.0274454962239,0.00151968119452,-0.0380540514106,-0.0087007366246,0.0137952116905,-0.00365415199417,0.573872279068,0.818930330688,0.00211369305303,0.0,0.818888017352,-0.573811735459,-0.0119688841979,0.0,-0.00858898577975,0.00859965433603,-0.999926134906,0.0,0.661243141196,0.260372308463,0.303323125551,1.0,-0.00442,-0.00580914285714,0.222
0.464691741176,0.544903495501,-0.123944573126,-1.36019303542,0.079364448958,1.8956470677,0.158684929934,-0.00308687100952,-0.0240928637294,-0.000908967938293,-0.0369967115832,-0.00040313632793,0.00990716712704,-0.00944991046346,0.573906675882,0.818906306542,0.00208215905587,0.0,0.818863385527,-0.573846063655,-0.0120082459754,0.0,-0.00863895590831,0.00859678185929,-0.999925729133,0.0,0.661157593317,0.26026659724,0.303309523125,1.0,-0.00476,-0.006256,0.239
0.464620797288,0.544500396711,-0.123940584405,-1.36086726777,0.0793414640581,1.8958822036,0.158570235567,-0.00972343524292,-0.0264362840618,-1.61006255622e-05,-0.0422555195303,-0.000399672265534,0.0162379671017,-0.00727813249269,0.573899518128,0.818911373644,0.00206206451072,0.0,0.818867975719,-0.57383877881,-0.012043304227,0.0,-0.00867927332996,0.00860037066801,-0.999925349133,0.0,0.661078899135,0.260159499006,0.303294160451,1.0,-0.00508,-0.00667657142857,0.255
0.46456247836,0.544021493106,-0.123945605894,-1.36165321894,0.0793065476666,1.89616402771,0.158487902988,-0.00470490107707,-0.026220105181,-0.000863970848841,-0.0473915201014,-0.00182954894347,0.0111148441309,-0.0137325485916,0.573917880382,0.818898546825,0.0020453572472,0.0,0.818854819404,-0.573857100146,-0.0120648354008,0.0,-0.00870630102205,0.0085992409617,-0.999925123885,0.0,0.660985176677,0.260044505399,0.303283558388,1.0,-0.00542,-0.00712342857143,0.272
0.464480093291,0.543471112911,-0.123943129494,-1.36254045565,0.079265103584,1.89648118102,0.158377156784,-0.00181412458049,-0.0267795941592,-0.00104642210187,-0.050750953346,-8.19896512243e-05,0.0232915581404,-0.00338272477077,0.573931268096,0.818889188827,0.002035393207,0.0,0.818845181496,-0.573870381426,-0.0120872231849,0.0,-0.00873021259662,0.00860407290532,-0.999924873837,0.0,0.660881857081,0.259908211695,0.303278075233,1.0,-0.00578,-0.00759657142857,0.29
0.464406449097,0.542984271864,-0.123946295238,-1.36330172308,0.0792123165638,1.89675482507,0.158275079385,-0.00214274039156,-0.0316275507368,0.000758927668077,-0.0537884543105,-0.00729998569654,0.0225279170278,-0.0154078224755,0.573938447706,0.818884169705,0.00203020993063,0.0,0.818840155422,-0.573877642447,-0.0120829743152,0.0,-0.00872963237345,0.00859746646513,-0.999924935727,0.0,0.660796730168,0.259783767432,0.303283918402,1.0,-0.00608,-0.00799085714286,0.305
0.464330016821,0.542359403722,-0.123941400012,-1.36426836333,0.0791569274598,1.89710508416,0.158147026032,-0.00507227760092,-0.0350346939929,0.00156302310921,-0.0583032308313,-7.48853627571e-05,0.0259473111066,-0.00948421511142,0.573931665282,0.818888898049,0.00204037738159,0.0,0.818844946257,-0.573870747528,-0.012085777718,0.0,-0.00872616431002,0.00860732895702,-0.999924881151,0.0,0.660682094605,0.259644373002,0.3032959616,1.0,-0.00644,-0.008464,0.323
0.464238833135,0.541744575997,-0.123950202814,-1.36522433501,0.0791086323215,1.8974621013,0.158023412307,-0.00847192821639,-0.0347920197468,-0.00508041258316,-0.0615771084881,-0.00147101194696,0.0249323303908,-0.00285932949195,0.573951521144,0.81887494112,0.00205647354996,0.0,0.818831156986,-0.573890489166,-0.0120826195302,0.0,-0.00871413151884,0.00861890841567,-0.999924886344,0.0,0.660577415278,0.25949004153,0.303306947343,1.0,-0.00678,-0.00891085714286,0.34
0.464166262563,0.54116747698,-0.123946962966,-1.36609720954,0.079054583885,1.89778302281,0.157926059898,-0.0045619826752,-0.0396214173978,0.00100211728167,-0.0643731095248,-0.00511475836962,0.0155217026821,-0.00462157313187,0.57396072382,0.818868430105,0.00208052635467,0.0,0.818824985755,-0.573899612561,-0.0120674896492,0.0,-0.00868784030335,0.00863001821108,-0.999925019297,0.0,0.660472214367,0.259344763636,0.303330585929,1.0,-0.0071,-0.00933142857143,0.356
0.464066570051,0.540436155172,-0.123950969409,-1.36722579716,0.078985245006,1.89819640562,0.157768982238,-0.0106819227948,-0.0443794238503,0.00043183993633,-0.0632982924184,-0.00294020289844,0.0119777928412,-0.00901432600866,0.573962724365,0.818867003304,0.00209017699739,0.0,0.818823666857,-0.573901553488,-0.0120646757195,0.0,-0.00867997614287,0.008636326814,-0.999925033127,0.0,0.660348020648,0.259185295491,0.303342880913,1.0,-0.00744,-0.00977828571429,0.373
0.463950816717,0.539662576024,-0.123947993202,-1.36841996777,0.0789174248649,1.89865214078,0.157616728342,-0.000740594661783,-0.0383659645757,0.00115267187563,-0.0697278065703,-0.00263155341875,0.017047953317,-0.0041480236526,0.573978808673,0.818855646404,0.00212236861139,0.0,0.818812690299,-0.573917458547,-0.0120530444757,0.0,-0.00865180569983,0.00865618111988,-0.999925105589,0.0,0.660216396617,0.258998950223,0.303360558863,1.0,-0.0078,-0.0102514285714,0.391
0.463863148575,0.538949433592,-0.123956908693,-1.36952335878,0.0788559114741,1.89906658717,0.157491272457,-0.00695653172816,-0.0449990716075,0.000484695262719,-0.0694634280482,-0.00127108284263,0.0331019487847,-0.00567195367141,0.5739987107,0.818841642152,0.00214291718548,0.0,0.81879895536,-0.573937272002,-0.0120426495734,0.0,-0.00863128908803,0.00866725055285,-0.99992518701,0.0,0.660090797376,0.258832462805,0.303375430336,1.0,-0.00812,-0.010672,0.407
0.463743540151,0.538177715517,-0.123964851993,-1.37071884761,0.0787837518973,1.8995228509,0.157339846394,-0.00883124314817,-0.0459929290262,-0.00139151066978,-0.0707925651192,-8.20663317035e-05,0.0208404353853,-0.00920920340143,0.574025018318,0.818823134757,0.00216777122821,0.0,0.818780824861,-0.573963524509,-0.012024153787,0.0,-0.00860159928968,0.00867726167639,-0.999925356024,0.0,0.659962174744,0.258636419701,0.303391305355,1.0,-0.00846,-0.0111188571429,0.424
0.463648811911,0.537368346277,-0.123969367491,-1.37198474615,0.0787110538396,1.89999573289,0.157191640699,-0.00758904635971,-0.05218402978,-0.000599550249632,-0.0755403291481,-0.00449402911153,0.0307483853247,-0.00959602852744,0.574034771758,0.818816259885,0.00218180252915,0.0,0.818774117037,-0.573973201787,-0.0120189767241,0.0,-0.00858920275435,0.00868588123008,-0.999925387748,0.0,0.659814093082,0.258451975025,0.30340145353,1.0,-0.0088,-0.0115657142857,0.441
0.463540575424,0.536579334157,-0.123972103382,-1.3732042259,0.0786463050761,1.90045941439,0.157032413544,-0.00878615480348,-0.0445485599261,-0.00213540176541,-0.0747974019047,-0.000295927195952,0.024451252907,-0.0089565598468,0.574044823401,0.818809127622,0.00221362840998,0.0,0.818767343128,-0.573983061926,-0.012009552473,0.0,-0.00856311083721,0.00870663571009,-0.999925431033,0.0,0.659676776574,0.258265563788,0.30341833193,1.0,-0.00912,-0.0119862857143,0.457
0.463420427363,0.535668326089,-0.123980403102,-1.37465102259,0.0785580756093,1.90098417255,0.156856512428,-0.00700293975279,-0.0534886173536,0.00076960683999,-0.0817260127924,6.96664283776e-05,0.0280671548071,-0.00945490895768,0.574056582773,0.818800888524,0.00221170268015,0.0,0.818759065133,-0.573994813793,-0.012012239678,0.0,-0.00856629158107,0.00870672451116,-0.999925403016,0.0,0.659516695111,0.258059347581,0.303423469485,1.0,-0.00946,-0.0124331428571,0.474
0.463314942286,0.534810813264,-0.123983532696,-1.37599969918,0.0784905266568,1.90146570348,0.156699913571,-0.00252468090854,-0.0514546346513,-0.00183503829941,-0.0832829902795,-0.00394999768026,0.025065757211,-0.00558514495666,0.574077022088,0.818786590292,0.00219981121541,0.0,0.81874448994,-0.574015176463,-0.0120326341352,0.0,-0.00858959982917,0.00870890975721,-0.999925184034,0.0,0.659344426776,0.257844583457,0.303423406833,1.0,-0.0098,-0.01288,0.491
0.463199826155,0.533968652773,-0.123981420622,-1.37738180879,0.0784031494434,1.90197049569,0.156527926166,-0.00515681276174,-0.0554118778774,0.000206848990135,-0.0847633913997,-0.00284448055322,0.0321456780879,-0.00734698981401,0.574081281801,0.818783691618,0.00216682410147,0.0,0.818741148874,-0.574019562456,-0.0120507244438,0.0,-0.00862330324941,0.00869233074386,-0.999925038204,0.0,0.6591799241,0.257637029545,0.303403311933,1.0,-0.01012,-0.0133005714286,0.507
0.463068579891,0.532998897551,-0.123976439368,-1.37895408904,0.0783227681314,1.90257354233,0.1563265279,-0.0105205082073,-0.0511184151076,0.00108106045269,-0.092126715231,-0.00220101001775,0.0298172579269,-0.0114170253013,0.574085011266,0.818781057408,0.00217411355859,0.0,0.818738459106,-0.574023108587,-0.0120645468036,0.0,-0.00863039712756,0.00870627349529,-0.9999248557,0.0,0.658996880736,0.257407410068,0.303390972722,1.0,-0.01048,-0.0137737142857,0.525
0.462937416295,0.53203034923,-0.123976445527,-1.38050601372,0.0782418470938,1.90314304675,0.15612967345,-0.00590168960337,-0.0555576364549,-0.000455061050849,-0.0898309645158,-0.0032552341041,0.0274871157591,-0.0166262824683,0.574094275507,0.818774576843,0.00216842060085,0.0,0.818731756533,-0.574032247014,-0.0120845824883,0.0,-0.00864997210198,0.0087132121922,-0.999924626117,0.0,0.658812573461,0.257175020218,0.303384504134,1.0,-0.01082,-0.0142205714286,0.542
0.462792859207,0.530958681949,-0.12398144803,-1.38221346678,0.0781281709906,1.90375933352,0.15591083413,-0.00906954286365,-0.0596080211724,-0.00135569124106,-0.101368557246,-0.000856578837384,0.0296826381597,-0.00867038919005,0.574099363396,0.818771072628,0.0021444061273,0.0,0.818728007112,-0.574037505824,-0.0120888038337,0.0,-0.00866716020664,0.00869602736567,-0.99992462688,0.0,0.658609977087,0.256911721944,0.303380631214,1.0,-0.01118,-0.0146937142857,0.56
0.462658832004,0.529997314044,-0.123981161992,-1.38376140064,0.0780361348547,1.90431017426,0.155713321386,-0.0134617242873,-0.0567786178312,0.000462449480629,-0.0944742359908,-0.00392348334939,0.0366420756666,-0.0063416760628,0.574106513927,0.81876613635,0.00211460048282,0.0,0.818722604161,-0.574044706553,-0.0121127707448,0.0,-0.00870381886506,0.00868545902234,-0.999924400312,0.0,0.658423081348,0.256675003111,0.303368916267,1.0,-0.0115,-0.0151142857143,0.576
0.462521738539,0.528944657414,-0.123987731158,-1.3854170226,0.0779349375428,1.90492962205,0.155486154004,-0.00601361911663,-0.0626240119821,-0.000193462505576,-0.096407553451,-0.00239077222326,0.032553980105,-0.00788046044606,0.574100087633,0.818770613583,0.00212570322631,0.0,0.818727255134,-0.574038261724,-0.0121038290884,0.0,-0.00869019189754,0.00868934780491,-0.999924485049,0.0,0.658229533481,0.25642388569,0.303376177823,1.0,-0.01184,-0.0155611428571,0.593
0.462391374218,0.527971377996,-0.123982427233,-1.38693346438,0.0778255376007,1.90552459681,0.15528084217,-0.00959283869651,-0.0643208340988,0.00162586150053,-0.10205080607,-0.00391314473433,0.0362469344307,-0.00965663664387,0.574087816227,0.818779128951,0.00215966542423,0.0,0.818736380825,-0.574026013668,-0.0120673628759,0.0,-0.00864096709535,0.00869609008096,-0.999924853029,0.0,0.658057160287,0.256196624213,0.303391020009,1.0,-0.01214,-0.0159554285714,0.608
0.462240522469,0.52674157899,-0.123993550061,-1.38880683878,0.0777228118817,1.90623186671,0.155019933118,-0.00636805609394,-0.0718973436746,-0.00107847090367,-0.109132976528,-0.00421493216206,0.0309938902919,-0.00825323684597,0.574079243182,0.818784986363,0.0022171052738,0.0,0.818742951498,-0.574017162146,-0.0120425842276,0.0,-0.0085877960268,0.00872880501153,-0.999925026051,0.0,0.65783848062,0.2559160352,0.303426568262,1.0,-0.0125,-0.0164285714286,0.626
0.462093759534,0.525579771488,-0.123994221257,-1.39064054448,0.0775976431064,1.90689249496,0.154763424442,-0.00553137238382,-0.0657149022811,0.000536541808482,-0.107135224217,-0.0106457009995,0.0415373148478,-0.0277680219144,0.574054839911,0.818802142556,0.00219977759579,0.0,0.818759952733,-0.573992907016,-0.012042815202,0.0,-0.0085981916946,0.0087144939342,-0.99992506154,0.0,0.65761519535,0.255641319667,0.303428428941,1.0,-0.01284,-0.0168754285714,0.643
0.461935870002,0.524466797258,-0.123997429512,-1.39239674271,0.0774911204382,1.90752414234,0.154523278658,-0.00570515367202,-0.0740709899154,-6.32947312694e-05,-0.113384834605,-0.00711754273674,0.0473819263155,-0.019844665445,0.574055422578,0.818801762104,0.00218931167589,0.0,0.818759396029,-0.573993493545,-0.0120527043908,0.0,-0.00861229074928,0.00871160754319,-0.999924965356,0.0,0.657404876559,0.255367441062,0.303430135675,1.0,-0.01316,-0.017296,0.659
0.461771784503,0.523200180199,-0.124003704859,-1.39441580887,0.0773610978338,1.90827316106,0.154264549412,-0.00637710236473,-0.0685860867895,-6.99940620505e-05,-0.110140506386,-0.00924604273475,0.0475872031896,-0.0105983353814,0.574055690609,0.818801600685,0.00217937969207,0.0,0.818759171038,-0.573993870248,-0.0120500481904,0.0,-0.00861581404358,0.00870195338545,-0.999925019067,0.0,0.657163181076,0.2550627194,0.303424717465,1.0,-0.01352,-0.0177691428571,0.677
0.461612223668,0.522034590073,-0.12400203655,-1.39624956194,0.0772650525775,1.90899546589,0.154016906125,-0.0120840998008,-0.0762678638577,-0.00011381257206,-0.115344237769,-0.00611084278754,0.047565272653,-0.0103140521535,0.574055066106,0.818801897313,0.0022318011079,0.0,0.818760048226,-0.573992920529,-0.0120356766827,0.0,-0.00857396194261,0.00873661896344,-0.999925076526,0.0,0.656951669808,0.254789925415,0.303433623736,1.0,-0.01384,-0.0181897142857,0.693
0.461457980295,0.520865898798,-0.124004512801,-1.39814937451,0.0771387589034,1.90970956356,0.153761712721,-0.0085798374929,-0.0710630117543,0.000972305887426,-0.12283550049,-0.00748056193915,0.0411215636382,-0.00684218353489,0.57404164338,0.818811370821,0.00220852444035,0.0,0.818769302867,-0.573979683289,-0.0120373899101,0.0,-0.00858886893691,0.00871840295865,-0.999925107586,0.0,0.656723648996,0.254505064187,0.303412365785,1.0,-0.01416,-0.0186102857143,0.709
0.461275476814,0.519480162895,-0.124009864979,-1.4003075859,0.076997270004,1.91048862506,0.153462261019,-0.00386530587651,-0.075473485453,-0.000448642005861,-0.116448566543,-0.0138843027074,0.045402813286,-0.0139860963951,0.574026225167,0.818822181693,0.00220782469959,0.0,0.818780160425,-0.573964326642,-0.0120311070956,0.0,-0.00858429001737,0.00871406182509,-0.999925184747,0.0,0.656461283191,0.254174178598,0.303425857879,1.0,-0.01452,-0.0190834285714,0.727
0.461110113352,0.518223831088,-0.124008388387,-1.40228089865,0.0768779909833,1.91119463121,0.153194480054,-0.00715174856453,-0.0763598774045,0.00159988696215,-0.121711660606,-0.0107033628368,0.0443130818134,-0.0228867957677,0.574013775297,0.818830931059,0.00219977522713,0.0,0.818788721091,-0.573951827292,-0.0120447940237,0.0,-0.00860025047506,0.00871519662968,-0.99992503771,0.0,0.656216762984,0.253877446606,0.303429593613,1.0,-0.01484,-0.019504,0.743
0.460926211949,0.516859953108,-0.124021897028,-1.40440440258,0.0767447310964,1.91196327871,0.152908112921,-0.00490926573173,-0.077812675016,-0.00106670100963,-0.121810891064,-0.014369541723,0.0466252743881,-0.0156763298863,0.574015816309,0.818829492876,0.00220252698676,0.0,0.818787361965,-0.573953900216,-0.0120384058265,0.0,-0.00859341823351,0.00871380437645,-0.999925108584,0.0,0.655960176612,0.253545443607,0.303442814004,1.0,-0.01518,-0.0199508571429,0.76
0.460747562341,0.515587614194,-0.1240250367,-1.4064592617,0.0766160032125,1.91274788401,0.152614005937,-0.0127851939679,-0.0792040207509,0.000299057715664,-0.126503652011,-0.00567853740884,0.0591695836141,-0.0177890005921,0.573997507319,0.818842336601,0.00219915489565,0.0,0.818800201012,-0.573935647585,-0.012035371013,0.0,-0.00859306337608,0.00870910910907,-0.999925152539,0.0,0.65571595008,0.253231704913,0.303425221111,1.0,-0.0155,-0.0203714285714,0.776
0.460551137342,0.514122645055,-0.124026878022,-1.40882316986,0.0764708356463,1.91359000517,0.152301961509,-0.0130691296881,-0.0800781580748,0.00111920886496,-0.1253318113,-0.00689840778166,0.0515563286059,-0.0238408196127,0.573989282102,0.818848234401,0.0021494070675,0.0,0.818805364689,-0.573927548268,-0.0120702525828,0.0,-0.00865026763217,0.00868830892943,-0.999924840254,0.0,0.655419157287,0.252874290317,0.303400118805,1.0,-0.01586,-0.0208445714286,0.794
0.460383931163,0.512870031466,-0.124032917052,-1.41082352333,0.0763500072983,1.91428769132,0.152017256253,-0.011333914585,-0.0847043937106,-0.000498998956205,-0.129720653654,-0.0027901654707,0.0429192124228,-0.0137784304268,0.573969534901,0.818862186409,0.00210703026804,0.0,0.818818671002,-0.573907893243,-0.0121021069479,0.0,-0.00870088397237,0.00867168337684,-0.999924545416,0.0,0.655165768301,0.252568134793,0.303386405564,1.0,-0.01616,-0.0212388571429,0.809
0.460168399039,0.511364524338,-0.124032443376,-1.41326169124,0.0761966407624,1.91519705712,0.151683859434,-0.0166212614515,-0.0858560676452,0.000334085838942,-0.133203859235,-0.0147522472873,0.0529533587337,-0.0179626960913,0.573958987336,0.8188696419,0.00208262639176,0.0,0.818825800485,-0.573897445762,-0.0121151602659,0.0,-0.00872569097835,0.00865908005407,-0.99992443847,0.0,0.654868731885,0.252194615317,0.303359216995,1.0,-0.01652,-0.021712,0.827
0.459965123265,0.509911309499,-0.12403602323,-1.41560368608,0.0760561245037,1.91607865212,0.151341301593,-0.0125084283684,-0.0811770569253,0.000282371675303,-0.136471780969,-0.0109155841355,0.0543714647321,-0.0295136958603,0.573931940213,0.818888618119,0.00207509516876,0.0,0.818844640501,-0.573870397461,-0.0121230583168,0.0,-0.00873676699301,0.00865715761566,-0.999924358401,0.0,0.654583847737,0.251837727086,0.303338420172,1.0,-0.01686,-0.0221588571429,0.844
0.459771840577,0.508486907015,-0.124042164559,-1.41783898706,0.0759204750721,1.91685871141,0.151038269461,-0.0121085480634,-0.0874956430002,0.000396730708698,-0.137424474434,-0.00417711039189,0.0498921256853,-0.0128681934893,0.573925757867,0.818893015327,0.00204958698783,0.0,0.818848607581,-0.573864232217,-0.0121469233039,0.0,-0.00877101485737,0.00864990015145,-0.999924121384,0.0,0.654300279789,0.251492223736,0.303338980632,1.0,-0.01718,-0.0225794285714,0.86
0.459560252068,0.506951576784,-0.124042869708,-1.42023823161,0.0757607907059,1.91773826831,0.150707046132,-0.00701401940547,-0.0923100840806,-0.000380837300635,-0.144063012577,-0.00818053793775,0.0518391414117,-0.0156114512258,0.573909306232,0.818904530078,0.00205566033524,0.0,0.818860266014,-0.573847819405,-0.0121363836858,0.0,-0.00875907201753,0.00864864862351,-0.999924236897,0.0,0.654004045739,0.25112285543,0.303347033275,1.0,-0.01752,-0.0230262857143,0.877
0.459322720612,0.505274096939,-0.124054251681,-1.42283875427,0.0755941693992,1.91872583824,0.150353667517,-0.0142613438085,-0.0891009784991,-0.00199968891178,-0.139605953614,-0.00752581929415,0.0478750092942,-0.00990611165499,0.573911955046,0.818902554478,0.00210262358674,0.0,0.818859024926,-0.573850383071,-0.0120988449217,0.0,-0.00870135118989,0.00866559088231,-0.999924594168,0.0,0.653693140068,0.250714509843,0.303367777955,1.0,-0.01788,-0.0234994285714,0.895
0.459127242122,0.503794869057,-0.124060946565,-1.42503190853,0.0754557834253,1.91956545361,0.150039198296,-0.0145575356899,-0.100196642449,-0.000743394200855,-0.14262386606,-0.0130077258207,0.0617806233033,-0.0196689228556,0.573894818581,0.818914290988,0.00220638255614,0.0,0.818872212148,-0.573832903599,-0.0120351909544,0.0,-0.00858986034009,0.00871384686248,-0.999925138784,0.0,0.653431097797,0.250376707073,0.303430225456,1.0,-0.01818,-0.0238937142857,0.91
0.458882719,0.502011745279,-0.124061234087,-1.42768100802,0.075289503515,1.92054450132,0.149672882387,-0.0123468569323,-0.0996538347578,0.000607615357314,-0.147092303597,-0.00986896220323,0.0552460644688,-0.0240529820712,0.573886024299,0.818920189497,0.00230244437646,0.0,0.818879378044,-0.573823727677,-0.0119850186044,0.0,-0.00849374002259,0.00876362762399,-0.999925524832,0.0,0.653106626887,0.249965609682,0.303499159993,1.0,-0.01854,-0.0243668571429,0.928
0.458646237544,0.50029772643,-0.124064532893,-1.43026676081,0.0751244450447,1.92146056521,0.149308677741,-0.0154627170832,-0.094317582106,0.000541582486949,-0.153922644246,-0.00233950732709,0.0496678176773,-0.0248315850999,0.57387085664,0.818930714715,0.00233908020056,0.0,0.818890359013,-0.573808390422,-0.0119690391554,0.0,-0.00845979282225,0.00878430210349,-0.999925631206,0.0,0.65278038561,0.249560720894,0.303543970796,1.0,-0.01888,-0.0248137142857,0.945
0.45842889387,0.4987978867,-0.124069921749,-1.43257754578,0.0749787429983,1.9223106629,0.14898186825,-0.010574640267,-0.0984417747831,-0.00112613898621,-0.156066377874,-0.00369105067967,0.0551416371885,-0.0286058663476,0.573863263363,0.818935947825,0.00236964647909,0.0,0.81889600503,-0.573800690124,-0.0119518977835,0.0,-0.00842829622541,0.00879941851655,-0.999925764273,0.0,0.652495253674,0.249195583526,0.303564062044,1.0,-0.01918,-0.025208,0.96
0.45817351562,0.497134519913,-0.124067653977,-1.43522246279,0.0748141424248,1.92328593843,0.148593046523,-0.0123078920456,-0.0990476409486,-0.00412676685611,-0.15614316074,-0.00728686167003,0.0609963751885,-0.0266367905618,0.573842103877,0.818950793804,0.00236305874611,0.0,0.818910707111,-0.573779499275,-0.0119618933352,0.0,-0.00844048988372,0.00879954156498,-0.999925660336,0.0,0.6521664205,0.248778194636,0.303549288354,1.0,-0.01952,-0.0256548571429,0.977
0.457895491633,0.495371592229,-0.124068770815,-1.43808827569,0.0746397025328,1.92426557706,0.148178752947,-0.0151240249466,-0.0959517080534,-0.000228310554319,-0.16642464595,-0.00610941041503,0.0611097771345,-0.0278998846669,0.573828657719,0.818960504039,0.00226081972029,0.0,0.818918861304,-0.573766244108,-0.0120392119355,0.0,-0.00856262189238,0.00876004139381,-0.999924968776,0.0,0.651793181948,0.248318168618,0.303498660115,1.0,-0.01988,-0.026128,0.995
0.457607925816,0.493679455697,-0.124093120674,-1.44081523008,0.0744747642108,1.92523783587,0.147792844915,-0.0181472118026,-0.121399763678,-0.0046537902357,-0.190760506282,-0.0109543185845,0.0754761097588,-0.02905738109,0.573858286432,0.818939898219,0.00220388299251,0.0,0.818897466731,-0.573796062307,-0.0120733078688,0.0,-0.00862290015193,0.00873329010761,-0.999924684782,0.0,0.651455979014,0.247854940279,0.303464195324,1.0,-0.03006,-0.0395074285714,1.011
0.457256610611,0.490534674327,-0.124180472334,-1.44549688692,0.0742246625122,1.92702873697,0.147087037326,-0.0248165624174,-0.203247903964,-0.00690883233629,-0.324387017853,-0.0201530033839,0.13015945593,-0.0524307625913,0.573798744951,0.818980999254,0.002422819488,0.0,0.818941531196,-0.573735738678,-0.0119506295466,0.0,-0.00839744207595,0.00884157396424,-0.999925652004,0.0,0.650877974998,0.247142322969,0.303581693511,1.0,-0.047196,-0.0620290285714,1.028
0.456576778349,0.48547439812,-0.124239034569,-1.45345823473,0.0738134406043,1.93013516147,0.145865313852,-0.0434388152501,-0.305710676097,-0.00676835988801,-0.468920493495,-0.0207541853216,0.188302781085,-0.0770518538263,0.573684353037,0.819060522359,0.00262120107717,0.0,0.819023288688,-0.573620212208,-0.0118933440944,0.0,-0.00823795331458,0.00897002283952,-0.999925834657,0.0,0.649890536649,0.245932742692,0.303579812451,1.0,-0.066348,-0.0872002285714,1.047
0.455845245387,0.480602372265,-0.12438375733,-1.4612783436,0.0733382877682,1.93287086461,0.144669415174,-0.0548614653459,-0.368260956989,-0.0141953871601,-0.599448980406,-0.0417483663313,0.207573548272,-0.0864383831219,0.573664039324,0.819075373408,0.0024185873594,0.0,0.819035558731,-0.573600760936,-0.0119861373765,0.0,-0.00843040870908,0.00885709555905,-0.999925237239,0.0,0.648882946272,0.244619836217,0.303479321953,1.0,-0.08046,-0.105747428571,1.061
0.454636124954,0.472826111407,-0.124574863454,-1.4736100172,0.0725980351856,1.93709053604,0.142873648384,-0.07005902013,-0.459685500804,-0.00766367866296,-0.735859672365,-0.048074592603,0.252495757544,-0.109330876055,0.573718019002,0.819038389946,0.00212069978153,0.0,0.818994364174,-0.573655663458,-0.0121720226242,0.0,-0.00875297089413,0.0087203177695,-0.999923667866,0.0,0.647260514533,0.242534271517,0.303364762573,1.0,-0.098604,-0.129593828571,1.079
0.453250694592,0.463992520202,-0.124706628922,-1.48707223965,0.0718211137001,1.94206660427,0.140747305793,-0.0833268070319,-0.539481715896,-0.0100494130206,-0.822221634753,-0.05841683807,0.298455799679,-0.134629156291,0.57363826181,0.819093385679,0.00243249379112,0.0,0.819053174308,-0.573574322686,-0.0120474442323,0.0,-0.00847292903649,0.0089033881476,-0.999924466724,0.0,0.645539261501,0.240297593919,0.303489612456,1.0,-0.11574,-0.152115428571,1.096
0.451669140585,0.45463644041,-0.12484982495,-1.50176813382,0.0708817682624,1.94720400244,0.138478736541,-0.1033736234,-0.608075580609,-0.00761716060599,-0.959123323783,-0.0549506576864,0.31598367779,-0.146050446996,0.57360720792,0.819115684574,0.00223901977819,0.0,0.819072724554,-0.573543863891,-0.0121677847404,0.0,-0.00868281444358,0.00881361875106,-0.9999234615,0.0,0.643578042898,0.237780024756,0.303383007005,1.0,-0.131868,-0.173312228571,1.112
0.449663483538,0.4431829528,-0.125027550825,-1.51907203334,0.0696921433291,1.95341553273,0.135758240533,-0.119946443521,-0.694779685443,-0.00283477152407,-1.05592246975,-0.0688706816021,0.374116393505,-0.155073814599,0.573609041488,0.819113706372,0.00248001164003,0.0,0.81907478469,-0.573545622334,-0.0119441654278,0.0,-0.00836139077631,0.00888276730331,-0.999925589026,0.0,0.641303893104,0.234729270477,0.303542287241,1.0,-0.149004,-0.195833828571,1.129
0.447351364807,0.43047085514,-0.125204144113,-1.53840638737,0.0684302462426,1.96007325402,0.132613114619,-0.145659636769,-0.762953124641,-0.0106244460664,-1.16963744645,-0.072039780863,0.406404024742,-0.192801528329,0.573560097202,0.819147919049,0.00249970347207,0.0,0.819108884176,-0.573496212864,-0.0119781716548,0.0,-0.00837848522233,0.00891790231767,-0.999925133199,0.0,0.638648785852,0.231291142356,0.303600104071,1.0,-0.16614,-0.218355428571,1.146
0.444667652152,0.416593565291,-0.125393684685,-1.55930404845,0.0669753285886,1.96725163359,0.129160276873,-0.170242889398,-0.864897010017,-0.0145794633958,-1.25207065615,-0.0906718432646,0.450246799493,-0.206782243405,0.573553550306,0.819152237454,0.00258528654052,0.0,0.819114550839,-0.573489580666,-0.0119079961588,0.0,-0.00827198606442,0.00894769156813,-0.999925753775,0.0,0.635750086297,0.227460500614,0.303709143552,1.0,-0.183276,-0.240877028571,1.163
0.441627650429,0.401622016607,-0.125575857892,-1.58181154409,0.0654192107072,1.97506128451,0.125362920722,-0.188152903955,-0.89093579806,-0.00903036046276,-1.34027176213,-0.0844047655775,0.448921487533,-0.229115209948,0.573555372196,0.819150316279,0.00278231318578,0.0,0.819115237443,-0.573490710847,-0.011805899483,0.0,-0.00807533100391,0.00905054644897,-0.999926435613,0.0,0.632584619439,0.223280384594,0.303796901996,1.0,-0.200412,-0.263398628571,1.18
0.438185973275,0.385461925667,-0.125784632763,-1.60578703188,0.0636912680482,1.98328821419,0.121196813356,-0.209235564524,-0.951587234064,-0.0112011853306,-1.45413852109,-0.108066415474,0.479735445425,-0.25443920411,0.573569128369,0.819139643224,0.00307356180825,0.0,0.81910875392,-0.573503928851,-0.0116120517333,0.0,-0.00774934134018,0.00917807248044,-0.999927852745,0.0,0.629149696575,0.21870310604,0.303962254275,1.0,-0.217548,-0.285920228571,1.197
0.43482901526,0.370277686007,-0.125969232207,-1.62815570555,0.0620271477937,1.9907487751,0.117136021912,-0.236817822864,-1.02515881652,-0.013872095881,-1.52691985522,-0.115139599772,0.501425969624,-0.278781756022,0.57349198092,0.819192960136,0.00325404131399,0.0,0.819164628126,-0.573426487737,-0.0114944373442,0.0,-0.00755035403921,0.0092577414252,-0.999928640643,0.0,0.625841241696,0.214354862541,0.304109012521,1.0,-0.232668,-0.305792228571,1.212
0.430012864999,0.350127541488,-0.126242301256,-1.65807264906,0.0597016683763,2.00051374195,0.111664825096,-0.275580051703,-1.0721263595,-0.0212755756997,-1.61061919605,-0.123960404463,0.519707752488,-0.311701563042,0.573546372009,0.819155291544,0.00314871276045,0.0,0.819125952863,-0.573481626672,-0.0114997442247,0.0,-0.00761449401991,0.0091750055666,-0.99992891685,0.0,0.621303544817,0.20833705274,0.304092920677,1.0,-0.25182,-0.330963428571,1.231
0.425225155175,0.331031655115,-0.126506286646,-1.68600224576,0.0575759244692,2.00955548294,0.106302771048,-0.293966995159,-1.13707583007,-0.0160320635606,-1.66943059156,-0.135647005463,0.53460746509,-0.333370779312,0.57358416728,0.819128297758,0.0032835587757,0.0,0.819100437609,-0.573518683644,-0.0114690679799,0.0,-0.00751160044614,0.00926821867876,-0.999928835458,0.0,0.616968788819,0.202592484511,0.304161818962,1.0,-0.268956,-0.353485028571,1.248
0.420341959803,0.312228075274,-0.126691717117,-1.71332898344,0.055301504713,2.01818516622,0.100871564874,-0.323426816889,-1.1638002348,-0.014021362562,-1.71739567992,-0.152612558673,0.530031044097,-0.35928076374,0.573443875478,0.819226562205,0.00327236246753,0.0,0.819198909601,-0.573378878178,-0.0114260872122,0.0,-0.00748439472345,0.00923311326375,-0.999929364233,0.0,0.61257901117,0.196908746983,0.304193696835,1.0,-0.285084,-0.374681828571,1.264
0.414970854771,0.292583786019,-0.126909777032,-1.74162239108,0.0529453138617,2.02687602274,0.0950292596319,-0.352904429008,-1.23290398691,-0.0152348192216,-1.77195357561,-0.148269673533,0.526810262307,-0.375617631438,0.573328727333,0.819307282683,0.00323942258431,0.0,0.819278999928,-0.573263591934,-0.0114682754341,0.0,-0.00753914370838,0.00922926034641,-0.999928988511,0.0,0.607907261036,0.190868011744,0.304219702018,1.0,-0.301212,-0.395878628571,1.28
0.408662736254,0.270863968381,-0.127192975336,-1.77255068221,0.0503742606436,2.03631002574,0.0884280805238,-0.39135835031,-1.31225879473,-0.021538460055,-1.83025920013,-0.164430860596,0.574781076078,-0.401191003213,0.573343020766,0.819296691031,0.00338518924435,0.0,0.819269853704,-0.573276905183,-0.0114561641491,0.0,-0.00744548991455,0.00934187511665,-0.999928644479,0.0,0.602709461843,0.184055622901,0.304280297608,1.0,-0.318348,-0.418400228571,1.297
0.401688634581,0.248298683459,-0.127591921765,-1.80434877611,0.047555080932,2.04576926501,0.0813553319627,-0.418886932687,-1.32982688661,-0.0274771763494,-1.88973851776,-0.165854732815,0.561970646306,-0.430309431188,0.573456101316,0.819217203722,0.00346697135562,0.0,0.819191780452,-0.573390188595,-0.0113694927131,0.0,-0.00732629772265,0.00936019961564,-0.999929353517,0.0,0.597244061471,0.17675900337,0.304336131982,1.0,-0.335484,-0.440921828571,1.314
0.394152935897,0.224956920078,-0.12790328867,-1.83675021902,0.0446479155174,2.05519580129,0.0737351547595,-0.449748646822,-1.39182687413,-0.00777761694905,-1.9188069062,-0.167194593179,0.542190393197,-0.462874058468,0.573402818271,0.81925343015,0.00371107637046,0.0,0.819231017375,-0.573336076746,-0.0112707662915,0.0,-0.00710605679164,0.00950310099032,-0.999929595036,0.0,0.591495659446,0.169227205604,0.304442646623,1.0,-0.35262,-0.463443428571,1.331
0.385916729912,0.200918851727,-0.128244497715,-1.86991318906,0.0414387182717,2.06437793849,0.0655604921525,-0.501678910531,-1.41039434997,-0.0213367359501,-1.9587761361,-0.189220539204,0.526600194578,-0.496651090608,0.573296844352,0.819327944149,0.00363250518144,0.0,0.819304744824,-0.573230621299,-0.0112754962514,0.0,-0.00715620373996,0.00944051690937,-0.999929830232,0.0,0.585404281082,0.161274416976,0.304443825939,1.0,-0.369756,-0.485965028571,1.348
0.37741067676,0.177541249965,-0.128684128684,-1.90157216015,0.0383700807896,2.07286736547,0.057303176066,-0.555299806165,-1.48618655753,-0.0344343803157,-1.97615218412,-0.198565546725,0.531893624712,-0.523966339518,0.573344378322,0.819294226369,0.00373381653342,0.0,0.819272182575,-0.573277688372,-0.0112485454833,0.0,-0.0070754908836,0.00950848540565,-0.9999297606,0.0,0.579456478103,0.153370236611,0.304527022944,1.0,-0.385884,-0.507161828571,1.364
0.367617163569,0.151954139547,-0.1291732284,-1.93587503138,0.0349198675225,2.08174484616,0.047954165095,-0.581589582128,-1.50183801553,-0.0245696631605,-2.02693400931,-0.209886806035,0.52895780834,-0.568994219962,0.573393007353,0.819259940095,0.00378900718001,0.0,0.819238384349,-0.573325869565,-0.0112545011939,0.0,-0.00704816183658,0.00955753641845,-0.99992948597,0.0,0.572811136703,0.144605312619,0.304564033566,1.0,-0.40302,-0.529683428571,1.381
0.356351498152,0.124205153376,-0.129691615336,-1.9727160014,0.0309879701027,2.09080974651,0.0373148149199,-0.647804888383,-1.54638217304,-0.0290083258388,-2.07159019342,-0.22426338016,0.493915407226,-0.606135047388,0.573342956183,0.819295609365,0.00364773518657,0.0,0.819272118414,-0.573276042878,-0.0113367346288,0.0,-0.00719711627949,0.00948850736244,-0.999929082358,0.0,0.565420861416,0.134935675216,0.304506991852,1.0,-0.421164,-0.553529828571,1.399
0.346068404508,0.100391703561,-0.130285360539,-2.00348123432,0.0275796566745,2.09803166624,0.0278607170843,-0.696724544495,-1.58198035824,-0.0327002522882,-2.03294308641,-0.22849703709,0.462323021263,-0.641263166444,0.573526976574,0.819166272752,0.00376452240764,0.0,0.819144684346,-0.573460265066,-0.011227528654,0.0,-0.00703854429578,0.00952316243304,-0.999929881677,0.0,0.559111243657,0.12644065999,0.304622338038,1.0,-0.436284,-0.573401828571,1.414
0.332988113422,0.0714467372899,-0.130839023244,-2.04062728184,0.0233783781734,2.10634722816,0.0156904777802,-0.748276156624,-1.57535121684,-0.0317223332224,-2.04759465548,-0.247070776756,0.463742695724,-0.680894204852,0.573379284423,0.819269558128,0.00378605602631,0.0,0.81924784268,-0.573311991192,-0.0112729729872,0.0,-0.00706514830478,0.0095655915838,-0.999929289069,0.0,0.551198064344,0.116133191227,0.30460809619,1.0,-0.43998,-0.578259428571,1.432
0.320476825306,0.045980855534,-0.131422797904,-2.07282397574,0.0195119610254,2.11285501087,0.00459075395402,-0.79047547683,-1.57195352304,-0.0272146093917,-2.01753634933,-0.248679183166,0.377671333102,-0.693175169941,0.573654632401,0.819078105739,0.00348802583575,0.0,0.819051955911,-0.573587357782,-0.0114971045094,0.0,-0.0074164818503,0.0094524236325,-0.999927821137,0.0,0.543650326956,0.106092742435,0.304519573746,1.0,-0.43998,-0.578259428571,1.449
0.307546487029,0.0206812234102,-0.131868803093,-2.10399927361,0.0156985966605,2.11886941513,-0.00687975449302,-0.819418563903,-1.58122737477,-0.0270610689653,-1.93568075913,-0.240501649388,0.357951710416,-0.735739882689,0.573725589551,0.819027950268,0.00359325419293,0.0,0.81900278801,-0.573657512738,-0.0114994875072,0.0,-0.00735724606899,0.00954061913812,-0.999927421125,0.0,0.537031972845,0.0973964103079,0.304608222042,1.0,-0.43998,-0.578259428571,1.464
0.29230013544,-0.00730245684852,-0.132448458721,-2.13755946113,0.0114139825765,2.12501171745,-0.0203273929122,-0.855383745746,-1.52216944901,-0.0299937869506,-1.82518125804,-0.229165367466,0.335550119058,-0.758837581019,0.573896315044,0.818906582131,0.00397192920018,0.0,0.818887054362,-0.573828199149,-0.0112221638505,0.0,-0.00691083191776,0.00969310650583,-0.999929139534,0.0,0.529246064851,0.0868912469543,0.30483199202,1.0,-0.43998,-0.578259428571,1.482
0.276574602507,-0.0349325597912,-0.132837593054,-2.17026088826,0.00704535574679,2.13048725913,-0.0342641518518,-0.890251966666,-1.53345778653,-0.0220797239784,-1.80170756353,-0.25617036172,0.304538434403,-0.779246391193,0.573745085178,0.819011419623,0.00419745898809,0.0,0.818995559769,-0.573677589352,-0.0110019750149,0.0,-0.0066028821479,0.00975021708753,-0.999930665203,0.0,0.521352633089,0.0765684029803,0.304961680567,1.0,-0.43998,-0.578259428571,1.5
0.261918948954,-0.0590658022917,-0.133356281873,-2.19843712441,0.0032422546382,2.13462311371,-0.0471294753999,-0.914503480674,-1.5065645297,-0.0209117125878,-1.74779837617,-0.252990470596,0.249954056006,-0.809789780758,0.57385545777,0.81893372964,0.00426695999216,0.0,0.818918368178,-0.573787218023,-0.0110309380871,0.0,-0.00658540695528,0.00982464509433,-0.999930051936,0.0,0.514314848962,0.0672578562213,0.304999327089,1.0,-0.43998,-0.578259428571,1.516
0.245792854083,-0.0843276939264,-0.133866981208,-2.22746837927,-0.000823179145681,2.13835411161,-0.0613392348741,-0.967306742729,-1.47406378511,-0.0390382136057,-1.66735200693,-0.238146045146,0.200694039417,-0.846629321915,0.573848973667,0.818938421157,0.00423847564774,0.0,0.818922101803,-0.573779918879,-0.0111329587468,0.0,-0.00668538415992,0.00985980816847,-0.999929042393,0.0,0.506805967614,0.0574130035861,0.305000893525,1.0,-0.43998,-0.578259428571,1.533
0.229104175233,-0.109168660916,-0.134330691667,-2.25556065585,-0.00488882281114,2.14151161024,-0.0760318983896,-0.992639166516,-1.42216747129,-0.024341351833,-1.65941772272,-0.230555436183,0.161719675201,-0.867288039947,0.573782972553,0.818985018906,0.00416966630529,0.0,0.8189672063,-0.573713202611,-0.0112526910786,0.0,-0.00682372418375,0.00987161256067,-0.999927991434,0.0,0.499291825615,0.0476347396348,0.30496819253,1.0,-0.43998,-0.578259428571,1.55
0.21377731394,-0.130728001533,-0.134847594009,-2.27952859215,-0.00851109925553,2.14387384718,-0.0894511418223,-1.03174421714,-1.42021170796,-0.0276344301143,-1.55019930522,-0.233374027162,0.132279258349,-0.90780033874,0.573851396459,0.818937356675,0.00411430740805,0.0,0.818918676446,-0.573781533831,-0.0113004293885,0.0,-0.00689376288373,0.0098542400869,-0.999927682378,0.0,0.492696257174,0.0389243223171,0.304934530094,1.0,-0.43998,-0.578259428571,1.565
0.195898779808,-0.154763488592,-0.135353020963,-2.30589275688,-0.0125537977006,2.14601778169,-0.105341214628,-1.07258973193,-1.42729159524,-0.0434654610427,-1.52621207394,-0.241399899323,0.101644712712,-0.94804962085,0.573680453842,0.819057701781,0.00399561429465,0.0,0.819036730126,-0.573609865504,-0.0114587871553,0.0,-0.00709362066865,0.00984642665671,-0.999926361503,0.0,0.485186145849,0.029158631294,0.304841889937,1.0,-0.43998,-0.578259428571,1.582
0.176244821937,-0.179753932896,-0.135946246336,-2.33283519109,-0.0167185109255,2.14752809718,-0.122728326686,-1.10082726007,-1.37180644213,-0.0375863203688,-1.46956715706,-0.228017047153,0.0676887702748,-0.983526844551,0.573657994132,0.819074410055,0.00378991606219,0.0,0.819048479668,-0.573584962795,-0.0118585543351,0.0,-0.00753934468836,0.00990707022379,-0.999922501118,0.0,0.477189833547,0.0188127110517,0.304699105751,1.0,-0.43998,-0.578259428571,1.6
0.159172722763,-0.200342926775,-0.136542453539,-2.35452043933,-0.0203022257635,2.14845527043,-0.137838602859,-1.14581574238,-1.35958624414,-0.0321303606094,-1.42969920297,-0.224423459493,0.0340051484342,-1.01462846863,0.573681907427,0.81905822199,0.00366674012265,0.0,0.819029864945,-0.573608249107,-0.0120168125818,0.0,-0.00773934577192,0.00989718818209,-0.999921070982,0.0,0.470110632702,0.0095164628194,0.304621215416,1.0,-0.43998,-0.578259428571,1.616
0.136835194336,-0.225973302248,-0.137341331965,-2.38088924264,-0.0246756204309,2.14899549096,-0.157660982229,-1.18991167735,-1.31721166854,-0.041587348902,-1.37364152916,-0.225213419231,0.00339896638101,-1.04026814647,0.57378170884,0.818988294288,0.00367032988959,0.0,0.818958744926,-0.573706442286,-0.0121753476412,0.0,-0.00786592673754,0.00999203291274,-0.999919139968,0.0,0.462150803626,-0.00093005270529,0.304590246664,1.0,-0.43998,-0.578259428571,1.634
0.117361809805,-0.24727824845,-0.137994716916,-2.4021389176,-0.028350464665,2.14915714325,-0.175056632738,-1.24391583362,-1.32898586846,-0.0511998723904,-1.31491897685,-0.231505530021,0.0161339783492,-1.09773521081,0.573780968884,0.818987868708,0.00387524927603,0.0,0.818961684224,-0.573705814434,-0.0120060467922,0.0,-0.00760970014226,0.0100627155733,-0.999920413943,0.0,0.455138649808,-0.0101827109074,0.30467060643,1.0,-0.43998,-0.578259428571,1.65
0.0959496834756,-0.26928119198,-0.138714457258,-2.42375362805,-0.0321665772763,2.14886183304,-0.194234945861,-1.25974482205,-1.30046348748,-0.0393512966199,-1.23882220083,-0.231352328683,-0.00520888698827,-1.14327256151,0.573827024272,0.818954866818,0.0040273107181,0.0,0.818930813935,-0.573751515467,-0.0119275893893,0.0,-0.00745762533442,0.0101426572479,-0.999920752024,0.0,0.447699434016,-0.0200273363962,0.304708878312,1.0,-0.43998,-0.578259428571,1.667
0.0725446768031,-0.292129842236,-0.13951361729,-2.44568960945,-0.0360911771642,2.1480132765,-0.215354603863,-1.30905454644,-1.26673460203,-0.0427633551639,-1.18278024154,-0.210042790425,-0.0695485249775,-1.17508342908,0.573855564609,0.81893387509,0.00422446439587,0.0,0.818912126512,-0.57377899756,-0.0118885622639,0.0,-0.00731217819985,0.0102819806921,-0.999920403294,0.0,0.43978712649,-0.0304254291289,0.304765985489,1.0,-0.43998,-0.578259428571,1.685
0.0510049745904,-0.311913857236,-0.14022487751,-2.46420741692,-0.0396341954305,2.14703462179,-0.234852013771,-1.35994377083,-1.225192471,-0.035208191349,-1.15053239189,-0.222165279701,-0.0681189957603,-1.23922605877,0.573846398819,0.818939184742,0.00443499238498,0.0,0.818921777503,-0.573771473114,-0.0115829992831,0.0,-0.00694123351609,0.0102789721753,-0.999923078046,0.0,0.432815706013,-0.0397053201875,0.304873123431,1.0,-0.43998,-0.578259428571,1.701
0.0289265168471,-0.331047675255,-0.140960432632,-2.48182307865,-0.0429914049594,2.14561590908,-0.254956332014,-1.37900347859,-1.16790704683,-0.0358029506622,-1.09577549348,-0.216143827076,-0.0983195889759,-1.25103000878,0.573871088261,0.818920882664,0.00461615611317,0.0,0.818906150605,-0.573796134513,-0.0114655754817,0.0,-0.00674079644087,0.0103601603776,-0.999923611453,0.0,0.42584093539,-0.0489314017143,0.30494824047,1.0,-0.43998,-0.578259428571,1.717
0.00326486623023,-0.351864896543,-0.141813414938,-2.50078879633,-0.0467425780815,2.14359930336,-0.27847008775,-1.44545522796,-1.16537855442,-0.0449292308522,-1.00404336341,-0.204224659225,-0.125081445177,-1.32425651802,0.573853679796,0.818932933618,0.00464234004248,0.0,0.818918034184,-0.573777876472,-0.0115303365218,0.0,-0.00677903081934,0.0104186226147,-0.999922745538,0.0,0.417916250645,-0.0593345886921,0.304945044658,1.0,-0.43998,-0.578259428571,1.735
-0.0232452688516,-0.371848325816,-0.142715106892,-2.51875868359,-0.0504365450324,2.14132956354,-0.302889597562,-1.49025450505,-1.09083084285,-0.0515611675309,-0.980334786272,-0.22487094501,-0.131390249714,-1.38681785863,0.573845074446,0.818939164082,0.00460683922255,0.0,0.818923082878,-0.57376827695,-0.0116488452628,0.0,-0.00689657017948,0.0104574807944,-0.999921536129,0.0,0.409965859979,-0.0697634104623,0.304887867506,1.0,-0.43998,-0.578259428571,1.753
-0.0459539982625,-0.387982974247,-0.143482358471,-2.53281938281,-0.0532716008981,2.13919415785,-0.32382078911,-1.52355366751,-1.07608363493,-0.0584581765986,-0.91464191032,-0.183035296258,-0.139874680072,-1.40391894028,0.573991819748,0.818835324066,0.00478014902354,0.0,0.818820930923,-0.57391359819,-0.0116709809486,0.0,-0.00681335011931,0.010613338006,-0.999920464495,0.0,0.403362395552,-0.0784383914337,0.304924799795,1.0,-0.43998,-0.578259428571,1.768
-0.0723399135862,-0.405430261553,-0.144356412813,-2.54801496894,-0.0564962878038,2.13657059315,-0.348364028734,-1.55655595505,-1.02567313523,-0.057671828906,-0.889557272568,-0.189950515882,-0.162262115336,-1.43405323795,0.574016290875,0.818818268565,0.00476316870117,0.0,0.818802056112,-0.573935654066,-0.0119081820967,0.0,-0.00701701980159,0.0107357895415,-0.999917748745,0.0,0.395804810689,-0.0882537051943,0.304847635793,1.0,-0.43998,-0.578259428571,1.785
-0.0994245785572,-0.4220547151,-0.145202992712,-2.56181460274,-0.0595671522358,2.13397233502,-0.373755214721,-1.61913768955,-0.977305373118,-0.0611564543326,-0.812363387047,-0.161232733557,-0.162737573801,-1.50099304859,0.5739986476,0.818829176804,0.00500786069525,0.0,0.818817746142,-0.573919738029,-0.0115922303451,0.0,-0.00661807375094,0.0107546568087,-0.99992026605,0.0,0.388419488634,-0.098096469418,0.304983275706,1.0,-0.43998,-0.578259428571,1.802
-0.125523547727,-0.43668517421,-0.145977367172,-2.57419903833,-0.0623647004341,2.13121144732,-0.398323815649,-1.65425758299,-0.8922419026,-0.0503241740794,-0.755728644668,-0.181276850967,-0.173967938302,-1.53942243696,0.573961000252,0.818856130689,0.00491470491393,0.0,0.81884136732,-0.573879023178,-0.0119343547727,0.0,-0.00695220736776,0.0108744272608,-0.999916703353,0.0,0.381311536844,-0.107304521923,0.304880544453,1.0,-0.43998,-0.578259428571,1.818
-0.153867338662,-0.451454164854,-0.14677791151,-2.58599961664,-0.065198782859,2.12851480187,-0.425153170515,-1.66579064571,-0.85088109972,-0.0483986183647,-0.684907348888,-0.168005741593,-0.149887965085,-1.57629055555,0.573918619802,0.818884557327,0.00512313549451,0.0,0.818874762913,-0.573839613806,-0.0115311401245,0.0,-0.0065029396844,0.0108133505789,-0.999920388443,0.0,0.373947318675,-0.117127663629,0.305033804752,1.0,-0.439308,-0.577376228572,1.835
-0.182555078984,-0.464750707075,-0.147290801252,-2.59695784013,-0.0676860746607,2.12569660062,-0.452523319889,-1.6759605961,-0.743815034796,-0.0150939043625,-0.635057254284,-0.157721089846,-0.149458634836,-1.61442533566,0.573684312127,0.819049035035,0.00507298024876,0.0,0.819036803494,-0.57360257931,-0.0118128079818,0.0,-0.00676552468035,0.0109319906231,-0.999917356213,0.0,0.366557331822,-0.126701132421,0.304934248019,1.0,-0.422172,-0.554854628572,1.852
-0.20956094476,-0.475956372412,-0.14757833834,-2.60582383825,-0.0696577225585,2.12324172504,-0.47801016375,-1.66344551932,-0.675636048985,0.00189938593581,-0.521045641901,-0.123048156719,-0.144208893401,-1.58400937668,0.573776696164,0.818983615389,0.00518532205585,0.0,0.818972908759,-0.573694670833,-0.0117705683281,0.0,-0.00666523930103,0.0110005278884,-0.999917278064,0.0,0.35989471743,-0.135518006036,0.30497240075,1.0,-0.406044,-0.533657828572,1.868
-0.237804457771,-0.486495619077,-0.147689232244,-2.61410325987,-0.0713677688854,2.1208312135,-0.504715250699,-1.64543039443,-0.579734417708,0.0119146908343,-0.46044415679,-0.0955060038375,-0.154906220553,-1.55356385558,0.573953308215,0.818858753395,0.00535620004767,0.0,0.818849831122,-0.573869937781,-0.0117896345701,0.0,-0.00658040997221,0.0111528379953,-0.999916152689,0.0,0.352659788422,-0.145031335647,0.304995044304,1.0,-0.3879,-0.509811428572,1.886
-0.265511585651,-0.495587508948,-0.147574055109,-2.62126420218,-0.0726656547288,2.11856555653,-0.530908201068,-1.60965285205,-0.503553643305,0.0183153478573,-0.389000008258,-0.0724781131405,-0.129114175084,-1.52728260586,0.574067972007,0.818777217489,0.00552978648462,0.0,0.818769304217,-0.573981817592,-0.0119350930431,0.0,-0.00659831241295,0.01137939318,-0.999913482099,0.0,0.346481409455,-0.15309597595,0.304970448746,1.0,-0.371772,-0.488614628572,1.902
-0.292306738586,-0.503345182879,-0.147320709452,-2.6272760593,-0.0738077523511,2.11666297452,-0.556432322001,-1.56455547686,-0.42620811231,0.0197855932924,-0.329901907631,-0.0632155538489,-0.119072040771,-1.48424512027,0.574074229742,0.818772023085,0.00564799622565,0.0,0.818765661149,-0.573987650701,-0.0119044473625,0.0,-0.00650527361263,0.0114586424284,-0.999913186696,0.0,0.340257417213,-0.161280051299,0.304980471494,1.0,-0.354636,-0.466093028572,1.919
-0.316840972269,-0.509504759878,-0.146971928748,-2.63191972098,-0.0746127563379,2.11516066552,-0.579781577215,-1.52310609374,-0.365110115443,0.035108675793,-0.273732712998,-0.0503036407417,-0.0944001357008,-1.43001157969,0.574147772394,0.818719098689,0.0058412154159,0.0,0.81871629897,-0.574062374408,-0.0116943999412,0.0,-0.0062213263683,0.0114968332922,-0.999914555311,0.0,0.334369258734,-0.169132887448,0.305048415307,1.0,-0.3375,-0.443571428572,1.936
-0.342048614321,-0.514952190466,-0.146440606597,-2.63616791431,-0.0751930982241,2.11361864395,-0.603850097387,-1.46304200565,-0.290880721734,0.0541799342052,-0.230627463097,-0.0372112322544,-0.0870102496111,-1.39505313292,0.574213235927,0.818672531562,0.00593233961398,0.0,0.818669632458,-0.574125118483,-0.0118797356901,0.0,-0.00631982978422,0.0116783526084,-0.999911834029,0.0,0.328999992583,-0.176119863471,0.305005748536,1.0,-0.321372,-0.422374628572,1.952
-0.367609877077,-0.519586437947,-0.14568031102,-2.63986166651,-0.0756459940137,2.11231236226,-0.628290168758,-1.39547240563,-0.232771402219,0.0652705826683,-0.190286111342,-0.0292806442347,-0.0682451269732,-1.33289066305,0.574171753108,0.818701410415,0.00596199793389,0.0,0.818697892825,-0.574081675742,-0.01203065927,0.0,-0.006426967687,0.0117889668438,-0.99990985311,0.0,0.32329756997,-0.183537750472,0.304942953265,1.0,-0.303228,-0.398528228572,1.97
-0.391934355668,-0.523196290455,-0.144822636686,-2.64263296841,-0.0759166074264,2.11126901851,-0.651622540362,-1.32805418019,-0.185237374251,0.0659141688283,-0.145653495209,-0.0198956852733,-0.056755503877,-1.26926122288,0.574090441131,0.818758257093,0.00598571175176,0.0,0.818755037942,-0.574000262642,-0.0120263557734,0.0,-0.00641100140622,0.0118052748317,-0.999909763202,0.0,0.317976213968,-0.190540398512,0.30494289117,1.0,-0.285084,-0.374681828572,1.988
-0.411328971359,-0.525481026169,-0.144112632445,-2.6444084767,-0.0759733009786,2.11058114772,-0.670220163704,-1.28591081719,-0.134799483435,0.0393587645863,-0.105070245371,-0.00915964848384,-0.0439778099046,-1.23144193433,0.574107704132,0.818745643076,0.00605498979077,0.0,0.818743116458,-0.574016842401,-0.0120466091934,0.0,-0.00638756565093,0.0118737609647,-0.999909102272,0.0,0.313772359349,-0.196088940756,0.304933389327,1.0,-0.269964,-0.354809828572,2.003
-0.430987167906,-0.527319008153,-0.143179431085,-2.64588358866,-0.0759679566722,2.11002404327,-0.689124632812,-1.20467216224,-0.102238451792,0.0578697021833,-0.0849919081041,-0.00199595728909,-0.0344487890446,-1.15381155501,0.573977902626,0.818836910383,0.00601900265295,0.0,0.818833846511,-0.573887094175,-0.0120615856684,0.0,-0.00642236725114,0.0118518749241,-0.999909139002,0.0,0.309555857447,-0.201636041636,0.304912895511,1.0,-0.253836,-0.333613028572,2.019
-0.450753363148,-0.52869100247,-0.142266408419,-2.64702368594,-0.0759113399543,2.10953285075,-0.708060467652,-1.13039822812,-0.0715252254969,0.0587291434187,-0.0621966772139,0.0103224519564,-0.0223047222764,-1.09463517424,0.573968528962,0.818843768689,0.00597972754784,0.0,0.818839682289,-0.573876955877,-0.0121474739706,0.0,-0.00651538096531,0.0118689344847,-0.999908334901,0.0,0.305309971255,-0.207199536145,0.304878623677,1.0,-0.2367,-0.311091428572,2.036
-0.470445087771,-0.529633146022,-0.141235745706,-2.64782174414,-0.0758288818377,2.10914948666,-0.726845177963,-1.05782005355,-0.0408458774949,0.0656773384262,-0.0367355956406,0.0174757450984,-0.0200796487664,-1.02585673059,0.57397142589,0.818842623275,0.00585725794393,0.0,0.818836676612,-0.573879918614,-0.0122099528563,0.0,-0.0066367948936,0.0118045289536,-0.99990829882,0.0,0.301102366985,-0.21270174869,0.304854768851,1.0,-0.218556,-0.287245028572,2.054
-0.486781927608,-0.530081689722,-0.140306920954,-2.64819239965,-0.0755523663869,2.10894183894,-0.742425253321,-1.00920780183,-0.01802211595,0.0444790759299,-0.0132363326013,0.0105300596264,-0.0120720840081,-0.957143231363,0.574055132643,0.818783853889,0.00586959943224,0.0,0.818778096167,-0.57396360321,-0.0122048485755,0.0,-0.00662432405203,0.0118123828413,-0.999908288766,0.0,0.297441362544,-0.217508793955,0.304855900069,1.0,-0.20142,-0.264723428572,2.071
-0.503684539608,-0.530281585039,-0.139094620661,-2.64833850454,-0.0750843393879,2.10880895933,-0.758715840532,-0.905389530408,-0.00809100417403,0.0680055691784,-0.0064443541172,0.0359791215707,-0.0074381635891,-0.872521092512,0.573868497879,0.818914674442,0.00586941445866,0.0,0.818909382621,-0.57377784481,-0.0121307362304,0.0,-0.00656642435651,0.0117681925236,-0.999909191735,0.0,0.294141205698,-0.221842225026,0.304885001145,1.0,-0.184284,-0.242201828572,2.088
-0.518530846986,-0.53024064923,-0.138033598546,-2.64832599028,-0.0746149822147,2.10878032028,-0.772761322345,-0.840500291686,0.00670856208915,0.0682879763991,0.00190411108591,0.0237359398489,-0.00121269470339,-0.798141140957,0.573976794418,0.818838549598,0.0059005137467,0.0,0.818834093021,-0.573886761962,-0.0120606571976,0.0,-0.00648962926434,0.0117543054858,-0.999909856444,0.0,0.291047881401,-0.22587765157,0.304901676502,1.0,-0.167148,-0.219680228572,2.105
-0.53032843739,-0.530023347857,-0.136942287882,-2.64822441182,-0.0741003520472,2.10878049459,-0.784089394221,-0.766816979936,0.0120874447863,0.0681503246243,0.00824345592234,0.0320216243688,-0.000820106884265,-0.734176106324,0.573817164204,0.818950395984,0.00590405654137,0.0,0.818945931205,-0.57372705113,-0.0120656315719,0.0,-0.00649396183332,0.0117587959683,-0.999909775518,0.0,0.28863127643,-0.229000582362,0.304897569847,1.0,-0.152028,-0.199808228572,2.12
-0.542732407405,-0.52966549645,-0.135854543112,-2.64800671335,-0.0735328697191,2.10879857301,-0.795767869252,-0.712277746773,0.0255507897838,0.0631608894825,0.0164189757685,0.0327230356075,-0.000164797112275,-0.654901366649,0.573898705534,0.818892964009,0.00594442464658,0.0,0.81888891151,-0.573808199032,-0.0120767640702,0.0,-0.00647874226019,0.0117988898605,-0.999909401944,0.0,0.286072766787,-0.232293513586,0.304896182014,1.0,-0.134892,-0.177286628572,2.137
-0.553627020346,-0.529139841021,-0.134607666843,-2.64771277375,-0.0728826250553,2.10889573743,-0.806146511579,-0.616984010996,0.0353517915616,0.0713582790859,0.0183793200816,0.035680369474,0.00253931794019,-0.589027958649,0.573736100985,0.819006890606,0.00594528956194,0.0,0.819002657506,-0.57364527535,-0.0121033866463,0.0,-0.00650239498642,0.0118135852621,-0.999909074898,0.0,0.283898185907,-0.235108998168,0.30487879983,1.0,-0.117756,-0.154765028572,2.154
-0.563464392456,-0.52859852779,-0.133523779085,-2.6474015977,-0.0722641892646,2.10898474627,-0.81524644978,-0.554519295415,0.0312669161684,0.0632620418302,0.0170086207825,0.0433790461986,0.00431269189331,-0.514974737365,0.573849342303,0.818927290208,0.00598101943301,0.0,0.818923217995,-0.573757783586,-0.0121456043334,0.0,-0.00651483582197,0.0118679712348,-0.999908349887,0.0,0.282023232745,-0.237510078185,0.304858906304,1.0,-0.101628,-0.133568228572,2.17
-0.572002355163,-0.528049776661,-0.132432781107,-2.64702233354,-0.0716746318706,2.10910065134,-0.823035957025,-0.45633755495,0.0318774581891,0.0650738322673,0.0198811792457,0.0371730398913,0.016355747496,-0.439460958342,0.573972548206,0.818840959562,0.00597860782771,0.0,0.818837040725,-0.573881311335,-0.012119741651,0.0,-0.00649325459826,0.0118521327306,-0.999908678127,0.0,0.280241425149,-0.239831658264,0.304868074259,1.0,-0.0834840000001,-0.109721828572,2.188
-0.579054266314,-0.527499548925,-0.131266620367,-2.64670619534,-0.0709910306486,2.10920209475,-0.829524303241,-0.399375799974,0.0287504276425,0.067828854577,0.0146195857182,0.038872050353,0.0061072306034,-0.363900794063,0.573920228332,0.818877444487,0.006004108941,0.0,0.818873482358,-0.573828204596,-0.012172033619,0.0,-0.00652220230291,0.011902611073,-0.999907890121,0.0,0.278915323365,-0.241542659615,0.304849014975,1.0,-0.0663480000001,-0.0872002285716,2.205
-0.584402095876,-0.527119959269,-0.130277080708,-2.64645180334,-0.0704423848947,2.10925279017,-0.834204917873,-0.330916274836,0.025974728374,0.0691159666736,0.0189370700067,0.0395761884201,0.00497532878735,-0.28700089303,0.574015851028,0.818810479789,0.0059956533195,0.0,0.818806343967,-0.573923729272,-0.012184865985,0.0,-0.00653617409238,0.0119038143776,-0.999907784564,0.0,0.277926648168,-0.242808737256,0.304855130767,1.0,-0.0512280000001,-0.0673282285716,2.22
-0.589580233195,-0.526658950682,-0.128972644046,-2.64614100317,-0.0696366599672,2.10940060723,-0.838631154607,-0.239283096289,0.0252018234293,0.0703020665362,0.0125087251726,0.0462274045747,0.00591019110546,-0.198954169549,0.574070708794,0.818771742367,0.00603341581948,0.0,0.818768523958,-0.573979187596,-0.0121137642104,0.0,-0.00645547700658,0.0118943571746,-0.999908421349,0.0,0.277087095261,-0.243949759377,0.304873040004,1.0,-0.0320760000001,-0.0421570285716,2.239
-0.59268266588,-0.526366485151,-0.127873149589,-2.64599233459,-0.0689975391583,2.10943712435,-0.841146777139,-0.170827545901,0.011207100894,0.0648834645639,0.00889251356357,0.0356565923684,0.000347897027145,-0.140176195638,0.574043019729,0.818791158531,0.00603300191942,0.0,0.818787458433,-0.573950631183,-0.0121867870618,0.0,-0.00651591368908,0.0119357161536,-0.9999075365,0.0,0.276621404619,-0.244548452698,0.304858590606,1.0,-0.01988,-0.026128,2.256
-0.59494821585,-0.526206452247,-0.127062863306,-2.64589872173,-0.0685210657107,2.10943076046,-0.842955371962,-0.125579262359,0.00157733524269,0.0518811021142,0.00822309234128,0.0304618362394,-0.000513055909778,-0.109874561623,0.574065211045,0.81877552445,0.00604325492142,0.0,0.818771855046,-0.573972582809,-0.0122012486548,0.0,-0.00652154669041,0.0119525895509,-0.999907298219,0.0,0.276310139596,-0.244937745918,0.304867307478,1.0,-0.01958,-0.0257337142857,2.271
-0.596828820545,-0.526036369829,-0.126385556615,-2.64573386267,-0.0682678255225,2.10947156191,-0.844663904335,-0.104553868482,0.0111230267579,0.033078265926,0.0158570959622,0.00960526783149,0.00226335798517,-0.0920077251176,0.573844090338,0.818931421913,0.00591887563164,0.0,0.818926653624,-0.573753010674,-0.0121394245304,0.0,-0.00654550949976,0.0118134894874,-0.999908794727,0.0,0.276051348697,-0.245319333366,0.304899911094,1.0,-0.01924,-0.0252868571429,2.288
-0.598459734277,-0.525819805619,-0.12601143734,-2.64553347555,-0.0680838949705,2.10959655131,-0.846194344602,-0.0971867663001,0.0121700285148,0.0143929173635,0.0119082805474,0.00649627213972,0.00772132856951,-0.094236125702,0.573750807568,0.818997084851,0.00587645486846,0.0,0.81899263861,-0.573661506703,-0.012011683129,0.0,-0.00646656201423,0.0117047115259,-0.999910587655,0.0,0.275806975385,-0.245726952029,0.304931440438,1.0,-0.0189,-0.02484,2.305
-0.599932620549,-0.525629470926,-0.125868454447,-2.6453964837,-0.0679672731955,2.10963553084,-0.847643956764,-0.092494286999,0.00617218145556,0.00599668404577,0.00870066731822,0.00313880247028,-0.000564719615523,-0.0957473748562,0.57372585007,0.81901437474,0.00590337462733,0.0,0.819010240167,-0.57363637363,-0.0120118379729,0.0,-0.0064516017668,0.0117266519976,-0.999910427222,0.0,0.275518983234,-0.246123840405,0.30493081323,1.0,-0.01858,-0.0244194285714,2.321
-0.601585590149,-0.525460290572,-0.125777432437,-2.64528894682,-0.0679235250231,2.10963704393,-0.849131803213,-0.0897674255156,0.0123176075385,0.00611073291315,0.00675214847064,-7.68291540679e-05,-0.000862796338608,-0.0861331395222,0.573821271032,0.81894754472,0.005900407481,0.0,0.8189430662,-0.573731233606,-0.0120612109499,0.0,-0.00649237602927,0.0117533034793,-0.999909850392,0.0,0.275156411164,-0.246577576147,0.304920042981,1.0,-0.01822,-0.0239462857143,2.339
-0.603027737869,-0.525297857343,-0.125721102926,-2.64514750925,-0.0678787459134,2.10963981417,-0.850583029916,-0.0808292328272,0.0127545602173,0.00257439945235,0.00989323998087,0.00562856224085,-0.000373657670521,-0.0928086398994,0.573800537716,0.818961988026,0.00591202050285,0.0,0.818957591523,-0.573710330305,-0.0120692621962,0.0,-0.00649260472949,0.0117672697665,-0.999909684645,0.0,0.274846645256,-0.246989174287,0.304926425486,1.0,-0.01788,-0.0234994285714,2.356
-0.604316127142,-0.52514675026,-0.125710998026,-2.64501256165,-0.0678453467552,2.10967778435,-0.851834730901,-0.0792124882663,0.00999643051008,0.000699828470992,0.0092722468908,0.00687000527914,0.0012873858325,-0.0714268259713,0.573844074406,0.818931319404,0.00593458241382,0.0,0.818927417189,-0.573754128045,-0.0120346511812,0.0,-0.00645068580797,0.0117662320526,-0.999909968165,0.0,0.274554844835,-0.247395318613,0.304938135267,1.0,-0.01754,-0.0230525714286,2.373
-0.60567566932,-0.525014355984,-0.125721966518,-2.6448845937,-0.0678266440718,2.10969268123,-0.853211301609,-0.0781671678229,0.0127696098706,0.000897366235339,0.00540232915672,0.00144588850936,0.000710750755661,-0.0814296851733,0.573853162653,0.818924793947,0.0059562130451,0.0,0.818921237983,-0.573763242654,-0.0120205765817,0.0,-0.00642661582185,0.0117759419723,-0.999910008851,0.0,0.274261178845,-0.247778012934,0.304946562553,1.0,-0.01722,-0.022632,2.389
-0.607106269079,-0.524938161226,-0.125719117927,-2.64478860072,-0.0678061440901,2.10969958493,-0.854574465269,-0.0763311659677,0.0042070872526,0.000489612137348,0.00612423754129,8.12294939176e-05,-0.000460983885195,-0.0674134675033,0.573919983694,0.818877808584,0.00597777780339,0.0,0.818874739741,-0.573830340475,-0.0119853187822,0.0,-0.0063844042269,0.0117738918869,-0.999910303404,0.0,0.273931148408,-0.248190679882,0.304962939126,1.0,-0.01686,-0.0221588571429,2.407
-0.608333708838,-0.524846783196,-0.125721349028,-2.6447113326,-0.0677849361094,2.10971592175,-0.855775113779,-0.0754443053945,0.00736167934857,0.000731251959968,0.00754000407721,0.00224517925411,-0.000323494662758,-0.086588982573,0.573956600485,0.818851968858,0.00600172962448,0.0,0.818849249933,-0.573866922271,-0.0119753207838,0.0,-0.00636194338077,0.0117880531647,-0.999910279715,0.0,0.273646723051,-0.248544785818,0.304965921155,1.0,-0.01654,-0.0217382857143,2.423
-0.609577068979,-0.524695557663,-0.125710239057,-2.64460760551,-0.0677595291183,2.10974134381,-0.857036301483,-0.0695568853157,0.00610636311639,-0.000471669865988,0.00450596767683,0.000502919037868,0.00120651803732,-0.065111695951,0.5739505684,0.818856065023,0.00601969347093,0.0,0.818853469154,-0.573860612236,-0.0119891901109,0.0,-0.00636307856527,0.0118106767528,-0.999910005523,0.0,0.273367442615,-0.248906268709,0.304960082493,1.0,-0.0162,-0.0212914285714,2.44
-0.610746215065,-0.524516044624,-0.125644174454,-2.64449871623,-0.0677342396495,2.10977807978,-0.858233148516,-0.0733271454951,0.0133064444854,0.00755286026211,0.00858774842647,0.00372430231223,0.0034317206212,-0.0626519112623,0.573897919621,0.818893051465,0.00600791304255,0.0,0.818890144129,-0.573807730349,-0.0120152961363,0.0,-0.00639197863564,0.0118156017205,-0.999909763011,0.0,0.273120023394,-0.249237164863,0.304948485964,1.0,-0.01586,-0.0208445714286,2.457
-0.611754746666,-0.52435954144,-0.125552240534,-2.64441558722,-0.067712640061,2.10981043968,-0.859293317084,-0.0682561985235,0.00674570509773,0.00895503866582,0.0112354149378,0.00139721247963,0.00179087865072,-0.0659200193358,0.573792190315,0.818967345678,0.00597962774757,0.0,0.818963823694,-0.573701688207,-0.0120571692627,0.0,-0.00644402944141,0.0118156358523,-0.999909428515,0.0,0.272898692165,-0.249528374008,0.304932584715,1.0,-0.01554,-0.020424,2.473
-0.612965595553,-0.52415261738,-0.125445391676,-2.64430728932,-0.0676815969745,2.10983847614,-0.860611043827,-0.0669324011499,0.0110019205651,0.0112274400308,0.00132654192605,0.00507296844316,0.000664985532824,-0.0713940609226,0.573660662222,0.819059649251,0.00595671804393,0.0,0.819055491697,-0.573569669635,-0.0121112549775,0.0,-0.00650337266333,0.0118268608808,-0.999908911604,0.0,0.272659252305,-0.249842259386,0.30491214053,1.0,-0.0152,-0.0199771428571,2.49
-0.61407057668,-0.523976486266,-0.125395740196,-2.64421844233,-0.0676643580143,2.10985648332,-0.861729112304,-0.0700031930178,0.0128476131967,0.00285554038066,0.00501511190161,0.000321139626087,0.000321648534332,-0.0671123688155,0.573631633408,0.819079991476,0.00595513378475,0.0,0.819075362441,-0.573539836228,-0.0121800575634,0.0,-0.00656106131036,0.0118647981124,-0.999908085296,0.0,0.27239801462,-0.250171658071,0.304889523484,1.0,-0.01484,-0.019504,2.508
-0.615130829885,-0.523831485052,-0.125394549569,-2.64412570872,-0.0676373890447,2.10987427107,-0.862802346775,-0.0709426602274,0.00863182615618,-0.000396382901933,0.0063549638476,0.000435160122973,-0.00106221734123,-0.0653525069635,0.573624256139,0.819085008331,0.00597568378004,0.0,0.819080474241,-0.573532055601,-0.0122026561157,0.0,-0.00656789293647,0.0118945344484,-0.999907687155,0.0,0.272158198735,-0.25048110319,0.304881630041,1.0,-0.01452,-0.0190834285714,2.524
-0.616256071024,-0.523706057622,-0.125399239047,-2.64403246468,-0.0676208561393,2.10988714865,-0.863904871942,-0.0639481570195,0.00418878017565,0.000233993072945,0.0032815612544,0.00340527483341,0.000900544328048,-0.0593525852931,0.573671316802,0.81905189913,0.00599614129827,0.0,0.819047516876,-0.573578805645,-0.012217434866,0.0,-0.00656758011145,0.0119201460885,-0.999907384216,0.0,0.271898599967,-0.250807298389,0.304875943545,1.0,-0.01418,-0.0186365714286,2.541
-0.61738978041,-0.523622910044,-0.125411519535,-2.64396369609,-0.0675928107571,2.10990449335,-0.864934064817,-0.0629224925603,0.00536188147408,-0.00103117775718,0.000120111844212,0.00327295156633,-0.000798963901547,-0.0600256710365,0.57377602658,0.818978328908,0.00602619298345,0.0,0.818974411903,-0.573683490794,-0.0122029479929,0.0,-0.00653694838455,0.0119372866963,-0.999907380457,0.0,0.271646153033,-0.251115081133,0.304880492414,1.0,-0.01386,-0.018216,2.557
-0.618406726695,-0.523558593887,-0.125406019816,-2.64386637645,-0.067572076158,2.10991738632,-0.865957944913,-0.0643180396788,0.012370268094,-0.000188369150579,0.00555776658481,-0.000302447921007,0.000987650901001,-0.0603079265918,0.57377877069,0.818976298176,0.00604088012351,0.0,0.818972930192,-0.573686823711,-0.0121455676443,0.0,-0.00648148348671,0.0119164155959,-0.999907990473,0.0,0.271404527723,-0.251432810918,0.304904277165,1.0,-0.01352,-0.0177691428571,2.574
-0.619494613871,-0.523434319601,-0.125383395055,-2.64371006919,-0.0675456913824,2.10996138455,-0.867067099502,-0.0527580775824,0.00560438567998,0.000123895851234,0.00774680246262,0.000702297440424,-0.000300337152206,-0.0565697204691,0.573765855377,0.818985312374,0.00604551246883,0.0,0.818982501296,-0.573674806959,-0.0120675321806,0.0,-0.00641509692449,0.0118753354842,-0.99990890732,0.0,0.271191982707,-0.251742983516,0.304932116994,1.0,-0.01318,-0.0173222857143,2.591
-0.620476669882,-0.523288823135,-0.125328410326,-2.64355567536,-0.0675216268658,2.11001866307,-0.868057143073,-0.0593133032574,0.0115245020167,0.00367180979592,0.00895159846159,-0.000415919342633,0.00506423614597,-0.0626309732093,0.573738551431,0.819004562879,0.00602888766201,0.0,0.819002011753,-0.573648462065,-0.0119955664972,0.0,-0.00636608412707,0.0118202176453,-0.999909873652,0.0,0.271000776481,-0.252038332609,0.304955103405,1.0,-0.01284,-0.0168754285714,2.608
-0.621390428493,-0.523131240936,-0.125279740375,-2.64341801031,-0.0674978737407,2.11003862906,-0.868978235994,-0.0590496216692,0.0105425591633,0.00211654795072,0.00779635794119,0.000363315275702,0.00370673857566,-0.055380329478,0.57371540736,0.819020845116,0.00601942887337,0.0,0.819018215851,-0.573625445395,-0.0119898874688,0.0,-0.00636719278722,0.0118090324301,-0.999909998754,0.0,0.270814853603,-0.252307048521,0.304962707865,1.0,-0.01252,-0.0164548571429,2.624
-0.622324831164,-0.522978978135,-0.125239510674,-2.64332261051,-0.0674749470485,2.11004770452,-0.869958640475,-0.0547264797311,0.00802218483971,0.00627628110202,0.00860124828196,0.00070311545766,-0.00137075909366,-0.0580900677206,0.573664215904,0.819056696808,0.00602010846495,0.0,0.819053805547,-0.573573760235,-0.0120312962583,0.0,-0.00640146077032,0.0118329447032,-0.999909497264,0.0,0.270609979499,-0.252571227166,0.304951916959,1.0,-0.01218,-0.016008,2.641
-0.623226320434,-0.522845585941,-0.125216800016,-2.64328506362,-0.0674554463626,2.11006475841,-0.870846526565,-0.0548828251168,0.0186097869655,-0.00121527114865,0.00125889919849,0.000233406951654,0.00101892029064,-0.0527977733087,0.573665570978,0.819055639608,0.0060347993095,0.0,0.819052401773,-0.573574059746,-0.0121123093139,0.0,-0.0064593752755,0.0118914606545,-0.999908430625,0.0,0.270385360426,-0.252832527979,0.304919181711,1.0,-0.01182,-0.0155348571429,2.659
-0.62407504766,-0.522738413085,-0.125202207069,-2.64324532461,-0.0674372297321,2.11007166625,-0.871660378906,-0.0581465907229,0.00992349155062,-3.4120035837e-05,0.00297558827369,2.15552380378e-05,0.000488578393832,-0.0472921587423,0.573698359315,0.819032593582,0.00604566548521,0.0,0.819029188406,-0.573606225011,-0.0121587033896,0.0,-0.00649066798061,0.011927234318,-0.999907801905,0.0,0.270195287682,-0.253050914606,0.304901679174,1.0,-0.01152,-0.0151405714286,2.674
-0.625003535413,-0.522634208615,-0.125175654122,-2.64319392264,-0.0674210322112,2.11008247779,-0.872612944648,-0.050914113048,0.00614969355799,0.00139340371443,0.00254595560597,0.00149608808163,-7.25049629193e-05,-0.0506691405377,0.573669645863,0.819052658804,0.00605197677152,0.0,0.819049093116,-0.573577043548,-0.0121944693018,0.0,-0.00651676302801,0.0119526930985,-0.99990732817,0.0,0.269978723232,-0.253306734066,0.304888342667,1.0,-0.01116,-0.0146674285714,2.692
-0.625878858978,-0.522523836166,-0.125158569223,-2.6431070624,-0.0674099959515,2.11009054413,-0.873480316578,-0.0496917657385,0.00497762977009,0.000424039965788,0.00757587010827,3.24469622936e-05,-0.000338344145818,-0.0455951589763,0.573673349934,0.819050052117,0.00605364374819,0.0,0.819046439169,-0.573580612757,-0.0122048374109,0.0,-0.0065242456389,0.0119600355866,-0.999907191577,0.0,0.269780711157,-0.253559085564,0.304888389471,1.0,-0.01082,-0.0142205714286,2.709
-0.62669613382,-0.522397182931,-0.125150702903,-2.64299838715,-0.0674037639849,2.11011366713,-0.874274917684,-0.0441435225406,0.0065719335529,0.000567198864591,0.00746699272012,0.00334435838828,0.000559893864616,-0.0485309385386,0.573694675305,0.819035133266,0.00605119034379,0.0,0.819031553575,-0.573602064375,-0.0121956096593,0.0,-0.00651778299695,0.0119529022823,-0.999907319021,0.0,0.2696020222,-0.25380544513,0.304893430293,1.0,-0.01048,-0.0137737142857,2.726
-0.627457670161,-0.522287144518,-0.12514959271,-2.6428869473,-0.0673941750982,2.11014900392,-0.875021894251,-0.048754960593,0.00560271990754,-0.000507949782925,0.0115771590161,-0.000170136470634,0.00578492482751,-0.0480588579997,0.573715607057,0.819020460367,0.00605265401303,0.0,0.819017165394,-0.573623473122,-0.0121548663321,0.0,-0.00648326462536,0.0119308937559,-0.999907806277,0.0,0.269439132793,-0.254040455886,0.304906708882,1.0,-0.01016,-0.0133531428571,2.742
-0.628254662751,-0.522169532458,-0.125141070547,-2.64277927414,-0.0673852968069,2.11020089651,-0.875824891818,-0.0460383604381,0.00907402507347,-0.000134852309205,0.00415566492786,0.00528735617515,0.00587062388273,-0.0424803518894,0.573713995366,0.819021612297,0.00604954641815,0.0,0.819018578489,-0.573622431482,-0.0121087196987,0.0,-0.0064472717347,0.0119018620127,-0.999908384987,0.0,0.269270150828,-0.254284533969,0.30491707835,1.0,-0.00982,-0.0129062857143,2.759
-0.628989001418,-0.522048067568,-0.125130542372,-2.64268091343,-0.067382790961,2.11022760343,-0.876546688032,-0.045482052336,0.00722827788264,0.00100633435898,0.00358934024686,0.000452967134859,0.00284581213129,-0.0451840994109,0.573723036004,0.819015331249,0.00604251912208,0.0,0.819012259957,-0.573631600648,-0.0121017221637,0.0,-0.00644544016535,0.0118921629836,-0.999908512195,0.0,0.269110435518,-0.254506001086,0.304919690401,1.0,-0.0095,-0.0124857142857,2.775
-0.629779562125,-0.521926195881,-0.125122757307,-2.64258275243,-0.0673678581808,2.1102504344,-0.877261771086,-0.0408961062142,0.00290959592017,-0.000438981740972,0.00762529899093,-0.000282435003117,0.006473407587,-0.0342364049733,0.573790851328,0.818967783959,0.00604769956439,0.0,0.81896480403,-0.573699423288,-0.0120982800296,0.0,-0.00643866379746,0.0118949645013,-0.99990852253,0.0,0.26893604388,-0.254741228238,0.304921670282,1.0,-0.00914,-0.0120125714286,2.793
-0.630508479651,-0.521842047146,-0.125096439508,-2.64253804808,-0.0673592369216,2.11027988491,-0.877943583495,-0.04369828879,0.00376590231689,0.00112677270261,-0.000533781066303,0.00175348628285,0.00580182917914,-0.0315890063264,0.573816939029,0.818949537677,0.00604335358823,0.0,0.818946470135,-0.573725467198,-0.0121043068256,0.0,-0.00644571471789,0.0118950683975,-0.999908475866,0.0,0.268769950318,-0.254944378303,0.304914212103,1.0,-0.0088,-0.0115657142857,2.81
-0.631106664163,-0.52179289366,-0.125095985407,-2.64250613893,-0.0673569537684,2.11028059563,-0.878534053344,-0.03704188701,0.00189259008479,-0.000673766780476,0.00130123675649,-0.000465605588579,-0.000385275891864,-0.0409819060729,0.573825632731,0.818943404164,0.00604904111874,0.0,0.818940320731,-0.573733968154,-0.0121174159175,0.0,-0.00645306171796,0.0119073167825,-0.999908282695,0.0,0.268624168866,-0.255112097079,0.3049107263,1.0,-0.0085,-0.0111714285714,2.825
-0.631791032118,-0.52172581824,-0.125077941166,-2.64246954538,-0.0673427124088,2.11029017323,-0.87927277366,-0.0374985332767,0.00242596612437,0.00208752890964,-0.000832323340517,0.000309155942107,0.000337189696247,-0.0401388889366,0.573776435472,0.818977816244,0.00605685547163,0.0,0.818974717592,-0.573684530913,-0.012133335772,0.0,-0.00646233296422,0.0119224631934,-0.999908042334,0.0,0.268463193578,-0.255299844861,0.304903964378,1.0,-0.00814,-0.0106982857143,2.843
-0.632346700124,-0.521672073871,-0.125056641457,-2.64242552157,-0.0673363076293,2.11029756054,-0.879804096898,-0.0330323401999,0.00570604378678,0.00262441057768,0.00189276080635,-0.000458400200457,-0.000254533228618,-0.0253486179836,0.57378632238,0.818970918798,0.00605287655306,0.0,0.818967778238,-0.573694451647,-0.0121326525738,0.0,-0.00646391238116,0.0119188904392,-0.999908074719,0.0,0.26833666149,-0.255454840639,0.304905360744,1.0,-0.00784,-0.010304,2.858
-0.632970283034,-0.521612936644,-0.125042002608,-2.64236562915,-0.0673235205301,2.11031825702,-0.880401676628,-0.041456832305,0.00126969363699,0.000466101578941,0.00933805180982,-5.40216498194e-05,0.000984445057738,-0.0391439270808,0.573805759566,0.818957283004,0.0060552295234,0.0,0.818954335325,-0.573714173891,-0.0121074452773,0.0,-0.00644163350608,0.0119065075405,-0.99990836602,0.0,0.268197545785,-0.255634553338,0.30491296785,1.0,-0.0075,-0.00985714285715,2.875
-0.633629660307,-0.521504913034,-0.125031728446,-2.64227922848,-0.0673156910113,2.11033232926,-0.88102302063,-0.0366992345963,-0.0002224922085,1.22153117705e-05,0.00535313042564,-9.88578347638e-05,0.00153480818697,-0.0323983145783,0.573837498963,0.818935052191,0.00605408764929,0.0,0.818932067225,-0.573745870193,-0.0121116723938,0.0,-0.00644528936913,0.0119082475792,-0.99990832174,0.0,0.268051810025,-0.25583023376,0.304913983003,1.0,-0.00712,-0.00935771428572,2.894
-0.634154393203,-0.521409939032,-0.125021813997,-2.64221146376,-0.0673058854226,2.11035291683,-0.881542763828,-0.0365772716812,0.00908751065586,0.000680893158068,-0.00016892303958,-0.000496266796319,0.000142970174988,-0.0311078129555,0.573842339883,0.818931652659,0.00605509145277,0.0,0.818928657011,-0.573750661801,-0.0121152676718,0.0,-0.00644758758463,0.0119111707875,-0.999908272105,0.0,0.267937490161,-0.255986038703,0.304911870864,1.0,-0.0068,-0.00893714285715,2.91
-0.634692114926,-0.521314379787,-0.12500120837,-2.64213263711,-0.0672925712495,2.11037370919,-0.882068982215,-0.0292376788163,0.00427181428082,0.00143095233442,0.000261510725447,0.00049798172181,0.00131920164553,-0.0295401561504,0.573846952227,0.818928440779,0.00605237175022,0.0,0.818925459403,-0.573755376909,-0.0121081092994,0.0,-0.00644321828654,0.0119048721404,-0.999908375281,0.0,0.267824950708,-0.256145365276,0.304914840025,1.0,-0.00646,-0.00849028571429,2.927
-0.635210949866,-0.521231644015,-0.124981986002,-2.64205982869,-0.0672797900885,2.11038816166,-0.88260803045,-0.0278348881447,0.00444229204478,-0.00014175691099,0.000135224805849,0.000263562383509,-0.000990036309411,-0.0287502085644,0.573826003672,0.818943128729,0.0060511419407,0.0,0.818940180355,-0.573734528718,-0.0121003494706,0.0,-0.0064378729336,0.0118992475494,-0.999908476662,0.0,0.267714686426,-0.256297764442,0.304919210992,1.0,-0.0061,-0.00801714285715,2.945
-0.635648964895,-0.521132846305,-0.124944049632,-2.64199699164,-0.0672688327274,2.11040321613,-0.883036795412,-0.0258729934895,0.0073488124885,0.00158188314046,0.00213020559059,0.000832673502739,0.000754896707353,-0.0282311630353,0.573814761669,0.818951092696,0.00603936790415,0.0,0.818947882944,-0.57372314125,-0.0121189569484,0.0,-0.0064600322857,0.011900193068,-0.999908322492,0.0,0.267626317168,-0.256421834438,0.304913636679,1.0,-0.00578,-0.00759657142858,2.961
-0.636095758616,-0.521057910162,-0.124908885241,-2.6419422383,-0.0672519518827,2.11041335319,-0.88348341379,-0.0238985036284,0.00281072619306,0.00584860638257,0.00483236460796,0.000216281617774,-0.000777666410363,-0.0170325775014,0.573800086341,0.81896140585,0.00603519213238,0.0,0.818958099279,-0.573708409244,-0.0121259923163,0.0,-0.00646840377374,0.0119006940408,-0.999908262409,0.0,0.267533435458,-0.256545899145,0.304912676612,1.0,-0.00542,-0.00712342857143,2.979
-0.636519450293,-0.521015271078,-0.124883978769,-2.64188972634,-0.0672357398063,2.11042678093,-0.883880740046,-0.0263616321044,0.00575581621896,0.00217307555333,0.00496174235747,0.00448131478642,-0.000654878035859,-0.0262869933139,0.573813577414,0.818951961126,0.0060341233011,0.0,0.818948811777,-0.573722217338,-0.0120999141744,0.0,-0.00644746197623,0.0118849619687,-0.999908584778,0.0,0.267444904315,-0.256666510566,0.304922607702,1.0,-0.00508,-0.00667657142858,2.996
-0.6369010596,-0.52100854673,-0.124869483621,-2.64182346381,-0.0672211989412,2.1104456839,-0.884239625391,-0.0263629445972,-0.000757162476519,0.00225145438152,0.00414630708944,0.00252865644198,4.52050266715e-05,-0.0211165091722,0.57383120839,0.818939615379,0.00603303755354,0.0,0.818936973376,-0.573740813566,-0.012019125947,0.0,-0.00638166137274,0.0118378549957,-0.999909565704,0.0,0.267369635511,-0.256783149028,0.304952211552,1.0,-0.00476,-0.00625600000001,3.012
-0.637289622428,-0.521007584466,-0.124853075405,-2.64171940989,-0.06720895809,2.11046744448,-0.884601337746,-0.0220142684429,1.2153001319e-05,0.00257257455483,0.0051838211763,-0.000503521867922,0.000610186155108,-0.0218561094185,0.573851603372,0.81892539416,0.00602353778621,0.0,0.81892344386,-0.573762761998,-0.0118925583053,0.0,-0.00628315729074,0.0117576063301,-0.999911136366,0.0,0.267302120442,-0.25691150546,0.305001398399,1.0,-0.00442,-0.00580914285715,3.029
-0.637629233401,-0.521021059214,-0.124855895917,-2.64159453397,-0.0671937589689,2.11049525429,-0.884924539804,-0.0208985276291,-0.000974546950788,0.000636671618898,0.00812724222818,-8.86309530275e-05,0.000995484503678,-0.0217265982634,0.573879221412,0.818906053284,0.00602179606202,0.0,0.818905128879,-0.573792356495,-0.011724692945,0.0,-0.00614627980775,0.0116600618312,-0.999913129328,0.0,0.267249394756,-0.25703705401,0.305065427705,1.0,-0.0041,-0.00538857142858,3.045
-0.637948737233,-0.521039015204,-0.12485190896,-2.64144594685,-0.06717974147,2.11053056046,-0.885234173625,-0.0193381310397,-0.00182244765266,0.00126838068799,0.00907015452643,-0.000564144100033,-0.00011901058566,-0.0210432327669,0.573897230278,0.818893509346,0.00601135020285,0.0,0.818893697059,-0.573812783002,-0.0115217134428,0.0,-0.00598578201023,0.0115351583124,-0.999915551702,0.0,0.267209947068,-0.25716295884,0.305142692834,1.0,-0.00378,-0.00496800000001,3.061
-0.638275981052,-0.521045372868,-0.124836375623,-2.64127057553,-0.0671597286203,2.11061070751,-0.885539595589,-0.0172231406146,-0.000402706314333,0.00223214897803,0.0124689128014,-8.7135715811e-05,0.00327747521323,-0.0194932350293,0.573920670911,0.818877220842,0.00599229401682,0.0,0.818878738952,-0.573839345546,-0.0112589207942,0.0,-0.00578117099814,0.0113689084306,-0.999918659683,0.0,0.267184588176,-0.257300563555,0.305231991889,1.0,-0.00342,-0.00449485714286,3.079
-0.638553723928,-0.521057647085,-0.124804581911,-2.64108501612,-0.067140478271,2.11064575423,-0.885804914912,-0.0172198944496,0.000860171434307,0.00508432040277,0.00693337276832,0.00142880431402,0.00175419545648,-0.0168820057133,0.573925041162,0.81887434339,0.00596688919418,0.0,0.818876903747,-0.573846495843,-0.0110255439673,0.0,-0.00560456452683,0.0112141994317,-0.999921412206,0.0,0.267170617716,-0.257417869548,0.305324644668,1.0,-0.00308,-0.00404800000001,3.096
-0.638768381927,-0.521106827419,-0.124731936466,-2.64083434207,-0.0671145306179,2.11075438928,-0.886029250081,-0.0132093221825,-0.00337820545749,0.0103085846533,0.016457278491,0.000823111964929,0.0098589574074,-0.0141685945032,0.57388802719,0.818900703427,0.00590906723118,0.0,0.818904843475,-0.573814311042,-0.0106179413088,0.0,-0.00530443439138,0.0109326836546,-0.999926166976,0.0,0.267209904444,-0.257535906545,0.305467785219,1.0,-0.00276,-0.00362742857143,3.112
-0.638972032933,-0.521221081447,-0.124640430951,-2.64056523224,-0.067094843259,2.11085456349,-0.88623951792,-0.00895740596232,-0.00940552123464,0.00299890067004,0.0124538067635,0.0011352411053,0.00352913397601,-0.00861948660147,0.573838053962,0.818936269433,0.00583278101232,0.0,0.818942054419,-0.573769912411,-0.010136371033,0.0,-0.00495446301754,0.0105935490516,-0.999931612669,0.0,0.267259826684,-0.25765202109,0.305643036095,1.0,-0.00242,-0.00318057142858,3.129
-0.639127428733,-0.521349276534,-0.124567157229,-2.64040002157,-0.0670768960129,2.11085395271,-0.886416170854,-0.00819440446802,-0.00852572530897,0.00450457333047,0.0110312760692,0.000188475246651,6.68882303927e-06,-0.00936291780699,0.573783438407,0.818974858324,0.00578741258255,0.0,0.818981580547,-0.57371858408,-0.0098439781784,0.0,-0.00474171577438,0.0103882959578,-0.999934797594,0.0,0.267278161578,-0.257719376495,0.3057671138,1.0,-0.00212,-0.00278628571429,3.144
-0.639300762773,-0.521398189547,-0.124527550024,-2.64027041838,-0.0670618045669,2.11084930175,-0.886587190632,-0.0108048305578,0.000165986794713,0.00129276007063,0.00662757824636,-5.01715965808e-05,0.000450898157411,-0.00333501115484,0.573769483035,0.81898480272,0.00576369263555,0.0,0.818992093255,-0.573706537932,-0.00966987184133,0.0,-0.00461289874724,0.0102688937719,-0.999936633485,0.0,0.267273708091,-0.257788377156,0.305844663419,1.0,-0.0018,-0.00236571428572,3.16
-0.639530094021,-0.521398655213,-0.124496319564,-2.64010958998,-0.0670275856463,2.11081870328,-0.886785060354,-0.0170471194931,-0.00468283130641,0.000913754181407,0.00147665591402,0.00534158517157,0.00667810684033,-0.0108808894918,0.573795146691,0.818966846191,0.00576032775294,0.0,0.818974708919,-0.573733573805,-0.00953726064427,0.0,-0.00450589359557,0.0101901928079,-0.99993792652,0.0,0.267256713246,-0.257875761131,0.305916178968,1.0,-0.00138,-0.00181371428572,3.181
-0.639683005176,-0.521360515015,-0.124498267862,-2.64018230218,-0.066970598454,2.11085915493,-0.886862478014,0.00209800952293,-0.00167892332818,0.0042595305057,-0.0128885890546,-0.00876278849881,0.0243720164135,-0.00450097159235,0.573862811653,0.818919137528,0.00580228342837,0.0,0.818927210867,-0.573800544173,-0.00958674654879,0.0,-0.00452150387975,0.010253322522,-0.999937210719,0.0,0.267210545062,-0.257894820799,0.305870941812,1.0,-0.0011,-0.00144571428572,3.195
-0.639805229091,-0.521307070523,-0.124480160281,-2.64015342374,-0.0669304468283,2.11085677685,-0.886952092976,-0.00554060374927,-0.00422316481228,-9.07723410397e-05,0.00829428054237,0.00158249059613,0.00429949179139,-0.000735189922888,0.573911877833,0.818884476738,0.00584098801086,0.0,0.818892776876,-0.573849038471,-0.00962537933308,0.0,-0.00453031558744,0.0103074608704,-0.999936614237,0.0,0.267191760171,-0.25792846665,0.305866204135,1.0,-0.000740000000005,-0.000972571428578,3.213
-0.639824754369,-0.521284364526,-0.124437723831,-2.64019267048,-0.0669136660045,2.11087504513,-0.887003862505,-0.00303621523014,0.00589237456702,0.0097682400352,-0.00210405238619,0.000299899859971,0.0121375929793,-0.0025553962167,0.573860820716,0.818920273658,0.00583872768259,0.0,0.818928354487,-0.57379755545,-0.0096675993755,0.0,-0.00456683338068,0.0103295550413,-0.999936220129,0.0,0.267190688636,-0.257914816286,0.305842556438,1.0,-0.000400000000005,-0.000525714285721,3.23
-0.639846008053,-0.521367362193,-0.124417520271,-2.64019468013,-0.0669148252943,2.11090423211,-0.887024205566,0.00289557865362,-0.0141270859825,0.00257122464233,-0.0060919114521,-0.000298256588275,0.000478535367925,-0.00344999746351,0.573846266543,0.818930585603,0.00582282054293,0.0,0.818938998376,-0.573784202593,-0.00955786030134,0.0,-0.00448626806618,0.0102534746844,-0.999937367866,0.0,0.267195458956,-0.257921029662,0.305875194304,1.0,-8.00000000049e-05,-0.000105142857149,3.246
-0.639855743289,-0.521248481204,-0.124388750816,-2.64017269639,-0.0669158904164,2.11081871754,-0.887048856277,-0.00112678673344,0.00363450888833,0.000908808724984,0.00328128354251,-0.00168743470276,-0.00781612591118,-0.000484780273365,0.573814831133,0.818952654212,0.00581692630805,0.0,0.81896017099,-0.573750913152,-0.00974037426053,0.0,-0.00463952789798,0.0103532015066,-0.999935640929,0.0,0.267187913132,-0.257909184173,0.305834749985,1.0,0.0,0.0,3.264
-0.639866395999,-0.52131567607,-0.124417032003,-2.64019712491,-0.0669132324157,2.1108854466,-0.88705617863,-0.00278804846714,0.0038134123374,-0.00076126775649,-0.00320933705663,-0.000120289021847,0.00647299502974,0.000231111301164,0.573837246681,0.818936869466,0.00582795427072,0.0,0.818945007197,-0.573774414861,-0.00963031353952,0.0,-0.00454277523301,0.01029920495,-0.999936642778,0.0,0.267185757832,-0.257922148174,0.305853443192,1.0,0.0,0.0,3.281
-0.63991166199,-0.521271793188,-0.12440397626,-2.64018411467,-0.0669148838186,2.1108822648,-0.887064815927,0.000382908407688,-0.00751551328048,-0.00675850214046,-0.00136210514228,-7.21446446293e-05,0.00956450333356,-0.000792686684717,0.573858101545,0.818922312787,0.00581994939387,0.0,0.818930212602,-0.573794951478,-0.00966475282313,0.0,-0.00457531224332,0.0103125276496,-0.99993635712,0.0,0.267178300724,-0.257933671228,0.305843235546,1.0,0.0,0.0,3.297
-0.639926002119,-0.521302379099,-0.124406862571,-2.64019819212,-0.0669123609531,2.11086658248,-0.887060904513,-0.00185058718869,-0.000177528454882,-0.00146677242479,-0.00234465458314,-0.000144020813086,0.00159656400681,0.00050526738519,0.573875376993,0.818910162924,0.00582611733673,0.0,0.818918133562,-0.573812212123,-0.00966346948205,0.0,-0.00457050408724,0.0103169389604,-0.999936333605,0.0,0.267169106549,-0.257932640113,0.305846680674,1.0,0.0,0.0,3.313
-0.639931288999,-0.521344845546,-0.124403701408,-2.64019292543,-0.0669097772638,2.11087788698,-0.887069023947,-0.000835961526182,-0.013639160817,0.000926660306676,-0.00150408980554,-0.00041925839028,0.00287978404555,-0.00124975782114,0.573871956397,0.818912576962,0.00582373208081,0.0,0.8189207916,-0.573809411237,-0.00960435118716,0.0,-0.00452349879561,0.0102810410333,-0.999936917087,0.0,0.267172600846,-0.257936678262,0.30586576654,1.0,0.0,0.0,3.33
-0.639917691509,-0.521307739337,-0.124396476128,-2.64018263459,-0.0669027108683,2.11085211422,-0.887065201933,0.000384421644051,-0.00036612583351,-0.00409205031924,0.00149748134584,0.00505993285888,-0.00133182066268,0.00642741168447,0.573862497916,0.818919172117,0.00582837254866,0.0,0.818927197158,-0.573799395192,-0.00965643484518,0.0,-0.0045636108493,0.010314677206,-0.999936388422,0.0,0.267175753689,-0.257929162627,0.305854745873,1.0,0.0,0.0,3.346
-0.639920385655,-0.521348843414,-0.124401005014,-2.64017150136,-0.0669033834965,2.11086338738,-0.887073751565,-2.89015932094e-05,0.00186220958745,-0.00420843894735,0.000231106292443,0.00083930139253,-0.00095598365465,-0.00150869000034,0.573860943699,0.818920275978,0.00582630156364,0.0,0.818928567161,-0.573798502781,-0.0095930702264,0.0,-0.00451292349108,0.0102766109811,-0.99993701041,0.0,0.267179294376,-0.257935998552,0.305875814418,1.0,0.0,0.0,3.362
-0.639930587935,-0.521291282705,-0.12439581179,-2.64019015474,-0.0669040171362,2.11086871279,-0.887070497336,0.000583878670144,5.23697472373e-05,-0.000486143913317,-0.00134524495134,0.000271558963244,0.00243559808883,0.000518043940187,0.57386741749,0.818915735898,0.00582679530503,0.0,0.818923710969,-0.573804245045,-0.00966389583753,0.0,-0.00457056448793,0.010317694429,-0.999936325534,0.0,0.267173003596,-0.257932722469,0.305846701033,1.0,0.0,0.0,3.382
-0.63992850494,-0.521300953666,-0.124411356411,-2.64019896669,-0.0668997143513,2.11086563719,-0.887069625976,-0.000137428601072,-0.000245928781473,-0.000818880867582,4.05042197934e-05,0.00118551409995,0.00725504271999,0.00171852437117,0.573878813636,0.818907659922,0.00583940777038,0.0,0.818915759106,-0.57381556793,-0.0096654224176,0.0,-0.0045644332475,0.0103289630618,-0.999936237203,0.0,0.267168249203,-0.257932657502,0.305845624172,1.0,0.0,0.0,3.398
-0.639941918929,-0.521275096411,-0.124406519457,-2.6401879243,-0.0669043761949,2.11086132959,-0.88707827394,-0.00262382942347,-0.00167871493184,0.00116555990363,-1.30171022273e-05,-0.000569063830388,-0.000196607658941,-0.00185627081052,0.573877943469,0.818908316768,0.00583280628266,0.0,0.818916257909,-0.5738145252,-0.00968504537664,0.0,-0.00458430350159,0.0103348127944,-0.99993608586,0.0,0.267166726487,-0.25793743102,0.305840867816,1.0,0.0,0.0,3.415
-0.639921883161,-0.521318637604,-0.124395800753,-2.6401797626,-0.0669043761889,2.11087266942,-0.887077460353,0.000989972423222,-0.00261315262031,0.000589385727955,0.000896383692262,-0.000510002741029,0.00112015384773,-0.00183662687278,0.57385477827,0.818924613096,0.00582395252117,0.0,0.818932747209,-0.573792046965,-0.00962233279123,0.0,-0.00453831489621,0.0102914452303,-0.999936742926,0.0,0.267178853022,-0.257934054648,0.305861846953,1.0,0.0,0.0,3.43
-0.639907637494,-0.521306630175,-0.124375321617,-2.64018959786,-0.0669036641121,2.11087347044,-0.887075124979,-0.000179825759119,-0.000216473182886,-0.00238851754124,-0.001512734225,0.000190587340638,0.00139535458113,-0.000548699940021,0.573833790026,0.818939366064,0.00581747678708,0.0,0.818947325946,-0.573770848238,-0.00964561762703,0.0,-0.00456136521446,0.0102993866737,-0.999936556278,0.0,0.267184801503,-0.257924511845,0.305853658149,1.0,0.0,0.0,3.447
-0.639916872979,-0.521293548036,-0.124367393676,-2.64019822528,-0.0669010131968,2.11086098279,-0.887071255058,-0.000485398742115,0.00277813930384,-0.0008345216908,-0.000528721712325,0.000651630542443,-0.000340266677708,0.00145007284372,0.573836329123,0.818937590136,0.00581702175258,0.0,0.818945399893,-0.573773061276,-0.0096774505884,0.0,-0.00458766601183,0.0103172945662,-0.999936251345,0.0,0.267179880243,-0.257919396985,0.305843870317,1.0,0.0,0.0,3.463
-0.639928500606,-0.521314067692,-0.124364872538,-2.64018767672,-0.0669028337458,2.11087242195,-0.887073594739,-0.00264506654803,-0.00365460996922,0.000228416166621,0.00360820756908,-0.000177959759595,0.00132702606673,0.000386057835236,0.573841763338,0.818933824634,0.00581106020614,0.0,0.818941766081,-0.573778957022,-0.0096353073516,0.0,-0.0045565027635,0.0102882597499,-0.999936692993,0.0,0.267181978886,-0.257926721735,0.305857270306,1.0,0.0,0.0,3.48
-0.639937682195,-0.521284186018,-0.124386288337,-2.64018783838,-0.0668996968089,2.11084916295,-0.887081497619,-0.00263318895895,-0.000955503565089,-0.00398414691515,3.29414714198e-05,0.000685230761595,-0.00179788427614,-0.000544848832842,0.573859457815,0.818921307274,0.00582769849941,0.0,0.818929181309,-0.573796033758,-0.00968785552327,0.0,-0.00458976939218,0.0103321388047,-0.99993608842,0.0,0.267170871497,-0.257929836774,0.30584369065,1.0,0.0,0.0,3.5
-0.639932165427,-0.521303329189,-0.124383925101,-2.64019571955,-0.066902341681,2.11085737072,-0.887078652769,0.00061759952012,0.00206589300744,-0.00134322298772,-0.00143169931457,-0.000198060565831,-0.0077971495414,-0.0013245707025,0.573854013091,0.818925149374,0.00582394061044,0.0,0.818933072341,-0.57379080481,-0.00966862153537,0.0,-0.0045762418719,0.0103179934997,-0.999936296481,0.0,0.267172471487,-0.257927562447,0.305847912802,1.0,0.0,0.0,3.517
-0.639934941241,-0.521306948882,-0.124384355956,-2.64018263459,-0.066902341683,2.11085755615,-0.887077937226,0.00159413918408,-0.00330277646841,0.00205151519195,0.00175550532675,-0.000127130018436,0.000772717753623,-0.00164420917084,0.573857766795,0.818922531041,0.00582224564865,0.0,0.81893051333,-0.573794738957,-0.00965187979935,0.0,-0.00456345577313,0.0103070192469,-0.999936468095,0.0,0.267174801283,-0.257931797819,0.305855207992,1.0,0.0,0.0,3.532
-0.63994392735,-0.521309134038,-0.124381512849,-2.64017408993,-0.0669023416837,2.11086214987,-0.887077870436,8.53625112595e-05,0.00111214358899,0.00075918537738,0.00385295128295,-5.04800144505e-05,-0.000255352504565,-0.000733497802215,0.573863549926,0.818918500581,0.00581913851577,0.0,0.818926520416,-0.573800692497,-0.00963671888923,0.0,-0.00455274932774,0.0102958067941,-0.99993663241,0.0,0.267175855718,-0.257936406668,0.305860363807,1.0,0.0,0.0,3.547
-0.639930075273,-0.521307993165,-0.124365975972,-2.64019005908,-0.0668995347245,2.11084797014,-0.887079132798,-0.000436677912805,0.00246662779266,0.00133817859694,0.000177402162908,0.000335375242734,-0.00658497930448,0.000523268572433,0.573840463722,0.818934675331,0.00581950491067,0.0,0.818942604818,-0.573777395821,-0.00965696433388,0.0,-0.00456941055415,0.010307595855,-0.999936434957,0.0,0.267176878773,-0.257924315077,0.305853797893,1.0,0.0,0.0,3.563
-0.639919108675,-0.521304495318,-0.124359211177,-2.640199306,-0.0669043718018,2.1108605626,-0.887082227199,0.00290710222265,0.00185182772801,0.000992278210908,0.000962462453151,-0.000534026069269,0.00229572635039,0.00157032008277,0.57382184924,0.818947785389,0.00581008116138,0.0,0.818955564282,-0.573758707134,-0.00966833078032,0.0,-0.00458436168862,0.0103062961716,-0.99993637992,0.0,0.267180691765,-0.257918376371,0.30584756526,1.0,0.0,0.0,3.582
-0.639931626992,-0.521300943822,-0.124361716393,-2.64017484266,-0.0669015857239,2.11086447454,-0.887075209634,-0.00195802194303,0.000454096982986,0.00142641367242,0.00289919927786,0.00060262855366,0.000687984360689,0.000993330933213,0.57384195519,0.818933697714,0.00581000113591,0.0,0.818941590584,-0.57377906865,-0.00964357254881,0.0,-0.00456387735473,0.0102921362535,-0.999936619469,0.0,0.267183381644,-0.257928669506,0.3058576713,1.0,0.0,0.0,3.598
