nelsonifechukwu/NELSON_IML_WORK/CNN-GradCAM/train2dof/data_sample_2022-02-21-08-14-16/robot_state.csv
position_joint1,position_joint2,position_joint3,position_joint4,position_joint5,position_joint6,position_joint7,velocity_joint1,velocity_joint2,velocity_joint3,velocity_joint4,velocity_joint5,velocity_joint6,velocity_joint7,ee_T_00,ee_T_10,ee_T_20,ee_T_30,ee_T_01,ee_T_11,ee_T_21,ee_T_31,ee_T_02,ee_T_12,ee_T_22,ee_T_32,ee_T_03,ee_T_13,ee_T_23,ee_T_33,v_x,v_y,time
0.465093911174,0.547552697178,-0.123996248463,-1.35575052618,0.0794568367925,1.89409872816,0.159144985244,-0.000117461936106,-0.000975995790424,0.00731287887175,-0.00160573871056,-0.000162963316726,-0.0057134323593,0.000195893406198,0.573766575714,0.819004202767,0.00218617137011,0.0,0.818964642428,-0.573707587419,-0.0117160356747,0.0,-0.00834141995311,0.00851283062281,-0.999928973692,0.0,0.661700613408,0.260905113756,0.303415519703,1.0,0.0,0.0,0.0
0.46509707499,0.547554667445,-0.123998141653,-1.35574533961,0.0794601475972,1.89409636258,0.159154869033,0.000396505174723,-0.0011574420629,0.000584217748536,-4.66795433025e-06,-9.06923423469e-05,-0.000379748313097,0.0012555881438,0.573773982386,0.818999008878,0.00218803453737,0.0,0.818959455789,-0.573714968856,-0.0117171321463,0.0,-0.00834117204165,0.00851506108901,-0.999928956768,0.0,0.661700701909,0.260907077463,0.303416456,1.0,-0.00018,-0.000236571428571,0.01
0.465092953546,0.54755101131,-0.124005946169,-1.35574831235,0.0794565769199,1.89409872818,0.159154532839,6.54882140581e-05,-0.00179494520024,-0.00106545561341,-0.00200427504177,0.000118306391403,0.000238158863941,-0.000514731164078,0.573775548029,0.818997906382,0.00219014316,0.0,0.818958451607,-0.573716598792,-0.0117075067272,0.0,-0.00833206243195,0.00851128120811,-0.999929064898,0.0,0.66170457762,0.260898704445,0.303420819184,1.0,-0.00052,-0.000683428571429,0.027
0.465087537847,0.547527740092,-0.124001315047,-1.35576406411,0.0794554716372,1.89410111544,0.159153156959,0.000230138829569,-0.003870214646,0.000365358722185,0.0015017574769,-0.000368159384793,-0.000321637151263,0.00167742885062,0.573782375401,0.818993105307,0.00219682492147,0.0,0.818953711531,-0.573723373876,-0.0117070721783,0.0,-0.00832780192756,0.00851657357689,-0.999929055328,0.0,0.661701548749,0.260896627635,0.303427128396,1.0,-0.00086,-0.00113028571429,0.044
0.465089725867,0.547422119494,-0.124001108119,-1.35585815064,0.0794564389726,1.89411433664,0.159145288259,1.07897755999e-05,-0.0112419655491,0.000153162700172,-0.00208355378488,-8.05163003104e-05,-0.000636858414294,0.000945272386709,0.57377928662,0.818995196706,0.00222371737552,0.0,0.818956065282,-0.573720095644,-0.0117030719847,0.0,-0.00830912837328,0.00853627147648,-0.99992904271,0.0,0.661684733453,0.260889470025,0.303458308483,1.0,-0.00118,-0.00155085714286,0.06
0.465091398264,0.547293314855,-0.123996695158,-1.3560295823,0.0794528404004,1.89415235165,0.159143025519,-0.000532431064688,-0.00481299840982,0.000365242371752,-0.00911017396889,-0.000326539056765,0.00171123777971,7.68476289233e-05,0.573781420596,0.818993695787,0.0022258799188,0.0,0.818954478956,-0.573722104667,-0.0117155842961,0.0,-0.00831811331865,0.00854524345205,-0.999928891374,0.0,0.661655166196,0.260876468153,0.30347109822,1.0,-0.0015,-0.00197142857143,0.076
0.465071312826,0.547135580027,-0.124006632074,-1.35623560776,0.0794483090471,1.89422599081,0.159146016672,0.00019524742682,-0.0134695213417,-0.00132401440635,-0.0111326590897,-6.30764935297e-05,0.00606104770444,0.00101292617287,0.573817533608,0.818968328798,0.00224976704666,0.0,0.818929400821,-0.573758101882,-0.0117057206993,0.0,-0.00829595217092,0.00855951295744,-0.999928953434,0.0,0.661634556645,0.260839311745,0.303491478977,1.0,-0.00184,-0.00241828571429,0.093
0.465045277257,0.546953638516,-0.124001581658,-1.35643921426,0.0794463838519,1.89434756136,0.159134757375,-0.00260313022039,-0.0104359836702,-0.000251655152825,-0.00904763566376,-0.000151238933723,0.0116405693604,-0.00266490460418,0.573837199695,0.818954293256,0.00234109048772,0.0,0.818916497122,-0.573777373747,-0.0116637480439,0.0,-0.0082089698324,0.00861041591432,-0.999929234272,0.0,0.66162265948,0.260811186477,0.303533828106,1.0,-0.00218,-0.00286514285714,0.11
0.465021919053,0.546745270189,-0.124001993661,-1.35668804398,0.0794384742759,1.89448411101,0.159121659399,0.000185068172827,-0.0160777159803,-0.00134183328463,-0.0156700356697,-0.000290010511197,0.0124064222194,-7.83192841605e-05,0.573857914904,0.818939530844,0.00242594799765,0.0,0.818902835408,-0.573797782631,-0.0116188514234,0.0,-0.0081232895503,0.00865435216835,-0.999929554696,0.0,0.661604957398,0.260776695365,0.303574832528,1.0,-0.00252,-0.003312,0.127
0.464990580409,0.546507234405,-0.124001354183,-1.35701335868,0.0794263096208,1.89460782122,0.159104024275,-0.00156435930174,-0.0182093669726,-3.65237129121e-05,-0.0247129912116,4.37909792441e-05,0.00816653511147,9.44977736001e-05,0.573883630546,0.818921404317,0.00246151273367,0.0,0.818885109122,-0.573823305095,-0.0116077340248,0.0,-0.00809350430121,0.008677351734,-0.999929596899,0.0,0.661569995597,0.260727273119,0.303599268039,1.0,-0.00286,-0.00375885714286,0.144
0.464954361749,0.546241711679,-0.12400161668,-1.35741972531,0.079412417089,1.89475167085,0.159033689365,-0.00309078466395,-0.0157811878361,0.00035348289419,-0.0284666028866,0.000426401935421,0.00269600428602,-0.00814117439802,0.573874875756,0.818927512976,0.00247029706766,0.0,0.818891229651,-0.573814411189,-0.0116156107685,0.0,-0.00809500703501,0.00868897907974,-0.999929483766,0.0,0.66152273586,0.26066592546,0.3036063482,1.0,-0.0032,-0.00420571428571,0.161
0.464917081719,0.545970378843,-0.12399941666,-1.3578527672,0.079375071185,1.89490210985,0.15892537729,-0.00460586864872,-0.0137698138319,0.00129532799183,-0.0237192706911,-0.000195879490866,0.013606540154,-0.00464217805184,0.573829431647,0.818959400654,0.00245567862542,0.0,0.818922992636,-0.573769093484,-0.0116149212726,0.0,-0.00810331247912,0.00867616240436,-0.999929527783,0.0,0.661471818506,0.260598859699,0.30360527578,1.0,-0.00352,-0.00462628571429,0.177
0.464867186531,0.545652358467,-0.124007314995,-1.35836745566,0.0793150869781,1.89508073596,0.158905065029,-0.00423345759304,-0.0199856578802,-0.000726450178782,-0.0334946985068,-0.000528109374943,0.00700143970405,-0.00118028889597,0.573871981337,0.818929686217,0.00242176999227,0.0,0.818893110213,-0.573812046978,-0.0115998141638,0.0,-0.00810994751837,0.00864014544807,-0.999929785854,0.0,0.661415847155,0.260506773304,0.303601118213,1.0,-0.00386,-0.00507314285714,0.194
0.464815389384,0.545320008151,-0.124004486875,-1.35895413261,0.0792871667221,1.89527200813,0.158826280453,-0.00601760422322,-0.0210602329778,0.000279575738828,-0.0370470012699,-0.000211479917918,0.0131516348551,-0.00338904781121,0.573873187015,0.818928985585,0.00237248712658,0.0,0.818891652897,-0.573813302449,-0.011640517584,0.0,-0.00817154991128,0.00862315685147,-0.999929430979,0.0,0.66134242914,0.260417334507,0.303573619132,1.0,-0.0042,-0.00552,0.211
0.464767342257,0.54494200414,-0.124002718946,-1.35959468575,0.0792674005318,1.89547939299,0.158734629519,-0.00325812040313,-0.0278778672968,0.00131394490696,-0.0446490865895,-0.000356226094624,0.0177677693161,-0.00617119089179,0.573866627354,0.818933685803,0.00233648623682,0.0,0.818895667109,-0.573806643931,-0.0116862599921,0.0,-0.00822973909045,0.00861985902266,-0.999928982191,0.0,0.66125979541,0.260326383721,0.303554217498,1.0,-0.00452,-0.00594057142857,0.227
0.464699153525,0.544542967068,-0.124006005369,-1.3603009115,0.0792332812297,1.89572175833,0.158668330609,-0.00329149402493,-0.0144217403156,0.00115730051955,-0.0467742396319,-0.00533279712644,0.0176205496776,-0.00803526428016,0.573900795322,0.818909890158,0.00228381948038,0.0,0.81887109799,-0.573840909212,-0.0117253013365,0.0,-0.00829157582093,0.00859947909452,-0.999928646819,0.0,0.661176728922,0.260211721802,0.303521593099,1.0,-0.00486,-0.00638742857143,0.244
0.464630358531,0.544060681486,-0.124010978364,-1.36110099402,0.0791992155569,1.8959962158,0.158554613564,0.000119940862729,-0.0283232372981,-0.000228903812022,-0.0516700639419,-0.00126150586484,0.0115578003154,-0.00766830130564,0.573902958882,0.818908458344,0.00225333991787,0.0,0.818869131275,-0.573843043747,-0.011758141431,0.0,-0.00833593852786,0.00859338810858,-0.999928330337,0.0,0.661081117408,0.260087827674,0.303506012524,1.0,-0.00522,-0.00686057142857,0.262
0.464550513923,0.543537406444,-0.124013373311,-1.36196233029,0.0791523215501,1.8963012717,0.158451452796,-0.00645058737777,-0.0257409121014,0.000655203854394,-0.0528661436062,-0.00355394430572,0.0150094519068,-0.00215682639443,0.573921014428,0.818895877219,0.00222674039025,0.0,0.818856144533,-0.573861137056,-0.0117795093081,0.0,-0.0083685129556,0.00858405325202,-0.999928138428,0.0,0.660981476376,0.259951397006,0.303492775828,1.0,-0.00558,-0.00733371428571,0.28
0.464489484433,0.543116614605,-0.124011616115,-1.36263568971,0.0791052516967,1.89653895541,0.158366422814,-0.00711190377623,-0.0274537078395,0.000827106664494,-0.0571936615616,-0.00370627170872,0.019003939973,-0.00425123782182,0.573929768896,0.81888980025,0.00220506743346,0.0,0.818849796162,-0.573869984523,-0.0117897875853,0.0,-0.00838927630638,0.00857229412581,-0.999928065321,0.0,0.66089688921,0.259836274747,0.30348738991,1.0,-0.00588,-0.007728,0.295
0.464399878488,0.542446954979,-0.124012406777,-1.36370127742,0.0790465078123,1.89690763164,0.158223073377,-0.00310241369613,-0.0371275007109,0.000855036300789,-0.0550888654985,-0.000713208213014,0.0251815803277,-0.0046706717257,0.57392502494,0.818893163357,0.00219081164926,0.0,0.818852898924,-0.573865219935,-0.0118061922337,0.0,-0.00841094143318,0.00856998664094,-0.999927903098,0.0,0.660775455382,0.259684325487,0.303488883589,1.0,-0.00626,-0.00822742857143,0.314
0.464333119826,0.541974476306,-0.124012308171,-1.3644577802,0.0789947040488,1.89719648117,0.158123788203,-0.00639891727146,-0.029588865671,0.00114400463043,-0.0573238841984,-0.00223531256947,0.0232981726063,-0.00413754785846,0.573926619033,0.818892046851,0.00219054123137,0.0,0.818851836884,-0.573866873967,-0.0117994532055,0.0,-0.00840556117155,0.00856591391613,-0.999927983237,0.0,0.66069132952,0.259567895667,0.303487938973,1.0,-0.00654,-0.00859542857143,0.328
0.46422771345,0.541190602796,-0.124023266088,-1.36564404257,0.078931370691,1.8976352127,0.157963909389,-0.0020753943505,-0.0372344352077,-1.56732511367e-05,-0.0594458357393,-0.00129775919434,0.0167975524846,-0.00925624957714,0.573939935444,0.818882648851,0.00221468137261,0.0,0.818842713698,-0.573880055352,-0.0117914882288,0.0,-0.00838504508407,0.00858124691353,-0.99992802402,0.0,0.660565057283,0.259389931283,0.303507488107,1.0,-0.00694,-0.00912114285714,0.348
0.464159996921,0.540716085172,-0.124020625248,-1.36637310738,0.0788790463067,1.89790320441,0.157868411654,-0.00876752403191,-0.0420113318058,-0.00205560883175,-0.0537726855041,-0.00639202484057,0.0251736070791,-0.00596928492706,0.573940409049,0.818882272135,0.00223117578631,0.0,0.818842613639,-0.573880529238,-0.0117753620704,0.0,-0.00836236790783,0.00858550323327,-0.999928177389,0.0,0.660476777911,0.259267124404,0.30352742702,1.0,-0.0072,-0.00946285714286,0.361
0.464040968201,0.539836914409,-0.124023334694,-1.36771233615,0.0788070947433,1.89839497035,0.157701002542,-0.00151657399211,-0.0424571700339,-0.000865534232232,-0.0679523893527,-0.00428848389568,0.0265189688487,-0.0111494202678,0.573959612479,0.818868722641,0.00226389583095,0.0,0.818829443328,-0.573899557971,-0.0117638004922,0.0,-0.00833391991953,0.00860585662417,-0.999928239931,0.0,0.660317701559,0.25904733354,0.303555060816,1.0,-0.00764,-0.0100411428571,0.383
0.463962412724,0.539230856128,-0.1240340824,-1.36867173805,0.078743223883,1.89876126484,0.157588505139,-0.00511622621909,-0.0471034483252,-0.000809482144135,-0.0671493620988,-0.00485003441244,0.0225149599395,-0.00835748766082,0.573973398774,0.818859052184,0.00226650752176,0.0,0.818819882689,-0.573913411042,-0.0117534352895,0.0,-0.00832378807681,0.0086021862422,-0.999928355906,0.0,0.660217739737,0.258911738999,0.303557672847,1.0,-0.0079,-0.0103828571429,0.396
0.463854254559,0.538479941351,-0.124032352462,-1.3698234056,0.0786847934445,1.89921633354,0.157452461602,-0.0113101536195,-0.040236485182,0.000807123782719,-0.0716866324796,0.000101038115808,0.0256512572845,-0.00838787073434,0.573997519194,0.81884200079,0.00231788738,0.0,0.818803422998,-0.573937256505,-0.0117357140311,0.0,-0.00827953304086,0.00863433109834,-0.99992844627,0.0,0.660092705058,0.258735911749,0.303579355598,1.0,-0.00824,-0.0108297142857,0.413
0.463752007949,0.537747524628,-0.124042351783,-1.37098891967,0.0786183923062,1.89965644583,0.157298439781,-0.00789893486622,-0.0456075574142,0.000889672555003,-0.0781689795699,-0.00380513794854,0.0261535987649,-0.0177035637104,0.574008772478,0.818834099294,0.00232246698343,0.0,0.818795592679,-0.573948503494,-0.011731992462,0.0,-0.00827373832611,0.00863605859292,-0.999928479315,0.0,0.659962352485,0.258553006535,0.303580334919,1.0,-0.00856,-0.0112502857143,0.429
0.463650907361,0.536933454899,-0.124048612862,-1.37225176191,0.0785405050317,1.90012032805,0.157134642628,-0.00764207600852,-0.0509549396252,-0.000423717107139,-0.0692817799286,-0.00382125470547,0.031134922664,-0.0128058231853,0.574010516847,0.818832847195,0.00233276780945,0.0,0.818794500663,-0.573950236778,-0.0117234076922,0.0,-0.00826077770843,0.00863958310107,-0.999928556026,0.0,0.65981557198,0.258362316854,0.303594432389,1.0,-0.0089,-0.0116971428571,0.446
0.463541061533,0.536131405914,-0.124054209589,-1.37351096813,0.0784601767032,1.90059790615,0.156989329788,-0.0051796948214,-0.0522127676583,-0.000554992632055,-0.0859957888685,-0.00267397074319,0.0266154766651,-0.00696610391564,0.574033239312,0.818816882577,0.00234518076366,0.0,0.81877876421,-0.573972980622,-0.0117089578963,0.0,-0.00824158068582,0.00864168161684,-0.999928696301,0.0,0.659674017386,0.258167062442,0.303602794964,1.0,-0.00922,-0.0121177142857,0.462
0.463435613229,0.535266227967,-0.124057768103,-1.37489370192,0.0783925537889,1.9010931645,0.156824619622,-0.0056673403601,-0.0491796402071,-0.000509610964595,-0.0827562771229,-0.00507502694095,0.0230770682895,-0.0119657053186,0.574045003175,0.818808668399,0.00233362061182,0.0,0.818770239171,-0.573984617593,-0.0117346118845,0.0,-0.00826909880264,0.0086470609057,-0.99992842261,0.0,0.659506374479,0.257965323946,0.303598261528,1.0,-0.00956,-0.0125645714286,0.479
0.46331173659,0.534371319898,-0.124054955703,-1.37633129004,0.0783135143217,1.90161709118,0.156657682173,-0.0111234811354,-0.0513178976247,0.000325076480351,-0.0896407106357,-0.00213817194786,0.0248499891649,-0.00233385558691,0.574065415024,0.818794392009,0.00232159175391,0.0,0.818755695856,-0.574004956388,-0.0117544649424,0.0,-0.00829204444999,0.00864881478399,-0.999928217424,0.0,0.659336080046,0.257749128408,0.303590689817,1.0,-0.0099,-0.0130114285714,0.496
0.463187008472,0.533452947873,-0.124055663406,-1.37780689755,0.0782185268514,1.90215911584,0.156463849617,-0.00799129015689,-0.0541983589988,0.000423948413557,-0.0920993062903,-0.00652129869707,0.030785396076,-0.00910933633573,0.57406463065,0.818794990898,0.00230426095232,0.0,0.818756096983,-0.574004265997,-0.011760236904,0.0,-0.00830672738241,0.00863793006531,-0.999928189644,0.0,0.659162710609,0.257524799713,0.303583050489,1.0,-0.01024,-0.0134582857143,0.513
0.463055309232,0.532512949819,-0.124056299494,-1.37932324963,0.0781450228296,1.9027358763,0.156283318326,-0.0115280202976,-0.055334195877,-0.00195166784139,-0.0944081666066,-0.00980444647488,0.034546965062,-0.00567396849018,0.574088436023,0.818778277552,0.00231230087863,0.0,0.818739332934,-0.574027876531,-0.0117749129087,0.0,-0.00831387781439,0.00865317961551,-0.999927998367,0.0,0.658987564062,0.257297196675,0.303574136218,1.0,-0.01058,-0.0139051428571,0.53
0.462932164915,0.5316044577,-0.124057825264,-1.38078070499,0.0780478903952,1.90327301761,0.156090932191,-0.007204956134,-0.0632570972641,-0.000366999552538,-0.0931419619291,-0.00377141918056,0.0421206011883,-0.0163995634804,0.574086231535,0.818779869365,0.00229590616341,0.0,0.818740772831,-0.574025798156,-0.0117761138241,0.0,-0.00832429583906,0.00864042314889,-0.999928022003,0.0,0.658816319572,0.257074830902,0.303567392348,1.0,-0.0109,-0.0143257142857,0.546
0.462795369135,0.530608570522,-0.124058617286,-1.38240955766,0.0779572439692,1.90384435313,0.155891849887,-0.00916031172945,-0.0585914372841,-0.000179349972144,-0.0988874027238,-0.00248188291755,0.0332248456239,-0.00989324089365,0.574100016091,0.818770339774,0.00224702743798,0.0,0.818730472372,-0.574039628914,-0.0118179924874,0.0,-0.00838650039379,0.00862458556289,-0.999927638949,0.0,0.658616787491,0.256828094111,0.303543434987,1.0,-0.01124,-0.0147725714286,0.563
0.462649751602,0.52958404627,-0.124061646962,-1.38405509644,0.0778445227759,1.90444002481,0.155673741603,-0.00941233916985,-0.0632883604571,-0.000368090623137,-0.099064830816,-0.0131410410395,0.0344798650557,-0.0131990961794,0.574101815579,0.81876916037,0.00221681674442,0.0,0.818728986337,-0.57404163428,-0.0118235335566,0.0,-0.00840836142292,0.00860304984286,-0.999927640878,0.0,0.658422495922,0.256570763805,0.303533623624,1.0,-0.01158,-0.0152194285714,0.58
0.462510794122,0.528490484559,-0.124062720154,-1.38572749507,0.0777380577539,1.90506978004,0.155444222865,-0.0111241554844,-0.0674125306331,0.00125073394754,-0.0981418906511,-0.0076050719832,0.0379533048281,-0.0108487251156,0.574090463204,0.818777010842,0.00225687303315,0.0,0.818737403124,-0.574030174708,-0.0117970399318,0.0,-0.00836379289958,0.00862052045697,-0.999927864196,0.0,0.658227571629,0.2563200121,0.303562279864,1.0,-0.01192,-0.0156662857143,0.597
0.462376055572,0.52739204616,-0.124065283796,-1.38745543432,0.0776339003495,1.90573423787,0.155199956342,-0.00577117668307,-0.0670443189258,0.0010511653411,-0.106900672279,-0.00256578242445,0.0371451593215,-0.0188186551318,0.574068233793,0.818792519364,0.00228475044594,0.0,0.818753289395,-0.574007857122,-0.0117804060862,0.0,-0.00833440413404,0.00863357008132,-0.999927996995,0.0,0.658025338218,0.256067383093,0.303570752606,1.0,-0.01226,-0.0161131428571,0.614
0.462227338761,0.52631491037,-0.124071236868,-1.38913564439,0.0775279713898,1.90637643966,0.154975940697,-0.00532279896127,-0.0645369011837,-0.000732271793207,-0.105828103276,-0.00522776315341,0.03989174758,-0.0124064649465,0.57407309005,0.81878903489,0.00231312029795,0.0,0.818750242955,-0.574012677249,-0.0117572497056,0.0,-0.00829910654792,0.00864355489014,-0.999928204317,0.0,0.657833227098,0.255807209289,0.303584848789,1.0,-0.01258,-0.0165337142857,0.63
0.462073204952,0.525128712665,-0.124074413572,-1.3909709093,0.0774089971129,1.90703613927,0.154730004353,-0.00586629940661,-0.0722231662592,0.000147302685549,-0.10738976621,-0.00876382366218,0.037033565534,-0.01351250947,0.574066785631,0.818793441505,0.00231790527996,0.0,0.818754742025,-0.574006387162,-0.0117510344277,0.0,-0.00829133711871,0.00864384092202,-0.999928266299,0.0,0.657612026326,0.255527258096,0.30360298988,1.0,-0.01292,-0.0169805714286,0.647
0.461914728424,0.523967194237,-0.124077690466,-1.3928447885,0.0772915880882,1.9077017194,0.154472203144,-0.0107521790134,-0.0675820393326,0.00100376932888,-0.1108570517,-0.00676460915252,0.0395862640594,-0.0163663355405,0.574056706602,0.818800628081,0.00227507383022,0.0,0.818761348222,-0.573996446807,-0.0117762733012,0.0,-0.00833669618793,0.00862315720635,-0.999928067741,0.0,0.657382725376,0.255240181444,0.303585640233,1.0,-0.01326,-0.0174274285714,0.664
0.461757284684,0.522741321758,-0.124087926839,-1.39477228385,0.0771703439939,1.90842601586,0.154206316695,-0.00834959296982,-0.0772875969464,-0.000256547879234,-0.113154091137,-0.00104858155004,0.0383933046433,-0.0162766765461,0.574045872745,0.818808185962,0.00228855565946,0.0,0.818769151036,-0.573985635297,-0.0117607264268,0.0,-0.00831634111235,0.00862516130126,-0.999928219955,0.0,0.657155142249,0.254947587459,0.303592993266,1.0,-0.0136,-0.0178742857143,0.681
0.461597988303,0.521521741491,-0.124096107709,-1.39672353934,0.0770505070165,1.90920283881,0.153931253421,-0.00489529895422,-0.0682412153153,-0.00125500093304,-0.114380555874,-0.0043457350872,0.0530177919037,-0.0210821870688,0.574029323986,0.818819696803,0.00232082583344,0.0,0.818781171287,-0.5739690611,-0.0117327468073,0.0,-0.00827508127976,0.00863535546988,-0.999928474275,0.0,0.656931572594,0.25465586065,0.303588800133,1.0,-0.01394,-0.0183211428571,0.698
0.461435888163,0.520322903042,-0.124103932842,-1.39863514051,0.0769283384208,1.90990961695,0.153692195813,-0.00699507763946,-0.074289820131,-0.00229195619111,-0.124997617926,-0.00791460002636,0.0465314854378,-0.0236438136236,0.574040873927,0.818811632253,0.00230929639298,0.0,0.818773013713,-0.573980711813,-0.0117320664059,0.0,-0.0082810202914,0.00862564129019,-0.999928508952,0.0,0.656702919904,0.254361896706,0.303582472852,1.0,-0.01426,-0.0187417142857,0.714
0.461272561547,0.518993664659,-0.124103592708,-1.40069702678,0.0767950608852,1.91064538363,0.15340519022,-0.00695358062642,-0.0819930662106,0.000715572089276,-0.1227105728,-0.00477574402743,0.0467752114973,-0.0283968802346,0.574012826333,0.81883129608,0.00230882357549,0.0,0.818792667704,-0.573952665606,-0.0117325128665,0.0,-0.00828195272445,0.00862522674747,-0.999928504806,0.0,0.656446376814,0.254056005784,0.303598030111,1.0,-0.0146,-0.0191885714286,0.731
0.461103504013,0.517644026503,-0.124109663879,-1.40280107465,0.076654978124,1.911399207,0.153128574343,-0.0058358815994,-0.0763417844857,-2.1036211806e-05,-0.12362865609,-0.015245835021,0.0428113647201,-0.018273818765,0.574002610056,0.818838480039,0.00230090375343,0.0,0.818799814187,-0.573942548249,-0.011728704052,0.0,-0.00828348711803,0.00861645219759,-0.999928567745,0.0,0.656186541078,0.253738060888,0.30360920241,1.0,-0.01494,-0.0196354285714,0.748
0.46091118978,0.516299607542,-0.124115622464,-1.4049352391,0.0765142002714,1.91219360697,0.152832303506,-0.015546060994,-0.0786582191413,0.000775732894913,-0.129454153189,-0.00620905495215,0.0435661310667,-0.0228920095388,0.573996594233,0.818842709832,0.00229635910854,0.0,0.81880407513,-0.573936643902,-0.0117201637129,0.0,-0.00827916537398,0.0086077679773,-0.999928678332,0.0,0.655932678538,0.253403947844,0.303605517079,1.0,-0.01528,-0.0200822857143,0.765
0.460726203733,0.514926601753,-0.124122351763,-1.40712274341,0.0763889134129,1.91301629538,0.15252346222,-0.0108436464744,-0.0812057475273,-0.00100221200205,-0.130023744514,-0.0120066320998,0.0497101855809,-0.0197236482701,0.573981731471,0.818853105093,0.00230458615601,0.0,0.818814515465,-0.573921688051,-0.0117231458921,0.0,-0.00827704179702,0.00861606606011,-0.999928624445,0.0,0.655669237304,0.253072678577,0.303598595116,1.0,-0.01562,-0.0205291428571,0.782
0.460535145279,0.513519022501,-0.124121945341,-1.40938557161,0.0762494794271,1.91380011334,0.152218419693,-0.0168804118691,-0.0813813348135,0.000781798107848,-0.133212984307,-0.00361228940093,0.0487616896656,-0.0204873410303,0.573969154638,0.818862089164,0.00224395985399,0.0,0.818822604473,-0.573909230249,-0.0117679539575,0.0,-0.00834866282793,0.00859201305966,-0.999928235995,0.0,0.65538086374,0.252728341745,0.303576008746,1.0,-0.01596,-0.020976,0.799
0.460349701876,0.51220131771,-0.124130566321,-1.41152621947,0.0761183747741,1.91455346848,0.151907410989,-0.015572579909,-0.0796575349822,-0.00206718718447,-0.133446571019,-0.00987437046397,0.0457365737389,-0.0243442548984,0.573949141276,0.81887628256,0.00218265665091,0.0,0.818835944812,-0.573889398392,-0.0118068115146,0.0,-0.00841587644136,0.00856391193279,-0.99992791362,0.0,0.655112431593,0.252395063599,0.303545854926,1.0,-0.01628,-0.0213965714286,0.815
0.460154362092,0.510769106666,-0.124128755306,-1.41382875548,0.0759887205119,1.91543087417,0.151593616684,-0.00972975387403,-0.0818993880271,0.000563945199415,-0.130856121155,-0.00706695476109,0.0491184082071,-0.0174945385573,0.573936557916,0.818885075686,0.00219253441828,0.0,0.818844749364,-0.573876658879,-0.0118154024188,0.0,-0.00841737443808,0.00857680182086,-0.999927790532,0.0,0.654832458438,0.252052304044,0.303528862289,1.0,-0.01662,-0.0218434285714,0.832
0.459955283357,0.509268648354,-0.124134720992,-1.41618894959,0.0758401133697,1.91630998803,0.151255260794,-0.0119174709035,-0.0881453487783,-0.000253839669525,-0.132095889705,-0.0106855102437,0.0494091879977,-0.0104388648648,0.573909607599,0.818903931717,0.00220450110557,0.0,0.818863789055,-0.573849693881,-0.0118055371706,0.0,-0.00840271029867,0.0085806625377,-0.999927880744,0.0,0.654543650387,0.251693789517,0.303532036347,1.0,-0.01696,-0.0222902857143,0.849
0.459741884854,0.50776540994,-0.12413515528,-1.41856772909,0.0756836386113,1.9171580448,0.150934479963,-0.015588179787,-0.0880777873265,0.000274256935876,-0.14155563688,-0.00848519437198,0.0491241027563,-0.0177496252241,0.573902928852,0.818908689959,0.00217546913033,0.0,0.818868176596,-0.573843136257,-0.0118199505527,0.0,-0.00843124452152,0.00856509158564,-0.999927774053,0.0,0.654246058081,0.251323737567,0.303524924101,1.0,-0.0173,-0.0227371428571,0.866
0.459527731163,0.506210282554,-0.124140848426,-1.42099859806,0.0755193086412,1.91805488297,0.150598553548,-0.00789664063329,-0.0943409124623,0.000161174346665,-0.145958000306,-0.0100664466101,0.0595781173804,-0.0124450907133,0.57388847367,0.81891879938,0.00218328027895,0.0,0.818878500896,-0.57382876755,-0.011802254207,0.0,-0.00841242077862,0.00856118376387,-0.99992796606,0.0,0.653947915176,0.250946720377,0.303533141377,1.0,-0.01764,-0.023184,0.883
0.459316817331,0.504693756352,-0.12414154051,-1.42331243934,0.0753719662617,1.91895861101,0.150277106376,-0.0135421823027,-0.094965513122,0.000781526178415,-0.14847371348,-0.0147143620796,0.0631953319502,-0.0174243021477,0.573878159253,0.818925794359,0.00226904554175,0.0,0.818886690233,-0.573818207166,-0.0117473649934,0.0,-0.00831836071833,0.00859981296521,-0.999928421484,0.0,0.653674366877,0.250591319247,0.303569947219,1.0,-0.01796,-0.0236045714286,0.899
0.459090068079,0.503028031626,-0.124149636766,-1.42578571445,0.0752227378536,1.91989940989,0.149935953706,-0.0134619930807,-0.0952383580406,7.2424770332e-05,-0.145085186624,-0.00803905791092,0.0561129692494,-0.0162478740406,0.57387711926,0.818926200803,0.00238254699342,0.0,0.818888587236,-0.573816763692,-0.0116854739241,0.0,-0.00820255328468,0.00865723333276,-0.999928882686,0.0,0.65337861428,0.250206588634,0.303637902226,1.0,-0.0183,-0.0240514285714,0.916
0.458849904504,0.501331907351,-0.124150300778,-1.42831551261,0.0750562628156,1.92080753745,0.14958028323,-0.0157782094997,-0.0975645283342,0.000215948819796,-0.15855456012,-0.0107156961993,0.0510033642164,-0.0209116256751,0.573867079323,0.818933059583,0.00244255870941,0.0,0.818896248379,-0.573806533839,-0.0116508804838,0.0,-0.00813989177286,0.008686426159,-0.999929141571,0.0,0.653065025334,0.249806360355,0.303696432405,1.0,-0.01864,-0.0244982857143,0.933
0.458623181658,0.499717701878,-0.124151130423,-1.43075999326,0.0749054465164,1.92166981275,0.149235863503,-0.0183666002472,-0.0985658080971,-0.00108104514203,-0.157247627732,-0.00862999263051,0.0553660108147,-0.0233697220128,0.573849221305,0.818945476336,0.00247485312979,0.0,0.818908996941,-0.573788470027,-0.0116444533813,0.0,-0.00811628649384,0.00870900767488,-0.999929137029,0.0,0.652734563426,0.249406341971,0.303734551994,1.0,-0.01898,-0.0249451428571,0.95
0.45835998382,0.497957417659,-0.124154424313,-1.43353545,0.0747328710171,1.92271426649,0.14883997679,-0.0127043180828,-0.101026604918,-0.000553525884163,-0.160094609062,-0.0105097885312,0.0588084603952,-0.0274479039982,0.573843197289,0.818949639984,0.00249379148685,0.0,0.818913404509,-0.573782378024,-0.0116346674144,0.0,-0.00809746898212,0.00871884188984,-0.99992920389,0.0,0.652415866073,0.248986705137,0.303730990452,1.0,-0.01932,-0.025392,0.967
0.458100139252,0.496286245367,-0.124151374983,-1.43620901029,0.0745719158185,1.92366494591,0.148436479314,-0.0184286692077,-0.101781929055,-0.000340764463584,-0.15892806264,-0.0107211672992,0.0592770284839,-0.0166416174063,0.573815162669,0.818969405763,0.00245324613704,0.0,0.818932485664,-0.57375432107,-0.0116751821991,0.0,-0.0081542134499,0.00870860719742,-0.999928831949,0.0,0.652075651935,0.248562583028,0.303705542655,1.0,-0.01966,-0.0258388571429,0.984
0.457849803404,0.494710653226,-0.124156505927,-1.43879403727,0.0744039629598,1.92455090441,0.148067362816,-0.0159673079866,-0.0996940235554,-0.000678603573473,-0.17075079914,-0.0104721846928,0.0508849095286,-0.0232103506264,0.573806160583,0.8189760352,0.00234323402527,0.0,0.818937617986,-0.573745650704,-0.011741083717,0.0,-0.00827140511112,0.00865623531914,-0.999928324155,0.0,0.651740036257,0.248143830712,0.303649736648,1.0,-0.01998,-0.0262594285714,1.0
0.457576325581,0.49298400832,-0.124152566844,-1.4415943362,0.0742175432642,1.92557851519,0.147685107148,-0.0105207670114,-0.108686595244,0.0010893079325,-0.173297460893,-0.0130640959521,0.0657557097511,-0.0261890677504,0.573804399538,0.818977403942,0.00229560553258,0.0,0.818938389573,-0.573744091631,-0.0117634307823,0.0,-0.00831705402153,0.00863003398937,-0.999928171983,0.0,0.651387932099,0.247698450345,0.30360802059,1.0,-0.0210862857143,-0.0277134040816,1.017
0.457280977434,0.491142865105,-0.124160755744,-1.44454205373,0.0740348699339,1.92663416182,0.147270163326,-0.0199213077682,-0.107284965164,-0.00373582707903,-0.182449237653,-0.0126499608791,0.0588000761581,-0.0266923247276,0.573810333968,0.818973372054,0.00225019975731,0.0,0.818933690966,-0.573750119751,-0.0117964734998,0.0,-0.00837010645073,0.00861186859638,-0.999927885918,0.0,0.651015103324,0.247218432011,0.303577886088,1.0,-0.0222617142857,-0.0292582530612,1.034
0.456970737227,0.489227716361,-0.124159697112,-1.44764363758,0.0738442246714,1.92772739142,0.146823637716,-0.0215330908595,-0.113370282824,0.00156079992625,-0.185027154625,-0.00953863433969,0.0687803426739,-0.0277416529183,0.573800731337,0.818980310291,0.00217232023965,0.0,0.818939442713,-0.57374064592,-0.0118577944882,0.0,-0.00846511477158,0.00858317512856,-0.999927332828,0.0,0.650614683588,0.246718379801,0.303528219282,1.0,-0.0234371428571,-0.0308031020408,1.051
0.456629941589,0.487134644678,-0.124172002209,-1.45085249741,0.0736370440198,1.92895926489,0.146351665083,-0.0187408997642,-0.125717811027,-0.00313948551505,-0.185898960285,-0.00797751294879,0.0786237262841,-0.0224037028786,0.5738053465,0.818976833209,0.00226227663817,0.0,0.818937271382,-0.573745047524,-0.0117946125396,0.0,-0.00836170539803,0.0086206403663,-0.999927880621,0.0,0.650230192098,0.246186989949,0.303562418399,1.0,-0.0246125714286,-0.0323479510204,1.068
0.456267138829,0.484948432019,-0.124191662128,-1.45417405797,0.0734242171418,1.9302090245,0.145857110598,-0.0223350140483,-0.130446040076,-0.00430449642143,-0.193814724148,-0.0120571038795,0.0684068169672,-0.0323292913707,0.57381790116,0.818967784772,0.00235174727168,0.0,0.818929504378,-0.57375738556,-0.0117335533875,0.0,-0.0082602288942,0.00865900491829,-0.999928392562,0.0,0.649829622877,0.245625430432,0.303608331886,1.0,-0.025788,-0.0338928,1.085
0.455892833564,0.482662656057,-0.124221698731,-1.45770325638,0.0731971605508,1.93138888698,0.145317043754,-0.021762914403,-0.139955933802,-0.00217719633409,-0.21208847554,-0.0179135267519,0.0680217221598,-0.0334442924264,0.573814712778,0.818970184336,0.00229335341334,0.0,0.818931089298,-0.573754358814,-0.0117708804019,0.0,-0.00832433884466,0.00863256896959,-0.999928089482,0.0,0.649370542183,0.245020625724,0.303617669493,1.0,-0.0269634285714,-0.0354376489796,1.102
0.455503360887,0.480286817221,-0.12425269389,-1.46138631873,0.072975964067,1.93273846007,0.144776059126,-0.022109259403,-0.13792494713,-0.00113639550687,-0.219129973454,-0.0192753882725,0.0874571292266,-0.03620462951,0.573833225449,0.81895711624,0.00232766654568,0.0,0.818918439629,-0.573772710864,-0.0117563771583,0.0,-0.00829257684893,0.00865253546806,-0.999928180821,0.0,0.648911350136,0.244400800194,0.303629790731,1.0,-0.0281388571429,-0.0369824979592,1.119
0.455110365751,0.47797234847,-0.124262734355,-1.46493720911,0.0727552940153,1.93404651669,0.144258675608,-0.0232306636989,-0.146367141692,-0.00241042681441,-0.226869842686,-0.0115604969906,0.0861866611302,-0.0336440214523,0.573851334425,0.818944254486,0.00238766069438,0.0,0.818906320707,-0.573790555396,-0.0117295927562,0.0,-0.00823602400819,0.00868648013138,-0.999928353919,0.0,0.648468605695,0.243803418649,0.303656691209,1.0,-0.0292451428571,-0.0384364734694,1.135
0.454642768666,0.475266836044,-0.124275805551,-1.46908623331,0.0724977635884,1.9355652722,0.143672799933,-0.0272551151072,-0.158185271514,0.000664697298245,-0.233609696505,-0.0139702393226,0.0862725304706,-0.0324678431209,0.573894491143,0.818913825064,0.00245092968234,0.0,0.818876657995,-0.573833416514,-0.0117036739203,0.0,-0.00817803247662,0.00872385105744,-0.999928504548,0.0,0.647948853206,0.243099011897,0.303686554016,1.0,-0.0304897142857,-0.0400721959184,1.153
0.454247867299,0.472942133911,-0.124277635216,-1.47270083573,0.0722706791716,1.93681986308,0.14314372276,-0.0252856335457,-0.158485827599,0.00163021180588,-0.241817103756,-0.0128256821109,0.0880703528387,-0.0353718016129,0.57389742235,0.818911851365,0.00242388433379,0.0,0.818874151421,-0.573836253272,-0.0117399091267,0.0,-0.00822319633534,0.00872252774909,-0.999928145694,0.0,0.647473933143,0.242494106142,0.30368267735,1.0,-0.0315268571429,-0.0414352979592,1.168
0.453763992099,0.470058203611,-0.124282885928,-1.47711154387,0.0719835441996,1.93842579339,0.142472369732,-0.0299362722882,-0.160893859576,0.000388589678119,-0.243474256449,-0.0119451093955,0.0928077215922,-0.0405486164067,0.573879827622,0.81892399359,0.00248657848768,0.0,0.818887101038,-0.573818423957,-0.0117080733464,0.0,-0.00816133476424,0.00875542273214,-0.999928365028,0.0,0.646909233331,0.241757273314,0.303715295756,1.0,-0.0327714285714,-0.0430710204082,1.186
0.453314509156,0.467387891314,-0.124281468686,-1.48113562936,0.0717224116908,1.93997333461,0.14182060953,-0.0281611919681,-0.169946404862,-0.000250734408474,-0.260247705991,-0.0108918355822,0.0921128388617,-0.0414733720046,0.573833072615,0.818956255343,0.00264641447763,0.0,0.818921524493,-0.573771206987,-0.0116140284004,0.0,-0.00799309867113,0.00883188942214,-0.999929051535,0.0,0.646409102397,0.241089904268,0.303777232134,1.0,-0.0338777142857,-0.0445249959184,1.202
0.452810754454,0.464480585433,-0.12429180135,-1.48564827404,0.071401706559,1.94148278504,0.141138392398,-0.0281376950189,-0.178746509699,-0.000603914879219,-0.271467066863,-0.00879187696003,0.0943828663199,-0.0391364714157,0.5738178658,0.818967215518,0.00255023479931,0.0,0.818931253911,-0.57375635507,-0.0116616159133,0.0,-0.00808742339793,0.00878027958473,-0.999928747598,0.0,0.645801164722,0.240315148627,0.303765527452,1.0,-0.0350531428571,-0.046069844898,1.219
0.452312202469,0.461721256742,-0.124290397555,-1.49003743199,0.0711145383082,1.94302648847,0.140486837716,-0.0320864197407,-0.171233529423,0.00121284524755,-0.271735507926,-0.0210800693067,0.103140697754,-0.0464556900947,0.573818135983,0.818967260874,0.00247372902512,0.0,0.8189301584,-0.57375674064,-0.0117194340354,0.0,-0.00817867155308,0.00875080357545,-0.999928263811,0.0,0.645218017456,0.239571245367,0.3037116487,1.0,-0.0361594285714,-0.0475238204082,1.235
0.451763693378,0.458682736077,-0.124293229616,-1.49474742011,0.070795104915,1.94469297764,0.139773553551,-0.0287425975373,-0.176352532492,9.39406709604e-05,-0.277198171766,-0.0226338677316,0.106213768584,-0.0467564960178,0.573815960849,0.818968824416,0.0024606120871,0.0,0.818931533502,-0.573754594407,-0.0117284156638,0.0,-0.0081935770502,0.0087451933053,-0.999928190866,0.0,0.644597220888,0.238762212026,0.303705864396,1.0,-0.0373348571429,-0.0490686693878,1.252
0.451173717234,0.45560328731,-0.124310255118,-1.49966612676,0.0704705173766,1.94640581598,0.139012714356,-0.0331631899173,-0.184090953078,-0.00227126046435,-0.291471360178,-0.0146883952419,0.0975634704708,-0.0486880985913,0.573825964651,0.818962152492,0.00234563005249,0.0,0.818923252415,-0.573764905751,-0.0118019694769,0.0,-0.00831968630018,0.00869333488503,-0.999927601753,0.0,0.643943395689,0.2378971543,0.303631513096,1.0,-0.0385102857143,-0.0506135183673,1.269
0.450587412495,0.452338349181,-0.124360393559,-1.50463705328,0.070130009798,1.94816079439,0.138214361565,-0.0314473646125,-0.202022903586,-0.00384818726249,-0.287259815146,-0.0188275897045,0.107269353507,-0.0500742982563,0.573822243578,0.818964692937,0.00236883931414,0.0,0.818926289042,-0.573761300953,-0.0117664585012,0.0,-0.00827732511088,0.00869192775151,-0.999927965546,0.0,0.643292522473,0.237012216715,0.303661411167,1.0,-0.0396857142857,-0.0521583673469,1.286
0.449966287749,0.448954763575,-0.124384408483,-1.50968994316,0.0697794369901,1.95003805889,0.137467226273,-0.0374402275591,-0.200072163695,-0.000536490102683,-0.298059515553,-0.0237765174764,0.102287124555,-0.0454925243886,0.573869153649,0.81893135172,0.00252637335491,0.0,0.818895274912,-0.573807931415,-0.0116504709185,0.0,-0.00809143861398,0.0087548496466,-0.99992893809,0.0,0.642647093543,0.236119323793,0.303740676941,1.0,-0.0408611428571,-0.0537032163265,1.303
0.449370001599,0.445702478852,-0.12439373501,-1.51464312189,0.0694406478549,1.95166353218,0.136727429016,-0.034579621851,-0.202443476243,-0.000524903835165,-0.317587119328,-0.0185916863163,0.104861642216,-0.0494378742791,0.573886633763,0.818919305958,0.00245943471596,0.0,0.818882180365,-0.573825455598,-0.0117076082037,0.0,-0.00817645756033,0.00873299526132,-0.999928437607,0.0,0.641958755969,0.235247613297,0.30375273008,1.0,-0.0419674285714,-0.0551571918367,1.319
0.448740837722,0.442232694474,-0.124392287952,-1.51998702048,0.0690637987777,1.9535881912,0.135877719247,-0.0380907686382,-0.207274027568,-0.000883493478259,-0.314489020202,-0.0235500202566,0.101311918516,-0.0479434624189,0.573838725525,0.81895279545,0.00248652624636,0.0,0.81891611401,-0.573777554495,-0.0116817410336,0.0,-0.00814023825118,0.00873986006708,-0.99992867314,0.0,0.641239272872,0.234332600284,0.303750883453,1.0,-0.0431428571429,-0.0567020408163,1.336
0.448051343362,0.438733163677,-0.124391905816,-1.52545269821,0.0687039691307,1.95550627468,0.134984863651,-0.038422788087,-0.204733753239,0.000533717394567,-0.323983936962,-0.0185095197602,0.10837768419,-0.0488495733736,0.573814158786,0.818970131452,0.00244578569523,0.0,0.81893270395,-0.573752906645,-0.0117292548035,0.0,-0.0082027906257,0.00873351451813,-0.999928217399,0.0,0.640496418297,0.233367768664,0.303708267259,1.0,-0.0443182857143,-0.0582468897959,1.353
0.447328496888,0.435050799131,-0.124409107687,-1.531004139,0.0683248829005,1.95746317772,0.134096208967,-0.0408714520148,-0.223200077899,-0.00121312407884,-0.328612812045,-0.0212013002541,0.114299082892,-0.0503317341072,0.573828792938,0.818959677617,0.0025119185066,0.0,0.818923117751,-0.57376730818,-0.0116940232122,0.0,-0.00813583340004,0.00876760416297,-0.999928466108,0.0,0.639751245921,0.232364188938,0.303749894028,1.0,-0.0454937142857,-0.0597917387755,1.37
0.446572736429,0.431330075539,-0.124430474338,-1.53668508173,0.0679010023233,1.95949224668,0.133186257632,-0.0430112356724,-0.214465771465,-0.000140871739571,-0.340090537354,-0.0283679830547,0.120601344065,-0.0487054712003,0.573845761565,0.81894770451,0.00253891972556,0.0,0.818911834052,-0.573784545365,-0.0116383182388,0.0,-0.00807453656544,0.00875791961915,-0.999929047834,0.0,0.638993257712,0.231321481719,0.303759304651,1.0,-0.0466691428571,-0.0613365877551,1.387
0.445815353097,0.427516311341,-0.124467712143,-1.54260713829,0.0674731192499,1.96136978936,0.132252435528,-0.0448342453297,-0.225305365831,-0.000709952649964,-0.344132254554,-0.0259630555403,0.109418909605,-0.0617786879373,0.573862026728,0.818936936841,0.00232694172513,0.0,0.818898204385,-0.573801462855,-0.0117626094823,0.0,-0.00829779257102,0.00865580996868,-0.999928109212,0.0,0.638142787887,0.230232907679,0.303701562576,1.0,-0.0478445714286,-0.0628814367347,1.404
0.445088919336,0.423833050541,-0.124485645649,-1.54813507571,0.0670783250778,1.96333835027,0.131315040568,-0.047885825115,-0.234031085196,-0.000803840071404,-0.342980738125,-0.0260538729881,0.120044939699,-0.0583254757478,0.573826930573,0.818961273,0.00241536253925,0.0,0.81892384307,-0.573766205333,-0.0116973402908,0.0,-0.00819397305602,0.0086904141654,-0.999928665209,0.0,0.637390550039,0.229231424588,0.303745936196,1.0,-0.0489508571429,-0.0643354122449,1.42
0.444271923786,0.419871719288,-0.124506103761,-1.55417671582,0.066664311927,1.96540069365,0.130350081471,-0.045521972519,-0.235571304807,-0.00026589084369,-0.355393010525,-0.0199016153051,0.124672589666,-0.0566820389385,0.57385925865,0.818938680925,0.00239479588715,0.0,0.818900842458,-0.573798455056,-0.0117256171599,0.0,-0.0082285896956,0.00869012165187,-0.999928383484,0.0,0.636547032732,0.228119425242,0.303739766259,1.0,-0.0501262857143,-0.0658802612245,1.437
0.443436139501,0.415801033111,-0.124521026458,-1.56021148262,0.0662497361767,1.96761283009,0.129367468957,-0.049445706694,-0.236212700012,0.00169094823441,-0.361023468953,-0.0254216980635,0.124208465961,-0.060751464053,0.573885811612,0.818919462956,0.0025952503194,0.0,0.81888433948,-0.573824412865,-0.0116072673527,0.0,-0.00801635349573,0.00878662505865,-0.999929264147,0.0,0.635734858896,0.227011719542,0.303819353617,1.0,-0.0513017142857,-0.0674251102041,1.454
0.442638241842,0.411906697804,-0.124534390931,-1.56611875732,0.0658262217699,1.96961524187,0.128350857315,-0.0508431917136,-0.247123691932,-0.00370844213257,-0.3796652981,-0.0327076742498,0.119176937625,-0.0626944116057,0.573840184879,0.818951498675,0.00257525484506,0.0,0.81891606375,-0.573778803807,-0.0116237573363,0.0,-0.00804182167625,0.00877926564777,-0.999929124288,0.0,0.634894199239,0.225928595638,0.303818511859,1.0,-0.052408,-0.0688790857143,1.47
0.441768278723,0.407729096946,-0.124555524436,-1.572491389,0.065368987129,1.97169100705,0.127331703736,-0.0492749089854,-0.242489445776,-0.00358660256866,-0.369251099941,-0.0319875836857,0.127863611982,-0.0579392937683,0.57386335721,0.81893560127,0.00246477680869,0.0,0.818898552142,-0.573802170145,-0.0117037488863,0.0,-0.00817047965662,0.00873492296216,-0.999928469633,0.0,0.633966105285,0.224746537512,0.303790569955,1.0,-0.0535834285714,-0.0704239346939,1.487
0.440856044034,0.403513590502,-0.124559497971,-1.57895085301,0.0649444838293,1.97391991663,0.12625875591,-0.0518025247575,-0.246179506899,-0.000498682595853,-0.381586188973,-0.0252616369395,0.134615535117,-0.0707308217874,0.5738762215,0.818926596376,0.00246151290755,0.0,0.818889110936,-0.573814624113,-0.0117536396852,0.0,-0.00821307416576,0.0087610091244,-0.999927892466,0.0,0.633043815614,0.223554767801,0.303755660352,1.0,-0.0547588571429,-0.0719687836735,1.504
0.439899877626,0.399128885199,-0.124577954218,-1.58536702399,0.0644804709061,1.9762314031,0.125141874382,-0.0557283865404,-0.262208816855,-0.00271689632098,-0.379536684663,-0.0300554260604,0.134480667597,-0.0687704459322,0.573882186341,0.818921725506,0.00268152857273,0.0,0.818887335062,-0.573820067278,-0.0116107607863,0.0,-0.00796974279381,0.00885924913994,-0.999928995931,0.0,0.63216126664,0.222334720379,0.303857124532,1.0,-0.0559342857143,-0.0735136326531,1.521
0.438970810977,0.39494290698,-0.124584338244,-1.59162896777,0.0640041392025,1.97831686469,0.12409205951,-0.0576431067995,-0.265410137934,0.000393208454934,-0.408483267373,-0.0322305006477,0.134973961472,-0.0635196580243,0.573897047399,0.818911349212,0.00266983501097,0.0,0.818876860249,-0.573835025269,-0.0116102723478,0.0,-0.00797589251273,0.00884953751209,-0.999929032894,0.0,0.631253500192,0.221140345813,0.303874272779,1.0,-0.0570405714286,-0.0749676081633,1.537
0.437981318138,0.390456222248,-0.124599129261,-1.59842133629,0.0634936566879,1.98048309326,0.122944985846,-0.0584769680664,-0.26184415935,1.86323654557e-05,-0.39956342999,-0.0310494558139,0.1359541161,-0.0660652177805,0.573895269687,0.818913015169,0.00253769950748,0.0,0.818876647125,-0.57383352967,-0.0116988854546,0.0,-0.00812430891425,0.00879216716358,-0.999928344133,0.0,0.630237240751,0.219848424222,0.303844089897,1.0,-0.058216,-0.0765124571429,1.554
0.436987450398,0.385950492096,-0.12459928248,-1.60526767606,0.0629865755631,1.98281648057,0.121699117139,-0.0600236199495,-0.265194688198,0.000275123090954,-0.396994899389,-0.0287230628368,0.135815588706,-0.0722742948093,0.57380567825,0.818975856645,0.00251728841197,0.0,0.818939163506,-0.573743958257,-0.0117159609376,0.0,-0.0081509670591,0.0087843601047,-0.999928195799,0.0,0.629230052096,0.218569682941,0.303810312025,1.0,-0.0593914285714,-0.0780573061224,1.571
0.435939114306,0.38129557495,-0.124602789616,-1.61206121303,0.0625061953725,1.98518707476,0.120490421827,-0.0613346432894,-0.271675271664,-0.003091412365,-0.411055986275,-0.0289417750479,0.148559702513,-0.068735334008,0.573796544244,0.818981633303,0.00271238398727,0.0,0.818947406734,-0.573734067689,-0.0116237462625,0.0,-0.00796360092499,0.00889113645094,-0.999928761839,0.0,0.628251413459,0.217271241599,0.303898402557,1.0,-0.0605668571429,-0.079602155102,1.588
0.434845204651,0.376663607579,-0.124611627283,-1.61911063651,0.0619574265274,1.98747923201,0.119252560309,-0.06751256511,-0.272691619108,0.00149891827684,-0.422589787655,-0.0310752878743,0.123423489754,-0.0758150547643,0.573788033738,0.818988015305,0.00258263952053,0.0,0.818952072668,-0.573725974867,-0.0116942438022,0.0,-0.00809587401611,0.00882524505894,-0.999928283365,0.0,0.627192490611,0.215899615008,0.303838699726,1.0,-0.0617422857143,-0.0811470040816,1.605
0.433775751385,0.372158782426,-0.124647189122,-1.62587923087,0.0614142249594,1.98962930012,0.118053378581,-0.0684520103728,-0.283875407616,-0.00319666790182,-0.424367638122,-0.0350023380109,0.131534509172,-0.0691439350602,0.573797611157,0.818981698154,0.00245487683492,0.0,0.818944210542,-0.573736137797,-0.0117461102744,0.0,-0.00821155588313,0.00875046566098,-0.999927997258,0.0,0.626168745023,0.214552565307,0.303810402832,1.0,-0.0628485714286,-0.0826009795918,1.621
0.43256368197,0.367029332927,-0.124690543147,-1.63345786566,0.0608432730936,1.99214935317,0.116772197141,-0.0682948567164,-0.284774148703,-0.00356316164371,-0.413619268835,-0.0301326111029,0.138457418822,-0.0689570232582,0.573882083985,0.818922386851,0.00249497410402,0.0,0.81888547489,-0.573820511707,-0.0117194820345,0.0,-0.00816583610094,0.00876886765507,-0.999928210464,0.0,0.625039573319,0.213049713191,0.303838795077,1.0,-0.0640931428571,-0.0842367020408,1.639
0.431445944074,0.362389944431,-0.124705055339,-1.64011119566,0.0603249566418,1.99450643167,0.115494025501,-0.0713907262247,-0.289354975476,-0.00472240470219,-0.418964736677,-0.0285362984952,0.145108415839,-0.0815884285349,0.57384749426,0.818945779797,0.00275862022807,0.0,0.818912679027,-0.573785448144,-0.0115338860933,0.0,-0.00786292258255,0.0088779316428,-0.999929675916,0.0,0.624079703337,0.211721408672,0.30395949172,1.0,-0.0651994285714,-0.085690677551,1.655
0.430212886555,0.357452295718,-0.124726256934,-1.64753356739,0.0597721416666,1.9968066296,0.114124554299,-0.0728440043031,-0.290529761653,-0.00471708393612,-0.439434317581,-0.0385931498761,0.134820732827,-0.0848920132154,0.573850508269,0.818944178235,0.00260269000181,0.0,0.818908616156,-0.573788501895,-0.0116696349311,0.0,-0.00806354124006,0.00882816117363,-0.999928518882,0.0,0.622923135399,0.210229959106,0.303903570296,1.0,-0.0663748571429,-0.0872355265306,1.672
0.428956348485,0.352456563672,-0.124762165432,-1.65504487586,0.0592058168965,1.99919949768,0.112779494578,-0.0731457676937,-0.289182334925,-0.000498075067796,-0.442938834207,-0.037876739207,0.134928034813,-0.0842288976955,0.573898704514,0.818910756097,0.00248945926499,0.0,0.818873463981,-0.573836819437,-0.0117601678557,0.0,-0.00820214248042,0.00878786642265,-0.999927746521,0.0,0.621760411038,0.208713165565,0.303846032746,1.0,-0.0675502857143,-0.0887803755102,1.689
0.427662502055,0.347361645394,-0.124781298439,-1.66246427136,0.0586573629299,2.00168369695,0.111332872558,-0.0778547065965,-0.30736606006,-0.000543266245753,-0.425187445627,-0.0249064524898,0.150159166475,-0.0824705183491,0.573879961567,0.818923478107,0.00262175851706,0.0,0.818887780896,-0.573817464562,-0.0117075430645,0.0,-0.0080833266906,0.0088658210725,-0.999928025933,0.0,0.620637450492,0.207206242649,0.303897448509,1.0,-0.0687257142857,-0.0903252244898,1.706
0.426420119976,0.342470484251,-0.124782127758,-1.66948612049,0.0580993056943,2.00400394144,0.11006010927,-0.0779443212172,-0.30690802018,-0.000997988332861,-0.444913247998,-0.0321651804104,0.135679504443,-0.0829606227765,0.573924370671,0.818891890314,0.00276326414727,0.0,0.818858150765,-0.573861511149,-0.0116207508171,0.0,-0.00793056035206,0.00893232544406,-0.999928657342,0.0,0.619562668457,0.205775979061,0.303981790349,1.0,-0.069832,-0.0917792,1.722
0.425081978108,0.337281054057,-0.124780312748,-1.67723913191,0.0574634456223,2.00637283793,0.108562085423,-0.0755638865344,-0.301042101539,-0.000585699252291,-0.454611383244,-0.0432721724915,0.13732755609,-0.0840454125156,0.573855415935,0.818940814967,0.00257877580002,0.0,0.818904462211,-0.573792970469,-0.0117411972349,0.0,-0.00813581884546,0.00884969101644,-0.9999277431,0.0,0.618313968251,0.204206636231,0.303914238894,1.0,-0.0710074285714,-0.0933240489796,1.739
0.423733926649,0.332027619803,-0.124775104881,-1.68503457122,0.0568167147908,2.00885394072,0.107082289597,-0.0790001921874,-0.31246179962,-0.000429184457394,-0.454510181997,-0.0265628980348,0.149242475297,-0.0843856146613,0.573799945687,0.818979929821,0.00249875591289,0.0,0.818942548632,-0.573737813705,-0.0117800707227,0.0,-0.00821416888753,0.00880591101765,-0.999927489051,0.0,0.617068422643,0.202638579896,0.303870960525,1.0,-0.0721828571429,-0.0948688979592,1.756
0.422341335189,0.326618947427,-0.124774312747,-1.692639357,0.0562303292683,2.01144103606,0.105538374663,-0.0831653691487,-0.318688199149,0.00257405432215,-0.451338546203,-0.0379042132885,0.152703345247,-0.0900480712501,0.573741542574,0.819019799632,0.00282082191798,0.0,0.818986725671,-0.573678421673,-0.0115999389545,0.0,-0.00788248677487,0.00896575519442,-0.999928738279,0.0,0.615898406331,0.201082348197,0.304019371958,1.0,-0.0733582857143,-0.0964137469388,1.773
0.420845482199,0.321284592894,-0.124796587151,-1.70059589614,0.0555668844978,2.01387756946,0.104047352602,-0.0902513999322,-0.317971137799,0.00395057246524,-0.473244696098,-0.0360907228262,0.142520556195,-0.084481213115,0.573796873507,0.818981597153,0.0026529945174,0.0,0.818946233164,-0.573734196505,-0.0116998225592,0.0,-0.00805998086773,0.00888615255764,-0.999928033911,0.0,0.614690122426,0.199501452946,0.30394260045,1.0,-0.0744645714286,-0.097867722449,1.789
0.419357527265,0.315814774725,-0.124848605479,-1.70860054579,0.0549213929302,2.01631188001,0.102455198635,-0.085894582086,-0.317330545036,-0.000539631190297,-0.477047241556,-0.0429374670328,0.139674267497,-0.108190551373,0.573810964453,0.818972091672,0.00253713171925,0.0,0.818935014944,-0.573748479497,-0.011784331763,0.0,-0.00819552115589,0.00883989497215,-0.999927342205,0.0,0.613309410084,0.197698242236,0.303907928489,1.0,-0.0757091428571,-0.099503444898,1.807
0.417908241039,0.310569212216,-0.12486908892,-1.71602990955,0.0542774515937,2.01876629517,0.100885748679,-0.0892163622786,-0.33741689054,0.000793364025892,-0.460648969801,-0.0368316208451,0.163589338534,-0.0916635875712,0.573752635733,0.819012362002,0.00272227446344,0.0,0.818978226692,-0.573690089689,-0.0116229126712,0.0,-0.00795772048987,0.00889833161309,-0.999928744651,0.0,0.612142195361,0.196109531217,0.304000100635,1.0,-0.0768154285714,-0.100957420408,1.823
0.416309422534,0.304992247028,-0.124880430731,-1.72404090709,0.0536205349692,2.02129016373,0.0992552416705,-0.0931032613782,-0.335249994784,-0.000867349356196,-0.482081409728,-0.031414414951,0.14979528331,-0.105302024227,0.573769062311,0.819000653258,0.00278208534879,0.0,0.818967249034,-0.57370626225,-0.0115981276776,0.0,-0.00790292651362,0.00893325561966,-0.999928867818,0.0,0.610848169978,0.194383545463,0.304030025578,1.0,-0.0779908571429,-0.102502269388,1.84
0.414676568808,0.299401485273,-0.124943201904,-1.73229903716,0.0529291914645,2.02368196433,0.0976237377679,-0.0955323994622,-0.328235035581,-0.00332125229572,-0.491311993501,-0.0422002473721,0.144579635627,-0.0946992026813,0.573842015317,0.818950353596,0.00253114649024,0.0,0.81891336663,-0.573779729246,-0.0117672070757,0.0,-0.00818459542642,0.0088254774345,-0.999927559049,0.0,0.60946164767,0.192573709364,0.303934553118,1.0,-0.0791662857143,-0.104047118367,1.857
0.413013923804,0.293709614194,-0.124988259912,-1.74043166169,0.0522880286986,2.02624191275,0.0959445598823,-0.0933495809636,-0.34185085201,-0.00337591635902,-0.476043465224,-0.0447423600485,0.162865305941,-0.0975424345272,0.573895790339,0.818912362813,0.00262883336282,0.0,0.818876452034,-0.573832930911,-0.0117418315286,0.0,-0.00810717593563,0.00889144861022,-0.999927605299,0.0,0.608135598977,0.190793313241,0.30396794944,1.0,-0.0803417142857,-0.105591967347,1.874
0.411397008247,0.288252686539,-0.124994437778,-1.74807097316,0.0516390415612,2.0287430385,0.0942982091903,-0.100112624836,-0.338813044977,0.000745723797963,-0.478961579331,-0.0435024135546,0.14214172931,-0.0952277146007,0.573884743779,0.818919294158,0.00287008975374,0.0,0.818886853018,-0.57382143492,-0.0115771188897,0.0,-0.00783395783664,0.00899438384378,-0.999928862552,0.0,0.606906524217,0.189114064872,0.304068792288,1.0,-0.081448,-0.107045942857,1.89
0.409679292849,0.282467995702,-0.125018081004,-1.75648118755,0.050905523997,2.03111521362,0.092543963767,-0.0997784444329,-0.345150262785,-0.00100547910043,-0.490278923292,-0.0470735744574,0.144365881261,-0.109622110961,0.573867772464,0.818931963953,0.00263913711451,0.0,0.818896157036,-0.573804846527,-0.0117400594186,0.0,-0.00810011620198,0.0088985923136,-0.999927598965,0.0,0.605448912135,0.187273316319,0.303997346892,1.0,-0.0826234285714,-0.108590791837,1.907
0.408013546081,0.276959296272,-0.125020344609,-1.76439173589,0.0502198118885,2.03346645718,0.0908503491839,-0.0997982629953,-0.348304775228,-0.000387429120444,-0.485759653262,-0.0413966569511,0.153252271792,-0.0971974203215,0.57383787106,0.818953106497,0.00257953423878,0.0,0.818916349469,-0.573774974975,-0.0117914191776,0.0,-0.0081767045991,0.00887895658723,-0.999927150162,0.0,0.604097284914,0.185537542188,0.303974662656,1.0,-0.0837297142857,-0.110044767347,1.923
0.406086678908,0.270671093321,-0.125055259447,-1.77313766083,0.0494562838726,2.03628888843,0.088889052896,-0.104625017756,-0.341170664649,-0.0018877962961,-0.493175803845,-0.0410426810907,0.15236992834,-0.116430249136,0.573819879957,0.818964822898,0.00284800341027,0.0,0.818932058249,-0.573756609579,-0.0115924043089,0.0,-0.00785986188772,0.00898444632203,-0.999928748609,0.0,0.602661340928,0.183568698976,0.304083983216,1.0,-0.0849742857143,-0.111680489796,1.941
0.404199520617,0.264702996126,-0.125118845547,-1.78168871844,0.0487110883114,2.03871396644,0.0870733726444,-0.111980369664,-0.352022267769,-0.00823709579527,-0.506877176439,-0.0505975887525,0.145121331086,-0.104392228636,0.573904101687,0.81890631338,0.00269793896191,0.0,0.818871324522,-0.573841021397,-0.0117039710788,0.0,-0.00803642248453,0.00892639372013,-0.999927865103,0.0,0.601175691876,0.18161213527,0.304039659352,1.0,-0.0861497142857,-0.113225338776,1.958
0.402403489938,0.25903439724,-0.125157130887,-1.78980161945,0.0479776903622,2.04102671243,0.0852885286807,-0.112673538397,-0.352828542949,-0.00168961246747,-0.5049467803,-0.0501348022192,0.156838368109,-0.110944195972,0.573904489744,0.818906481396,0.00256091396483,0.0,0.818869588132,-0.573841768835,-0.0117885060322,0.0,-0.00818428216909,0.00886270173732,-0.999927232374,0.0,0.599753550923,0.179769515059,0.30399329833,1.0,-0.087256,-0.114679314286,1.974
0.400476020687,0.252875065501,-0.125144416615,-1.79818253264,0.0472188810299,2.04364074188,0.0834079339813,-0.114070795776,-0.362191069025,0.000252097017061,-0.497468293759,-0.0472777104423,0.153073286589,-0.106004493113,0.573886462488,0.818918135165,0.00285709136953,0.0,0.818885532299,-0.573823203874,-0.0115828575238,0.0,-0.00784609782152,0.00898704894533,-0.999928833318,0.0,0.598328647957,0.177876043951,0.304143199993,1.0,-0.0884314285714,-0.116224163265,1.991
0.398367441661,0.246456550389,-0.125149967874,-1.80739080296,0.046429879911,2.04625186921,0.0812663530063,-0.116354614959,-0.357037128523,-0.00116684374115,-0.50860564245,-0.0423294351852,0.13899957993,-0.118180549649,0.573821884876,0.818963876844,0.00271288817445,0.0,0.818928736923,-0.573758378449,-0.0117385647544,0.0,-0.00805707330358,0.00895767990231,-0.999927419136,0.0,0.596684814455,0.17578717068,0.304058010721,1.0,-0.089676,-0.117859885714,2.009
0.396455295679,0.240672238854,-0.125156015545,-1.81563746877,0.0456886875019,2.04857653627,0.0793886103808,-0.121467828541,-0.361917485702,-0.00019916329472,-0.514729038461,-0.0427461837599,0.144338528866,-0.130659610169,0.57379758892,0.818981311686,0.00258552907766,0.0,0.818944150694,-0.573734152574,-0.0118468188062,0.0,-0.00821907511355,0.0089152516282,-0.999926479844,0.0,0.595202384448,0.173904463549,0.30399331501,1.0,-0.0907822857143,-0.119313861224,2.025
0.394393066757,0.234297797786,-0.125148777025,-1.82419255328,0.0449528625393,2.05118789534,0.0774193126704,-0.120617869355,-0.37459800527,0.000961858348274,-0.505081856562,-0.04922134113,0.155765724808,-0.112513072182,0.573815028861,0.81896788354,0.00294368546552,0.0,0.81893547891,-0.573750425943,-0.0116566295542,0.0,-0.007857615729,0.00909961288629,-0.999927724848,0.0,0.593711360761,0.171939931959,0.304163398574,1.0,-0.0919577142857,-0.120858710204,2.042
0.392394302341,0.228398149594,-0.125156993573,-1.83248302204,0.0441414398223,2.0534956707,0.0754303979395,-0.125156676708,-0.372446498957,-0.000857588924349,-0.515655223275,-0.0443719963234,0.136414267957,-0.127387892417,0.573733736239,0.819025232297,0.00283119470327,0.0,0.818991475442,-0.573669652268,-0.0116978682434,0.0,-0.00795683196819,0.00903035984303,-0.99992756809,0.0,0.592205935123,0.170006800353,0.304128244846,1.0,-0.093064,-0.122312685714,2.058
0.390186613545,0.222088078685,-0.125196702578,-1.84140105433,0.0433028623935,2.05589085912,0.073328980588,-0.130235358876,-0.375524366478,-0.00427824930942,-0.523693232837,-0.0507249903363,0.14383555673,-0.119760892981,0.57375497285,0.819011022343,0.00263121874203,0.0,0.818974330008,-0.573691233182,-0.0118390311978,0.0,-0.00818694754408,0.00894777590223,-0.999926452894,0.0,0.590566179514,0.167884599772,0.304050695346,1.0,-0.0942394285714,-0.123857534694,2.075
0.387939326511,0.215633163022,-0.125259307993,-1.85005064343,0.0425387402834,2.05854260871,0.0711598195182,-0.134644338928,-0.382551923163,-0.00063127625741,-0.511261488314,-0.0454632470594,0.151590491098,-0.123794284951,0.573787792987,0.818986773744,0.00299665697024,0.0,0.818955204873,-0.573723190444,-0.0116112040695,0.0,-0.00779032095035,0.00911667050411,-0.999928096024,0.0,0.589056649469,0.165786494824,0.304197566792,1.0,-0.0954148571428,-0.125402383673,2.092
0.38560569707,0.209215649156,-0.125309309098,-1.85899155772,0.0416835004789,2.06095275533,0.0689785248035,-0.139014708553,-0.374345772442,-0.0046877718388,-0.531207237716,-0.0517491586965,0.133151522514,-0.131685139473,0.573834855119,0.81895423429,0.00287542884051,0.0,0.818920934655,-0.573770471663,-0.01169168651,0.0,-0.00792527259737,0.00906402061866,-0.999927514165,0.0,0.587407237495,0.163601614306,0.304153664814,1.0,-0.0965902857143,-0.126947232653,2.109
0.38340586858,0.203142865877,-0.125378384981,-1.86750535343,0.0408375270844,2.06313255616,0.066884003498,-0.135421228585,-0.37230109267,-0.00441508652846,-0.524960630171,-0.0634007537203,0.142053732168,-0.132289199396,0.573844580589,0.818948265947,0.00262334375397,0.0,0.8189114744,-0.573780862373,-0.0118433936257,0.0,-0.00819405999228,0.008944725763,-0.999926421924,0.0,0.585797723839,0.161521176982,0.304068467254,1.0,-0.0976965714286,-0.128401208163,2.125
0.38084728606,0.196118756493,-0.12540515952,-1.87683952998,0.0399707025191,2.06589012005,0.0644767731241,-0.14317395385,-0.380454712145,-0.00298524365683,-0.523665762548,-0.043525008684,0.142948566227,-0.130865979589,0.573862851067,0.818934263515,0.00297440884044,0.0,0.818902436173,-0.573798347078,-0.0116191144958,0.0,-0.00780873043837,0.00910370409153,-0.999928070563,0.0,0.584115011472,0.159224609101,0.304214865115,1.0,-0.0989411428571,-0.130036930612,2.143
0.378480764435,0.189971685173,-0.125475897321,-1.88532968682,0.0391813831116,2.06816292789,0.0622834933298,-0.150873660301,-0.387070646077,-0.00844821323686,-0.542991054576,-0.0479094092059,0.137776784548,-0.144043529132,0.573937926939,0.818881878416,0.00291069123198,0.0,0.818848868518,-0.573873215888,-0.0116965599465,0.0,-0.0079078854935,0.00909669072938,-0.999927355144,0.0,0.582527592367,0.157082336525,0.304171084577,1.0,-0.100047428571,-0.131490906122,2.159
0.375940014038,0.183338061943,-0.125569893042,-1.89443478939,0.0383034361901,2.07048375539,0.0599431303394,-0.152459298113,-0.388630511274,-0.00684726938758,-0.527259623018,-0.0522945785039,0.141299312792,-0.143000322891,0.574024526996,0.818821655816,0.00277223305451,0.0,0.818786456836,-0.573959853069,-0.0118140622634,0.0,-0.00808261516315,0.00905160265426,-0.9999263672,0.0,0.580789877581,0.154774954202,0.304127077618,1.0,-0.101222857143,-0.133035755102,2.176
0.373535444721,0.176971771147,-0.125561779622,-1.90279838357,0.0374649979151,2.07285319957,0.0577094494074,-0.150427790176,-0.400215392846,0.00244230431344,-0.530188463927,-0.0553834894689,0.150179917926,-0.137723377167,0.573989154273,0.818845482205,0.00304531632916,0.0,0.818814419363,-0.57392421934,-0.0116053435545,0.0,-0.00775535165672,0.00915506651712,-0.999928017048,0.0,0.579127047222,0.152561886932,0.304259257144,1.0,-0.102398285714,-0.134580604082,2.193
0.370812019431,0.169852017169,-0.125546523856,-1.91251032068,0.0364799404226,2.0752688536,0.0551152926586,-0.155840018308,-0.394324505635,-0.000181325174927,-0.54322684843,-0.0506473823175,0.129879510869,-0.1415342591,0.57389282747,0.818913601101,0.0028780916363,0.0,0.818879939598,-0.573827974054,-0.0117408525295,0.0,-0.00796336765161,0.00909497766685,-0.999926930409,0.0,0.577317753272,0.150303563845,0.304203504031,1.0,-0.103573714286,-0.136125453061,2.21
0.368311377187,0.163525593545,-0.12555992196,-1.92117646662,0.0356224072137,2.07746833821,0.0527377436857,-0.16018132385,-0.404423865533,-0.00288654841727,-0.538422345552,-0.0548582099547,0.142048251216,-0.15314451266,0.573828079212,0.818959401562,0.0027533618755,0.0,0.818923670439,-0.573763180605,-0.011856706077,0.0,-0.0081305397844,0.00905867849473,-0.999925914589,0.0,0.575615656275,0.148135264593,0.304131659324,1.0,-0.10468,-0.137579428571,2.226
0.365778453513,0.156964116469,-0.125554630429,-1.92961902112,0.0347607683806,2.07982405632,0.0504026947126,-0.162324862128,-0.401394845095,-2.93347127504e-05,-0.531807146102,-0.0551259574768,0.135566378603,-0.142904733306,0.573796865203,0.818979999251,0.00310889236232,0.0,0.818949608923,-0.573731569755,-0.0115918425217,0.0,-0.00770996592526,0.00919756616684,-0.999927978007,0.0,0.574009520273,0.145999358719,0.304303313804,1.0,-0.105786285714,-0.139033404082,2.242
0.362803191279,0.149691786046,-0.125576985774,-1.9394493311,0.0337558034709,2.08211955679,0.0476721645122,-0.171491226331,-0.407350423996,-0.00325903391039,-0.551474579103,-0.0572844406417,0.125334994897,-0.147372249842,0.573784535317,0.818989457399,0.00288489200982,0.0,0.818955485318,-0.573719216661,-0.0117864499913,0.0,-0.00799801428555,0.00912565656443,-0.99992637437,0.0,0.572026636596,0.14347102726,0.304233570159,1.0,-0.107030857143,-0.140669126531,2.26
0.359926615066,0.14278038964,-0.12562367909,-1.94871374282,0.0328404045154,2.08440197017,0.0450623500751,-0.172885375614,-0.411702863312,-0.000751832854396,-0.53115370909,-0.0543292573943,0.139639533111,-0.149417072783,0.573828351071,0.818958951807,0.00282942798927,0.0,0.818923739867,-0.573762641417,-0.0118779837402,0.0,-0.00810431706989,0.0091331854165,-0.999925449706,0.0,0.570178383297,0.141057299567,0.304198316916,1.0,-0.108206285714,-0.14221397551,2.277
0.357188381536,0.136178368171,-0.125657887441,-1.95723049644,0.0319573948158,2.08673313595,0.042504637187,-0.171528076248,-0.404080602199,0.000562192386164,-0.548333121204,-0.0542797724513,0.144197922718,-0.168110399417,0.57378527454,0.818988018107,0.00313557335488,0.0,0.818957498529,-0.573719326368,-0.011640320282,0.0,-0.00773449271787,0.00924712371568,-0.999927331522,0.0,0.568531034167,0.13881007648,0.304318207305,1.0,-0.109312571429,-0.14366795102,2.293
0.354176272935,0.129173521469,-0.125723090601,-1.96655505038,0.0309137970238,2.08886575268,0.0397500025119,-0.177896094198,-0.406913781399,-0.00397778492949,-0.546759360132,-0.0630424088193,0.118728426226,-0.155288532005,0.573768441363,0.819000564318,0.00293227628296,0.0,0.818967388705,-0.573703164386,-0.0117406265964,0.0,-0.00793347636949,0.00913801560835,-0.999926775631,0.0,0.566625000029,0.136309258431,0.304269315188,1.0,-0.110488,-0.1452128,2.31
0.351110241967,0.122093486624,-0.125844367866,-1.97586870889,0.0299399887791,2.09112850197,0.0370705051614,-0.183391963919,-0.420646901301,-0.00369340839119,-0.541723039393,-0.0560299009111,0.134390176527,-0.165367598786,0.573923543188,0.818891878391,0.00293342482687,0.0,0.818858688181,-0.573858207653,-0.0117453480349,0.0,-0.00793495297369,0.00914316820011,-0.999926716813,0.0,0.564745215633,0.13377896011,0.304266407302,1.0,-0.111663428571,-0.14675764898,2.327
0.347949212524,0.114934888622,-0.125884408108,-1.98504370946,0.0289813295082,2.09348462342,0.0341922179545,-0.187071684652,-0.421787207172,-0.00126241711101,-0.54910171073,-0.0654099765654,0.134657607363,-0.174666864635,0.573923964169,0.818890626087,0.00318947634964,0.0,0.818861170497,-0.57385826323,-0.0115682356232,0.0,-0.00764295950426,0.0092512040986,-0.999927997604,0.0,0.562913972866,0.131274934948,0.304365169812,1.0,-0.112838857143,-0.148302497959,2.344
0.34476078305,0.107826073859,-0.125888422774,-1.99447954751,0.0279267118952,2.09552392711,0.0313265539863,-0.18426524597,-0.411084026627,0.00162536763057,-0.555511763798,-0.0570618154865,0.124032282092,-0.159584147999,0.573882026697,0.818920991796,0.00292840076573,0.0,0.818887667987,-0.573816635623,-0.0117559688004,0.0,-0.00794699755872,0.00914474653965,-0.999926606727,0.0,0.560914238096,0.128744305104,0.304272573214,1.0,-0.114014285714,-0.149847346939,2.361
0.341550104911,0.100564433617,-0.125885716093,-2.00371886101,0.0269311136362,2.09773411273,0.0283911124264,-0.188321582651,-0.430506496633,5.98591414671e-05,-0.534204898251,-0.0536771955931,0.132557476844,-0.176520874002,0.573809470291,0.818971201207,0.0031000480881,0.0,0.818940310808,-0.573743743135,-0.0116460915374,0.0,-0.0077593297729,0.00922156950458,-0.999927375091,0.0,0.558999213856,0.126253917799,0.304357392953,1.0,-0.115189714286,-0.151392195918,2.378
0.338276251436,0.0933320239268,-0.125885714942,-2.01306835486,0.0259794625577,2.09989211719,0.0253817595499,-0.192739042985,-0.426910444326,-0.00114507948885,-0.557474394949,-0.0567676893007,0.112483737915,-0.171357335206,0.573741597384,0.81901853372,0.00315717537322,0.0,0.818987810835,-0.573675004886,-0.0116919362796,0.0,-0.00776486940822,0.00929401728354,-0.999926661334,0.0,0.557025122987,0.123738531361,0.304355031076,1.0,-0.116365142857,-0.152937044898,2.395
0.335066198217,0.0864946626532,-0.125939388142,-2.0220109859,0.0250216164561,2.10172688134,0.0224915468975,-0.203212067914,-0.425341346438,-0.00450257584847,-0.562317571213,-0.0671013850698,0.116478647356,-0.182660163064,0.573746420844,0.819015918521,0.00295240236299,0.0,0.818981579174,-0.573679435082,-0.011909057007,0.0,-0.00806012992601,0.00925092009184,-0.999924724558,0.0,0.55508708357,0.121258946758,0.304273395716,1.0,-0.117471428571,-0.154391020408,2.411
0.331602495996,0.0790904568247,-0.126035496937,-2.03124411525,0.0239582312526,2.10391615377,0.0193618431602,-0.20318395595,-0.442240918992,-0.00446476342748,-0.540317653287,-0.0699020424162,0.142618627778,-0.18625005117,0.573749030467,0.819013191181,0.00319211698858,0.0,0.818982881775,-0.573682272219,-0.0116806165037,0.0,-0.00773546700213,0.00931621093044,-0.999926682694,0.0,0.553162477265,0.118616250426,0.304393943077,1.0,-0.118646857143,-0.155935869388,2.428
0.328049471666,0.0717414171885,-0.126090644843,-2.04064021577,0.0229201833567,2.10596348956,0.0162578532322,-0.213191546279,-0.432251512136,-0.004983436327,-0.563849738807,-0.0578726254501,0.11583771281,-0.189482974151,0.573815787408,0.818966450003,0.00318477512173,0.0,0.818935811584,-0.573748763617,-0.0117149329712,0.0,-0.00776702581829,0.00933051952775,-0.999926304642,0.0,0.551138472545,0.115950935169,0.304379977793,1.0,-0.119822285714,-0.157480718367,2.445
0.324370800988,0.0643351695914,-0.126214670657,-2.05019993179,0.0218144999525,2.10781438837,0.0129965130367,-0.222289870743,-0.430526881766,-0.00778532788523,-0.560550222979,-0.0633942801216,0.109019160035,-0.196209616619,0.57387592924,0.818925272536,0.0029262162035,0.0,0.818890597886,-0.57380903052,-0.011921916329,0.0,-0.00808422494242,0.00923812961066,-0.999924648295,0.0,0.549024831925,0.113170646113,0.304289951035,1.0,-0.120997714286,-0.159025567347,2.462
0.320857131225,0.0572728899644,-0.126293885152,-2.058848312,0.0207914250621,2.1098415788,0.00990233577345,-0.217740711839,-0.440353114219,-0.00438279502175,-0.536926560499,-0.0604000501397,0.134216413793,-0.195092894108,0.573921251251,0.818892375411,0.00322827476158,0.0,0.818862745887,-0.573854605743,-0.0116379451779,0.0,-0.0076778120528,0.00932295749007,-0.999927064173,0.0,0.547194861007,0.110603667367,0.304425435901,1.0,-0.122104,-0.160479542857,2.478
0.317114339732,0.0497864926494,-0.126287179681,-2.06830443872,0.019729980067,2.11174609058,0.00659196200754,-0.223559900224,-0.443891094078,0.000604331001586,-0.556892447813,-0.0667036069401,0.103788912784,-0.193132383512,0.573887804113,0.818915986497,0.00318469014375,0.0,0.81888525902,-0.573820665188,-0.0117270483941,0.0,-0.00777617610316,0.00933808565199,-0.999926162895,0.0,0.54508015482,0.107915915874,0.304399080604,1.0,-0.123279428571,-0.162024391837,2.495
0.313310317169,0.0422616146269,-0.126292190665,-2.07785300896,0.0186431413647,2.11355980067,0.0032064688977,-0.231501985845,-0.446227320945,-0.0011060148883,-0.557214985814,-0.0704943496355,0.112664726134,-0.19848957126,0.573846226817,0.818945732415,0.00302361185163,0.0,0.818912052145,-0.573778652829,-0.0119103026967,0.0,-0.00801916202403,0.00931093371337,-0.999924496927,0.0,0.543028689996,0.105356714801,0.304321966384,1.0,-0.124385714286,-0.163478367347,2.511
0.309353059338,0.0346102544553,-0.12632964084,-2.0870727971,0.0175414993049,2.11557719352,-0.00031478199017,-0.238982133609,-0.443362110946,-0.00602262458017,-0.549142352379,-0.0645091340067,0.1142165876,-0.203284075106,0.573802235596,0.818975291838,0.00334853487359,0.0,0.818946848409,-0.573734760201,-0.0116289001814,0.0,-0.0076027574437,0.00941514227377,-0.999926773907,0.0,0.540884716578,0.102426795277,0.304474812313,1.0,-0.125630285714,-0.165114089796,2.529
0.305337900423,0.0269923365792,-0.126417201282,-2.09657141656,0.016416358151,2.11729673085,-0.00381428158842,-0.241776832588,-0.450804441979,-0.00105512529733,-0.556090434992,-0.0664770908322,0.0944943022134,-0.214706493453,0.573859256519,0.818935859665,0.0032184412843,0.0,0.81890516721,-0.57379152082,-0.0117628505301,0.0,-0.00778645570516,0.00938599956738,-0.999925634295,0.0,0.538698685963,0.0995885201211,0.304433493593,1.0,-0.126805714286,-0.166658938775,2.546
0.301467855621,0.0197800673833,-0.126491168381,-2.10553320413,0.0153780081333,2.11890294072,-0.00727343545765,-0.247144889627,-0.448930035979,-0.00396885401568,-0.54445319381,-0.059477364033,0.0998220322875,-0.218486391428,0.573845644841,0.818945765144,0.0031235477024,0.0,0.818913083311,-0.573777347704,-0.011902274804,0.0,-0.00795524979341,0.00938816339105,-0.999924285328,0.0,0.536620448271,0.0968955127247,0.304390429035,1.0,-0.127912,-0.168112914286,2.562
0.296519633802,0.0106551831855,-0.126615665657,-2.11647701039,0.0140168381484,2.12104666705,-0.0115735382657,-0.251057142191,-0.449035485617,-0.0033397594919,-0.555581330821,-0.0716456321253,0.0981675045062,-0.225049236199,0.5739257656,0.818888786029,0.00333445611164,0.0,0.818859720798,-0.573857776593,-0.0116943063025,0.0,-0.00766298025724,0.0094422972919,-0.999926058144,0.0,0.534129261033,0.0934952215094,0.304502908142,1.0,-0.129294857143,-0.169930383673,2.582
0.292976574796,0.00431833018956,-0.126629860764,-2.12433822208,0.0131134401093,2.12238118689,-0.0146952230932,-0.25025398491,-0.457288402664,0.00250502120002,-0.560541978934,-0.0645465962682,0.100262104645,-0.21048023515,0.573909866567,0.818900392158,0.00321864606972,0.0,0.818868849089,-0.573841096971,-0.0118722499943,0.0,-0.00787535040961,0.00944943234367,-0.99992434068,0.0,0.532263123662,0.0911204082101,0.304433429474,1.0,-0.12998,-0.170830857143,2.596
0.287932179629,-0.00483627681897,-0.126634455369,-2.13528616612,0.0117738023541,2.12438537534,-0.0192228213339,-0.25301826061,-0.466561556922,-0.000105606210189,-0.533564010853,-0.0655156153464,0.103310677334,-0.232390109281,0.573772024676,0.818996355997,0.00337334610263,0.0,0.81896711041,-0.573703080956,-0.0117640923619,0.0,-0.00769959796495,0.00951274975297,-0.999925109087,0.0,0.529689089138,0.087787822984,0.304504402343,1.0,-0.12998,-0.170830857143,2.616
0.284582270669,-0.0107157625551,-0.126645072296,-2.14235075533,0.0108613365202,2.12569530707,-0.0221234705158,-0.259340054062,-0.446616039019,-0.00141785459004,-0.543161483998,-0.0695097053637,0.0988280718303,-0.219784929038,0.57375696392,0.819006653417,0.00343437232503,0.0,0.818978694193,-0.573688434106,-0.0116715865517,0.0,-0.00758899347212,0.00950951491378,-0.999925985413,0.0,0.528025233576,0.0855950160154,0.304523084759,1.0,-0.12998,-0.170830857143,2.629
0.279282534343,-0.0197195060785,-0.126700633042,-2.15331993357,0.0094914196317,2.12731429469,-0.0267805302835,-0.26651074738,-0.449699163934,-5.94485131751e-05,-0.544665732655,-0.0665999711511,0.0779605534987,-0.243860450171,0.573735094458,0.819023119771,0.00314921734494,0.0,0.818990156432,-0.573665990163,-0.0119667163242,0.0,-0.00799457237112,0.00944508497373,-0.99992343566,0.0,0.525199964525,0.0819643183544,0.304412720773,1.0,-0.12998,-0.170830857143,2.65
0.275552481653,-0.0260801400139,-0.126787248977,-2.16069604766,0.00854495626377,2.12861175356,-0.0299792093627,-0.26630568042,-0.458519340943,-0.00155540895622,-0.517028430612,-0.0657418175497,0.101932354222,-0.227730167337,0.573814293097,0.818966730709,0.00337608225457,0.0,0.818937566971,-0.573745391414,-0.0117573014426,0.0,-0.00769197518415,0.00951149132914,-0.999925179726,0.0,0.523583241202,0.0797283620215,0.304530417285,1.0,-0.12998,-0.170830857143,2.663
0.270931834687,-0.0337026478652,-0.126905023771,-2.16968712635,0.00738488444626,2.13010358204,-0.0339518313427,-0.269487236058,-0.446218671107,-0.0061313159872,-0.531840428458,-0.0660713969413,0.0757612406377,-0.246875487699,0.573917828295,0.818893858349,0.00345282862982,0.0,0.818865992069,-0.57384903214,-0.0116842734147,0.0,-0.00758692344299,0.00953340031227,-0.999925773681,0.0,0.521409514452,0.0767634525884,0.304560875086,1.0,-0.12998,-0.170830857143,2.68
0.266014164903,-0.0417243057031,-0.126928769719,-2.17930903831,0.00621858977216,2.13144918117,-0.0382465752024,-0.272655020912,-0.449422690664,-0.000378742489208,-0.536480588866,-0.0674162535884,0.0739914487257,-0.243327971032,0.573910150656,0.818899842768,0.00330656772355,0.0,0.818868770868,-0.573840249777,-0.0119185038097,0.0,-0.00786277063012,0.00954797919279,-0.99992350354,0.0,0.518992295017,0.0736883184478,0.304481459622,1.0,-0.12998,-0.170830857143,2.698
0.261638577195,-0.048871143574,-0.126926509128,-2.18752591738,0.00516113221805,2.13278453838,-0.0420237562962,-0.279758077481,-0.453611360765,-0.000256321449593,-0.506135581113,-0.0725175375527,0.0802096555944,-0.239562277984,0.573905082625,0.818902586887,0.00350088952023,0.0,0.818874632216,-0.57383523214,-0.0117562735902,0.0,-0.00761845578354,0.009613959883,-0.999924762623,0.0,0.516968532134,0.0710057050868,0.304567520106,1.0,-0.12998,-0.170830857143,2.714
0.256915973217,-0.0564103216852,-0.126943282105,-2.19625919163,0.00397202351058,2.13405001346,-0.0462131599566,-0.276299073222,-0.438493972029,-0.00212470329224,-0.525724645437,-0.0715423752263,0.0633946562866,-0.246633709328,0.573794182102,0.818980203357,0.0035227824857,0.0,0.818952907643,-0.573724749095,-0.0116959069944,0.0,-0.00755775430118,0.00959622110443,-0.999925393662,0.0,0.514771740869,0.0681190626742,0.304598754165,1.0,-0.12998,-0.170830857143,2.731
0.252412705448,-0.0634406415898,-0.12699392349,-2.20460232359,0.00293703306218,2.13508940863,-0.0500887733166,-0.279774679124,-0.446668653525,-0.00498305258697,-0.514652178806,-0.0719408004101,0.0573479607772,-0.242985920651,0.573850427989,0.818941466079,0.00336278661031,0.0,0.818910791775,-0.573779922449,-0.0119357701834,0.0,-0.00784534873959,0.00960335396808,-0.999923110092,0.0,0.512613972629,0.0653798547782,0.304509091151,1.0,-0.12998,-0.170830857143,2.747
0.247542473585,-0.070909755904,-0.127093464565,-2.21311088956,0.0018009515078,2.13632284313,-0.0542934195405,-0.283659472109,-0.444741284811,-0.00905012554,-0.491833502342,-0.0695407822852,0.0770963332539,-0.247605618822,0.573924663659,0.818888863311,0.00350098405381,0.0,0.818860468495,-0.573854253833,-0.0118142031071,0.0,-0.00766561234819,0.00964746573073,-0.999924079514,0.0,0.510460789114,0.0624411689284,0.3045692224,1.0,-0.12998,-0.170830857143,2.764
0.242628489176,-0.0783401412417,-0.127172478778,-2.22158519392,0.000680962739488,2.13745314878,-0.0586341435561,-0.291712764512,-0.434436961534,9.2240527915e-05,-0.50932448537,-0.0578224061771,0.0548603677521,-0.255414807074,0.573905900541,0.818901689337,0.00357595112129,0.0,0.818874300793,-0.573835278203,-0.0117770918371,0.0,-0.00759241967196,0.00968738348279,-0.999924252014,0.0,0.508277435296,0.0595177434872,0.304598846282,1.0,-0.12998,-0.170830857143,2.781
0.237739247945,-0.0857356609739,-0.127159919813,-2.23016728669,-0.000437348363275,2.13842643532,-0.0628821114377,-0.288547854978,-0.432908830389,0.00133627679229,-0.51201020349,-0.0631232291665,0.0584992191287,-0.246223593894,0.573860151136,0.818934306624,0.00344605185053,0.0,0.818904266167,-0.573788783863,-0.0119574774981,0.0,-0.00781523311092,0.00968409285492,-0.999922567241,0.0,0.505995762542,0.0566723892114,0.304531441529,1.0,-0.12998,-0.170830857143,2.798
0.233080498486,-0.0926932206786,-0.127159530341,-2.23800341333,-0.00149047147997,2.13937513585,-0.0670084168539,-0.293949144519,-0.446201197618,-0.00194366504813,-0.480382397841,-0.0701951410418,0.0589230368503,-0.254815561282,0.573762711682,0.819002323444,0.00350596332671,0.0,0.818973115348,-0.573691205168,-0.0119241079633,0.0,-0.00775468110236,0.00971308523435,-0.999922757465,0.0,0.503925254656,0.0539929806432,0.304563037871,1.0,-0.12998,-0.170830857143,2.814
0.227998337557,-0.100033096278,-0.127189671592,-2.24616826324,-0.00265929513864,2.14038463166,-0.0713973253056,-0.302659207138,-0.427182264599,-0.00200943375476,-0.489692100344,-0.06276564797,0.0533381297667,-0.257435257522,0.57376061906,0.819003345814,0.00360811076036,0.0,0.81897627312,-0.573689778738,-0.01177491989,0.0,-0.00757390834402,0.00971112939831,-0.999924162063,0.0,0.501770874567,0.051088316089,0.304626517135,1.0,-0.12998,-0.170830857143,2.831
0.222848822508,-0.107361102768,-0.127295495689,-2.25449520832,-0.00378854217102,2.14118254019,-0.0758203688003,-0.30483009617,-0.432414357181,-0.00930210437187,-0.489745397531,-0.0657580096582,0.0525619026837,-0.268990954918,0.573855829201,0.818937153163,0.00348903473179,0.0,0.818907630966,-0.573784253505,-0.0119444245174,0.0,-0.00777992960921,0.00971176178386,-0.999922574192,0.0,0.499501601488,0.0481356627071,0.304574773145,1.0,-0.12998,-0.170830857143,2.848
0.217916239601,-0.114177261622,-0.127428219809,-2.26219077387,-0.00488966499008,2.14197385923,-0.0800703605051,-0.305026202503,-0.427388248015,-0.00094024648963,-0.467244584906,-0.0703180012615,0.0464314800219,-0.261156753333,0.573949313097,0.818871939291,0.00341759263341,0.0,0.818841271328,-0.573877721479,-0.0120033353893,0.0,-0.00786806573945,0.00968795852161,-0.999922115468,0.0,0.497409011579,0.0453227816301,0.304537866459,1.0,-0.12998,-0.170830857143,2.864
0.21242071895,-0.121898471183,-0.127431484373,-2.27050990136,-0.00603065759704,2.14294137936,-0.0849136618903,-0.309395983762,-0.415463491824,-0.0001804199787,-0.472616894283,-0.0612160438369,0.0414504100319,-0.281158765851,0.573880574081,0.818918899949,0.00369714744475,0.0,0.818892837903,-0.57380922997,-0.0117573182616,0.0,-0.00750697734139,0.00977505231687,-0.999924043937,0.0,0.495160295346,0.0423086541489,0.304666078611,1.0,-0.12998,-0.170830857143,2.882
0.207468892275,-0.12864793136,-0.12743158982,-2.27809512122,-0.00705962075265,2.1435450251,-0.0892174555369,-0.314753831403,-0.425611760165,0.00239815908909,-0.473385539363,-0.0666248175067,0.0370455384682,-0.266006661311,0.573857777752,0.818935458829,0.00356540144326,0.0,0.818906646781,-0.573785566464,-0.0119488274103,0.0,-0.00773969158399,0.00977684671935,-0.999922252199,0.0,0.493022521246,0.0396115597453,0.304599837264,1.0,-0.12998,-0.170830857143,2.898
0.202112855443,-0.135860451473,-0.127472586746,-2.28604323384,-0.00819950995767,2.14423210262,-0.0939020743049,-0.309450646586,-0.418506169988,-0.00214660689944,-0.464929117391,-0.0715966661455,0.0332850526837,-0.27492454348,0.573826541396,0.818957487193,0.00353291107699,0.0,0.818928093408,-0.573754254305,-0.0119825037375,0.0,-0.00778628830084,0.00976926689809,-0.999921964525,0.0,0.49078809683,0.0367040821375,0.304587694702,1.0,-0.12998,-0.170830857143,2.915
0.196734370393,-0.143119075838,-0.127533925083,-2.29370010311,-0.0092696002226,2.14500897567,-0.098646382438,-0.319607092691,-0.43059875096,-0.0033358052577,-0.444841941636,-0.0621891891697,0.0480182786599,-0.27674922265,0.573809605048,0.818968050564,0.00382311532855,0.0,0.818943434879,-0.573737607486,-0.0117283897096,0.0,-0.00741185411615,0.00986096772041,-0.999923909972,0.0,0.488657977606,0.0338196697046,0.304720954289,1.0,-0.12998,-0.170830857143,2.932
0.191207609002,-0.150173883185,-0.127678844103,-2.30143475542,-0.0103764033182,2.14557955236,-0.103394144975,-0.320320539818,-0.417361418697,-0.00142493356874,-0.45652912978,-0.065136019541,0.0313300642537,-0.277459646877,0.573955100091,0.818866329297,0.00377156789745,0.0,0.818840508236,-0.573882544872,-0.0118234371072,0.0,-0.00751752229613,0.00987462471942,-0.999922986357,0.0,0.486439867214,0.0308406491199,0.304684949533,1.0,-0.12998,-0.170830857143,2.949
0.18575124682,-0.157273991575,-0.127683964551,-2.30917404817,-0.0115262948491,2.14604492386,-0.108232929045,-0.321852574987,-0.418939271208,0.000406867957964,-0.458074023328,-0.0674556697853,0.0274754320534,-0.279158550921,0.57382873637,0.818955460705,0.00364439263171,0.0,0.818927525304,-0.573756050018,-0.0119352531758,0.0,-0.00768359637517,0.00983347401209,-0.999922129536,0.0,0.484173911776,0.0279845605785,0.304644910748,1.0,-0.12998,-0.170830857143,2.966
0.180554910255,-0.16391695506,-0.127686120522,-2.31622852664,-0.0125270762832,2.14653531146,-0.11280648641,-0.332707133896,-0.417549660223,-0.0022502585648,-0.434124481739,-0.0597535832266,0.03151188403,-0.28779678922,0.573801155542,0.81897429472,0.00375305034128,0.0,0.818947928783,-0.573728288747,-0.011869605504,0.0,-0.0075678163503,0.00988453646561,-0.999922509045,0.0,0.481995442685,0.0251367159302,0.304694078681,1.0,-0.12998,-0.170830857143,2.983
0.174892901157,-0.170954355487,-0.127713039458,-2.32358792427,-0.0135516580512,2.14707434064,-0.117799410329,-0.332875498483,-0.411114324313,-0.00014520635755,-0.439549812282,-0.061605802849,0.0304144004304,-0.289142797884,0.573760108132,0.819002266991,0.00392069913205,0.0,0.818978408873,-0.573687115674,-0.0117561052748,0.0,-0.00737916436635,0.009956343861,-0.999923206626,0.0,0.479967228017,0.0224171193522,0.304759380827,1.0,-0.12998,-0.170830857143,2.999
0.169164758386,-0.177856627653,-0.127814118615,-2.33112648963,-0.0146809020535,2.14738299689,-0.122735072368,-0.341956371387,-0.411829115189,-0.00489853901497,-0.444300453299,-0.0730805090843,0.0136147725995,-0.297166572412,0.573848844587,0.818941078844,0.00370942714411,0.0,0.81891332898,-0.573775068322,-0.0119948944507,0.0,-0.0076948831394,0.00992114666551,-0.999921176705,0.0,0.477687106021,0.0194712020097,0.304654741395,1.0,-0.12998,-0.170830857143,3.016
0.163329780222,-0.184847587873,-0.127945469172,-2.33850084475,-0.0157892412178,2.14775881988,-0.127825614573,-0.339393570743,-0.420758402626,-0.00153893653619,-0.435229909647,-0.066263766451,0.026431638221,-0.304135065676,0.573928467219,0.818885214608,0.00372380369545,0.0,0.818857552301,-0.573854497133,-0.0120030021815,0.0,-0.00769230762103,0.00993832076685,-0.999921025973,0.0,0.475464583176,0.0164948140625,0.304656466757,1.0,-0.12998,-0.170830857143,3.033
0.157940114398,-0.191381307932,-0.127944654467,-2.34517910091,-0.0167349098141,2.14815488203,-0.13262772774,-0.335326323811,-0.413563739975,0.000823514867602,-0.414012124131,-0.0632108225172,0.0347807497714,-0.296711840438,0.573853974889,0.818936420839,0.00393713464814,0.0,0.818912158892,-0.57378008078,-0.0118339266658,0.0,-0.00743232720708,0.010015306116,-0.999922224053,0.0,0.473451973579,0.013839152698,0.304745959509,1.0,-0.12998,-0.170830857143,3.049
0.152069423067,-0.198257259234,-0.127966606319,-2.35234544401,-0.017861466142,2.14842825097,-0.137839075993,-0.34950373202,-0.396331732666,-0.0030792637127,-0.430167191553,-0.0660222637967,0.016464725443,-0.308132031211,0.57376016196,0.819002284939,0.00390905540033,0.0,0.818977880642,-0.573686676843,-0.0118141751001,0.0,-0.00743340651555,0.00998012507426,-0.999922567788,0.0,0.471240845362,0.0109490393879,0.304750028035,1.0,-0.12998,-0.170830857143,3.066
0.14578369681,-0.205462098367,-0.128049514513,-2.35998697574,-0.0189687588529,2.14861597023,-0.143338641057,-0.354982431729,-0.400193636457,-0.00876550573231,-0.414406118296,-0.0560410235114,0.0130812090918,-0.307513178192,0.573812501286,0.818966127544,0.00380029000189,0.0,0.818939055221,-0.573737736642,-0.0120241543583,0.0,-0.007667152964,0.0100120087541,-0.999920484062,0.0,0.468837636386,0.00787113191846,0.304669042116,1.0,-0.12998,-0.170830857143,3.084
0.140085858264,-0.21188183064,-0.12819371488,-2.36654877339,-0.019924219085,2.14879299172,-0.148327685812,-0.36181420778,-0.401929629783,-0.00442453193292,-0.402422881525,-0.061415917466,0.00904038384761,-0.309729581925,0.573935658093,0.818879405556,0.0038892707091,0.0,0.818853196887,-0.57386015414,-0.0120296442106,0.0,-0.00761907710246,0.0100891777683,-0.999920075884,0.0,0.466769089814,0.00508255252252,0.30469449865,1.0,-0.12998,-0.170830857143,3.1
0.134408577929,-0.21825924141,-0.128231319874,-2.37289525612,-0.020902715306,2.14902399153,-0.153298552873,-0.354569351971,-0.394205978572,0.00258355462907,-0.400070665602,-0.059475692752,0.0165010461859,-0.303905964419,0.57395650385,0.818863881209,0.00407708743962,0.0,0.818841191305,-0.573881783197,-0.0118130960273,0.0,-0.00733369264818,0.0101188852515,-0.999921909508,0.0,0.464643378129,0.00220562883311,0.30479431644,1.0,-0.12998,-0.170830857143,3.117
0.128378821887,-0.224963357317,-0.128225414921,-2.37985964784,-0.0220190490569,2.14909612744,-0.158745764432,-0.358695669557,-0.396580582836,-0.00386067663495,-0.416402472616,-0.0627099671545,0.000954361871522,-0.324196984578,0.573769352716,0.818995718881,0.00393563711978,0.0,0.818970765674,-0.573694573778,-0.0119234177225,0.0,-0.00750751895216,0.01006465719,-0.99992116681,0.0,0.462511371807,-0.000464963927798,0.304730757712,1.0,-0.12998,-0.170830857143,3.133
0.122153060713,-0.23164654262,-0.128265938367,-2.38667995258,-0.023058479745,2.14912133902,-0.164234575375,-0.366827023726,-0.398226842297,-0.00110430837567,-0.399601532931,-0.0575397149802,0.00367741644628,-0.320905328338,0.573773894049,0.818992715909,0.00389829403361,0.0,0.818966751213,-0.573698549111,-0.0120075832936,0.0,-0.00759782390371,0.010082405142,-0.999920305914,0.0,0.460274896308,-0.00337644097176,0.304707621956,1.0,-0.12998,-0.170830857143,3.15
0.115877578333,-0.238327315823,-0.128396421411,-2.39332721727,-0.0240804845039,2.1491473548,-0.169751497917,-0.372938371017,-0.393169347735,-0.00865721685745,-0.386212484155,-0.0591953355167,0.0059517623241,-0.334000970667,0.573874367751,0.818921890236,0.00398680722498,0.0,0.818897093387,-0.573798703573,-0.0119726822647,0.0,-0.00751721150392,0.0101357954588,-0.999920375421,0.0,0.458080461685,-0.00632062253756,0.304746074521,1.0,-0.12998,-0.170830857143,3.167
0.109528581416,-0.244946296592,-0.128510629275,-2.39978609237,-0.0251246955105,2.14924307525,-0.175355550719,-0.370245407103,-0.387665822325,-0.00510658190396,-0.38930299355,-0.0560331370051,0.000339010063647,-0.321286633144,0.573940395459,0.818874736575,0.0041635514634,0.0,0.818853332873,-0.573865617252,-0.0117566781093,0.0,-0.00723806701448,0.0101571660327,-0.999922218157,0.0,0.455946384347,-0.0092678011099,0.304833547368,1.0,-0.12998,-0.170830857143,3.184
0.103248375773,-0.251493448997,-0.128504659661,-2.40644313453,-0.0261110209952,2.14920104143,-0.181029089157,-0.37247730031,-0.387559525064,-0.000510522396453,-0.39585914239,-0.0539925779471,0.00166623059486,-0.346370517816,0.573814840192,0.818962940093,0.00412053767434,0.0,0.818940197733,-0.573739139932,-0.0118784994087,0.0,-0.00736407883961,0.0101907293808,-0.999920956565,0.0,0.453694519043,-0.0120904802389,0.30477500245,1.0,-0.12998,-0.170830857143,3.201
0.0967822871039,-0.257992959422,-0.128562135474,-2.41295520702,-0.0271328409008,2.14915981998,-0.186754055087,-0.384273375157,-0.381678033497,-0.00427181056495,-0.380772043168,-0.0587329292139,-0.00256766491111,-0.331531258381,0.573832542479,0.818950557595,0.00411634642657,0.0,0.818927556953,-0.573756572438,-0.0119079363547,0.0,-0.00739037258837,0.0102043473821,-0.999920623693,0.0,0.451471732505,-0.0150026848669,0.304745971416,1.0,-0.12998,-0.170830857143,3.218
0.0906621302439,-0.264094070508,-0.128679224272,-2.41889107272,-0.0280922901192,2.14905344733,-0.192147835579,-0.383792387812,-0.380728235836,-0.0111755431213,-0.365408665199,-0.0601220458366,-0.0101915751854,-0.335122642879,0.57392384731,0.818886229605,0.00418417891049,0.0,0.818864330783,-0.573847932899,-0.0118534627997,0.0,-0.00730569569842,0.0102294567861,-0.999920989391,0.0,0.449414820652,-0.0177627414907,0.304779541375,1.0,-0.12998,-0.170830857143,3.234
0.084049596591,-0.270548184515,-0.128806599247,-2.42500267107,-0.0290788309547,2.14900358767,-0.198051311828,-0.384996082746,-0.373388219152,-0.00111847780988,-0.363925982411,-0.0608781346897,-0.00617395770387,-0.339536126562,0.573987463784,0.818840488136,0.00440378359161,0.0,0.818822551798,-0.573912425693,-0.0116147837949,0.0,-0.00698340356108,0.0102728553952,-0.999922847282,0.0,0.447290595076,-0.0207183609706,0.304883176247,1.0,-0.12998,-0.170830857143,3.251
0.077562072801,-0.276915936038,-0.128791544175,-2.43132474645,-0.0300692648119,2.14877509765,-0.203982413895,-0.390311227605,-0.376370107805,0.00158549106448,-0.369329469813,-0.0566189140671,-0.0136768567135,-0.355017910466,0.573802494641,0.818970546947,0.00432287841336,0.0,0.818950876428,-0.573726742562,-0.0117402627175,0.0,-0.00713491579771,0.0102770149647,-0.999921734907,0.0,0.445039146955,-0.0235213664005,0.304826985147,1.0,-0.12998,-0.170830857143,3.268
0.0708271151949,-0.283226077017,-0.128829552524,-2.43750280857,-0.0310955554259,2.14855517734,-0.209964011546,-0.399241192734,-0.384500452262,-0.00240090903671,-0.35878140304,-0.0636836369793,-0.0105660405127,-0.355950440736,0.573804190936,0.818969612867,0.00427440812677,0.0,0.81894920483,-0.57372844194,-0.0117737725174,0.0,-0.00719015083846,0.0102565606207,-0.99992154927,0.0,0.442813692836,-0.026435948173,0.304797395461,1.0,-0.12998,-0.170830857143,3.285
0.0640555540034,-0.2895146357,-0.128933694526,-2.44355197608,-0.0320400488774,2.14832317655,-0.216043032755,-0.408716592766,-0.370853828539,-0.0126685448405,-0.354485046478,-0.052226054672,-0.0122169062562,-0.359310030194,0.573844384419,0.818941070506,0.00434654007239,0.0,0.818921413929,-0.573768125583,-0.0117729679824,0.0,-0.00714759846583,0.0103155249122,-0.99992124779,0.0,0.440609620492,-0.0293576201344,0.304801805698,1.0,-0.12998,-0.170830857143,3.302
0.0575940192195,-0.295438789453,-0.129055167145,-2.44902459933,-0.0329106374098,2.14811745345,-0.2217754365,-0.398625681924,-0.372344615376,-0.00365000497213,-0.338098163037,-0.0601731326972,-0.0108449365987,-0.347284533523,0.573974347063,0.818848841347,0.00455750364703,0.0,0.818832731805,-0.57389860355,-0.0115800288934,0.0,-0.00686688047212,0.0103786725061,-0.999922561556,0.0,0.438595423036,-0.0321343678893,0.304897190517,1.0,-0.12998,-0.170830857143,3.318
0.050823202607,-0.30164736817,-0.129047075818,-2.45492164662,-0.0338570499016,2.14778176423,-0.227987203345,-0.400165082198,-0.361670644997,-0.000852639722952,-0.352868594511,-0.0570618714886,-0.0245094926123,-0.369771157745,0.573812955963,0.818961838846,0.00457656906672,0.0,0.818945948974,-0.573737140235,-0.0115746911325,0.0,-0.00685361463885,0.0103898704677,-0.999922536279,0.0,0.436388637221,-0.0349560526689,0.304903905825,1.0,-0.12998,-0.170830857143,3.335
0.0438567960044,-0.30774257287,-0.129090253349,-2.4608544231,-0.0348898624601,2.14734184477,-0.234171421523,-0.405828600628,-0.358530945276,-0.00510723972039,-0.349502475674,-0.0543428611762,-0.029487908088,-0.36809469624,0.573830988348,0.818950152185,0.00440362906447,0.0,0.818931255662,-0.573754571997,-0.0117488941561,0.0,-0.00709529295441,0.0103483482626,-0.999921281155,0.0,0.434116947999,-0.0378618692478,0.304823202812,1.0,-0.12998,-0.170830857143,3.352
0.0368435657577,-0.313828593255,-0.129224905133,-2.46656488308,-0.0357885616604,2.14699056304,-0.240510705871,-0.414191356957,-0.352111877978,-0.0137430633842,-0.334233582971,-0.0497873141475,-0.0265886097367,-0.375355917455,0.573895143933,0.818904650145,0.00450384742221,0.0,0.818886871396,-0.573818122494,-0.0117388693651,0.0,-0.00702876076415,0.0104252223665,-0.999920952506,0.0,0.431919057981,-0.0407880349817,0.304833340472,1.0,-0.12998,-0.170830857143,3.369
0.0301824201507,-0.319525531963,-0.129300876448,-2.47180120349,-0.0366672546527,2.14662069905,-0.246511733911,-0.413810972259,-0.352555800444,-0.000641644903741,-0.32014881748,-0.0517984037722,-0.0243198000912,-0.368397943469,0.573926212113,0.818882343736,0.00459968126897,0.0,0.818866299935,-0.573849620986,-0.0116336677838,0.0,-0.0068872123884,0.0104435919373,-0.999921745785,0.0,0.429744579344,-0.0436993485058,0.304882448558,1.0,-0.12998,-0.170830857143,3.386
0.0231373015908,-0.325516081006,-0.129306387678,-2.47722045826,-0.0376122986502,2.14625797036,-0.252992039522,-0.420247856502,-0.349048539738,-0.00325091010251,-0.317446237136,-0.062652470579,-0.0191796232948,-0.381999122298,0.573778551714,0.818985203938,0.004707039814,0.0,0.818971725618,-0.57370348492,-0.0114180090229,0.0,-0.00665086335298,0.0104065415578,-0.999923732046,0.0,0.427738619971,-0.0463803604722,0.304957963147,1.0,-0.12998,-0.170830857143,3.402
0.0159155283753,-0.331415016013,-0.129343172876,-2.48282214492,-0.0385271147102,2.14570538733,-0.259513812289,-0.41973718675,-0.341514103904,-0.00143260733734,-0.332422784383,-0.0552448423563,-0.039271502337,-0.387893750484,0.573774130065,0.818988847773,0.00461105128063,0.0,0.818973090902,-0.573697740795,-0.0116071308189,0.0,-0.0068608930864,0.0104363992408,-0.999922001817,0.0,0.425471438057,-0.0492713396075,0.304887589889,1.0,-0.12998,-0.170830857143,3.419
0.00815869942448,-0.337631437929,-0.12953278009,-2.48857667636,-0.0394705551685,2.1451474264,-0.266468883255,-0.431806941701,-0.348422342206,-0.0135782761623,-0.314611680906,-0.0544273577879,-0.0346455269248,-0.384020283174,0.573948895501,0.818866153407,0.00465135021423,0.0,0.818850246836,-0.573871329753,-0.0116926064603,0.0,-0.00690553609584,0.0105199203755,-0.999920819288,0.0,0.423104566973,-0.0524111191222,0.30486795063,1.0,-0.12998,-0.170830857143,3.437
0.001301749199,-0.34313643713,-0.129574828153,-2.49355118814,-0.0402790531176,2.14467835475,-0.272754326833,-0.424150533985,-0.339279814676,-0.00256649086833,-0.307203102922,-0.0549987037541,-0.0276924913591,-0.396084664613,0.57390588901,0.818895761496,0.00474439299937,0.0,0.818881292369,-0.57382839555,-0.0116253331455,0.0,-0.00679759949102,0.0105571450825,-0.999921166557,0.0,0.421045569714,-0.055112338169,0.304899671448,1.0,-0.12998,-0.170830857143,3.453
-0.00608607036159,-0.348852098187,-0.129605237693,-2.49870459331,-0.0411944318891,2.14409710599,-0.279488516535,-0.443865471399,-0.342534930605,-0.00404568651385,-0.291978171094,-0.0543886897386,-0.0304113654078,-0.403569461659,0.573863598507,0.818925410014,0.00474236689551,0.0,0.818911147407,-0.57378647999,-0.0115911576289,0.0,-0.0067713178748,0.0105355233851,-0.999921572925,0.0,0.418859098163,-0.0580042411991,0.30491961885,1.0,-0.12998,-0.170830857143,3.47
-0.0130981584568,-0.35426985157,-0.129685717172,-2.50345445376,-0.0420308898654,2.14360931689,-0.285896782472,-0.440453883151,-0.334398095636,-0.00606361203841,-0.298380499839,-0.0545802005466,-0.0369250213375,-0.399824456498,0.573866371907,0.818922722563,0.00486914427011,0.0,0.818911032294,-0.5737903653,-0.011405471332,0.0,-0.00654645760547,0.0105328152031,-0.999923098891,0.0,0.41682647456,-0.0607476889264,0.304994465154,1.0,-0.12998,-0.170830857143,3.486
-0.0206599493189,-0.359857788955,-0.129832588613,-2.50863488381,-0.0429299726504,2.14291644861,-0.292774283649,-0.440861837389,-0.32991356585,-0.00335779955389,-0.311120893447,-0.0525665245592,-0.0451440286173,-0.397889853505,0.573939961902,0.818871702986,0.00477504775382,0.0,0.818857554532,-0.573862249465,-0.0116263031837,0.0,-0.00678036158511,0.01058308769,-0.999921009356,0.0,0.414549952542,-0.0636900194271,0.304917019835,1.0,-0.12998,-0.170830857143,3.503
-0.0281228690478,-0.365438713006,-0.129834381677,-2.51366173686,-0.0437990507307,2.14227836783,-0.299743066442,-0.442872584181,-0.331737741317,-0.000851144449119,-0.290747074332,-0.0541168695624,-0.0319079420036,-0.41061716739,0.573762552783,0.818996140103,0.00475420040174,0.0,0.818981583945,-0.573684720152,-0.0116513485722,0.0,-0.00681512859293,0.0105789137524,-0.999920817168,0.0,0.412334565279,-0.0665135622679,0.30490377256,1.0,-0.12998,-0.170830857143,3.52
-0.0358030998712,-0.370923676662,-0.129861311739,-2.51849483166,-0.0446612021446,2.14164529708,-0.306750646246,-0.445923583864,-0.318230920338,0.00109754102457,-0.285723024892,-0.0455951871846,-0.0424917625728,-0.416429851242,0.573758200821,0.818999034442,0.00478073999504,0.0,0.818985205011,-0.573680884528,-0.0115854910383,0.0,-0.0067460167066,0.0105628291859,-0.999921455865,0.0,0.410150004188,-0.0694192326084,0.304928664004,1.0,-0.12998,-0.170830857143,3.537
-0.0431082536122,-0.3759923054,-0.130004602348,-2.52301491825,-0.0454129364776,2.14097724963,-0.313367407987,-0.459256408294,-0.318319924438,-0.0112476327386,-0.277471772695,-0.0442523598881,-0.0417210392882,-0.416709969096,0.5739150397,0.818888940855,0.00481421360894,0.0,0.818874798957,-0.57383642581,-0.0116861862193,0.0,-0.00680724858596,0.0106493212616,-0.999920123472,0.0,0.408056397878,-0.0721933861446,0.304909387346,1.0,-0.12998,-0.170830857143,3.553
-0.0512722385771,-0.381715568395,-0.130058073656,-2.52790712074,-0.0462594962568,2.14031114096,-0.32097003105,-0.448937475757,-0.31860513325,-0.000573021212356,-0.270961020215,-0.053721520101,-0.0321144417399,-0.424793822209,0.573838718399,0.818941602157,0.0049522140545,0.0,0.818930116783,-0.573761080942,-0.0115079417575,0.0,-0.00658307131594,0.0106594250105,-0.999921516835,0.0,0.405776443403,-0.0752379005968,0.304983359224,1.0,-0.12998,-0.170830857143,3.571
-0.0586615020746,-0.386691315616,-0.130091281312,-2.53233062278,-0.0470717340268,2.1396184711,-0.327747531418,-0.463449221924,-0.308808499194,-0.00483393189659,-0.27941654899,-0.0517746573868,-0.0493488234472,-0.423380006363,0.573819251474,0.818955697804,0.00487632789314,0.0,0.818942853006,-0.573741236916,-0.0115906632317,0.0,-0.00669461819005,0.0106445845179,-0.999920934328,0.0,0.403535659538,-0.0781352364035,0.304945240111,1.0,-0.12998,-0.170830857143,3.588
