nelsonifechukwu/NELSON_IML_WORK/CNN-GradCAM/train2dof/data_sample_2022-02-21-17-36-57/robot_state.csv
position_joint1,position_joint2,position_joint3,position_joint4,position_joint5,position_joint6,position_joint7,velocity_joint1,velocity_joint2,velocity_joint3,velocity_joint4,velocity_joint5,velocity_joint6,velocity_joint7,ee_T_00,ee_T_10,ee_T_20,ee_T_30,ee_T_01,ee_T_11,ee_T_21,ee_T_31,ee_T_02,ee_T_12,ee_T_22,ee_T_32,ee_T_03,ee_T_13,ee_T_23,ee_T_33,v_x,v_y,time
0.465060575218,0.547831431565,-0.12401208367,-1.35586405219,0.0794843747749,1.89410413877,0.159151295409,-0.000346736480974,-0.000553759334861,-0.00109441147156,0.000184510407001,-0.000123754700835,0.000311339739846,-0.000872955356902,0.573824149205,0.8189646647,0.00186297178279,0.0,0.818920616462,-0.57376616335,-0.0119231132294,0.0,-0.00869586567819,0.00836755740694,-0.9999271803,0.0,0.661679040952,0.260861511377,0.303165070415,1.0,0.0,0.0,0.0
0.465058449319,0.547826420257,-0.124007280431,-1.35586655729,0.0794850868516,1.89410496233,0.159158754945,-0.000232153585027,-0.00157351898095,0.000910501702544,0.000216761604532,4.90485930604e-05,0.00045166900927,0.000418138946041,0.573828965763,0.818961279595,0.00186747881001,0.0,0.81891725799,-0.573770929456,-0.0119244278293,0.0,-0.00869430701333,0.00837205390304,-0.999927156216,0.0,0.661678175662,0.260862825149,0.303167341913,1.0,-0.0002,-0.000262857142857,0.011
0.465059892037,0.547827150642,-0.124015113602,-1.35587180219,0.0794875685904,1.89410148775,0.15915561496,0.00024708156388,0.000168366651101,-0.0013148274582,-0.00026158154462,1.75918315553e-05,-0.000177531139088,0.00107179578603,0.573831605968,0.818959448549,0.00185917359024,0.0,0.81891532585,-0.573773611191,-0.0119280798797,0.0,-0.00870203651696,0.00836737607784,-0.999927128134,0.0,0.661677542599,0.260858778442,0.303164290629,1.0,-0.00054,-0.000709714285714,0.028
0.46505945791,0.547802027435,-0.124009823997,-1.35589047607,0.0794843747568,1.8941066903,0.159155614964,0.00148240647032,-0.000506961466831,-0.00129487391693,-0.00261418981523,-0.000264892619595,-9.08164713046e-05,0.000815353138657,0.573828431919,0.818961648644,0.0018696720751,0.0,0.818917652505,-0.57377038345,-0.0119236065198,0.0,-0.00869238134508,0.00837337311217,-0.999927161912,0.0,0.661674043811,0.260859504375,0.303173471084,1.0,-0.00088,-0.00115657142857,0.045
0.465058775575,0.547723258532,-0.124004850402,-1.35596449502,0.0794857857852,1.89412162,0.159156409202,0.000973562476581,-0.00656270130964,0.000905406214139,-0.00975023816639,-8.32465493519e-05,0.00288367207021,0.000284402824029,0.573830547481,0.81896011467,0.00189215703359,0.0,0.818916316097,-0.573772312231,-0.0119225772822,0.0,-0.00867861503215,0.00839121887362,-0.999927131889,0.0,0.661661095775,0.26085542737,0.303195176552,1.0,-0.0012,-0.00157714285714,0.061
0.46505237256,0.547592054883,-0.124005248794,-1.356144348,0.079481618559,1.89414935172,0.159150309002,-0.00069646279819,-0.00536810126509,0.000588473609319,-0.010581655408,-8.73312545605e-05,-0.000114409097578,0.0012775689242,0.573839746682,0.818953697546,0.00187970886399,0.0,0.818909625703,-0.573781455471,-0.0119420764396,0.0,-0.00870163310215,0.00839231137919,-0.999926922675,0.0,0.661630852002,0.260832538548,0.303204932949,1.0,-0.00154,-0.002024,0.078
0.465031814707,0.54743229404,-0.12401080616,-1.35637063722,0.079478859947,1.89425043319,0.159141279248,-0.00172147538997,-0.0114100851029,-0.000721561140156,-0.0160206356488,0.000209444979495,0.0115493227367,-0.000853701319984,0.573865114198,0.818935844584,0.00191312916482,0.0,0.818892160842,-0.573806633324,-0.0119299356854,0.0,-0.00867225271889,0.00841298235618,-0.999927004216,0.0,0.661610142393,0.260797382223,0.30321935597,1.0,-0.0019,-0.00249714285714,0.096
0.465009103974,0.547267037446,-0.124010277548,-1.35655916916,0.0794760010608,1.89435614664,0.159136743213,-0.00604798192858,-0.0105981765337,0.000185047204661,-0.0183006186955,-0.00303211074534,0.0023833397067,-0.00040478662327,0.573889604748,0.818918505,0.00198761969267,0.0,0.81887576243,-0.573830783182,-0.0118939009136,0.0,-0.00859974376156,0.00845356244272,-0.999927288201,0.0,0.661598329604,0.260769185801,0.303255836749,1.0,-0.0022,-0.00289142857143,0.111
0.464988595845,0.547059794965,-0.124004863067,-1.35681759192,0.0794710070294,1.89448489122,0.159120461608,0.00031986810797,-0.0184363189709,-0.000433511630837,-0.0160808374577,0.000109740173723,0.00456506298278,0.000318557328846,0.573902584149,0.818909229256,0.00206035152581,0.0,0.818867356532,-0.573843388632,-0.0118644271263,0.0,-0.00853373407308,0.00849634357566,-0.999927491136,0.0,0.661574602212,0.26073874578,0.303290619627,1.0,-0.00254,-0.00333828571429,0.128
0.464953433771,0.546839336318,-0.124010514602,-1.35716231891,0.0794614205467,1.8946119633,0.159100203965,0.000759704733183,-0.0139496648295,-0.00102270643325,-0.0251129837904,-0.000183173827103,0.0045468036988,-0.00185765996276,0.573935494156,0.818886147514,0.00206708936364,0.0,0.818844289211,-0.573876194394,-0.0118697276752,0.0,-0.00853386649387,0.0085052460918,-0.999927414321,0.0,0.661537685195,0.260681262905,0.303293888258,1.0,-0.00288,-0.00378514285714,0.145
0.464913652839,0.546580317526,-0.124009732848,-1.35753938672,0.0794534003926,1.89475517034,0.159013370189,-0.00621527798343,-0.0171472919468,0.00240607535573,-0.0232430121167,2.76976158209e-05,0.00576580500074,-0.00452431117709,0.573915388657,0.818900161337,0.00209745704743,0.0,0.818858561993,-0.573855832784,-0.0118695211557,0.0,-0.00851647879728,0.00852978573373,-0.999927353533,0.0,0.661497202934,0.260622470335,0.303310251288,1.0,-0.0032,-0.00420571428571,0.161
0.464871407131,0.546286697514,-0.124007835822,-1.35800155796,0.0794367301663,1.89491935864,0.158924460923,-0.00785653836111,-0.0170228295452,0.00067325242441,-0.0284018068873,-0.00187898397596,0.0141652027923,-0.00168689846149,0.573897243159,0.818912869646,0.00210074365563,0.0,0.818871186857,-0.573837549849,-0.0118824500549,0.0,-0.00852536982048,0.00853970819491,-0.999927193076,0.0,0.66144312324,0.260553064925,0.303312364368,1.0,-0.00354,-0.00465257142857,0.178
0.464829743681,0.545977859393,-0.124008154908,-1.35852525796,0.0794072204595,1.89509595729,0.158893349616,-0.00151442479864,-0.0179696748602,0.00126043469453,-0.0350672280284,-0.00195250615245,0.0122033289761,-0.00327387401429,0.573939861128,0.818883080906,0.00206942379794,0.0,0.818840960878,-0.573880260291,-0.0119027113521,0.0,-0.00855949227205,0.00852613362611,-0.999927017405,0.0,0.661376302962,0.260465740021,0.3032999528,1.0,-0.0039,-0.00512571428571,0.196
0.464778727289,0.545652950029,-0.124010923922,-1.35908574024,0.0793214621374,1.89528049237,0.158811938191,-0.00666521873258,-0.0154633170647,-0.000148784924992,-0.0351785265383,-0.00909245812965,0.010848708953,-0.00253847464727,0.573912974712,0.818902107842,0.00199552766798,0.0,0.818859456577,-0.573854106332,-0.01189125398,0.0,-0.00859279664048,0.00845876450393,-0.999927303932,0.0,0.661314178709,0.260375439443,0.303276305647,1.0,-0.0042,-0.00552,0.211
0.464711614683,0.545241179596,-0.124013948029,-1.35980383964,0.0792939412443,1.89551395267,0.158714233492,-0.00511301220565,-0.024194651686,-0.00111411062458,-0.0396905706754,-0.00527686344643,0.0167255146449,-0.00414517379038,0.57392268847,0.818895430716,0.00194116284532,0.0,0.818851888898,-0.573863865778,-0.0119412940611,0.0,-0.0086648747546,0.00844306700909,-0.999926814604,0.0,0.661226280902,0.260260855136,0.303246348063,1.0,-0.00456,-0.00599314285714,0.229
0.464642447205,0.544762672018,-0.124014110353,-1.36059260887,0.0792727214918,1.89578469257,0.158640861337,-0.00497261811898,-0.0332456341754,-0.000169171777725,-0.0376624286539,-0.000974426499022,0.0170903903317,-0.000849824315898,0.573957636488,0.818870982762,0.00192146000255,0.0,0.818826907084,-0.573898623403,-0.0119838721729,0.0,-0.00871068964093,0.00845174082153,-0.999926343269,0.0,0.661130766592,0.26014261895,0.303233105743,1.0,-0.00494,-0.00649257142857,0.248
0.464586213234,0.544400290645,-0.12401412318,-1.36121221579,0.0792493678852,1.89600930207,0.158553676234,-0.0028707105977,-0.0256551119197,0.000720189085358,-0.0470400296057,-0.00053197628176,0.0170522871588,-0.00330985172421,0.573960672316,0.818868903901,0.00190046289971,0.0,0.818824408921,-0.573901607942,-0.0120116051418,0.0,-0.008745419599,0.00845049707156,-0.999926050633,0.0,0.661058524738,0.260048102654,0.303214134795,1.0,-0.00522,-0.00686057142857,0.262
0.464503714079,0.543804959682,-0.124014462692,-1.3621762431,0.079205277113,1.8963425877,0.158433328051,-0.00557837653153,-0.0287999399272,0.000598327469067,-0.0488619593664,0.000272834819041,0.0173492462367,-0.00274910897036,0.573971775912,0.818861173135,0.00187789523819,0.0,0.818816211065,-0.573912641493,-0.0120432276893,0.0,-0.00878415285955,0.00845028654244,-0.999925712899,0.0,0.660942809478,0.259902236119,0.303205445001,1.0,-0.00562,-0.00738628571429,0.282
0.464434818022,0.543361618802,-0.124025811752,-1.36287801732,0.079165964808,1.89658795657,0.158357020001,-0.00500267196217,-0.0290237745275,-0.00363923447768,-0.0511953697689,4.60304933317e-06,0.0223541635717,-0.0102944562638,0.574002166112,0.818839898665,0.00186562450457,0.0,0.818794781311,-0.573943086159,-0.0120493505733,0.0,-0.0087958960649,0.00844407951224,-0.999925662104,0.0,0.660864530113,0.259782933631,0.303206707837,1.0,-0.0059,-0.00775428571429,0.296
0.464353560111,0.542795439559,-0.1240236957,-1.363765184,0.0791033302712,1.89690415445,0.158231136991,-0.00445741248702,-0.0379227220655,-0.000353634737475,-0.057371695121,-0.00502734814885,0.0221093791153,-0.00365840180443,0.573996714818,0.818843738942,0.00185727625171,0.0,0.818798559274,-0.573937716808,-0.0120483798417,0.0,-0.00879994893266,0.00843662799831,-0.999925689342,0.0,0.660762227261,0.259643911892,0.303212239934,1.0,-0.00624,-0.00820114285714,0.313
0.464289818519,0.542244783501,-0.124023730995,-1.36462819703,0.0790609126399,1.89722259755,0.158113132173,-0.00667758638373,-0.0349861397665,-0.00103056245984,-0.0544980549571,-4.11220323708e-05,0.0218045290577,-0.0137985294888,0.573988961006,0.81884915092,0.00186750713933,0.0,0.81880400405,-0.57392982253,-0.0120544043273,0.0,-0.00879909011698,0.00844837999616,-0.999925597676,0.0,0.660660214977,0.25952131072,0.303218521966,1.0,-0.00656,-0.00862171428571,0.329
0.464186298918,0.541580991406,-0.124026978181,-1.36564029821,0.078996096776,1.89759979615,0.157983212495,-0.004313677369,-0.035822337197,0.000690321628011,-0.0593850334805,-0.00459718791878,0.0182783330708,-0.00786533106079,0.574008505997,0.818835400388,0.00188918415293,0.0,0.81879058461,-0.573949316887,-0.0120377365083,0.0,-0.00877279774303,0.00845677216479,-0.999925757756,0.0,0.66055067939,0.259354732677,0.303238933625,1.0,-0.00692,-0.00909485714286,0.347
0.464102797075,0.540952335078,-0.124029866824,-1.36660145473,0.0789364013905,1.89796868801,0.157856816598,-0.00317641448624,-0.043155582079,0.000488025110727,-0.0659870864653,-0.00277059927581,0.0188341568512,-0.0115062574335,0.574012843659,0.818832292612,0.00191801741198,0.0,0.818787894068,-0.573953568943,-0.0120179917998,0.0,-0.00874003511187,0.00846909414191,-0.999925940373,0.0,0.660444585337,0.259207445057,0.303257932874,1.0,-0.00724,-0.00951542857143,0.363
0.464008948555,0.540242227131,-0.124032472305,-1.36769919681,0.0788793629779,1.89837175708,0.157722064176,-0.00595751285439,-0.0417286483975,0.000365439812577,-0.0624785442291,-0.00156020695925,0.0252826603056,-0.0140398402525,0.574026723201,0.818822521639,0.00193546102348,0.0,0.818778264839,-0.573967288442,-0.0120188072632,0.0,-0.00873054684486,0.00848399331168,-0.999925896959,0.0,0.660318190002,0.259041100593,0.303272367779,1.0,-0.00758,-0.00996228571429,0.38
0.463911796599,0.539497145664,-0.124039273721,-1.36885011477,0.0788081790398,1.89881402507,0.157600076221,-0.00378107043568,-0.0455751257962,1.965091133e-05,-0.068414180996,-0.0018904376242,0.0232761622196,-0.000929113999153,0.574055904679,0.818801998706,0.00196268169947,0.0,0.818758162182,-0.573996413404,-0.0119973397434,0.0,-0.00869704094992,0.00849426892237,-0.999926101707,0.0,0.660190632126,0.258864670747,0.303289607782,1.0,-0.00792,-0.0104091428571,0.397
0.463810958755,0.538791821896,-0.12404141753,-1.36994135227,0.0787459751962,1.89923159148,0.157441706157,-0.00809849308043,-0.0451886877182,0.000478388435986,-0.0687493969681,-0.000159421281936,0.0255412168807,-0.0142730938024,0.574054050442,0.818803231372,0.00199056953164,0.0,0.818759743259,-0.5739944262,-0.0119845071433,0.0,-0.00867054429407,0.00850971690526,-0.999926200467,0.0,0.660070068433,0.258694857599,0.303304761918,1.0,-0.00824,-0.0108297142857,0.413
0.463702697175,0.538002798189,-0.124051355275,-1.37116600932,0.0786828457531,1.899700333,0.157304541558,-0.00438902724575,-0.0487777933165,0.000134039186946,-0.0686214561062,-0.00473095117662,0.0223387075504,-0.0106403352509,0.574088166153,0.818779237329,0.00202111457429,0.0,0.818736110851,-0.574028373031,-0.0119730800282,0.0,-0.00864329863348,0.00852852724333,-0.999926276088,0.0,0.659934553927,0.258504215373,0.303320115926,1.0,-0.00858,-0.0112765714286,0.43
0.4635818894,0.537046605583,-0.124059944207,-1.37267094304,0.078592885275,1.90026377633,0.157120936448,-0.00304356234649,-0.0457244396409,-0.00404469428541,-0.0790207541717,-0.00138602662023,0.037018038487,-0.00507407450072,0.574101673681,0.818769742046,0.00203093287503,0.0,0.818726770279,-0.574041864152,-0.0119649793132,0.0,-0.00863088870363,0.00853205803123,-0.999926353161,0.0,0.659761494836,0.258277103892,0.303328097608,1.0,-0.00898,-0.0118022857143,0.45
0.463503460804,0.53645284832,-0.124063454182,-1.37359124919,0.0785370491322,1.90061435273,0.15699539078,-0.00335343666297,-0.0473544465569,-0.00111196848796,-0.072603331538,-0.000786959326085,0.0376285964784,-0.00725053727429,0.57410130009,0.818769956781,0.00204988015864,0.0,0.818727255514,-0.574041434973,-0.0119523601793,0.0,-0.00860968304271,0.00854032270216,-0.999926465419,0.0,0.659657733424,0.258136630425,0.303339705684,1.0,-0.00922,-0.0121177142857,0.462
0.46337597973,0.535467064053,-0.124066659236,-1.37514786213,0.0784446902008,1.9011779657,0.156817278194,-0.00861250091112,-0.0529682500909,-0.00156944640671,-0.0853309539499,-0.00608674165449,0.0337130769855,-0.00515518570321,0.574122796699,0.818754899822,0.00204333757082,0.0,0.818712078235,-0.574062921376,-0.0119600231784,0.0,-0.0086194891959,0.00853959151849,-0.999926387182,0.0,0.65947346394,0.257902154809,0.30334347698,1.0,-0.0096,-0.0126171428571,0.481
0.463255647198,0.534577266269,-0.124056678209,-1.37659649394,0.0783687743304,1.90170630108,0.156644243202,-0.00879608921704,-0.0496431541659,0.00120964952297,-0.0959590657046,-0.000359955569371,0.0351957364298,-0.0106652569361,0.574131744923,0.818748671024,0.00202486287834,0.0,0.818705419629,-0.574071759092,-0.0119915880488,0.0,-0.00865584683581,0.00854268205647,-0.999926046715,0.0,0.65929854799,0.257691887272,0.303327259714,1.0,-0.00994,-0.013064,0.498
0.463139627343,0.533712587034,-0.124059554546,-1.37799712385,0.0782895212417,1.90220917335,0.156468008762,-0.00766248393341,-0.0484601163723,0.00162313862078,-0.0885314037244,0.000833972972902,0.029919492501,-0.0100320519491,0.574139847114,0.818743054797,0.00199826881982,0.0,0.818699376873,-0.574079894554,-0.0120146526509,0.0,-0.00868991476818,0.00853423658426,-0.999925823343,0.0,0.659130709658,0.257480123552,0.303314198266,1.0,-0.01026,-0.0134845714286,0.514
0.463011575705,0.532777097132,-0.124064766329,-1.37951582643,0.0782060498899,1.90279819439,0.156274583215,-0.0044648916925,-0.0532465899557,-0.00114681956603,-0.0913037309063,-0.00544931796219,0.0323245417156,-0.0100860808297,0.574150866533,0.818735313619,0.0020038944193,0.0,0.818691673474,-0.574090853644,-0.012015924749,0.0,-0.00868761172347,0.00853968969794,-0.999925796798,0.0,0.658957944453,0.257251150889,0.303302255522,1.0,-0.0106,-0.0139314285714,0.531
0.462875318548,0.531780751961,-0.12406216577,-1.3810776314,0.0781085451012,1.90336032528,0.156076829013,-0.0111710451519,-0.0585365799647,-0.00026409472286,-0.0929304971758,-0.000724111676772,0.0338949658742,-0.00771985173874,0.574157574444,0.81873061886,0.00200008774544,0.0,0.818686900313,-0.574097548702,-0.0120212616485,0.0,-0.00869409690541,0.00853970848237,-0.999925740272,0.0,0.658772055928,0.257012953407,0.303309862256,1.0,-0.01094,-0.0143782857143,0.548
0.462764240216,0.530959972658,-0.124062333041,-1.38242064611,0.0780365273518,1.90383339995,0.155918100019,-0.00759687642419,-0.0602274231192,9.54858195474e-05,-0.0972477716128,-0.00278930481886,0.0332553658402,-0.0124147575603,0.574172390326,0.818720319147,0.00196267780525,0.0,0.818675969796,-0.574112384002,-0.0120571105858,0.0,-0.00874477215696,0.00852982138657,-0.99992538277,0.0,0.658607182576,0.256811494063,0.303290094441,1.0,-0.01122,-0.0147462857143,0.562
0.46260518628,0.529801991979,-0.124064221615,-1.38426307829,0.0779132064679,1.9045007065,0.155663229816,-0.0131135346873,-0.0591452606696,0.000370905908819,-0.0995655122763,-0.00475386940583,0.0357073263179,-0.0174614007811,0.574162138062,0.818727561109,0.00194082374383,0.0,0.818682992342,-0.574102292007,-0.0120608151898,0.0,-0.00876045911158,0.0085139467462,-0.999925380749,0.0,0.658388436667,0.256527508244,0.303286839654,1.0,-0.0116,-0.0152457142857,0.581
0.462470930995,0.528734764565,-0.124071256841,-1.38594451138,0.0778041532009,1.90513380587,0.155441195221,-0.0099603509585,-0.0673908990025,0.000151693875093,-0.101505015451,-0.00386766195764,0.0434035456863,-0.015322541673,0.574153650679,0.818733450094,0.00196723434125,0.0,0.818689296812,-0.574093760344,-0.0120389584902,0.0,-0.00872748909101,0.00852292975985,-0.999925592533,0.0,0.658181388602,0.256257785344,0.303306052022,1.0,-0.01196,-0.0157188571429,0.599
0.462326306928,0.527597553275,-0.124067742401,-1.38766848088,0.077701355543,1.9058004733,0.155202734128,-0.0110840444124,-0.0709271235514,0.000132520019794,-0.105153576122,-0.010781748388,0.0390591084918,-0.0167748462527,0.574143599317,0.818740372009,0.00201928373911,0.0,0.818696909242,-0.574083498904,-0.0120105780114,0.0,-0.0086744746454,0.00854914244294,-0.999925830076,0.0,0.657992783227,0.256020538218,0.303330913908,1.0,-0.01228,-0.0161394285714,0.615
0.462176890444,0.526443060505,-0.124074336903,-1.389459203,0.0775903083508,1.90647980136,0.154949079822,-0.00764653179327,-0.0654337315663,-4.2487922171e-05,-0.109118510849,-0.0061468652908,0.0353339525633,-0.0162343173174,0.574129790335,0.818749973346,0.00205229049624,0.0,0.818706995031,-0.574069605684,-0.0119871188666,0.0,-0.00863646193524,0.00856255148236,-0.999926044384,0.0,0.657784736569,0.25574912893,0.303350137206,1.0,-0.01262,-0.0165862857143,0.632
0.462023899469,0.525256139505,-0.12407451731,-1.39128654121,0.0774748846216,1.9071339423,0.154710377979,-0.00421612089201,-0.0688459738355,-0.000398739331014,-0.103482876663,-0.00861380268374,0.04016422424,-0.0112453896761,0.574126871809,0.818751994577,0.00206236384161,0.0,0.818709134186,-0.574066631965,-0.0119834287849,0.0,-0.00862768806482,0.00856864957003,-0.999926067889,0.0,0.657563039313,0.255472829322,0.303372030775,1.0,-0.01296,-0.0170331428571,0.649
0.461877284794,0.524152659301,-0.124085819398,-1.39306407006,0.0773479286259,1.9077712799,0.154460430832,-0.00945437574102,-0.0700710252299,-0.000734541435262,-0.112050882602,-0.0112856072825,0.0371376653552,-0.0212035020053,0.574111395075,0.818762958575,0.0020175758511,0.0,0.8187196782,-0.574051507654,-0.0119875764685,0.0,-0.00865695778962,0.0085341976112,-0.999926109547,0.0,0.657348448059,0.255196110021,0.30335756928,1.0,-0.01328,-0.0174537142857,0.665
0.461714005586,0.522944931265,-0.124087130188,-1.39498903004,0.077248435758,1.90849985091,0.154200761948,-0.00939667863499,-0.0791188814378,-2.82369249371e-05,-0.117871254993,-0.00326284962513,0.0430908534938,-0.0188057503043,0.574110053579,0.81876385669,0.00203476265735,0.0,0.818720638998,-0.574049934482,-0.0119972872097,0.0,-0.00865505641211,0.00855383007351,-0.999925958254,0.0,0.657120033102,0.254908719934,0.303353582275,1.0,-0.01362,-0.0179005714286,0.682
0.461541996586,0.521628591645,-0.124091889129,-1.39705748486,0.0771157054719,1.90930674029,0.153928953694,-0.0115727250547,-0.0755060832427,-0.000409297389121,-0.11749912346,-0.00204273535967,0.0414974680876,-0.0138397971828,0.57410679256,0.818766045273,0.002073823902,0.0,0.818723451995,-0.574046624456,-0.0119636535108,0.0,-0.00860512733678,0.00856646793932,-0.999926280988,0.0,0.656880461929,0.254597975586,0.303364115528,1.0,-0.01398,-0.0183737142857,0.7
0.461386154004,0.520432088362,-0.124096078479,-1.39898052562,0.0770005487102,1.91001450183,0.153659828807,-0.0109683665059,-0.0802051156121,0.000783228387248,-0.120132673009,-0.00484431463893,0.0398283167604,-0.0165197069759,0.574088569294,0.81877886584,0.00205678424352,0.0,0.81873601111,-0.574028435445,-0.011976907503,0.0,-0.0086259521765,0.00855993382545,-0.999926157515,0.0,0.656646325632,0.25431005099,0.303350742238,1.0,-0.0143,-0.0187942857143,0.716
0.461205233395,0.519033615402,-0.124104868365,-1.40116942152,0.0768466251606,1.91079133945,0.153369392404,-0.0145786536485,-0.0766357064774,-0.00140727518116,-0.127081234492,-0.0110207476225,0.0410082057625,-0.0194250148625,0.574079654775,0.818785176647,0.00203257894431,0.0,0.818742151895,-0.574019767514,-0.0119725567071,0.0,-0.00863637774231,0.00853752365374,-0.999926259116,0.0,0.656377311723,0.253972609637,0.303358338695,1.0,-0.01466,-0.0192674285714,0.734
0.461029662683,0.517668224678,-0.124105689189,-1.40328991031,0.0767086768516,1.91155727327,0.153088557578,-0.0141630305913,-0.078929392613,-0.000265701585855,-0.122677746766,-0.00880352860962,0.04127187014,-0.0127981093037,0.574069062455,0.818792591459,0.00203730343142,0.0,0.818749651013,-0.574009179213,-0.011967374234,0.0,-0.00862953263679,0.00853830516888,-0.999926311541,0.0,0.656116590495,0.253652881218,0.30337365208,1.0,-0.015,-0.0197142857143,0.751
0.460860759881,0.516408514288,-0.124108886874,-1.40529680967,0.0765806096412,1.91230620605,0.152793375361,-0.0104792787337,-0.0779997702865,2.24295423578e-05,-0.129703549874,-0.0147356227789,0.0420857484027,-0.0253512063282,0.574039548634,0.818813292053,0.00203378055055,0.0,0.818770342199,-0.573979719915,-0.0119647299993,0.0,-0.00862969731693,0.00853359170377,-0.999926350356,0.0,0.655874167822,0.25334870053,0.303367143216,1.0,-0.01532,-0.0201348571429,0.767
0.460679626517,0.515106563532,-0.124112195894,-1.4073605559,0.0764597146305,1.91307943887,0.152523741127,-0.0125698128279,-0.0711273718023,-0.000109933411334,-0.13193872366,-0.0137209753462,0.0491714583966,-0.00989269191729,0.57404579444,0.818808887819,0.00204401939803,0.0,0.818766019646,-0.573985870931,-0.0119654480152,0.0,-0.00862434297255,0.00854245320702,-0.999926320886,0.0,0.655626245836,0.25303308043,0.303364955512,1.0,-0.01564,-0.0205554285714,0.783
0.460496760455,0.513686359718,-0.124117445112,-1.40962779075,0.0763263846026,1.91386114057,0.152219528751,-0.0135085803008,-0.0870257471109,-0.000564688978842,-0.131109321761,-0.00601974131328,0.0422928991447,-0.0105103134022,0.574033112334,0.818817908823,0.0019912398883,0.0,0.818774201735,-0.573973264439,-0.012010211667,0.0,-0.00869142527958,0.00852479916179,-0.999925890717,0.0,0.655335514629,0.252691296907,0.30334919772,1.0,-0.01598,-0.0210022857143,0.8
0.460314300293,0.512376992423,-0.1241184472,-1.41177386239,0.0761967527749,1.91462176994,0.15190706522,-0.00986387737253,-0.0799238154267,-0.000453462803367,-0.134805172954,-0.00901880403438,0.0509068320224,-0.024136322319,0.574004788597,0.818837918878,0.00192670084234,0.0,0.818793258258,-0.573945113477,-0.0120562784264,0.0,-0.00876648618451,0.00849809482447,-0.999925462774,0.0,0.655064367438,0.25236439294,0.303311107478,1.0,-0.0163,-0.0214228571429,0.816
0.460103332962,0.510847167345,-0.124120719466,-1.41421117456,0.0760525168189,1.91554829355,0.151567252004,-0.00895348634811,-0.0820884735483,-0.000623095023673,-0.138220549085,-0.010295321263,0.0567996446764,-0.0235057042628,0.573989628029,0.818848508319,0.00194274037787,0.0,0.818804011563,-0.573929840951,-0.0120530168388,0.0,-0.00875476673951,0.00850919409511,-0.99992547106,0.0,0.654770172276,0.251995301511,0.303302743647,1.0,-0.01666,-0.021896,0.834
0.459912380486,0.509437566516,-0.124123779046,-1.41643770525,0.0759070093819,1.91637532163,0.151254603474,-0.00951147533498,-0.0897862423911,-0.000761428029313,-0.136244796407,-0.00726934381045,0.0523785357266,-0.0181202520148,0.57396880415,0.818863100362,0.0019446414245,0.0,0.818818688295,-0.573909069654,-0.0120450143016,0.0,-0.00874733881755,0.00850593496068,-0.999925563797,0.0,0.654497481091,0.25165546383,0.30330139832,1.0,-0.01698,-0.0223165714286,0.85
0.459711388636,0.50801737856,-0.12412236274,-1.41867813018,0.0757565129208,1.91717419138,0.150948009953,-0.0160467252486,-0.0898297483597,0.000896547040777,-0.143810262944,-0.00913951188954,0.0486363132797,-0.0167095699121,0.573956670538,0.818871663125,0.00192004632818,0.0,0.818826955049,-0.573897068576,-0.0120548441288,0.0,-0.00876963014375,0.00849130737246,-0.999925492867,0.0,0.654217025817,0.251307576278,0.303297797561,1.0,-0.0173,-0.0227371428571,0.866
0.459489401413,0.506380872122,-0.124125559057,-1.42124860282,0.0755940127611,1.91812356458,0.15058324432,-0.0133197188529,-0.0956778128645,-8.52756138696e-05,-0.141851329422,-0.00474165712286,0.059547941391,-0.0224069749383,0.573931124444,0.818889546499,0.00192923031928,0.0,0.81884496508,-0.573871492328,-0.0120490812032,0.0,-0.00875990501516,0.00849524681672,-0.999925544651,0.0,0.653899316766,0.250915246255,0.303301077396,1.0,-0.01766,-0.0232102857143,0.884
0.459261428544,0.504769878537,-0.124134417828,-1.42371829556,0.0754380462794,1.91908769905,0.150250866714,-0.0110083341367,-0.0974243716001,-0.000620790579993,-0.152109203312,-0.0096119097556,0.0632691286699,-0.0223867721753,0.573937448851,0.818884913704,0.00201241527763,0.0,0.818841537795,-0.573877577128,-0.0119920537212,0.0,-0.00866539870874,0.00853070218233,-0.99992606626,0.0,0.65360939825,0.250529385552,0.303335287234,1.0,-0.018,-0.0236571428571,0.901
0.459043255848,0.503199272765,-0.124137660715,-1.42605243033,0.0752924446773,1.91996583401,0.149929331681,-0.0178933946756,-0.0970685919943,-0.00066132026541,-0.144506388553,-0.0121526720277,0.0564378895964,-0.0238705078851,0.573935692315,0.818885902064,0.00210888303119,0.0,0.818843813592,-0.573875448556,-0.0119383997456,0.0,-0.00856611597365,0.0085788847169,-0.999926509497,0.0,0.653328490141,0.250164742114,0.30339750124,1.0,-0.01832,-0.0240777142857,0.917
0.458820469827,0.501493574359,-0.12414472717,-1.42858287337,0.0751238921509,1.92087508204,0.149571986251,-0.0111959850738,-0.105276115283,0.000757793121466,-0.153834243379,-0.0045850754333,0.05600890701,-0.0245183684031,0.573914092934,0.818900866834,0.00217511617992,0.0,0.818859718773,-0.573853660972,-0.0118946904605,0.0,-0.00849253745363,0.00860781123681,-0.999926888524,0.0,0.653012336386,0.249771932036,0.303462769356,1.0,-0.01866,-0.0245245714286,0.934
0.458575264152,0.499782495686,-0.124147479689,-1.43117032531,0.0749590227686,1.9217954376,0.149214347294,-0.012799048965,-0.10051728475,-0.002482064129,-0.151616807235,-0.0128846336855,0.0549304324872,-0.0265088062643,0.573911039463,0.81890290945,0.00221146526717,0.0,0.818862205943,-0.573850433287,-0.011879174857,0.0,-0.00845900341248,0.00862864104524,-0.999926993242,0.0,0.652688086483,0.249361775472,0.303504877673,1.0,-0.019,-0.0249714285714,0.951
0.458336270583,0.498203708084,-0.124150174309,-1.43364910272,0.0748119695618,1.92272564893,0.148849379568,-0.0153105097564,-0.0956182783174,-0.000451127746371,-0.157488100304,-0.00939046762691,0.0654519766539,-0.0218362609909,0.573896310571,0.818913157788,0.00223866369063,0.0,0.818872741653,-0.573835530052,-0.011872840012,0.0,-0.00843836260521,0.00864712623682,-0.999927007958,0.0,0.65238492182,0.248970402875,0.303506810797,1.0,-0.01932,-0.025392,0.967
0.458058473245,0.496405569951,-0.124147279956,-1.43648492353,0.0746356937696,1.9237323465,0.14842886502,-0.0134940021688,-0.106720922704,-0.0033290497046,-0.161727257221,-0.0137634324809,0.0581913974128,-0.0250594182871,0.573873079041,0.818929506335,0.00221352839479,0.0,0.818888639137,-0.573812275044,-0.0119002774193,0.0,-0.00847550172779,0.00864204848515,-0.999926737751,0.0,0.652025210346,0.248518267367,0.303497528655,1.0,-0.01968,-0.0258651428571,0.985
0.457790408846,0.494719566682,-0.124150675567,-1.43922396397,0.0744670829889,1.92467735256,0.148044403382,-0.015380894317,-0.106574741682,-0.0012028527042,-0.159221914704,-0.00975707826368,0.0611146637552,-0.020438802819,0.573872482831,0.818930166093,0.00212212475838,0.0,0.818887946574,-0.573811888129,-0.0119664070827,0.0,-0.00858211655762,0.00860513980445,-0.999926146695,0.0,0.651670852713,0.248076049716,0.303450440474,1.0,-0.0203965714286,-0.026806922449,1.002
0.457523432852,0.492892489338,-0.124201961506,-1.4420907612,0.0742915780288,1.92572937852,0.14764380482,-0.0196430107666,-0.12384662115,-0.00939735764999,-0.192053853881,-0.0035997106514,0.0711049741801,-0.0329902368292,0.573888936078,0.818918613701,0.0021307470065,0.0,0.818876617055,-0.573828414625,-0.011949205423,0.0,-0.00856290842563,0.00860250131246,-0.999926334072,0.0,0.651346161529,0.247633852774,0.303457404407,1.0,-0.0266451428571,-0.0350193306122,1.017
0.457194462631,0.490391594063,-0.124244672516,-1.44602620808,0.0740750278587,1.92720259361,0.147051837357,-0.0230206219692,-0.154509360216,-0.00112902444119,-0.249514725455,-0.0155915238087,0.091350341437,-0.0427289494867,0.573851036367,0.818945099985,0.0021582799394,0.0,0.818903395491,-0.573790339626,-0.0119424413876,0.0,-0.0085419681362,0.0086207711144,-0.999926355831,0.0,0.650825122578,0.24699148949,0.303446551073,1.0,-0.0341434285714,-0.0448742204082,1.035
0.456712499548,0.487292729418,-0.124266866547,-1.45098053104,0.0737861041315,1.92901769101,0.146319950827,-0.0317728099715,-0.195171506901,-0.00152146986387,-0.307283420246,-0.0234294788485,0.107360031017,-0.0471280158276,0.573830926512,0.818959270979,0.00212771179659,0.0,0.818916956917,-0.573770146,-0.0119826597444,0.0,-0.00859265821577,0.00861860594774,-0.999925940186,0.0,0.650199466588,0.246195195661,0.303400537931,1.0,-0.0412251428571,-0.0541816163265,1.052
0.456187830518,0.483786052714,-0.124366755131,-1.45642406936,0.0734470844113,1.93103580192,0.145499205626,-0.0353862573625,-0.22298999082,-0.0106400612768,-0.355373005694,-0.0209033395301,0.125855635352,-0.0491079640404,0.573837619677,0.818954459228,0.00217413334908,0.0,0.818913103357,-0.573777003704,-0.0119174691602,0.0,-0.00851256068597,0.00861928437142,-0.999926619431,0.0,0.649531327503,0.245279143659,0.303422162324,1.0,-0.0478902857143,-0.0629415183673,1.068
0.455504321367,0.479478800967,-0.124450992483,-1.4632038585,0.0730492909165,1.93338742953,0.144473169085,-0.0477733686142,-0.267837244988,-0.00296875098699,-0.422198432143,-0.0195167730987,0.14694566459,-0.0621602721574,0.573841789914,0.818951799755,0.00207285487326,0.0,0.81890887781,-0.573781344779,-0.0119985469669,0.0,-0.00863703246594,0.00858291217364,-0.999925864896,0.0,0.648654909576,0.24413561011,0.30338828342,1.0,-0.054972,-0.0722489142857,1.085
0.45460149038,0.473922582568,-0.124553275147,-1.47174819381,0.0725331298551,1.93647896098,0.143246713149,-0.0569205024538,-0.308714210898,-0.00201705183588,-0.468252160466,-0.0197295680682,0.169757998844,-0.0654558358926,0.573924595144,0.818893565215,0.00215286754496,0.0,0.818851705759,-0.573863826184,-0.0119557464971,0.0,-0.00855519578124,0.00862474228249,-0.9999262085,0.0,0.647577806533,0.242678991152,0.303438477121,1.0,-0.0628868571429,-0.0826512979592,1.104
0.453793771891,0.469057313261,-0.12460041989,-1.47918479334,0.0720982444991,1.93918081919,0.142117587056,-0.0523995666368,-0.344739982916,-0.001894220992,-0.49616678209,-0.0269157937747,0.198115405074,-0.0839386724249,0.573933857343,0.818886740458,0.0022760930773,0.0,0.818846194245,-0.573872288613,-0.011927004389,0.0,-0.00846084190162,0.00870924946968,-0.999926278847,0.0,0.646628075383,0.241426424619,0.303496179289,1.0,-0.0691354285714,-0.0908637061224,1.119
0.452718421795,0.462631790754,-0.1246482644,-1.48903093972,0.0714552537364,1.94274522397,0.140539811038,-0.0596017921847,-0.361480632274,-0.00194578005359,-0.571966074009,-0.0378502481745,0.201068921138,-0.0857371723677,0.573846219222,0.818947852582,0.00238292632707,0.0,0.818908775015,-0.57378432032,-0.0118624980038,0.0,-0.00834764222149,0.00875881754384,-0.999926797313,0.0,0.645354134705,0.239763428174,0.303551250222,1.0,-0.0766337142857,-0.100718595918,1.137
0.451555569021,0.456012635713,-0.124710618016,-1.49934477247,0.0707829777629,1.94622920453,0.139000994419,-0.0715137891726,-0.401026018461,-0.00735264305619,-0.624474263566,-0.0388253745493,0.209358122562,-0.0908541860729,0.573877772714,0.818926263663,0.00219626250611,0.0,0.818884402756,-0.573816257015,-0.0119993753718,0.0,-0.00856651744086,0.00868482713278,-0.99992559151,0.0,0.643959417718,0.237976388977,0.3035009077,1.0,-0.0837154285714,-0.110025991837,1.154
0.450389065302,0.449164688174,-0.124812198455,-1.50950323507,0.0700702581348,1.95001341669,0.137354128659,-0.0744291390412,-0.444368953527,-0.0053180409574,-0.652186943314,-0.0429700984873,0.252247192628,-0.104507661072,0.573826816702,0.818960952254,0.00254755157578,0.0,0.818924556111,-0.573764880956,-0.0117123729718,0.0,-0.00813043703164,0.00880729580954,-0.999928161187,0.0,0.642663045024,0.236201020569,0.303696796109,1.0,-0.0903805714286,-0.118785893878,1.17
0.449001268953,0.441525944947,-0.12483491572,-1.52117838966,0.0693270629993,1.95411232711,0.135569690215,-0.0855788035311,-0.456867808878,-0.00170759874937,-0.717390345313,-0.052488161168,0.242888454655,-0.114272987906,0.573838929658,0.818952261191,0.00261220218349,0.0,0.818916191997,-0.573776200761,-0.0117426073268,0.0,-0.00811797167418,0.00887771080805,-0.999927639775,0.0,0.641080708919,0.234182718832,0.303726300951,1.0,-0.0974622857143,-0.128093289796,1.187
0.447405608114,0.432824220285,-0.12488694559,-1.53435749748,0.0684384487683,1.95870142739,0.1334089886,-0.0924374599426,-0.510737837076,-0.000337237252423,-0.737409341237,-0.0469003425713,0.270096108472,-0.122228939091,0.573747864097,0.819015794353,0.00269517078478,0.0,0.81898064661,-0.573684677211,-0.011719151552,0.0,-0.00805214706459,0.00893130283928,-0.999927694765,0.0,0.639274770357,0.231866820681,0.303793671854,1.0,-0.104960571429,-0.137948179592,1.205
0.445956986123,0.425245821967,-0.124919627926,-1.54593437597,0.0676166384136,1.96275548811,0.131517311321,-0.0986419268785,-0.514638075591,-0.00355659694689,-0.783980430106,-0.0631567803223,0.278146724059,-0.129440577463,0.573678147255,0.819064576049,0.00271118500721,0.0,0.819029753546,-0.573615043037,-0.011695815914,0.0,-0.00802460649711,0.00893034712932,-0.999927924698,0.0,0.63767569556,0.229809767939,0.303795206523,1.0,-0.111209142857,-0.146160587755,1.22
0.44414916858,0.416129933134,-0.125037438416,-1.55975398182,0.0666158512892,1.96749328743,0.129265153197,-0.108014213333,-0.549792489787,-0.00675537618629,-0.823092993521,-0.0636207058662,0.291803614044,-0.130818816383,0.57370224693,0.81904777829,0.00268619557323,0.0,0.819013027283,-0.573639666887,-0.011659357435,0.0,-0.00800881666415,0.00888919987117,-0.999928417929,0.0,0.635752389819,0.22725606371,0.30381878521,1.0,-0.118290857143,-0.155467983673,1.237
0.442211645547,0.406561154836,-0.125108145038,-1.57427204318,0.065651543687,1.97249124329,0.126832024412,-0.117179652776,-0.575105455767,-0.00192967171099,-0.873473996794,-0.0566079647659,0.285884599576,-0.140570886511,0.573676711343,0.819065507661,0.00273348196295,0.0,0.819030834459,-0.573613372656,-0.0117020432728,0.0,-0.00801693255681,0.00895216807077,-0.999927791133,0.0,0.633691812837,0.22460365899,0.303816983727,1.0,-0.125372571429,-0.164775379592,1.254
0.440163311621,0.39706697152,-0.125218457871,-1.588459291,0.0646749412356,1.97731349522,0.124425366632,-0.124600092097,-0.602711887141,-0.00954233409543,-0.88839941306,-0.0603434063016,0.311925035648,-0.152831883446,0.573758700146,0.819007739666,0.00283253869089,0.0,0.818974151208,-0.573694779694,-0.0116784547793,0.0,-0.00793988505871,0.00902056467783,-0.999927791212,0.0,0.631677495464,0.221891302079,0.303884772292,1.0,-0.132037714286,-0.173535281633,1.27
0.437873966102,0.386663165433,-0.125351431421,-1.60426723209,0.0634505656832,1.98261983451,0.121724450667,-0.129145261135,-0.61392650858,-0.00449960455657,-0.954718876045,-0.0745746505982,0.313350685764,-0.16245357335,0.573784411717,0.818990287411,0.00266550139796,0.0,0.818955135368,-0.573721746864,-0.0116871866013,0.0,-0.00804259104015,0.00888902268809,-0.999928148421,0.0,0.629381290223,0.218843830908,0.303812222215,1.0,-0.139119428571,-0.182842677551,1.287
0.435405386714,0.375701140408,-0.125456690003,-1.62048489936,0.0622765081977,1.98802528102,0.118787992339,-0.149740064762,-0.647720831243,-0.00392693108334,-0.964326961222,-0.0662566356894,0.325514495333,-0.178056865811,0.573755578147,0.819010129565,0.00277328618351,0.0,0.818976192406,-0.573692337099,-0.011655278925,0.0,-0.00795493162748,0.00895870913999,-0.999928227721,0.0,0.626993505039,0.21568803578,0.303896261313,1.0,-0.146201142857,-0.192150073469,1.304
0.432866418423,0.365097064802,-0.125577776411,-1.63626248997,0.0610773919786,1.99325284788,0.116015450467,-0.161818676789,-0.681657188703,-0.0154167740125,-0.978459724666,-0.0779758228572,0.331757027265,-0.177252232744,0.573884104687,0.818920085806,0.00277026220504,0.0,0.818886280484,-0.573821050205,-0.0116365320579,0.0,-0.00793990793134,0.00894672274692,-0.999928454448,0.0,0.624651674026,0.212524266471,0.303906959033,1.0,-0.152866285714,-0.20090997551,1.32
0.430006438377,0.353404605366,-0.125709927687,-1.65360210671,0.0597557849337,1.9989282156,0.112772140109,-0.17724923537,-0.6930226464,-0.00791886920425,-1.04366072004,-0.0726996910416,0.335274712422,-0.201020182816,0.573896176579,0.818911686322,0.00275234720651,0.0,0.818877629403,-0.573833160173,-0.0116481436167,0.0,-0.0079595660826,0.00893883274187,-0.999928368723,0.0,0.622025839341,0.209018154173,0.303905018244,1.0,-0.159948,-0.210217371429,1.337
0.426962397957,0.341215836336,-0.125846965874,-1.67137357648,0.0584218787219,2.00472002602,0.109437820717,-0.184868107843,-0.736581569435,-0.00904321789073,-1.05082270353,-0.0770639813352,0.351881720562,-0.195917564519,0.573975278811,0.818855700685,0.00290992611545,0.0,0.81882346356,-0.573911467626,-0.0115978339765,0.0,-0.0078270631949,0.00903975981422,-0.999928507357,0.0,0.619299341505,0.205378525737,0.303997908709,1.0,-0.167029714286,-0.219524767347,1.354
0.423951295528,0.329539660034,-0.125909837854,-1.68860146872,0.0570439679465,2.01019911897,0.106087433964,-0.192507570019,-0.747769113224,-0.00310606642039,-1.08282546752,-0.0904898901457,0.347635513245,-0.216671850824,0.573881389119,0.818921787255,0.00282921959682,0.0,0.818888375613,-0.573817714062,-0.0116535923586,0.0,-0.00792007684664,0.00900476818056,-0.999928090681,0.0,0.616404898076,0.201631062835,0.30395792823,1.0,-0.174111428571,-0.228832163265,1.371
0.420368768529,0.315887148082,-0.125926836633,-1.70850109763,0.0553799267507,2.01648284117,0.102198598297,-0.201621517538,-0.78194784963,0.000924857738961,-1.12865872815,-0.0852559894006,0.346809126203,-0.222032146669,0.573773431507,0.818997613312,0.00277589382424,0.0,0.818963454183,-0.57370989117,-0.0116862478055,0.0,-0.00797860493035,0.00897878696902,-0.999927859022,0.0,0.613358192922,0.197767500006,0.303946977072,1.0,-0.181193142857,-0.238139559184,1.388
0.416760364131,0.302584175149,-0.126027546765,-1.7276096042,0.0537684024245,2.0225122302,0.0982205843455,-0.216790706088,-0.797540432476,-0.00575650111207,-1.13807864057,-0.111707255963,0.345554824055,-0.233069865872,0.573622171539,0.819103146119,0.00289607295083,0.0,0.819070895804,-0.573558643381,-0.0115800324197,0.0,-0.00782432395683,0.00901482597258,-0.999928753896,0.0,0.610257543672,0.193720551499,0.3040250345,1.0,-0.188274857143,-0.247446955102,1.405
0.413093039455,0.28971056453,-0.126161670575,-1.74602209707,0.0522925793496,2.02811720571,0.0944615581641,-0.229854643594,-0.802814985456,-0.00357698701306,-1.15133897131,-0.0834500038147,0.362651774128,-0.237151555016,0.573719326803,0.819034921299,0.00294595447502,0.0,0.819002693224,-0.573654899242,-0.0116358054448,0.0,-0.00784032072968,0.0090886060996,-0.99992796071,0.0,0.60720439751,0.189713247111,0.30407406784,1.0,-0.19494,-0.256206857143,1.421
0.408732014028,0.274982775555,-0.126319931749,-1.76717810925,0.0504814926225,2.0344093466,0.0899303664094,-0.253106267452,-0.821807215944,-0.0121064178243,-1.17142785466,-0.0973543353011,0.349464254068,-0.254635964469,0.573702787393,0.819047078488,0.00278241961807,0.0,0.819012361307,-0.573638510552,-0.0117625737152,0.0,-0.00803815335082,0.00902723119102,-0.999926945925,0.0,0.603616944742,0.185030461978,0.304022812554,1.0,-0.202438285714,-0.266061746939,1.439
0.404299978211,0.260642253109,-0.126515140316,-1.78749198976,0.0486843162625,2.04051162014,0.0854844992424,-0.266656566302,-0.840161565608,-0.0173997237834,-1.2046462869,-0.106319471323,0.34202885738,-0.272740300116,0.573785460493,0.818989052107,0.00281509448898,0.0,0.81895506946,-0.573721406872,-0.0117084756979,0.0,-0.00797418697052,0.00902376275811,-0.999927489395,0.0,0.60016296613,0.180400292835,0.304048933821,1.0,-0.20952,-0.275369142857,1.456
0.399858795623,0.246803609942,-0.126662202952,-1.80687068329,0.0469397304785,2.04619571304,0.0811264952406,-0.280927945474,-0.873352841217,-0.0107331024704,-1.22103875782,-0.113892035252,0.357223413355,-0.287142735769,0.57386612513,0.818932322065,0.00287562282895,0.0,0.818899241758,-0.573801985045,-0.0116645063259,0.0,-0.00790255531238,0.00904888462006,-0.999927831049,0.0,0.596800685239,0.175909731678,0.304107173264,1.0,-0.216185142857,-0.284129044898,1.472
0.395269718743,0.232675829051,-0.126785901354,-1.82648487956,0.045201312749,2.05190666116,0.0765344372175,-0.288864285897,-0.892811955384,-0.00524259432835,-1.21949064895,-0.106845515229,0.372649078794,-0.284135016955,0.573832528729,0.818955277195,0.00303806324156,0.0,0.818924023501,-0.573767523979,-0.011619770317,0.0,-0.00777307985298,0.00915592143754,-0.999927871565,0.0,0.593327455795,0.171369567555,0.304183007755,1.0,-0.222850285714,-0.292888946939,1.488
0.38983939593,0.216510731096,-0.126898320859,-1.84895612028,0.0430510558852,2.05825948389,0.071122880838,-0.314698876522,-0.921685282866,-0.00541722043685,-1.23375355729,-0.125999294003,0.368633653583,-0.306527937174,0.573684441774,0.819059198419,0.00298959071648,0.0,0.819027504588,-0.573619837044,-0.0116179248803,0.0,-0.00780102989417,0.00911375524183,-0.99992803911,0.0,0.589245681098,0.166106575907,0.304172572954,1.0,-0.230348571429,-0.302743836735,1.506
0.384976065803,0.202826987899,-0.127035370246,-1.86795632151,0.0412904739304,2.06343081826,0.0664524080752,-0.32941570725,-0.911835844662,-0.00213651831905,-1.28229447998,-0.119797349198,0.339089050649,-0.314070545081,0.573723098377,0.819032614381,0.00285129287202,0.0,0.818998344515,-0.573658066384,-0.0117847976344,0.0,-0.0080166208056,0.00909658989202,-0.99992649022,0.0,0.585725056287,0.161520199354,0.304100051178,1.0,-0.236597142857,-0.310956244898,1.521
0.378423062089,0.185005685616,-0.127298700299,-1.8921911232,0.0389329665619,2.07001154231,0.0602225404184,-0.357504960781,-0.928838355524,-0.0143109019476,-1.28429563574,-0.121561926993,0.33921033384,-0.33067621138,0.573814210561,0.818968549881,0.00291769854166,0.0,0.818935259106,-0.5737490639,-0.0117388231282,0.0,-0.00793985301438,0.00912548543131,-0.999926839449,0.0,0.581208059433,0.155473893075,0.304151133499,1.0,-0.244512,-0.321358628571,1.54
0.372530412046,0.16969127575,-0.127504958704,-1.91274308414,0.036920699328,2.07545463327,0.0547642391248,-0.379131389856,-0.961448338582,-0.00567987935305,-1.30759947065,-0.132876515707,0.331955425057,-0.351505930109,0.573960411249,0.81886561337,0.00304966566975,0.0,0.818833916667,-0.573894652048,-0.0116915425739,0.0,-0.00782376599436,0.009207829548,-0.999926999616,0.0,0.577308281744,0.150222773096,0.304231020655,1.0,-0.251177142857,-0.330118530612,1.556
0.36611475327,0.153188870269,-0.127681903451,-1.93481383923,0.0346660966615,2.08114065512,0.048633426225,-0.376829701635,-0.97189490589,-0.0123611310381,-1.31084801347,-0.132880084774,0.328270732861,-0.364650877307,0.57385041091,0.818942564208,0.00308696109177,0.0,0.818911316156,-0.573784498964,-0.0116769825813,0.0,-0.00779167764792,0.00922896630925,-0.99992705531,0.0,0.572999776704,0.144612134003,0.304260620234,1.0,-0.258258857143,-0.339425926531,1.573
0.359710008023,0.137388092418,-0.127873537934,-1.95580434688,0.0324798173244,2.08638750156,0.0427093329261,-0.407604388331,-1.00825109117,-0.0120969077533,-1.30454445967,-0.125888983083,0.338107337692,-0.379988241549,0.573875533837,0.818924985299,0.00308010033133,0.0,0.818893512878,-0.573809481517,-0.0116978796575,0.0,-0.0078124455662,0.00923557892706,-0.999926832211,0.0,0.568825313192,0.1391512223,0.304263962766,1.0,-0.264924,-0.348185828571,1.589
0.351632186829,0.118265297419,-0.128161621347,-1.98084175971,0.0297967935995,2.09245912598,0.0352648065792,-0.435138315183,-1.02677941915,-0.0244708981682,-1.31093922262,-0.156285426913,0.328216341267,-0.395329272607,0.573914272045,0.818897579487,0.00314794465788,0.0,0.81886718259,-0.573848220822,-0.0116406029545,0.0,-0.00772616789473,0.00925863500118,-0.99992728936,0.0,0.56349122561,0.132068765689,0.304325462361,1.0,-0.273255428571,-0.359135706122,1.609
0.344877707024,0.102995255824,-0.128387968198,-2.00079354725,0.0276216104914,2.09708447378,0.0290864088621,-0.45177270027,-1.01755345763,-0.0157019796398,-1.30386018706,-0.138303135198,0.299094832475,-0.42021161693,0.573943174368,0.818877696292,0.00304926439418,0.0,0.818845547007,-0.573876892995,-0.01174856307,0.0,-0.00787088542398,0.00924006205331,-0.999926332494,0.0,0.559628897476,0.126986005387,0.304279843934,1.0,-0.279087428571,-0.366800620408,1.623
0.336982761448,0.0853854695272,-0.12856032158,-2.02353161618,0.0251619149215,2.10223525524,0.0217779694475,-0.472174432267,-1.03720672521,-0.0122988788732,-1.35124372292,-0.132842750333,0.283461711502,-0.435124740104,0.57380746079,0.818972730345,0.00306786455743,0.0,0.818939942892,-0.573740099712,-0.0118496759474,0.0,-0.00794455750462,0.00931200857705,-0.999925082445,0.0,0.554805906987,0.120803394581,0.304260791748,1.0,-0.286169142857,-0.376108016326,1.64
0.328612285136,0.0673982453945,-0.128789672316,-2.04623158413,0.0225419458435,2.10724020326,0.014133990741,-0.508589391673,-1.05989803829,-0.013660952662,-1.36107644853,-0.159908091771,0.289877027498,-0.456371066907,0.573712469828,0.819038619866,0.00323852343295,0.0,0.819008468024,-0.573645023981,-0.0117159151368,0.0,-0.00773817309555,0.00937412520586,-0.999926120498,0.0,0.549929446146,0.114412488808,0.304364973653,1.0,-0.28998,-0.381116571429,1.657
0.320316515232,0.0506086430943,-0.129094334814,-2.06729893063,0.020061396169,2.1115798405,0.00677118707185,-0.526526565586,-1.04758511183,-0.012374370528,-1.31920356326,-0.15376823803,0.262614012097,-0.462959298924,0.573842481309,0.81894752335,0.00324153439321,0.0,0.818917324444,-0.573774903139,-0.011727026697,0.0,-0.00774405748439,0.00938419544541,-0.999925980485,0.0,0.545308613726,0.108227751752,0.304401426002,1.0,-0.28998,-0.381116571429,1.673
0.311323690564,0.0328936878007,-0.129267497992,-2.08931508985,0.0174981136245,2.1159560519,-0.00118508152814,-0.538491719067,-1.03933375981,-0.0102218286376,-1.27624192482,-0.160536796086,0.258572456089,-0.477945499537,0.57387339874,0.818925588732,0.00330896348393,0.0,0.818895563771,-0.573804731777,-0.0117869558286,0.0,-0.00775409012724,0.0094740983256,-0.999925054965,0.0,0.5403581755,0.1017813405,0.304426506625,1.0,-0.28998,-0.381116571429,1.69
0.302047244732,0.0153138792681,-0.129487202303,-2.11079733446,0.0148063074928,2.12005496645,-0.00940285253677,-0.557004174571,-1.05306501808,-0.0167715116046,-1.24912521276,-0.16810246338,0.24547603056,-0.489662105571,0.573852550928,0.818939852243,0.00339339115795,0.0,0.81891142838,-0.573784225275,-0.0116825594778,0.0,-0.00762038593203,0.00948313593769,-0.999925997187,0.0,0.535449472535,0.095282982383,0.304502920008,1.0,-0.28998,-0.381116571429,1.707
0.293010874956,-0.00102423608261,-0.129726772938,-2.13069709395,0.0123674813435,2.12352297248,-0.0173142001936,-0.570963669401,-1.030611937,-0.00919394626672,-1.22975230835,-0.146948041928,0.202080075513,-0.498282644467,0.573960352447,0.818864546406,0.00333397069527,0.0,0.818834421745,-0.573891066689,-0.0118313245499,0.0,-0.00777506590639,0.00952086448107,-0.999924447891,0.0,0.530778525804,0.0891154742185,0.304489208756,1.0,-0.28998,-0.381116571429,1.723
0.282157570107,-0.020209284283,-0.129908052134,-2.15372117415,0.00941951076851,2.12755824577,-0.026939393033,-0.582463961755,-1.00575188078,-0.0161997312556,-1.21191310333,-0.155650513565,0.193660235863,-0.519444429456,0.573839599255,0.818948699073,0.00344811771293,0.0,0.818920291546,-0.573770227612,-0.0117485702103,0.0,-0.00764319615988,0.00956571255364,-0.999925036538,0.0,0.525292861977,0.0819479063061,0.304521282481,1.0,-0.28998,-0.381116571429,1.742
0.272033527033,-0.0373237208084,-0.130166704373,-2.17379682399,0.00672387341294,2.13080307314,-0.0356969546009,-0.601605638549,-0.993646886949,-0.019246680296,-1.18746731374,-0.152482612059,0.187960109405,-0.524932201589,0.573955893436,0.818866540259,0.00360118514277,0.0,0.818840965841,-0.573887093677,-0.011568200922,0.0,-0.0074062815845,0.00958861962675,-0.99992659999,0.0,0.520416989536,0.0754089111001,0.304633605994,1.0,-0.28998,-0.381116571429,1.759
0.262911458453,-0.0522757926557,-0.130334176923,-2.19119069349,0.00454080694597,2.13338901981,-0.043685922517,-0.608801187742,-0.995306393529,-0.00877711204827,-1.14627510663,-0.156124616547,0.177689652138,-0.529281609429,0.57399988612,0.818834887965,0.00378204788559,0.0,0.818810917268,-0.573929558063,-0.011588401325,0.0,-0.00731849913289,0.00974871083211,-0.999925698343,0.0,0.516081772402,0.0697110755766,0.30470177098,1.0,-0.28998,-0.381116571429,1.774
0.252409570118,-0.0688518508136,-0.130514243348,-2.21063700487,0.00188272156862,2.13603370251,-0.0529537217919,-0.625537435853,-0.973418481938,-0.00474380755294,-1.13126151881,-0.152197313117,0.153780111396,-0.55420538737,0.573882010056,0.818918361666,0.00359198579779,0.0,0.818891230123,-0.573811399433,-0.0117634182477,0.0,-0.00757230259188,0.00969244638727,-0.999924355497,0.0,0.511108305022,0.0632745628273,0.304601812364,1.0,-0.28998,-0.381116571429,1.791
0.24150989433,-0.0854246537768,-0.130812311166,-2.22956458631,-0.000732823890814,2.13850782669,-0.0624575913977,-0.644439085587,-0.954233462156,-0.00689006992469,-1.11434256399,-0.157942726332,0.134362583591,-0.565230199355,0.57397064058,0.818855982498,0.00365110673888,0.0,0.818829565387,-0.573899751424,-0.0117458530726,0.0,-0.00752293764807,0.00973159631983,-0.999924347859,0.0,0.505913208409,0.0563470125856,0.304615989465,1.0,-0.28998,-0.381116571429,1.809
0.230551305965,-0.101905770991,-0.130950745862,-2.24810489007,-0.00331154748494,2.14063495179,-0.0721572662237,-0.657417848337,-0.964340573693,-0.00986383928503,-1.07945634543,-0.158693184573,0.12226588829,-0.574658062564,0.573802095608,0.81897363831,0.00375256311437,0.0,0.818948382421,-0.573730693873,-0.0117211236819,0.0,-0.00744647403514,0.00979894948413,-0.999924262439,0.0,0.501264190253,0.0503784895996,0.304680687372,1.0,-0.28998,-0.381116571429,1.825
0.219082446821,-0.118081434629,-0.131270378826,-2.26628973127,-0.00599077461086,2.14248453267,-0.0820624540268,-0.68004386531,-0.949720767592,-0.0260707686742,-1.04467003593,-0.158399952346,0.115451492382,-0.586400351246,0.573948747079,0.818871510976,0.00360986702021,0.0,0.81884405586,-0.573877354479,-0.0118296703442,0.0,-0.00761550571565,0.00974573025989,-0.999923509482,0.0,0.496314573031,0.0438082032047,0.3046259317,1.0,-0.28998,-0.381116571429,1.842
0.207446008075,-0.134182681432,-0.131455069303,-2.28413490096,-0.00851501722761,2.14410270484,-0.0923433278914,-0.681979816481,-0.935952541152,-0.0145651521073,-1.04372216925,-0.146434115795,0.0854415316013,-0.603203525362,0.573851450023,0.818939802818,0.00358602408738,0.0,0.818910923633,-0.573778739619,-0.0119834893056,0.0,-0.00775632132115,0.00981356595349,-0.999921763641,0.0,0.491335048483,0.0373841340598,0.304586795746,1.0,-0.28998,-0.381116571429,1.859
0.196183599201,-0.149208884139,-0.131729034065,-2.30040622216,-0.0109398109735,2.14552050974,-0.10222936123,-0.714782995087,-0.918185389844,-0.0238325861912,-1.00797075203,-0.143948540717,0.0889255143999,-0.622922720865,0.573876207538,0.818921836874,0.0037243005442,0.0,0.818895140131,-0.573803486403,-0.0118766730574,0.0,-0.007589196395,0.00986574165448,-0.999922532619,0.0,0.486735245706,0.0312662937348,0.304639929824,1.0,-0.28998,-0.381116571429,1.875
0.183914847141,-0.164975440824,-0.131998765158,-2.31735498926,-0.0135058992612,2.14659904414,-0.112943244177,-0.71737399497,-0.942778029907,-0.00509167586092,-0.966191870969,-0.138119233175,0.0675502423311,-0.636810495472,0.573936907498,0.818879473595,0.00368521874271,0.0,0.818851661157,-0.573863532488,-0.0119728861444,0.0,-0.00768968610798,0.00988951914064,-0.999921529991,0.0,0.481787512355,0.0247659873844,0.304639012639,1.0,-0.28998,-0.381116571429,1.892
0.171484102877,-0.180630966831,-0.132219540801,-2.33390624986,-0.016000289871,2.14752619888,-0.123986312059,-0.741726505788,-0.928323975215,-0.0209532480052,-0.961715412001,-0.157937779563,0.0472771819471,-0.661133571948,0.573827678418,0.818955630062,0.00377072558619,0.0,0.818928564946,-0.573753532447,-0.0119848412745,0.0,-0.00765173343175,0.0099653804023,-0.999921067969,0.0,0.476853606532,0.0183641244863,0.304673317021,1.0,-0.28998,-0.381116571429,1.909
0.159332135317,-0.195238218201,-0.132521701968,-2.34905460124,-0.0184175247015,2.14830424606,-0.134637198484,-0.75723646694,-0.913091482444,-0.00943310246461,-0.949094304331,-0.158390417946,0.043170535555,-0.670924060102,0.573908714113,0.818898059236,0.00393742891775,0.0,0.818874100867,-0.573835215144,-0.0117940531968,0.0,-0.0073988343537,0.00999316086839,-0.999922694005,0.0,0.472263096858,0.0122021140378,0.304758907524,1.0,-0.28998,-0.381116571429,1.925
0.146352242927,-0.210465941349,-0.132735972827,-2.36494981823,-0.0208396629651,2.14873402752,-0.146261678584,-0.775619626139,-0.894963736993,-0.0134013423573,-0.928014112291,-0.148279104722,0.0228584222611,-0.690462959253,0.573753898673,0.819006805597,0.00388111382245,0.0,0.818980604993,-0.573678604324,-0.0120155934901,0.0,-0.0076144874833,0.0100727444877,-0.999920276522,0.0,0.467273388987,0.00582743230066,0.304696828272,1.0,-0.28998,-0.381116571429,1.942
0.132107828251,-0.226367272667,-0.133099523845,-2.38112356732,-0.0234908562973,2.14907211822,-0.158793847061,-0.796679741151,-0.864242890017,-0.0122497300892,-0.917600890685,-0.151527932418,0.00890870254691,-0.695406545731,0.573870017397,0.818925078544,0.00395800031778,0.0,0.818900157142,-0.573794795093,-0.0119504250216,0.0,-0.0075155674661,0.0100993921418,-0.999920756122,0.0,0.46209551279,-0.00107466766145,0.30473280439,1.0,-0.28998,-0.381116571429,1.96
0.119251511568,-0.24037349679,-0.133329065346,-2.39519239834,-0.0258110452828,2.14915961548,-0.170308370765,-0.806149848889,-0.873351483239,-0.018624806973,-0.837861967881,-0.140308913986,0.00103136202595,-0.722437652823,0.573748781005,0.819009776876,0.00400856321434,0.0,0.818985662797,-0.573673598925,-0.0119093631262,0.0,-0.00745442147176,0.0101161331441,-0.999921044608,0.0,0.457466673272,-0.00711940186033,0.304760349269,1.0,-0.28998,-0.381116571429,1.976
0.105167901583,-0.255003540855,-0.133679862912,-2.40978004503,-0.0281747152217,2.1491592815,-0.182824275492,-0.819593651787,-0.848794723302,-0.00850561454562,-0.873107339845,-0.135849358046,0.000580213604181,-0.741253500265,0.573851632002,0.818937068485,0.00413874499207,0.0,0.818914392057,-0.573775625874,-0.0118952316705,0.0,-0.00736687699022,0.0102155726276,-0.999920682454,0.0,0.452556416942,-0.0136320679974,0.304760964698,1.0,-0.28998,-0.381116571429,1.993
0.09083925231,-0.269491041295,-0.134019844159,-2.42391093251,-0.0305758570002,2.14898677688,-0.195637874774,-0.850271277135,-0.838582249593,-0.0320579307446,-0.783671471505,-0.151996455222,-0.001409127925,-0.765632357737,0.573872397706,0.818921641307,0.00430853238945,0.0,0.818901929937,-0.573796890214,-0.0117262452632,0.0,-0.00713079082067,0.0102578314692,-0.999921961313,0.0,0.447671817787,-0.0201160750114,0.304820956862,1.0,-0.28998,-0.381116571429,2.01
0.0770531937183,-0.282831127833,-0.134295272746,-2.43692441766,-0.0328083907497,2.14855437884,-0.208019312783,-0.85507360297,-0.817382351254,-0.0083756812841,-0.792623020797,-0.141776034302,-0.0314651014824,-0.78041085335,0.573838307126,0.8189455871,0.00429762090049,0.0,0.818925388217,-0.573762344266,-0.011778273941,0.0,-0.00718009066398,0.0102784535356,-0.999921396756,0.0,0.443021624922,-0.0262004746547,0.304792674862,1.0,-0.28998,-0.381116571429,2.026
0.0620687312672,-0.296856747517,-0.134681832926,-2.45023418378,-0.0350690841315,2.14797293499,-0.221519346728,-0.895123655078,-0.815201348904,-0.0309489809432,-0.779392634578,-0.148267008483,-0.0289675467061,-0.802203504124,0.573916845963,0.818889385939,0.00451380302372,0.0,0.818872336079,-0.573840682258,-0.0116496991901,0.0,-0.00694974501356,0.0103823869353,-0.999921950497,0.0,0.437848692732,-0.0330985488273,0.304865046643,1.0,-0.28998,-0.381116571429,2.044
0.0468663694691,-0.310587900117,-0.134961403341,-2.46326193848,-0.0373693717937,2.14716250308,-0.235263974162,-0.901319739979,-0.796988413895,-0.0241002095454,-0.747626878521,-0.13038452969,-0.0564772724095,-0.808210852592,0.573851272425,0.81893540838,0.00450121519003,0.0,0.818917770708,-0.573774526567,-0.0117142811258,0.0,-0.00701069196054,0.0104085806359,-0.999921252723,0.0,0.433191845569,-0.0391316072074,0.304840849909,1.0,-0.28998,-0.381116571429,2.06
0.0312554635483,-0.324091977293,-0.135352557621,-2.47577255036,-0.0396239957805,2.14624563027,-0.249382276781,-0.919805870887,-0.823541429758,-0.0172567705638,-0.723376741546,-0.128012167847,-0.0492060332306,-0.845091454905,0.573922632723,0.818884681326,0.00463003671736,0.0,0.81886908999,-0.573846039308,-0.0116139368931,0.0,-0.00685367873413,0.0104570965229,-0.999921835055,0.0,0.428291582882,-0.045640603597,0.304889858853,1.0,-0.28998,-0.381116571429,2.077
0.0154832159068,-0.33728912529,-0.135585843612,-2.48795847346,-0.0417870971055,2.14517461157,-0.263909876274,-0.935537919591,-0.790668885858,-0.0166417939685,-0.714893626372,-0.133898780158,-0.0722365680176,-0.86332195486,0.573702519696,0.81903859247,0.00468506567129,0.0,0.81902356332,-0.57362556352,-0.0116130316405,0.0,-0.00682417903991,0.0104998068478,-0.999921589244,0.0,0.423372817008,-0.0520068592755,0.304887403518,1.0,-0.28998,-0.381116571429,2.094
-0.000815852512659,-0.350141731136,-0.135973421433,-2.49966553222,-0.044000235967,2.14383810079,-0.278680620092,-0.95918992414,-0.753063001206,-0.0154509641934,-0.668387956995,-0.125740810793,-0.0882387921999,-0.88348139847,0.5738107535,0.818963000177,0.00464439541288,0.0,0.818946903457,-0.573733080478,-0.0117076293635,0.0,-0.00692360528217,0.0105216794435,-0.99992067583,0.0,0.418427735535,-0.0585327548184,0.304875656798,1.0,-0.28998,-0.381116571429,2.111
-0.0153724281635,-0.361312344157,-0.13632987611,-2.50957335842,-0.0458379746705,2.14275534886,-0.292062892956,-0.991473296301,-0.723038309839,-0.0336796777009,-0.665543760123,-0.120588169324,-0.0806501269654,-0.897392140147,0.57385427477,0.818931330436,0.00484708783192,0.0,0.818918523036,-0.573777002584,-0.0115391003109,0.0,-0.00666871163553,0.0105913359648,-0.999921672876,0.0,0.413842686518,-0.0646473817818,0.304944940644,1.0,-0.28998,-0.381116571429,2.127
-0.0331189705572,-0.374290229312,-0.136669412827,-2.52128364268,-0.0480318936292,2.14110599971,-0.308489033752,-0.988430826682,-0.71367516274,-0.02015033638,-0.637015595451,-0.111966731272,-0.0927383850425,-0.913901304606,0.573705662391,0.819036011599,0.00475095198158,0.0,0.819020550746,-0.573626516746,-0.011777251075,0.0,-0.00692085395952,0.0106480079448,-0.999919357602,0.0,0.408858773597,-0.0710519807771,0.304863917074,1.0,-0.28998,-0.381116571429,2.144
-0.0503277611386,-0.386314038887,-0.137076931041,-2.53161568003,-0.0501162581961,2.13963650227,-0.324266996494,-1.00994412837,-0.701247466495,-0.0185747757197,-0.610165816191,-0.121102672849,-0.0900180149016,-0.93732467655,0.573814470208,0.818958835579,0.00491185384796,0.0,0.818947011253,-0.573737248774,-0.0114938692023,0.0,-0.0065950191997,0.0106181009268,-0.999921877776,0.0,0.403998865504,-0.0775874826211,0.304973531642,1.0,-0.28998,-0.381116571429,2.161
-0.066716947205,-0.397219810514,-0.137399194861,-2.54114891017,-0.0519592496208,2.13805498496,-0.339529578594,-1.03663466889,-0.679633813293,-0.0291995836653,-0.586734851253,-0.108252880111,-0.105245047717,-0.954860940495,0.573739975343,0.819011046076,0.00490856396239,0.0,0.818998423286,-0.573661564416,-0.0116077158711,0.0,-0.00669112186127,0.0106801223889,-0.999920578783,0.0,0.399340525652,-0.0836481115224,0.304939812987,1.0,-0.28998,-0.381116571429,2.177
-0.0854397811642,-0.409103657938,-0.13775123005,-2.55138727137,-0.053877165044,2.1361422966,-0.357005104627,-1.03472084222,-0.649274040262,-0.0171221307578,-0.54354922346,-0.100274721592,-0.0991135706863,-0.978500307291,0.57370857362,0.81903268876,0.00496731308699,0.0,0.819019437797,-0.573627763304,-0.0117939212121,0.0,-0.00681034942594,0.0108348082915,-0.999918109682,0.0,0.39410553949,-0.0904328329758,0.304911945462,1.0,-0.28998,-0.381116571429,2.195
-0.103585683678,-0.419999507474,-0.138151002703,-2.56046003015,-0.0557810480991,2.13452772918,-0.373901637085,-1.07525657587,-0.635347803865,-0.0167524077191,-0.533884990392,-0.107678581871,-0.0990222658994,-1.00421933914,0.573761522182,0.818994624943,0.00512512233473,0.0,0.818985005017,-0.573682784997,-0.011505244766,0.0,-0.00648266397898,0.0107988730028,-0.999920676559,0.0,0.389242387808,-0.0969674162867,0.304999757004,1.0,-0.28998,-0.381116571429,2.212
-0.119768042888,-0.429229408915,-0.138457622899,-2.56833645402,-0.0574315728803,2.13276573814,-0.389091463411,-1.09189970641,-0.612364238268,-0.0383065266147,-0.519636749233,-0.106106677328,-0.115290376832,-1.01530168401,0.573694804656,0.819042134825,0.00499993923208,0.0,0.819029361557,-0.573613972861,-0.0117754807966,0.0,-0.00677671039597,0.0108508381047,-0.999918164406,0.0,0.384818820428,-0.102651471746,0.304925321662,1.0,-0.28998,-0.381116571429,2.227
-0.139383640912,-0.439855444519,-0.138777195869,-2.5771809931,-0.0591998765662,2.13082320162,-0.407609444178,-1.0982019164,-0.582940107946,-0.0136716863673,-0.465750716517,-0.0906111352923,-0.110563937637,-1.0342153429,0.573615017219,0.819097548215,0.00507596588747,0.0,0.819085210148,-0.573533051619,-0.0118323335786,0.0,-0.00678073176868,0.0109450635415,-0.999917110195,0.0,0.379623231448,-0.109422253368,0.304916124391,1.0,-0.28998,-0.381116571429,2.245
-0.15843264406,-0.44951146807,-0.13915669615,-2.58488376301,-0.0608616866591,2.12908432746,-0.425494031192,-1.12055551935,-0.547223620933,-0.0150839070157,-0.456377253459,-0.0920503452172,-0.115094124907,-1.04018685432,0.57372750967,0.819017553812,0.00526669695524,0.0,0.819009267064,-0.573647519124,-0.011536514548,0.0,-0.00642750403163,0.0109324998596,-0.999919580586,0.0,0.374769261329,-0.11596716557,0.305028859359,1.0,-0.28998,-0.381116571429,2.262
-0.176504709761,-0.458118497614,-0.139536537229,-2.59200364936,-0.0624572120658,2.12720913951,-0.442644791908,-1.13163553349,-0.525051319743,-0.0265490818455,-0.426693795194,-0.0975928946558,-0.115580135226,-1.07689496411,0.573694082134,0.819041515335,0.00518104075723,0.0,0.819030660998,-0.573611934235,-0.0117844028362,0.0,-0.00668013695955,0.0110042852713,-0.999917137305,0.0,0.370064346367,-0.122057076388,0.304960722517,1.0,-0.28998,-0.381116571429,2.278
-0.195870466187,-0.466778567675,-0.13985209616,-2.59907502449,-0.0639823563983,2.1254249692,-0.461198641128,-1.15757271855,-0.50006959276,-0.027458286552,-0.407970156618,-0.0919115410629,-0.102280274514,-1.10085461629,0.573550435546,0.819141892562,0.005215806381,0.0,0.819130926163,-0.573467263638,-0.0118562321124,0.0,-0.00672097159776,0.0110727885891,-0.999916107428,0.0,0.36514733807,-0.128468061948,0.304921401778,1.0,-0.28998,-0.381116571429,2.295
-0.216742091242,-0.475435040111,-0.140145113823,-2.60578013505,-0.0654368372622,2.12357489955,-0.480981987364,-1.15209284865,-0.461590316202,-0.0083910764716,-0.34834378465,-0.0761184620843,-0.0987666149031,-1.10050753817,0.573658553973,0.819065040876,0.00539158320567,0.0,0.819057388885,-0.573576503771,-0.0116505336686,0.0,-0.00645018357658,0.0110996580625,-0.999917592966,0.0,0.360032069318,-0.135307110939,0.305018643178,1.0,-0.283438285714,-0.372518889796,2.313
-0.235230699881,-0.482478179009,-0.140317407623,-2.61135317647,-0.0666389900837,2.12197313983,-0.498590220089,-1.13375916303,-0.429204056923,0.00192057689423,-0.347180704973,-0.068846772851,-0.0943628789239,-1.10451786048,0.573676366087,0.819052209431,0.00544537606785,0.0,0.819045084199,-0.573593842338,-0.0116619459365,0.0,-0.00642843217103,0.0111504059462,-0.999917168423,0.0,0.355519800264,-0.141248663232,0.305020809062,1.0,-0.276773142857,-0.363758987755,2.329
-0.254734486946,-0.489239769946,-0.140458214646,-2.61685384636,-0.0677367499862,2.12025433979,-0.517101345632,-1.15340301276,-0.373903674068,-0.0133547593002,-0.310150304202,-0.0640038392684,-0.10340646175,-1.08825986043,0.573810010677,0.818958435476,0.00546804447771,0.0,0.818949404213,-0.573723603474,-0.0119936256348,0.0,-0.00668526341593,0.0113603329424,-0.99991312127,0.0,0.350765760661,-0.147403882674,0.304925481355,1.0,-0.269691428571,-0.354451591837,2.346
-0.273970795964,-0.495491698651,-0.140387133914,-2.62172137506,-0.0687105573317,2.11880806239,-0.535461261975,-1.12946225076,-0.356384546958,0.00501741083798,-0.275047057031,-0.0491246985297,-0.0835167377603,-1.07748392041,0.573780662224,0.81897851512,0.00553988546024,0.0,0.818970783474,-0.573694611296,-0.0119203895853,0.0,-0.0065844672979,0.0113769124068,-0.999913601595,0.0,0.346219670543,-0.153376569813,0.304941591511,1.0,-0.262609714286,-0.345144195918,2.363
-0.290741614705,-0.500442625155,-0.140326140695,-2.62551401952,-0.069483239341,2.11756361693,-0.551379022032,-1.11126488665,-0.324232031032,0.0020614951553,-0.241689809348,-0.0473606717136,-0.0765639764221,-1.0584202582,0.573885401287,0.818904748462,0.00559517981989,0.0,0.818897862444,-0.573799342732,-0.0118891575004,0.0,-0.00652570266917,0.0114051143014,-0.999913665559,0.0,0.342307106959,-0.15854973552,0.304965713919,1.0,-0.256361142857,-0.336931787755,2.378
-0.310465428663,-0.505748535289,-0.140198082277,-2.62954762373,-0.0702808663294,2.11624155708,-0.570250000169,-1.08667163992,-0.284194858866,0.0123517372677,-0.211526067557,-0.04597333197,-0.069221059213,-1.04142374647,0.573916167755,0.818882620548,0.00567741627609,0.0,0.818877249739,-0.573830589348,-0.0118004868865,0.0,-0.0064054618227,0.0114218171427,-0.9999142524,0.0,0.337765754135,-0.164573185227,0.305000094223,1.0,-0.248862857143,-0.327076897959,2.396
-0.32878624783,-0.510224918903,-0.140042154497,-2.6329011486,-0.070863689429,2.11512940953,-0.587796115651,-1.07704593738,-0.248463698991,-0.00140757771322,-0.190107828824,-0.0298639837712,-0.0626122355854,-1.02438366439,0.573993704016,0.818827252014,0.00582288674091,0.0,0.818824357705,-0.573908664126,-0.0116731902404,0.0,-0.00621664082557,0.0114684800032,-0.999914910051,0.0,0.333596167424,-0.17011016606,0.305046624126,1.0,-0.241781142857,-0.317769502041,2.413
-0.345571852898,-0.513884324405,-0.13979280436,-2.63578787538,-0.0713521868066,2.11403883202,-0.60403928512,-1.03684496101,-0.214768979301,0.0184758940163,-0.16985500235,-0.019655212289,-0.0603173795785,-1.00032760607,0.573882740188,0.818904917355,0.00583812879692,0.0,0.818901010598,-0.573795448556,-0.0118602259481,0.0,-0.00636262811841,0.0115874516325,-0.999912620146,0.0,0.329745747949,-0.175087177326,0.305001816504,1.0,-0.235116,-0.3090096,2.429
-0.366198499217,-0.517753118576,-0.139490023166,-2.63892568778,-0.0718971857801,2.11293995752,-0.62387737308,-1.01040919464,-0.171926423519,0.0258691198137,-0.145141512169,-0.0277515885798,-0.0480542414086,-0.975517375979,0.573897185227,0.818894730684,0.00584702903847,0.0,0.818889595291,-0.573807424785,-0.0120671822463,0.0,-0.00652680894182,0.0117136186912,-0.999910091909,0.0,0.325065527652,-0.181180704425,0.304916700559,1.0,-0.226784571429,-0.298059722449,2.449
-0.380247321298,-0.520113464885,-0.139292689813,-2.64076949299,-0.0721612106015,2.11229557044,-0.637425458887,-1.00176416044,-0.15697215605,-0.000574250883395,-0.12528803886,-0.0227257013232,-0.0448971614007,-0.966538288015,0.573946134356,0.818859778933,0.00593668293276,0.0,0.818855500057,-0.573855422783,-0.0120983746978,0.0,-0.00650019988519,0.0118053281505,-0.999909186691,0.0,0.321915953659,-0.18531708132,0.304897276663,1.0,-0.220952571429,-0.290394808163,2.463
-0.397847970476,-0.522696605262,-0.138944040742,-2.64273893199,-0.0724675256193,2.11151839071,-0.654496440417,-0.959423978133,-0.139613406907,0.0197881127672,-0.101916466861,-0.0188798028924,-0.0427642452807,-0.942204554608,0.573876416325,0.818908336619,0.00597845319486,0.0,0.818904384127,-0.573785142399,-0.0121229914267,0.0,-0.00649739622139,0.0118531086158,-0.999908639656,0.0,0.317792672895,-0.190743794697,0.304893976727,1.0,-0.213037714286,-0.27999242449,2.482
-0.413244375204,-0.524683677273,-0.138718776018,-2.64419943052,-0.0727125948583,2.11091836331,-0.669294722219,-0.964164756637,-0.11491565378,0.015129035325,-0.0815958285324,-0.0172062636646,-0.0384303326828,-0.932547672711,0.574024874033,0.818803767616,0.00604822547294,0.0,0.818800880253,-0.573933553067,-0.0120889230914,0.0,-0.00642729998363,0.0118918638512,-0.999908632521,0.0,0.314590054583,-0.194973534004,0.304912528718,1.0,-0.206789142857,-0.271780016327,2.497
-0.430802922898,-0.526557805727,-0.138333514312,-2.64559934635,-0.0728928578984,2.11035923135,-0.686317650752,-0.921547255378,-0.0879893756165,0.015678561112,-0.0725196039314,-0.0156163806105,-0.0303386894616,-0.889821280044,0.574031322484,0.81879880952,0.00610714633483,0.0,0.818796934551,-0.573940202996,-0.0120403594992,0.0,-0.00635361754386,0.0119122855328,-0.999908860346,0.0,0.310730290994,-0.200064549496,0.304924454882,1.0,-0.198874285714,-0.261377632653,2.516
-0.443425352553,-0.527653631255,-0.138086998498,-2.64643863152,-0.0730154432954,2.11001556299,-0.698570350649,-0.87323094585,-0.0704862991797,0.0268809537988,-0.0587434618409,-0.00807757539717,-0.0147039371071,-0.869968020263,0.574058177175,0.81877972913,0.00614095160444,0.0,0.818778309223,-0.573966935353,-0.0120326376183,0.0,-0.00632749842121,0.0119357417895,-0.999908746252,0.0,0.307950075355,-0.20372334197,0.304920625892,1.0,-0.193042285714,-0.253712718367,2.53
-0.459984474417,-0.528795957184,-0.137673095204,-2.64730739808,-0.0730621521002,2.10962067623,-0.714605592863,-0.874856511589,-0.0597782950675,0.0219736213464,-0.0461068217366,0.000164453903598,-0.0200318443347,-0.833229467745,0.574123794214,0.818733246148,0.00620382698024,0.0,0.818732608501,-0.574032199066,-0.0120290113114,0.0,-0.00628747608828,0.0119856478219,-0.99990840175,0.0,0.304326688133,-0.208481691577,0.304920082421,1.0,-0.185127428571,-0.243310334694,2.549
-0.472615431149,-0.529412597817,-0.137300164467,-2.64776647253,-0.0730747821532,2.10936704802,-0.726885633047,-0.815781819423,-0.0348574740462,0.0248980158874,-0.0273871282331,0.000358790982423,-0.0151807655104,-0.811587074818,0.57410727176,0.818744708889,0.006220054619,0.0,0.81874428704,-0.574015618685,-0.0120253418101,0.0,-0.0062753973001,0.0119967013367,-0.999908345073,0.0,0.301406557165,-0.212328334141,0.304924497788,1.0,-0.178462285714,-0.234550432653,2.565
-0.487250305963,-0.529862465473,-0.136905398974,-2.64812799834,-0.0730798415851,2.10914756834,-0.741104524626,-0.812633188431,-0.0187130400563,0.0170947481295,-0.0149654633804,0.000101365021482,-0.00252557762265,-0.773462333797,0.574154470606,0.818711554548,0.00622745803847,0.0,0.818711106525,-0.574062540962,-0.0120445015553,0.0,-0.00628614323456,0.0120141247849,-0.999908068379,0.0,0.298393081451,-0.216293582016,0.304915911736,1.0,-0.171380571429,-0.225243036735,2.582
-0.499697375325,-0.530035683204,-0.136436409157,-2.64828799588,-0.0730757878709,2.1090032356,-0.753337558853,-0.762078335891,-0.00531287827012,0.0303082855005,-0.0100795784607,0.00701326463773,-0.00249160069216,-0.749770292318,0.573991631391,0.818826253937,0.00615791023727,0.0,0.81882477458,-0.573899801826,-0.012072816523,0.0,-0.00635163795185,0.0119721756149,-0.999908157636,0.0,0.295700975719,-0.219826326596,0.304906217864,1.0,-0.164715428572,-0.216483134694,2.598
-0.513280321836,-0.530117247156,-0.136002177927,-2.64836504419,-0.0730585328727,2.10890100979,-0.766512942148,-0.750161560241,-0.00252741186556,0.013899636828,-0.000466803388463,0.00644420320546,-0.00473077078608,-0.723620341647,0.574022197382,0.818805109067,0.00612022710559,0.0,0.818803217594,-0.573930673208,-0.0120673157665,0.0,-0.00636831634926,0.0119383986104,-0.999908455403,0.0,0.292734241297,-0.223687691454,0.304903466712,1.0,-0.157217142857,-0.206628244898,2.616
-0.524755381825,-0.530035282818,-0.135543597475,-2.64833635663,-0.0730267587836,2.10886635877,-0.777768028754,-0.710704195403,0.00729181482543,0.0293355427191,0.00155564491844,0.00449362966334,-0.00244534664763,-0.701850204509,0.573922929244,0.818875266468,0.00604286001382,0.0,0.818872410951,-0.573831841032,-0.0120722700035,0.0,-0.00641822139979,0.0118771125828,-0.999908866163,0.0,0.290384101268,-0.226727906827,0.304894779663,1.0,-0.150968571429,-0.198415836735,2.631
-0.537178879757,-0.529810661136,-0.135106690581,-2.64819397261,-0.0729474479402,2.10886537251,-0.789831564384,-0.690412409927,0.00935363183203,0.0132620853591,0.0127896646428,0.011645711199,0.00189291228883,-0.657641083646,0.573923405706,0.818875150217,0.00601328877356,0.0,0.818872032682,-0.573832671209,-0.0120584594781,0.0,-0.00642387493631,0.0118449741848,-0.999909211087,0.0,0.287515317712,-0.230426723898,0.304889487138,1.0,-0.143053714286,-0.188013453061,2.65
-0.547740993657,-0.529477070434,-0.134668828532,-2.64792222676,-0.0728091244056,2.10888810132,-0.800092728837,-0.638376968769,0.0277408666137,0.0362579999017,0.0209432976387,0.0131446073339,0.00418774324255,-0.646167431045,0.573935492341,0.818866791518,0.00599793974216,0.0,0.818863739229,-0.573845308979,-0.0120201846462,0.0,-0.00640116369239,0.0118105333473,-0.999909764131,0.0,0.28522540691,-0.233394852949,0.304904544709,1.0,-0.136388571429,-0.179253551021,2.666
-0.557698056621,-0.528986526584,-0.13419369969,-2.64758978592,-0.0726363835584,2.10893038832,-0.809903577598,-0.619401253361,0.0347794879974,0.0272507155248,0.0213759045686,0.00350411657055,0.00883603116617,-0.611796717009,0.573812967012,0.818952820982,0.00597518166278,0.0,0.818949221776,-0.573722444026,-0.0120613545824,0.0,-0.0064497087099,0.0118145594987,-0.999909404617,0.0,0.283072587086,-0.236171109722,0.304892453664,1.0,-0.129723428572,-0.17049364898,2.682
-0.567976428219,-0.528398750264,-0.13378641973,-2.64713825874,-0.0724110187166,2.10903520938,-0.819777913843,-0.592932168046,0.0364505225842,0.0251410586411,0.026719754526,0.00516830958431,0.0140898990001,-0.57045436067,0.573978146745,0.818836739269,0.00601900193316,0.0,0.818833941551,-0.573887830235,-0.012020040488,0.0,-0.00638834179484,0.0118280313665,-0.999909639299,0.0,0.280844375462,-0.239062743568,0.304902503492,1.0,-0.122641714286,-0.161186253061,2.699
-0.577424214674,-0.527618483892,-0.133250244559,-2.64660971111,-0.0721228405771,2.10917065862,-0.829171731052,-0.541142543878,0.0463260593222,0.0257626519532,0.0289544740243,0.016261286549,0.00751409401247,-0.546243414155,0.573797036341,0.81896356843,0.00603171391519,0.0,0.818960627336,-0.573706132394,-0.0120628117527,0.0,-0.00641869567604,0.0118615702175,-0.999909047613,0.0,0.278838065654,-0.241685251343,0.304882979555,1.0,-0.11556,-0.151878857143,2.716
-0.585482882227,-0.526920725617,-0.132842149019,-2.64612583585,-0.0719027279005,2.10927703522,-0.83699301186,-0.529528547304,0.0412749747501,0.0305921642128,0.033176801279,0.017353946325,0.013917429173,-0.512090443017,0.573847641272,0.818928011044,0.00604518277923,0.0,0.818924926188,-0.57375607909,-0.0121108990828,0.0,-0.00644961830421,0.0119005908569,-0.999908384984,0.0,0.276985103278,-0.244079198863,0.304867413512,1.0,-0.108894857143,-0.143118955102,2.732
-0.59515671898,-0.525970743759,-0.132353126188,-2.64543419309,-0.0715920479514,2.10944348565,-0.846297866647,-0.491734861431,0.0534294770212,0.0262152733609,0.0399121975316,0.0141807684359,0.0108780070382,-0.48273695842,0.573952830513,0.818854042063,0.00607890168661,0.0,0.81885123289,-0.573860795227,-0.0121323121327,0.0,-0.00644627358418,0.0119413209373,-0.999907920966,0.0,0.275026442838,-0.246632223893,0.304860804549,1.0,-0.101396571429,-0.133264065306,2.75
-0.602484803392,-0.525104849334,-0.13182664575,-2.64483859433,-0.0712761178736,2.10958565186,-0.853596729729,-0.450381976057,0.0520818271008,0.033962025268,0.0320202503064,0.0156891488304,0.00725827116015,-0.450686687895,0.573772994601,0.818979967824,0.00609178718524,0.0,0.818976848716,-0.573680056031,-0.0122008803053,0.0,-0.00649766484627,0.0119897991423,-0.99990700821,0.0,0.273492980577,-0.248642075204,0.304839980093,1.0,-0.0947314285715,-0.124504163265,2.766
-0.610018620275,-0.524266053765,-0.131346180143,-2.64420430238,-0.0709961934753,2.10974030402,-0.86083158547,-0.430752756679,0.0476773588326,0.0280103835129,0.0384375221091,0.0183103370639,0.00538807273878,-0.416841099422,0.573832706877,0.81893812094,0.00609306917007,0.0,0.818935064393,-0.573739834369,-0.0121946573184,0.0,-0.00649095822448,0.011987752013,-0.999907076314,0.0,0.271892585042,-0.250724169674,0.304846267989,1.0,-0.0876497142858,-0.115196767347,2.783
-0.616995745684,-0.523412139149,-0.130887400251,-2.64353490662,-0.0706821439262,2.10990837024,-0.867509780164,-0.392460539349,0.0487275654373,0.0193341026211,0.0390748510395,0.0155765137528,0.00915592975335,-0.380377536394,0.573923736887,0.818874104935,0.00612302251216,0.0,0.818871660878,-0.573831121004,-0.0121570753311,0.0,-0.0064416573302,0.0119914345901,-0.999907350982,0.0,0.270425718913,-0.252657135784,0.304863318217,1.0,-0.0805680000001,-0.105889371429,2.8
-0.623005396687,-0.522573254945,-0.130434831167,-2.64290080891,-0.0703768990826,2.11007086676,-0.873361056095,-0.360979960214,0.0455841931532,0.0304040833357,0.0360975396465,0.0137830135839,0.0100901949509,-0.352437575691,0.573898209908,0.818891841089,0.00614362789586,0.0,0.818889681814,-0.573805536942,-0.0121507898829,0.0,-0.00642505869661,0.0120045011794,-0.99990730099,0.0,0.269180600442,-0.254314121802,0.304868934346,1.0,-0.0739028571429,-0.0971294693879,2.816
-0.628780722125,-0.521809724838,-0.129894791257,-2.64231764413,-0.0700479732081,2.11023172614,-0.879006895273,-0.334434158566,0.0390322332788,0.0272859994019,0.0378904838664,0.0134210341396,0.00641948856195,-0.320367452817,0.573794044853,0.818964827032,0.00614435328175,0.0,0.818962852062,-0.573701717949,-0.0121215785523,0.0,-0.00640224371204,0.0119875174721,-0.999907651086,0.0,0.267995851448,-0.255868565923,0.304880841536,1.0,-0.0668211428572,-0.0878220734695,2.833
-0.634209199308,-0.521085762362,-0.129405493959,-2.64175876305,-0.0697315707405,2.11039232847,-0.884152673151,-0.30691486086,0.0457451204169,0.0253624559288,0.0329600412914,0.0211800453792,0.012985004968,-0.292590519372,0.573844287049,0.818929531826,0.00615654333461,0.0,0.818927967629,-0.573752368607,-0.0120809872764,0.0,-0.00636126840771,0.0119746015993,-0.999908067365,0.0,0.266874812402,-0.257331849673,0.304894733859,1.0,-0.0597394285715,-0.0785146775511,2.85
-0.638991390863,-0.520331247702,-0.128924811527,-2.64118920113,-0.0694058353801,2.11055091011,-0.888698152212,-0.27460905066,0.0458165847049,0.0283902159735,0.03219781825,0.019817188062,0.00236828708254,-0.259724473944,0.573867346501,0.818913245071,0.00617353774513,0.0,0.818911986108,-0.573775507012,-0.0120653827902,0.0,-0.00633839905779,0.0119797439097,-0.999908150999,0.0,0.265913583548,-0.2586213111,0.304901649136,1.0,-0.0526577142858,-0.0692072816328,2.867
-0.642806662573,-0.519750561457,-0.128557184335,-2.64075682237,-0.069125066951,2.11067157388,-0.892317194456,-0.247199389214,0.0374572141678,0.0234656240591,0.0249308566587,0.00753161595624,0.0123471586559,-0.231612116719,0.573910598056,0.818882612613,0.00621603570927,0.0,0.818881919593,-0.573818587135,-0.0120572685168,0.0,-0.0063067321399,0.0120102246733,-0.999907985583,0.0,0.265135269333,-0.259642744998,0.304903948799,1.0,-0.0464091428572,-0.0609948734695,2.882
-0.64688680319,-0.519150943872,-0.128030094887,-2.6403318213,-0.0688184389118,2.11080504373,-0.896071604696,-0.212916018922,0.0277877468265,0.0307701880057,0.0242302042921,0.0165352103832,0.0105293476267,-0.192166161816,0.573957427349,0.818849884452,0.00620364610725,0.0,0.818849017559,-0.573865436821,-0.0120620796729,0.0,-0.00631709608684,0.0120032008365,-0.999908004502,0.0,0.264321068303,-0.260693999707,0.304900758289,1.0,-0.0389108571429,-0.0511399836736,2.9
-0.650239420813,-0.518629684884,-0.127431656596,-2.63997551225,-0.0684886059817,2.11091828474,-0.899253347628,-0.17732088562,0.0230159852355,0.0410137362831,0.0183106055545,0.0157066224901,0.00255281704272,-0.176269461057,0.573832907381,0.818937338768,0.00617871173365,0.0,0.818936048374,-0.57374086585,-0.0120795045177,0.0,-0.00634750007255,0.011991817848,-0.999907948537,0.0,0.26369371276,-0.261513824958,0.304895044693,1.0,-0.0314125714287,-0.0412850938777,2.918
-0.652598203844,-0.51823932264,-0.126949726915,-2.63970888849,-0.0682424085109,2.11098580546,-0.901479884285,-0.146509580105,0.0268588601977,0.0321900270454,0.0176163321508,0.0169526067507,0.00388719551814,-0.139112678795,0.57371871491,0.819017609105,0.00614321085108,0.0,0.819015674024,-0.573626511733,-0.0121118801462,0.0,-0.00639605765166,0.0119804289489,-0.999907775632,0.0,0.263266683192,-0.262077023276,0.304889897171,1.0,-0.0251640000001,-0.0330726857144,2.933
-0.654809114284,-0.517889192308,-0.126472998144,-2.63947358016,-0.0679321937347,2.11106783643,-0.903438316812,-0.12375641635,0.0214397836499,0.0250146948073,0.00952148944329,0.0212097785363,0.00829257239699,-0.101241121839,0.573732203357,0.819008012248,0.00616292182865,0.0,0.819006288327,-0.573639824069,-0.0121160564624,0.0,-0.00638797291433,0.0119990745217,-0.999907603738,0.0,0.262878014929,-0.262589965584,0.304886402998,1.0,-0.0198888888889,-0.0261396825397,2.95
-0.656769886338,-0.517579455742,-0.12614533677,-2.63926738289,-0.0677045529799,2.11110770246,-0.905119622451,-0.102035642317,0.0180376294452,0.0158380324134,0.00994307177742,0.0129267786706,0.00480148704749,-0.0991332666648,0.573836750522,0.818934551948,0.00619114511028,0.0,0.818932917365,-0.573743698307,-0.0121569901839,0.0,-0.00640377210942,0.0120464922026,-0.999906932533,0.0,0.262501587813,-0.263064535244,0.30487729107,1.0,-0.0195288888889,-0.0256665396825,2.968
-0.65821339822,-0.517345349991,-0.125957331491,-2.63908041799,-0.0675741384525,2.11114485821,-0.906554410701,-0.0958910254849,0.0147833554036,0.00579081948037,0.0095653755635,0.0050621892324,0.00215307572498,-0.0936638155998,0.573775900854,0.818977094909,0.00620326647828,0.0,0.818975631252,-0.573682831024,-0.0121520247543,0.0,-0.0063936455532,0.0120530950899,-0.999906917765,0.0,0.262217934158,-0.263438944769,0.304883660078,1.0,-0.0192288888889,-0.0252722539683,2.983
-0.659850466639,-0.517056009779,-0.125779349814,-2.63885146747,-0.0674687687905,2.11126478981,-0.908111471921,-0.0885172489706,0.0173312975523,0.0113742597888,0.0120726117549,0.00493813650602,0.0103385452653,-0.0886093943255,0.573771976802,0.81897996948,0.00618668955514,0.0,0.818978763269,-0.573679875915,-0.0120802394517,0.0,-0.00634441699085,0.0119983012355,-0.999907890328,0.0,0.261899504975,-0.263890106171,0.304895520065,1.0,-0.0188688888889,-0.0247991111111,3.001
-0.661326403405,-0.516808335272,-0.12567582832,-2.63864857735,-0.0674414730119,2.1112825599,-0.909595197547,-0.0842841110635,0.0106742698896,0.00413139551224,0.0105379776159,0.00692141164356,2.74466893814e-05,-0.0951751632095,0.573714331663,0.819020594009,0.00615460272208,0.0,0.819018866927,-0.573622190745,-0.0121006116906,0.0,-0.00638035631969,0.0119832608115,-0.99990784201,0.0,0.26157838927,-0.26430211821,0.30490034693,1.0,-0.0185288888889,-0.0243522539683,3.018
-0.662558682724,-0.516588965438,-0.12564430101,-2.6384750588,-0.0674030947091,2.11129531943,-0.910774198626,-0.0804789703773,0.0179409068297,0.0040802992803,0.0178953658149,0.00184270897554,0.00153435903998,-0.0822784467414,0.573753344608,0.818993162062,0.00616822086131,0.0,0.818991465633,-0.573660859084,-0.0121220821824,0.0,-0.00638955855781,0.012007036612,-0.999907498028,0.0,0.261283215496,-0.264680460413,0.30490221328,1.0,-0.0182088888889,-0.0239316825397,3.034
-0.663999758345,-0.516310354411,-0.12562226823,-2.63825083308,-0.067365009931,2.11139233873,-0.912271046369,-0.0810654473263,0.0204727712044,-0.000373193150007,0.0137267549094,0.00146690124476,0.00599405446067,-0.0848042799871,0.573727632652,0.819011135196,0.00617339917433,0.0,0.819009803732,-0.573635690059,-0.0120740789587,0.0,-0.00634764523085,0.0119835379038,-0.999908046882,0.0,0.260985751235,-0.265091711601,0.304908031726,1.0,-0.0178688888889,-0.0234848253968,3.051
-0.665205470072,-0.516099402765,-0.125616334741,-2.63806338355,-0.0673415087517,2.11145144445,-0.913449477445,-0.0809324352551,0.0144133437087,0.00147692764604,0.0129445323915,0.000205988948981,-0.00185438015341,-0.0736386789665,0.573765439748,0.818984615271,0.00617794467836,0.0,0.818983609518,-0.573673973566,-0.0120318866107,0.0,-0.00630992544037,0.0119633464758,-0.999908527407,0.0,0.260716273267,-0.265456140669,0.304920549391,1.0,-0.0175688888889,-0.0230905396825,3.066
-0.666558632943,-0.515854595484,-0.125617621977,-2.6378797545,-0.067314339203,2.11146120354,-0.914777597428,-0.0758992529803,0.0155681808688,-0.000192106905337,0.00780326336732,0.00184568042875,0.00274414642589,-0.083365609982,0.573808133104,0.818954538952,0.00619971088297,0.0,0.818953528375,-0.573716016435,-0.0120746739015,0.0,-0.00633185747501,0.0120060523455,-0.999907876901,0.0,0.260396528952,-0.265851258294,0.304914445729,1.0,-0.0172288888889,-0.0226436825397,3.083
-0.668100492278,-0.515564814713,-0.125611338701,-2.63766072266,-0.0672695384085,2.11151394782,-0.916323500257,-0.0737565971977,0.011481544349,0.000483689504051,0.0136276514988,0.000517055225947,0.00916530810052,-0.073657662769,0.573831546294,0.818937950982,0.00622381068683,0.0,0.818937249969,-0.573739310161,-0.012071929849,0.0,-0.00631543823663,0.0120243960871,-0.999907760315,0.0,0.260030486967,-0.266328709965,0.30491463354,1.0,-0.0168088888889,-0.0220916825397,3.104
-0.669214081494,-0.515347324163,-0.125588034101,-2.6374746075,-0.0672447985512,2.11160361729,-0.917391704879,-0.0800425605388,0.0180996685391,0.0022228435589,0.0173759539488,0.00030539014636,0.00257219779475,-0.0759543361952,0.573871713976,0.818909843245,0.00621863609407,0.0,0.818909422966,-0.573780155816,-0.0120181808204,0.0,-0.00627379737478,0.0119896245592,-0.999908439993,0.0,0.259804648624,-0.266645925835,0.304924129697,1.0,-0.0165288888889,-0.0217236825397,3.118
-0.670460632158,-0.51512248429,-0.12552658428,-2.63726259354,-0.0672163855965,2.11163497145,-0.918697566173,-0.0702555972972,0.0202476025772,0.000928578565411,0.0116126414161,0.00266376576954,0.0010115668847,-0.0753682925552,0.573793869997,0.818964570669,0.00619464637984,0.0,0.818963965114,-0.573702673656,-0.0120005410214,0.0,-0.00627425353374,0.0119592592892,-0.999908800771,0.0,0.259520333737,-0.267029859495,0.304940764015,1.0,-0.0161688888889,-0.0212505396825,3.136
-0.671666781839,-0.514886384392,-0.125474550349,-2.63709321017,-0.0671925981568,2.1116600358,-0.919938450304,-0.069126318133,0.0121617728373,3.17530716498e-05,0.0118393605667,0.00434289413394,-0.000917019789927,-0.0778179176455,0.573756103468,0.818991039373,0.00619338849828,0.0,0.818990236538,-0.573664576207,-0.0120288553756,0.0,-0.00629871844821,0.0119741844408,-0.999908468337,0.0,0.259264193003,-0.267352688906,0.304934692683,1.0,-0.0158488888889,-0.020829968254,3.152
-0.672760499978,-0.514655745194,-0.125430973428,-2.63691105788,-0.0671688703073,2.1117062152,-0.921028656392,-0.0707387006071,0.0147406531914,0.000575101823683,0.00888377816182,0.000283548597904,0.00706991822097,-0.0719407469553,0.573747601239,0.818997080779,0.00618212337082,0.0,0.818996159917,-0.573656178702,-0.0120260376099,0.0,-0.00630299777893,0.0119632758621,-0.999908571945,0.0,0.259026467744,-0.267674720177,0.304937224808,1.0,-0.0155288888889,-0.0204093968254,3.168
-0.673930209066,-0.514422620779,-0.125403099581,-2.63672462675,-0.0671344466415,2.11178758681,-0.922242407159,-0.0715849906483,0.00867164822926,0.0040339657715,0.00990106250149,0.00147252393097,0.00577902174813,-0.0733483736978,0.573716054599,0.819019167873,0.00618370872884,0.0,0.819018525414,-0.573625122144,-0.0119842052657,0.0,-0.00626828383329,0.0119403328556,-0.9999090644,0.0,0.258771795447,-0.268024670892,0.304943403841,1.0,-0.0151888888889,-0.0199625396825,3.185
-0.675001978147,-0.514206625885,-0.125391230407,-2.63654439206,-0.0671139809585,2.11182490924,-0.923271270239,-0.0647775326716,0.0187061250803,0.00211789824537,0.0145645236543,0.000203235353812,4.87299459764e-05,-0.065222326843,0.573760801076,0.818987810884,0.00618511711178,0.0,0.818987233778,-0.573669942802,-0.0119772507319,0.0,-0.00626112712367,0.011937838769,-0.999909139018,0.0,0.258530243766,-0.268346198109,0.304948937415,1.0,-0.0148688888889,-0.019541968254,3.201
-0.676051837863,-0.514002837062,-0.125387534413,-2.63635969977,-0.0670853636931,2.11185562862,-0.924303328203,-0.0672790832478,0.0119329488201,-0.00183044257751,0.00601379819433,0.00151791411386,0.00519402474684,-0.0672366254289,0.573794427642,0.81896416377,0.00619678692663,0.0,0.818963843401,-0.573703713563,-0.0119590613034,0.0,-0.00623904308878,0.0119372170023,-0.999909284481,0.0,0.258293341527,-0.26866323289,0.304960241436,1.0,-0.0145488888889,-0.0191213968254,3.217
-0.677281654193,-0.513754602518,-0.125376881165,-2.63617309801,-0.0670589050998,2.11189233886,-0.925568514991,-0.0654807947984,0.0120549643484,-0.000176590845098,0.0118201075456,0.00578252188801,-0.000372486321105,-0.0640142843392,0.573778930424,0.818974938446,0.00620774517681,0.0,0.81897463885,-0.573687940449,-0.0119764270532,0.0,-0.00624720534145,0.0119560375599,-0.999909008656,0.0,0.258009403119,-0.269025813913,0.304956644291,1.0,-0.0141688888889,-0.018621968254,3.236
-0.678299772682,-0.513542342026,-0.125373645346,-2.63600906815,-0.0670359007403,2.1119371856,-0.926546798341,-0.0614974674568,0.0158036759209,-0.00085941779792,0.0108259889368,-0.00038401432093,0.00269623640164,-0.0618282816293,0.573827601975,0.818940770753,0.00621643874946,0.0,0.818940595936,-0.573736587203,-0.0119739606427,0.0,-0.0062394863345,0.0119621134836,-0.999908984184,0.0,0.257777012283,-0.269331333604,0.304956593944,1.0,-0.0138488888889,-0.0182013968254,3.252
-0.679448399231,-0.513296594798,-0.125358090909,-2.63580224126,-0.0669949808079,2.11201821833,-0.92771773361,-0.0572387811091,0.0104152834722,0.000249271080045,0.0108339055723,0.00474071183627,0.00566180855483,-0.0651797841482,0.573826360699,0.818941567148,0.00622609548963,0.0,0.8189418174,-0.573735881503,-0.0119241305799,0.0,-0.00619315103729,0.0119414203201,-0.999909519587,0.0,0.257527875917,-0.269681806607,0.304966973726,1.0,-0.0134688888889,-0.017701968254,3.271
-0.680382505476,-0.513083906355,-0.125333333212,-2.63563614274,-0.0669746089191,2.11204009216,-0.928703855446,-0.0594343034598,0.0114036017172,0.000483481131631,0.00711150881443,0.00162393655781,-0.000785264507495,-0.0554069722831,0.573783480979,0.81897161913,0.00622502334672,0.0,0.818971729966,-0.573692773679,-0.0119437785975,0.0,-0.00621048435757,0.0119514911023,-0.999909291758,0.0,0.257318960997,-0.269958179169,0.30496622016,1.0,-0.0131488888889,-0.0172813968254,3.287
-0.681316202443,-0.512889473359,-0.125298476336,-2.63548120699,-0.0669518926864,2.11206227984,-0.929632026783,-0.0605805636336,0.015768917533,-0.000110261284094,0.00967006718824,0.000145173306388,0.000481238643511,-0.0590288522079,0.57378093246,0.818973435205,0.00622100266027,0.0,0.818973419792,-0.573690100366,-0.0119563087088,0.0,-0.0062230913889,0.0119553679608,-0.99990916703,0.0,0.257110347408,-0.270229326948,0.304967401389,1.0,-0.0128288888889,-0.0168608253968,3.303
-0.682290916594,-0.51268645016,-0.125257768488,-2.63531518179,-0.0669297789507,2.11208864252,-0.930561972275,-0.0561534668882,0.014096077854,0.00511678710736,0.00893280262026,-0.000351508379745,0.00142373955633,-0.0569757549019,0.573806639397,0.818955494749,0.00621169100217,0.0,0.818955331251,-0.573715789248,-0.0119626704179,0.0,-0.00623326947446,0.0119515872781,-0.99990914883,0.0,0.256894547865,-0.270513050204,0.304970922752,1.0,-0.0124888888889,-0.016413968254,3.32
-0.683292434181,-0.512469894095,-0.125237681627,-2.63513183348,-0.0669042298809,2.11216140159,-0.93159387503,-0.051367906805,0.0126632387472,0.00132737405869,0.0136676270448,-9.5523317934e-05,0.0072965006195,-0.0592448262679,0.573787752261,0.818968758072,0.00620770144999,0.0,0.818968823356,-0.573697461714,-0.0119178729081,0.0,-0.00619914236214,0.0119224730045,-0.999909708559,0.0,0.256677479652,-0.270818634447,0.304980766702,1.0,-0.0121288888889,-0.0159408253968,3.338
-0.684097476902,-0.512287404656,-0.125233202559,-2.63499204731,-0.066887387674,2.11221618394,-0.932408152647,-0.0543618771691,0.011415737438,-0.00107985257743,0.0117378637941,5.8539026846e-06,0.00154289779698,-0.0468820583618,0.573791428335,0.818966169808,0.00620937842183,0.0,0.818966356773,-0.573701322367,-0.0119015163115,0.0,-0.00618472969205,0.0119144894585,-0.99990989297,0.0,0.256497314327,-0.271064300172,0.304981512882,1.0,-0.0118288888889,-0.0155465396825,3.353
-0.685029377517,-0.512077387926,-0.125208018075,-2.63481992809,-0.0668611888742,2.11222748335,-0.933324344439,-0.0516444614063,0.0138931689131,-0.00207873146094,0.00616759807423,-0.000386764974773,0.00245582061011,-0.0509547101918,0.57380643805,0.818955629237,0.00621255939264,0.0,0.818955723641,-0.573716057984,-0.0119228531737,0.0,-0.00620016201075,0.0119294506629,-0.999909619015,0.0,0.256287975956,-0.271338772825,0.304983527172,1.0,-0.0114688888889,-0.0150733968254,3.371
-0.685845822165,-0.511908808408,-0.125180201879,-2.63468199937,-0.066839767083,2.11226193238,-0.934142839968,-0.047503553779,0.00724884569816,0.00146231693283,0.0101667472945,0.000110549576296,0.00525991786991,-0.0546037986383,0.573801028006,0.818959456775,0.0062076822919,0.0,0.818959523357,-0.5737107377,-0.0119178627309,0.0,-0.00619895174994,0.0119225519636,-0.9999097088,0.0,0.256097172075,-0.271592243962,0.30498630214,1.0,-0.0111288888889,-0.0146265396825,3.388
-0.686686694934,-0.511718740453,-0.125156179635,-2.63453250448,-0.0668183952524,2.11231040324,-0.935001799066,-0.0516493548636,0.0123392991885,0.0015960419027,0.00743555222146,-1.58278744915e-05,0.0105432758372,-0.0480993039225,0.573786117643,0.818969922134,0.00620521886678,0.0,0.818970052007,-0.57369602402,-0.0119026400421,0.0,-0.00618811393676,0.0119116873744,-0.999909905416,0.0,0.255922050857,-0.271829879717,0.304989615002,1.0,-0.0108088888889,-0.014205968254,3.404
-0.687451696632,-0.51154804047,-0.125146780858,-2.63439451445,-0.0667992102249,2.11235069893,-0.935757073049,-0.042282529126,0.00420212734604,0.00268979357757,0.0107247458068,0.000446258100273,0.0027196537862,-0.0500186422183,0.573802680384,0.818958301792,0.00620731915452,0.0,0.818958531109,-0.573712713644,-0.011890896827,0.0,-0.00617704968294,0.0119067946911,-0.999910032102,0.0,0.255750834405,-0.272061165702,0.304992749941,1.0,-0.0104888888889,-0.0137853968254,3.42
-0.688195447104,-0.511375739554,-0.125141252032,-2.63426550466,-0.0667831123704,2.11239023883,-0.936485643866,-0.0428984965195,0.0074037862402,0.00214280988494,0.00819875181191,0.000115472259695,0.000340076133752,-0.0466793601573,0.57382473966,0.818942823101,0.00621027743297,0.0,0.818943091189,-0.573734756811,-0.0118907157753,0.0,-0.00617488321865,0.0119092799728,-0.999910015885,0.0,0.255581902636,-0.272285518019,0.30499104733,1.0,-0.0101688888889,-0.0133648253968,3.436
-0.688908316658,-0.511213384746,-0.125124808109,-2.63413882465,-0.0667580706664,2.11241293365,-0.937194878235,-0.0404398286976,0.0141736293909,0.00216632451836,0.00808575650438,-0.000140625901143,-0.000655609889555,-0.0430438130268,0.573830476808,0.818938739437,0.00621866849003,0.0,0.818938954656,-0.57374014609,-0.0119155449973,0.0,-0.00619032081473,0.0119304424378,-0.999909668156,0.0,0.255408924264,-0.272507112771,0.30498581157,1.0,-0.00982888888889,-0.012917968254,3.453
-0.689782291413,-0.511019314411,-0.125090395478,-2.6339825807,-0.0667400173333,2.11244475667,-0.938100986381,-0.0456522968379,0.00898130615405,0.00183376505399,0.00905472258569,0.000163076813102,0.00300616924482,-0.0418011509286,0.573798172901,0.818961455824,0.00620786207314,0.0,0.818961627663,-0.573708080547,-0.0119011610007,0.0,-0.00618521058934,0.0119130946293,-0.999909906615,0.0,0.255227986102,-0.2727525828,0.30499339035,1.0,-0.00944888888889,-0.0124185396825,3.472
-0.690456279012,-0.510865535179,-0.125070458728,-2.63386838842,-0.0667134774366,2.1124796495,-0.938762087373,-0.0398667813978,0.00933405829298,0.000281081725195,0.00570109390553,-0.000388815739734,0.00476436439816,-0.0418168948329,0.573811782798,0.818951874906,0.00621380815377,0.0,0.818952118284,-0.573721652113,-0.0119012922327,0.0,-0.00618170832496,0.011918142525,-0.999909868119,0.0,0.255078229155,-0.272950467674,0.304991740304,1.0,-0.00912888888889,-0.011997968254,3.488
-0.691153479788,-0.510701201081,-0.125044216135,-2.63375943597,-0.0666992327199,2.11250510554,-0.939457602596,-0.0401356223657,0.00802873168321,0.0022413547894,0.00664359559404,0.000339318910818,0.000514467010566,-0.040195483271,0.573806287739,0.818955753672,0.00621003859153,0.0,0.818955785994,-0.573715861783,-0.0119280102027,0.0,-0.00620583442466,0.0119303439864,-0.999909573167,0.0,0.254919467182,-0.273151084085,0.304983127982,1.0,-0.00878888888889,-0.0115511111111,3.505
-0.691860783847,-0.510532353657,-0.125029607355,-2.63366430923,-0.0666762195128,2.11253529435,-0.940138985483,-0.0435193157818,0.0129386263184,0.000905345111002,0.00755107407333,-0.000433847357267,0.00203392828959,-0.0337486966265,0.57382398072,0.818943287985,0.00621909286227,0.0,0.818943236795,-0.573733126481,-0.0119591549776,0.0,-0.00622588997483,0.0119557641394,-0.999909144872,0.0,0.254746981188,-0.273365317641,0.304970628803,1.0,-0.00840888888889,-0.0110516825397,3.524
-0.692420597991,-0.510400564122,-0.12502213333,-2.63358955241,-0.0666535242884,2.11256321461,-0.940711185706,-0.0375750122184,0.00979440333136,0.000212651455192,0.00180212638675,0.00668686815192,0.000535486973538,-0.0295012540168,0.573830307712,0.818938726553,0.0062359445412,0.0,0.81893867983,-0.573738968192,-0.0119909114725,0.0,-0.00624213756521,0.0119878354131,-0.999908659589,0.0,0.254622094609,-0.273513167685,0.304954371873,1.0,-0.00812888888889,-0.0106836825397,3.538
-0.693022190986,-0.510252915277,-0.125003382215,-2.63348853697,-0.0666361823958,2.112592596,-0.941340434551,-0.0365786620335,0.00804910538758,0.000558608997942,0.00373426490189,0.000260756044593,0.00121568748426,-0.0370394656016,0.573806992571,0.818955052724,0.00623729067464,0.0,0.818954933895,-0.573715480241,-0.0120046192413,0.0,-0.00625293375727,0.0119966254082,-0.999908486712,0.0,0.254486854821,-0.273689239394,0.304948478057,1.0,-0.00778888888889,-0.0102368253968,3.555
-0.693600631315,-0.510112126477,-0.124978652306,-2.63339436223,-0.0666046446743,2.11261829721,-0.941935209195,-0.0337509449221,0.00769113733044,0.00232810551069,0.00781564195513,-0.000395150320847,0.00150890261707,-0.0311951254977,0.573794414679,0.818963779396,0.00624856961585,0.0,0.818963695612,-0.57370264187,-0.0120204360662,0.0,-0.00625960137095,0.0120148420646,-0.999908226269,0.0,0.254358635531,-0.273854473275,0.304941848504,1.0,-0.00744888888889,-0.00978996825398,3.572
