nelsonifechukwu/NELSON_IML_WORK/CNN-GradCAM/train2dof/data_sample_2022-02-22-08-49-09/robot_state.csv
position_joint1,position_joint2,position_joint3,position_joint4,position_joint5,position_joint6,position_joint7,velocity_joint1,velocity_joint2,velocity_joint3,velocity_joint4,velocity_joint5,velocity_joint6,velocity_joint7,ee_T_00,ee_T_10,ee_T_20,ee_T_30,ee_T_01,ee_T_11,ee_T_21,ee_T_31,ee_T_02,ee_T_12,ee_T_22,ee_T_32,ee_T_03,ee_T_13,ee_T_23,ee_T_33,v_x,v_y,time
0.465073330721,0.54778319073,-0.123997729482,-1.35583198433,0.0794832921563,1.89411030107,0.159147765085,-3.67120348029e-05,-0.00585033826144,0.000738932285975,-0.0010152581991,-0.000316110737974,-0.000134534313661,0.000240132108129,0.573798708191,0.818982311461,0.001939818059,0.0,0.818939242384,-0.573740384238,-0.0118842618488,0.0,-0.00862021424626,0.00840792910694,-0.999927496689,0.0,0.661682349989,0.260882961675,0.303214564283,1.0,0.0,0.0,0.0
0.465076551521,0.547786675837,-0.1240002351,-1.35582944435,0.0794815366826,1.89411249629,0.159144611547,0.000634782109943,-0.00178905719375,-0.000322565418436,0.000206460494631,-0.000151803626531,-0.000421642367514,0.000328350477366,0.573794656133,0.818985152188,0.00193906943035,0.0,0.818942107292,-0.573736368849,-0.0118806929631,0.0,-0.00861776239919,0.00840522556548,-0.999927540552,0.0,0.661683111745,0.260883763256,0.303213574704,1.0,-0.0001,-0.000131428571429,0.006
0.465075835946,0.547783518235,-0.124003395186,-1.35583413105,0.0794807757971,1.89411555711,0.159143810909,0.000454657310034,-0.000225291023513,7.76670909165e-06,-0.00432083017149,-6.33416610463e-05,0.000238363948021,-0.000470092143231,0.573796864461,0.818983604497,0.00193927827898,0.0,0.818940584647,-0.573738597826,-0.011878008399,0.0,-0.00861542120581,0.00840387946368,-0.999927572041,0.0,0.661683686628,0.260881030945,0.303213950061,1.0,-0.00034,-0.000446857142857,0.018
0.4650754348,0.547778273584,-0.124000925733,-1.35583607291,0.0794818735558,1.89411325814,0.159149290911,0.00102566397857,-0.00302100112517,-3.39851030309e-05,-0.000884120119084,-8.87174153436e-06,-0.000563037136584,0.000996741528277,0.573800327079,0.818981173041,0.00194158439649,0.0,0.81893815611,-0.57374202409,-0.0118799479235,0.0,-0.00861565100244,0.00840691740898,-0.999927544524,0.0,0.66168239785,0.260882055114,0.303216461754,1.0,-0.0007,-0.00092,0.036
0.465069459592,0.547726232109,-0.12399814265,-1.3558810431,0.0794803020301,1.89412040455,0.159141071826,-0.000517211257771,-0.00295662065866,0.000705204779217,-0.00167826157047,-0.000252462786843,-8.4269417464e-05,-0.00100759651507,0.573798542046,0.818982389201,0.00195607390154,0.0,0.818939523977,-0.573740143653,-0.011876469672,0.0,-0.00860450704943,0.00841676926115,-0.999927557603,0.0,0.661675900314,0.260875291409,0.303232450311,1.0,-0.00104,-0.00136685714286,0.053
0.465068138427,0.547627017738,-0.124001163072,-1.35601475944,0.0794828225117,1.89415304473,0.159140947401,0.00145417273235,-0.00716552773821,-0.000563333935146,-0.0164755806914,0.000375834489141,0.00659493985776,-0.00141388422764,0.573810028906,0.818974319359,0.0019651610634,0.0,0.818931464268,-0.573751485913,-0.0118842814284,0.0,-0.00860557289768,0.00842881437795,-0.99992744697,0.0,0.661653143835,0.260860013239,0.303246893225,1.0,-0.00136,-0.00178742857143,0.069
0.46505639111,0.547480167842,-0.124005576021,-1.35623278429,0.0794768249536,1.89420772524,0.159139710188,0.00134171706281,-0.00892567046234,-0.00126710685151,-0.0134656515859,0.000412391782385,0.00427755280253,0.00181125303805,0.573831774295,0.818959119206,0.00195007197683,0.0,0.818915996357,-0.573773221149,-0.0119007774576,0.0,-0.00862751725135,0.00842615160938,-0.999927280313,0.0,0.661624482568,0.260829184426,0.303247168661,1.0,-0.00172,-0.00226057142857,0.087
0.46503464293,0.547320556825,-0.124001305888,-1.35643136442,0.0794746375218,1.89433105105,0.159134851918,-0.00441447105749,-0.0056251592905,0.00127684652957,-0.0105585249801,0.000229948118405,0.00873107156394,-0.00207511692249,0.573853455359,0.81894374068,0.00202688764152,0.0,0.818901575709,-0.573794543468,-0.0118649942861,0.0,-0.0085539104242,0.00846875250208,-0.999927552799,0.0,0.661612584655,0.260803827914,0.303276278248,1.0,-0.00204,-0.00268114285714,0.103
0.465016618795,0.547126061946,-0.123999182798,-1.35664675384,0.079473233303,1.89444214965,0.159119422362,-0.00332818092772,-0.0113945419699,-0.000894422340047,-0.0148696306241,3.9433659079e-05,0.0105780444881,-0.000130328882879,0.573865899426,0.818934808986,0.00211068917848,0.0,0.818893664015,-0.573806579906,-0.0118288966019,0.0,-0.00847613103226,0.00851679435733,-0.999927807102,0.0,0.661594784861,0.260777452022,0.303321100534,1.0,-0.00236,-0.00310171428571,0.119
0.464986093598,0.54691741383,-0.123998497205,-1.35694639035,0.0794647316215,1.89455981072,0.159113245072,-0.00348531652365,-0.014455234786,2.20027774152e-05,-0.0178302801186,6.17562633579e-05,0.00797847503183,0.00047224069947,0.573899896556,0.818910912339,0.00213852429772,0.0,0.81887005159,-0.57384038441,-0.0118236513538,0.0,-0.00845550830702,0.00853693015323,-0.999927809996,0.0,0.661563312299,0.260731442303,0.303336444034,1.0,-0.0027,-0.00354857142857,0.136
0.46494948873,0.546654495757,-0.123998100455,-1.35735260683,0.0794585041964,1.8947023531,0.159072343665,-0.000488914884051,-0.0139710363837,0.000871237764172,-0.024927815096,-0.00146949442728,0.00263521346503,-0.0061156023019,0.573917129178,0.818898810143,0.00214813466829,0.0,0.818857896875,-0.573857397587,-0.011839715403,0.0,-0.0084629688239,0.00855419720586,-0.999927599313,0.0,0.661515283503,0.260671358489,0.303341657371,1.0,-0.00306,-0.00402171428571,0.154
0.464915479751,0.546396021246,-0.124003362917,-1.35772284838,0.0794483641817,1.89484707716,0.158939905453,-0.000704293231777,-0.0165310592605,0.000366492972978,-0.0255019107073,-4.67508231075e-06,0.0136257406342,-0.00667722843719,0.573858246487,0.818939982815,0.00218274742412,0.0,0.818899439356,-0.573798304058,-0.0118305275739,0.0,-0.00843619770086,0.00857666157776,-0.999927633104,0.0,0.661476646841,0.26061344839,0.303361201188,1.0,-0.00336,-0.004416,0.169
0.464873082095,0.546130772477,-0.124003444965,-1.358177135,0.0794366350876,1.89499649295,0.158909575374,-0.00644560041857,-0.019015054246,0.0012921077713,-0.0309572908343,-0.00025661146252,0.00541259587153,-0.00549940859717,0.573890408298,0.818917512908,0.00215713177901,0.0,0.818876467732,-0.573830392517,-0.0118641527564,0.0,-0.00847809792225,0.00857531302246,-0.999927290288,0.0,0.661420881888,0.26054315154,0.303345757353,1.0,-0.00368,-0.00483657142857,0.185
0.464814058441,0.545783602954,-0.124001204807,-1.35876962288,0.0794058211963,1.89519922939,0.158858258297,-0.00585438116709,-0.019989379497,0.000605257087695,-0.0338714342324,-0.00757939333361,0.00668054669459,-0.0068437651997,0.573920045287,0.818896831092,0.00212333388383,0.0,0.818855262236,-0.573860077088,-0.0118919441321,0.0,-0.00851994285435,0.00856389312058,-0.999927032492,0.0,0.661351000908,0.260448404255,0.303327039364,1.0,-0.00404,-0.00530971428571,0.203
0.46475273513,0.545404360852,-0.124001451439,-1.35940104318,0.0792783338299,1.89540667894,0.15874158916,-0.00124774204079,-0.0144623216313,6.46298749184e-05,-0.0414212611098,-0.0069206182772,0.00876059905078,-0.00626933234831,0.57387615191,0.818927812738,0.00203634357288,0.0,0.818885873186,-0.57381730049,-0.0118481752263,0.0,-0.00853447536626,0.00846708120837,-0.999927733022,0.0,0.661280477782,0.260331166244,0.303312781265,1.0,-0.00438,-0.00575657142857,0.22
0.464685399782,0.545001917511,-0.124004505073,-1.3600982907,0.0792675873973,1.89563368037,0.158700713992,-0.000660306963,-0.0252231845645,-0.000167785146683,-0.0402273713818,-0.000169127017018,0.0143100515162,-0.0031039936565,0.573935887869,0.818886052126,0.00199427938819,0.0,0.81884325087,-0.573876890195,-0.0119076574213,0.0,-0.00860670942814,0.00846739717554,-0.999927111213,0.0,0.661194927851,0.260221052346,0.303285592997,1.0,-0.00472,-0.00620342857143,0.237
0.464621568014,0.544563485615,-0.124009685972,-1.36082220884,0.0792503897577,1.89588457513,0.158589044457,-0.00445514697202,-0.026891666839,-0.00132404603134,-0.0423882721611,-1.26233258757e-05,0.0137999035074,-0.0158253867357,0.573936083516,0.818885954356,0.00197805429933,0.0,0.818842693189,-0.57387690913,-0.0119450357557,0.0,-0.00864662879159,0.0084755655297,-0.999926697613,0.0,0.661108814761,0.26010991609,0.30327327768,1.0,-0.00506,-0.00665028571429,0.254
0.46455503099,0.544117016873,-0.12400796604,-1.36155488689,0.0792229597487,1.8961451539,0.158483276445,-0.00234527273941,-0.0349422275661,0.000313213155159,-0.0467531173053,-0.00248979015372,0.010509108473,-0.0025620326011,0.573936271768,0.818885852585,0.00196552437942,0.0,0.818842241445,-0.57387696731,-0.0119731749099,0.0,-0.00867686143065,0.00848145705179,-0.999926385771,0.0,0.661022431611,0.259999060661,0.303263032388,1.0,-0.00538,-0.00707085714286,0.27
0.46447177914,0.543608879453,-0.124008421228,-1.36238956755,0.0791869475777,1.89643616969,0.158405206814,-0.00815210213419,-0.0308128910666,0.000109717888449,-0.0521494282012,-0.00254714384172,0.0133041242669,-0.00650327931993,0.573977665764,0.818856894277,0.00194236987755,0.0,0.818812819662,-0.57391829702,-0.0120042327663,0.0,-0.0087151549426,0.00848076213968,-0.99992605864,0.0,0.660925484444,0.25986528041,0.3032505262,1.0,-0.00572,-0.00751771428571,0.287
0.464399215034,0.543032852334,-0.124021645073,-1.36330094375,0.0791251788331,1.89675304699,0.158268055001,-0.00180411248065,-0.0350948123856,-0.000602747814112,-0.051654183591,-0.000182266262003,0.0243440180118,-0.0110511361738,0.573968172361,0.818863600999,0.00192015035161,0.0,0.818819326444,-0.57390898724,-0.0120054949054,0.0,-0.00872903930746,0.00846319112939,-0.999926086403,0.0,0.660819282829,0.25972055124,0.303252099021,1.0,-0.00608,-0.00799085714286,0.305
0.464320362668,0.542495690939,-0.124022950096,-1.36415234933,0.0790722734234,1.89705520161,0.158170459715,-0.00109315877686,-0.0279789982224,-0.00181209676394,-0.0515741352509,-0.00627971937009,0.0216497299086,-0.00163083949242,0.573986895297,0.818850504362,0.00190851635094,0.0,0.818806073,-0.573927752936,-0.0120123323665,0.0,-0.00874112220979,0.00845778897752,-0.999926026558,0.0,0.660721206884,0.259585624015,0.303252998795,1.0,-0.0064,-0.00841142857143,0.321
0.464248751792,0.541873588666,-0.124028036961,-1.3651031639,0.0790197097324,1.89740844216,0.158030162817,-0.00496377764752,-0.0340690627286,-0.000950751385845,-0.0578037868908,-0.00539499403375,0.0135152232429,-0.0115064927038,0.573973002063,0.818860190239,0.00193097023601,0.0,0.818816025447,-0.573913739551,-0.0120034547943,0.0,-0.00872110883566,0.00847093144901,-0.999926090059,0.0,0.660611474682,0.259446137249,0.303271140383,1.0,-0.00674,-0.00885828571429,0.338
0.464157474928,0.541230788769,-0.124020488684,-1.36610618604,0.0789676448614,1.89778202892,0.157902369588,-0.00631107763749,-0.0406304229727,0.000574910910609,-0.0604212364493,-0.00197962853111,0.0188391203227,-0.00551674758271,0.573979589181,0.818855531769,0.0019483829172,0.0,0.818811471588,-0.573920132179,-0.012008446089,0.0,-0.00871513411991,0.00848812465925,-0.99992599635,0.0,0.660496312333,0.259296524536,0.303280335277,1.0,-0.00708,-0.00930514285714,0.355
0.46408116045,0.540569686743,-0.124024416584,-1.36710979029,0.0789064501596,1.89814685096,0.15778675681,-0.00729811566585,-0.0448807539406,0.000275045842275,-0.0706157637289,-0.00320326660587,0.0267382106211,-0.00349015368031,0.573989367718,0.818848634464,0.00196633780113,0.0,0.818804817942,-0.573929842129,-0.0119980552332,0.0,-0.00869621862928,0.00849696659534,-0.999926085938,0.0,0.660378833847,0.259148253798,0.303301691416,1.0,-0.0074,-0.00972571428571,0.371
0.463979570284,0.539848256585,-0.124025950181,-1.36821947113,0.0788405662628,1.89856407758,0.157645106865,-0.00880151238631,-0.042278816975,0.000168080120974,-0.0660123492711,0.00019498813947,0.0280544898854,-0.01333515714,0.574001494758,0.818840074409,0.0019908436228,0.0,0.818796575176,-0.573941861484,-0.011985617079,0.0,-0.00867184204586,0.0085100219033,-0.999926186617,0.0,0.660254960552,0.258975684887,0.303319559882,1.0,-0.00774,-0.0101725714286,0.388
0.463875347402,0.539076453963,-0.124027154883,-1.36938887634,0.0787661778607,1.89900153834,0.157501145345,-0.00719179283384,-0.0408405266079,8.18119030405e-05,-0.0671283761453,-0.00342738219529,0.0230498535628,-0.00553435949322,0.574018373729,0.818828183647,0.0020147427105,0.0,0.818785019648,-0.573958660955,-0.0119705478959,0.0,-0.00864560941731,0.00852111964358,-0.999926319264,0.0,0.660114580558,0.258784628702,0.303339680055,1.0,-0.0081,-0.0106457142857,0.406
0.463771883206,0.53835079552,-0.124030104664,-1.37051105497,0.0787111509679,1.89943765749,0.157354176574,-0.00822012659748,-0.0501642031558,0.000175873832089,-0.0717617370504,-0.00313830949661,0.0271068565289,-0.0155529678633,0.574028387007,0.818821048104,0.00206130860832,0.0,0.818778424971,-0.573968413234,-0.0119540082469,0.0,-0.00860523320809,0.00854985969926,-0.999926422223,0.0,0.660000366371,0.258622155775,0.303362574089,1.0,-0.0084,-0.01104,0.421
0.463657909969,0.537504288077,-0.124038957427,-1.37183630045,0.0786302389188,1.89994785024,0.157195322152,-0.00623477742577,-0.0475318173842,0.000678594803507,-0.0779553272065,-0.00794949221484,0.0240037075276,-0.00439711726155,0.574049409215,0.818806252948,0.00208394194813,0.0,0.81876399183,-0.573989406069,-0.0119345843691,0.0,-0.00857611682347,0.00855746249215,-0.999926607335,0.0,0.659853415861,0.258417133288,0.303374099112,1.0,-0.00876,-0.0115131428571,0.439
0.463541914728,0.536674262172,-0.124039685094,-1.37313567715,0.0785590239898,1.90041990115,0.157048305939,-0.00389766171924,-0.0464691658953,0.000206989767137,-0.0732737843745,-0.00645659810964,0.0289879212621,-0.0113997000837,0.574076936142,0.818786938966,0.00208970564617,0.0,0.818744666026,-0.57401681906,-0.0119419509354,0.0,-0.00857855242764,0.00856669889144,-0.999926507354,0.0,0.659702233887,0.258217345534,0.303382579785,1.0,-0.0091,-0.01196,0.456
0.46343382659,0.53586116239,-0.12405582899,-1.37441520058,0.0784811187299,1.90089164345,0.156888526099,-0.00675829930687,-0.0568137582621,-0.00174928379587,-0.0864810187991,-0.00243721897316,0.0244976778332,-0.0045885289688,0.574095424639,0.818773976605,0.00208938820815,0.0,0.818731767963,-0.574035374901,-0.0119342947777,0.0,-0.00857227229256,0.00856223737941,-0.999926599426,0.0,0.659556712512,0.258014872855,0.303388876649,1.0,-0.00942,-0.0123805714286,0.472
0.463302575611,0.534908113926,-0.124049274983,-1.37592211516,0.0784033547335,1.90144044995,0.156704769475,-0.00824895993518,-0.052495402685,7.18834552765e-05,-0.0890540938777,-0.00686577652862,0.0333527178108,-0.00790031015277,0.574109664229,0.818763981763,0.0020934441977,0.0,0.818721642518,-0.574049412735,-0.0119536903257,0.0,-0.0085856759764,0.00857684234203,-0.99992635926,0.0,0.659377889253,0.257790412272,0.303391495572,1.0,-0.00978,-0.0128537142857,0.49
0.463174646059,0.533957656063,-0.124057794578,-1.377491463,0.0783086682492,1.90199901039,0.156511325189,-0.00995393559713,-0.0587589149893,6.89707261125e-06,-0.0874091429791,-0.0135451900129,0.0318112516523,-0.0121469477266,0.574128470886,0.818750933603,0.00203826958205,0.0,0.81870785231,-0.574068424364,-0.0119851414957,0.0,-0.00864290598433,0.00854992288477,-0.999926096767,0.0,0.659200292557,0.257563261615,0.303360438077,1.0,-0.01012,-0.0133005714286,0.507
0.463051846999,0.533103010254,-0.124055658435,-1.37888178513,0.0782362916269,1.90252462527,0.156328215859,-0.00734762927042,-0.0506131960413,7.98866454571e-07,-0.085555143256,-7.62280879855e-05,0.0332154695468,-0.0156670681292,0.574128433734,0.818750966582,0.0020354851722,0.0,0.818707729442,-0.574068280748,-0.0120004038221,0.0,-0.00865700142953,0.00855640523152,-0.999925919384,0.0,0.65902837609,0.25734032681,0.303350174687,1.0,-0.01046,-0.0137474285714,0.524
0.46292255988,0.532140028868,-0.124055667617,-1.38043215215,0.0781483104796,1.90310478023,0.156136415435,-0.0126026936446,-0.0579795510764,0.00045811059582,-0.0849747318877,-0.00540930388435,0.0301763117736,-0.0156991820617,0.574138381463,0.818744002397,0.00203085494074,0.0,0.818700637685,-0.574078180456,-0.0120106402558,0.0,-0.00866793704987,0.00855859657133,-0.999925805894,0.0,0.658846321287,0.257108862899,0.303341460099,1.0,-0.0108,-0.0141942857143,0.541
0.462784726915,0.531147078468,-0.124055667943,-1.38203258041,0.0780536478479,1.90368458075,0.155931583925,-0.0103668250522,-0.0611915486994,-0.000480614913285,-0.0946093820881,-0.0128817732835,0.0274349140253,-0.0120015911443,0.574145269908,0.818739229112,0.00200764971623,0.0,0.818695497395,-0.574085103508,-0.0120301029457,0.0,-0.00869712286331,0.00855084511606,-0.999925618785,0.0,0.658655437772,0.256865156898,0.303329790914,1.0,-0.01114,-0.0146411428571,0.558
0.462662409571,0.530231343022,-0.124063489292,-1.38349533871,0.0779591613984,1.90419636145,0.155747846815,-0.013714716613,-0.0621695580336,-0.00105598570783,-0.0940802308066,-0.00426396895976,0.0345032336372,-0.015528151508,0.574147352757,0.818737833782,0.0019808475103,0.0,0.818693723291,-0.574087272715,-0.0120473088869,0.0,-0.00872657624973,0.00853880232713,-0.999925465083,0.0,0.658466419548,0.25662849952,0.303325685246,1.0,-0.01146,-0.0150617142857,0.574
0.462516399111,0.529121708948,-0.124061410775,-1.38523378428,0.0778505750607,1.90485054056,0.155508606822,-0.010119768861,-0.0631293718605,-3.82527354602e-05,-0.0986038284307,-0.0106487298606,0.0271680980866,-0.0160587033715,0.574141879826,0.818741644449,0.00199207833184,0.0,0.818697746954,-0.574081817256,-0.0120338327361,0.0,-0.00870915173264,0.00854020181597,-0.999925605047,0.0,0.658274746882,0.256378023095,0.303334111692,1.0,-0.0118,-0.0155085714286,0.591
0.462374773899,0.528039937801,-0.124056673947,-1.38693999797,0.0777318920294,1.90551034853,0.155267532232,-0.00514648891679,-0.0574581583116,0.000667551588877,-0.0986991629436,-0.00705203889512,0.0391541776129,-0.0109375100042,0.574117724738,0.818758531222,0.00201310581287,0.0,0.818715038596,-0.574057703757,-0.0120077156468,0.0,-0.00867594776483,0.0085421668529,-0.999925876911,0.0,0.658077278165,0.256124815242,0.303340693117,1.0,-0.01214,-0.0159554285714,0.608
0.462240915425,0.526942421948,-0.124067372333,-1.38859971188,0.0776411647978,1.90614807221,0.155044224962,-0.0110047248392,-0.0743944026232,-0.00387324879564,-0.100585326315,-0.00999445054843,0.0386930022784,-0.00757041344409,0.574117467474,0.818758544725,0.00207987561702,0.0,0.818715903311,-0.574057146339,-0.0119753623554,0.0,-0.00861112858413,0.00857825711017,-0.999926128256,0.0,0.657886217281,0.255876495012,0.303378821191,1.0,-0.01246,-0.016376,0.624
0.462094103643,0.525780701455,-0.124070227243,-1.3904238799,0.0775207768811,1.90680786537,0.15479814742,-0.00686622236245,-0.0651042239585,-0.00295914236037,-0.109706759893,-0.00545947823561,0.0271506026949,-0.0115430922332,0.574104009261,0.81876800238,0.00207164944245,0.0,0.818725305291,-0.574043775458,-0.0119735222854,0.0,-0.00861448531121,0.00857032397652,-0.999926167369,0.0,0.657665299019,0.255602312946,0.303385214943,1.0,-0.0128,-0.0168228571429,0.641
0.46193940486,0.524673358116,-0.1240684527,-1.39215848345,0.077417913078,1.90743456158,0.154551468757,-0.00956870563002,-0.0696533857668,-0.00232347280847,-0.10999811233,-0.00540242476415,0.040813673688,-0.011934404391,0.574092964236,0.818775742688,0.00207328304729,0.0,0.818732987229,-0.574032645736,-0.0119818260092,0.0,-0.00862046230708,0.00857631235387,-0.999926064515,0.0,0.657456819862,0.25533616839,0.303392698492,1.0,-0.01312,-0.0172434285714,0.657
0.461794445592,0.523538267148,-0.124074091459,-1.39396631661,0.0773041962079,1.90808901927,0.154307091061,-0.0110067637576,-0.0735554688437,0.00137751668987,-0.118243701878,-0.00748531874503,0.0439835009235,-0.0208881015792,0.574081865341,0.818783573675,0.00205384214417,0.0,0.818740574714,-0.574021639653,-0.0119906391446,0.0,-0.00863895486093,0.00856533729354,-0.99992599899,0.0,0.657236644368,0.25506395539,0.30338720774,1.0,-0.01344,-0.017664,0.673
0.461630371859,0.522253915843,-0.124073260214,-1.3960243964,0.0771763561858,1.90889131506,0.154039313228,-0.0117830631301,-0.0728220028699,0.00235047258729,-0.115100773818,-0.00422116736889,0.0489437458127,-0.0166031347748,0.574072419974,0.818790146418,0.0020735610927,0.0,0.818747448862,-0.574012156894,-0.0119752085801,0.0,-0.00861509937877,0.00857252487164,-0.999926143213,0.0,0.656994560435,0.254762947057,0.303379829768,1.0,-0.0138,-0.0181371428571,0.691
0.461458988844,0.520991772162,-0.124084022052,-1.39802528072,0.07705849812,1.90965875308,0.153765107982,-0.00958830913586,-0.0687522510267,-0.000470485071273,-0.119504413828,-0.00831946914003,0.0465424094989,-0.0211706714394,0.574071180172,0.818790959945,0.00209544984019,0.0,0.818748571473,-0.574010849907,-0.0119610953194,0.0,-0.00859099117802,0.00858233190586,-0.999926266507,0.0,0.656761651136,0.254456173119,0.303381054617,1.0,-0.01414,-0.018584,0.708
0.461299916179,0.519776495862,-0.124085142832,-1.39995099385,0.0769295938541,1.91036183146,0.153511036327,-0.00543577184242,-0.0816285684824,0.00142669800472,-0.120647166377,-0.0143497191035,0.0459715132364,-0.0209968883605,0.57406186786,0.818797523489,0.00208189797993,0.0,0.818755022237,-0.57400165868,-0.0119606143685,0.0,-0.00859847407796,0.00857086206765,-0.999926300568,0.0,0.656526994304,0.254165357257,0.303378869397,1.0,-0.01446,-0.0190045714286,0.724
0.461135086836,0.518430024504,-0.124093572837,-1.40203277776,0.0767950825202,1.91109564995,0.153235151748,-0.00970577443688,-0.0737513613956,-9.88088476487e-05,-0.123817398309,-0.0147706280442,0.049368447179,-0.0124036377672,0.574050875384,0.818805245624,0.00207583966058,0.0,0.818762691387,-0.573990718613,-0.0119606454725,0.0,-0.00860209217232,0.00856580398927,-0.999926312791,0.0,0.65626777949,0.253850948657,0.303397008337,1.0,-0.0148,-0.0194514285714,0.741
0.460950617524,0.517051663421,-0.124100014297,-1.40417762303,0.0766535480053,1.91185904579,0.152940055824,-0.0154767435492,-0.0849451164127,-0.00311838510827,-0.118443353191,-0.0032496932068,0.0400583093471,-0.0231549695735,0.574039976271,0.818812909556,0.00206680634495,0.0,0.818770287429,-0.573979907994,-0.0119594541518,0.0,-0.00860641583517,0.0085576091631,-0.999926345753,0.0,0.656004526819,0.253518672157,0.303409595604,1.0,-0.01514,-0.0198982857143,0.758
0.460782165258,0.515794300935,-0.124107173316,-1.40621066067,0.0765279028227,1.91263640359,0.152650123477,-0.00769843170506,-0.0791517517494,-0.00155061147764,-0.12975849301,-0.0122524287316,0.0448618920444,-0.0205690318732,0.574019312865,0.818827404956,0.00206306892532,0.0,0.818784777528,-0.57395930585,-0.0119561790975,0.0,-0.00860609518928,0.00855245180226,-0.999926392638,0.0,0.655761862358,0.253211660473,0.303391446536,1.0,-0.01546,-0.0203188571429,0.774
0.460596196253,0.514407214821,-0.124103623566,-1.40842519798,0.0763985202086,1.91344153067,0.152352648477,-0.0170848346123,-0.0815652315016,0.000671970003601,-0.132304369747,-0.0123688160618,0.0397776240397,-0.0187936477205,0.574007202749,0.818835933584,0.00204742882415,0.0,0.818792969146,-0.573947130421,-0.0119796518902,0.0,-0.00863441978047,0.00855299146902,-0.999926143839,0.0,0.655486506468,0.252880941242,0.303379534161,1.0,-0.0158,-0.0207657142857,0.791
0.460394931348,0.512907440709,-0.124108931818,-1.41082890866,0.0762543745223,1.91427541254,0.152028601493,-0.0124645398317,-0.0842860785809,-0.000872340245205,-0.132977955599,-0.0107900580644,0.0534088807474,-0.017495580066,0.57399536734,0.818844379938,0.00198660966026,0.0,0.818800507393,-0.573935440963,-0.0120243752655,0.0,-0.00870607403596,0.0085287369,-0.999925729703,0.0,0.655197252431,0.252534415799,0.303355284436,1.0,-0.01614,-0.0212125714286,0.808
0.460207501114,0.511572161994,-0.124115371718,-1.41299706876,0.0761220882945,1.91508777339,0.151711247793,-0.0172258777783,-0.0841909637627,-0.00270986782465,-0.136593216955,-0.00426415229135,0.0623863330802,-0.0182288852176,0.57397358469,0.818859693384,0.00196812864783,0.0,0.818815557633,-0.573913718793,-0.0120363141956,0.0,-0.00872668453605,0.0085202248023,-0.999925622607,0.0,0.65491743813,0.252181199862,0.303332823672,1.0,-0.01648,-0.0216594285714,0.825
0.460000796591,0.51003113266,-0.124115977574,-1.41545704153,0.0759759362261,1.91601066714,0.151363549716,-0.00658476104331,-0.081632912807,-0.00085596901748,-0.138344492938,-0.00349939089718,0.0496893801523,-0.0167340997156,0.573947646923,0.818877864429,0.00197196385669,0.0,0.818833709253,-0.573887699912,-0.0120420671864,0.0,-0.0087294645281,0.00852639076444,-0.999925545783,0.0,0.654615533568,0.251812833103,0.303320871018,1.0,-0.01684,-0.0221325714286,0.843
0.459794087851,0.508503355454,-0.124122729448,-1.41783087587,0.0758205663801,1.91685791774,0.151036031413,-0.00899706175743,-0.0858077445449,-0.000387293354633,-0.13988639332,-0.00239746418598,0.0512145994482,-0.0180593768335,0.573934670398,0.818886971159,0.0019671002141,0.0,0.818842787633,-0.573874780272,-0.0120404572355,0.0,-0.00873107245402,0.00852134574008,-0.999925574751,0.0,0.654319607512,0.25144447117,0.303333649384,1.0,-0.01718,-0.0225794285714,0.86
0.459592734075,0.507057617118,-0.124125546228,-1.42008066831,0.0756757592819,1.91767635678,0.150717129317,-0.0145589368013,-0.0974481461147,0.00492447456941,-0.141158797358,-0.014194781682,0.0450319438419,-0.0191311840758,0.57391773072,0.818898823542,0.00197536532652,0.0,0.818854762438,-0.573857821361,-0.0120343590318,0.0,-0.00872151152668,0.00852443345315,-0.99992563187,0.0,0.654041701758,0.251095355713,0.303344962641,1.0,-0.0175,-0.023,0.876
0.45937014145,0.505464368067,-0.124131833161,-1.42254240191,0.075521434103,1.91861581597,0.150395731208,-0.0137807709001,-0.0986298335393,0.000924328721999,-0.14360252662,-0.00624563394455,0.06585326944,-0.0222236317998,0.573926932591,0.818892238391,0.00203097280571,0.0,0.818848966939,-0.573866848163,-0.0119982008456,0.0,-0.00865989231417,0.00854931519258,-0.999925954996,0.0,0.653746768679,0.250713803368,0.303368605858,1.0,-0.01784,-0.0234468571429,0.893
0.459145615305,0.503811515698,-0.124137660679,-1.42502901204,0.0753632565194,1.9195583363,0.15004294537,-0.0157188271423,-0.0954555751991,0.000155349109595,-0.146552473941,-0.0172352087072,0.0496889861841,-0.0251772804588,0.573911322277,0.818902954732,0.002119385531,0.0,0.81886091339,-0.573850948485,-0.0119432134032,0.0,-0.00856428623678,0.0085899927522,-0.999926429807,0.0,0.653447574097,0.250328779433,0.303421628125,1.0,-0.01818,-0.0238937142857,0.91
0.45892664637,0.502220990813,-0.124144752121,-1.42737270186,0.0752077217998,1.92043246874,0.149712835311,-0.00974783858211,-0.105166261549,-0.00105538842217,-0.145567460649,-0.00911780342782,0.0576062485831,-0.0199119778489,0.573903314273,0.818908311119,0.00221602074185,0.0,0.818867650126,-0.573842673799,-0.0118787291083,0.0,-0.00845610553086,0.00863203589556,-0.999926988452,0.0,0.653165146401,0.24995869763,0.303492578921,1.0,-0.0185,-0.0243142857143,0.926
0.458690713597,0.500500070111,-0.124149727054,-1.4299559917,0.0750419120404,1.92134378411,0.149348785663,-0.0161140181278,-0.102733609797,0.000436988133719,-0.154028713262,-0.0141210485725,0.0547321218325,-0.0245759485638,0.573888687697,0.818918451912,0.00225613654378,0.0,0.818878296991,-0.57382787384,-0.0118597142898,0.0,-0.00841766689645,0.00865382373389,-0.999927124454,0.0,0.65283913209,0.24955311021,0.303543077475,1.0,-0.01884,-0.0247611428571,0.943
0.458438390605,0.498812006607,-0.124150438804,-1.43257054042,0.0748814867693,1.92230756161,0.148980158522,-0.0144611032655,-0.098027396911,-0.00123788642548,-0.149508602059,-0.00787290985007,0.0627234133869,-0.0147077192498,0.57388372488,0.818921840946,0.00228815229862,0.0,0.818882051165,-0.573822733042,-0.0118492288847,0.0,-0.00839076007457,0.00867397345784,-0.999927176013,0.0,0.652516870687,0.249139643013,0.303559636875,1.0,-0.01918,-0.025208,0.96
0.458200630711,0.49724484318,-0.124148021202,-1.43506449433,0.0747277167632,1.92322235842,0.148613748999,-0.0136776048116,-0.0961719113711,-0.00071077597536,-0.158189982353,-0.0152365550265,0.0554935804962,-0.0194707431429,0.573861638709,0.818937346746,0.00227785527796,0.0,0.818897346388,-0.57380061092,-0.0118634686,0.0,-0.00840856463936,0.00867348616566,-0.999927030677,0.0,0.652204928644,0.248748108253,0.30354442117,1.0,-0.0195,-0.0256285714286,0.976
0.45793418845,0.495564713931,-0.12414809981,-1.43776223553,0.0745633144514,1.92414587502,0.148207000725,-0.017507654625,-0.0977845792399,0.00077292309058,-0.157447409333,-0.00530101441623,0.0529845195045,-0.0274253222,0.573838370294,0.818953861281,0.00220108440901,0.0,0.818912666216,-0.573777452007,-0.0119259205582,0.0,-0.00850400981518,0.00864621318574,-0.999926459703,0.0,0.651855448838,0.248312857107,0.303511204299,1.0,-0.01984,-0.0260754285714,0.993
0.45764818494,0.493853756047,-0.124167981107,-1.44056600315,0.0743843526463,1.92514272494,0.147820192363,-0.0157268679045,-0.110438304735,-0.00133185074579,-0.181010447579,-0.0121025078926,0.0674984344571,-0.0198771602718,0.573862731948,0.818937028027,0.00211090233394,0.0,0.818894665464,-0.573802188262,-0.0119717384433,0.0,-0.008593024965,0.00859890674542,-0.999926106632,0.0,0.651504483565,0.247843830248,0.303455393345,1.0,-0.0249222857143,-0.0327550040816,1.01
0.457368251869,0.491557242631,-0.124249536824,-1.44403354069,0.0741965045777,1.92645945646,0.147323512092,-0.0233567473267,-0.150508458556,-0.0026862611685,-0.236725006917,-0.0124188692395,0.0933362107845,-0.0343380288688,0.573867714946,0.818933217847,0.00223099758588,0.0,0.818892557477,-0.573806820643,-0.0118936451067,0.0,-0.00846010231077,0.00865249284591,-0.999926777837,0.0,0.651082842188,0.2472917741,0.303519721032,1.0,-0.0337085714286,-0.0443026938775,1.026
0.456936086964,0.48849098089,-0.124257764057,-1.44897239603,0.073926864162,1.92828842921,0.146582214257,-0.0294349825132,-0.192823028408,0.00103704573756,-0.309352508965,-0.0220507095872,0.115219455604,-0.0539033883451,0.573794741193,0.818984407832,0.00220943628077,0.0,0.818943056954,-0.573733525331,-0.0119523336657,0.0,-0.00852131130469,0.00866775558542,-0.999926125905,0.0,0.650448184205,0.246541236278,0.303460086124,1.0,-0.043044,-0.0565721142857,1.043
0.456333832044,0.484518488422,-0.1243393429,-1.45514832966,0.073551187948,1.93062393689,0.145649611545,-0.0403586485859,-0.250218717132,-0.00838898461111,-0.381709934289,-0.0232836186216,0.145896407155,-0.0605552469506,0.57378756767,0.818989168667,0.00230557907382,0.0,0.818949322535,-0.573726226662,-0.0118731150354,0.0,-0.00840134318195,0.00870096573796,-0.999926852639,0.0,0.649695164026,0.245520143813,0.303484381254,1.0,-0.0523794285714,-0.0688415346939,1.06
0.455652399126,0.48010723673,-0.12446311277,-1.46216212609,0.0731345127874,1.93304659955,0.1445914884,-0.0461442141655,-0.291303075322,-0.00575317745078,-0.464085770825,-0.0341124134293,0.154926346772,-0.0680934431348,0.573799257569,0.818981422015,0.00214226716436,0.0,0.81893937884,-0.573738502206,-0.0119654407478,0.0,-0.00857053753383,0.0086203139262,-0.999926115308,0.0,0.648788914902,0.244330015832,0.303419396912,1.0,-0.0611657142857,-0.0803892244898,1.076
0.454833241811,0.474933918342,-0.124580606383,-1.47019106903,0.0726517921918,1.93590531955,0.143428359003,-0.0503943005759,-0.346111933737,-0.00752152047576,-0.529119447602,-0.0284352829969,0.197459933942,-0.0798506956725,0.573870603617,0.818931418876,0.00214671455447,0.0,0.818889467673,-0.573809855141,-0.0119597984209,0.0,-0.00856261357964,0.00862146466762,-0.999926173273,0.0,0.647698966625,0.242869147682,0.303436972942,1.0,-0.0705011428571,-0.092658644898,1.093
0.453684533802,0.467931943974,-0.12466355704,-1.48086916473,0.0720276471075,1.93985447471,0.141782708611,-0.0620860946983,-0.394053714973,-0.00266154690403,-0.58579882166,-0.0382233710519,0.227884619049,-0.0879844995508,0.573857315639,0.818940088776,0.00237890380355,0.0,0.818900894665,-0.573795363655,-0.0118723319534,0.0,-0.00835788552602,0.00876127967998,-0.999926690177,0.0,0.646416997808,0.241168319755,0.303531526441,1.0,-0.0803857142857,-0.105649795918,1.111
0.452645265864,0.461783046316,-0.124705910039,-1.49036019127,0.0714255778604,1.94323885605,0.140276608321,-0.0742817390062,-0.418947046246,-0.00482160354083,-0.670592370868,-0.0452666345807,0.220011123177,-0.0988904287853,0.573788159847,0.818988484853,0.00239920815076,0.0,0.818949348069,-0.573725920157,-0.0118861574512,0.0,-0.00835829910086,0.00878513550358,-0.999926477412,0.0,0.64508547335,0.239449854326,0.303541743161,1.0,-0.089172,-0.117197485714,1.127
0.451220804716,0.453678621316,-0.124832535095,-1.50302642017,0.0705853367104,1.94752215553,0.138356766377,-0.0803370770874,-0.471764649473,-0.00703021904819,-0.731602913176,-0.0475429285632,0.251765153333,-0.113214378133,0.573830288664,0.818959665487,0.00214779388298,0.0,0.81891714624,-0.573768955222,-0.0120266586776,0.0,-0.00861717682264,0.00866029299549,-0.99992536901,0.0,0.643466728486,0.237341521935,0.303468084792,1.0,-0.0985074285714,-0.129466906122,1.144
0.449741272164,0.445100465456,-0.124948122959,-1.51573600261,0.0697228446168,1.95223969901,0.136372405528,-0.0952042129304,-0.509829530038,-0.00587710971745,-0.762867469664,-0.0422280540743,0.273131947187,-0.117573647727,0.573841476304,0.818950509368,0.00260195684298,0.0,0.818914681725,-0.573779193528,-0.0117016251667,0.0,-0.0080902589543,0.00884582883036,-0.99992814693,0.0,0.641831248459,0.235119481887,0.303711934248,1.0,-0.107842857143,-0.141736326531,1.161
0.448180692105,0.436587472107,-0.124980388176,-1.52884612539,0.0688639426983,1.95670148877,0.134270320376,-0.10029113693,-0.544428976956,-0.00385520388779,-0.828812608836,-0.0581669610869,0.282472318604,-0.135934964059,0.573766733851,0.819003211998,0.00249414597868,0.0,0.818965332805,-0.573704154459,-0.0118352744308,0.0,-0.00826238494039,0.00883347591765,-0.999926848674,0.0,0.640011415796,0.232837062897,0.303679847918,1.0,-0.116629142857,-0.153284016327,1.177
0.446246994129,0.42620403494,-0.125068288361,-1.54440193501,0.0677722917868,1.96226400094,0.131723101343,-0.107135870012,-0.574714162735,-0.00283302629338,-0.892659393667,-0.0641320123113,0.310190873275,-0.143595208971,0.573700015128,0.819049030201,0.00277950885668,0.0,0.819015358386,-0.573636968088,-0.0116283477799,0.0,-0.00792991061398,0.0089478160128,-0.999928523999,0.0,0.637906986893,0.230064498482,0.303834416761,1.0,-0.126513714286,-0.166275167347,1.195
0.444196733768,0.415764452624,-0.125168876149,-1.56010741156,0.0666456712196,1.9676889794,0.129121420438,-0.125285284675,-0.6492212333,-0.0102135616911,-0.927960795323,-0.0698644124645,0.341016075834,-0.15744483524,0.573669383535,0.81907018659,0.00286613601153,0.0,0.81903796037,-0.573606420729,-0.011542983743,0.0,-0.00781063020809,0.00896950325174,-0.999929268532,0.0,0.635724621816,0.227189188563,0.303918119697,1.0,-0.135849142857,-0.178544587755,1.212
0.442115961941,0.405457130482,-0.125267754513,-1.57579848281,0.0655876944435,1.97308510472,0.126497392815,-0.133210935888,-0.653797760082,-0.00336017686587,-1.01243273988,-0.0731815929945,0.345689799613,-0.156523396794,0.573646918501,0.819085906768,0.00287004000546,0.0,0.81905333341,-0.573583489386,-0.011591576023,0.0,-0.00784844010345,0.00900036098449,-0.999928695203,0.0,0.633495434459,0.224314733285,0.303891091555,1.0,-0.144635428571,-0.190092277551,1.228
0.439631676286,0.393768578771,-0.125386675152,-1.59320051747,0.0643902742484,1.97904003336,0.123547749336,-0.151657740622,-0.700706928596,-0.00941011264234,-1.05016096344,-0.0807638674358,0.3629997558,-0.180448800082,0.573710809732,0.819040449276,0.00306531358662,0.0,0.819010164163,-0.573646461361,-0.0115254183032,0.0,-0.00768152538642,0.0091229556962,-0.999928880395,0.0,0.631014284159,0.221020566598,0.30399946783,1.0,-0.153970857143,-0.202361697959,1.245
0.436948324666,0.381671742922,-0.125533020422,-1.61144702813,0.062980608598,1.98506906944,0.120293931351,-0.161717602394,-0.734149296851,-0.0112755414821,-1.06934156511,-0.0834973615822,0.362806112499,-0.193807820213,0.573649516873,0.819084048693,0.00288094924316,0.0,0.819051819694,-0.57358628477,-0.0115601678165,0.0,-0.00781642657612,0.00899130451342,-0.999929027441,0.0,0.628334395245,0.217482525945,0.303953087952,1.0,-0.163306285714,-0.214631118367,1.262
0.434203243489,0.36966448647,-0.125650817502,-1.62937474525,0.061660516206,1.99100955222,0.117124890078,-0.176313763969,-0.745032769913,-0.00262499945056,-1.13959250227,-0.0830109872578,0.368385988219,-0.201404436495,0.573677071374,0.819064800266,0.00286664356883,0.0,0.819032198208,-0.573613667182,-0.0115916358739,0.0,-0.00785010613064,0.00899790234172,-0.999928704252,0.0,0.625663345889,0.213983815039,0.303953039357,1.0,-0.172092571429,-0.226178808163,1.278
0.431005561194,0.356394329628,-0.125850894739,-1.64898673912,0.0601058653646,1.99750008339,0.11356897639,-0.198017581942,-0.762561002412,-0.00899028531163,-1.17592454332,-0.0883705570555,0.385040646466,-0.219548383706,0.573772143208,0.818998115287,0.00289166675422,0.0,0.818966633476,-0.573709563027,-0.0114776934273,0.0,-0.00774138146041,0.00895393173464,-0.999929946606,0.0,0.622560556359,0.209758146403,0.303999416549,1.0,-0.181977142857,-0.239169959184,1.296
0.427309857069,0.341721562691,-0.126030922433,-1.67049042577,0.0585380341616,2.00446489209,0.109493583457,-0.207070521111,-0.818944841144,-0.00749596854798,-1.20569674202,-0.0929990390646,0.397322269424,-0.222576835652,0.573885677248,0.818918135946,0.00301047664497,0.0,0.818887493256,-0.573821894973,-0.0115088287513,0.0,-0.00769745937471,0.00907016828443,-0.99992923808,0.0,0.619440735521,0.205577854872,0.304066458085,1.0,-0.191312571429,-0.251439379592,1.313
0.424085864686,0.329154780439,-0.126141381715,-1.68895689925,0.0570861333508,2.01036440041,0.105917872347,-0.2157854004,-0.843372195009,-0.01173609486,-1.22006827505,-0.0962431819573,0.393893126722,-0.248517326591,0.573843089824,0.81894799164,0.00300701705138,0.0,0.818917174856,-0.57377917169,-0.0115269146446,0.0,-0.00771472837743,0.00907731299067,-0.99992904016,0.0,0.616340453501,0.201527641659,0.304063206018,1.0,-0.200098857143,-0.262987069388,1.329
0.420227171675,0.314398456977,-0.126226783691,-1.71051587964,0.0552616984603,2.01719997592,0.101687843188,-0.231886527383,-0.860734037044,-3.02288613319e-05,-1.28470346075,-0.0959809753028,0.390017562608,-0.260222192509,0.573732553223,0.819025786989,0.00290938504871,0.0,0.818993992982,-0.573669295388,-0.0115380192773,0.0,-0.00778106025747,0.00900267946672,-0.999929200926,0.0,0.613059427225,0.197327930293,0.304025895323,1.0,-0.208885142857,-0.274534759184,1.345
0.415778042651,0.298202520363,-0.126346499,-1.73391551586,0.053300541632,2.02448854676,0.0968417162945,-0.261381227168,-0.884869469224,-0.00990135004776,-1.32945261366,-0.10822336506,0.393009621597,-0.267072352181,0.573587273481,0.819127522811,0.00291341297354,0.0,0.819095792391,-0.573524034556,-0.0115330643942,0.0,-0.00777628782239,0.00900175658061,-0.99992924636,0.0,0.609227045706,0.192358593934,0.30404004818,1.0,-0.218769714286,-0.287525910204,1.363
0.411515111448,0.28329081729,-0.126503705497,-1.75511751011,0.051575886864,2.03097107707,0.092428042496,-0.273408089174,-0.91900363763,-0.0178016178147,-1.3409617746,-0.109195849992,0.403642191705,-0.285252796914,0.573642526229,0.819088296123,0.00305976434116,0.0,0.819057963769,-0.573578233385,-0.0115242819721,0.0,-0.00768453821032,0.00911711810708,-0.999928910488,0.0,0.605697406872,0.187731322825,0.304132946884,1.0,-0.227556,-0.2990736,1.379
0.406645238787,0.267037222425,-0.126673519695,-1.77819025379,0.0496057323854,2.03788031231,0.0873926260488,-0.291953368595,-0.968459192409,-0.0119256202549,-1.36068792643,-0.109170183995,0.399788699206,-0.288327896772,0.573621755162,0.819102719132,0.00309263896994,0.0,0.819072504756,-0.573556995507,-0.0115478031761,0.0,-0.0076851802293,0.00915734298079,-0.999928537984,0.0,0.601775360562,0.182584456684,0.304169987394,1.0,-0.236891428571,-0.311343020408,1.396
0.401345436204,0.250338167188,-0.126908116887,-1.80170488109,0.0474845627182,2.04482565943,0.0821893244833,-0.315684158836,-0.994888625427,-0.00547937261943,-1.38933312028,-0.12214710196,0.399178225566,-0.312328874348,0.573775679458,0.818994840194,0.00310938898839,0.0,0.818965209245,-0.573711285418,-0.0114932124251,0.0,-0.00762913700456,0.00914118316798,-0.999929115007,0.0,0.597731133226,0.177137403827,0.304210120459,1.0,-0.246226857143,-0.323612440816,1.413
0.396118727748,0.234227671807,-0.127071511778,-1.82421918005,0.0454502897559,2.05131640729,0.0769478176318,-0.33190377627,-1.03951759748,-0.0143311099906,-1.40871098056,-0.131075812682,0.433315054958,-0.337522226266,0.573738537754,0.819020777828,0.00313092363693,0.0,0.818991215812,-0.573673830428,-0.0115096310039,0.0,-0.00763064489528,0.00916789432864,-0.999928858956,0.0,0.593743210805,0.171917316458,0.304237253572,1.0,-0.255013142857,-0.335160130612,1.429
0.389937434793,0.215686918932,-0.127232902058,-1.84992893807,0.0430430748802,2.0586266177,0.0707630361497,-0.358678413539,-1.07506095731,-0.0182465860357,-1.42699853869,-0.147317419735,0.425486875879,-0.34861590372,0.573598229821,0.819118882645,0.00317391586815,0.0,0.819089868079,-0.573533398035,-0.0114880916608,0.0,-0.00758991218131,0.00918944829575,-0.999928971114,0.0,0.589084835133,0.165902697839,0.304258976555,1.0,-0.264897714286,-0.348151281633,1.447
0.384019174097,0.198878357311,-0.127410440739,-1.87309678529,0.0408631125257,2.06489509147,0.0650071865791,-0.378251825996,-1.05232631452,-0.0168171619193,-1.43896952262,-0.137285948945,0.382372452155,-0.366780831702,0.573575521823,0.819135196545,0.00306552575112,0.0,0.819104086333,-0.573510209741,-0.0116310780511,0.0,-0.00776946467517,0.00918246312288,-0.999927656278,0.0,0.584774651532,0.160314635648,0.30423037743,1.0,-0.273684,-0.359698971429,1.463
0.377630769438,0.181600533343,-0.127675482506,-1.89661405133,0.0386022986144,2.07120415033,0.058887015403,-0.41145494776,-1.0678117659,-0.0148227981912,-1.43573793042,-0.13248817614,0.372966515249,-0.388885593553,0.573635690077,0.819093007209,0.00308018061943,0.0,0.81906173543,-0.573569905533,-0.0116697867156,0.0,-0.00779209180937,0.0092172416997,-0.999927160228,0.0,0.580357912478,0.15443955431,0.304245436884,1.0,-0.282470285714,-0.371246661224,1.479
0.370011244784,0.161766211114,-0.127954468144,-1.9233511075,0.0359032379965,2.07813666316,0.0517230734169,-0.429489780164,-1.10986595369,-0.010698571807,-1.47899592653,-0.147263357956,0.362052634074,-0.415387506279,0.573694524241,0.819051990556,0.00302927770036,0.0,0.819019907807,-0.573628727418,-0.0117141195494,0.0,-0.00785694349282,0.00920154214287,-0.999926797351,0.0,0.575207795864,0.14763931181,0.304250912614,1.0,-0.292354857143,-0.384237812245,1.497
0.36241643156,0.1426603132,-0.128187768406,-1.9488112741,0.0332228506905,2.08460704568,0.0445979924024,-0.458827742828,-1.10884642955,-0.00958026632405,-1.49237763488,-0.157457684049,0.359963142007,-0.426287445705,0.573645451251,0.8190863604,0.00302941686015,0.0,0.81905454012,-0.573579965949,-0.0116803198864,0.0,-0.00782972863111,0.00918179678325,-0.999927192328,0.0,0.570191644578,0.14107440105,0.304267109282,1.0,-0.301690285714,-0.396507232653,1.514
0.354797920409,0.124247065612,-0.128477407623,-1.97300652173,0.0306786517091,2.09055803361,0.0374682617267,-0.494593849409,-1.14097684288,-0.0230818259656,-1.51741830702,-0.173282689427,0.366385062333,-0.451224555561,0.573622520447,0.819101994934,0.00314210634405,0.0,0.819071569386,-0.573556583705,-0.0116342775545,0.0,-0.00772763295502,0.00924747163125,-0.999927381342,0.0,0.565633947142,0.135068987076,0.30433172907,1.0,-0.309927428571,-0.407333191837,1.529
0.346112079349,0.104317634273,-0.128888100412,-1.99886575862,0.0278230772501,2.09668030026,0.0295662354017,-0.526494183201,-1.17621857756,-0.0262354569851,-1.51874268488,-0.170833168326,0.347791821797,-0.470548174781,0.573791108555,0.818983766367,0.00317821846105,0.0,0.818954171624,-0.573725469014,-0.011571425395,0.0,-0.00765353202922,0.00924257422014,-0.999927996542,0.0,0.560037860601,0.127545298217,0.304381074287,1.0,-0.319812,-0.420324342857,1.547
0.337069840967,0.0841538455619,-0.129181580608,-2.02491477611,0.0250192106203,2.10256046252,0.0212047702016,-0.549078041775,-1.17801119043,-0.0180580933637,-1.55850365479,-0.161810868545,0.333166703001,-0.496196776426,0.573728496131,0.819027607261,0.00318404975253,0.0,0.818996941089,-0.573661464619,-0.0117167145495,0.0,-0.00776989563256,0.0093301196594,-0.999926286078,0.0,0.554520982797,0.120409327266,0.30435162594,1.0,-0.329147428571,-0.432593763265,1.564
0.328035853324,0.0649382046201,-0.12949223198,-2.04934220605,0.0221649772903,2.10790035942,0.0129755067708,-0.582812985582,-1.19001708662,-0.0239645623844,-1.54411349926,-0.185648144111,0.323470406276,-0.518220844466,0.57367794192,0.819062933432,0.0032057655833,0.0,0.819032805089,-0.573611152744,-0.011672897562,0.0,-0.00772212350196,0.00932229051076,-0.99992672917,0.0,0.549258856568,0.113486441826,0.304369787453,1.0,-0.32998,-0.433688,1.58
0.317300676667,0.0435273747386,-0.129885694263,-2.07634036235,0.018989549002,2.11335136729,0.00354248745796,-0.59495219064,-1.1680810478,-0.0191733145163,-1.50505797978,-0.178610561214,0.296829340516,-0.520018074012,0.573919627634,0.81889414704,0.00306330905054,0.0,0.818861341608,-0.573852316083,-0.0118477612924,0.0,-0.00794432833724,0.00930826732108,-0.9999251191,0.0,0.543283945397,0.105536939362,0.30431673644,1.0,-0.32998,-0.433688,1.598
0.306327639861,0.022265861918,-0.130147250844,-2.10254535272,0.0157700235707,2.11844474074,-0.006201215251,-0.622259012638,-1.16039471483,-0.0221017441586,-1.46086421261,-0.197217906488,0.266895053962,-0.550235967105,0.573895386904,0.818910908597,0.00312339113827,0.0,0.818878940971,-0.573827930385,-0.0118124190975,0.0,-0.00788118152038,0.00933695182103,-0.999925351368,0.0,0.537339809414,0.0977375021518,0.304374842674,1.0,-0.32998,-0.433688,1.616
0.29685179546,0.00468727120754,-0.130421515897,-2.12376303971,0.0131682899715,2.12233869512,-0.0145410829309,-0.634394265513,-1.1617071516,-0.0244219020574,-1.41922524296,-0.168720447673,0.230438552811,-0.558318836701,0.574003426153,0.818834344657,0.00333611694171,0.0,0.818805007129,-0.573935059022,-0.011732656448,0.0,-0.00769253568501,0.00946639651275,-0.999925603348,0.0,0.53210412684,0.0907558349964,0.304503191698,1.0,-0.32998,-0.433688,1.632
0.285252983092,-0.0161461673423,-0.130616131434,-2.1487183873,0.0100486344539,2.12672630571,-0.0248407265487,-0.649446782632,-1.13656750211,-0.0136053869674,-1.37590962885,-0.169965440153,0.219536938819,-0.573118352792,0.573879747121,0.81892019169,0.00353587153091,0.0,0.818893223919,-0.573810460727,-0.011670042011,0.0,-0.00752805790693,0.00959288668829,-0.999925649671,0.0,0.526509234304,0.0834877466606,0.304582827382,1.0,-0.32998,-0.433688,1.649
0.273182246964,-0.0367430967068,-0.130919496969,-2.17304849372,0.00678366377389,2.13060903724,-0.0353571389325,-0.68853267736,-1.13984478098,-0.0197700990781,-1.34717861088,-0.171877573352,0.189432141372,-0.593862846062,0.573937138231,0.818879768065,0.00358241742859,0.0,0.818853850206,-0.573868269127,-0.0115900212885,0.0,-0.00743514140505,0.00958560450738,-0.999926414722,0.0,0.520586746564,0.0756490840746,0.304652686471,1.0,-0.32998,-0.433688,1.667
0.262845678965,-0.0538147923267,-0.131175470908,-2.19285063572,0.00418961171469,2.13361848223,-0.0444588706424,-0.682815020376,-1.14113546574,-0.00911268763989,-1.29766602468,-0.182837949873,0.197066381451,-0.603188389314,0.573946138577,0.818872412256,0.00381436231398,0.0,0.8188495143,-0.573876598874,-0.0114834270582,0.0,-0.00721462724841,0.00971444437901,-0.999926786682,0.0,0.5156667444,0.0691456456541,0.304757778806,1.0,-0.32998,-0.433688,1.682
0.250137948021,-0.0738858082086,-0.131436894795,-2.21608947872,0.000989119979031,2.13680542321,-0.0556511279034,-0.720451689558,-1.13797771902,-0.0202920557431,-1.27111227178,-0.185384539733,0.191199976464,-0.632677990651,0.573854980819,0.818936340267,0.00380506000753,0.0,0.818913190015,-0.57378530363,-0.0115047580669,0.0,-0.00723851631907,0.00971826365545,-0.999926576921,0.0,0.509726673963,0.0613792924301,0.304753135048,1.0,-0.32998,-0.433688,1.7
0.238443231291,-0.0914293257268,-0.131730337074,-2.23631639068,-0.00176736938123,2.13922297915,-0.0659054648218,-0.729369365093,-1.09993150526,-0.00940783594497,-1.25329440545,-0.163765860926,0.129414311257,-0.64592193134,0.573892495713,0.818910712197,0.00366001561627,0.0,0.818884194562,-0.573821308449,-0.0117698244421,0.0,-0.00753838550369,0.00975193061805,-0.999924033411,0.0,0.504404598531,0.0544201900976,0.30465194624,1.0,-0.32998,-0.433688,1.716
0.227347647533,-0.107860628477,-0.131909218334,-2.25477164168,-0.00443700171244,2.14133097191,-0.0757000550655,-0.748605951453,-1.06648512517,-0.0177329830946,-1.24348314082,-0.174016160762,0.132283177454,-0.651976115559,0.57373389444,0.819021667861,0.00369768121467,0.0,0.818995889759,-0.57366293083,-0.0117184150025,0.0,-0.00747655710404,0.00975182534535,-0.999924498648,0.0,0.499459112608,0.0480202128474,0.30467797057,1.0,-0.32998,-0.433688,1.731
0.214208884766,-0.126226274832,-0.132286525788,-2.27527240322,-0.00743145942914,2.14334020656,-0.0871254231423,-0.77959808846,-1.07434219394,-0.0207973646658,-1.19767131704,-0.183251315135,0.103709940683,-0.676439180845,0.573845576601,0.818943836904,0.0036045962249,0.0,0.818916005421,-0.573773824046,-0.0118710490815,0.0,-0.0076536468792,0.00976419853775,-0.999923038097,0.0,0.493160133317,0.0397159782292,0.304624398382,1.0,-0.32998,-0.433688,1.75
0.200055111206,-0.145556929845,-0.132551675896,-2.29637986671,-0.0105591862224,2.14516474704,-0.0996619837304,-0.801245304873,-1.07475949545,-0.01423517359,-1.16427668286,-0.172103728341,0.10753807228,-0.70281633964,0.573706349272,0.819041038623,0.00368086358994,0.0,0.819014192303,-0.57363434271,-0.0118380983204,0.0,-0.00758456460401,0.00980646049455,-0.999923150903,0.0,0.487876914681,0.0328435817464,0.304656584029,1.0,-0.32998,-0.433688,1.766
0.18697421116,-0.162406939263,-0.132970147892,-2.31473029365,-0.0133676072446,2.14638179869,-0.111073206018,-0.813995151909,-1.056427244,-0.0212210343934,-1.13272594987,-0.174169433873,0.0644963112339,-0.717881704839,0.573855077133,0.818937580719,0.00351229787387,0.0,0.818907323009,-0.573782119258,-0.0120674289913,0.0,-0.00786732885658,0.00980139055126,-0.999921015821,0.0,0.482542950843,0.0258102813874,0.304568396464,1.0,-0.32998,-0.433688,1.782
0.172013856231,-0.181265675903,-0.133281003944,-2.33466087238,-0.0163868997425,2.14753042772,-0.12430256319,-0.846329195669,-1.04611329914,-0.0238138737878,-1.09936117019,-0.168811049286,0.0485595334345,-0.743110499253,0.573801226804,0.81897471469,0.00364907071743,0.0,0.818945820388,-0.573727225619,-0.0120648561802,0.0,-0.00778739086055,0.00991141131513,-0.999920557079,0.0,0.476615943961,0.0180749227647,0.304619938184,1.0,-0.32998,-0.433688,1.8
0.158239670249,-0.19789614342,-0.133678953998,-2.35184173477,-0.0191270725829,2.14837217943,-0.136429773976,-0.856825644218,-1.0316656079,-0.0154124029536,-1.05887831261,-0.165587111298,0.0468973546921,-0.766966594385,0.573886033392,0.818914223852,0.00388092149099,0.0,0.818889233077,-0.573812330105,-0.0118566720131,0.0,-0.00748282082289,0.00998261549051,-0.999922174362,0.0,0.471392290416,0.0110837100381,0.304732810044,1.0,-0.32998,-0.433688,1.816
0.144210740635,-0.214147219763,-0.133998559616,-2.36865231855,-0.0217241968797,2.14878476004,-0.148938134158,-0.890093935413,-1.02590988596,-0.0262532462465,-1.02199635515,-0.163081369797,0.0212357847294,-0.785216141553,0.573842031594,0.818944940517,0.00390564690438,0.0,0.818918917735,-0.573766444677,-0.0120258072641,0.0,-0.0076076913477,0.010099516255,-0.999920058207,0.0,0.466092930981,0.00418885967901,0.304712903662,1.0,-0.32998,-0.433688,1.832
0.128898053347,-0.231157133159,-0.134360030985,-2.38597271088,-0.0246813379237,2.14906936364,-0.162475498889,-0.898551826352,-0.984992692345,-0.0197992706736,-1.02028029713,-0.174510002804,0.00375000997062,-0.809029840825,0.573830528859,0.81895319834,0.0038639332291,0.0,0.818927080869,-0.57375569184,-0.0119828711804,0.0,-0.00759660325356,0.0100406101796,-0.999920735742,0.0,0.460500999113,-0.00318259699302,0.304712057887,1.0,-0.32998,-0.433688,1.849
0.112260342307,-0.249073543541,-0.134798267205,-2.40373347811,-0.0275736330243,2.14915885357,-0.177334262549,-0.934013609123,-0.981579218892,-0.0282777991017,-0.992358399994,-0.159302944676,-0.00292893114982,-0.837556452954,0.573863086583,0.818929011071,0.00414482626463,0.0,0.818906901713,-0.573787736075,-0.0118265446829,0.0,-0.007306990745,0.0101812402903,-0.999921472033,0.0,0.454605822925,-0.0109766051513,0.304809801877,1.0,-0.32998,-0.433688,1.867
0.0971521587807,-0.264589355576,-0.135100812934,-2.41920065879,-0.0302068405496,2.14900506358,-0.190911087011,-0.955637532882,-0.969836425818,-0.0249627280006,-0.940216072099,-0.166120706525,-0.0150862817082,-0.848240287738,0.573731719834,0.819021183699,0.00411839893063,0.0,0.818998457221,-0.573656100379,-0.0118723404867,0.0,-0.00736129541607,0.0101846967832,-0.999921038523,0.0,0.449304997713,-0.0178454046524,0.304753123213,1.0,-0.32998,-0.433688,1.883
0.0805727300582,-0.280790155912,-0.135563136201,-2.43494516877,-0.0329794823208,2.1486160302,-0.205747927748,-0.980521755622,-0.948823211955,-0.0220334121292,-0.93149531105,-0.160816002284,-0.0292447251318,-0.885789993542,0.573797304906,0.818974772966,0.00420963525513,0.0,0.818953651744,-0.573721952588,-0.0117806755009,0.0,-0.0072330551442,0.0102074125414,-0.999921742759,0.0,0.443734134715,-0.0252660645797,0.304772351248,1.0,-0.32998,-0.433688,1.9
0.0636890140131,-0.296809853043,-0.135974607628,-2.45016018672,-0.0356111219524,2.14793915775,-0.221063434275,-1.01554932512,-0.931095746072,-0.034069251399,-0.85423082578,-0.161142578877,-0.0300481301101,-0.909818033895,0.573728809625,0.819021735645,0.00440413983842,0.0,0.819003380868,-0.573653190035,-0.0116716147025,0.0,-0.00703299267068,0.0103035454023,-0.999922183955,0.0,0.438159411105,-0.0326024780493,0.304843702249,1.0,-0.32998,-0.433688,1.917
0.0473830642545,-0.311561834184,-0.136377707488,-2.46407375911,-0.038093520479,2.14705571113,-0.235752835789,-1.02613829443,-0.910707069548,-0.0207369813179,-0.847102043074,-0.141768830813,-0.0647884903357,-0.921542447419,0.573776643243,0.818987882953,0.00446745407414,0.0,0.818970134579,-0.573700501425,-0.0116790510454,0.0,-0.00700215546135,0.010360077633,-0.999921816249,0.0,0.432872501358,-0.0395309033108,0.304857582763,1.0,-0.32998,-0.433688,1.933
0.027545068675,-0.328674730808,-0.136918844216,-2.47984451373,-0.0409274873239,2.14588712272,-0.2537393742,-1.04138083372,-0.884871566556,-0.02246845395,-0.838749268989,-0.13813150166,-0.0640672054829,-0.960327504556,0.573872145919,0.818919579241,0.0047148463229,0.0,0.818905537769,-0.573796005754,-0.0115156802883,0.0,-0.00672518554917,0.0104697434973,-0.999922575178,0.0,0.426663591927,-0.047781077447,0.304939512626,1.0,-0.32998,-0.433688,1.952
0.0115585457319,-0.341806837418,-0.137300948869,-2.49194992691,-0.0432050624004,2.14477024951,-0.268368187107,-1.08396228459,-0.867753661761,-0.0388492296678,-0.780854863084,-0.150527601928,-0.0732598300751,-0.970410703155,0.573800213144,0.818969956363,0.00471941432145,0.0,0.818955892897,-0.573723945172,-0.0115250651334,0.0,-0.00673117068183,0.0104782787389,-0.999922445501,0.0,0.42171154892,-0.054261122167,0.304918870235,1.0,-0.32998,-0.433688,1.967
-0.00694598399449,-0.356353243569,-0.137743021779,-2.50496210747,-0.0457098523332,2.1432627002,-0.285361414682,-1.09519620154,-0.851760472887,-0.0249639091768,-0.747969975151,-0.135911880144,-0.0809312656575,-1.00654381845,0.573741147313,0.819010832037,0.0048062237752,0.0,0.818998329095,-0.573665332994,-0.011426703875,0.0,-0.00660155738611,0.0104924614448,-0.999923160894,0.0,0.416151549748,-0.0616141862064,0.304987477905,1.0,-0.32998,-0.433688,1.984
-0.0259221477759,-0.370447023933,-0.13822433106,-2.51770278523,-0.0481551391822,2.14168553538,-0.302829045869,-1.11057908372,-0.799269057321,-0.0222312754519,-0.751513174837,-0.145330432918,-0.0939441724368,-1.0411307393,0.573727382092,0.819020573636,0.00478935283055,0.0,0.819007076898,-0.573650392191,-0.0115491311978,0.0,-0.00671169114988,0.010548769766,-0.999921835274,0.0,0.410506163397,-0.0689880427755,0.304918224064,1.0,-0.32998,-0.433688,2.001
-0.0452914227067,-0.384136545304,-0.138720245928,-2.5296522849,-0.0505381635443,2.13990551816,-0.320651825244,-1.15272432583,-0.803890822559,-0.0364479668528,-0.69041487059,-0.14802124018,-0.0849193190434,-1.06706558203,0.573794369721,0.81897322019,0.00486135678979,0.0,0.818960791969,-0.573717375661,-0.0115039551395,0.0,-0.00663251402236,0.0105823690386,-0.99992200857,0.0,0.40492912684,-0.0763749331115,0.304961009182,1.0,-0.32998,-0.433688,2.018
-0.0638587559717,-0.396634212398,-0.139074041529,-2.54053425074,-0.0526894865769,2.13817278052,-0.337910621912,-1.17035635498,-0.757461417627,-0.0249539050879,-0.674593520217,-0.131061700645,-0.10603334454,-1.09314448096,0.573694250467,0.819043115053,0.00490199623052,0.0,0.819030853443,-0.573616580366,-0.0115423887963,0.0,-0.00664197563878,0.0106368930385,-0.999921367241,0.0,0.399320965928,-0.0836898095623,0.304946546285,1.0,-0.32998,-0.433688,2.035
-0.0839543416912,-0.409375643375,-0.13957951639,-2.55154287873,-0.054872390038,2.1361076481,-0.356678748327,-1.17947078212,-0.746883243314,-0.0244630149747,-0.617846982595,-0.130028514978,-0.121988045366,-1.10856299037,0.573689081241,0.819046759009,0.00489811421545,0.0,0.819033105952,-0.573609291798,-0.0117430242737,0.0,-0.00680861323298,0.0107487694529,-0.999919050094,0.0,0.393694524403,-0.0910288137109,0.304906618792,1.0,-0.32998,-0.433688,2.052
-0.104514981402,-0.421754131572,-0.140027851093,-2.56184270275,-0.0570724861644,2.13422115514,-0.375891095384,-1.21422838622,-0.71512531837,-0.0162871838435,-0.605991125302,-0.135696679177,-0.116866357398,-1.14882783725,0.573628200343,0.819088618779,0.00502685386631,0.0,0.81907817697,-0.573550511808,-0.0114672280115,0.0,-0.00650964667624,0.0106955175897,-0.999921612129,0.0,0.388143577229,-0.0984144297349,0.304994391881,1.0,-0.32998,-0.433688,2.069
-0.124202418866,-0.432820592413,-0.140499235691,-2.57127133721,-0.0590152376889,2.13211967129,-0.394346712187,-1.23071256288,-0.672932589406,-0.0352823998155,-0.573472860414,-0.123820137795,-0.125887102228,-1.15656417307,0.573697125566,0.819040580602,0.00498822073212,0.0,0.819027529087,-0.573616131449,-0.0117977641768,0.0,-0.00680165469489,0.010854042471,-0.999917960262,0.0,0.383116240421,-0.104900276799,0.304904820963,1.0,-0.32998,-0.433688,2.084
-0.146675930441,-0.444826729903,-0.140954293479,-2.58097486219,-0.0610508442733,2.12993534748,-0.415585930372,-1.26377491894,-0.663384120607,-0.0388342059681,-0.517757674435,-0.115451148896,-0.108263632787,-1.18004191608,0.573656984958,0.819067361942,0.00520260626123,0.0,0.819058009718,-0.573576804416,-0.0115919391872,0.0,-0.00651061012535,0.0109112432889,-0.999919275105,0.0,0.377249417762,-0.11266115214,0.305007399357,1.0,-0.32998,-0.433688,2.102
-0.168361932694,-0.455458864432,-0.141350117931,-2.58970603206,-0.0630315160516,2.1278062976,-0.43610450828,-1.28678608861,-0.623022937636,-0.0211440539157,-0.514570437607,-0.108591434323,-0.136657575947,-1.22756501812,0.573582052368,0.819120161741,0.00515138160023,0.0,0.819109831388,-0.573501522381,-0.0116548209428,0.0,-0.00659250055166,0.0109047533806,-0.999918809349,0.0,0.371629856108,-0.120009460943,0.304981450889,1.0,-0.32998,-0.433688,2.119
-0.189005510021,-0.464944255376,-0.141824403734,-2.59741476975,-0.064811191362,2.12577583078,-0.455829559514,-1.29050190102,-0.581264784782,-0.0352889864889,-0.473918841554,-0.100650911359,-0.121494389515,-1.25450981719,0.57349316326,0.819182439136,0.00514490098756,0.0,0.81917124608,-0.573411388542,-0.0117726796669,0.0,-0.00669395650491,0.0109663173907,-0.999917462008,0.0,0.366326103642,-0.126919596608,0.304950996563,1.0,-0.327252,-0.430102628572,2.135
-0.211178867849,-0.474222524328,-0.142097635707,-2.60473963658,-0.0663848218871,2.1238313009,-0.476829598835,-1.31065888974,-0.52766941692,-0.0147542210597,-0.413560176218,-0.0834941555376,-0.11061933458,-1.20865240077,0.573604935724,0.819103103666,0.00531320792688,0.0,0.819094640372,-0.573523497889,-0.0116410645548,0.0,-0.00648810742774,0.0110296045759,-0.999918122791,0.0,0.360546105513,-0.134611520441,0.305005519942,1.0,-0.317367428571,-0.417111477551,2.153
-0.233243155157,-0.482663730208,-0.142331172718,-2.61133858488,-0.0677772597434,2.12188603643,-0.497701093083,-1.29166988316,-0.483775233076,0.000558628748264,-0.376403530625,-0.0772253766448,-0.128711385367,-1.203122305,0.573741943245,0.819006388347,0.00542819569067,0.0,0.818999286741,-0.573659890566,-0.0116294959051,0.0,-0.00641081672172,0.0111182320389,-0.999917639781,0.0,0.355498621284,-0.141291973759,0.305037596675,1.0,-0.308581142857,-0.405563787755,2.169
-0.253742526663,-0.4897862034,-0.142420749516,-2.61707618653,-0.0688995874576,2.12012720338,-0.51716046387,-1.28954837338,-0.419710398232,-0.0146213104524,-0.342297176059,-0.0657928511077,-0.109541163946,-1.19882752162,0.573848765388,0.81893112889,0.00549067372134,0.0,0.818923138169,-0.573763541225,-0.0118760024667,0.0,-0.00657540630561,0.0113116868928,-0.999914401222,0.0,0.350531551768,-0.147744591897,0.304967658602,1.0,-0.299794857143,-0.394016097959,2.185
-0.275147182269,-0.496623825128,-0.142331200598,-2.62237062934,-0.0699719495081,2.11855078822,-0.537555816419,-1.25206043964,-0.395357097078,0.00515114545816,-0.299225215981,-0.0565659283025,-0.0879236070378,-1.1949366942,0.573843868233,0.81893398039,0.00557651829044,0.0,0.818927718397,-0.573759404538,-0.0117594492071,0.0,-0.0064307565446,0.0113150710716,-0.999915303682,0.0,0.345503878202,-0.154391466464,0.304997192077,1.0,-0.290459428572,-0.381746677551,2.202
-0.297314036525,-0.502920709098,-0.142150833202,-2.6272723503,-0.0709247744975,2.11692732968,-0.558722408771,-1.21701202124,-0.33475072502,0.012997269723,-0.259275100006,-0.0363067991127,-0.0933866209006,-1.15796031469,0.573838844376,0.818937225844,0.00561673516944,0.0,0.818931010811,-0.573753401296,-0.0118228987565,0.0,-0.00645971537101,0.0113843763539,-0.999914330357,0.0,0.34034619221,-0.161169273749,0.304987979103,1.0,-0.280574857143,-0.368755526531,2.22
-0.316729434294,-0.50785955799,-0.14196109769,-2.63102088654,-0.0716089317371,2.11571824126,-0.577243905525,-1.2009806345,-0.291850869049,0.0184457537024,-0.225805542914,-0.0459969063897,-0.075033428391,-1.15082074318,0.573921309856,0.818878648346,0.00573029473635,0.0,0.818874456034,-0.573836427354,-0.0117101151441,0.0,-0.0063010327164,0.0114132963485,-0.999915013215,0.0,0.335924103973,-0.167062681193,0.305022891243,1.0,-0.271788571429,-0.357207836735,2.236
-0.33683788254,-0.512506087996,-0.141710914966,-2.63457060335,-0.0722181512499,2.1144579926,-0.596482964182,-1.16023682431,-0.257848480842,0.0204976350877,-0.204770720777,-0.0415572766879,-0.072401731541,-1.12670389668,0.573983988657,0.818834075911,0.00582097872943,0.0,0.818830794599,-0.573898290769,-0.0117315203458,0.0,-0.00626563951094,0.0115003228963,-0.99991423849,0.0,0.331336989994,-0.173079121877,0.305030005091,1.0,-0.262453142857,-0.344938416327,2.253
-0.356357082236,-0.516426098012,-0.141377457374,-2.63771958662,-0.0726704166944,2.11331030562,-0.615303904702,-1.1550786798,-0.220760330729,0.00339955141023,-0.175748824379,-0.0241725092264,-0.0673820428189,-1.10085126057,0.573939166104,0.81886503045,0.00588578107667,0.0,0.818861022663,-0.573850364894,-0.0119637442544,0.0,-0.00641925777524,0.0116863231104,-0.99991110754,0.0,0.326890618098,-0.178823916974,0.30495695002,1.0,-0.253117714286,-0.332668995918,2.27
-0.374223931724,-0.519520744326,-0.140982060223,-2.64020740789,-0.0730756262265,2.11243863161,-0.632472048212,-1.10355644006,-0.187775641572,0.0270839082942,-0.146248082903,-0.0250100311556,-0.0559237911696,-1.06041282887,0.573910149064,0.818885474574,0.00587088015203,0.0,0.818880537358,-0.573820083802,-0.0120798950136,0.0,-0.00652334721486,0.0117405498836,-0.999909798647,0.0,0.322883787209,-0.184051719601,0.304901591737,1.0,-0.244331428572,-0.321121306123,2.286
-0.392729003867,-0.522327852178,-0.140593502585,-2.64234649102,-0.0734157427219,2.11161568724,-0.650307992388,-1.06965539767,-0.155718133358,0.0300346933642,-0.124799909397,-0.0165728769287,-0.0441404309176,-1.04750357775,0.573909815373,0.818885478375,0.00590288287926,0.0,0.818880850437,-0.573819420757,-0.0120901633997,0.0,-0.00651339580769,0.0117726478567,-0.999909486122,0.0,0.318777189443,-0.189462446167,0.304900403507,1.0,-0.234996,-0.308851885714,2.303
-0.411687816728,-0.524806485729,-0.140183882257,-2.64415641472,-0.0736329127783,2.11086809973,-0.668564371123,-1.05166325099,-0.12717753294,0.0233929434113,-0.090830746449,-0.0159995064272,-0.039151947723,-1.00402598359,0.573993813449,0.818825878194,0.00600251804977,0.0,0.818822820215,-0.573903478372,-0.0120305240339,0.0,-0.0064061617579,0.0118206727105,-0.999909612309,0.0,0.314601304487,-0.194978335962,0.304933306394,1.0,-0.225111428572,-0.295860734694,2.321
-0.426879227219,-0.526434263516,-0.139747388164,-2.64536818249,-0.0737359272533,2.11038670388,-0.683301375312,-1.009577472,-0.104523642502,0.0259808459813,-0.0761709821159,-0.00640296445077,-0.0338181209897,-0.967371751587,0.573940882783,0.818862631342,0.00604987302963,0.0,0.818860472589,-0.573850886669,-0.0119763601201,0.0,-0.00633539073545,0.0118279523127,-0.999909977132,0.0,0.311287892923,-0.199354786168,0.304948693778,1.0,-0.216874285714,-0.28503477551,2.336
-0.443635893298,-0.527889606474,-0.139324131606,-2.64648071588,-0.0738571101392,2.10992032186,-0.699448821387,-0.963300431478,-0.0719081599517,0.0302527789725,-0.0571161206418,-0.00206089238321,-0.0263592899918,-0.943218859727,0.574022861825,0.818804938154,0.00608064608811,0.0,0.818803189437,-0.573932739574,-0.0119705602757,0.0,-0.0063117935201,0.0118504558359,-0.999909859917,0.0,0.307616665578,-0.20418376674,0.304946302195,1.0,-0.207538857143,-0.272765355102,2.353
-0.460581354252,-0.529001591587,-0.138789885301,-2.64734101961,-0.0738687636903,2.10953920371,-0.715814032671,-0.938585344415,-0.0540057974742,0.0201685566269,-0.0443083764423,-0.000867005456186,-0.0255809215378,-0.901978189065,0.574064866757,0.81877524068,0.00611399255205,0.0,0.818773915692,-0.573974578549,-0.0119668317534,0.0,-0.00628899033332,0.0118759439471,-0.999909701201,0.0,0.303932936786,-0.209022368145,0.304942898553,1.0,-0.197654285714,-0.259774204082,2.371
-0.475016423045,-0.529654549036,-0.138253934139,-2.64784297579,-0.0738623549003,2.10926117662,-0.729809296675,-0.882155832828,-0.0389468816702,0.0350550767379,-0.0248872556285,0.00124897797056,-0.0186064447692,-0.861622110173,0.574019912136,0.818806986565,0.00608326602653,0.0,0.818805240896,-0.573929721378,-0.0119749447121,0.0,-0.0063139227809,0.0118550950631,-0.999909791481,0.0,0.300812882088,-0.213122329117,0.304943387752,1.0,-0.188868,-0.248226514286,2.387
-0.489746579998,-0.530064142057,-0.137763536765,-2.64815829051,-0.0738597730257,2.10906231969,-0.744050046597,-0.854614434979,-0.0201562344239,0.0291555771125,-0.0158535120451,-0.00220223421411,-0.00941812113849,-0.835401816547,0.574057342795,0.818780990229,0.00605013412869,0.0,0.818778927216,-0.573967493933,-0.0119637434526,0.0,-0.00632322712887,0.0118218247144,-0.999910126591,0.0,0.29762199953,-0.217322664977,0.304945357738,1.0,-0.179532571429,-0.235957093878,2.404
-0.503624758507,-0.53021678973,-0.137126164366,-2.64829854073,-0.0737877225849,2.10892966962,-0.757668767682,-0.820244150839,-0.00247135942382,0.0388735749192,-0.00799259628121,0.00226929820724,-0.00709017595991,-0.793805346746,0.5738430121,0.818931822644,0.00596776558927,0.0,0.818928736539,-0.573753633926,-0.0119682467117,0.0,-0.00637727368246,0.0117552958024,-0.999910567701,0.0,0.294644101596,-0.221224801682,0.304942661051,1.0,-0.170197142857,-0.223687673469,2.421
-0.516312473734,-0.530226164387,-0.136634147491,-2.64832241321,-0.0737117543332,2.1088737563,-0.769838071432,-0.780886176868,0.00309393950761,0.0348858646461,0.000270455475998,0.00108427905072,-0.00229037356843,-0.75373114807,0.573951717824,0.818855909488,0.00593059897142,0.0,0.818852561866,-0.573862875704,-0.0119427264651,0.0,-0.0063761443215,0.0117110600055,-0.999911093976,0.0,0.291895739158,-0.224806946404,0.304943321118,1.0,-0.161410857143,-0.212139983674,2.437
-0.529573759776,-0.530017365369,-0.135927723716,-2.64822092597,-0.0734755292943,2.10885210262,-0.782805491629,-0.721254646638,0.0135977875602,0.0356675007451,0.0121979578244,0.0123722834744,-0.0020419734617,-0.707933848918,0.573801105392,0.81896160778,0.00590959676361,0.0,0.818957852508,-0.573712131907,-0.0119654677443,0.0,-0.00640897473635,0.0117057346646,-0.999910946444,0.0,0.289058463432,-0.22848212637,0.304929935796,1.0,-0.151526285714,-0.199148832653,2.455
-0.540917804502,-0.529723968805,-0.135419061256,-2.64804815937,-0.0732497118388,2.10885976009,-0.793676287569,-0.702984456532,0.0163707519551,0.0295334818988,0.0143170739959,0.0191754945759,-0.000683226334279,-0.661777326668,0.573936408979,0.818866523592,0.00594658641254,0.0,0.818863031952,-0.573846859216,-0.0119943308354,0.0,-0.0064094494599,0.0117536492415,-0.999910381328,0.0,0.28660149694,-0.231639074717,0.304915372783,1.0,-0.14274,-0.187601142857,2.471
-0.55142151865,-0.52928203963,-0.13476093822,-2.64776624702,-0.0729562363383,2.10890432235,-0.803923741912,-0.635131515393,0.0269600933586,0.0396049100362,0.01707110727,0.0242869118734,0.00818216121116,-0.631257108014,0.573823600829,0.818945595383,0.00594422716402,0.0,0.818941867423,-0.573733707462,-0.0120248744461,0.0,-0.00643743841447,0.0117683598256,-0.999910028499,0.0,0.284371788043,-0.234516663114,0.304903159408,1.0,-0.133953714286,-0.176053453061,2.487
-0.562621110998,-0.528662679005,-0.134116356544,-2.64737271665,-0.072628724983,2.10897997505,-0.814765360332,-0.614523425052,0.0347074654357,0.0333629447516,0.0217731178373,0.0218875320688,0.00018761047622,-0.588404512056,0.573824473612,0.818944799804,0.00596952761377,0.0,0.81894096338,-0.57373367313,-0.0120879161116,0.0,-0.00647454169033,0.0118252604676,-0.999909117633,0.0,0.28197672323,-0.23759635976,0.304879061371,1.0,-0.124069142857,-0.163062302041,2.505
-0.572513960286,-0.528001494169,-0.13352078528,-2.64688159541,-0.0723044960798,2.10911437226,-0.824284257695,-0.551754223115,0.0487265986138,0.0396234983698,0.0308289914015,0.0235108527835,0.0079715417293,-0.55125827232,0.573876475991,0.81890819636,0.00599192283595,0.0,0.818904895042,-0.57378601568,-0.0120469078028,0.0,-0.00642735375666,0.0118204795184,-0.999909478597,0.0,0.279885379527,-0.24032807666,0.304887597398,1.0,-0.114733714286,-0.150792881633,2.522
-0.580984549748,-0.527291314338,-0.132885944554,-2.64639833025,-0.0719397905713,2.10922504067,-0.832572699028,-0.521071359789,0.0402273946037,0.0402351259005,0.0281571796913,0.0199614827728,0.00850791920205,-0.50533516265,0.573760463509,0.818989315067,0.00601491655499,0.0,0.818985980157,-0.573669316718,-0.0120924051606,0.0,-0.006453101792,0.0118645047487,-0.999908791343,0.0,0.278117360602,-0.24262699782,0.304873426417,1.0,-0.105947428572,-0.139245191837,2.538
-0.590028015628,-0.526523084231,-0.132268657607,-2.64584526027,-0.0715773837918,2.10934048464,-0.841113505645,-0.489877862428,0.0410084364528,0.0305632481125,0.0345454934113,0.0170918675771,0.000286212743648,-0.46032367094,0.573921811679,0.818876058395,0.00604168585028,0.0,0.818872874285,-0.573830150205,-0.0121211128403,0.0,-0.0064589119611,0.0119041728908,-0.999908282356,0.0,0.276202774137,-0.245092179994,0.304869459458,1.0,-0.096062857143,-0.126254040816,2.556
-0.597315666411,-0.525771170252,-0.131702129608,-2.64528967397,-0.0712220191904,2.10948392224,-0.848103255776,-0.432897751897,0.0462069342936,0.0457988035243,0.0354160952455,0.0187884733543,0.0070400307735,-0.421739981005,0.573948037537,0.818857475386,0.00606894666176,0.0,0.818854666981,-0.57385628885,-0.0121136705068,0.0,-0.00643679036846,0.0119224322561,-0.999908207456,0.0,0.274695293629,-0.247077078914,0.304873455586,1.0,-0.0872765714287,-0.114706351021,2.572
-0.604177485552,-0.52500757452,-0.131020106585,-2.64475861728,-0.0708135616009,2.10962481816,-0.854824347049,-0.398312310845,0.0411724419665,0.0358573590957,0.0270462735106,0.0289243336457,0.014765035785,-0.381502688928,0.573785062571,0.818971572922,0.00608371747178,0.0,0.818968731663,-0.573692865786,-0.01214327819,0.0,-0.00645493860625,0.0119502360968,-0.999907758558,0.0,0.273301697072,-0.248898189295,0.304864467276,1.0,-0.0779411428572,-0.102436930612,2.589
-0.610595333319,-0.524319105724,-0.130371338233,-2.64424080438,-0.0704493187313,2.109759206,-0.860773248471,-0.361871495152,0.0330924941339,0.0332360420161,0.0293940053927,0.0305321016706,0.00494279061587,-0.339818473493,0.573894194757,0.818895191891,0.00607164087025,0.0,0.818892335023,-0.573802290845,-0.0121252448592,0.0,-0.00644550737115,0.0119308575103,-0.99990805081,0.0,0.271994286323,-0.250599790947,0.304875303213,1.0,-0.0686057142858,-0.0901675102042,2.606
-0.616187731008,-0.523596497991,-0.129725952654,-2.64370857896,-0.0700377946376,2.10991635024,-0.86608008637,-0.31267318111,0.0412508091762,0.034961754704,0.0315512436319,0.0221857641154,0.0119353275619,-0.285895293917,0.573876205977,0.818907654933,0.00609096100304,0.0,0.818905151796,-0.573784410103,-0.0121057831452,0.0,-0.00641874360118,0.0119353700394,-0.99990816912,0.0,0.270894319781,-0.252072942716,0.304881816704,1.0,-0.0592702857144,-0.077898089796,2.623
-0.620827084528,-0.523003768562,-0.129147585376,-2.64327507494,-0.0696587949736,2.11003317699,-0.870437026161,-0.273831601998,0.0355143758454,0.0379611518335,0.0240177742384,0.0252451303527,0.00384310000679,-0.263912693246,0.573883511185,0.818902323087,0.00611945532699,0.0,0.818900183195,-0.573791573692,-0.0121023479426,0.0,-0.00639947215248,0.0119567912245,-0.999908036721,0.0,0.269984311747,-0.253274168648,0.304885771822,1.0,-0.0504840000001,-0.0663504000001,2.639
-0.624990949583,-0.522482097064,-0.128433510373,-2.64289748422,-0.0692581971431,2.11015511697,-0.874311624782,-0.234800974922,0.0326153405465,0.0385814719574,0.0158784129016,0.0203145923756,0.00595964201468,-0.212622571227,0.573806298222,0.818956581794,0.00609886526444,0.0,0.818954327221,-0.573714753749,-0.0120804866757,0.0,-0.00639450820512,0.0119267810671,-0.999908426886,0.0,0.269210093767,-0.254299565273,0.304893973251,1.0,-0.0411485714287,-0.054080979592,2.656
-0.628517167678,-0.52207374187,-0.127712318942,-2.64259572109,-0.0688746022041,2.11023358099,-0.877532273765,-0.192124575188,0.0250739003563,0.0403288514103,0.0171683438364,0.025752591036,0.000258579892214,-0.179743001651,0.573725755674,0.819013262723,0.00606462377529,0.0,0.819010662135,-0.573634562308,-0.0120694298462,0.0,-0.00640626865316,0.0118917632461,-0.999908768683,0.0,0.268572728477,-0.255128298981,0.304905590146,1.0,-0.0318131428572,-0.0418115591838,2.673
-0.631228675052,-0.521747356696,-0.127110767481,-2.64234251484,-0.0685220540011,2.11031732402,-0.879891708256,-0.154523804606,0.0218836222042,0.0361699202237,0.0118300508088,0.0183824983124,0.00949999776428,-0.136281514148,0.573751899628,0.818994997865,0.00605789122954,0.0,0.818992597332,-0.573661264246,-0.0120260683706,0.0,-0.0063742350219,0.0118615760172,-0.999909331961,0.0,0.268104459143,-0.255756491653,0.304922648335,1.0,-0.023026857143,-0.0302638693879,2.689
-0.633491734075,-0.521443202747,-0.126601422041,-2.64214523534,-0.0681764237304,2.11039728232,-0.881782947317,-0.121841683305,0.0159649181773,0.0217607401299,0.0108633819429,0.0199563796775,0.000624312356058,-0.100429497846,0.57385370161,0.81892341022,0.00609296674225,0.0,0.818921462752,-0.57376288992,-0.0120221002985,0.0,-0.00634938341353,0.011888816891,-0.999909166556,0.0,0.267716262444,-0.25627052821,0.304919817501,1.0,-0.0197509677419,-0.0259584147465,2.706
-0.635339358753,-0.521199565757,-0.126243353012,-2.64198603103,-0.0679428104699,2.11039499235,-0.883473396066,-0.102865602648,0.01115917534,0.0231071565604,0.011887804731,0.0198905965675,0.000717220864482,-0.0827906487635,0.573837023543,0.818934911217,0.00611788378185,0.0,0.818932854639,-0.573745296811,-0.0120855650115,0.0,-0.00638730703888,0.0119455106719,-0.999908249333,0.0,0.267370816557,-0.256697771035,0.304911141927,1.0,-0.0194109677419,-0.0255115576037,2.723
-0.636967865795,-0.520947695343,-0.125981299297,-2.64178579999,-0.0677890726246,2.11042769408,-0.884946395147,-0.0960736336743,0.0168480516671,0.0128509480229,0.0126303817236,0.00867752833168,0.000407538626138,-0.0905249193704,0.57385484272,0.818922470055,0.00611182681772,0.0,0.818920324311,-0.573763119483,-0.0120885091226,0.0,-0.0063929340131,0.0119423786288,-0.999908250785,0.0,0.267068340864,-0.257110486505,0.304918683492,1.0,-0.0190709677419,-0.0250647004608,2.74
-0.638449201612,-0.520669467205,-0.125808035619,-2.64158197338,-0.0676849006892,2.11052643076,-0.886500097778,-0.0825942703174,0.0136814809272,0.0124989230909,0.0122414542407,0.00575976674308,0.0110718928213,-0.094671202771,0.573728035726,0.81901138343,0.00610260074889,0.0,0.819009352623,-0.573636818691,-0.0120510356273,0.0,-0.00636938151185,0.0119123334369,-0.999908759483,0.0,0.266790472678,-0.25751782689,0.304921624005,1.0,-0.0187309677419,-0.024617843318,2.757
-0.639923784003,-0.520435586249,-0.125685516748,-2.64141804332,-0.0676587319831,2.11055491779,-0.887940374266,-0.0852803773128,0.013092425986,0.00129711893743,0.00608349818765,0.000277764331338,-0.000166989864935,-0.0881672495891,0.57368922935,0.819038864081,0.0060625203912,0.0,0.81903613343,-0.573597862324,-0.0120851716443,0.0,-0.00642090014134,0.0118987851557,-0.999908591299,0.0,0.26647644678,-0.257923063022,0.30491546445,1.0,-0.0183909677419,-0.0241709861751,2.774
-0.64124653944,-0.520254000496,-0.125633322177,-2.64125848674,-0.0676306222496,2.11055527055,-0.889269771023,-0.0808212633003,0.0108780288392,0.00142771305257,0.0134062658995,0.00331742596661,-0.000115350731558,-0.0866576328707,0.573667101011,0.819054383567,0.00605977551231,0.0,0.819051529366,-0.573575588,-0.0120989253063,0.0,-0.00643406238155,0.0119042530005,-0.999908441609,0.0,0.266181715357,-0.258298615605,0.304922464928,1.0,-0.0180709677419,-0.0237504147465,2.79
-0.642599847641,-0.520037507312,-0.12559155594,-2.64106978581,-0.0675874835183,2.11060707936,-0.890649341538,-0.0753146858064,0.0116454762171,-0.000147748559192,0.0151615899283,0.00323017998582,0.000671626774681,-0.0687027995487,0.573644186203,0.819070377527,0.00606722303337,0.0,0.819067821668,-0.573553018966,-0.0120658544318,0.0,-0.00640303313532,0.0118912033424,-0.999908796066,0.0,0.265891792874,-0.258696718337,0.304934008105,1.0,-0.0177309677419,-0.0233035576037,2.807
-0.644034669879,-0.519822699083,-0.125581888631,-2.64089568886,-0.0675589340352,2.11068600856,-0.892023288214,-0.08344939312,0.0121279514111,0.00123408361098,0.00784185459539,0.00341921583916,0.00153589285109,-0.0794635799458,0.573708463595,0.819025282175,0.00607724108661,0.0,0.819023149199,-0.573617784782,-0.0120193576467,0.0,-0.00635826663478,0.0118732369387,-0.999909295231,0.0,0.265572900349,-0.25912476141,0.30494106427,1.0,-0.0173709677419,-0.0228304147465,2.825
-0.645315789149,-0.519652344048,-0.125584212891,-2.6407361046,-0.0675348057748,2.11069577535,-0.893296919522,-0.0815945646643,0.0110706991809,0.000670229365778,0.00637073286761,-9.73224515675e-05,0.000490933688501,-0.069973399611,0.573734781779,0.81900670577,0.006096144817,0.0,0.819004844961,-0.573644066455,-0.0120123208932,0.0,-0.00634127615012,0.011884887268,-0.999909264719,0.0,0.265276888708,-0.259502112515,0.304951681999,1.0,-0.0170509677419,-0.022409843318,2.841
-0.646636912394,-0.519455529912,-0.125578619815,-2.64056368398,-0.0675054772187,2.11073394744,-0.894564013151,-0.0753105977632,0.00605971524411,-3.22235190462e-05,0.0114882961047,-0.000170477495439,0.00340750944413,-0.0727914506419,0.573796522877,0.818963337184,0.00611143056685,0.0,0.818961802998,-0.573705970115,-0.0119904956745,0.0,-0.00631373370886,0.0118853617516,-0.99990943337,0.0,0.264979006538,-0.259894279333,0.304960999985,1.0,-0.0167109677419,-0.0219629861751,2.858
-0.647905448453,-0.519263776934,-0.125560519677,-2.64039169476,-0.0674771581312,2.11079647264,-0.895839827148,-0.0761233952126,0.00966414465799,0.00284803333489,0.0128638499195,0.000721894992856,0.00331695971436,-0.0726310930688,0.573798688092,0.818961779239,0.00611691031926,0.0,0.818960627548,-0.573708699445,-0.011940084101,0.0,-0.00626926855857,0.0118609416665,-0.999910003118,0.0,0.264700747029,-0.260272945361,0.304974347699,1.0,-0.0163709677419,-0.0215161290323,2.875
-0.649047229619,-0.51907528456,-0.125510083263,-2.64024060412,-0.0674521100321,2.11081673527,-0.897000482402,-0.0658362555291,0.0112580907536,0.00525913028845,0.00865737789124,0.00518998352663,0.000706274700961,-0.0720506272404,0.57376606383,0.818984689654,0.00610974708478,0.0,0.818983383019,-0.573675994714,-0.011950662256,0.0,-0.00628251514047,0.0118608941386,-0.99990992054,0.0,0.26445032845,-0.260599839569,0.304976545705,1.0,-0.0160509677419,-0.0210955576037,2.891
-0.650226929564,-0.518855450881,-0.125443078048,-2.64008278816,-0.0674304139937,2.11086875002,-0.89820334159,-0.0687573705915,0.0122077589369,0.00637614563153,0.00852043340614,0.000982747574832,0.0053330895641,-0.0695978118292,0.573717178258,0.819019092199,0.00608875087341,0.0,0.819017505406,-0.573627192512,-0.0119547793641,0.0,-0.00629864074113,0.011845683901,-0.999909999399,0.0,0.264198803619,-0.260938887075,0.304973346843,1.0,-0.0157109677419,-0.0206487004608,2.908
-0.651384814765,-0.518636266389,-0.125384902989,-2.63992357619,-0.0674074100804,2.1109009455,-0.899446307185,-0.0681589435482,0.013561769117,0.0049110465365,0.00688468162014,-6.75553881462e-05,0.00190459567217,-0.0695939347592,0.573624457891,0.819084130699,0.00607577554407,0.0,0.819082245531,-0.573534301874,-0.0119760816304,0.0,-0.0063248744998,0.0118465612919,-0.999909823408,0.0,0.263947947053,-0.261271315979,0.304969105953,1.0,-0.0153709677419,-0.020201843318,2.925
-0.652471554901,-0.518448841479,-0.125362725586,-2.63978208585,-0.0673861970126,2.11092792071,-0.900535023522,-0.0669083907567,0.0108170377979,0.000720222958181,0.00925302407657,-0.00064999458301,0.00174433878408,-0.0635030575183,0.573623600795,0.819084705011,0.00607927049023,0.0,0.819082781053,-0.573533272635,-0.0119887390433,0.0,-0.00633325081797,0.0118566777167,-0.999909650482,0.0,0.26370308523,-0.261588022932,0.304967198667,1.0,-0.0150509677419,-0.0197812718894,2.941
-0.653679558615,-0.518234953698,-0.125368943728,-2.63961326032,-0.0673559268636,2.11097175825,-0.901738994567,-0.0673997787976,0.00665769593066,-0.000773906016915,0.0071871636033,-0.000415109343539,0.000602996838984,-0.0736440175691,0.573653058748,0.819063912971,0.00610094735996,0.0,0.819062292381,-0.573562673983,-0.0119819495036,0.0,-0.00631482834382,0.0118707664619,-0.999909599837,0.0,0.263429002389,-0.261950684174,0.304968724015,1.0,-0.0146909677419,-0.0193081290323,2.959
-0.654806318056,-0.518026682326,-0.125370928529,-2.63945603988,-0.0673316009962,2.11101842663,-0.902861664553,-0.0670349387587,0.0151218284149,0.000884357860802,0.0132242318518,5.04220782649e-05,0.00105920280307,-0.0596847588665,0.573676453615,0.819047417215,0.0061157029146,0.0,0.819045991053,-0.573586006947,-0.0119793186723,0.0,-0.00630386977309,0.0118815237635,-0.999909541218,0.0,0.263174055415,-0.262288869203,0.304967370333,1.0,-0.0143509677419,-0.0188612718894,2.976
-0.655786753586,-0.517865706682,-0.125371200011,-2.63932529112,-0.0673155779569,2.1110317401,-0.903766630536,-0.0663233567308,0.0106691128356,-4.6701810136e-05,0.00422241556616,0.000365071880884,-0.000165418072071,-0.0534931107466,0.573752118704,0.818994338863,0.00612585459734,0.0,0.818992969134,-0.573661470936,-0.0119908370831,0.0,-0.00630638234762,0.0118970290813,-0.999909341011,0.0,0.262946498956,-0.262578071801,0.304968595206,1.0,-0.0140509677419,-0.0184669861751,2.991
-0.65692212328,-0.517671232807,-0.125367316515,-2.63915554813,-0.0672912774108,2.11107040052,-0.904886720594,-0.0643553854069,0.0135053070093,-0.00105298690186,0.00701946652631,0.000403312070493,0.00193658749891,-0.0609117003938,0.573780117266,0.818974671713,0.00613278280756,0.0,0.81897353734,-0.573689708998,-0.0119670308645,0.0,-0.00628250174704,0.0118892601075,-0.999909583745,0.0,0.262708227159,-0.26290016599,0.30497880369,1.0,-0.0137109677419,-0.0180201290323,3.008
-0.657994875858,-0.517472114088,-0.125353351606,-2.63898398307,-0.0672707862525,2.11113161446,-0.90602143283,-0.0574556228657,0.0106504322981,0.000364460158074,0.00929761955271,0.000534188563536,0.00820750605966,-0.06160734174,0.573737956625,0.819004188371,0.00613542656751,0.0,0.819003310163,-0.573647966683,-0.011930430138,0.0,-0.00625161763996,0.0118701038134,-0.999910004907,0.0,0.262458658051,-0.263245289655,0.304987566524,1.0,-0.0133309677419,-0.0175207004608,3.027
-0.658878583281,-0.517297278689,-0.125322312559,-2.63886007803,-0.0672551635184,2.11117576366,-0.906899024918,-0.0612355732835,0.0122029111515,0.00700692557389,0.0123890570097,0.000856595460936,0.00555974435754,-0.0552938748732,0.573734138542,0.819006922806,0.00612744390719,0.0,0.819005934211,-0.573644169642,-0.0119328648903,0.0,-0.00625824697256,0.0118649333165,-0.999910024803,0.0,0.262265407715,-0.263504129912,0.304983915962,1.0,-0.0130309677419,-0.0171264147465,3.042
-0.659874009391,-0.517106923265,-0.125289914335,-2.63873318871,-0.0672386839136,2.11118496478,-0.907897438041,-0.0624036829551,0.00639114161918,-0.00111354345296,0.00549428036477,0.000395541661457,-0.000600399575824,-0.0633332961423,0.57372250013,0.819015089981,0.00612553083616,0.0,0.819013770279,-0.573631962305,-0.0119817701875,0.0,-0.00629957160079,0.0118913341981,-0.999909451685,0.0,0.262037671366,-0.263787274796,0.304972939161,1.0,-0.0126909677419,-0.0166795576037,3.059
-0.660890352147,-0.516905802314,-0.12524913139,-2.63859091185,-0.067221657319,2.11122792283,-0.908926553127,-0.0534335103509,0.013928169188,0.00309825972206,0.00852155616169,-3.57681495516e-05,0.00480761994233,-0.0549903940396,0.57369785673,0.819032435601,0.00611436979994,0.0,0.819030911239,-0.573607258854,-0.0119927446949,0.0,-0.00631532158598,0.0118882986833,-0.999909388429,0.0,0.261814558158,-0.264082426563,0.304968050882,1.0,-0.0123309677419,-0.0162064147465,3.077
-0.661701725883,-0.516743245346,-0.12522708035,-2.63847115069,-0.0672072776903,2.11126893378,-0.909742963753,-0.0549345975129,0.00954630783729,0.00249574347409,0.00882962210527,0.000167046789426,0.000169107456721,-0.053599041554,0.573690490701,0.819037631016,0.00610956297646,0.0,0.81903606313,-0.573599950346,-0.0119904610623,0.0,-0.006316315412,0.0118829946827,-0.999909445198,0.0,0.261636363474,-0.264322640213,0.304966535069,1.0,-0.0120309677419,-0.0158121290323,3.092
-0.66264763253,-0.516555030966,-0.125215410439,-2.63832198762,-0.0671920183699,2.11131129726,-0.910663489952,-0.0513237596717,0.00947835640341,0.0022425564941,0.00768815459741,0.000999375293397,0.00056997372853,-0.0493163504198,0.573717261818,0.819018887852,0.00610833321572,0.0,0.819017358486,-0.573626823592,-0.011982514562,0.0,-0.00631012345972,0.0118776350606,-0.999909547973,0.0,0.261426444027,-0.264607448442,0.304968774731,1.0,-0.0116709677419,-0.0153389861751,3.11
-0.663530513811,-0.516390599045,-0.125193396465,-2.63819157221,-0.0671782370675,2.1113320536,-0.911551015495,-0.0543188426808,0.00815959751666,0.000853870346464,0.00845855722114,-0.000505033483522,0.00529183606495,-0.0573158674513,0.573710496582,0.819023652923,0.00610483134233,0.0,0.819022025368,-0.573619975439,-0.0119913569417,0.0,-0.00631947343067,0.0118797873989,-0.999909463355,0.0,0.261227983159,-0.264866005898,0.304969660225,1.0,-0.0113309677419,-0.0148921290323,3.127
-0.664335738942,-0.516236944973,-0.125178039996,-2.638070213,-0.067158988705,2.11136254695,-0.912395490323,-0.0450227661076,0.00743518701009,0.00121909518186,0.0054000143627,0.000358881765599,0.00415470973121,-0.0509683772754,0.573681969969,0.819043608016,0.0061083877648,0.0,0.819042039347,-0.573591463621,-0.0119882252739,0.0,-0.0063152817924,0.0118806838035,-0.999909479187,0.0,0.26104859126,-0.265104259636,0.304971077153,1.0,-0.0110109677419,-0.0144715576037,3.143
-0.665197987408,-0.516061740174,-0.125166074859,-2.63794878695,-0.0671453961717,2.11140395676,-0.913203292256,-0.0445945401807,0.0134442417277,0.000586737481248,0.00693640258218,7.04986658509e-05,0.00296141335665,-0.0417652432039,0.573730273175,0.819009774576,0.00610816614422,0.0,0.819008156613,-0.573639670335,-0.0119964545408,0.0,-0.00632144882332,0.0118855958694,-0.999909381842,0.0,0.260853832139,-0.26535977062,0.304965412489,1.0,-0.0106709677419,-0.0140247004608,3.16
-0.666067619424,-0.515898799096,-0.125160575101,-2.63784068467,-0.0671250046816,2.11142918263,-0.914045114131,-0.0461967770042,0.00542598742609,0.00189179300555,0.00805374722053,0.000217242790377,0.000494458312955,-0.0452623552448,0.573763593193,0.818986337498,0.00612086746105,0.0,0.818984722159,-0.573672623735,-0.0120205053329,0.0,-0.00633337747867,0.0119100545742,-0.999909015326,0.0,0.260650787691,-0.265612216199,0.304956683046,1.0,-0.0103109677419,-0.0135515576037,3.178
-0.666783579323,-0.515753575178,-0.125167386243,-2.63774071526,-0.0671061861147,2.11144630494,-0.914757257248,-0.0467398661815,0.00724052240859,0.000389580171833,0.00666579974583,0.000206281538356,-0.000305030637366,-0.0449706640932,0.573784883993,0.818971291684,0.00613817550174,0.0,0.818969739208,-0.573693530309,-0.0120435229104,0.0,-0.00634199004403,0.0119376012217,-0.999908632246,0.0,0.260482764231,-0.265824325685,0.304949808373,1.0,-0.0100109677419,-0.0131572718894,3.193
-0.667540273875,-0.515594186108,-0.125158158992,-2.63762439054,-0.0670884289314,2.11148379017,-0.915530528303,-0.0480045926821,0.0110235419892,-0.00127768070652,0.00669645841282,0.00147648383641,0.0054670808142,-0.0458851126587,0.573778427467,0.818975779542,0.00614293068252,0.0,0.818974276548,-0.573687031259,-0.0120445596846,0.0,-0.00634020505907,0.0119420406483,-0.999908590555,0.0,0.260313756882,-0.26605051437,0.304947242641,1.0,-0.00967096774194,-0.0127104147466,3.21
-0.6682732186,-0.515446634167,-0.125131598461,-2.63750696864,-0.0670633469875,2.11152402088,-0.916235290308,-0.0395228020859,0.0100594186131,0.00258908591706,0.00459927023083,0.000394305875183,0.0048245424263,-0.0357239087333,0.573806786559,0.81895588644,0.00614610977675,0.0,0.81895445963,-0.573715436214,-0.0120390283231,0.0,-0.00633343699893,0.011941690081,-0.999908637633,0.0,0.260144185957,-0.266277988064,0.304946729075,1.0,-0.00931096774194,-0.0122372718894,3.228
-0.668980907067,-0.515311758497,-0.125090550392,-2.63740547327,-0.067044182559,2.11154840823,-0.916903825638,-0.038034888177,0.00584367167806,0.00114971894576,0.00412817550696,0.000355089923908,9.01882789173e-05,-0.0431688412924,0.573815798361,0.818949654822,0.00613508912181,0.0,0.818948118973,-0.573724558341,-0.0120356341168,0.0,-0.00633684911269,0.0119307864001,-0.999908746176,0.0,0.26000243172,-0.266467773756,0.304949551506,1.0,-0.00899096774194,-0.0118167004608,3.244
-0.669665769286,-0.515167548946,-0.125042494196,-2.63729680336,-0.0670241219661,2.11157104943,-0.9175943028,-0.0356478229403,0.00812548579189,0.000936051939125,0.0103438641375,0.00032137653962,-1.12256580479e-05,-0.0403023401313,0.573791281118,0.818966915462,0.00612405038307,0.0,0.81896518482,-0.573699997658,-0.0120451501574,0.0,-0.00635133406311,0.0119270158259,-0.999908699257,0.0,0.259857231769,-0.266662549631,0.304948741207,1.0,-0.00865096774194,-0.011369843318,3.261
-0.670317974887,-0.515049009657,-0.125004750087,-2.63720513974,-0.0670012883689,2.11160864475,-0.918287146694,-0.0357122207144,0.0118047197269,0.0032486980308,0.00400185494073,0.00261028168389,0.00550339672861,-0.044675025413,0.573745670922,0.818998901011,0.00611981555573,0.0,0.818997208722,-0.573654590833,-0.0120303542648,0.0,-0.00634230874212,0.0119147049321,-0.999908903314,0.0,0.259717619736,-0.266848860278,0.304950713849,1.0,-0.00831096774194,-0.0109229861751,3.278
-0.670913301787,-0.514943840699,-0.12498810126,-2.63712953178,-0.0669804272199,2.1116298781,-0.918894630889,-0.0378205792417,0.00587605513717,-0.00136648137289,0.00447257783651,0.000581810663438,0.00283049359155,-0.0324854674054,0.573736748424,0.819005095443,0.00612731975894,0.0,0.819003466237,-0.573645573081,-0.012034354088,0.0,-0.00634140955567,0.0119230768613,-0.999908809224,0.0,0.259582312322,-0.267018755144,0.304948433537,1.0,-0.00799096774194,-0.0105024147466,3.294
-0.671529953236,-0.514827690364,-0.124969605021,-2.63704660239,-0.0669557453584,2.11164387133,-0.91948946519,-0.0351616155539,0.00612883218624,-8.7769319814e-05,0.00327155062316,0.000231915170036,0.00017444814518,-0.0300041059904,0.573756362728,0.818991279273,0.00613739402911,0.0,0.818989679605,-0.573664948803,-0.0120489881455,0.0,-0.00634733058952,0.011939875862,-0.9999085712,0.0,0.259442240502,-0.267194021481,0.304944847503,1.0,-0.00765096774194,-0.0100555576037,3.311
-0.672153056246,-0.514710112847,-0.124954863059,-2.63698397908,-0.0669271386102,2.11166623384,-0.920084792345,-0.032904676382,0.00443237571535,0.00141392132379,0.00397658512999,0.000535373287616,0.00336500793045,-0.0293651204356,0.573784268402,0.818971596401,0.00615504056207,0.0,0.818970038153,-0.573692417375,-0.0120761647627,0.0,-0.0063590582666,0.0119701376297,-0.999908134872,0.0,0.259296558514,-0.267367171151,0.304932134801,1.0,-0.00729096774194,-0.00958241474655,3.329
-0.672689638116,-0.514611005859,-0.124945473183,-2.63691640418,-0.0669086376967,2.11167626166,-0.920617536432,-0.0375784821754,0.0106336586755,0.000180775536039,0.0086477796031,0.000228618014474,0.000653236219366,-0.0371476410097,0.573792206523,0.818965954123,0.00616576210998,0.0,0.818964414252,-0.573700078355,-0.012093600979,0.0,-0.00636707184483,0.0119889845705,-0.999907858077,0.0,0.259171385584,-0.2675198155,0.304927306348,1.0,-0.00697096774194,-0.00916184331798,3.345
-0.673218069637,-0.514514827865,-0.124927075082,-2.63683183912,-0.0668822828576,2.11169650466,-0.92115216092,-0.0278078513473,0.00507764803741,0.00209789572863,0.00522869018836,7.43076173262e-05,-0.00025818836984,-0.0333877337881,0.57378963419,0.818967692236,0.0061742749381,0.0,0.818966336479,-0.573697607119,-0.0120806539896,0.0,-0.00635162084925,0.0119885081759,-0.999907962057,0.0,0.259056501761,-0.267673550308,0.304932361782,1.0,-0.00663096774194,-0.00871498617512,3.362
-0.673735520776,-0.514407838507,-0.124872809228,-2.6367539287,-0.0668587804222,2.11171637748,-0.921669926938,-0.0349764095861,0.0047225493207,0.00181011460207,0.00142069162612,0.00608501148529,0.00319000202545,-0.0279370850132,0.573764897881,0.818985096825,0.00616441713586,0.0,0.818983580203,-0.57367285825,-0.0120869337202,0.0,-0.00636278228868,0.0119838454336,-0.999907946988,0.0,0.258950477834,-0.267814991755,0.304931206497,1.0,-0.00629096774194,-0.00826812903226,3.379
-0.674190110448,-0.514332514765,-0.124848228407,-2.63669344578,-0.0668371023719,2.11173717547,-0.922121969002,-0.0289300091365,0.00772962056776,0.000260396794928,0.00225384049445,0.00381664899187,-4.72664314224e-05,-0.0299778374073,0.573761880321,0.818987186367,0.0061676704414,0.0,0.818985768138,-0.573669932613,-0.0120775372031,0.0,-0.0063532634457,0.0119810954426,-0.99990804047,0.0,0.258851323982,-0.267942790497,0.304933212339,1.0,-0.00597096774194,-0.00784755760369,3.395
-0.674635687584,-0.514248174568,-0.124823461307,-2.63662407234,-0.0668216356991,2.11175662732,-0.922550106044,-0.024377369883,0.0098675961114,0.00204821033634,0.00308690218587,0.00244254531794,0.000303857041796,-0.0242752181352,0.573768724002,0.818982415394,0.00616453846184,0.0,0.81898100454,-0.573676879386,-0.0120705907942,0.0,-0.00634927065938,0.0119745979281,-0.999908143664,0.0,0.258755579205,-0.268070774999,0.304935808519,1.0,-0.00563096774194,-0.00740070046084,3.412
-0.675049666012,-0.514177221348,-0.124804960192,-2.63656882506,-0.0668024664059,2.11177557587,-0.9229750064,-0.0249601801079,0.00186085640605,0.000874254512233,0.0038329819353,0.00312372352677,2.62616642256e-05,-0.022602764673,0.573757664781,0.818990128143,0.00616919857073,0.0,0.818988813191,-0.57366586862,-0.0120640768546,0.0,-0.00634142328434,0.0119745917276,-0.999908193538,0.0,0.258664235575,-0.268187987233,0.304936745369,1.0,-0.00529096774194,-0.00695384331798,3.429
-0.675419988056,-0.514113581429,-0.124790609012,-2.63653236436,-0.0667843560438,2.1117918381,-0.923332782201,-0.022974540776,3.31776349194e-05,0.00107737377389,-0.00127417265059,0.00346241939528,-0.000208268820308,-0.0177520286863,0.573767430983,0.818983224961,0.00617731953494,0.0,0.818981959426,-0.57367549079,-0.0120717978465,0.0,-0.0063429452368,0.0119857484573,-0.999908050212,0.0,0.258579067235,-0.268289686598,0.30493152317,1.0,-0.00497096774194,-0.00653327188941,3.445
-0.675810074193,-0.514057678696,-0.124772510111,-2.63647837406,-0.066764111574,2.11180952975,-0.923708026296,-0.0255863615445,0.000256945580772,0.00363647830363,0.00805436895106,0.00297212894237,0.0036347561743,-0.0226621992219,0.573778086401,0.818975725259,0.00618190135397,0.0,0.818974635452,-0.573686343488,-0.012052911798,0.0,-0.00632469156762,0.0119787477028,-0.999908249731,0.0,0.258493902343,-0.26840039683,0.304937332198,1.0,-0.00463096774194,-0.00608641474655,3.462
-0.676179666838,-0.513988899781,-0.124743742428,-2.63642479143,-0.0667502840695,2.11181887148,-0.924053349968,-0.0209554044131,0.0079600717397,0.00193431257844,-0.000567867203618,0.000197721102819,0.000952938027577,-0.00969589762096,0.573786182558,0.818970085973,0.0061775308534,0.0,0.81896892007,-0.573694420624,-0.0120568074458,0.0,-0.00633027152394,0.0119774658932,-0.999908229776,0.0,0.258414342711,-0.268502594145,0.304937730247,1.0,-0.00429096774194,-0.00563955760369,3.479
-0.676511432622,-0.513924561238,-0.1247266164,-2.63636877793,-0.0667367608826,2.11183315873,-0.924373258301,-0.0242191319505,0.0029964493286,0.00216867855833,0.00163092854958,0.00136205654705,0.000288922730948,-0.0177767570844,0.573792348167,0.818965770809,0.00617691900773,0.0,0.818964648888,-0.573700685898,-0.012048807963,0.0,-0.00632398038548,0.0119724226263,-0.999908329983,0.0,0.258343658011,-0.268598950596,0.304941020631,1.0,-0.00397096774194,-0.00521898617512,3.495
-0.676811644949,-0.513877052416,-0.124713334834,-2.6363311332,-0.0667190178989,2.11184428282,-0.924696107825,-0.0236903569252,0.00569997536595,0.00412356401734,0.00121419978697,0.000399547045579,-0.000387141979379,-0.0221691260248,0.573769596733,0.818981688926,0.00617980338161,0.0,0.818980593929,-0.57367790666,-0.0120496090741,0.0,-0.00632331426624,0.0119750689402,-0.999908302506,0.0,0.258281707953,-0.268677921975,0.304940827636,1.0,-0.00365096774194,-0.00479841474655,3.511
-0.677106394867,-0.513809324072,-0.124684588664,-2.63628703961,-0.0667097839778,2.11185771737,-0.924988345647,-0.0156776292756,0.00331219249788,0.00355152298813,0.000637342132196,0.000423512707867,0.000132996496621,-0.0154226107561,0.573761766008,0.818987200328,0.006176444605,0.0,0.818986039223,-0.573670049852,-0.0120535622401,0.0,-0.00632859375361,0.0119745256078,-0.999908275612,0.0,0.258215276257,-0.26876394446,0.304938647871,1.0,-0.00327096774194,-0.00429898617512,3.53
-0.677358084264,-0.513766456218,-0.124661511553,-2.63626198603,-0.0666962333633,2.11186922447,-0.925214626662,-0.0116116449317,0.00263586901334,0.000124079482808,-0.00030576140963,-0.000278418771316,0.000556397311024,-0.011998113467,0.573773289342,0.818979129451,0.00617615270227,0.0,0.81897793745,-0.573681520741,-0.0120580940619,0.0,-0.00633230461959,0.0119769756885,-0.999908222774,0.0,0.258160503424,-0.2688301414,0.304935711642,1.0,-0.00295096774194,-0.00387841474655,3.546
-0.67760321642,-0.513742225376,-0.124642922079,-2.63624413335,-0.0666878308364,2.11188256813,-0.925453414343,-0.0101921232578,-0.000192527779945,-0.000269373022795,0.00097546976477,-0.000463830659044,0.00399918497434,-0.00997457445236,0.573769771919,0.8189816127,0.00617363689393,0.0,0.818980443529,-0.573678120166,-0.0120496664291,0.0,-0.00632689664909,0.0119700527009,-0.999908339908,0.0,0.258105075389,-0.268894804357,0.304936441971,1.0,-0.00261096774194,-0.00343155760369,3.563
