nelsonifechukwu/NELSON_IML_WORK/CNN-GradCAM/train2dof/data_sample_2022-02-22-11-28-43/robot_state.csv
position_joint1,position_joint2,position_joint3,position_joint4,position_joint5,position_joint6,position_joint7,velocity_joint1,velocity_joint2,velocity_joint3,velocity_joint4,velocity_joint5,velocity_joint6,velocity_joint7,ee_T_00,ee_T_10,ee_T_20,ee_T_30,ee_T_01,ee_T_11,ee_T_21,ee_T_31,ee_T_02,ee_T_12,ee_T_22,ee_T_32,ee_T_03,ee_T_13,ee_T_23,ee_T_33,v_x,v_y,time
0.465060898241,0.547761130338,-0.124022158558,-1.35583913551,0.0794244341525,1.89409468313,0.159150979534,-0.000600791398986,0.0010369502753,-4.66071287586e-05,0.00098644694454,-1.73899906975e-05,-0.000106909693946,-0.00101341154408,0.5738132393,0.81897221882,0.00190213184977,0.0,0.818929297623,-0.57375568913,-0.0118305361894,0.0,-0.0085976870347,0.0083463904871,-0.999928206195,0.0,0.661690337011,0.260849437455,0.303226132528,1.0,0.0,0.0,0.0
0.46505779444,0.547758975744,-0.124024781529,-1.35583913551,0.0794233284065,1.89409519804,0.159154103872,-0.000441335317258,-0.00184503600662,-0.000985250460312,0.00151415126524,0.0002537648047,-0.000545809768871,6.09944912852e-05,0.573819879465,0.818967563981,0.00190314977453,0.0,0.818924680723,-0.57376234833,-0.0118271654398,0.0,-0.00859427465157,0.00834535964256,-0.999928244133,0.0,0.66169197112,0.260845750297,0.303227788424,1.0,-0.00022,-0.000289142857143,0.012
0.465063080547,0.547753756985,-0.124025087439,-1.35584520194,0.0794232492597,1.89409638848,0.159147795283,0.000303809509848,-0.00244938689361,-0.000207914367002,-0.00201897497057,5.87974567219e-05,0.0027661802361,-0.00170532230204,0.573810907059,0.818973849331,0.0019036685648,0.0,0.818930969485,-0.573753371657,-0.0118271987641,0.0,-0.00859409570402,0.00834570947491,-0.999928242752,0.0,0.66168965171,0.260848487586,0.303228711491,1.0,-0.00056,-0.000736,0.029
0.465062676083,0.547729160943,-0.124024799159,-1.35586668248,0.0794207024284,1.89410114179,0.159154043784,0.000731298259234,-0.00581630700723,-0.000471122779265,-2.9613258588e-05,3.21412298978e-05,0.000566709511603,-0.00830847439167,0.573816641919,0.818969816275,0.00191007533859,0.0,0.818927026052,-0.573759085907,-0.0118230385585,0.0,-0.00858695396123,0.00834862933645,-0.999928279733,0.0,0.661686509206,0.260846071821,0.303236310314,1.0,-0.0009,-0.00118285714286,0.046
0.46505981506,0.547628070949,-0.124022609193,-1.35597596515,0.0794209585823,1.89412098389,0.159156073181,-0.000490565979749,-0.00467855209332,-0.00170783248759,-0.00711931989435,0.000325631960643,0.000103705988199,0.000788237427582,0.573825110152,0.818963846024,0.00192581544984,0.0,0.81892116025,-0.573767391649,-0.0118262621498,0.0,-0.0085804762276,0.0083634582259,-0.99992821142,0.0,0.661668315998,0.26083519349,0.303257559427,1.0,-0.00124,-0.00162971428571,0.063
0.465059049818,0.547491979364,-0.124022609194,-1.35615210919,0.0794156150045,1.89416165668,0.159156309952,0.000366380163882,-0.0123201399297,-0.000952845678379,-0.0117318634227,-0.000271733258445,0.00432385065676,0.0018265922113,0.573834170679,0.818957486265,0.00193058326764,0.0,0.81891478269,-0.57377635391,-0.0118330590542,0.0,-0.00858321452308,0.00837135798061,-0.999928121814,0.0,0.661640138347,0.260817461999,0.303273648486,1.0,-0.00158,-0.00207657142857,0.08
0.465037553285,0.547329323637,-0.124020132701,-1.35636395462,0.0794116151585,1.89425599823,0.159140886091,2.17244900917e-05,-0.0141648137733,0.00102892021057,-0.0104997393,-0.001990667012,0.00335721311413,-0.00128600043967,0.573848281404,0.818947494492,0.00197435957958,0.0,0.818905287397,-0.573790214701,-0.0118180661625,0.0,-0.00854567199711,0.00839875215781,-0.99992821365,0.0,0.661619942184,0.260787429596,0.303296139371,1.0,-0.00192,-0.00252342857143,0.097
0.465022047977,0.547158714352,-0.124022232694,-1.35656063136,0.0794075910209,1.89437154128,0.159129301514,-0.000273033820556,-0.00806070834784,-0.00164363597904,-0.0165768084546,0.000245430686331,0.00998375541338,0.00140237553459,0.573873754683,0.818929435071,0.00205935919855,0.0,0.818888331003,-0.5738153457,-0.0117727349229,0.0,-0.008459510121,0.00844261135656,-0.99992857695,0.0,0.661606421396,0.260756704734,0.30333790782,1.0,-0.00226,-0.00297028571429,0.114
0.464994237208,0.546934533868,-0.124020104524,-1.35684164848,0.0793970562691,1.89451157813,0.159122707926,3.02263634358e-05,-0.0108545284776,9.26749339485e-05,-0.01662580792,-0.000173387502559,0.00122827210282,-0.000645808798699,0.573892110285,0.818916396862,0.00212781679775,0.0,0.818876156915,-0.573833408319,-0.0117390814967,0.0,-0.0083924755376,0.00847954795251,-0.999928829278,0.0,0.661583905229,0.260722296379,0.303370572187,1.0,-0.0026,-0.00341714285714,0.131
0.464951573101,0.546668471939,-0.124020106564,-1.35723964581,0.0793820667272,1.89465392383,0.159090573246,-0.00221329947268,-0.0151220592048,0.000591377200253,-0.0265435469051,-0.000664391102413,0.00314547669397,-0.000238382618964,0.573918977629,0.818897531354,0.00214176581347,0.0,0.818857385199,-0.573860130497,-0.0117422413263,0.0,-0.00838677989699,0.00849305940854,-0.999928762395,0.0,0.661539974788,0.260657558996,0.303381904157,1.0,-0.00296,-0.00389028571429,0.149
0.464922532476,0.546428343085,-0.124025770667,-1.35758738023,0.0793635056113,1.89478435562,0.158972614601,-0.000482950109645,-0.0208103582013,-0.000698784277035,-0.0203354477916,-0.00396406348777,0.00806864073771,-0.00502963004179,0.573864633028,0.818935561876,0.00216225705545,0.0,0.818895681559,-0.573805713901,-0.011730827715,0.0,-0.0083662376087,0.00850273381088,-0.999928852262,0.0,0.661502441482,0.260602797616,0.303397925909,1.0,-0.00326,-0.00428457142857,0.164
0.464877063076,0.546123140326,-0.124020504438,-1.35809345622,0.0793209409593,1.89495689986,0.158940895041,-0.00192404435429,-0.0188859911476,0.000467069678124,-0.0322618136934,-0.00308890607078,0.0157402924129,0.001262777591,0.5738891498,0.818918460076,0.00213222669878,0.0,0.818878250504,-0.573830404084,-0.0117398935731,0.0,-0.00839064060398,0.00848359494565,-0.99992881035,0.0,0.661441764723,0.260524520445,0.303387897924,1.0,-0.00362,-0.00475771428571,0.182
0.464834874067,0.545800703502,-0.124025423254,-1.35863114932,0.0792614747278,1.89514310123,0.158885344642,-0.00195597756491,-0.0200581979353,-0.00638391516431,-0.0288550887152,-0.002848384766,0.00963232418402,0.000525832360949,0.573895860887,0.81891386368,0.00209084430306,0.0,0.818873362845,-0.573837521444,-0.0117329240541,0.0,-0.00840861114865,0.00844577586375,-0.999928979542,0.0,0.661379389219,0.260437182312,0.303376494953,1.0,-0.00396,-0.00520457142857,0.199
0.464780506886,0.545487975435,-0.124023529149,-1.35916842128,0.0792501314372,1.89532259267,0.158795515016,-0.00482453396303,-0.0214886831005,0.000175328971655,-0.0397520299245,-0.000457183220844,0.0144636004316,-0.00309484969947,0.573892419809,0.818916342073,0.00206447872806,0.0,0.818875269388,-0.57383395342,-0.0117742934978,0.0,-0.00845765620749,0.00844789100963,-0.999928548042,0.0,0.661314374647,0.260352996503,0.303357677963,1.0,-0.00426,-0.00559885714286,0.214
0.464712669142,0.545089158006,-0.124028552259,-1.35985861426,0.079224527757,1.895542008,0.15872452421,-0.00250284853083,-0.0200466402009,-0.00183380838781,-0.0374600710082,-0.000100948814902,0.0156369805245,-0.00220836932348,0.57392490934,0.818893706778,0.0020105571357,0.0,0.818851762536,-0.573866483122,-0.0118235968353,0.0,-0.00852864189007,0.00843236734519,-0.999928076138,0.0,0.661230280061,0.260239276549,0.303330664081,1.0,-0.0046,-0.00604571428571,0.231
0.464653528429,0.544691943509,-0.124027929389,-1.36052546313,0.0791967541682,1.89577420183,0.158624843454,-0.00690200541575,-0.0269976496314,0.000363814256509,-0.0427757675237,5.74117534683e-05,0.0108750025146,-0.00495628461554,0.573918231563,0.818898468113,0.00197719562095,0.0,0.818855906289,-0.573859760094,-0.0118628572008,0.0,-0.00858000777625,0.00842751059379,-0.999927677651,0.0,0.66114409439,0.260132020757,0.303308797805,1.0,-0.00494,-0.00649257142857,0.248
0.464574590579,0.54422027455,-0.124025843499,-1.3613283166,0.0791543456253,1.89604670595,0.158563230612,-0.00527499992106,-0.0237587250437,0.000935719375229,-0.0441251482071,-0.00511565308482,0.0116420740027,-0.00802154496461,0.573967150566,0.818864274746,0.00193817356865,0.0,0.818821142254,-0.573908771858,-0.01189140375,0.0,-0.00862527695834,0.00841245458781,-0.999927414968,0.0,0.661055065174,0.260009391425,0.303289708103,1.0,-0.00528,-0.00693942857143,0.265
0.464510030611,0.543743576922,-0.12402731913,-1.36210169081,0.0791064063682,1.89631735725,0.15844115208,-1.48119869121e-05,-0.0281434673055,0.000368929362119,-0.0455717897164,-0.00543506239644,0.0163806040307,-0.0122140428287,0.573951321612,0.818875424031,0.00191500370166,0.0,0.818831977847,-0.573893029243,-0.0119050385237,0.0,-0.00864990273127,0.00840114061112,-0.999927297367,0.0,0.660963416083,0.259890927987,0.303282388257,1.0,-0.0056,-0.00736,0.281
0.464430652435,0.543204922841,-0.124032197114,-1.36295828154,0.0790589654754,1.89661649901,0.158333078833,-0.00423784360722,-0.030372057579,0.000403161868804,-0.0506009801811,-0.00139102474567,0.00478543779349,-0.0076487645902,0.573966167903,0.818865052462,0.00190022638684,0.0,0.818821367577,-0.573907890548,-0.0119183920083,0.0,-0.00866916668823,0.00839686142294,-0.999927166481,0.0,0.660864411976,0.259753657026,0.30328182605,1.0,-0.00594,-0.00780685714286,0.298
0.464358041296,0.542632723913,-0.124037842226,-1.36385778084,0.0790042024506,1.89693683314,0.15822702519,-0.00364780635219,-0.0365553615883,-0.000435330160894,-0.056506392617,-0.00764477961142,0.015970033038,-0.00636227166289,0.573978072026,0.818856726108,0.0018925754647,0.0,0.818812949467,-0.573919832924,-0.0119216636291,0.0,-0.00867611489671,0.00839260038708,-0.99992714199,0.0,0.660759327883,0.259616022724,0.303286353728,1.0,-0.00628,-0.00825371428571,0.315
0.464274188224,0.542035313277,-0.124035374734,-1.36477548076,0.0789531606917,1.89728300961,0.158089650406,-0.00739846200997,-0.0348265415391,0.00477541847724,-0.0527546630623,-0.0035056848151,0.0295915879914,-0.00527615828058,0.573969909674,0.818862389507,0.00191748293841,0.0,0.818818882952,-0.573911514698,-0.0119145758858,0.0,-0.00865609919892,0.00840884117891,-0.999927179017,0.0,0.660656580314,0.259476198606,0.303301955071,1.0,-0.00662,-0.00870057142857,0.332
0.464187358005,0.541409787523,-0.124033902031,-1.36573683907,0.0788882696368,1.89763970851,0.157965572388,-0.00834128341745,-0.0334407536906,0.000175438206439,-0.0576388650035,-0.000402120374559,0.0104284566845,-0.00501816070129,0.573974386386,0.818859218222,0.00193168492467,0.0,0.818815943856,-0.573915977724,-0.0119015755913,0.0,-0.00863725633607,0.00841305593928,-0.999927306504,0.0,0.660548218288,0.259327501653,0.303317496001,1.0,-0.00696,-0.00914742857143,0.349
0.464104699171,0.540717742447,-0.124043909431,-1.36678420977,0.0788304135405,1.89802653031,0.157843857244,-0.00759963662863,-0.0407469517294,-0.000947335792433,-0.0577107681217,-0.000442406770615,0.0257867336587,-0.00506019730652,0.573991986553,0.8188468161,0.00195909106056,0.0,0.818803890046,-0.573933454156,-0.0118880926341,0.0,-0.00861030467862,0.00842794355277,-0.999927413576,0.0,0.660428746426,0.259168758893,0.303342034679,1.0,-0.0073,-0.00959428571429,0.366
0.464014408521,0.540035111454,-0.124037098468,-1.36782659532,0.0787710122789,1.89840614654,0.15771058257,-0.00538331280301,-0.0461002771707,0.00180503912016,-0.0645676828971,-0.0068537853272,0.0207882942318,-0.0121616923414,0.573993778916,0.818845509658,0.00197989423304,0.0,0.818802769194,-0.573935077203,-0.0118869347638,0.0,-0.00859739793195,0.00844433206506,-0.999927386366,0.0,0.66030675936,0.25901446586,0.303361005585,1.0,-0.00762,-0.0100148571429,0.382
0.463921932968,0.539294795138,-0.124053106596,-1.36897271636,0.0787034676028,1.89884460715,0.157569480157,-0.00202532791305,-0.0454522994311,-0.00189372946959,-0.0663806854338,-0.00657248150212,0.0236618114147,-0.00750811554772,0.574010602516,0.818833658314,0.00200377469923,0.0,0.818791301592,-0.57395187296,-0.0118658697608,0.0,-0.00856626823091,0.00845197107149,-0.999927588995,0.0,0.660180090279,0.258836622165,0.303377103555,1.0,-0.00796,-0.0104617142857,0.399
0.463801404747,0.538534850337,-0.124045394734,-1.37015589335,0.0786365073439,1.89930376753,0.15742190977,-0.00701795542325,-0.0500364224513,0.00423493609977,-0.0715152642131,-0.00647291614578,0.0252653200481,-0.0135509769181,0.574030613922,0.818819546776,0.00203739983156,0.0,0.818777565229,-0.573971683999,-0.0118554437509,0.0,-0.00853822365391,0.00847372807366,-0.999927644717,0.0,0.660051055133,0.258651387085,0.303390328543,1.0,-0.0083,-0.0109085714286,0.416
0.463698768172,0.537758128361,-0.124060180747,-1.37137601965,0.0785683356254,1.89977466251,0.157271921925,-0.00530604011143,-0.0444197421766,-0.00107007819145,-0.0720036290178,-0.000234382976368,0.0288193794242,-0.00343674442643,0.574051415403,0.818804910103,0.00205877769081,0.0,0.818763243085,-0.573992433206,-0.0118399871618,0.0,-0.00851308071068,0.00848257620341,-0.999927784071,0.0,0.659916579297,0.258461355467,0.303399443398,1.0,-0.00864,-0.0113554285714,0.433
0.463586635733,0.53697794917,-0.124063799444,-1.37259157136,0.0784903954038,1.90022212309,0.157116571786,-0.00801381905911,-0.0516728388276,-0.000724775256104,-0.0800879172731,-0.00880410989803,0.0292782045539,-0.00518360352548,0.574064608292,0.818795643919,0.0020654074121,0.0,0.818754104999,-0.574005639723,-0.0118316530901,0.0,-0.00850231420355,0.00848335742468,-0.999927869049,0.0,0.659778755095,0.258268977166,0.303410619066,1.0,-0.00896,-0.011776,0.449
0.463473644207,0.5361335739,-0.124067345531,-1.37391615072,0.0784185084595,1.90071769166,0.156959123703,-0.00629665562282,-0.0519865151254,0.00138294714948,-0.0771374904187,-0.0105433873483,0.0283753644365,-0.01186721869,0.574084328727,0.818781777468,0.00208117727917,0.0,0.818740380407,-0.574025231703,-0.0118308816027,0.0,-0.00849242550331,0.00849603117532,-0.999927845479,0.0,0.6596265217,0.258068227642,0.303419267482,1.0,-0.0093,-0.0122228571429,0.466
0.463365322188,0.535251839225,-0.124079030779,-1.37533341731,0.0783322451333,1.901227177,0.1567844921,-0.00527984401336,-0.0534756728704,-0.00141047370255,-0.0861503277128,-0.00837102394188,0.0267757693451,-0.00504794782967,0.574092877031,0.818775849496,0.00205517038785,0.0,0.818734138194,-0.57403390683,-0.011841945218,0.0,-0.0085163252343,0.00848117784516,-0.999927768305,0.0,0.659457652187,0.257853961984,0.303411461203,1.0,-0.00964,-0.0126697142857,0.483
0.463241390838,0.53434822763,-0.124082194802,-1.37678272777,0.0782580342088,1.90175854513,0.156597786736,-0.00768727745532,-0.0560578350911,-0.0015929656644,-0.0851470793099,-0.00611295374473,0.0325466061807,-0.00845775335482,0.574103272773,0.818768576636,0.00204865933514,0.0,0.818726648719,-0.574044196227,-0.0118609593655,0.0,-0.00853552415112,0.00848687098035,-0.9999275563,0.0,0.659287335008,0.257634276078,0.303405307407,1.0,-0.00998,-0.0131165714286,0.5
0.463119506334,0.533483009672,-0.124077542735,-1.37816556025,0.0781770150129,1.90226579943,0.156438284499,-0.00459813624498,-0.0592282660235,0.000469603819868,-0.0909901706182,-0.00428757996702,0.0327047547813,-0.00610176204079,0.574123123873,0.818754675326,0.00204136394347,0.0,0.818712582297,-0.57406400468,-0.0118732060079,0.0,-0.00854953397468,0.00848813589211,-0.999927425875,0.0,0.659124369355,0.257425157362,0.303401172479,1.0,-0.0103,-0.0135371428571,0.516
0.46299136594,0.532539010764,-0.124077622021,-1.3796950349,0.0780936469908,1.90284685964,0.156245075973,-0.0102349793008,-0.0528221274171,0.00360277653472,-0.0903584600113,-0.00762811152665,0.0382984783275,-0.0104916802993,0.57413125012,0.818748979227,0.00204047840668,0.0,0.818706790207,-0.574072049682,-0.0118836166439,0.0,-0.00855848215277,0.0084934727322,-0.99992730401,0.0,0.658946519696,0.257197431611,0.303389188854,1.0,-0.01064,-0.013984,0.533
0.462857642775,0.531567018962,-0.124074571325,-1.38125601021,0.0780016158764,1.90341270775,0.156041870014,-0.0134421813935,-0.0551234041418,0.00203854318829,-0.0870219313689,-0.00590588523363,0.0319668184896,-0.00987295081716,0.574132558314,0.818748107377,0.00202214034779,0.0,0.818705602566,-0.574073356319,-0.0119023019882,0.0,-0.00858429560419,0.00848920016566,-0.999927119019,0.0,0.658759808439,0.256962082278,0.30338030075,1.0,-0.01098,-0.0144308571429,0.55
0.462723267845,0.530549592211,-0.124078649341,-1.38290633497,0.0778946652771,1.90398791872,0.155835189968,-0.007399419964,-0.0553193722347,-0.000178492725212,-0.0945001313897,-0.00716784367353,0.0355688392358,-0.00391247559306,0.57413707542,0.818745071705,0.00196801644633,0.0,0.818701870523,-0.574078105032,-0.0119299382181,0.0,-0.00863794927694,0.00846080148097,-0.999926897663,0.0,0.658557475033,0.256710418503,0.303361715303,1.0,-0.01132,-0.0148777142857,0.567
0.462586074374,0.529577642494,-0.124083083915,-1.38445656909,0.0777969655024,1.90455730372,0.155624401171,-0.00505542768116,-0.0555791187271,0.00294268700328,-0.10000717326,-0.00680636364377,0.0431381959099,-0.0149131213721,0.574137844539,0.818744559851,0.0019565486729,0.0,0.818701235626,-0.574078947667,-0.0119329598862,0.0,-0.00864699906805,0.00845315543352,-0.999926884112,0.0,0.658376016323,0.256469089222,0.303358016493,1.0,-0.01164,-0.0152982857143,0.583
0.46244286909,0.528425223413,-0.12408554329,-1.38623207739,0.0776888502108,1.90523975949,0.155379211932,-0.0102099488123,-0.0617356534986,-0.000347478930441,-0.0972241175143,-0.0103514302668,0.0454193242066,-0.0209443451107,0.574123350705,0.818754605612,0.00200520966989,0.0,0.81871194196,-0.574064280249,-0.0119039966025,0.0,-0.00859549828759,0.0084762147125,-0.999927132942,0.0,0.658170398345,0.256206581792,0.303383668874,1.0,-0.012,-0.0157714285714,0.601
0.462306932122,0.527373538051,-0.124089368879,-1.38785848366,0.0775784982343,1.90587172589,0.155152043986,-0.00310707324935,-0.0697364433131,-0.00124188731358,-0.103207283409,-0.00939677269032,0.0445758952992,-0.0196403938807,0.574109731186,0.818764056646,0.00204523902128,0.0,0.818722056641,-0.574050640252,-0.0118660565118,0.0,-0.00854159424848,0.00848706421431,-0.999927502826,0.0,0.657985023573,0.255960687087,0.303404745019,1.0,-0.01232,-0.016192,0.617
0.462157398857,0.526217143891,-0.1240843557,-1.38966037497,0.0774706794991,1.90654349598,0.154907904516,-0.0108304799282,-0.0682467087829,0.000726670004295,-0.10474379467,-0.0163289762906,0.031930988129,-0.0137450745382,0.574096941893,0.818772964306,0.00206908963662,0.0,0.818731216495,-0.574037698391,-0.0118601375814,0.0,-0.00852318864958,0.00850306070139,-0.999927523981,0.0,0.657770031373,0.255694677785,0.30341890523,1.0,-0.01266,-0.0166388571429,0.634
0.462004690477,0.525037152519,-0.124089689782,-1.39150813917,0.0773573524719,1.90720723502,0.154663363976,-0.00963032363766,-0.0664254747221,0.000494305606397,-0.111690572312,-0.00336141289562,0.0378372682526,-0.0206189254156,0.574094316515,0.818774817858,0.00206404648967,0.0,0.818732985152,-0.574035074441,-0.0118650426467,0.0,-0.00853012728295,0.00850172017711,-0.999927476211,0.0,0.657546177479,0.25541404286,0.303427159496,1.0,-0.013,-0.0170857142857,0.651
0.461841430915,0.523866968057,-0.124106721663,-1.39339928868,0.0772422430012,1.9078875551,0.154415286917,-0.00948447205064,-0.068451519329,-0.00143739292697,-0.113481899279,-0.00769114390063,0.0431873685968,-0.0142061905868,0.57410740299,0.818765740768,0.00202446974091,0.0,0.818723418782,-0.574048345442,-0.01188307764,0.0,-0.00856747831187,0.0084798068935,-0.999927342956,0.0,0.657320020247,0.255115253208,0.303409405129,1.0,-0.01334,-0.0175325714286,0.668
0.461669409068,0.522494299356,-0.124109465977,-1.39555648004,0.0771112001176,1.90871965271,0.154114835629,-0.00704235113399,-0.0713675862348,-0.00062253145331,-0.108296160403,-0.00648872386092,0.0390051662799,-0.0149583230905,0.574084655477,0.81878159622,0.00206226550479,0.0,0.818739789455,-0.57402547072,-0.0118601445886,0.0,-0.00852723936632,0.00849734944557,-0.999927537995,0.0,0.657066067216,0.254797833159,0.303419686525,1.0,-0.01372,-0.018032,0.687
0.46151650544,0.521337995082,-0.124114931809,-1.39743249421,0.076996575583,1.90944372386,0.153855744049,-0.012256453739,-0.0753471001473,6.69111421248e-06,-0.119513480928,-0.00603153325711,0.0416031569756,-0.0168332768194,0.57407117821,0.818791047515,0.00206149423984,0.0,0.818749267944,-0.574012035315,-0.0118560725216,0.0,-0.0085244876578,0.00849423996161,-0.999927587877,0.0,0.656845235313,0.254517289071,0.30340215215,1.0,-0.01404,-0.0184525714286,0.703
0.461356733694,0.520126469308,-0.124114912177,-1.39933995807,0.0768760834317,1.91013471339,0.15360782736,-0.0100664161738,-0.0770913621584,0.0014585864242,-0.12251186679,-0.00841526946217,0.0400713136553,-0.0180331513881,0.574068016633,0.818793281214,0.00205470673087,0.0,0.818751400971,-0.574008889169,-0.011861090331,0.0,-0.00853252542031,0.00849153010419,-0.999927542338,0.0,0.65661202725,0.254229316421,0.303405030731,1.0,-0.01436,-0.0188731428571,0.719
0.461176689458,0.51869320015,-0.124123795244,-1.40154916127,0.0767290679814,1.91092908672,0.153299042097,-0.0114803672652,-0.086609806395,-0.00327757935873,-0.126592001198,-0.00847397395208,0.0465095968346,-0.0253428037393,0.574046355147,0.818808448177,0.00206258028165,0.0,0.818766757128,-0.573987285083,-0.0118465558407,0.0,-0.00851632911373,0.0084894078173,-0.999927698433,0.0,0.656341908886,0.25389274326,0.303428797417,1.0,-0.01472,-0.0193462857143,0.737
0.461025418944,0.517517401975,-0.124122117317,-1.4034097648,0.0766078620828,1.9115969281,0.153053502829,-0.0114403833967,-0.0759958393545,0.000928208592883,-0.123613858473,-0.00444836524503,0.0456952338525,-0.0173533784614,0.574033687109,0.818817375263,0.00204424386626,0.0,0.81877544632,-0.573974693011,-0.0118561034353,0.0,-0.00853480357159,0.00847974271502,-0.999927622927,0.0,0.656110377899,0.253614833054,0.303426129496,1.0,-0.01502,-0.0197405714286,0.752
0.460825939453,0.516074840117,-0.124129504932,-1.40569372573,0.0764671341223,1.91244946596,0.152737649669,-0.0150254744765,-0.08534702998,-0.000989092364819,-0.130693099882,-0.00843581348582,0.0474161704324,-0.00936403257027,0.574026441898,0.818822440311,0.00204991356918,0.0,0.818780602567,-0.573967443181,-0.0118509885317,0.0,-0.00852743587918,0.00848137353996,-0.999927671954,0.0,0.655837073209,0.253262657812,0.303425047443,1.0,-0.01538,-0.0202137142857,0.77
0.460641312441,0.514703524693,-0.124136432332,-1.40790894932,0.0763294735752,1.91327281067,0.152428526571,-0.0107668587948,-0.0841335812526,-0.00168202625765,-0.133388115636,-0.0140843621604,0.0459569600011,-0.0163211854623,0.574009070306,0.818834673688,0.0020276277314,0.0,0.818792562093,-0.573950179647,-0.0118607944266,0.0,-0.00854843701719,0.00846857313334,-0.999927601126,0.0,0.655567450809,0.252926297778,0.30340375964,1.0,-0.01572,-0.0206605714286,0.787
0.460470875576,0.513461653124,-0.124133738093,-1.40990690117,0.0762248325378,1.91395093864,0.152160331209,-0.0141041507063,-0.0815489523128,-0.000645788224235,-0.130777391095,-0.00594551511301,0.0430417512351,-0.0172764109767,0.574003635164,0.818838617569,0.00197284008594,0.0,0.81879549707,-0.57394467864,-0.0119242081929,0.0,-0.00863186727335,0.00846005431025,-0.999926956507,0.0,0.65530869244,0.252624517456,0.303381886567,1.0,-0.01602,-0.0210548571429,0.802
0.460277743696,0.512039420805,-0.124137542401,-1.41219444459,0.0760859420046,1.9147687558,0.151833314962,-0.0114348007559,-0.0848999087742,-0.000202502106455,-0.133165198295,-0.00233472684367,0.0525932481776,-0.0198588222603,0.573978935011,0.818856029273,0.00193193873371,0.0,0.818812296464,-0.573920075269,-0.0119548008623,0.0,-0.00868064947082,0.00844386162892,-0.999926671074,0.0,0.65502195403,0.252276078101,0.303360450569,1.0,-0.01636,-0.0215017142857,0.819
0.460052988632,0.510417658324,-0.124137663982,-1.41479207515,0.0759156481009,1.9157560966,0.151470988564,-0.0131143389913,-0.0888652437582,6.21122507882e-05,-0.130212492033,-0.00658076055253,0.0463867720742,-0.0184444726702,0.573956128751,0.81887201313,0.0019326878967,0.0,0.818828378209,-0.573897354402,-0.0119440592491,0.0,-0.00867165832778,0.0084380681632,-0.999926797994,0.0,0.654708263555,0.251881371769,0.303345204034,1.0,-0.01674,-0.0220011428571,0.838
0.459823122735,0.508731521064,-0.124146226705,-1.41742689269,0.0757495991927,1.91671424046,0.1510927534,-0.00932168656317,-0.0931869275523,-0.00162209098122,-0.138019444109,-0.00858878754083,0.0426440340869,-0.0302251336383,0.573932792228,0.818888360198,0.00193660486055,0.0,0.818844785273,-0.57387401302,-0.0119407584831,0.0,-0.00866694779638,0.00843913412819,-0.999926829839,0.0,0.654383332956,0.251473666651,0.30335438098,1.0,-0.01712,-0.0225005714286,0.857
0.459644267905,0.507502471292,-0.124146797054,-1.419395519,0.075624709292,1.91741176996,0.150832486279,-0.0179102284374,-0.0899418975146,-0.00151919136066,-0.140843784979,-0.0112109924152,0.0473566249313,-0.021438776611,0.573929578109,0.81889069966,0.00189954845954,0.0,0.818846546183,-0.573870863143,-0.0119713466265,0.0,-0.00871329665877,0.00842631084675,-0.999926535175,0.0,0.654149848024,0.251194706334,0.303336307898,1.0,-0.01738,-0.0228422857143,0.87
0.459458982386,0.506111743303,-0.12414976521,-1.42153565303,0.0754924238362,1.91822347658,0.150539136778,-0.00971515571013,-0.0937078775568,-0.00105577431176,-0.142440395718,-0.0121016891223,0.0545850298958,-0.016937754161,0.573923297983,0.818894983836,0.0019494566481,0.0,0.818851546816,-0.573864437273,-0.0119372866316,0.0,-0.00865682697166,0.00844756514616,-0.999926846319,0.0,0.653876105146,0.250841269082,0.303361708127,1.0,-0.0177,-0.0232628571429,0.886
0.459229918885,0.504477142802,-0.124153633642,-1.42400664649,0.0753363226378,1.91917883816,0.150196598607,-0.0112036584876,-0.0961543428317,0.000829418964669,-0.146841748207,-0.0147176229526,0.0492926907873,-0.0186805578212,0.573918444033,0.81889814909,0.00204643994086,0.0,0.818856052383,-0.573859260196,-0.0118769467162,0.0,-0.00855180582097,0.00849230201375,-0.999927371074,0.0,0.653583758072,0.250457183903,0.303410727413,1.0,-0.01804,-0.0237097142857,0.903
0.459001203088,0.502810012682,-0.12415930669,-1.42647204484,0.0751767663963,1.92012331779,0.149849951529,-0.0176199534177,-0.0985704954717,-0.00122589866556,-0.148981383958,-0.010160035485,0.0579854230088,-0.024341260431,0.573909370522,0.818904201802,0.00216554822552,0.0,0.818863763684,-0.573849823313,-0.0118010046436,0.0,-0.00842135495869,0.00854616065698,-0.999928019369,0.0,0.653290875309,0.250072180239,0.303483549549,1.0,-0.01838,-0.0241565714286,0.92
0.458768248306,0.501093153957,-0.124159650424,-1.42904406682,0.075004726665,1.9210222673,0.149488192839,-0.0127725942591,-0.106157073616,0.00200170486764,-0.154518845196,-0.00985684462605,0.0520569036439,-0.0193861322042,0.573888552153,0.818918702494,0.00219893476993,0.0,0.81887870755,-0.573828887308,-0.0117820759333,0.0,-0.00838691151774,0.00856242421431,-0.999928169724,0.0,0.652963932657,0.249670687353,0.303535572691,1.0,-0.01872,-0.0246034285714,0.937
0.458521558201,0.499388129324,-0.124162235227,-1.43163803077,0.0748410116136,1.92196054145,0.14913429452,-0.0201529412224,-0.102636250257,-0.00010900675277,-0.153339127679,-0.00957418703813,0.0501706764693,-0.0234628714973,0.573890306299,0.818917362731,0.00223969978586,0.0,0.818877872256,-0.5738304589,-0.0117635738449,0.0,-0.00834834764498,0.00858520688398,-0.999928297087,0.0,0.652641580065,0.249260211163,0.303571767238,1.0,-0.01906,-0.0250502857143,0.954
0.458281944382,0.497823900891,-0.124163592394,-1.43413245496,0.0747017031638,1.92288714221,0.148754243778,-0.0147038425307,-0.100567719481,-0.000444265540426,-0.157099467599,-0.00636720604353,0.0519845124585,-0.0264609777635,0.573865651266,0.81893463061,0.00224320865262,0.0,0.818895016336,-0.573805619286,-0.0117817824343,0.0,-0.00836150490051,0.00859827817945,-0.999928074837,0.0,0.652332746809,0.248868201978,0.30355566138,1.0,-0.01938,-0.0254708571429,0.97
0.458020487185,0.496150801968,-0.124161431559,-1.43680544668,0.0745302291539,1.9238257018,0.148371079887,-0.0155818564716,-0.0978760696796,0.000702255118547,-0.15929638205,-0.00638597134643,0.0546040333564,-0.0234528213312,0.57385296905,0.818943664501,0.00218887815375,0.0,0.81890326097,-0.573793064453,-0.0118201209198,0.0,-0.00842421222956,0.0085756560503,-0.999927742775,0.0,0.651991153547,0.248440172348,0.303530750088,1.0,-0.01972,-0.0259177142857,0.987
0.457749271969,0.494487085855,-0.124167863786,-1.43954169137,0.0743603091027,1.92477251622,0.147982219944,-0.0152169131683,-0.0999409517336,-0.001412742534,-0.160884360095,-0.0111681371483,0.056476154509,-0.020437847878,0.573852955469,0.818943956965,0.00208032466924,0.0,0.818902014142,-0.57379335617,-0.0118921213586,0.0,-0.00854546897498,0.00852807524201,-0.999927120791,0.0,0.651638611288,0.24799410227,0.303469663543,1.0,-0.02208,-0.0290194285714,1.004
0.457469172825,0.492352426519,-0.124238715387,-1.44274529118,0.0741672276035,1.92595993726,0.147523307256,-0.0180439304589,-0.155404066651,-0.00545145706525,-0.22450558863,-0.00763051194945,0.088492716785,-0.0296288076175,0.573866156779,0.818934475242,0.0021693929071,0.0,0.818893922708,-0.573806433018,-0.0118181081258,0.0,-0.00843360694358,0.00855867973924,-0.999927809032,0.0,0.651249545926,0.247467843761,0.303535729482,1.0,-0.03328,-0.0437394285714,1.02
0.457067304644,0.489236857134,-0.124277023348,-1.44768300149,0.0739148345615,1.92785252544,0.146774403592,-0.0275001353783,-0.199213686223,-0.000969597335481,-0.325116660034,-0.0148330588195,0.121002317562,-0.0512157576171,0.573789450466,0.818988015724,0.00224578179843,0.0,0.81894814019,-0.573729115071,-0.0118149523852,0.0,-0.00838799550085,0.008618639799,-0.999927677674,0.0,0.650628641659,0.246726976007,0.303517835131,1.0,-0.04518,-0.0593794285714,1.037
0.456446963223,0.485086351185,-0.124346061273,-1.45426170063,0.0735323147459,1.93033261871,0.145784025049,-0.0412201521175,-0.263665763127,-0.00907457254912,-0.418413683764,-0.0231040629433,0.154995965554,-0.0628994104971,0.573759660158,0.819008778803,0.00228462683612,0.0,0.818969405564,-0.573699175683,-0.011794722225,0.0,-0.00834945326608,0.00863854161611,-0.99992782851,0.0,0.649813928133,0.245664638451,0.303487059332,1.0,-0.05708,-0.0750194285714,1.054
0.455662523025,0.479896503156,-0.124498401689,-1.46249232812,0.0730456369494,1.93318772506,0.144538661404,-0.0499807289408,-0.326378403621,-0.0126765511888,-0.520777959141,-0.033645569746,0.176536599245,-0.0804102078997,0.573763830051,0.819006315679,0.00211402571023,0.0,0.818964686661,-0.573703980172,-0.011888315223,0.0,-0.00852394439862,0.0085525623419,-0.999927095367,0.0,0.64875138909,0.244274992946,0.303421462019,1.0,-0.06898,-0.0906594285714,1.071
0.454674969904,0.473672848607,-0.124647731068,-1.47223044045,0.0724611901763,1.93661969677,0.143125142416,-0.063501536819,-0.392953802383,-0.0128303496612,-0.605514613447,-0.0366423433357,0.211491438444,-0.0887446177998,0.573836085974,0.818955899364,0.00203180496631,0.0,0.818913157115,-0.573776521537,-0.0119369735284,0.0,-0.00861021867899,0.0085139019065,-0.999926686117,0.0,0.647499843535,0.242615495732,0.303396816488,1.0,-0.08088,-0.106299428571,1.088
0.453526506534,0.466462039096,-0.124750690394,-1.48316305594,0.071822952763,1.94071031741,0.141415856842,-0.0668345087281,-0.452153575789,-0.00461879604361,-0.6655782357,-0.0402498486555,0.256825215351,-0.108650072243,0.573801412074,0.81897933322,0.00235332976196,0.0,0.818940646116,-0.573740445008,-0.0117841759749,0.0,-0.00830095593671,0.00868918150397,-0.999927793521,0.0,0.646122776083,0.240788443673,0.303530632788,1.0,-0.09278,-0.121939428571,1.105
0.452229293344,0.458907904051,-0.124815447218,-1.49491244014,0.0710833270031,1.94485430176,0.139592447566,-0.0875626403981,-0.496737164155,-0.00202583515674,-0.789548772056,-0.044971103053,0.266471451381,-0.107440585112,0.573766468525,0.819003942386,0.00230843101645,0.0,0.818964326349,-0.573705318992,-0.0118484610471,0.0,-0.00837973849208,0.0086889395938,-0.999927138501,0.0,0.644571154203,0.238787486823,0.303503655191,1.0,-0.10398,-0.136659428571,1.121
0.45065428686,0.449845907274,-0.124983480014,-1.50874741334,0.0701310078163,1.94967347,0.137417141952,-0.094684513047,-0.557144181787,-0.0112993024123,-0.840200518722,-0.0649256845972,0.313462475832,-0.129104378591,0.573770185096,0.819001384852,0.00229198767039,0.0,0.818962113416,-0.573709677435,-0.0117902378187,0.0,-0.00834144619288,0.00864210438933,-0.999927864552,0.0,0.642740363977,0.236337397748,0.30356574613,1.0,-0.11588,-0.152299428571,1.138
0.448338016796,0.43689374787,-0.125117999137,-1.52856900308,0.0688547313539,1.95655495669,0.134325913112,-0.112625455175,-0.60702369516,-0.00529712972393,-0.94255587911,-0.0629073925283,0.316455895525,-0.15723372031,0.573769686167,0.819001709998,0.00230068615145,0.0,0.818961974817,-0.573708547432,-0.0118546745315,0.0,-0.0083892369215,0.00868619459571,-0.999927082705,0.0,0.640038667151,0.232873952692,0.303594453752,1.0,-0.13128,-0.172539428571,1.16
0.44703533098,0.429754669676,-0.125204155076,-1.53911813078,0.068159189753,1.96035852228,0.132555259701,-0.120316167491,-0.652398273022,-0.00981359341805,-0.981731281785,-0.0600232093129,0.338538390103,-0.162022042218,0.573718326353,0.819036716079,0.0026242375221,0.0,0.819001325081,-0.573656141853,-0.0116707896447,0.0,-0.00805355030824,0.00884517020706,-0.999928449086,0.0,0.638627319968,0.230992362287,0.303772130186,1.0,-0.13898,-0.182659428571,1.171
0.444662465683,0.417562950875,-0.125333563137,-1.55753842544,0.066850297257,1.96674414927,0.129500363135,-0.135304423722,-0.704817456178,-0.00679169927135,-1.02873274627,-0.0682399628402,0.359936597905,-0.174103887066,0.573672655711,0.819068450157,0.00270276688653,0.0,0.819034421016,-0.573610586963,-0.0115870020074,0.0,-0.00794036495261,0.00886097592662,-0.99992921435,0.0,0.636078653963,0.227632870218,0.303845208582,1.0,-0.15158,-0.199219428571,1.189
0.442329678608,0.40592521164,-0.125460775242,-1.57501297344,0.0656424754756,1.97285424389,0.126582636516,-0.1445237363,-0.728774278123,-0.00322454943841,-1.11667602912,-0.0689193323812,0.374432538399,-0.182712503896,0.573670566245,0.819069220289,0.00290528830591,0.0,0.819037877846,-0.573607913644,-0.0114744480994,0.0,-0.0077320197597,0.00896226685855,-0.999929944368,0.0,0.633634384237,0.224413779873,0.303933864201,1.0,-0.16278,-0.213939428571,1.205
0.439560018985,0.392766820817,-0.12560209576,-1.59460114855,0.0642976803673,1.97955295336,0.123250404595,-0.166714302725,-0.786250935357,-0.00718149530999,-1.18235402081,-0.0894130316792,0.406543088581,-0.200524116633,0.573717713416,0.819035390351,0.00312435046722,0.0,0.819006570342,-0.573654024063,-0.0114037412095,0.0,-0.00754791673566,0.00910156712517,-0.999930092771,0.0,0.63083501553,0.220718350951,0.304055600769,1.0,-0.17468,-0.229579428571,1.222
0.436346746505,0.378125226322,-0.12576612408,-1.61654241966,0.0626063275897,1.98686708082,0.119332323319,-0.186415238315,-0.865072885253,-0.00575816127442,-1.23998973119,-0.092856372664,0.428472217011,-0.226966617704,0.5736162079,0.819106791233,0.00304261269821,0.0,0.819077478886,-0.573553446602,-0.0113698888583,0.0,-0.00756819789095,0.00901426162171,-0.999930730335,0.0,0.627609291322,0.216488358448,0.304059737781,1.0,-0.18728,-0.246139428571,1.24
0.432953998997,0.363579294471,-0.125931206382,-1.63823520269,0.0609989909367,1.99400918539,0.115482720334,-0.21107309098,-0.87100114571,-0.0127220890057,-1.27747114294,-0.108382952221,0.432212891429,-0.232808498347,0.573697959103,0.819049698048,0.00299845800589,0.0,0.819019603497,-0.573635067468,-0.0114212678483,0.0,-0.00763471231384,0.00900832738024,-0.999930278172,0.0,0.624360856635,0.212201189103,0.304049540419,1.0,-0.19918,-0.261779428571,1.257
0.429434588271,0.349326232369,-0.126117782661,-1.65957141209,0.0593779458385,2.00088212145,0.111516166345,-0.230901454813,-0.91077732222,-0.00709354152327,-1.33997170881,-0.101779764481,0.419652961905,-0.256944377599,0.573747805226,0.819015565751,0.00277596055745,0.0,0.818982284552,-0.573685257059,-0.0115754189679,0.0,-0.00788807253869,0.00891500538807,-0.999929147985,0.0,0.621093411156,0.207869375362,0.303939684397,1.0,-0.21038,-0.276499428571,1.273
0.425617461419,0.334276404428,-0.126305681306,-1.68151876244,0.0576769830098,2.0080337717,0.107342117758,-0.243805847482,-0.93840965253,-0.00700601587497,-1.4036319833,-0.113351725038,0.450473395229,-0.258319828367,0.573830126719,0.818957315932,0.00294062107967,0.0,0.818926238741,-0.573767120383,-0.0114827683885,0.0,-0.00771681406244,0.00899748342921,-0.999929745568,0.0,0.617711289984,0.203330625872,0.304031019976,1.0,-0.22158,-0.291219428571,1.289
0.421355885142,0.317706984722,-0.12645937956,-1.70554426173,0.0557238546892,2.01567766595,0.102622475243,-0.256770784618,-0.990797714278,-0.0140729551274,-1.44129838968,-0.126472459737,0.45445771192,-0.276024809366,0.573746034023,0.819015906979,0.00302976234876,0.0,0.818986111662,-0.573682917483,-0.0114195443648,0.0,-0.00761481219047,0.00903342549638,-0.999930203494,0.0,0.613880377023,0.19835937419,0.304107040331,1.0,-0.23348,-0.306859428571,1.306
0.416741639501,0.300576424469,-0.126583334457,-1.73025255159,0.0536684232175,2.02344162494,0.0975257596385,-0.279789525946,-1.01290906881,-0.00810623593997,-1.48865620202,-0.120919047712,0.443991263894,-0.303353023519,0.573555265819,0.819149178335,0.00311890770845,0.0,0.819120574893,-0.573491959214,-0.0113667675378,0.0,-0.00752255462904,0.00907440556224,-0.999930530755,0.0,0.609851169658,0.193161425484,0.304158591182,1.0,-0.24538,-0.322499428571,1.323
0.411682028681,0.282813475864,-0.126764937157,-1.75563189391,0.0515982279081,2.0312133866,0.0922517798706,-0.300679408881,-1.04075905113,-0.0116370419122,-1.50635235293,-0.122729381683,0.448398396858,-0.318417913533,0.573591474826,0.819123404524,0.00322723868151,0.0,0.819095599588,-0.573527119492,-0.0113924907386,0.0,-0.00748109092909,0.00917822927691,-0.999929894236,0.0,0.605625026269,0.187646929948,0.304219832548,1.0,-0.25728,-0.338139428571,1.34
0.407175586136,0.267696280313,-0.126943756355,-1.77710328597,0.0497362827844,2.0377211018,0.0875385874812,-0.326841244156,-1.0942988874,-0.00942043855076,-1.55229484035,-0.132260546783,0.442267171115,-0.330418341502,0.573551210667,0.819151491428,0.00325418708836,0.0,0.819123893666,-0.573486609339,-0.011397483786,0.0,-0.00747017694639,0.00920280020495,-0.999929749995,0.0,0.601450448243,0.182170033675,0.304254768654,1.0,-0.26848,-0.352859428571,1.356
0.399807988462,0.244438306161,-0.127246343413,-1.80996106829,0.0468041882415,2.04730363041,0.0802334544018,-0.361238889318,-1.13187173238,-0.0137814742831,-1.55447470769,-0.131041897514,0.442358033323,-0.348054598475,0.573675623011,0.819064637193,0.00318536705776,0.0,0.819036209052,-0.573611278753,-0.0114252374468,0.0,-0.00753099048784,0.00916348759532,-0.999929654864,0.0,0.596279342749,0.175294046445,0.304236741395,1.0,-0.28178,-0.370339428571,1.375
0.394218784794,0.22722664235,-0.127401629841,-1.83388055018,0.0446962829954,2.05421724636,0.0745906981609,-0.3692777326,-1.15982711072,-0.000972146776173,-1.61370314152,-0.135865519746,0.443338619112,-0.380228978678,0.573593159185,0.819121756915,0.00334394771611,0.0,0.819094747908,-0.57352758343,-0.0114303060434,0.0,-0.00744510945701,0.00929553433325,-0.999929079178,0.0,0.592008428071,0.169770426135,0.304295049577,1.0,-0.29228,-0.384139428571,1.39
0.387420155968,0.207234425036,-0.127633632454,-1.86148642975,0.0420601934239,2.06190399768,0.0678663260992,-0.409077224899,-1.18805888245,-0.0125465442507,-1.60598894366,-0.144930835062,0.43436146869,-0.398101911643,0.573507481107,0.819181871836,0.00331313605331,0.0,0.819154519915,-0.57344207573,-0.0114370095204,0.0,-0.00746924305765,0.00927335943553,-0.999929105093,0.0,0.586956733977,0.163203316904,0.304313104693,1.0,-0.30418,-0.399779428571,1.407
0.380040910781,0.186664754842,-0.127933757523,-1.88962843361,0.0393603243803,2.06945422974,0.0606849706477,-0.439130881958,-1.22676805137,-0.014321415637,-1.64916081634,-0.158312810278,0.430849903745,-0.429069019339,0.573492816025,0.819192432951,0.0032395469155,0.0,0.819163614284,-0.573427001443,-0.0115409683911,0.0,-0.0075967765626,0.00927255994771,-0.999928151728,0.0,0.581678587456,0.156298902923,0.304305801623,1.0,-0.31608,-0.415419428571,1.424
0.371044034348,0.163150864066,-0.128378963654,-1.92136868174,0.0362065717673,2.07772452445,0.0522111500056,-0.486220712407,-1.24212465286,-0.0176161927696,-1.66515157065,-0.176861217565,0.419891784376,-0.467754094604,0.573675511607,0.819064660027,0.00319952779697,0.0,0.819035027999,-0.573609440677,-0.0116008352094,0.0,-0.00766670240453,0.00927581900084,-0.999927587806,0.0,0.575611278112,0.148174047549,0.304319204432,1.0,-0.32938,-0.432899428571,1.443
0.364105957977,0.145383481019,-0.128613817902,-1.94498500045,0.0337259479908,2.08380091057,0.0456179176304,-0.505922560029,-1.26923939281,-0.0185024315227,-1.70945104259,-0.178208165876,0.41052787904,-0.468040994637,0.573581021956,0.819130454716,0.00329489159138,0.0,0.819102483251,-0.573515186318,-0.0114978213052,0.0,-0.00752869017965,0.00929396491667,-0.999928467962,0.0,0.57097697189,0.142127568798,0.304377240597,1.0,-0.33918,-0.445779428571,1.457
0.355059083112,0.123429184796,-0.12897176464,-1.973907423,0.0306668195901,2.09087811495,0.0371277486018,-0.553916116545,-1.29436145489,-0.0274987706385,-1.70922926236,-0.185199758734,0.398318510838,-0.510011331264,0.573548687481,0.819153011346,0.00331571907487,0.0,0.819125110788,-0.573482547384,-0.0115138014099,0.0,-0.00753020305521,0.00931989387793,-0.999928215233,0.0,0.565158699419,0.13448069311,0.304405162884,1.0,-0.35108,-0.461419428571,1.474
0.344109587516,0.0982630383822,-0.129478313966,-2.00640520513,0.0270495988357,2.09855876646,0.0270659003046,-0.589940527097,-1.33110964625,-0.0177217375264,-1.69111302345,-0.191869826961,0.405533543144,-0.550112109211,0.573638528357,0.819089424949,0.00347845110689,0.0,0.819064292191,-0.573572741596,-0.0113464644979,0.0,-0.00729876486672,0.00935802446137,-0.999929575225,0.0,0.558484278303,0.125541375875,0.304527958905,1.0,-0.36438,-0.478899428571,1.493
0.334348346044,0.076639165289,-0.129814527389,-2.03405635117,0.0240302697047,2.10468024341,0.0180258475126,-0.619985894067,-1.3594709275,-0.0273915265365,-1.68857573421,-0.188966846061,0.389353890771,-0.579751733655,0.57353269268,0.819163141445,0.00357001778233,0.0,0.819138360059,-0.573465593082,-0.0114152324294,0.0,-0.00730379591299,0.00947152986067,-0.999928469785,0.0,0.552219195221,0.117416905691,0.304562177908,1.0,-0.36998,-0.486259428571,1.51
0.32331870463,0.053852163646,-0.130277226159,-2.06303063901,0.0205661651619,2.11085391266,0.00813599434672,-0.669443251026,-1.37229032436,-0.0310913351418,-1.69998662005,-0.1960270974,0.355545319589,-0.595231783109,0.573677905008,0.819062040033,0.00343260590838,0.0,0.819035462941,-0.573611159599,-0.0114845518188,0.0,-0.00743772258525,0.00940004057656,-0.999928157179,0.0,0.545900161913,0.109017108099,0.304509311307,1.0,-0.36998,-0.486259428571,1.527
0.313205043116,0.0339278696269,-0.130623478248,-2.08792243901,0.0176421835464,2.11573365834,-0.00077045242603,-0.674974238666,-1.34981172619,-0.0181284127799,-1.65607479969,-0.204612532727,0.348054567605,-0.598801127537,0.573836435229,0.818951225496,0.00337383503342,0.0,0.818922909202,-0.573768624565,-0.01164393192,0.0,-0.00760015795546,0.00944480502754,-0.999926513928,0.0,0.540694635215,0.102155608579,0.304482803243,1.0,-0.36998,-0.486259428571,1.541
0.301327769734,0.0114759912003,-0.131001963808,-2.11533375091,0.0141757248543,2.1209646367,-0.0112329234286,-0.712405771028,-1.33638670176,-0.0255296564423,-1.61575223808,-0.213154495926,0.313029188617,-0.617085598503,0.573924800371,0.818888787439,0.00349631617592,0.0,0.818862696177,-0.573857402002,-0.0115027770077,0.0,-0.00741325092674,0.00946491411725,-0.999927726944,0.0,0.534434250084,0.0937979468804,0.304579430771,1.0,-0.36998,-0.486259428571,1.558
0.288332194934,-0.0119709330359,-0.131407984521,-2.14351429907,0.0106317683949,2.12595886987,-0.0226942295391,-0.725850969835,-1.32139452124,-0.0113235903611,-1.56576069236,-0.196090996615,0.273591540501,-0.645403762003,0.574018582796,0.818822202724,0.00368969283926,0.0,0.818798422083,-0.573950362326,-0.0114399511022,0.0,-0.0072497249983,0.00958804379327,-0.999927752842,0.0,0.527808013912,0.0849878274133,0.30467749545,1.0,-0.36998,-0.486259428571,1.576
0.276452577564,-0.0324963127731,-0.131703745872,-2.1679021026,0.00737728623737,2.12993319385,-0.0331408167412,-0.754523123239,-1.29435302563,-0.0223083942954,-1.533929209,-0.220571087966,0.261502356656,-0.660981181285,0.573988555538,0.818843143525,0.00371366598724,0.0,0.81881991448,-0.573920592985,-0.0113950647176,0.0,-0.00719955984235,0.00958164487997,-0.99992817663,0.0,0.521897379529,0.0772163986594,0.30471706585,1.0,-0.36998,-0.486259428571,1.592
0.263351990396,-0.0540987803138,-0.132111670426,-2.19315150389,0.00403876434759,2.13370798139,-0.0445895830793,-0.763547941095,-1.28647843554,-0.0215561300487,-1.47563663852,-0.216343048215,0.22668241813,-0.682577799571,0.574122242475,0.818748881185,0.00382977217139,0.0,0.818726684563,-0.574053312875,-0.0114086310673,0.0,-0.00714244803389,0.00968567200362,-0.999927583975,0.0,0.515620990482,0.0688981126322,0.304771606744,1.0,-0.36998,-0.486259428571,1.609
0.250759900064,-0.0741126782783,-0.132343405732,-2.21632806019,0.000866768670566,2.1368504738,-0.0557263784562,-0.806959999136,-1.26900246351,-0.0226715164903,-1.42137529446,-0.206210579216,0.202756898859,-0.708137048624,0.573968511883,0.818856720724,0.00381643715126,0.0,0.818833850157,-0.573898963767,-0.0114826880333,0.0,-0.0072125658059,0.00971591635085,-0.999926787252,0.0,0.509678121616,0.0612153348271,0.304759491083,1.0,-0.36998,-0.486259428571,1.625
0.23522648871,-0.0975716936521,-0.132739869324,-2.24306054835,-0.00289348268425,2.14010388397,-0.0693966719506,-0.832309487124,-1.26063608508,-0.0121367136042,-1.39286658722,-0.19757241661,0.181692408883,-0.732380340189,0.573927215329,0.818885677849,0.00381379328773,0.0,0.818862207251,-0.573856920525,-0.0115614532839,0.0,-0.0072790769825,0.00975859176112,-0.999925889716,0.0,0.502642349872,0.0520009740786,0.304743684313,1.0,-0.36998,-0.486259428571,1.644
0.222633536129,-0.115805558605,-0.13300081861,-2.26362580392,-0.00593322729779,2.14220309006,-0.080482766422,-0.849644318099,-1.21024627709,-0.0221007760915,-1.34168815757,-0.186119942174,0.122448321187,-0.743249698928,0.573798219438,0.818976965905,0.00361657141929,0.0,0.818950338637,-0.573727776585,-0.0117272384701,0.0,-0.00752955566873,0.0096910475243,-0.999924691859,0.0,0.497044337276,0.0447773368788,0.304670689546,1.0,-0.36998,-0.486259428571,1.659
0.207851852701,-0.136293685128,-0.133381071098,-2.28638868664,-0.00925302631938,2.14431241574,-0.0934777583935,-0.869118644271,-1.18917059083,-0.021914686526,-1.33505577958,-0.188471793325,0.113319887668,-0.761744045246,0.573790423032,0.818982719375,0.00355002854642,0.0,0.818954052773,-0.573718713495,-0.0119098334892,0.0,-0.00771737859124,0.00974124621074,-0.999922772113,0.0,0.490705874677,0.0365318836018,0.304596872319,1.0,-0.36998,-0.486259428571,1.676
0.193489712039,-0.155443207474,-0.133795067576,-2.3070996037,-0.0124323619341,2.14596980027,-0.106162039512,-0.915755834172,-1.17793745439,-0.0403418824683,-1.29656633156,-0.202036522914,0.0962545134583,-0.797889776267,0.573756449022,0.819006191468,0.00362525099429,0.0,0.818978664619,-0.573684683095,-0.0118565670091,0.0,-0.00763099774258,0.00977197314372,-0.999923135253,0.0,0.484794240196,0.028733774735,0.304634643872,1.0,-0.36998,-0.486259428571,1.692
0.177833980903,-0.175440816152,-0.13417133348,-2.32846700798,-0.0156737837903,2.14723711985,-0.119974273479,-0.930591774985,-1.15483282236,-0.0192749897758,-1.25526584937,-0.192318498155,0.0587740692449,-0.824563627743,0.573735990982,0.819020448403,0.00364206684927,0.0,0.818992011139,-0.573662724429,-0.0119962991255,0.0,-0.0077360452405,0.0098657221662,-0.999921407477,0.0,0.478483319921,0.0205286953098,0.304627317389,1.0,-0.36998,-0.486259428571,1.709
0.161497977572,-0.195296233441,-0.134734855228,-2.34914679158,-0.019018698177,2.14824560772,-0.134294473193,-0.974650291429,-1.18071043286,-0.0312691342857,-1.20413687241,-0.199294123138,0.0661864512794,-0.852489281103,0.573920108443,0.818890749714,0.00379421395884,0.0,0.81886481934,-0.573846949652,-0.0118673048394,0.0,-0.0075408732356,0.009918024161,-0.999922381001,0.0,0.472220859485,0.0121345289547,0.304711294027,1.0,-0.36998,-0.486259428571,1.726
0.144868005632,-0.214673447629,-0.135174851539,-2.36920402707,-0.0221964757715,2.14876445492,-0.149108948202,-0.991284140142,-1.13212839645,-0.0344088520302,-1.14422737464,-0.192875676338,0.0300013024969,-0.882572881738,0.573878680437,0.818919749864,0.00380135819374,0.0,0.818892560618,-0.573803730894,-0.0120415729108,0.0,-0.00767999622575,0.0100234989009,-0.999920270385,0.0,0.465910208221,0.00391268613232,0.304688420197,1.0,-0.36998,-0.486259428571,1.743
0.127713420454,-0.233819643352,-0.135690816741,-2.38865185567,-0.0255144546208,2.14905738927,-0.16430470714,-1.00409755652,-1.12438125607,-0.0250992312118,-1.13096687793,-0.186552634768,0.00423833339212,-0.910642239995,0.573918185978,0.818892031083,0.00380842926175,0.0,0.818865121938,-0.573843449654,-0.0120147518898,0.0,-0.00765348974604,0.0100142673071,-0.999920566118,0.0,0.459613691121,-0.00437131278289,0.304694105061,1.0,-0.36998,-0.486259428571,1.76
0.111055148106,-0.251570772555,-0.13619291481,-2.40620715758,-0.0284233029918,2.14910384663,-0.179164188097,-1.0507714411,-1.09179826203,-0.0312176137988,-1.09976571266,-0.184113208985,-0.00793347865356,-0.942520142107,0.57400549655,0.818829481168,0.00408871638767,0.0,0.81880653631,-0.573930168608,-0.0118644241044,0.0,-0.00736844441337,0.0101583079316,-0.999921254303,0.0,0.453756608746,-0.0121742024483,0.304789038115,1.0,-0.36998,-0.486259428571,1.776
0.0929835377862,-0.270013208116,-0.136624896735,-2.42430206057,-0.0315722914492,2.14893323045,-0.195414250792,-1.07527892763,-1.08640387087,-0.0325448676121,-1.02919044068,-0.190723404233,-0.00934752897991,-0.978450485326,0.573892829902,0.818907657195,0.00424448771811,0.0,0.818887592526,-0.573818207654,-0.0116842746093,0.0,-0.00713291494225,0.0101814757748,-0.999922726552,0.0,0.44752487106,-0.0203749505669,0.304827626212,1.0,-0.36998,-0.486259428571,1.793
0.0743990879043,-0.288061182919,-0.1371493967,-2.44187286928,-0.0346420920432,2.14825528257,-0.212180925545,-1.09849577335,-1.05857854427,-0.0164466961701,-1.01742660888,-0.182349952,-0.0490998776949,-1.00075869466,0.573860862221,0.81893012086,0.00423259504572,0.0,0.818908843107,-0.573784780876,-0.0118354897306,0.0,-0.00726398026881,0.0102582313566,-0.999920998519,0.0,0.44120059942,-0.0286025460889,0.304775580758,1.0,-0.36998,-0.486259428571,1.81
0.0540468557034,-0.306789004503,-0.137759489775,-2.4595879718,-0.0379379192129,2.14736522765,-0.230578857922,-1.14209972762,-1.01590302949,-0.0321263352408,-0.993059406391,-0.182379453966,-0.0601666701406,-1.03052635972,0.573859938284,0.818930162174,0.00434828879876,0.0,0.818911282434,-0.573784763398,-0.0116663488821,0.0,-0.00705907903152,0.0102559104641,-0.999922489848,0.0,0.434586576988,-0.0374015579882,0.304827204434,1.0,-0.36998,-0.486259428571,1.828
0.0367177001107,-0.322014608038,-0.138261036044,-2.47384789236,-0.040473184994,2.14626119463,-0.246263325952,-1.17885443092,-0.994172128074,-0.0487507671335,-0.905066670558,-0.157233242416,-0.0660931744933,-1.04909562522,0.57398185149,0.818844046744,0.00447304964979,0.0,0.81882589169,-0.573904950808,-0.0117479120467,0.0,-0.00705273828896,0.0104059375223,-0.999920984552,0.0,0.428665343192,-0.0451745800299,0.304835255502,1.0,-0.36998,-0.486259428571,1.844
0.015411173881,-0.339922115089,-0.138792264209,-2.4902547282,-0.0435509816464,2.1448495197,-0.265775656286,-1.20088320066,-0.994380081376,-0.0248366281395,-0.887112144578,-0.169005075845,-0.087464097219,-1.07998495431,0.573828822391,0.818950678353,0.00458431238913,0.0,0.818934329651,-0.5737521345,-0.0116532732342,0.0,-0.00691333010472,0.0104414358803,-0.999921588068,0.0,0.422393432635,-0.0533658149931,0.304867627923,1.0,-0.36998,-0.486259428571,1.861
-0.00414000184121,-0.35540119301,-0.139372387716,-2.50409757079,-0.0462790351864,2.14330331769,-0.283580543642,-1.23090024319,-0.972469944916,-0.0316804569121,-0.818005226469,-0.158858887379,-0.0870320155044,-1.13400398257,0.573931704613,0.818877870642,0.0047093858253,0.0,0.818863839075,-0.573855695903,-0.0115065301336,0.0,-0.00672006439627,0.0104605096076,-0.999922706249,0.0,0.416503586397,-0.0611996838384,0.304950839518,1.0,-0.36998,-0.486259428571,1.877
-0.0265195645046,-0.372145533251,-0.13995555453,-2.51910752431,-0.0492626810272,2.14140217565,-0.304286072063,-1.24907269314,-0.901672161841,-0.0263909973689,-0.832638395037,-0.175309325752,-0.107268938839,-1.16080983773,0.573788707993,0.818978124898,0.00470068283782,0.0,0.81896370077,-0.573712312951,-0.0115492722968,0.0,-0.00676189193359,0.010476732352,-0.999922254426,0.0,0.409839059409,-0.0699042405451,0.304919969523,1.0,-0.36998,-0.486259428571,1.895
-0.0482106364728,-0.387434631815,-0.140565601136,-2.53238202948,-0.051961301542,2.13941740399,-0.324310242053,-1.27666735045,-0.887730882948,-0.0351300782619,-0.770380182286,-0.162586508032,-0.105330220135,-1.19856499567,0.573832677195,0.818946601932,0.00482376082565,0.0,0.818934198074,-0.573756596745,-0.0114408836147,0.0,-0.00660193527223,0.0105156980373,-0.999922914302,0.0,0.40360176842,-0.0781662216619,0.304985758932,1.0,-0.36998,-0.486259428571,1.912
-0.0691242742435,-0.401298846848,-0.141081351338,-2.54447507059,-0.054309444826,2.13742241814,-0.343789630442,-1.32456770599,-0.877317182289,-0.0416764081122,-0.762567168474,-0.151267434225,-0.124640241022,-1.23836205758,0.573802211016,0.818967460592,0.00490591745359,0.0,0.818954945159,-0.573724023886,-0.0115883181068,0.0,-0.00667594128266,0.01066733329,-0.999920816769,0.0,0.397653641423,-0.0858984833549,0.304940394908,1.0,-0.36998,-0.486259428571,1.928
-0.0917212502261,-0.415504930993,-0.141598254445,-2.55640992857,-0.0568569924882,2.13518689839,-0.364973134979,-1.34060784434,-0.830896547666,-0.0372741073097,-0.679662032824,-0.151607008402,-0.124586745736,-1.28295581025,0.573652250943,0.819071970137,0.00499495994082,0.0,0.819061418273,-0.573575143781,-0.0114321666454,0.0,-0.00649890751509,0.010649472138,-0.999922173444,0.0,0.391421390095,-0.0940989546972,0.305021189084,1.0,-0.36998,-0.486259428571,1.945
-0.116318230298,-0.429753111074,-0.142228189832,-2.56846964648,-0.0594383333367,2.13267035317,-0.388050275052,-1.38054662913,-0.783224262041,-0.0286514126138,-0.663941363836,-0.132603236869,-0.154129598657,-1.29493225958,0.573634072013,0.819084788066,0.00498079165214,0.0,0.819072895119,-0.573555126708,-0.0116127520584,0.0,-0.00665519810469,0.0107413084925,-0.999920163128,0.0,0.384720921937,-0.102839204199,0.304971782921,1.0,-0.36998,-0.486259428571,1.963
-0.13715614022,-0.441032960902,-0.142789479715,-2.57783483889,-0.0614793998942,2.13054018217,-0.407657844096,-1.39940443513,-0.748284256763,-0.037474331392,-0.597293731091,-0.127661764913,-0.134532839344,-1.3208700285,0.573683262062,0.819050038535,0.00502952351896,0.0,0.819037951716,-0.573602820438,-0.0117211320031,0.0,-0.00671537403462,0.0108437966603,-0.999918654604,0.0,0.379165860057,-0.110111768082,0.304956652083,1.0,-0.36998,-0.486259428571,1.978
-0.162727019893,-0.453848099504,-0.143430379152,-2.5882249518,-0.0638921558531,2.12814197577,-0.431851756843,-1.42407813837,-0.700366539727,-0.0364671979887,-0.581210527298,-0.123519065617,-0.147900345889,-1.35330020201,0.573666473747,0.819061159389,0.00513234642462,0.0,0.819051121357,-0.573586881071,-0.0115800418387,0.0,-0.00654104185121,0.010846944699,-0.999919776063,0.0,0.372188890104,-0.119358934661,0.305000814166,1.0,-0.36998,-0.486259428571,1.997
-0.185770173549,-0.46443860379,-0.143846457644,-2.59690041218,-0.0658024651203,2.12581792948,-0.453808881938,-1.44495259538,-0.642246914698,-0.0195398907564,-0.533919288445,-0.112950006473,-0.135210570634,-1.37470089109,0.57357180022,0.819127587455,0.0051119824055,0.0,0.819115795126,-0.57348984373,-0.0118093274777,0.0,-0.00674180573607,0.010961013787,-0.999917198688,0.0,0.366635285625,-0.126566965157,0.304941679979,1.0,-0.36228,-0.476139428572,2.012
-0.208848276579,-0.474106361588,-0.144137318327,-2.6046170641,-0.0675101097974,2.1237492647,-0.475660848758,-1.42994204516,-0.588306521419,0.00183601910984,-0.45879434295,-0.0984464164496,-0.135013119249,-1.35525228045,0.573631042443,0.819085547015,0.00520006915543,0.0,0.819074958708,-0.573548872156,-0.0117749805148,0.0,-0.00666235082768,0.0110139528289,-0.99991714953,0.0,0.36056265607,-0.134588408532,0.304960273547,1.0,-0.35038,-0.460499428572,2.029
-0.234584685686,-0.48392899627,-0.144311465974,-2.61230913396,-0.0691170401872,2.12154256919,-0.500052258154,-1.40206901923,-0.517432381571,0.00715137812536,-0.408679792571,-0.0903651972255,-0.122791238936,-1.34472617637,0.573713415841,0.819026862231,0.00535372104589,0.0,0.819018340195,-0.573630832046,-0.0117206591534,0.0,-0.00652860092738,0.0111093090123,-0.999916976865,0.0,0.354670740848,-0.14237390808,0.304993594544,1.0,-0.33848,-0.444859428572,2.046
-0.257163797294,-0.491668569068,-0.144330069134,-2.61848989736,-0.0703585051839,2.11963203774,-0.521436086757,-1.40191384094,-0.470632898991,0.00251806879582,-0.365149858675,-0.090037568325,-0.104954495948,-1.33596230418,0.573813888208,0.818956179528,0.00539857519838,0.0,0.818946844379,-0.573728760618,-0.0119215025362,0.0,-0.00666599865475,0.0112620866765,-0.999914361266,0.0,0.349229225122,-0.149445118071,0.304940022408,1.0,-0.32728,-0.430139428572,2.062
-0.283392637719,-0.499766606396,-0.144158639493,-2.6247306028,-0.0715306392217,2.11772512307,-0.546394256953,-1.36182619248,-0.398758824697,0.0146278041994,-0.310067957801,-0.0621409672333,-0.0944029040173,-1.31108952974,0.573861087266,0.818921973075,0.0055678935569,0.0,0.818915326513,-0.573776172356,-0.0118041916048,0.0,-0.00647211183459,0.0113338178099,-0.999914824544,0.0,0.343102454134,-0.157527171917,0.304980361741,1.0,-0.31398,-0.412659428572,2.081
-0.303545651624,-0.505256979669,-0.143934185594,-2.62892571622,-0.0722285856785,2.11628542676,-0.565607243786,-1.34806946509,-0.350017711979,0.00542005972032,-0.26840798143,-0.0331703395792,-0.0897622376502,-1.28019848256,0.573921749376,0.818878496055,0.00570799382678,0.0,0.818873353418,-0.573835756764,-0.0118195694572,0.0,-0.00640346359047,0.0114578526252,-0.999913852923,0.0,0.338461633928,-0.163638431256,0.305003229624,1.0,-0.30348,-0.398859428572,2.096
-0.327209646282,-0.511011823445,-0.143597176842,-2.63321870935,-0.0730079890178,2.11488495374,-0.588201794902,-1.30251656567,-0.298592973619,0.0223713110905,-0.230305707226,-0.0311810127639,-0.0841005182501,-1.27229128774,0.573965823756,0.818846733054,0.00583162308329,0.0,0.818844467236,-0.573881714348,-0.0115872047982,0.0,-0.00614160118665,0.0114260718311,-0.999915859269,0.0,0.33311569873,-0.170765991983,0.305076845689,1.0,-0.29088,-0.382299428572,2.114
-0.348841107252,-0.515531533154,-0.143196471753,-2.63677266558,-0.0736296434429,2.11356018902,-0.608947030286,-1.25610570209,-0.248495126696,0.031174855221,-0.198342849541,-0.0322648603167,-0.0705398512244,-1.22582248705,0.573927551734,0.818873670285,0.00581587279984,0.0,0.818870091206,-0.573841459201,-0.0117686164242,0.0,-0.00629974248105,0.0115169992396,-0.999913832274,0.0,0.328199920844,-0.177163616793,0.305029239829,1.0,-0.27898,-0.366659428572,2.131
-0.367380791307,-0.518863936282,-0.142766938933,-2.63945146411,-0.0740653775638,2.11260777059,-0.626734343476,-1.22086240952,-0.210506659798,0.0401904085254,-0.162816717785,-0.0279351333168,-0.0564589985346,-1.17604591074,0.573891996555,0.818898782696,0.00578851357743,0.0,0.818893973733,-0.573804427577,-0.0119115732764,0.0,-0.00643302199181,0.0115763583359,-0.999912298232,0.0,0.324036211371,-0.182589657923,0.304969398492,1.0,-0.26848,-0.352859428572,2.146
-0.387716861791,-0.521964376836,-0.142291869805,-2.6418925262,-0.0743679176982,2.11169628425,-0.646219773841,-1.18017969198,-0.170104899541,0.0332519619929,-0.13290768307,-0.0236334791483,-0.0541965055535,-1.12514231156,0.573975920417,0.818839502122,0.00585315697999,0.0,0.818834821541,-0.573886793688,-0.012009578047,0.0,-0.00647499208019,0.0116862023601,-0.999910749593,0.0,0.319530722722,-0.188518025917,0.30493401291,1.0,-0.25658,-0.337219428572,2.163
-0.407234332088,-0.524505774831,-0.141669126568,-2.64384847835,-0.0745489988782,2.1109095853,-0.665053334227,-1.14539975303,-0.141376050428,0.0270494147074,-0.110151088288,-0.00836374659721,-0.0487385192204,-1.09718711718,0.573900001899,0.818892493744,0.00588374119147,0.0,0.818887888121,-0.573810180762,-0.0120519725798,0.0,-0.00649324429881,0.0117349774196,-0.999910059997,0.0,0.315253297027,-0.194133408879,0.304926237254,1.0,-0.24468,-0.321579428572,2.18
-0.426007886492,-0.526469061611,-0.141026312983,-2.64538275005,-0.0746610450752,2.11029606546,-0.683180719847,-1.08303999211,-0.104607224545,0.0424047817737,-0.0837179346173,-0.00265004215784,-0.0355605236713,-1.03742040289,0.573834772712,0.818938140758,0.0058925495004,0.0,0.818933437411,-0.573744544194,-0.0120818044605,0.0,-0.0065135577608,0.0117587917272,-0.999909648109,0.0,0.311167769831,-0.199508631116,0.304912193633,1.0,-0.23278,-0.305939428572,2.197
-0.442986099694,-0.527940807987,-0.140482045912,-2.64653770593,-0.0747196608304,2.10984030843,-0.699530324578,-1.03905815714,-0.0856834515272,0.0383609974023,-0.0650261547798,0.00108063245695,-0.0300216623015,-1.01446526661,0.573870998399,0.818912531911,0.00592361179826,0.0,0.818908161747,-0.573780501452,-0.0120874182082,0.0,-0.00649981044266,0.0117877397544,-0.999909396723,0.0,0.307464704959,-0.204357896928,0.304900754456,1.0,-0.22158,-0.291219428572,2.213
-0.460188676044,-0.529024479172,-0.139855220077,-2.64739530684,-0.074697149065,2.10945233456,-0.716083993408,-1.01024433273,-0.0502287332933,0.027422064633,-0.0445025031828,-0.000406123314555,-0.0183118762033,-0.954894041841,0.573918397343,0.818879192673,0.00594036185417,0.0,0.818874863641,-0.57382749761,-0.0121122906511,0.0,-0.00650988514757,0.0118161069386,-0.999908996365,0.0,0.303741835755,-0.209244226111,0.304890222793,1.0,-0.20968,-0.275579428572,2.23
-0.476546689144,-0.529780854688,-0.139142064828,-2.64794998848,-0.0746227151543,2.10916464118,-0.731859537018,-0.937955677689,-0.030581545477,0.0453389101845,-0.0299583032024,0.00942842474544,-0.0147235517585,-0.91675703862,0.573890746121,0.818898750744,0.00591561049332,0.0,0.818894445138,-0.573800585151,-0.0120632957046,0.0,-0.00648436186382,0.011767500906,-0.999909735413,0.0,0.300231341844,-0.213856230662,0.304908498002,1.0,-0.19778,-0.259939428572,2.247
-0.492121929288,-0.53016607263,-0.138500985546,-2.64821021145,-0.0744809332946,2.10896615657,-0.746808797056,-0.901181224248,-0.015711657282,0.0364131937794,-0.010604978621,0.0123952473135,-0.00778176293106,-0.871072550363,0.573995934493,0.818824900327,0.00593267995374,0.0,0.818821115951,-0.57390622523,-0.0120154740654,0.0,-0.00643389126855,0.0117548632024,-0.999910210086,0.0,0.296897338505,-0.218258252368,0.304930811442,1.0,-0.18588,-0.244299428572,2.264
-0.506576403705,-0.530296856264,-0.137675103858,-2.64829925339,-0.0742291838809,2.10886300924,-0.760898236106,-0.834411127977,-0.00797511069188,0.0462559395758,-0.00249684642484,0.00998013186496,-0.00487459311507,-0.8061188575,0.573814349149,0.818952303892,0.0059129994728,0.0,0.818948657374,-0.573725477166,-0.0119549293646,0.0,-0.00639820168722,0.0117025783027,-0.999911052382,0.0,0.293845341879,-0.2222688398,0.304951125659,1.0,-0.17398,-0.228659428572,2.281
-0.520425567984,-0.530205469451,-0.136952455928,-2.64828441346,-0.0739608898253,2.10881926394,-0.774120041071,-0.786693120652,0.00528153482963,0.0532788656229,0.00187159411219,0.0161377544551,-0.00235052203909,-0.758262351426,0.573933991921,0.818868366306,0.00592608497176,0.0,0.818864816251,-0.57384490793,-0.0119658368009,0.0,-0.0063979147273,0.011720488619,-0.999910844442,0.0,0.290889449047,-0.226111376091,0.304939897097,1.0,-0.16208,-0.213019428572,2.298
-0.5345886692,-0.529889537664,-0.136037228915,-2.6481215474,-0.0735376192587,2.10883188796,-0.787854122337,-0.737530150168,0.0225321439549,0.0373867319418,0.00804231585193,0.0167593607208,0.00236578600384,-0.706657172099,0.573830081786,0.818940951213,0.0059584029885,0.0,0.818937625792,-0.57374052823,-0.0119882538281,0.0,-0.00639921792008,0.0117590074689,-0.999910383861,0.0,0.28790180095,-0.229980401047,0.304923857597,1.0,-0.14878,-0.195539428572,2.317
-0.544531620155,-0.52956650348,-0.135457332396,-2.64794655071,-0.0732448112445,2.10882433548,-0.797288329141,-0.694108089583,0.0267278211808,0.0515404964201,0.0129481133343,0.0228769137381,0.000920076062531,-0.65263941131,0.573972947649,0.818840536597,0.00599815746184,0.0,0.818837201302,-0.573882229112,-0.0120653128917,0.0,-0.00643745524867,0.0118369055709,-0.999909219298,0.0,0.285771150173,-0.232698896135,0.30490008097,1.0,-0.13898,-0.182659428572,2.331
-0.556108788379,-0.529014458453,-0.134557352732,-2.64762996704,-0.0727766681317,2.10889575526,-0.80853131505,-0.629158751113,0.0354961397798,0.0499616710988,0.0179014309329,0.0210057671029,0.00397406576011,-0.604320123237,0.573842299094,0.818931882989,0.00602774377535,0.0,0.818928473641,-0.573750635328,-0.0121289084711,0.0,-0.00647445268543,0.0118966007785,-0.999908271969,0.0,0.28321709692,-0.235977256029,0.30487159039,1.0,-0.12568,-0.165179428572,2.35
-0.566393132968,-0.528444689476,-0.133851461961,-2.64724376761,-0.0723893802519,2.1090054488,-0.818202208877,-0.593362384982,0.0327511967581,0.0382221095118,0.0278003080548,0.016846709988,0.0092167073277,-0.537381926923,0.5740214704,0.818806053875,0.00606172893545,0.0,0.818803131454,-0.573929700947,-0.0121192900796,0.0,-0.00644446588661,0.0119203248493,-0.999908183142,0.0,0.281181449972,-0.238602076573,0.304867150348,1.0,-0.11448,-0.150459428572,2.366
-0.574538673665,-0.527862756999,-0.133141586837,-2.64682118426,-0.0719822802902,2.10912566999,-0.826055061147,-0.514267999795,0.0421538711761,0.0487729846942,0.0265222956388,0.0350054766424,0.00646613858936,-0.501240857114,0.57395757158,0.818850662804,0.00608645647649,0.0,0.818848240201,-0.573866037198,-0.0120862637948,0.0,-0.0064041577603,0.0119211163104,-0.999908432682,0.0,0.279514085998,-0.240786450693,0.304875166426,1.0,-0.10398,-0.136659428572,2.381
-0.582944552022,-0.527179898963,-0.132332365004,-2.64632757073,-0.0715563591741,2.10924068412,-0.83405458435,-0.485048668401,0.0332770492409,0.0459484200778,0.0303678285198,0.0194830060735,0.00540409995339,-0.46385066009,0.573928377248,0.818871241592,0.00607078119002,0.0,0.818868629715,-0.573836944834,-0.012086145519,0.0,-0.00641348193579,0.0119079834249,-0.999908529407,0.0,0.277802308361,-0.243021798214,0.304880408309,1.0,-0.0920800000001,-0.121019428572,2.398
-0.590581153393,-0.526516217847,-0.131545206662,-2.64583550967,-0.0711018538482,2.10936747034,-0.841104058873,-0.431573368621,0.0404939558355,0.0374282664863,0.0236828764982,0.0271667882137,0.00554374818782,-0.402328047198,0.574074382415,0.818768820922,0.00608015153427,0.0,0.818766488137,-0.573983170934,-0.0120625158524,0.0,-0.00638663018682,0.0119032348315,-0.999908757815,0.0,0.2762613402,-0.245035899579,0.304892147667,1.0,-0.0801800000001,-0.105379428572,2.415
-0.597163928216,-0.525801374727,-0.130734811951,-2.64534992813,-0.0706292220182,2.1094986878,-0.847348411091,-0.363606364943,0.0409634311175,0.048748417039,0.0262598053539,0.0299263946246,0.00530444063984,-0.345140981897,0.574007612461,0.818815603694,0.00608398594486,0.0,0.818813091786,-0.573915972004,-0.0120964746818,0.0,-0.00641320898613,0.0119253454931,-0.99990832424,0.0,0.274970428836,-0.246741564963,0.304882903815,1.0,-0.0682800000001,-0.0897394285716,2.432
-0.602435818403,-0.525213641582,-0.129894818509,-2.64499901885,-0.0701649213965,2.10959279219,-0.852341311869,-0.31699788533,0.039876655698,0.0428173672484,0.0224009630236,0.0336073008273,0.00657536959278,-0.294804246386,0.573860158883,0.818919057635,0.00606976023192,0.0,0.818915803963,-0.573767583131,-0.0121825066896,0.0,-0.0064939802687,0.0119619081085,-0.999907366197,0.0,0.273964634841,-0.248039453958,0.304856272921,1.0,-0.0570800000001,-0.0750194285716,2.448
-0.607377076135,-0.524734363688,-0.129066562643,-2.64465283379,-0.0696963843997,2.1096999623,-0.856804176461,-0.275481367709,0.0281557441071,0.0470400061573,0.0166700982313,0.0240253821238,0.00825085687715,-0.241743322771,0.573885037197,0.818901693993,0.00606024404861,0.0,0.818898505639,-0.573792847811,-0.0121553348099,0.0,-0.00647682427476,0.0119387194221,-0.999907754608,0.0,0.273036713239,-0.249247439127,0.304867811815,1.0,-0.0451800000001,-0.0593794285716,2.465
-0.611337782296,-0.524276519582,-0.128237112649,-2.64435124682,-0.069186346254,2.10981725634,-0.860291741398,-0.20400525414,0.0214065168661,0.0498202363445,0.0138623425175,0.0296311378069,0.00125408502999,-0.190901111059,0.573919926179,0.818877109456,0.00607822718165,0.0,0.818874208564,-0.573827747325,-0.0121447046131,0.0,-0.0064572895202,0.0119476214766,-0.999907774624,0.0,0.272344392135,-0.250170987093,0.304867644934,1.0,-0.0332800000001,-0.0437394285716,2.482
-0.614411801649,-0.523939515035,-0.127444418817,-2.64413620156,-0.0687025472143,2.10986946082,-0.862975983711,-0.162980492338,0.0190495801581,0.0486109026011,0.00846003267441,0.0313715336139,0.00486786747329,-0.137174445761,0.573896460139,0.81889341147,0.00609758908882,0.0,0.818890572135,-0.573803846301,-0.0121706097163,0.0,-0.00646773656194,0.0119781586682,-0.999907341757,0.0,0.271833270471,-0.250834230861,0.304865794256,1.0,-0.0213800000001,-0.0280994285716,2.499
-0.616881772414,-0.523745916896,-0.12676888576,-2.6439712038,-0.0682851572186,2.10989524217,-0.864914932714,-0.127396951216,0.00559653075538,0.0372640781465,0.011702195837,0.0198354367448,0.00270481542719,-0.0884920126002,0.574040021889,0.818792631789,0.00611770371276,0.0,0.81879026146,-0.573947671472,-0.0121377531747,0.0,-0.00642718480843,0.0119769029131,-0.999907618279,0.0,0.271429324494,-0.25135187653,0.304888525115,1.0,-0.01966,-0.0258388571429,2.517
-0.61859753649,-0.523598809989,-0.12628951404,-2.64379193457,-0.0680471666557,2.10994686607,-0.866514007224,-0.100742332862,0.00470020871702,0.0335585466451,0.0114672241011,0.0144194340313,0.006318541966,-0.090689605763,0.573906998438,0.818886190293,0.00607547468542,0.0,0.8188839788,-0.573816181865,-0.0120318575055,0.0,-0.00636663884538,0.0118805048467,-0.999909155631,0.0,0.271166302233,-0.251734707383,0.304932089402,1.0,-0.01934,-0.0254182857143,2.533
-0.620314671388,-0.523391487411,-0.125962197636,-2.64357854353,-0.0678647703119,2.11002808981,-0.86821173752,-0.0922610826153,0.0130105749277,0.012198860321,0.0115348815403,0.0109180056229,0.00594543623166,-0.0954453278655,0.573780004999,0.818975313488,0.00605711655637,0.0,0.818973543517,-0.573690563927,-0.0119255516399,0.0,-0.0062919429192,0.0118034885429,-0.999910540555,0.0,0.27087714587,-0.252168899121,0.30496787852,1.0,-0.01898,-0.0249451428571,2.551
-0.621748794214,-0.523199558847,-0.125798543548,-2.64341150407,-0.0677633954102,2.11004906229,-0.869596146383,-0.0885413518108,0.0131034908578,0.0091204204358,0.0126784648889,0.00930799032702,0.00195244538414,-0.0826492134182,0.57375685904,0.818991520867,0.00605824680391,0.0,0.818989818419,-0.573667517343,-0.0119165335939,0.0,-0.00628424155924,0.0117990625039,-0.999910641224,0.0,0.270596950058,-0.252551573155,0.304979119476,1.0,-0.01866,-0.0245245714286,2.567
-0.623317599938,-0.522999983543,-0.125693564067,-2.64325348341,-0.0677362755663,2.11005653193,-0.871107652732,-0.0864902318465,0.0124071243508,0.00229205042768,0.00815104524081,0.000129515585683,0.000467484687653,-0.0798815635777,0.573749421003,0.818996943444,0.00602954637473,0.0,0.818994743268,-0.57365996382,-0.0119416628265,0.0,-0.0063213977059,0.0117899159102,-0.999910514903,0.0,0.270258844854,-0.252986899235,0.304980837011,1.0,-0.0183,-0.0240514285714,2.585
-0.624574955112,-0.522811736508,-0.125620095669,-2.64310769691,-0.0676975162788,2.11009303882,-0.872305673642,-0.0832973842261,0.0108446184549,-6.99074034567e-05,0.0124973092903,0.000404364215853,0.00486538910124,-0.0854841653173,0.573770249747,0.81898240958,0.00602164479396,0.0,0.818980131522,-0.573680866659,-0.0119396106777,0.0,-0.00632395047376,0.011782427694,-0.999910587027,0.0,0.269995393655,-0.253344575041,0.304982876389,1.0,-0.018,-0.0236571428571,2.6
-0.626103103275,-0.522563716744,-0.1255949109,-2.64293468295,-0.0676602863177,2.11016461098,-0.87387674135,-0.0834421146916,0.0141760763369,0.000303591739011,0.00939558858991,0.00181291548366,0.00152668303541,-0.0809902686357,0.573742396369,0.819001820968,0.00603545871263,0.0,0.81899974464,-0.573653004348,-0.0119329704623,0.0,-0.00631098702112,0.0117897172019,-0.999910583008,0.0,0.269663124152,-0.25379654389,0.304977173143,1.0,-0.01762,-0.0231577142857,2.619
-0.627358029175,-0.522369384562,-0.125596690236,-2.64280699188,-0.0676355787591,2.11016730474,-0.875129817349,-0.077982607573,0.0104243812573,0.000349374127687,0.00512982533139,0.000459412759514,-0.000344681650601,-0.0813490582485,0.57376261631,0.818987480039,0.0060592545573,0.0,0.818985334239,-0.573672414699,-0.0119887370472,0.0,-0.00634272046701,0.0118413577361,-0.999909772001,0.0,0.269372212641,-0.254161852795,0.304964041995,1.0,-0.0173,-0.0227371428571,2.635
-0.628758783581,-0.522155169828,-0.125594213058,-2.64266037542,-0.0676057930289,2.11018066028,-0.87655546973,-0.0766325312936,0.0130982384868,0.00192321796044,0.00503927742859,0.00305982840027,0.00230650300941,-0.0742313505654,0.573761055139,0.818988386937,0.00608445302594,0.0,0.818986254892,-0.57367016114,-0.0120335953345,0.0,-0.00636502823073,0.0118877206285,-0.999909080124,0.0,0.269050744792,-0.25457049466,0.304953212765,1.0,-0.01694,-0.022264,2.653
-0.629829803867,-0.521994037839,-0.125596422294,-2.64253485818,-0.0675758307323,2.11022055001,-0.877571908632,-0.0753807931741,0.0105491521445,-0.000184821615699,0.00886140977106,0.000262456235179,0.00514418209146,-0.0649724721073,0.573826715046,0.81894221877,0.00610657986622,0.0,0.818940429316,-0.573735815307,-0.0120222446583,0.0,-0.00634208224155,0.0118998394059,-0.999909081774,0.0,0.268812273984,-0.25489033282,0.304954436359,1.0,-0.01666,-0.021896,2.667
-0.631255944421,-0.521793302725,-0.125564487864,-2.64237484855,-0.0675500828112,2.11028134425,-0.878966676538,-0.0691430413444,0.0111634009574,0.0046882527061,0.00760677236181,0.00162875697869,0.00343392757995,-0.0738502692296,0.573849182453,0.818926472046,0.00610705181439,0.0,0.818924870431,-0.573758617337,-0.0119938535468,0.0,-0.00631823221187,0.011884108474,-0.999909419851,0.0,0.268500222376,-0.255309102324,0.304959368788,1.0,-0.01628,-0.0213965714286,2.686
-0.632394132336,-0.521612243793,-0.125503866877,-2.64223762912,-0.0675165064926,2.11030595055,-0.880192319335,-0.0736155071504,0.0129945823772,0.00259516768717,0.00918041336677,0.00192250877144,0.000725258160378,-0.0759959907636,0.573743707186,0.819000412951,0.00610155317142,0.0,0.818998620746,-0.573652963787,-0.0120117965381,0.0,-0.00633761428322,0.0118890852093,-0.99990923803,0.0,0.268243848992,-0.255648673272,0.304956660676,1.0,-0.01594,-0.0209497142857,2.703
-0.633427026248,-0.521452387598,-0.125444615188,-2.64213190537,-0.0674939212434,2.11031506601,-0.88122447806,-0.0669395170479,0.00689077571616,0.00172748716484,0.00723877046146,0.000198554617361,0.000187703867757,-0.0638607025799,0.573730173491,0.819009945036,0.00609465818539,0.0,0.819007865882,-0.573639093022,-0.0120438150589,0.0,-0.00636799271923,0.0119017022416,-0.999908894926,0.0,0.26803026143,-0.25591954252,0.304950257096,1.0,-0.01566,-0.0205817142857,2.717
-0.634587834082,-0.521283028793,-0.125402882485,-2.64201505064,-0.0674674240802,2.11033895,-0.882427031064,-0.0659165625601,0.013592286207,0.00183398740203,0.00800677253227,0.000386546504376,0.000261341374092,-0.0673329886116,0.573683971575,0.819042290203,0.00609709098341,0.0,0.81904010117,-0.573592626,-0.0120647824293,0.0,-0.00638444352389,0.0119153637238,-0.99990862732,0.0,0.267771525525,-0.256248598853,0.30494415944,1.0,-0.01532,-0.0201348571429,2.734
-0.635843223547,-0.521063276394,-0.125365196773,-2.64185337381,-0.0674378272405,2.11039112355,-0.883707449863,-0.059911003188,0.0136730916508,0.00145907990266,0.00760258216399,0.00227138445841,0.00500799061544,-0.0596178384173,0.573657956503,0.819060506962,0.00609768620678,0.0,0.81905833429,-0.57356662991,-0.0120628763135,0.0,-0.00638291915184,0.0119145550752,-0.999908646688,0.0,0.267501365806,-0.256617690179,0.304942215753,1.0,-0.01494,-0.0196354285714,2.753
-0.636890405692,-0.520888894029,-0.125360323598,-2.64172763431,-0.0674097218199,2.1104302086,-0.884732642713,-0.0643629856694,0.00997136958752,0.00230338354228,0.00688945944369,-0.000285107014344,0.000445338116243,-0.0608317981119,0.573691174372,0.819037109934,0.00611521867386,0.0,0.81903513357,-0.573599705127,-0.0120654530525,0.0,-0.00637448889874,0.0119306525764,-0.999908508525,0.0,0.267267602361,-0.25692808647,0.304938712685,1.0,-0.01462,-0.0192148571429,2.769
-0.637998628573,-0.520709502409,-0.125347839949,-2.64157541646,-0.0673897529774,2.11045212605,-0.885881683604,-0.0699098392375,0.0170724370231,0.000263927667184,0.0113540956209,0.00242394218588,0.00190591297471,-0.0632491258342,0.573665352339,0.819055146693,0.00612185454193,0.0,0.819053256345,-0.573573859055,-0.012063928914,0.0,-0.00636980997075,0.0119350127145,-0.999908486309,0.0,0.267021994868,-0.257257990938,0.304944100229,1.0,-0.01428,-0.018768,2.786
-0.639152181341,-0.520532626241,-0.125330326605,-2.6414439042,-0.0673669638827,2.11048515676,-0.887043658761,-0.0618583719348,0.0140928104837,0.00171512270681,0.00503844034411,0.000452386752439,0.00239834796095,-0.05888105851,0.573662716378,0.819056930749,0.00613016566864,0.0,0.819055106654,-0.573571108881,-0.0120690605269,0.0,-0.00636928438049,0.0119447435149,-0.999908373462,0.0,0.266762667596,-0.257594684314,0.304942063674,1.0,-0.01392,-0.0182948571429,2.804
-0.640093152069,-0.520390958764,-0.125317977978,-2.64132745948,-0.0673451918893,2.11051322938,-0.887954123113,-0.0632330434656,0.00699220413226,-0.000478878732336,0.00586412117131,-8.89990103426e-05,0.00217473411035,-0.0593045816675,0.573694318483,0.819034731841,0.00613871969478,0.0,0.819033068719,-0.57360276021,-0.0120603783045,0.0,-0.00635680453762,0.0119470149587,-0.999908425742,0.0,0.266553050959,-0.257871772594,0.304945574964,1.0,-0.01362,-0.0179005714286,2.819
-0.641166669709,-0.520216221144,-0.125294971691,-2.64119305586,-0.0673238253757,2.11054202178,-0.889062889707,-0.0588579431027,0.00908617449322,0.000596889832035,0.00817999266354,0.00159360685686,-0.000263039861121,-0.0625964196851,0.573665329607,0.819055008385,0.00614245445457,0.0,0.819053355659,-0.573573689393,-0.0120652526299,0.0,-0.00635907776246,0.0119526451852,-0.999908344001,0.0,0.266314727614,-0.258185808566,0.304945388982,1.0,-0.01326,-0.0174274285714,2.837
-0.642100322041,-0.520069257611,-0.125254114332,-2.64108218856,-0.0673022430792,2.11057381921,-0.890034968761,-0.058737178022,0.00406126533847,0.00114683114946,0.00859891397254,0.00172566757363,-0.0006154450612,-0.0626517482913,0.573619938574,0.819086831908,0.00613797739306,0.0,0.8190851302,-0.573528344965,-0.012063743558,0.0,-0.00636107194658,0.0119477598823,-0.999908389703,0.0,0.266111721978,-0.258453354997,0.304945395983,1.0,-0.01294,-0.0170068571429,2.853
-0.643015295991,-0.519909532622,-0.125215187015,-2.64097611289,-0.0672866083507,2.11059782605,-0.890907671401,-0.0611144935579,0.0124710321363,0.00436467857372,0.00827245999258,-0.000344774818007,0.0070566255917,-0.0514791443986,0.573639317438,0.819073318956,0.00613013580074,0.0,0.819071367349,-0.573547476827,-0.0120885862034,0.0,-0.00638563744533,0.0119557372359,-0.999908137771,0.0,0.265909705052,-0.258714286983,0.304937809038,1.0,-0.01262,-0.0165862857143,2.869
-0.643974250546,-0.519742776499,-0.125167540314,-2.64086070148,-0.0672695114604,2.11063222285,-0.891857235016,-0.0527012837546,0.0125763156898,-8.48501974683e-05,0.00767219218068,0.000905148601515,0.000594849706505,-0.0553446528051,0.573626659775,0.819082274339,0.00611800297064,0.0,0.819080100286,-0.573534754724,-0.0121004685873,0.0,-0.00640251526613,0.0119525159871,-0.999908068354,0.0,0.26570171695,-0.258988397077,0.304932962323,1.0,-0.01228,-0.0161394285714,2.886
-0.644869451996,-0.51960034037,-0.125157114867,-2.64076074654,-0.0672638095958,2.11066294455,-0.89278278513,-0.0575778919893,0.00896454911511,0.00232379742708,0.00634470912737,-0.000459764732389,0.0111078625099,-0.0545703184111,0.573602148091,0.819099453452,0.0061162048189,0.0,0.819097209898,-0.573510170185,-0.0121075320631,0.0,-0.00640969063534,0.0119549028707,-0.999907993849,0.0,0.265497295474,-0.259250689916,0.304928833584,1.0,-0.01196,-0.0157188571429,2.902
-0.645812155778,-0.519447879153,-0.125151049346,-2.64065386501,-0.0672518273883,2.11069232546,-0.893667792179,-0.0515521724381,0.00762880931378,-0.000983925500282,0.0123589120627,0.00164402719398,0.00194620347494,-0.0492185725272,0.573655891865,0.819061779714,0.006120918321,0.0,0.819059526773,-0.573563749658,-0.0121187285514,0.0,-0.00641537402745,0.0119656068738,-0.999907829366,0.0,0.265281065165,-0.259527155872,0.304923942753,1.0,-0.01162,-0.015272,2.919
-0.646718747703,-0.519297919161,-0.125140641426,-2.64053993574,-0.0672437614883,2.11072040368,-0.894523595857,-0.0513459803459,0.00949021958857,0.00133092418514,0.00765088988812,8.19366873091e-05,0.00510388689305,-0.0556450022033,0.573699537847,0.81903122441,0.00611887384999,0.0,0.819028928542,-0.573607365056,-0.0121223704542,0.0,-0.00641889239321,0.01196636341,-0.999907797733,0.0,0.26507600004,-0.259794982541,0.304923156714,1.0,-0.01128,-0.0148251428571,2.936
-0.647600285397,-0.519161566881,-0.125123392953,-2.64044004238,-0.0672330207451,2.11076231551,-0.895403197924,-0.0519894650545,0.00246874866046,-0.000355659679796,0.00694934039253,0.0015697764414,0.000633283706813,-0.0503297978872,0.573698731946,0.819031810267,0.00611601464541,0.0,0.819029544888,-0.573606698295,-0.0121122736741,0.0,-0.00641227392239,0.0119582229722,-0.999907937586,0.0,0.26487817809,-0.260052818307,0.304922339729,1.0,-0.01094,-0.0143782857143,2.953
-0.648495473841,-0.519023141526,-0.125115228725,-2.6403285542,-0.0672277283719,2.11079344851,-0.89628652394,-0.0481709839416,0.00465318904357,0.00104585250791,0.000647276656526,0.000360708541843,0.00648361761663,-0.0481536424684,0.573710727248,0.819023432902,0.00611266702342,0.0,0.81902118295,-0.573618815923,-0.012103834117,0.0,-0.00640710630634,0.0119507333389,-0.999908060254,0.0,0.26467500525,-0.260318084786,0.304924884117,1.0,-0.01058,-0.0139051428571,2.971
-0.649210075732,-0.518913417793,-0.125111067917,-2.64024147121,-0.0672192280345,2.11081302564,-0.896967782816,-0.0470484581896,0.0033679443308,0.00299566657204,0.00179758347489,-0.000292249921245,0.00150830240887,-0.0460417107032,0.573743260307,0.819000623318,0.00611532167412,0.0,0.818998412998,-0.573651339821,-0.0121031702628,0.0,-0.00640456482527,0.0119527812408,-0.999908052058,0.0,0.264511242309,-0.260528591683,0.304925824231,1.0,-0.01028,-0.0135108571429,2.986
-0.650098843504,-0.518765518911,-0.125109841588,-2.64013924227,-0.0672049833322,2.11083132425,-0.897835318771,-0.0469933075326,0.00679272295093,0.00077926267649,0.00717822033092,0.000482587254891,0.000727461409041,-0.0461040090203,0.573771292114,0.818980905741,0.00612595125323,0.0,0.818978684261,-0.573679039357,-0.0121252393541,0.0,-0.00641613320886,0.0119743682923,-0.999907719611,0.0,0.264304195707,-0.260788150829,0.304919409759,1.0,-0.0099,-0.0130114285714,3.005
-0.650832135039,-0.51866155376,-0.125113779141,-2.64006217774,-0.067192280352,2.11085590544,-0.89857559786,-0.0438752342696,0.00339050395094,-0.000782002728888,0.00377311297677,0.00482343054526,0.00415337006529,-0.047125839614,0.573777834972,0.81897623467,0.00613759252224,0.0,0.818974168871,-0.573685536499,-0.0121228228577,0.0,-0.00640737912056,0.0119825674894,-0.999907677523,0.0,0.264132417008,-0.261002936351,0.30491814882,1.0,-0.00958,-0.0125908571429,3.021
-0.651634702178,-0.518527859783,-0.125100618286,-2.63996253325,-0.067179205645,2.11088794648,-0.899372527034,-0.0466459445776,0.00983917469353,0.0014189933058,0.00575659479061,-4.93421805924e-05,0.00153297224523,-0.0404648500101,0.573783928563,0.818971956626,0.00613876891846,0.0,0.818969921369,-0.573691652013,-0.0121203632529,0.0,-0.00640460043453,0.0119821674352,-0.999907700119,0.0,0.263951829435,-0.261238472188,0.304917234274,1.0,-0.00922,-0.0121177142857,3.039
-0.652302533844,-0.518401303267,-0.125095266219,-2.63986236231,-0.067165415111,2.11090718111,-0.900016696395,-0.0405753300468,0.00721735597243,-0.000756040966375,0.00631726275377,0.000158275640615,0.000540693459406,-0.0385331548051,0.573819424304,0.81894703423,0.00614575614248,0.0,0.818945107832,-0.573727142482,-0.0121170639672,0.0,-0.00639736965866,0.0119862743696,-0.999907697184,0.0,0.263793038512,-0.261452429953,0.304921095301,1.0,-0.00888,-0.0116708571429,3.056
-0.653024421192,-0.518252576302,-0.12507333778,-2.63974364568,-0.0671476064618,2.1109287554,-0.90071687806,-0.0382263099378,0.00637136157702,0.000893434146624,0.00750397855048,0.000985777669045,-0.000179887881174,-0.03551459727,0.573826633094,0.818942008987,0.00614230971647,0.0,0.818939971044,-0.573734240313,-0.0121281581749,0.0,-0.00640832820232,0.0119898739547,-0.999907583856,0.0,0.263647743394,-0.261653260185,0.304919424686,1.0,-0.00854,-0.011224,3.073
-0.653617892219,-0.518123005494,-0.125033309546,-2.6396612865,-0.0671352550359,2.11095916475,-0.901329414769,-0.0340924943145,0.0126976405104,0.00162502979011,0.00817008168745,-0.000250464107482,0.00354156079265,-0.0394199921782,0.573792296952,0.818966159438,0.00612997183581,0.0,0.818963880632,-0.57369981707,-0.0121420350252,0.0,-0.00642727581652,0.0119874624854,-0.999907491155,0.0,0.263523041264,-0.261822983292,0.304912653631,1.0,-0.00822,-0.0108034285714,3.089
-0.654155637603,-0.518012619729,-0.124982872568,-2.63960869443,-0.067119494334,2.11098343702,-0.901892510991,-0.0337513245735,0.00693441489534,0.0010467397561,0.00234941271142,0.000429766969932,0.000159452283493,-0.0378869437729,0.573745413066,0.818999086452,0.0061191729124,0.0,0.818996477037,-0.573652638486,-0.0121724221487,0.0,-0.0064590472898,0.0119956833854,-0.999907187837,0.0,0.263408072209,-0.26196715553,0.304899146834,1.0,-0.00792,-0.0104091428571,3.104
-0.654752585933,-0.517906254285,-0.124947002423,-2.63955111231,-0.0671039480032,2.11100679117,-0.902509970004,-0.0318499203569,0.00339859420244,0.00139713460743,0.00688150897518,8.85373180568e-05,0.000113978537933,-0.0351253881222,0.573712946792,0.81902185864,0.00611528037153,0.0,0.819019058111,-0.57361993648,-0.0121941717712,0.0,-0.00647957124219,0.0120047165185,-0.999906946639,0.0,0.263275379903,-0.262131282055,0.304888962676,1.0,-0.00758,-0.00996228571429,3.121
-0.655296742269,-0.517853516368,-0.124937636314,-2.63951268439,-0.0670902381383,2.11101981771,-0.903022975876,-0.0329485951876,-0.00136274617335,0.000845791662588,0.00500809943243,0.000338820090452,0.000643623782783,-0.0351872035878,0.573739681832,0.819003069418,0.00612345294596,0.0,0.819000385779,-0.573646647645,-0.012191744772,0.0,-0.00647250275109,0.0120102293256,-0.999906926218,0.0,0.263145645432,-0.262281926141,0.304888327909,1.0,-0.00726,-0.00954171428572,3.137
-0.65587497681,-0.517769142893,-0.124935471894,-2.6394620497,-0.0670770059276,2.11103330523,-0.903561624535,-0.0310607769166,0.00373995715163,-0.000276913655819,-0.000309228100985,0.00215895297869,-0.00024985187774,-0.0360869083288,0.573778948124,0.81897547726,0.00613459347113,0.0,0.818972825775,-0.573685644497,-0.0122081465544,0.0,-0.00647896918187,0.0120290744355,-0.999906657807,0.0,0.263007412582,-0.262445754757,0.30488144947,1.0,-0.00692,-0.00909485714286,3.154
-0.656505102714,-0.517726744173,-0.124943545911,-2.63937817288,-0.0670625867125,2.11105001034,-0.904120783484,-0.032911953145,0.00295173986062,-0.000137298762212,0.00535077734771,-0.000255879007705,0.000262351667302,-0.0287013402044,0.573853010525,0.818923507965,0.00614469814859,0.0,0.818921386155,-0.573760386364,-0.0121461614655,0.0,-0.00642131640201,0.0120023671314,-0.999907350648,0.0,0.262862333881,-0.262635010667,0.304905172368,1.0,-0.00654,-0.00859542857143,3.173
-0.656965666087,-0.517689592052,-0.124940057815,-2.63928378031,-0.0670488496781,2.11106251873,-0.904579761981,-0.0302450717788,0.00245212877928,-0.00119381279146,0.00815561566456,-0.00016473954548,0.00333376086278,-0.0273503522919,0.573862215726,0.818917048581,0.00614587727252,0.0,0.818915405283,-0.573770452677,-0.0120736707885,0.0,-0.00636113453447,0.01196180735,-0.999908221355,0.0,0.262766016189,-0.262779403944,0.304935520613,1.0,-0.00624,-0.00820114285715,3.188
-0.657433496526,-0.517625886199,-0.124929212934,-2.63917334232,-0.0670338200335,2.11109278435,-0.905061954308,-0.0242847365677,0.00195974933035,0.00277998386804,0.00882030768136,0.00369023294114,0.000153135255362,-0.0351179047062,0.57385454552,0.818922457348,0.00614136295585,0.0,0.8189212627,-0.573763760376,-0.011994151823,0.0,-0.006298710051,0.0119124206008,-0.999909206122,0.0,0.262675303574,-0.262930143564,0.304965061708,1.0,-0.0059,-0.00775428571429,3.205
-0.657902668627,-0.517560506736,-0.12491279125,-2.63908149121,-0.0670100099536,2.11111595521,-0.905546380864,-0.0242554722169,0.000335506326489,0.00130722107201,0.00691857072374,9.00374462391e-05,-0.000341004512708,-0.0194457194971,0.57384508691,0.818929056048,0.00614526567467,0.0,0.818928240894,-0.573754910717,-0.0119409210992,0.0,-0.00625301127543,0.0118849993378,-0.999909819254,0.0,0.26258079001,-0.26307327785,0.304985072586,1.0,-0.00554,-0.00728114285715,3.223
-0.658329568182,-0.517467585135,-0.124878811972,-2.63901741646,-0.0669886868335,2.11113271235,-0.905969102541,-0.0251187400848,0.00453130927013,0.00249100332505,0.00684157219441,0.000259151009548,0.000536116881025,-0.0254508871849,0.573836875357,0.818934819687,0.00614397963777,0.0,0.818933931603,-0.573746599433,-0.0119499878509,0.0,-0.00626129427113,0.0118890859911,-0.999909718839,0.0,0.262493029405,-0.263193163712,0.304982173242,1.0,-0.0052,-0.00683428571429,3.24
-0.658725774492,-0.51737852214,-0.124825205702,-2.63898604867,-0.066962136461,2.11115248712,-0.906335512254,-0.0250485141828,0.00175047107576,0.00143221285494,0.00252083655575,-8.48695696264e-05,-0.000134726781837,-0.0238443914565,0.573836412257,0.81893516441,0.00614128344384,0.0,0.818934026081,-0.573745739782,-0.0119847365475,0.0,-0.00629130810939,0.0119068134413,-0.999909319506,0.0,0.262411210633,-0.263292219865,0.30496655647,1.0,-0.00488,-0.00641371428572,3.256
-0.659115508464,-0.517284158858,-0.124786877627,-2.63897629197,-0.0669308506105,2.11116121118,-0.906731578519,-0.0171570119001,0.00553833282446,0.00181186430556,0.00217548042378,0.00147426088796,0.000141460635954,-0.0272330149387,0.573818267149,0.818947772008,0.00615547810278,0.0,0.818946350651,-0.573726654157,-0.0120560344471,0.0,-0.00634182279277,0.0119592093757,-0.9999083751,0.0,0.262321350095,-0.263385147011,0.304937865644,1.0,-0.00452,-0.00594057142858,3.274
-0.65941070938,-0.517202242902,-0.124766641832,-2.63897717315,-0.0669149664068,2.11116998938,-0.907040639662,-0.0196038788919,0.00324142110353,0.0024382058096,0.000236005586826,0.000572872433006,0.000827819342055,-0.0234880059937,0.573799680118,0.818960718671,0.00616565263782,0.0,0.818958965313,-0.573707152071,-0.0121269822305,0.0,-0.00639436617866,0.0120081062227,-0.999907454451,0.0,0.262248844459,-0.263456194454,0.304908499646,1.0,-0.00422000000001,-0.00554628571429,3.289
-0.659706281063,-0.517137974844,-0.124738964244,-2.63897354831,-0.0668969705286,2.1111724003,-0.907332307331,-0.0162111383381,0.00178213707271,-0.00113253669305,0.000665078608117,0.000229349353515,-0.00034695029846,-0.0153556234027,0.573791385381,0.818966475034,0.00617298426017,0.0,0.818964454344,-0.573698145556,-0.0121822497171,0.0,-0.0064355483904,0.0120457565467,-0.999906737384,0.0,0.262178470228,-0.263526058288,0.304887319811,1.0,-0.00390000000001,-0.00512571428572,3.305
-0.660024751688,-0.517087616431,-0.124698470734,-2.63896628802,-0.0668753920701,2.1111731372,-0.907665001283,-0.0206622051229,0.00309970625722,0.00436662284214,0.000425869522182,0.00023228251407,0.000436572820681,-0.0162889117329,0.573760774806,0.818987894272,0.00617650639569,0.0,0.818985660027,-0.573667040285,-0.0122213936223,0.0,-0.0064660397758,0.0120708588425,-0.999906237953,0.0,0.262106065068,-0.263599708814,0.304873079775,1.0,-0.00354000000001,-0.00465257142858,3.323
-0.660311853834,-0.517071252744,-0.124659628265,-2.63894809172,-0.0668524242418,2.11118180078,-0.907935531681,-0.0174429405057,0.000382447491868,0.000999513272394,-0.000186110391198,7.4382431585e-05,0.000960858806869,-0.0213991810749,0.573757479497,0.818990199677,0.00617692928852,0.0,0.818988055768,-0.573663902157,-0.0122081437032,0.0,-0.00645499296883,0.0120635773304,-0.999906397203,0.0,0.262046156145,-0.263669880079,0.304876978108,1.0,-0.00318000000001,-0.00417942857144,3.341
-0.660531096377,-0.517043442581,-0.124637092028,-2.63891340953,-0.06683120526,2.11118473203,-0.908164061546,-0.0137546299685,0.0033444264882,0.00137908276092,-0.000952053423076,0.000793497235678,0.000105697531019,-0.0158708600314,0.573744653936,0.818999145772,0.00618208750323,0.0,0.818997142194,-0.573651192208,-0.0121958049138,0.0,-0.00644211597054,0.012060622072,-0.999906515899,0.0,0.262002962163,-0.263729225897,0.304883271592,1.0,-0.00288000000001,-0.00378514285715,3.356
-0.660760850059,-0.517026098876,-0.124623737171,-2.63886316287,-0.0668119836031,2.11119137677,-0.908394181071,-0.0142168153743,-0.000528705299634,-0.00138712620056,0.00185968188541,0.00158466683778,0.000571480283693,-0.0179654187851,0.573745461217,0.818998545521,0.00618668478511,0.0,0.818996866289,-0.573652474311,-0.0121539551853,0.0,-0.00640518790402,0.0120403838898,-0.999906997037,0.0,0.261959125767,-0.263798246494,0.304900594129,1.0,-0.00254000000001,-0.00333828571429,3.373
-0.661002728139,-0.517000292995,-0.124610617675,-2.63880913052,-0.0667825502103,2.11119927554,-0.908641765845,-0.0168677618766,0.000241615748393,-0.000563140981713,0.00121583936588,0.00131943261973,7.86674806148e-05,-0.00958609528099,0.573746632633,0.818997625034,0.0061998897303,0.0,0.818996357307,-0.573654037208,-0.0121144217201,0.0,-0.00636521339351,0.0120285273595,-0.999907395006,0.0,0.261913814006,-0.263870474698,0.304916624326,1.0,-0.00214000000001,-0.00281257142858,3.393
-0.661137094661,-0.516993325361,-0.12459641426,-2.63878646204,-0.0667699613846,2.11120412679,-0.908773381024,-0.00840256364111,0.000440665420351,0.000995998840787,0.00141351176095,-0.000198437848718,1.88500842829e-05,-0.0072214638755,0.573743996169,0.818999438046,0.00620437280606,0.0,0.818998329043,-0.573651571076,-0.0120978893688,0.0,-0.00634913862742,0.0120226938267,-0.999907567364,0.0,0.261885141453,-0.263909245946,0.304922983934,1.0,-0.00186000000001,-0.00244457142858,3.407
-0.661310448729,-0.516983755419,-0.124570939886,-2.63877347731,-0.0667494874658,2.1112099962,-0.908932788713,-0.00855685446939,-0.00103355198811,0.000724343152146,0.00133154851745,0.00476184595383,7.83790344444e-05,-0.00549299496865,0.573747951568,0.818996657486,0.00620564253024,0.0,0.818995671583,-0.573655721939,-0.012080956755,0.0,-0.00633448281418,0.0120140498705,-0.999907764213,0.0,0.261853774062,-0.263949618612,0.304928589523,1.0,-0.00154000000001,-0.00202400000001,3.423
-0.661479049638,-0.516975240797,-0.124526865868,-2.63877539054,-0.0667344958817,2.11121488233,-0.90906449633,-0.00875817911445,-0.000392825265263,0.00271128568956,0.000365357870256,0.000172244656596,0.00211188008673,-0.0142178856542,0.573753218888,0.818993023283,0.00619826842613,0.0,0.81899192224,-0.573660984539,-0.01208523998,0.0,-0.00634214456649,0.0120105083519,-0.999907758191,0.0,0.261820507767,-0.263982763571,0.304926041115,1.0,-0.00120000000001,-0.00157714285715,3.44
-0.66162075654,-0.516967157835,-0.124505296649,-2.63877006606,-0.0667178064591,2.11121831416,-0.90915197079,-0.00773422438697,-0.00112935730395,-0.000909394969789,0.00347621844083,0.000775788949504,2.75502361626e-05,-0.0135493075415,0.573789721742,0.818967422018,0.00620191881516,0.0,0.818966383499,-0.573697491794,-0.0120829429008,0.0,-0.0063376333484,0.0120124627448,-0.999907763317,0.0,0.261790943213,-0.26401524456,0.304926288583,1.0,-0.000840000000005,-0.00110400000001,3.458
-0.661713020842,-0.516952869668,-0.12448289473,-2.63876970827,-0.0667039130687,2.11121953296,-0.909229736992,-0.00423205518992,-0.000388958954113,0.000786121878567,0.000368401909005,-0.000242981493744,-8.43397539164e-05,-0.00140306201742,0.573791702873,0.818966017837,0.00620405063706,0.0,0.818964933125,-0.573699322908,-0.0120943006371,0.0,-0.00634568375559,0.0120207407092,-0.999907612778,0.0,0.261772748569,-0.264033171371,0.304921820372,1.0,-0.000520000000005,-0.000683428571436,3.474
-0.661738163186,-0.516942300413,-0.124479338457,-2.63876636505,-0.0666881122338,2.11122170295,-0.909245734467,-0.00160641634363,0.000961112599648,0.00289104038713,0.00225566486437,0.00034277089577,6.82848055929e-05,-0.00115032209931,0.573803613279,0.81895758556,0.00621557258556,0.0,0.818956618727,-0.573711118419,-0.0120977744155,0.0,-0.00634174312449,0.0120322626387,-0.999907499197,0.0,0.261769192698,-0.264038390716,0.304919720051,1.0,-0.000180000000005,-0.000236571428579,3.491
-0.661738334141,-0.516935590945,-0.124453107816,-2.63876812092,-0.0666780340171,2.11122430134,-0.909258741535,-0.000380275725871,-0.000707559464941,0.00186701761099,-0.000484693085411,0.0012691521791,0.000350354785258,0.001483821133,0.573778726764,0.818975051971,0.0062115910085,0.0,0.818974000197,-0.573686192309,-0.0121031671898,0.0,-0.00634881021868,0.0120319030472,-0.999907458677,0.0,0.261775717738,-0.264031541685,0.30491729129,1.0,0.0,0.0,3.509
-0.661733044428,-0.516926649661,-0.124422219473,-2.63876812092,-0.0666696444031,2.11122430134,-0.909270583641,0.000509878739862,-0.000624005597784,0.00500272167655,-0.000956070956777,-0.000208926348478,-6.66726124945e-05,-0.000327698217529,0.573746386765,0.818997765944,0.00620402723165,0.0,0.818996563792,-0.573653794937,-0.0121119343346,0.0,-0.0063608058612,0.0120304871698,-0.999907399476,0.0,0.261784502855,-0.264022470348,0.304914723487,1.0,0.0,0.0,3.524
-0.661730538774,-0.51691842358,-0.124389921895,-2.63875840773,-0.0666646927129,2.11122960728,-0.909273831059,0.000456334256252,7.05235015298e-05,0.00059469824104,0.00172584971521,-8.82539036189e-05,-6.2636545367e-05,0.000147456462309,0.573721334038,0.81901541808,0.00619053455976,0.0,0.819014091219,-0.573628904349,-0.0121055930137,0.0,-0.00636372028771,0.0120156033474,-0.999907559898,0.0,0.26179560507,-0.264017449554,0.304917315181,1.0,0.0,0.0,3.541
-0.66172775471,-0.516904250567,-0.124369950525,-2.63876525991,-0.0666636083922,2.11122821717,-0.909280238498,0.0007403250131,0.0058072344654,0.00158575723948,-0.000316405944646,5.24968148083e-05,0.000864050940214,-0.000677566625094,0.573699842941,0.819030524258,0.00618364334574,0.0,0.819028967824,-0.573607185147,-0.0121282279623,0.0,-0.00638652961322,0.0120227769797,-0.999907328243,0.0,0.261798764101,-0.264010068109,0.304909325921,1.0,0.0,0.0,3.558
-0.661732724278,-0.516911319968,-0.124377298175,-2.63876275434,-0.0666634884259,2.11122825591,-0.909275918538,0.000820959407732,-0.000435079221771,-0.000915960470507,0.000773360683374,0.000215915110988,-0.000617770612576,0.00100793438862,0.573712800565,0.819021425755,0.00618655993092,0.0,0.819019967993,-0.573620241195,-0.0121184908846,0.0,-0.00637669045364,0.0120196808767,-0.99990742826,0.0,0.261796570877,-0.26401372551,0.304912902325,1.0,0.0,0.0,3.574
-0.661738791862,-0.516908814277,-0.124376666803,-2.63875746453,-0.0666639465908,2.11122906971,-0.909281147312,0.00106455151638,-6.21511043077e-05,-0.00279028683732,0.00148811340061,0.000205285743019,-0.00039401759641,0.000647979976001,0.573713097418,0.819021228723,0.00618511544047,0.0,0.819019775871,-0.573620589175,-0.0121150034145,0.0,-0.00637465815138,0.0120164993508,-0.999907479458,0.0,0.261796340078,-0.264016665873,0.304914465255,1.0,0.0,0.0,3.591
