nelsonifechukwu/NELSON_IML_WORK/CNN-GradCAM/train2dof/data_sample_2022-02-22-08-08-37/robot_state.csv
position_joint1,position_joint2,position_joint3,position_joint4,position_joint5,position_joint6,position_joint7,velocity_joint1,velocity_joint2,velocity_joint3,velocity_joint4,velocity_joint5,velocity_joint6,velocity_joint7,ee_T_00,ee_T_10,ee_T_20,ee_T_30,ee_T_01,ee_T_11,ee_T_21,ee_T_31,ee_T_02,ee_T_12,ee_T_22,ee_T_32,ee_T_03,ee_T_13,ee_T_23,ee_T_33,v_x,v_y,time
0.465079054916,0.54771760225,-0.124009823995,-1.35581922767,0.0795300501864,1.89412521862,0.159134216299,0.000743271422543,-0.000318727051189,0.000741586605488,-0.000199034036694,-3.06030867948e-05,-9.995891104e-05,-0.000889156923437,0.573803054374,0.818979015227,0.00204311289372,0.0,0.8189369621,-0.57374398448,-0.0118675726594,0.0,-0.00854723379811,0.00848299343029,-0.99992748918,0.0,0.661688657606,0.260890737055,0.303268882412,1.0,0.0,0.0,0.0
0.465073765203,0.547724696251,-0.12401232965,-1.35582165385,0.0795283773933,1.89412723568,0.159140523265,-0.00115448901698,0.000971967436313,-0.000505623880748,-0.00123301747269,0.000574144577165,-0.000225271090092,0.00170725037818,0.573814018494,0.818971353779,0.00203488826893,0.0,0.818929222023,-0.573755008763,-0.011868704145,0.0,-0.00855276603188,0.00847702149565,-0.999927492521,0.0,0.661690364482,0.260885269965,0.303262957228,1.0,-2e-05,-2.62857142857e-05,0.002
0.465081600557,0.54772398814,-0.124007309594,-1.35581807722,0.0795304847374,1.89412347473,0.159137369782,9.05874155459e-05,-0.000236716950929,-0.000233652244012,-9.90532928626e-05,0.000170557218482,1.17871106737e-05,0.00112039069137,0.573801847063,0.818979874218,0.00203785047607,0.0,0.81893773449,-0.573742780688,-0.0118724697789,0.0,-0.00855427650373,0.00848148103521,-0.999927441784,0.0,0.661687137755,0.260893879929,0.303264672173,1.0,-0.00036,-0.000473142857143,0.019
0.465075924934,0.547715136642,-0.124009825007,-1.35582585705,0.0795266807306,1.89412840335,0.159133366969,-0.000881398176916,-0.00202199315302,-0.000317902199091,-0.00179990627275,0.000278371783956,-0.00042371999696,0.00136869945272,0.573804410104,0.818978071733,0.00204055541314,0.0,0.818936013177,-0.573745378039,-0.0118656816696,0.0,-0.00854713841552,0.00847982804855,-0.999927516844,0.0,0.661688843998,0.260887580783,0.303267744182,1.0,-0.00068,-0.000893714285714,0.035
0.465072677558,0.547656194935,-0.124004885404,-1.35587046934,0.0795280029926,1.89413450827,0.15913570681,-0.000782122283193,-0.00841396017099,0.00187533112485,-0.00714576498963,0.000310695260849,0.00142477509693,0.00065485880879,0.573808257663,0.818975320829,0.0020625740445,0.0,0.818933476009,-0.573749063774,-0.0118625710613,0.0,-0.00853191727963,0.00849611574043,-0.999927508575,0.0,0.661681033741,0.260884402078,0.303288634307,1.0,-0.00104,-0.00136685714286,0.053
0.465074783729,0.547559758795,-0.124010435683,-1.35598386139,0.0795287150691,1.89416527036,0.159129433682,0.000125860843216,-0.00405633626643,0.000436351528566,-0.00429722469698,0.000336388026894,0.00880032542338,-0.00154084728315,0.573811696138,0.818972872385,0.00207811798532,0.0,0.818931175865,-0.573752385384,-0.0118607066711,0.0,-0.00852143592378,0.00850781161937,-0.999927498507,0.0,0.661664408896,0.26087259674,0.30330583544,1.0,-0.00132,-0.00173485714286,0.067
0.465063743449,0.547405623494,-0.124008041785,-1.35619636781,0.0795220469917,1.89422291874,0.159135048419,0.000320910526748,-0.012679175565,0.000298204872792,-0.0067165217366,0.000250494071376,0.00418333269382,0.00152941118235,0.573833626121,0.818957495926,0.00208237883001,0.0,0.818915761589,-0.573774202357,-0.0118695842757,0.0,-0.00852603391647,0.00851662340235,-0.999927384299,0.0,0.661633960428,0.260846309393,0.303318789455,1.0,-0.00168,-0.002208,0.085
0.465042423387,0.547247829433,-0.12401372961,-1.35640798648,0.079521772492,1.89432693129,0.159122877932,-0.00018319782405,-0.0146561899982,-0.00379612896303,-0.0126855648447,0.000109784376527,0.00745043270631,-0.000119279663099,0.573857013532,0.818940985945,0.00212989694455,0.0,0.81889982328,-0.573797349585,-0.0118502296604,0.0,-0.00848267285785,0.00854467414555,-0.999927513775,0.0,0.661617235875,0.260812890851,0.303339060072,1.0,-0.00202,-0.00265485714286,0.102
0.465026794428,0.547062479511,-0.124005216159,-1.35662372127,0.0795197440195,1.8944421592,0.159108615669,-0.000135224666357,-0.00816072113585,0.00222397719268,-0.0157115263943,0.000246096296505,0.00855365821898,-0.00218247820894,0.573863881565,0.818935961199,0.00220993006251,0.0,0.81889575118,-0.573803811463,-0.0118186949939,0.0,-0.00841084998691,0.00859218994909,-0.999927713325,0.0,0.661597879551,0.260791812954,0.30337738544,1.0,-0.00234,-0.00307542857143,0.118
0.465002887344,0.546845707882,-0.124010514642,-1.35690693926,0.0795155397422,1.89456055523,0.159100409172,-0.00155084329071,-0.0146801900893,0.00289508393882,-0.0193485299088,-0.000237537500904,0.00265509097635,0.000203529401677,0.57389521145,0.818913869596,0.0022599466007,0.0,0.818874245344,-0.573834877157,-0.0118004648435,0.0,-0.00836688923657,0.00862300835336,-0.999927816841,0.0,0.661569944684,0.260749521551,0.303406564597,1.0,-0.00268,-0.00352228571429,0.135
0.46496457322,0.546600732379,-0.124008443794,-1.35727760022,0.0795102876555,1.89470119695,0.159061942083,-0.00236969159386,-0.0118102286948,0.00016117852007,-0.0236853463693,0.000464082640648,0.00344534738146,-0.000580641757697,0.573913008794,0.818901334596,0.00228241872873,0.0,0.818861845804,-0.57385242387,-0.0118076248934,0.0,-0.00835966921341,0.00864570159896,-0.999927681272,0.0,0.661529233431,0.260693290074,0.303415771925,1.0,-0.00302,-0.00396914285714,0.152
0.464931422223,0.546337511497,-0.124015970577,-1.35766746357,0.0794998636661,1.89484415757,0.158930431705,-0.00564983367276,-0.015251417995,-0.00104233098017,-0.0301990074883,6.90560923943e-05,0.0108805022613,-0.0098411972815,0.573856747855,0.818940703899,0.00230289828644,0.0,0.818901393229,-0.573795999799,-0.0118070184016,0.0,-0.00834801486118,0.0086615505587,-0.999927641477,0.0,0.661486182047,0.260632198535,0.303429254777,1.0,-0.00334,-0.00438971428571,0.168
0.464881756858,0.54603453902,-0.124011340228,-1.35819280183,0.0794901957191,1.89502321852,0.158916660622,-0.0037889585003,-0.0202056981249,-0.000461424692738,-0.0299278370748,-0.00280291091804,0.0155726445714,-0.00113635858557,0.573909699065,0.818903666144,0.00227811220136,0.0,0.818863791411,-0.573848790405,-0.0118492096263,0.0,-0.00839623092622,0.00866600677276,-0.999927199166,0.0,0.66142171638,0.260554227776,0.30340912089,1.0,-0.0037,-0.00486285714286,0.186
0.46483139022,0.545709090777,-0.124013683551,-1.35875389475,0.0794586788511,1.89521363783,0.158854136352,0.00151156809418,-0.0163166449005,0.000301718909587,-0.029962479252,-0.00735221662313,0.0101779148415,-0.000987441771921,0.573924345314,0.818893507484,0.00223967808222,0.0,0.818853091069,-0.573863543443,-0.0118741591273,0.0,-0.00843856468427,0.00864900284404,-0.999926990023,0.0,0.661354854942,0.26046504101,0.303389038219,1.0,-0.00404,-0.00530971428571,0.203
0.464763552518,0.54537119639,-0.12401695319,-1.35934056058,0.0793527998596,1.89540774302,0.158750040459,-0.00270777882633,-0.0210041623723,-0.00150390597137,-0.0373474306338,-0.00910785673596,0.00986945723845,-0.00767139212215,0.573901508422,0.818909743849,0.0021533604482,0.0,0.818868805464,-0.573841663913,-0.0118478309175,0.0,-0.00846677925097,0.0085629725968,-0.999927491946,0.0,0.661292047622,0.260349102594,0.303365784065,1.0,-0.00436,-0.00573028571429,0.219
0.464696054519,0.544968976808,-0.124016321823,-1.36005025016,0.0793324923648,1.89562090445,0.158703713766,-0.00707972584054,-0.0285511149822,-0.00107039586963,-0.0453126309774,-0.000460995687892,0.0121253287594,-0.00231780918702,0.573952396664,0.818874254455,0.00208534313964,0.0,0.818832149968,-0.573892537964,-0.0119168766322,0.0,-0.00856182544239,0.00854743047479,-0.999926815611,0.0,0.661200610659,0.260237041268,0.303331168569,1.0,-0.0047,-0.00617714285714,0.236
0.464622900426,0.54453501646,-0.124022330045,-1.36077521908,0.0793103859493,1.89586546274,0.158591423531,-0.00461072075055,-0.0253682690066,-0.00320990556733,-0.0428047822168,-0.000752102902027,0.017600022669,-0.0126417967295,0.573959029833,0.818869678692,0.0020562815051,0.0,0.818826985799,-0.573899081389,-0.0119565299405,0.0,-0.00861090755046,0.00854646165748,-0.999926402424,0.0,0.661115770493,0.26011784966,0.303314652011,1.0,-0.00504,-0.006624,0.253
0.464558984706,0.544056282515,-0.124027266541,-1.36155340588,0.0792793471425,1.89614526957,0.158500797215,-0.0050642798759,-0.0336955779218,-0.00428166319546,-0.0490887243504,-0.00607201341158,0.0175696824794,-0.00578115877565,0.573975735182,0.818857994007,0.00204645402564,0.0,0.818815033424,-0.573915687282,-0.0119779727963,0.0,-0.00863393293759,0.00855089769442,-0.99992616595,0.0,0.661024656051,0.260000611311,0.303307455551,1.0,-0.00538,-0.00707085714286,0.27
0.464483971465,0.543548393499,-0.12402329234,-1.36238565857,0.0792396109382,1.89643060971,0.15839851372,-0.00283579269011,-0.0287797650795,-0.00130033804397,-0.0469916996193,-0.00380854529356,0.0168534540688,-0.0088200335799,0.573986308193,0.818850648949,0.00201980818516,0.0,0.818807182284,-0.573926214697,-0.0120102133699,0.0,-0.00867551717646,0.0085476960513,-0.999925833397,0.0,0.660924182625,0.259874136004,0.303295274205,1.0,-0.00572,-0.00751771428571,0.287
0.464402834102,0.542972394628,-0.124032449211,-1.36329782187,0.0791754613142,1.89675359948,0.158297755962,-0.0021240436181,-0.0300616455208,-0.000135890080102,-0.0497067520686,-0.00108085660863,0.0202295566302,0.00101876093831,0.574010253626,0.818833909393,0.00200111477088,0.0,0.818790300288,-0.573950336311,-0.0120084346511,0.0,-0.00868454019959,0.00853162224405,-0.999925892346,0.0,0.660820449732,0.259726029458,0.303296835174,1.0,-0.00608,-0.00799085714286,0.305
0.464337028926,0.542490210525,-0.124029771138,-1.36404836811,0.0791414831002,1.89701367434,0.158184455778,-0.00461927757984,-0.0344315646934,-0.000427330249547,-0.0561195161522,-0.00133907306549,0.0143441408825,-0.00774150587042,0.574002054711,0.81883965556,0.00200164208743,0.0,0.818795902597,-0.573941988121,-0.0120254340147,0.0,-0.00869824327552,0.00854172462754,-0.999925686991,0.0,0.660730429556,0.25961348645,0.303303095554,1.0,-0.00636,-0.00835885714286,0.319
0.464256090831,0.541849175829,-0.124036104672,-1.36503346084,0.0790907597927,1.8973819553,0.158044768836,-0.00583770779292,-0.0377903596594,-0.000130750876567,-0.0522478962209,-0.000499251345358,0.0145189858264,-0.0121125013439,0.573999615917,0.81884130664,0.00202543034266,0.0,0.818797813442,-0.573939398421,-0.0120189244055,0.0,-0.00867928459531,0.00855744068558,-0.999925717355,0.0,0.66061891158,0.259464606648,0.303319658901,1.0,-0.00672,-0.008832,0.337
0.464176855971,0.541194156159,-0.12403078655,-1.36602452747,0.0790342152181,1.8977542646,0.157936178555,-0.00403792516092,-0.038264608038,0.000959694649994,-0.0592363180982,-0.00203605685451,0.0267679270275,-0.00711901999387,0.57401177726,0.818832697432,0.00205914643102,0.0,0.818789591416,-0.573951363281,-0.0120076841537,0.0,-0.00865060105511,0.00857872495381,-0.999925783536,0.0,0.660504232358,0.259322421316,0.303343126958,1.0,-0.00706,-0.00927885714286,0.354
0.464097714788,0.540542353705,-0.124037057097,-1.36702299334,0.0789626106098,1.89811396697,0.157790832066,-0.00307901655591,-0.0354831703108,0.000150549694237,-0.0616474441205,-0.0102299388544,0.0194390710653,-0.0050220294419,0.573998105359,0.818842271634,0.002063038954,0.0,0.818799327536,-0.573937786986,-0.0119926976947,0.0,-0.00863623808601,0.00857316572315,-0.999925955369,0.0,0.660388538116,0.25916937603,0.303359962811,1.0,-0.00738,-0.00969942857143,0.37
0.46399411877,0.539772665275,-0.124043576508,-1.36820149414,0.0788948460956,1.89855622832,0.157655978435,-0.00355671601503,-0.0440784219866,0.00268153784711,-0.0632355636346,-0.00247118153301,0.028141907289,-0.00234866140976,0.574024261165,0.818823864391,0.00209131500948,0.0,0.818781293197,-0.573963825363,-0.0119778122579,0.0,-0.00860754507901,0.00858804978624,-0.999926075052,0.0,0.660256805519,0.258986442599,0.303381504491,1.0,-0.00774,-0.0101725714286,0.388
0.463887680665,0.539050774571,-0.12403968513,-1.36929960247,0.0788381384889,1.89896083616,0.157519290013,-0.00766530170835,-0.0440355875331,0.0013399492718,-0.0692043860584,0.000363443226837,0.0217667107705,-0.00220500459725,0.574036591029,0.81881514027,0.00212252835531,0.0,0.818772838653,-0.573975886397,-0.0119777886517,0.0,-0.0085894799749,0.00861372337313,-0.999926009564,0.0,0.660123826511,0.258810652205,0.303400466458,1.0,-0.00808,-0.0106194285714,0.405
0.46378893873,0.538331597285,-0.124048297006,-1.37042521493,0.078777862951,1.89939771692,0.157375300777,-0.00813237161616,-0.0544479368345,-0.000835620969128,-0.0692226345873,-0.000925676430168,0.0276913571434,-0.0133289092723,0.574057503916,0.818800410662,0.00214862739573,0.0,0.818758464179,-0.573996703654,-0.0119627936342,0.0,-0.00856200014289,0.00862670441095,-0.999926133334,0.0,0.660008836691,0.258641370416,0.303414216419,1.0,-0.00838,-0.0110137142857,0.42
0.463675654862,0.537495136117,-0.124048472969,-1.37173544116,0.0786916393472,1.89990762379,0.157215509054,-0.00746262283954,-0.0436903078105,0.000969758110091,-0.0745631082326,-0.000833773402789,0.0250036280153,-0.00795042134186,0.574068909036,0.818792348184,0.0021737376721,0.0,0.818750817046,-0.57400809337,-0.0119396496248,0.0,-0.00852851493651,0.00863409736261,-0.999926355686,0.0,0.659863201156,0.258442603078,0.303425471145,1.0,-0.00874,-0.0114868571429,0.438
0.463561088306,0.536655072066,-0.124059894219,-1.3730382268,0.0786244674435,1.90038333768,0.157058207982,-0.00957124563768,-0.051587169851,-0.000286994817818,-0.0753399793381,-0.00258828791787,0.0295399724667,-0.00918295375647,0.574095676764,0.818773541587,0.00218824560568,0.0,0.818732132512,-0.574034730715,-0.0119402690904,0.0,-0.00852041147796,0.00864661032943,-0.999926316644,0.0,0.659714104041,0.258238170736,0.303440084028,1.0,-0.00908,-0.0119337142857,0.455
0.463447365785,0.53585659025,-0.124063462863,-1.37431381903,0.0785490101431,1.90085887726,0.15690128955,-0.00577882620436,-0.0507089508876,-0.000630756686009,-0.0779218712341,-0.00220043572658,0.0343971429973,-0.0053114977934,0.574112815755,0.81876153072,0.00218574930089,0.0,0.818720081224,-0.574051869706,-0.0119426290521,0.0,-0.00852359587627,0.00864609970198,-0.99992629392,0.0,0.659568336653,0.258040198934,0.303437856941,1.0,-0.0094,-0.0123542857143,0.471
0.463331834734,0.534953978234,-0.124064606051,-1.37572038886,0.078472455988,1.90136086748,0.156730373113,-0.00630847249844,-0.0524737667537,0.000700459130998,-0.0812770116442,-0.000392379647339,0.0240409848074,-0.0109871828323,0.574124869867,0.818753070343,0.00218872249791,0.0,0.818711548267,-0.574063797221,-0.0119542609993,0.0,-0.00853128580233,0.00865533756763,-0.99992614842,0.0,0.65939983422,0.257829901016,0.303448826582,1.0,-0.00974,-0.0128011428571,0.488
0.463202129222,0.534058079874,-0.12406803067,-1.37719644462,0.078386324307,1.90189693149,0.156556584394,-0.0106555587203,-0.0516421878679,0.0016043517309,-0.0838592821843,-0.0117911344922,0.0357780369814,-0.0121877187083,0.574149027995,0.818736231118,0.0021504436569,0.0,0.818694159093,-0.574088058326,-0.0119800691142,0.0,-0.00857413769033,0.00863906702742,-0.999925922598,0.0,0.659226143482,0.257601374941,0.303424847518,1.0,-0.01008,-0.013248,0.505
0.463078880806,0.533183959154,-0.12406550349,-1.37859757836,0.0783094671968,1.90242226194,0.156374524147,-0.00196161934144,-0.0562800802298,0.00588056836107,-0.0869843378927,-0.0048385168968,0.0363434081903,-0.0105368970195,0.574155255921,0.818731857979,0.00215260986956,0.0,0.818689720286,-0.574094181852,-0.0119899609662,0.0,-0.00858092742648,0.00864658515259,-0.999925799372,0.0,0.659063274906,0.257389958523,0.303419872315,1.0,-0.0104,-0.0136685714286,0.521
0.462947767696,0.532231797616,-0.124071236834,-1.38013466834,0.0782231978288,1.90299761323,0.156187747481,-0.00977019843235,-0.0592148329852,0.000382443049099,-0.0953624095072,-0.00169275656517,0.0316970700953,-0.00860065093311,0.574174651278,0.818718276181,0.00214498921598,0.0,0.818675993038,-0.574113560081,-0.0119993939891,0.0,-0.00859282120528,0.00864596549732,-0.999925702592,0.0,0.65888483434,0.257155338176,0.303409635839,1.0,-0.01074,-0.0141154285714,0.538
0.462816099111,0.531189642901,-0.124076113434,-1.38182097866,0.0781171073456,1.90360913832,0.155977341497,-0.00924704219783,-0.062059186303,-0.000707966795276,-0.102086858901,-0.00702978719986,0.0283448059823,-0.00524241019295,0.574177032866,0.818716689922,0.00211269332111,0.0,0.818673998476,-0.57411608959,-0.0120144411285,0.0,-0.00862365827608,0.00862818936681,-0.999925590665,0.0,0.658681778921,0.25690360613,0.303394677581,1.0,-0.0111,-0.0145885714286,0.556
0.462688589255,0.530216837206,-0.124074504282,-1.38337142974,0.0780285730199,1.90415880564,0.155773579626,-0.00614469568426,-0.0604471052716,-0.000909798685067,-0.102647744404,-0.00320095060469,0.0436832680588,-0.0111622883873,0.574173923387,0.818718923059,0.00209227862616,0.0,0.818675848352,-0.574112950032,-0.0120383899321,0.0,-0.00865502002216,0.00862519361954,-0.999925345545,0.0,0.658492289287,0.256672269065,0.303389722687,1.0,-0.01142,-0.0150091428571,0.572
0.46255288777,0.529170771515,-0.124071627109,-1.38501149672,0.0779282684819,1.90476478173,0.155543228309,-0.0104885759084,-0.0636091169399,0.00250573240105,-0.0977042041399,-0.0051044227132,0.0381456318506,-0.0209171766488,0.574156487107,0.818731125288,0.00210230772486,0.0,0.818688150953,-0.574095442992,-0.012036640998,0.0,-0.00864801384541,0.00863221613288,-0.999925345564,0.0,0.65829705646,0.256428539003,0.303398315727,1.0,-0.01176,-0.015456,0.589
0.462411836979,0.528079347437,-0.124076639519,-1.38672518571,0.0778093727618,1.90542051684,0.155311205185,-0.0115503946822,-0.0637497477595,-0.000526198870785,-0.102722394086,-0.00417620951235,0.0375842795435,-0.0141630718428,0.574146517364,0.818738071585,0.00211981995429,0.0,0.818695494318,-0.574085569268,-0.0120080657684,0.0,-0.00861466842452,0.00863004234159,-0.999925652165,0.0,0.658099437459,0.256168954725,0.303408100915,1.0,-0.0121,-0.0159028571429,0.606
0.462278484611,0.527009915444,-0.124074837625,-1.38838093238,0.0777106103475,1.90605926383,0.155074810855,-0.0125031755906,-0.0697533573413,0.00105737831146,-0.103880693274,-0.00911196444963,0.0430351002134,-0.0136201809527,0.574123997914,0.818753745624,0.00216470491869,0.0,0.818711747686,-0.574062859513,-0.0119855925489,0.0,-0.00857073711055,0.00865365226838,-0.999925825633,0.0,0.657906297586,0.255927103497,0.303428048357,1.0,-0.01242,-0.0163234285714,0.622
0.4621290288,0.525834019477,-0.124085747297,-1.39019288252,0.0776037315124,1.90672603437,0.15484060294,-0.012576946344,-0.0713008984603,-0.000881881709332,-0.109044607484,-0.0105714693648,0.039461336676,-0.00428547704368,0.57413126928,0.818748579506,0.00218999821132,0.0,0.818706911516,-0.574070025711,-0.0119726988841,0.0,-0.00854558240364,0.0086670343461,-0.999925925025,0.0,0.657691867078,0.255650751619,0.303451116967,1.0,-0.01276,-0.0167702857143,0.639
0.461960722301,0.52459309039,-0.12408617187,-1.39214922336,0.0774713668838,1.90741672676,0.154568633642,-0.00985658489073,-0.0687945905327,-0.000652430650583,-0.112006524026,-0.009391740747,0.0360631988868,-0.0161629667814,0.574116058865,0.81875931936,0.00216213248772,0.0,0.818717330991,-0.574054975642,-0.0119818102427,0.0,-0.0085692008701,0.00864929153986,-0.999925876529,0.0,0.657453225288,0.255349401468,0.303452598244,1.0,-0.01312,-0.0172434285714,0.657
0.461809496963,0.523462531684,-0.12408731697,-1.39393413226,0.0773668341445,1.90807074431,0.154317153404,-0.0129907279076,-0.0709787459067,0.000345866778901,-0.111813713006,-0.00204215562596,0.0422220617388,-0.0169425642607,0.574102459645,0.818768851624,0.00216340980509,0.0,0.818726811806,-0.574041304112,-0.0119889826347,0.0,-0.00857448404351,0.00865431265391,-0.999925787794,0.0,0.657238326161,0.255079776669,0.303454630929,1.0,-0.01344,-0.017664,0.673
0.461640724799,0.522176610919,-0.124095742025,-1.39599511701,0.0772416895865,1.90887059098,0.154046986024,-0.0114215427033,-0.0726102331058,-0.00269686707467,-0.112713328643,-0.00212890282482,0.0461009790945,-0.017831397941,0.574102393898,0.818768855151,0.00217946265562,0.0,0.818727083739,-0.574041231745,-0.0119738678152,0.0,-0.00855289328508,0.00865877798936,-0.999925934047,0.0,0.656998283092,0.25477022057,0.303447035992,1.0,-0.0138,-0.0181371428571,0.691
0.46149003779,0.521062632003,-0.124098476637,-1.39776239957,0.0771338229587,1.90955860199,0.153813783981,-0.00823583225269,-0.0741778224184,-0.000176255491661,-0.115455759572,-0.0101587618843,0.0506137800259,-0.0160135980565,0.574102379339,0.818768795061,0.00220571369811,0.0,0.81872740472,-0.574041148949,-0.0119558761791,0.0,-0.00852309200351,0.00866994213639,-0.999926091772,0.0,0.656793118639,0.254503713008,0.303448202241,1.0,-0.0141,-0.0185314285714,0.706
0.46131524605,0.519783787197,-0.124104760429,-1.39981121897,0.0770043345463,1.91030204879,0.153536099709,-0.013802897889,-0.0743043918406,-0.000546320137666,-0.123667515248,-0.00195716974933,0.0451599589522,-0.01397820008,0.574096791277,0.818772786632,0.00217830622859,0.0,0.818731051782,-0.574035686872,-0.0119683727373,0.0,-0.00854911698245,0.00865461796317,-0.999926002356,0.0,0.656544400121,0.254188411972,0.303435760107,1.0,-0.01444,-0.0189782857143,0.723
0.46115035565,0.518428581084,-0.124106642912,-1.40188405985,0.0768598144475,1.91103133822,0.153260450614,-0.0114186886222,-0.0807310061376,0.000580981978107,-0.116237771563,-0.00751462942283,0.0399345852426,-0.0150534338796,0.574078160647,0.818785846009,0.00217962026153,0.0,0.818744218051,-0.574017144096,-0.0119570311267,0.0,-0.00853927285653,0.00864898844251,-0.999926135181,0.0,0.656285753763,0.253877036683,0.303463644144,1.0,-0.01478,-0.0194251428571,0.74
0.460966846823,0.517073422726,-0.124114344849,-1.40402523675,0.0767287773029,1.91180067891,0.152965082893,-0.00936717720321,-0.0835422059125,0.000122302812786,-0.126510103888,-0.00752031024497,0.0442338503877,-0.0159706727351,0.574070032951,0.818791587251,0.00216351917423,0.0,0.8187497194,-0.574009053243,-0.0119687375644,0.0,-0.00855818680648,0.00864244067855,-0.999926030093,0.0,0.656023477925,0.25354684718,0.303462294169,1.0,-0.01512,-0.019872,0.757
0.460794309858,0.51580326359,-0.124118025154,-1.40604601169,0.076596584838,1.91257024055,0.152683726178,-0.0145144593906,-0.0845221918335,-0.000265425350115,-0.131720201032,-0.00161846813337,0.0474727473011,-0.0177101640868,0.574054784902,0.818802255579,0.00217188634831,0.0,0.818760589259,-0.573993866195,-0.0119534910493,0.0,-0.00854106043313,0.00864038003359,-0.999926194336,0.0,0.655783164448,0.253239226654,0.303458129537,1.0,-0.01544,-0.0202925714286,0.773
0.460586159606,0.514255745506,-0.124118483264,-1.40853672122,0.0764604953751,1.91346843707,0.152339822398,-0.00985400493302,-0.0812787593221,-0.000227888743785,-0.129187392725,-0.0113284441497,0.0407283338982,-0.0276303114467,0.57403853559,0.818813727254,0.00214163917746,0.0,0.818771439106,-0.573977514507,-0.0119954260614,0.0,-0.00859293223187,0.00863951613891,-0.999925757382,0.0,0.655471928882,0.252866171064,0.303435438966,1.0,-0.01582,-0.020792,0.792
0.460417742766,0.513011006286,-0.124121353991,-1.41054306869,0.07633045461,1.9141741694,0.152068201464,-0.0112905676567,-0.0877663632554,0.000160154862375,-0.131454560759,-0.00692436842634,0.045159543766,-0.0217011563312,0.574026105593,0.818822576169,0.00208943906596,0.0,0.818779588982,-0.573965287111,-0.0120241739292,0.0,-0.0086465660528,0.00861314562292,-0.999925522536,0.0,0.655218687664,0.252559303268,0.303413983459,1.0,-0.01612,-0.0211862857143,0.807
0.460216330677,0.511594093704,-0.124124552438,-1.4128420059,0.0761981593852,1.91500586882,0.151748594573,-0.0119099647686,-0.0895051111993,0.00021383649601,-0.131863556013,-0.0112843421792,0.0486777222439,-0.0159343700555,0.574016353048,0.818829514086,0.0020494379868,0.0,0.818785863899,-0.57395556646,-0.0120608337052,0.0,-0.00869964775683,0.008601332233,-0.999925163806,0.0,0.65493322651,0.252206360859,0.303384468929,1.0,-0.01646,-0.0216331428571,0.824
0.460017822722,0.510132681866,-0.124122442665,-1.41515872006,0.0760548571124,1.91589547385,0.151418838063,-0.0155329778547,-0.0834497092259,0.000614418495033,-0.133536699691,-0.00359173385205,0.0517492708098,-0.0227148342214,0.573989885468,0.818848001007,0.00207594011732,0.0,0.818804705019,-0.573928996965,-0.01204609412,0.0,-0.0086726448361,0.00861429157148,-0.999925286815,0.0,0.654654025943,0.251859075838,0.303381981344,1.0,-0.0168,-0.02208,0.841
0.459810707135,0.508624599807,-0.124130596634,-1.41752389398,0.0759024535855,1.91674669002,0.151083583189,-0.0138667256105,-0.0844232817096,-0.000986032550721,-0.130799413479,-0.00477989530723,0.0479742391851,-0.0239800318642,0.573972463778,0.81886023932,0.00206547520972,0.0,0.818816833564,-0.573911648774,-0.0120482104101,0.0,-0.00868056730451,0.0086067525909,-0.999925282989,0.0,0.654360827532,0.251491113475,0.30338554838,1.0,-0.01714,-0.0225268571429,0.858
0.459612641413,0.507180223837,-0.124131287155,-1.41978724093,0.0757578710969,1.91756733336,0.150762697118,-0.0120559434515,-0.091171241634,-0.00418572451361,-0.143333387163,-0.0088816207854,0.0539927367259,-0.0251915260572,0.573950556172,0.818875598904,0.00206385321159,0.0,0.818832160167,-0.573889739168,-0.0120502139024,0.0,-0.00868336912677,0.00860634205357,-0.999925262196,0.0,0.654078879471,0.251143936638,0.303389634032,1.0,-0.01746,-0.0229474285714,0.874
0.459376207965,0.50550237478,-0.124142867112,-1.42237450801,0.0755930159139,1.91854303274,0.150415305409,-0.0116757507342,-0.0928104251609,-0.00108030191357,-0.143684069218,-0.0169404664133,0.0556528042814,-0.0227732446127,0.573957209892,0.818870809072,0.00211333024925,0.0,0.818828116376,-0.573896282202,-0.0120133262906,0.0,-0.0086246958982,0.00862575553904,-0.999925602714,0.0,0.653768655022,0.250737221026,0.30341598692,1.0,-0.01782,-0.0234205714286,0.892
0.459158136772,0.503854639667,-0.124144080352,-1.42485839871,0.0754313517477,1.91949150597,0.150076554585,-0.0140326214422,-0.0963447360981,-0.00235194858489,-0.145242432069,-0.0102501929196,0.0532668468942,-0.0160509856774,0.573949574104,0.818875920588,0.00220453363486,0.0,0.81883456407,-0.573888417906,-0.0119493673155,0.0,-0.00852005687852,0.00866364942155,-0.999926172179,0.0,0.653452053627,0.250330328055,0.303470869841,1.0,-0.01818,-0.0238937142857,0.91
0.458950566276,0.502375767514,-0.12415178247,-1.42703925602,0.0752982818203,1.92031679054,0.149767229772,-0.00953718756848,-0.101183166551,-0.00131454113832,-0.142356273226,-0.00912076372883,0.0471151344007,-0.0198674210599,0.573941677202,0.818881170546,0.00230794200307,0.0,0.818841157148,-0.573880102284,-0.0118968257982,0.0,-0.00841776671075,0.00871808990269,-0.99992656536,0.0,0.653208990208,0.250014293531,0.303533452601,1.0,-0.01846,-0.0242617142857,0.924
0.458703483307,0.500561764531,-0.124152944338,-1.42977441273,0.0751233818737,1.92127398078,0.149390239631,-0.0198198186069,-0.0998835885982,-0.000604114630962,-0.152628725295,-0.00916057052569,0.0552277714498,-0.0231543218114,0.573928202854,0.81889052814,0.00233833118371,0.0,0.818850858718,-0.573866455979,-0.0118873369903,0.0,-0.00839269942236,0.00873739067517,-0.999926607607,0.0,0.65286054016,0.249588509361,0.303580534637,1.0,-0.01882,-0.0247348571429,0.942
0.458457541944,0.49885474458,-0.124152569676,-1.43239194391,0.0749573289244,1.92223450261,0.149009030499,-0.0158889349925,-0.10241824968,0.000315725035619,-0.1560342511,-0.0117196914837,0.0548101998982,-0.0233210464956,0.573905493628,0.818906325977,0.00237919292522,0.0,0.818867178356,-0.57384357919,-0.0118675075379,0.0,-0.00835325323856,0.0087592394116,-0.99992674676,0.0,0.652535957459,0.249178612901,0.303608553722,1.0,-0.01916,-0.0251817142857,0.959
0.45822001458,0.497288064735,-0.124153634774,-1.43487793458,0.0748080705126,1.92315748071,0.148649932259,-0.012292022337,-0.0981989450564,-0.00026686628727,-0.155351635175,-0.015520195198,0.0576771915606,-0.0214528687087,0.573892739418,0.818915252667,0.00238316900426,0.0,0.818876080722,-0.573830731329,-0.0118744728451,0.0,-0.00835681221218,0.00876636262378,-0.999926654598,0.0,0.65222814059,0.248787361135,0.303597619142,1.0,-0.01948,-0.0256022857143,0.975
0.457957750017,0.495624244681,-0.124148342465,-1.43759124069,0.0746431853853,1.92409075057,0.148249232354,-0.0147853655474,-0.100128849453,0.00167505703774,-0.158672664705,-0.00763816429833,0.0543502740772,-0.0304561731176,0.573867980446,0.818932874278,0.00228808799517,0.0,0.818892235506,-0.573806115474,-0.0119497018351,0.0,-0.00847324792251,0.00873141685929,-0.999925980475,0.0,0.651874287947,0.248356479788,0.303546375765,1.0,-0.01982,-0.0260491428571,0.992
0.457652006226,0.493813585695,-0.12416277729,-1.4405390851,0.0744596073917,1.92512481391,0.147836925462,-0.0220731937086,-0.10342917121,-0.00358599664289,-0.171327589788,-0.00612767569785,0.0661709324199,-0.0229315365237,0.573889747983,0.818917871238,0.00219641246736,0.0,0.818875950497,-0.573828167497,-0.0120066142317,0.0,-0.00857223266819,0.00868922945702,-0.999925504284,0.0,0.651502415187,0.247863795745,0.303494462707,1.0,-0.0246085714286,-0.0323426938776,1.01
0.457399194612,0.491730664328,-0.124232576176,-1.44371301028,0.0742817545996,1.92632606062,0.147378093409,-0.0188101823447,-0.148079078623,-0.0033086629819,-0.23051983225,-0.0141112846421,0.0913616925717,-0.0369216909132,0.573882951075,0.818922394173,0.00228422622699,0.0,0.818881769588,-0.573821166257,-0.0119441823746,0.0,-0.00847078415794,0.00872524183216,-0.999926055251,0.0,0.651113652776,0.247362092003,0.303539591294,1.0,-0.0323228571429,-0.0424814693878,1.025
0.456945436287,0.488594057815,-0.124248954046,-1.44877237231,0.0740094666446,1.92818905858,0.146629850358,-0.0270461350413,-0.19130959455,0.000438509107565,-0.313275191861,-0.0128437740747,0.11036539468,-0.0382647389046,0.573833367683,0.818957233835,0.00224992967386,0.0,0.818915726052,-0.573771282046,-0.0120123446568,0.0,-0.00854681607118,0.00873575517095,-0.99992531647,0.0,0.650465812257,0.246581224416,0.303474831322,1.0,-0.04158,-0.054648,1.043
0.45636964499,0.48476157004,-0.124334359754,-1.45471956629,0.0736528961345,1.93044440479,0.145734277645,-0.035934382658,-0.235972985423,-0.00126735523276,-0.363934581844,-0.0180446810202,0.131263463944,-0.0625567042561,0.573831834541,0.818958012307,0.00235513173483,0.0,0.818918125792,-0.573769579351,-0.011929793048,0.0,-0.00841885874618,0.00877452403352,-0.999926062539,0.0,0.649742717804,0.245597915066,0.303504077321,1.0,-0.0503228571429,-0.0661386122449,1.06
0.455759186334,0.480789910993,-0.124442523523,-1.46098341045,0.0732745580483,1.93262240755,0.144783236008,-0.0387512087914,-0.271736291664,-0.00196451220833,-0.43929180666,-0.0286880866765,0.15787693357,-0.0591829304241,0.573835801394,0.818955539454,0.0022459601254,0.0,0.818914238257,-0.573773995916,-0.0119841099415,0.0,-0.00852594385705,0.00871632787385,-0.999925664192,0.0,0.648938264965,0.244535476289,0.303469783749,1.0,-0.0580371428571,-0.0762773877551,1.075
0.454870147973,0.475239692945,-0.124561773956,-1.46961927823,0.072746664818,1.93569084747,0.143527238946,-0.0442624697251,-0.320561185965,-0.00612721457606,-0.496070907124,-0.0293816025401,0.177582899457,-0.0762036157599,0.57389781296,0.818912162934,0.00221733619264,0.0,0.818870530743,-0.573836160604,-0.0119942304984,0.0,-0.00854999816661,0.00869934140538,-0.999925606728,0.0,0.647838148955,0.243063131609,0.303472625819,1.0,-0.0672942857143,-0.0884439183673,1.093
0.453843761859,0.468896075273,-0.124654667463,-1.47933802332,0.0721856395112,1.9392470366,0.142050041374,-0.0596494217686,-0.372877561025,-0.00630123642839,-0.56413128423,-0.0302682006287,0.215131913897,-0.0939699308741,0.573910892804,0.818902531611,0.00238280157348,0.0,0.818862796715,-0.573848298961,-0.0119413917499,0.0,-0.00841163125525,0.00880465187784,-0.999925858534,0.0,0.646602903579,0.241428889373,0.303541899911,1.0,-0.0765514285714,-0.10061044898,1.111
0.452852044294,0.463005710646,-0.124691292253,-1.48833350845,0.0716070149335,1.94253372998,0.140591626876,-0.0697959014925,-0.401662530228,-0.000623576067208,-0.625022443007,-0.0409586098051,0.216417893322,-0.106326995466,0.573822692748,0.818963900102,0.00252873853732,0.0,0.818926095586,-0.57375957201,-0.0118638272133,0.0,-0.00826531739684,0.00887875419851,-0.999926423419,0.0,0.645446366755,0.239911119015,0.303608467909,1.0,-0.0842657142857,-0.11074922449,1.126
0.451577795168,0.45573869721,-0.124778681561,-1.49972943355,0.0708607419056,1.94637011516,0.138897647604,-0.0761156521169,-0.43491352192,-0.0105390123667,-0.698182467599,-0.0453597280054,0.237446304934,-0.101612055443,0.57386716275,0.818933510342,0.00226540436279,0.0,0.818891939511,-0.573804737419,-0.0120358473256,0.0,-0.0085568236901,0.00876226762925,-0.999924998905,0.0,0.643903589416,0.237930306586,0.303520399211,1.0,-0.0930085714286,-0.122239836735,1.143
0.450181211367,0.447615462602,-0.124908354602,-1.51177990756,0.0700209286462,1.95081871379,0.136978296776,-0.0840169571712,-0.482736615928,-0.00640527103004,-0.724156528695,-0.0469941026828,0.272420270692,-0.106109378114,0.573861087887,0.818936619939,0.00264787349481,0.0,0.818901030343,-0.573798245629,-0.0117227436312,0.0,-0.00808099446398,0.00889574401698,-0.999927779025,0.0,0.642261505257,0.235678805458,0.303741169832,1.0,-0.102265714286,-0.134406367347,1.161
0.448718192196,0.439570373973,-0.124947018036,-1.52416417797,0.0692259615548,1.95511229064,0.135042888909,-0.0954372693126,-0.514869086173,-0.00380654101599,-0.779928322806,-0.047556731679,0.26376228642,-0.130493202957,0.573829996149,0.81895849371,0.00262068726948,0.0,0.818921988902,-0.573766640613,-0.0118053001985,0.0,-0.00816454513043,0.00892054554658,-0.999926879362,0.0,0.640664367118,0.23366121393,0.303732008782,1.0,-0.10998,-0.144545142857,1.176
0.44690674491,0.429720582947,-0.125018691509,-1.53892117942,0.0682183201154,1.96035093076,0.132625278276,-0.101411001357,-0.556161372145,-0.00344624442205,-0.822141747402,-0.0623319438274,0.293772998398,-0.131286397932,0.573752616463,0.819011845619,0.0028772799364,0.0,0.818978851421,-0.573688559494,-0.0116543782454,0.0,-0.00789456324916,0.00904333554132,-0.999927944381,0.0,0.638664520386,0.231051739979,0.303882442763,1.0,-0.119237142857,-0.156711673469,1.194
0.444990911665,0.41992897858,-0.125079057649,-1.55391315946,0.0671477831507,1.96544289207,0.130137793588,-0.11798018973,-0.588850215943,-0.00692670610289,-0.908139912532,-0.065678561468,0.294121411556,-0.146384171153,0.573668025309,0.819071541378,0.00274840766438,0.0,0.819036826845,-0.573604372296,-0.0117237901538,0.0,-0.00802627874963,0.00897678346986,-0.999927495476,0.0,0.636557814094,0.228344086176,0.303846013269,1.0,-0.12798,-0.168202285714,1.211
0.443037131902,0.410074028534,-0.125205955908,-1.56865520063,0.0660860675904,1.97066164955,0.127705953752,-0.125060867649,-0.619154274585,-0.000964434586579,-0.952909795654,-0.0636276700728,0.325633306824,-0.156638555593,0.573685083459,0.819058813173,0.00297194892148,0.0,0.819027650794,-0.573621424118,-0.0115289170743,0.0,-0.00773823654833,0.00904825030426,-0.999929121919,0.0,0.634525961859,0.22562089675,0.303959620216,1.0,-0.136208571429,-0.179016979592,1.227
0.440724305287,0.399112121561,-0.125283414173,-1.58524797954,0.0649997334147,1.97622060179,0.124914179043,-0.144970869632,-0.671114946727,-0.00760317944055,-0.981331877553,-0.070775545971,0.340012668118,-0.161835460842,0.573717440705,0.819036263177,0.00294019291529,0.0,0.819003655945,-0.573652680417,-0.0116773584371,0.0,-0.0078776821411,0.00910770829514,-0.999927493258,0.0,0.632131502742,0.222529553297,0.303943083963,1.0,-0.144951428571,-0.190507591837,1.244
0.43823436068,0.387623134302,-0.125421357245,-1.60255916911,0.0636848045352,1.98212197994,0.12193808296,-0.147792633039,-0.680563864864,-0.00995402640581,-1.04896421527,-0.0918522643248,0.34816143075,-0.179711806389,0.573723741748,0.819031895924,0.00292720266894,0.0,0.818999752547,-0.573659755613,-0.0116033192779,0.0,-0.00782442086381,0.00905465234443,-0.999928393291,0.0,0.629639220546,0.219215653037,0.303939149191,1.0,-0.153694285714,-0.201998204082,1.261
0.435712547006,0.37621630577,-0.125542477394,-1.61951606492,0.0624164084912,1.98775181376,0.11889204123,-0.156887645953,-0.721153813732,-0.00972055086924,-1.07859764442,-0.0732900017676,0.350612828548,-0.187248900652,0.573662121119,0.819074977092,0.00294950770135,0.0,0.819043235128,-0.573598200114,-0.0115771636444,0.0,-0.00779088273675,0.00905732896419,-0.999928630922,0.0,0.627132453193,0.215936846469,0.303990995048,1.0,-0.161922857143,-0.212812897959,1.277
0.432732787852,0.363685528755,-0.125709908403,-1.63812835845,0.061015481199,1.99393265681,0.115588559366,-0.18102689054,-0.750370406527,-0.00592115500741,-1.09459583539,-0.089100232639,0.380261109225,-0.200030039934,0.573797194404,0.818980178696,0.00299891626824,0.0,0.818949372836,-0.573733443947,-0.0115155081765,0.0,-0.0077105428373,0.0090637013852,-0.999929195917,0.0,0.624209963299,0.211977094386,0.304030708642,1.0,-0.17118,-0.224979428571,1.295
0.429312249247,0.349898667947,-0.125877270182,-1.65871952367,0.0594469642032,2.00056016179,0.111756224916,-0.193814301078,-0.761676565045,-0.0100933652754,-1.17388422786,-0.0768197390631,0.358719429678,-0.214068319303,0.573850667767,0.818943461892,0.00278643671735,0.0,0.818909513459,-0.573787164176,-0.0116724416354,0.0,-0.00796040140182,0.0089802508611,-0.999927990959,0.0,0.621223768549,0.208014393787,0.303933191435,1.0,-0.179922857143,-0.236470040816,1.312
0.426285841782,0.337831559796,-0.126023410133,-1.67614545607,0.0580988840692,2.00633758901,0.108430053997,-0.20217012462,-0.810582536825,-0.0107618020184,-1.17229261476,-0.0952771043439,0.387707040161,-0.22566382495,0.573905035783,0.818904252181,0.00309557178162,0.0,0.818874642423,-0.573840906729,-0.0114752194943,0.0,-0.00762088704626,0.0091207470929,-0.999929364532,0.0,0.618569914736,0.204419491331,0.304097218914,1.0,-0.187637142857,-0.246608816327,1.327
0.422485787961,0.323007838276,-0.126127711561,-1.69779700595,0.0563159004251,2.01327605095,0.104196469537,-0.209490370844,-0.849551283454,-0.00639810678484,-1.2154848335,-0.104231925908,0.386425141529,-0.245123046017,0.573789038103,0.818985483354,0.00310881166285,0.0,0.818956353141,-0.57372525389,-0.0114267930617,0.0,-0.00757491971894,0.00910272491715,-0.999929878037,0.0,0.615137347168,0.199972811857,0.304116590557,1.0,-0.196894285714,-0.258775346939,1.345
0.418593268081,0.308483458574,-0.126211271458,-1.71883204054,0.0546076700659,2.01989704612,0.099972824,-0.229158109411,-0.872286170617,-0.0104695295288,-1.24022015382,-0.103730352566,0.402552036937,-0.260680419458,0.573705778123,0.819043607952,0.00316153806353,0.0,0.819014930814,-0.573641572157,-0.0114296412655,0.0,-0.00754793027557,0.00914677421802,-0.999929680163,0.0,0.611732729868,0.195572737344,0.304148442012,1.0,-0.205637142857,-0.270265959184,1.362
0.414663818649,0.294481942649,-0.126323351871,-1.7392115791,0.0528749220865,2.0260401699,0.095803223938,-0.249306884471,-0.901620932606,-0.0124181218942,-1.27344695513,-0.0967655770546,0.377239187009,-0.253356526605,0.573650072265,0.819083575809,0.00290470857119,0.0,0.819051297178,-0.573586350463,-0.0115938800503,0.0,-0.00783040630014,0.00903010930941,-0.99992856838,0.0,0.608337217236,0.191202617881,0.304058983615,1.0,-0.213865714286,-0.281080653061,1.378
0.410194139026,0.279063942883,-0.126488344477,-1.76120647909,0.0510646900842,2.03279995124,0.091133312576,-0.268826050623,-0.893580575369,-0.00831974629277,-1.3135903048,-0.102925244635,0.388844817585,-0.27743908751,0.573654836627,0.819079780577,0.00303123161966,0.0,0.819048775237,-0.573590274326,-0.0115779049887,0.0,-0.00774469201078,0.00912462341761,-0.999928377932,0.0,0.604667257692,0.186382539299,0.304109637531,1.0,-0.222608571429,-0.292571265306,1.395
0.405379103281,0.263121438513,-0.126688054002,-1.78360218789,0.0490988503748,2.03950258527,0.0862317720461,-0.294332360676,-0.95533566434,-0.020123842237,-1.33998501626,-0.111322632367,0.403891023992,-0.294224390826,0.573696505074,0.819050198523,0.00313676070322,0.0,0.819020898184,-0.573632009183,-0.01148186743,0.0,-0.00760502587377,0.00915635607309,-0.999929159853,0.0,0.600634385084,0.181007621675,0.304211198158,1.0,-0.231865714286,-0.304737795918,1.413
0.400491343848,0.247914073848,-0.12686453711,-1.80508105949,0.0471990098617,2.04577897173,0.081434538377,-0.310049907229,-0.950313671559,-0.0090995594714,-1.35397955046,-0.118578688119,0.378908864915,-0.310317473794,0.573809335015,0.818971208598,0.00312304958852,0.0,0.81894142002,-0.57374449332,-0.0115305620494,0.0,-0.00765151314895,0.00917411543686,-0.99992864243,0.0,0.59713550264,0.17635059828,0.304220911441,1.0,-0.23958,-0.314876571429,1.428
0.394774632193,0.230279023213,-0.127024903576,-1.82961884147,0.0450069855741,2.05289595244,0.0757073643272,-0.319258960151,-0.985571167913,-0.00569964312432,-1.36577111782,-0.11018058031,0.38978146262,-0.315513311195,0.57375935342,0.819005680298,0.00326295936769,0.0,0.81897738989,-0.573693707054,-0.0115027055942,0.0,-0.00754898730626,0.00927225339021,-0.999928516499,0.0,0.592778222069,0.170678844527,0.30428583289,1.0,-0.248837142857,-0.327043102041,1.446
0.389044387024,0.213175316121,-0.127183587931,-1.85324995766,0.0427216601398,2.0595576956,0.0699867652972,-0.349756929491,-1.03930137794,-0.00897948402697,-1.3958545002,-0.143919607603,0.394522589244,-0.336844387746,0.573611117547,0.81910947694,0.00327070563784,0.0,0.81908173122,-0.573546014647,-0.0114382500634,0.0,-0.00749342311445,0.00924026054142,-0.999929230593,0.0,0.588478487099,0.165115915722,0.304323439202,1.0,-0.25758,-0.338533714286,1.463
0.383251985486,0.196815363294,-0.127353607557,-1.87571875107,0.040565278998,2.06564372342,0.064344410175,-0.368365719014,-1.05379682382,-0.0106894960614,-1.40682486762,-0.143471130053,0.396803645556,-0.368860282547,0.573558229156,0.819146800656,0.00319744318792,0.0,0.819117804269,-0.573492983416,-0.0115138005274,0.0,-0.00759792791591,0.00922309525787,-0.999928600454,0.0,0.584297459466,0.15967083776,0.304321127775,1.0,-0.265808571429,-0.349348408163,1.479
0.376589785183,0.179051651715,-0.127630974774,-1.89987329121,0.0382796302998,2.07209659154,0.0580345859839,-0.404089851188,-1.04010325662,-0.0188850500349,-1.39115651222,-0.129240189639,0.378719578924,-0.376411294473,0.573694526867,0.81905122716,0.0032286267435,0.0,0.819021981521,-0.573628371745,-0.0115858454942,0.0,-0.00763751611375,0.00929123130723,-0.999927668068,0.0,0.579756396984,0.153589368544,0.304333325753,1.0,-0.274551428571,-0.360839020408,1.496
0.369584959552,0.160930702934,-0.127857684335,-1.92433908712,0.0357900993657,2.07839456869,0.05145083935,-0.419352705265,-1.08358992123,-0.0039497536774,-1.40571567798,-0.139986341381,0.357021182071,-0.397612936763,0.573715566303,0.819036925182,0.00311625921222,0.0,0.819006041108,-0.573649555328,-0.0116635844337,0.0,-0.00776541512808,0.00924399304447,-0.999927120805,0.0,0.575023734004,0.147367484133,0.304308355944,1.0,-0.283294285714,-0.372329632653,1.513
0.362218330509,0.142461278526,-0.128079916663,-1.94901440592,0.0331975466312,2.08466504062,0.0445558932945,-0.443212766873,-1.07093372572,-0.0125206996044,-1.42233748834,-0.143422798062,0.34320271188,-0.412708821055,0.573678890452,0.819062755272,0.00307903843247,0.0,0.819031552415,-0.573613203048,-0.0116600316898,0.0,-0.00778427045616,0.00921112101234,-0.999927277547,0.0,0.570157677427,0.141006618385,0.304293441668,1.0,-0.292037142857,-0.383820244898,1.53
0.353892017581,0.122439465573,-0.128375042792,-1.97532768891,0.0304506029391,2.09110189485,0.036789959735,-0.475324042873,-1.10071831583,-0.0151520543703,-1.44440106884,-0.144894187332,0.338648432835,-0.427966432011,0.573674986748,0.819065191176,0.00315738558545,0.0,0.819034636289,-0.573608600413,-0.0116698325953,0.0,-0.00774739930048,0.00928087789973,-0.999926918884,0.0,0.564856804408,0.134031956707,0.30433587236,1.0,-0.301294285714,-0.39598677551,1.548
0.345948396488,0.104246233823,-0.128742310354,-1.99893411893,0.027812354925,2.09670673156,0.0295608581385,-0.503492831798,-1.13058938911,-0.0191986042481,-1.47341796462,-0.161747842534,0.34232393841,-0.46228588712,0.573798461397,0.81897849897,0.00320793154271,0.0,0.81894923661,-0.573732663371,-0.0115639845703,0.0,-0.0076303065246,0.00926270797786,-0.999927987739,0.0,0.560025555432,0.127530241496,0.304391575471,1.0,-0.309522857143,-0.406801469388,1.564
0.337715763983,0.0858781000264,-0.128988573439,-2.02267717944,0.0252314572485,2.10208797887,0.0219594575456,-0.530860326371,-1.14286084692,-0.0190563558991,-1.50881932075,-0.157321877068,0.332363744205,-0.490417764695,0.573724680735,0.819030203979,0.00320352723614,0.0,0.819000079908,-0.573657932865,-0.011670135917,0.0,-0.00772061363416,0.00931931349118,-0.999926768579,0.0,0.555003908707,0.121034995936,0.304365078944,1.0,-0.317751428571,-0.417616163265,1.58
0.328463888648,0.0660786333498,-0.12929080727,-2.04784361032,0.0223393222483,2.10757586926,0.0135113452429,-0.55925832487,-1.14947802018,-0.0233664666275,-1.50082154465,-0.185718729664,0.324096781626,-0.501025320318,0.573662043013,0.819073920875,0.00324336998942,0.0,0.819044245737,-0.573595090005,-0.0116594660711,0.0,-0.00768973154034,0.0093452365782,-0.999926764609,0.0,0.549580812029,0.113938715658,0.304392697836,1.0,-0.31998,-0.420545142857,1.597
0.318078665303,0.0452965638997,-0.129680021213,-2.07404083177,0.0192305379084,2.11289843204,0.00435694117549,-0.573542188702,-1.14934643409,-0.0181024398026,-1.47552553969,-0.179257560692,0.294760079108,-0.513164398294,0.573869065811,0.818929393991,0.00311285465908,0.0,0.818897585576,-0.573802000757,-0.0117794382764,0.0,-0.00786051735715,0.00930914363392,-0.999925773301,0.0,0.543800239996,0.106223741275,0.304356991025,1.0,-0.31998,-0.420545142857,1.615
0.309280109278,0.0280384096595,-0.129849745516,-2.09527115642,0.016729055367,2.11704585023,-0.00342150803744,-0.594519683622,-1.13099510541,-0.00888058553536,-1.41130500639,-0.165536473697,0.251977322019,-0.519925785002,0.573890854436,0.818913551892,0.00326015691944,0.0,0.81888315171,-0.573822668741,-0.0117760598466,0.0,-0.00777297270602,0.00942804213953,-0.999925343672,0.0,0.538998169486,0.099966166509,0.304443856187,1.0,-0.31998,-0.420545142857,1.63
0.298956355127,0.00870304843153,-0.130131087579,-2.11882338792,0.0137324796641,2.1214879181,-0.0125478229878,-0.61339435202,-1.12180138818,-0.017325384965,-1.38521154214,-0.177907962784,0.232625155026,-0.538235219976,0.573894230142,0.81891082262,0.00335023985782,0.0,0.818882272346,-0.57382657699,-0.0116460499112,0.0,-0.00761476625122,0.00942723437915,-0.999926568597,0.0,0.533586553172,0.0927748029788,0.304521862363,1.0,-0.31998,-0.420545142857,1.647
0.288326391358,-0.0105046126763,-0.130348945418,-2.14177912601,0.0108908370532,2.12557995257,-0.0219714240589,-0.6282313452,-1.13392799344,-0.00489235369695,-1.35117702609,-0.17581724363,0.242032750414,-0.563557419385,0.573860013357,0.818933618281,0.00362778436961,0.0,0.818908613373,-0.573791439133,-0.0115245053227,0.0,-0.00735635486113,0.00958446117672,-0.99992700841,0.0,0.528186002541,0.0856467329057,0.304658974754,1.0,-0.31998,-0.420545142857,1.664
0.278100517028,-0.028299253766,-0.130560967699,-2.16291915698,0.00812220667905,2.1290295704,-0.0309693422718,-0.653481578629,-1.13340145147,-0.0153632316269,-1.29623671203,-0.174320939242,0.231665089582,-0.569461813487,0.573816924724,0.818963617442,0.0036711180697,0.0,0.818939242874,-0.573748319598,-0.0114947440341,0.0,-0.00730762002657,0.00960248620228,-0.999927192824,0.0,0.523073053925,0.0789544939619,0.304712145536,1.0,-0.31998,-0.420545142857,1.68
0.266133515283,-0.0480490435802,-0.130890519064,-2.18623235161,0.00511011944184,2.13255548599,-0.041401997498,-0.67020168071,-1.11038900743,-0.0101199080521,-1.26298453759,-0.160174676796,0.181625070182,-0.581266531716,0.573956999985,0.818865425879,0.00367741335853,0.0,0.818840184622,-0.573887113351,-0.0116223955695,0.0,-0.00740690036664,0.00968215553866,-0.999925694085,0.0,0.517305957712,0.0713260579797,0.304697486439,1.0,-0.31998,-0.420545142857,1.698
0.254646406504,-0.0665088231984,-0.131090033015,-2.20776663386,0.00217702558753,2.13563783532,-0.0515490861247,-0.679216599864,-1.07764694597,-0.0175483895571,-1.26773671241,-0.169617038951,0.158329975482,-0.614123827836,0.573818019574,0.818962904544,0.00365900177737,0.0,0.818937277624,-0.573748018938,-0.0116487331168,0.0,-0.00744067854266,0.00968093230994,-0.999925455148,0.0,0.511846229895,0.0642491481893,0.30467173516,1.0,-0.31998,-0.420545142857,1.715
0.243375852334,-0.0837210930128,-0.131417183189,-2.22738972431,-0.000567007152238,2.13822237908,-0.0613895752272,-0.711881689166,-1.0668294644,-0.0220737984225,-1.21365996455,-0.170219306703,0.155225039175,-0.627117091653,0.573903811518,0.818902277088,0.00377128715233,0.0,0.818878411485,-0.573833855373,-0.0115585696819,0.0,-0.00730138736039,0.00972192000578,-0.999926084275,0.0,0.506785443704,0.0574483047074,0.304732596998,1.0,-0.31998,-0.420545142857,1.731
0.231311510287,-0.101837378654,-0.131583478679,-2.24792943672,-0.00345537015941,2.1405907969,-0.0720544307716,-0.706387286056,-1.06818973343,-0.0120974966539,-1.19235307841,-0.176800869565,0.130838129059,-0.628779558311,0.573716355637,0.819033769838,0.00373818678515,0.0,0.819008997142,-0.573645894329,-0.0116360397672,0.0,-0.00738605621944,0.00973758241795,-0.999925310042,0.0,0.501309312293,0.0504310150441,0.304717855345,1.0,-0.31998,-0.420545142857,1.748
0.218688094791,-0.119731168474,-0.131928694607,-2.26799594099,-0.00638939593015,2.14265062273,-0.0830124403252,-0.757893712396,-1.06523337108,-0.0251672384635,-1.16284447921,-0.169889169053,0.12871048622,-0.653770060276,0.573829929006,0.818954612948,0.00364710978641,0.0,0.818928249805,-0.573759210255,-0.0117318890031,0.0,-0.00751546648293,0.0097190173892,-0.999924526384,0.0,0.495845910346,0.0432114522249,0.304675942842,1.0,-0.31998,-0.420545142857,1.765
0.20584391717,-0.137361090939,-0.132177630884,-2.28764829983,-0.00919585523851,2.14432671121,-0.0943256627917,-0.759341630619,-1.02671983682,-0.0141468708243,-1.13746541504,-0.164824781741,0.0881992179544,-0.672839224301,0.573771867176,0.818996043599,0.00347446517686,0.0,0.818965536468,-0.573699369266,-0.0120511693241,0.0,-0.0078767131678,0.00976027707782,-0.999921344097,0.0,0.490324841894,0.0361178489159,0.304558949436,1.0,-0.31998,-0.420545142857,1.782
0.192538774835,-0.154991842676,-0.13257454383,-2.3066191307,-0.0120808448976,2.14590651379,-0.106009557508,-0.802020495186,-1.02685322773,-0.0292256050104,-1.11889412836,-0.167486063683,0.0791768780745,-0.685362271832,0.573838409045,0.818948639634,0.00365415487288,0.0,0.818921118517,-0.57376605462,-0.011893826685,0.0,-0.00764395032907,0.00981778820097,-0.999922587533,0.0,0.484928629399,0.028899898621,0.304641991287,1.0,-0.31998,-0.420545142857,1.799
0.178980851438,-0.172360520338,-0.132865274258,-2.32509808466,-0.0148423896403,2.14706300215,-0.117957449939,-0.791578366445,-1.01826943423,-0.0112100119312,-1.07159976849,-0.161708638973,0.0691784706477,-0.723118739097,0.573839491817,0.818947293462,0.00378352526886,0.0,0.818921182319,-0.573766327494,-0.0118762571648,0.0,-0.00755531472631,0.00991366523143,-0.999922315213,0.0,0.479830860351,0.0222119665578,0.304702588503,1.0,-0.31998,-0.420545142857,1.815
0.166622135401,-0.187428603663,-0.133228341446,-2.34106941597,-0.0173853276948,2.14781548376,-0.128809614209,-0.825718907033,-1.0033509857,-0.0334043187773,-1.04965315769,-0.171488360738,0.0394765997178,-0.728508453241,0.573907107303,0.818900392599,0.00367778317187,0.0,0.81887210223,-0.573833275114,-0.0120249517041,0.0,-0.00773695226908,0.00991303014198,-0.999920932576,0.0,0.474673942025,0.0154224518887,0.304653385672,1.0,-0.31998,-0.420545142857,1.831
0.151520518543,-0.205361722943,-0.133542804701,-2.35964496441,-0.0202717934138,2.14859767387,-0.142231314645,-0.84600675405,-0.993804642258,-0.0204280340552,-1.02244543313,-0.152385798171,0.0316094193265,-0.760104571602,0.573842881846,0.818944580407,0.00385591451815,0.0,0.818918596615,-0.5737683868,-0.0119548035583,0.0,-0.0075780656324,0.0100180519102,-0.999921102666,0.0,0.468949953921,0.00790177153401,0.304704577289,1.0,-0.31998,-0.420545142857,1.849
0.136824477933,-0.22214465818,-0.133929361257,-2.3766673117,-0.0230833439401,2.14899503882,-0.155174992006,-0.864910639018,-0.980218925172,-0.0228393643378,-1.00064301812,-0.169410346018,0.0195901988258,-0.767726721327,0.573924640898,0.818886664918,0.00398540974974,0.0,0.818863004524,-0.573850536995,-0.0118189641614,0.0,-0.00739150492925,0.0100468927979,-0.999922209774,0.0,0.463540502139,0.000722095613293,0.304792069446,1.0,-0.31998,-0.420545142857,1.866
0.122829847871,-0.237584943318,-0.134152783878,-2.39242486502,-0.0256917643194,2.14906010874,-0.167746369593,-0.8813143194,-0.956817525941,-0.0225878009715,-0.978185863931,-0.153315996687,0.00721509554699,-0.793579040095,0.573697009625,0.819046808017,0.00384893815784,0.0,0.819020524558,-0.57362228647,-0.0119833100177,0.0,-0.00760720157508,0.010027341529,-0.999920788316,0.0,0.458366029762,-0.00588434337698,0.304724582493,1.0,-0.31998,-0.420545142857,1.882
0.1073525126,-0.253774698288,-0.134578057688,-2.4084745287,-0.0283192647966,2.14908019154,-0.181500155661,-0.918318605056,-0.933159562518,-0.017918369315,-0.935205867613,-0.156902169303,-0.0107013677391,-0.819419104019,0.573828772175,0.818953455354,0.00406510623728,0.0,0.818930099706,-0.573753410764,-0.0118853831927,0.0,-0.00740134956402,0.0101494081081,-0.999921101657,0.0,0.452984464451,-0.0130829511127,0.304778239113,1.0,-0.31998,-0.420545142857,1.899
0.0916416081736,-0.269774560166,-0.134926843837,-2.42413026399,-0.0309942966169,2.14893226141,-0.195618582759,-0.945417852205,-0.931253010615,-0.0303109011156,-0.894266609548,-0.157976025012,-0.00983632783911,-0.857103890957,0.573750901206,0.81900713518,0.00423825320628,0.0,0.818986884301,-0.573676170454,-0.0116996451758,0.0,-0.0071508456852,0.0101839518243,-0.999922573268,0.0,0.447587469252,-0.0201875131788,0.304827796764,1.0,-0.31998,-0.420545142857,1.916
0.0764603532658,-0.284545234167,-0.135290851935,-2.43844869381,-0.0334349936381,2.14843135152,-0.209268717863,-0.94812257076,-0.921018455893,-0.014328346717,-0.900649676316,-0.147776353926,-0.0393227806088,-0.856049257198,0.573751849266,0.81900611872,0.00430579423182,0.0,0.818986321832,-0.573676297638,-0.0117327355101,0.0,-0.00713918753031,0.0102582627797,-0.999921896973,0.0,0.442461085231,-0.0268995088143,0.304829137044,1.0,-0.31998,-0.420545142857,1.932
0.0598965010074,-0.300022768662,-0.13576160617,-2.45307735342,-0.0360382758877,2.14778847586,-0.224183534506,-0.990033052116,-0.909140255674,-0.0317414360645,-0.86983844153,-0.152155957112,-0.046866155349,-0.88221051871,0.573826294813,0.818952766838,0.00452724768025,0.0,0.81893665653,-0.573751253971,-0.0115324784448,0.0,-0.0068471729266,0.0103253672499,-0.999923248562,0.0,0.436750477667,-0.0345240296991,0.304921165865,1.0,-0.31998,-0.420545142857,1.95
0.0420643725804,-0.315958278237,-0.136139148926,-2.46816889441,-0.0387215799103,2.14678400571,-0.240331395262,-1.0042224981,-0.895603397163,-0.0233559030424,-0.808749690625,-0.153496160863,-0.0652661594884,-0.911262169386,0.573770673965,0.818991878127,0.0045015730505,0.0,0.818974868038,-0.573694867259,-0.0116237560039,0.0,-0.00693736597265,0.0103562449012,-0.999922307554,0.0,0.431289219898,-0.0416037848029,0.304877541636,1.0,-0.31998,-0.420545142857,1.967
0.0247487278219,-0.330655988038,-0.136574308569,-2.4816743615,-0.0411423243111,2.14574353069,-0.256068240342,-1.01563475038,-0.857817669465,-0.0132921565334,-0.796892520413,-0.133608263446,-0.0684828621712,-0.930700059839,0.573823928566,0.818953364689,0.00471512153363,0.0,0.818939591614,-0.57374820824,-0.0114754402391,0.0,-0.00669268671848,0.0104464830303,-0.999923036507,0.0,0.425927737147,-0.0487577841848,0.30494841969,1.0,-0.31998,-0.420545142857,1.984
0.00809562694689,-0.344175611517,-0.137026300964,-2.49418210182,-0.0434872003989,2.14452124764,-0.271241475031,-1.05724666541,-0.82080919598,-0.0386316848331,-0.763041964177,-0.134600400484,-0.0892686089133,-0.954214935788,0.573858860124,0.818929112964,0.00467584193958,0.0,0.818914117907,-0.573782142773,-0.0115959919493,0.0,-0.00681351197481,0.0104837775446,-0.999921830176,0.0,0.420769038196,-0.0555037403198,0.304890217583,1.0,-0.31998,-0.420545142857,2.0
-0.0109736410696,-0.359029060048,-0.137421092971,-2.50744284444,-0.0460211780243,2.14303196536,-0.288830748461,-1.07733026795,-0.790320061124,-0.0278898759582,-0.727727463423,-0.132522822072,-0.078515092111,-0.994447966998,0.573700788464,0.819039175382,0.00479389262247,0.0,0.819026656325,-0.573625241803,-0.0114089919277,0.0,-0.00659464049296,0.0104718751259,-0.999923422342,0.0,0.415402732845,-0.0626029416412,0.304969072658,1.0,-0.31998,-0.420545142857,2.017
-0.0272684153111,-0.37108848102,-0.137842956112,-2.51828900436,-0.0481132949849,2.1416153845,-0.303792786059,-1.08807765167,-0.778883184047,-0.0140575575804,-0.728526548969,-0.138731068358,-0.0918149762963,-0.999423222581,0.573743853147,0.819009090571,0.00477989949443,0.0,0.818995572919,-0.573667047692,-0.0115376268263,0.0,-0.00670747956291,0.0105345618194,-0.999922013322,0.0,0.410239537749,-0.0693466343617,0.304919544616,1.0,-0.31998,-0.420545142857,2.033
-0.0472175941662,-0.385146652525,-0.138341117673,-2.53050772076,-0.0505465658529,2.13978431991,-0.322121669039,-1.11910895023,-0.762450039235,-0.0146004440785,-0.669912251418,-0.141248563358,-0.0968394986357,-1.0227228093,0.573839105315,0.818941781074,0.00487722508999,0.0,0.818929901737,-0.573762609185,-0.011446887949,0.0,-0.00657609202164,0.0105629807731,-0.999922586229,0.0,0.404518242229,-0.0769427013675,0.304983816998,1.0,-0.31998,-0.420545142857,2.051
-0.0664004024006,-0.397956958773,-0.138738421756,-2.54167533556,-0.0527193322956,2.13801406713,-0.339986987726,-1.14575924973,-0.7487030344,-0.0344453367727,-0.638430217255,-0.124777573032,-0.108074985208,-1.06283017443,0.573754732871,0.819000549169,0.0049349640879,0.0,0.818989038107,-0.573677478499,-0.011482727256,0.0,-0.00657340873269,0.0106301552643,-0.999921891998,0.0,0.399081370786,-0.0840495562116,0.304965302397,1.0,-0.31998,-0.420545142857,2.068
-0.084737568417,-0.40959026029,-0.139125955642,-2.55166401756,-0.0547016086482,2.13612162432,-0.357135100956,-1.15192424015,-0.712049827748,-0.0243142148415,-0.610207368074,-0.12272137868,-0.110456876696,-1.09046709476,0.573680089698,0.819052791007,0.0049423809325,0.0,0.819040380503,-0.573601223432,-0.0116292081958,0.0,-0.00669010848577,0.0107196611472,-0.99992016247,0.0,0.39395258287,-0.0907167572292,0.304947647215,1.0,-0.31998,-0.420545142857,2.084
-0.104679430204,-0.421598358247,-0.139546415451,-2.5616655459,-0.0568319912331,2.13429488396,-0.37578233139,-1.17270130726,-0.692550017799,-0.0131872870312,-0.588757752723,-0.131017845386,-0.112622081918,-1.11204042041,0.573636242266,0.819082698225,0.00507365036193,0.0,0.819073523757,-0.573559522073,-0.0113483135642,0.0,-0.00638528975433,0.0106657019771,-0.999922732453,0.0,0.388578812208,-0.0978750249449,0.305035021102,1.0,-0.31998,-0.420545142857,2.101
-0.124972181412,-0.433010803912,-0.140009386614,-2.57136655737,-0.0588340778625,2.13212806646,-0.394779954683,-1.20240553399,-0.656667590043,-0.0310564866159,-0.552566199988,-0.114199719351,-0.119744708811,-1.119205238,0.573683590724,0.819049921763,0.00501101748432,0.0,0.819037967001,-0.573603809812,-0.0116715415203,0.0,-0.00668536516302,0.0108001933588,-0.999919327604,0.0,0.383062043995,-0.104997647356,0.304949040478,1.0,-0.31998,-0.420545142857,2.118
-0.144292863437,-0.443366019149,-0.140349707236,-2.57979070123,-0.060554980831,2.13022223461,-0.413095069858,-1.2231591474,-0.642768334791,-0.0272740677098,-0.507316352587,-0.100731528414,-0.112132868616,-1.15123952059,0.573577008374,0.819123570313,0.00517096925536,0.0,0.819114040996,-0.573497327911,-0.0115650172238,0.0,-0.0065077664431,0.0108692507704,-0.999919750962,0.0,0.377999535472,-0.11164988692,0.305014309323,1.0,-0.31998,-0.420545142857,2.134
-0.166550071712,-0.454343947438,-0.140794608906,-2.58876618643,-0.0626025170639,2.12808011147,-0.434123807686,-1.23491565398,-0.590398845046,-0.0187159222458,-0.49485315559,-0.104399627455,-0.1235974212,-1.17082878246,0.573549047557,0.819143249953,0.00515490091017,0.0,0.819133674132,-0.573469690042,-0.0115449299344,0.0,-0.00650089716224,0.0108443452776,-0.999920066061,0.0,0.37225004688,-0.119231948601,0.305014053727,1.0,-0.31998,-0.420545142857,2.152
-0.18787138458,-0.464174071965,-0.141263925868,-2.59675454979,-0.0644152050374,2.12597060707,-0.454398044758,-1.25701631225,-0.556918672104,-0.0329712387177,-0.461520829477,-0.0933464768621,-0.1205872632,-1.20980157174,0.573534873527,0.819153177443,0.00515438009554,0.0,0.819142739959,-0.573454100826,-0.0116753038433,0.0,-0.00660818906596,0.0109185771638,-0.999918554938,0.0,0.366776799852,-0.126373313588,0.30498594774,1.0,-0.319294285714,-0.419643918367,2.169
-0.208143545182,-0.472761465654,-0.14157686804,-2.60360081187,-0.0658771900377,2.1241649679,-0.473643613749,-1.26643346614,-0.524061752732,-0.00507480082638,-0.407570399839,-0.0964462573785,-0.112648374473,-1.1975232686,0.573595740462,0.819109744133,0.00528209160002,0.0,0.819100970166,-0.573514560816,-0.0116359832343,0.0,-0.00650191598767,0.0110011285792,-0.999918346796,0.0,0.361738479414,-0.133033790037,0.305002638651,1.0,-0.311065714286,-0.40882922449,2.185
-0.229666183237,-0.481091455538,-0.141850850418,-2.61009999384,-0.0672682822893,2.12232404393,-0.494007232462,-1.26186821977,-0.482128859433,-0.0135761318131,-0.374771688776,-0.086314836004,-0.111083853762,-1.17883132313,0.573779729371,0.818979815253,0.00544346135426,0.0,0.818973479075,-0.573698611287,-0.0115365020776,0.0,-0.00632537790377,0.011077674803,-0.999918634047,0.0,0.356514967903,-0.140012855508,0.30505460967,1.0,-0.302322857143,-0.397338612245,2.202
-0.250848429409,-0.488650276003,-0.141879521624,-2.61615270706,-0.0684703415617,2.12046622482,-0.514185726831,-1.25808342681,-0.4217576373,-0.00591692782519,-0.34682600844,-0.0689597571506,-0.111318031252,-1.18197249457,0.573762049842,0.818992011986,0.00547187038863,0.0,0.81898467447,-0.573678457747,-0.0117421037612,0.0,-0.00647771973499,0.0112187675085,-0.999916085681,0.0,0.351368122623,-0.14667416066,0.305002574463,1.0,-0.29358,-0.385848,2.219
-0.270548519692,-0.495020192638,-0.141849424205,-2.6211610611,-0.0694753588887,2.11896010041,-0.532951489382,-1.21308142584,-0.386323762394,0.00678970327053,-0.298874748995,-0.0532296877677,-0.0856442647915,-1.16338186098,0.573786075145,0.818974734488,0.00553815315131,0.0,0.818968081012,-0.573701942978,-0.0117520129567,0.0,-0.00644747660138,0.0112789292025,-0.999915604339,0.0,0.346704881634,-0.152811850736,0.304993676943,1.0,-0.285351428571,-0.375033306123,2.235
-0.29234251221,-0.501403882293,-0.141737020286,-2.62612058886,-0.0704659645037,2.11735215028,-0.553688953975,-1.19625245952,-0.340546970965,-0.000990897213531,-0.262290864714,-0.042886380847,-0.0853411955145,-1.14751509785,0.573857585939,0.8189242722,0.00559056016382,0.0,0.818918042422,-0.573772806022,-0.0117793788739,0.0,-0.00643883184636,0.0113381148037,-0.999914990685,0.0,0.341613141491,-0.159514236022,0.304993224573,1.0,-0.276094285714,-0.36286677551,2.253
-0.312506948801,-0.506702117998,-0.141550222309,-2.63016202773,-0.0712413094676,2.11602951011,-0.572957522821,-1.16963082086,-0.304746419971,0.0231695366474,-0.225258507259,-0.0464959065824,-0.0714321140875,-1.13221357235,0.573888436835,0.818902119339,0.00566814871813,0.0,0.81889727179,-0.573804047485,-0.011701292452,0.0,-0.00632992838249,0.0113570866147,-0.999915470723,0.0,0.336989572147,-0.165646674682,0.30502102421,1.0,-0.267351428572,-0.351376163265,2.27
-0.331121902465,-0.511131398459,-0.141370297092,-2.63349886359,-0.0717656317565,2.1149000481,-0.590755713484,-1.16368478132,-0.264110748333,0.00196081334306,-0.202234769729,-0.0315248102451,-0.0663275154658,-1.10930558724,0.574007588969,0.818817378261,0.00584258201868,0.0,0.818815002939,-0.573922967265,-0.0116260702292,0.0,-0.00616655506117,0.0114576669498,-0.99991534415,0.0,0.332759834952,-0.171250028769,0.305055512574,1.0,-0.259122857143,-0.340561469388,2.286
-0.350261531436,-0.515191572011,-0.140992424319,-2.63670499625,-0.0722976409036,2.11369477498,-0.609259906647,-1.10860912546,-0.226196233633,0.0271890793298,-0.179669508074,-0.0263369993536,-0.0626914815742,-1.07430765773,0.573842295783,0.818933317895,0.00582986391181,0.0,0.818929573743,-0.573755535395,-0.011818872804,0.0,-0.00633407397973,0.0115566395728,-0.999913158024,0.0,0.328389670678,-0.176887507476,0.305005995979,1.0,-0.25038,-0.329070857143,2.303
-0.370152915966,-0.518785273928,-0.140697218027,-2.63958183313,-0.0727467352345,2.11268053529,-0.628339859469,-1.08408946938,-0.182103799777,0.0164614115548,-0.147115098486,-0.00823943420844,-0.0532453435525,-1.06102708551,0.57393540305,0.818867594349,0.00589601163927,0.0,0.818863659265,-0.573846451458,-0.0119709893037,0.0,-0.00641937344894,0.0116988294756,-0.999910960553,0.0,0.323899970218,-0.182753606993,0.304943826055,1.0,-0.241122857143,-0.316904326531,2.321
-0.386267699402,-0.52136762114,-0.140417151436,-2.64155214513,-0.073061445398,2.11194760686,-0.643812140805,-1.06561596414,-0.167917128604,0.0180438008396,-0.122948166284,-0.0200115031701,-0.0435792774052,-1.0183381586,0.574011307707,0.818813990323,0.00595103162867,0.0,0.818810703254,-0.573921993908,-0.0119718021377,0.0,-0.00638737411835,0.0117449443202,-0.999910624873,0.0,0.320307212627,-0.187485887181,0.30494226692,1.0,-0.233408571429,-0.306765551021,2.336
-0.404923926051,-0.523931156914,-0.139955026764,-2.6435025991,-0.0733349752969,2.11116642743,-0.661901778848,-1.03729434612,-0.125755357763,0.0173683407456,-0.100337548993,-0.0200668718241,-0.0426735149373,-0.999030675429,0.573915089379,0.818881262816,0.00597448690188,0.0,0.818878124671,-0.573825411866,-0.0119900180673,0.0,-0.00639021176033,0.011773855604,-0.999910266733,0.0,0.316185008884,-0.192901331999,0.304941576703,1.0,-0.224151428572,-0.294599020408,2.354
-0.421094167958,-0.525793971288,-0.139601945242,-2.64490282023,-0.0735051922922,2.11061019649,-0.67750844284,-0.990136659174,-0.110004872126,0.0276741224187,-0.0820163617742,-0.00164935909776,-0.0273587636871,-0.970927288126,0.573970764093,0.818841765986,0.00603913433375,0.0,0.81883956899,-0.573880995325,-0.0119628743111,0.0,-0.00633007857848,0.0118116496749,-0.999910203487,0.0,0.3126288302,-0.197596363446,0.304949086689,1.0,-0.215922857143,-0.283784326531,2.37
-0.436741554903,-0.52730844561,-0.139232911192,-2.64601466729,-0.0736296909567,2.11014880804,-0.69262319283,-0.970510039206,-0.0929137807117,0.0223000237382,-0.0623609070769,-0.00853907957408,-0.0262785298947,-0.933136871864,0.574026616845,0.818802222823,0.00609179399974,0.0,0.8188010296,-0.573937221904,-0.0119031987086,0.0,-0.00625017857202,0.0118209476733,-0.999910596235,0.0,0.30920236664,-0.202122336589,0.304967888363,1.0,-0.207694285714,-0.272969632653,2.386
-0.452671705884,-0.528497965435,-0.138733920797,-2.64693144576,-0.0736827202755,2.1097437823,-0.708076277972,-0.921552304799,-0.0634125304057,0.0308547077178,-0.0450451599531,-0.00359445621915,-0.0129875263733,-0.904859245001,0.57398795008,0.818829242593,0.00610340382899,0.0,0.818828156735,-0.573898433958,-0.011907314577,0.0,-0.00624744375976,0.0118325218048,-0.99991047643,0.0,0.305734383985,-0.206678952228,0.30496430084,1.0,-0.198951428572,-0.261479020408,2.403
-0.469057517635,-0.529412544273,-0.138257511304,-2.64763209966,-0.0736948415544,2.10939020921,-0.723828733083,-0.883426380086,-0.0411531284543,0.0330810943831,-0.0318693206983,-0.000544799270222,-0.0206059368764,-0.860120359651,0.574123721543,0.818733821543,0.00613422563544,0.0,0.81873302906,-0.57403384819,-0.0119212063047,0.0,-0.00623916177124,0.0118667689364,-0.999910122289,0.0,0.302162205561,-0.211364455003,0.304962018071,1.0,-0.189694285714,-0.249312489796,2.421
-0.482819165153,-0.529889422821,-0.137753214126,-2.64799601718,-0.0736896207599,2.10918015472,-0.737292020689,-0.854122135812,-0.0237174973186,0.026770514796,-0.0165528434295,-0.00182301467734,-0.0129458477573,-0.824867294119,0.573993091251,0.818825711422,0.00609363705011,0.0,0.818824525342,-0.573903664061,-0.011904955975,0.0,-0.00625104376714,0.0118232095799,-0.999910564084,0.0,0.299194037162,-0.215280432122,0.304965877857,1.0,-0.181465714286,-0.238497795918,2.437
-0.496951720748,-0.530129715143,-0.13724324393,-2.64819929689,-0.0736724901399,2.10900330423,-0.751016103072,-0.801939905018,-0.00251284491474,0.0408704767682,-0.0124225113617,0.000272820501963,-0.00636867798871,-0.794389982631,0.573963457932,0.818846901636,0.00603717987989,0.0,0.818844875201,-0.573874064716,-0.011932103904,0.0,-0.00630610676682,0.0117923324614,-0.999910582959,0.0,0.296137731275,-0.219298596055,0.3049593539,1.0,-0.172722857143,-0.227007183674,2.454
-0.510403148211,-0.530231192482,-0.13670043206,-2.64828416231,-0.0736100237519,2.10890145021,-0.764080247589,-0.787710865307,-0.00621669218357,0.0251186641668,-0.00112965463378,0.00404475717603,-0.00305788416484,-0.743589859721,0.573919567674,0.818878067643,0.00598222997856,0.0,0.818875520852,-0.573830765359,-0.011911380193,0.0,-0.00632130209289,0.0117351017974,-0.999911160317,0.0,0.293229326954,-0.223094614912,0.304963275328,1.0,-0.16398,-0.215516571429,2.471
-0.522539741238,-0.530129787519,-0.136166034665,-2.64825547148,-0.0735032935491,2.10886888637,-0.775847800092,-0.724104279066,0.0118331178612,0.0426164869667,0.000221374867321,0.0143556465262,0.00196957036965,-0.716427022,0.573892438586,0.81889743409,0.0059336562123,0.0,0.818894245697,-0.573803815984,-0.0119223331912,0.0,-0.0063585359028,0.0117013990851,-0.999911319208,0.0,0.290608258934,-0.22649884263,0.304950494576,1.0,-0.155751428572,-0.204701877551,2.487
-0.534676431799,-0.529893231934,-0.135578174263,-2.64812601804,-0.0733165271835,2.10886985196,-0.78766090957,-0.708643434302,0.0174763576753,0.0290169997187,0.0117891644484,0.00795150936907,-0.00148537243312,-0.674857833789,0.573830253665,0.818941155475,0.0059136072314,0.0,0.818937647001,-0.573741614266,-0.0119347092399,0.0,-0.00638106487134,0.0116915979214,-0.99991129034,0.0,0.28799214646,-0.22987636416,0.304938458076,1.0,-0.147008571429,-0.193211265306,2.504
-0.546328508614,-0.529533239924,-0.135052080888,-2.64788644005,-0.073082798133,2.10888589255,-0.798864083292,-0.663342349582,0.0222806713883,0.0377475630906,0.0162894235863,0.0194627745994,0.00719977110525,-0.645137518625,0.573940385892,0.818863748499,0.0059448916904,0.0,0.818860502147,-0.573851333181,-0.0119529214753,0.0,-0.00637645282908,0.0117285271693,-0.999910887279,0.0,0.285468768445,-0.23312058618,0.304931079809,1.0,-0.138265714286,-0.181720653061,2.521
-0.556463975561,-0.529042583868,-0.134442950318,-2.64757770288,-0.0727735615175,2.10894919365,-0.808835320491,-0.631894164798,0.0333032859951,0.04017580774,0.0211265180006,0.00866592524771,-0.00086128374425,-0.607808809279,0.57379497483,0.818965444046,0.00597287368901,0.0,0.818962273044,-0.573705306783,-0.0119901292933,0.0,-0.0063929553129,0.01177166079,-0.999910275037,0.0,0.283311454789,-0.235900602809,0.304913549545,1.0,-0.130037142857,-0.170905959184,2.537
-0.567453486453,-0.528417342882,-0.133910652403,-2.64712333868,-0.072472621224,2.10903637497,-0.819320674044,-0.594738357367,0.0372882550906,0.0287205055478,0.0265889499934,0.0159888316779,0.00233822818835,-0.568166398159,0.573986458257,0.818830881456,0.0060233057526,0.0,0.818828310798,-0.573896439251,-0.0119925540273,0.0,-0.00636324237324,0.011815844378,-0.999909943429,0.0,0.280943951551,-0.238955184594,0.3049129692,1.0,-0.12078,-0.158739428572,2.555
-0.576861979332,-0.527663120833,-0.133269711907,-2.64661917955,-0.072127796386,2.10917661482,-0.82858535309,-0.538206020823,0.0476879496236,0.0382044573682,0.0309630486553,0.0205675390569,0.00249596841945,-0.526297764808,0.573831302832,0.81893959832,0.0060263666109,0.0,0.818936921055,-0.573741031562,-0.0120122827478,0.0,-0.00637988304497,0.0118284657112,-0.999909688168,0.0,0.279304651968,-0.241096161212,0.304898419259,1.0,-0.11358,-0.149276571429,2.569
-0.585267662707,-0.526955074056,-0.132741157172,-2.64612657914,-0.0718320578716,2.10928458225,-0.836685677222,-0.508808950263,0.0416844977305,0.0291003951381,0.0305800216664,0.0161941540566,0.00750026535936,-0.493628402531,0.573858657106,0.81892027393,0.00604760380839,0.0,0.818917495896,-0.573767591043,-0.0120678616428,0.0,-0.00641282096024,0.011877964131,-0.999908890697,0.0,0.277181856967,-0.243840317715,0.304882785774,1.0,-0.103808571429,-0.136434122449,2.588
-0.593642308232,-0.526171094767,-0.132210516802,-2.64554251083,-0.071492797176,2.10940216671,-0.844640347296,-0.478818351703,0.0516692427469,0.0302501099676,0.037519651104,0.0253003308708,0.00488355973742,-0.456245984659,0.574005133517,0.818817311164,0.00608806504701,0.0,0.818814921972,-0.573913605298,-0.0120848711391,0.0,-0.00640140157826,0.0119220061137,-0.999908439722,0.0,0.275408999138,-0.246143697998,0.304885032513,1.0,-0.0950657142858,-0.124943510204,2.605
-0.601075690374,-0.525330405233,-0.131552452163,-2.64496295815,-0.0710969233259,2.10956454845,-0.851930327172,-0.419825691652,0.046413809746,0.0390743743706,0.0393421795189,0.0318909602972,0.00899138584617,-0.40750515537,0.573858915436,0.818919682767,0.00610288886735,0.0,0.818917235952,-0.573766886381,-0.0121188965832,0.0,-0.00642289106261,0.0119525278553,-0.999907937536,0.0,0.273887024242,-0.248145784869,0.304871249003,1.0,-0.0863228571429,-0.113452897959,2.622
-0.607995554456,-0.524570480476,-0.130942567755,-2.64441385238,-0.0707525740921,2.10970388088,-0.858579804439,-0.39081066762,0.0461978785876,0.0356465499563,0.0276454115118,0.0198172962894,0.011722834985,-0.379639561673,0.573826547354,0.818942406182,0.00609719696202,0.0,0.818939797643,-0.573734387619,-0.0121328974867,0.0,-0.00643809664979,0.0119556461037,-0.999907802469,0.0,0.272455530083,-0.25000540376,0.304869709126,1.0,-0.0775800000001,-0.101962285714,2.639
-0.613942036166,-0.523870362283,-0.130347524747,-2.64388332663,-0.0704007457723,2.10984701735,-0.864185888476,-0.358485767108,0.0466329835301,0.038770934243,0.0324914297117,0.0222612458668,0.00761213845674,-0.342875225254,0.573863659375,0.818916413945,0.00609543446883,0.0,0.818913947088,-0.573771805589,-0.012108231798,0.0,-0.00641836489562,0.0119403403968,-0.99990811221,0.0,0.27125175695,-0.251592204023,0.304881354221,1.0,-0.0693514285715,-0.0911475918369,2.655
-0.619590447851,-0.523122082406,-0.129800524823,-2.64333521209,-0.0700186450824,2.10999178717,-0.869515292067,-0.318151655942,0.0436291897374,0.0287015041648,0.0338258718352,0.0241537803633,0.00362237272065,-0.298186273594,0.573930048615,0.818869576677,0.00613698551196,0.0,0.818867559449,-0.573837826044,-0.0121167810804,0.0,-0.00640055219984,0.0119797937513,-0.999907754482,0.0,0.270047979308,-0.25318484981,0.304880137529,1.0,-0.0600942857144,-0.0789810612246,2.673
-0.624742714727,-0.522445930637,-0.129118126793,-2.64284119047,-0.0695951259691,2.11013190945,-0.874422366326,-0.269965949677,0.0361919988972,0.0391644342722,0.0269739653081,0.0263266093876,0.0148987480254,-0.254890124241,0.573856302402,0.818921150197,0.00615149211648,0.0,0.818919384787,-0.573764149061,-0.012103279468,0.0,-0.00638224878152,0.0119833500586,-0.999907828863,0.0,0.269107185312,-0.25442993938,0.30488737854,1.0,-0.0513514285715,-0.0674904489797,2.69
-0.629011029376,-0.521937860159,-0.128461017612,-2.6424609963,-0.0692350472878,2.11025022338,-0.878425641429,-0.241357958686,0.0265411067768,0.0353947160967,0.0266073673983,0.0195028720905,0.0055040101084,-0.218156411094,0.573782225068,0.818973241453,0.00612657162452,0.0,0.818971376853,-0.57369061968,-0.0120707782814,0.0,-0.00637101040589,0.0119437147729,-0.999908374754,0.0,0.268286630039,-0.25549785174,0.304899936248,1.0,-0.0426085714287,-0.0559998367348,2.707
-0.63247730729,-0.521497355891,-0.127870643425,-2.64211131966,-0.0688897421636,2.1103666469,-0.881555968668,-0.207875178098,0.0294244232858,0.0397719500018,0.020693271857,0.023985529836,0.00243652462386,-0.186206823199,0.573805173475,0.818957249767,0.00611496921199,0.0,0.818955641337,-0.573714377646,-0.0120090510321,0.0,-0.00632677545979,0.0118989732356,-0.999909189051,0.0,0.267646187749,-0.256357877677,0.30492149283,1.0,-0.0343800000001,-0.0451851428573,2.723
-0.635334179791,-0.521066973409,-0.127366207553,-2.64184165037,-0.0685444832875,2.110436326,-0.884107746798,-0.166754013399,0.029115653054,0.0363372478118,0.0153913141754,0.0230751393493,0.00225658192573,-0.141044376201,0.573859719119,0.818918734453,0.00615435092529,0.0,0.818917243659,-0.573767998986,-0.0120655823864,0.0,-0.00634968409394,0.0119640861612,-0.99990826687,0.0,0.267115492858,-0.257045868756,0.304904220527,1.0,-0.0261514285715,-0.0343704489797,2.739
-0.637719724192,-0.520745084001,-0.12681411746,-2.64162833134,-0.0681986032406,2.11047257988,-0.886144240756,-0.126947015387,0.0179870982266,0.0294800510455,0.00787194159138,0.0123582988469,0.001655746658,-0.108754274922,0.573913470861,0.818880923941,0.00617310870697,0.0,0.818879404866,-0.573821143121,-0.0121063163749,0.0,-0.00637149391473,0.0120032407337,-0.999907658875,0.0,0.266698883082,-0.257579374481,0.304899410038,1.0,-0.01988,-0.026128,2.756
-0.63967141593,-0.520496747313,-0.12638899201,-2.64146117656,-0.0679382498625,2.11053090238,-0.887864079773,-0.108177526705,0.0179234517662,0.0247965457296,0.00514339454732,0.0124973147504,0.00261126894529,-0.0984642998696,0.573922117714,0.818874803105,0.00618114389144,0.0,0.818873392135,-0.573829758872,-0.0121046432416,0.0,-0.00636538559571,0.0120089279581,-0.999907629492,0.0,0.266352767821,-0.258025842778,0.304899370619,1.0,-0.01954,-0.0256811428571,2.773
-0.64130990841,-0.520242276034,-0.126073803048,-2.64125253013,-0.0677579916753,2.11058041322,-0.889444918123,-0.0907469757788,0.0146262873643,0.0164327426265,0.0129546028953,0.00932263606015,0.000986170729519,-0.0899202778011,0.573833789702,0.818936787725,0.00616979807888,0.0,0.818935368386,-0.573741762935,-0.0120829951279,0.0,-0.00635546075174,0.0119865275256,-0.999907961403,0.0,0.266064101675,-0.258430088203,0.304912447142,1.0,-0.0192,-0.0252342857143,2.79
-0.642817596486,-0.519986875953,-0.125878101915,-2.64105144916,-0.0676441583904,2.11065222179,-0.890926822105,-0.0896459612165,0.0185737754811,0.00580454763852,0.0087585377846,0.00397157375538,0.000921486209742,-0.0793402103919,0.573775313846,0.81897783898,0.00615917046474,0.0,0.818976481464,-0.573683723706,-0.0120521726681,0.0,-0.00633716848971,0.0119596851721,-0.999908398918,0.0,0.265778751822,-0.258833398393,0.304920722081,1.0,-0.01886,-0.0247874285714,2.807
-0.644305943047,-0.519754936965,-0.125732933632,-2.64088916865,-0.0676138888285,2.11066111214,-0.892381350021,-0.086135806907,0.0165937138111,0.00749002460727,0.0119701566164,-0.000278482698643,0.00284764511163,-0.0860511727145,0.573721693593,0.819015741195,0.00611399019276,0.0,0.819013497177,-0.573629753032,-0.0121055681335,0.0,-0.00640760753939,0.0119528976712,-0.999908031172,0.0,0.265461015981,-0.25923256267,0.304913348504,1.0,-0.01852,-0.0243405714286,2.824
-0.645677216666,-0.519561616988,-0.125633437277,-2.64073006056,-0.0675735254062,2.110681962,-0.893718222407,-0.0826529393544,0.00768687051503,0.00352121114518,0.0116643643132,0.000598174683566,0.00297846589886,-0.0718988269196,0.573704869058,0.819027655967,0.00609662864828,0.0,0.819025169078,-0.573612977435,-0.0121107983061,0.0,-0.00642209708252,0.0119415461776,-0.999908073847,0.0,0.265166116093,-0.259610779433,0.30491866857,1.0,-0.0182,-0.02392,2.84
-0.647059723837,-0.519339807436,-0.125573829208,-2.6405270916,-0.0675362877889,2.1107862883,-0.895095351311,-0.0804239683324,0.0157339613121,0.00153728178016,0.0137165930468,0.0029007096061,0.0121667432527,-0.0840230442802,0.573693331865,0.819035842331,0.00608250369067,0.0,0.819033781276,-0.573602640377,-0.0120176113603,0.0,-0.00635403660112,0.0118764281578,-0.999909284222,0.0,0.264881523562,-0.260023106616,0.304939591897,1.0,-0.01786,-0.0234731428571,2.857
-0.648409010486,-0.5191260487,-0.125557756223,-2.64034726298,-0.0675036910078,2.11082220666,-0.896468453288,-0.0767305880692,0.0114522049297,4.84565521151e-05,0.0124204659669,0.00192576598327,-0.000397879814664,-0.0775814314229,0.573685703082,0.819041082437,0.00609641371981,0.0,0.819039253709,-0.573595050497,-0.0120069076314,0.0,-0.00633739990229,0.0118816221478,-0.999909328098,0.0,0.264579091337,-0.260420955155,0.304946076972,1.0,-0.01752,-0.0230262857143,2.874
-0.649740030012,-0.518917815123,-0.125570635005,-2.64018029139,-0.0674830608773,2.11082620557,-0.89776079462,-0.0820152149449,0.0187801533412,-0.000886528931292,0.0104432506265,0.000310803020943,-0.000653044250553,-0.0835169862509,0.573744084417,0.819000019886,0.00611881729282,0.0,0.818998278915,-0.573652941913,-0.0120361235781,0.0,-0.0063476301203,0.0119171849768,-0.999908839992,0.0,0.264265574011,-0.260813484414,0.304945323,1.0,-0.01718,-0.0225794285714,2.891
-0.650986224386,-0.518719099225,-0.125572870393,-2.64001946376,-0.0674538593611,2.11086495792,-0.899013287851,-0.0771962144451,0.0112047775132,-0.00069623515016,0.0109175908345,0.0026620050308,0.00324888275683,-0.0803619078115,0.573761376201,0.818987752048,0.00613938733641,0.0,0.818986316227,-0.573670212319,-0.012026979336,0.0,-0.00632808696878,0.0119289201026,-0.999908823934,0.0,0.263981028145,-0.261183528966,0.304948492927,1.0,-0.01686,-0.0221588571429,2.907
-0.652208411453,-0.518531224086,-0.125562606026,-2.63985505416,-0.0674257388509,2.11093950718,-0.900252305661,-0.0749121972312,0.00789521096343,0.00084517106314,0.00775113013773,0.00293540908262,0.0011958595469,-0.0742949855767,0.573760798212,0.81898809543,0.00614759146198,0.0,0.818987126989,-0.573670281636,-0.0119683204942,0.0,-0.00627534230146,0.0119019805394,-0.999909477372,0.0,0.263711602633,-0.261550467495,0.304960621527,1.0,-0.01654,-0.0217382857143,2.923
-0.653373170484,-0.51832104201,-0.125547462171,-2.63968900753,-0.0673996747322,2.11097644674,-0.901400738248,-0.070224980305,0.00842898618193,-0.000158032784547,0.00864385993346,-0.000483550475661,0.00186847250832,-0.0670483280653,0.573783243591,0.818972311133,0.00615547501404,0.0,0.818971437656,-0.573692674918,-0.0119685399936,0.0,-0.00627067266313,0.0119087352003,-0.999909426243,0.0,0.263451548498,-0.26189589582,0.304962170248,1.0,-0.01622,-0.0213177142857,2.939
-0.654702667789,-0.518058263907,-0.125504881033,-2.63950419057,-0.0673617377241,2.11100758898,-0.90280346505,-0.0694649857346,0.0130570040732,0.00207484105104,0.00898795124537,0.001486172843,0.000166362886618,-0.0724253458323,0.573719063526,0.819017216248,0.00616299743952,0.0,0.819016187317,-0.573627996085,-0.0120064116452,0.0,-0.00629831123372,0.0119361317183,-0.99990892587,0.0,0.2631571382,-0.262280381316,0.304953016893,1.0,-0.01584,-0.0208182857143,2.958
-0.65581992058,-0.517857984883,-0.125473984088,-2.63935856353,-0.0673435256384,2.11103831591,-0.903871273447,-0.0662284387897,0.00919569824261,0.00202435616697,0.00988505357794,0.000268909463625,0.00209763361682,-0.0657240698123,0.573753101301,0.818993402127,0.00615897082158,0.0,0.818992213823,-0.573661841335,-0.0120246577837,0.0,-0.00631507043012,0.0119435637941,-0.99990873142,0.0,0.262905964738,-0.262604171213,0.304948745069,1.0,-0.01552,-0.0203977142857,2.974
-0.656987846965,-0.517650956255,-0.125448941381,-2.63918752172,-0.0673134433764,2.11108754116,-0.90504627079,-0.0654408383532,0.0117472421371,0.00359255300663,0.00998902277784,0.000466936637756,0.00490996438256,-0.0780361846431,0.573751261282,0.818994657851,0.00616339923986,0.0,0.818993650761,-0.573660216794,-0.0120042734567,0.0,-0.00629586010312,0.0119354816761,-0.999908949066,0.0,0.26264940889,-0.262950176566,0.304954966954,1.0,-0.01518,-0.0199508571429,2.991
-0.658112599326,-0.517436180756,-0.12544399388,-2.639015142,-0.0672854485728,2.11115001367,-0.906231121834,-0.0664725302334,0.0150479249071,0.00312419477318,0.0151329008617,0.00330721130722,0.00369245288639,-0.061849200666,0.573719449577,0.819016858155,0.00617463659082,0.0,0.819016153943,-0.573628661852,-0.0119768436674,0.0,-0.00626740901315,0.0119287049337,-0.99990920867,0.0,0.262401373853,-0.263291271517,0.304959581458,1.0,-0.01484,-0.019504,3.008
-0.659158013469,-0.517252541476,-0.12542348956,-2.63885763948,-0.0672612288724,2.11118385582,-0.907283829954,-0.0661124421379,0.0115405799082,0.00349784137064,0.00704314378635,0.000883721224485,-0.000692399869777,-0.0710515879603,0.573717407236,0.819018265912,0.00617767250157,0.0,0.819017684647,-0.57362676616,-0.0119629545697,0.0,-0.00625432042241,0.011923207866,-0.999909356187,0.0,0.262169729785,-0.263600972027,0.304966824972,1.0,-0.01452,-0.0190834285714,3.024
-0.660273893778,-0.517053950722,-0.125406786794,-2.63870805059,-0.0672443706698,2.11119703009,-0.908365702642,-0.0643024274159,0.0141859632858,0.0019549720911,0.00561384679073,0.00109287882192,0.000661222958114,-0.0697169442767,0.573740573732,0.819001997118,0.00618301478342,0.0,0.819001272563,-0.573649499901,-0.0119964038297,0.0,-0.00627831623341,0.0119469506077,-0.999908922411,0.0,0.261896243621,-0.263942458938,0.304962615415,1.0,-0.01416,-0.0186102857143,3.042
-0.661400589624,-0.516850059292,-0.125379396972,-2.63854046725,-0.0672152203178,2.11122918559,-0.909540003626,-0.0606950399735,0.0135615216544,0.00081267558776,0.0100855689369,0.00230607829579,0.000647135804018,-0.0692904676279,0.573711179806,0.819022564481,0.00618610844326,0.0,0.81902191512,-0.5736201656,-0.0119897903089,0.0,-0.00627155300359,0.0119454651153,-0.999908982601,0.0,0.261661950264,-0.264255843005,0.304967445625,1.0,-0.01382,-0.0181634285714,3.059
-0.662350213711,-0.516646738025,-0.125347794235,-2.63838812008,-0.0671911142408,2.1112931646,-0.910478795207,-0.0614756823529,0.0134914825536,0.00377908441148,0.00720435839876,0.0046443529858,0.00635052795646,-0.0645615867705,0.573715870727,0.819019322542,0.00618028162379,0.0,0.819018717177,-0.573625108395,-0.0119717515426,0.0,-0.00626005164707,0.0119303798845,-0.999909234775,0.0,0.261460098405,-0.264540086883,0.304967887243,1.0,-0.0135,-0.0177428571429,3.075
-0.663403083884,-0.516440460088,-0.125285931486,-2.63823043209,-0.0671679560042,2.11131802735,-0.911538492017,-0.0561863784974,0.0140052817772,0.00425089839968,0.00743555781992,0.00531250375919,-0.000444404887711,-0.0588924791319,0.573684483412,0.819041428051,0.00616437591591,0.0,0.819040512712,-0.573593598856,-0.0119903623204,0.0,-0.00628487791483,0.0119277880713,-0.99990910996,0.0,0.261232258737,-0.264840469952,0.30496702747,1.0,-0.01314,-0.0172697142857,3.093
-0.664273334723,-0.516262121503,-0.125252663782,-2.63810066514,-0.0671538107468,2.11133682405,-0.912465134224,-0.0571080200934,0.00627688451204,0.00116988901305,0.010078045351,7.10913121223e-05,0.0003905711992,-0.0670156364486,0.573627536164,0.819081366809,0.00615720735117,0.0,0.819080200321,-0.573536395045,-0.012015652402,0.0,-0.00631053598214,0.0119359855181,-0.999908850539,0.0,0.261038689854,-0.265092432429,0.30496258067,1.0,-0.01284,-0.0168754285714,3.108
-0.665187057376,-0.516067269946,-0.125228196278,-2.63797476164,-0.0671404050841,2.11137446542,-0.91335502184,-0.0555417691131,0.0120086386918,0.00053801180495,0.00494638245449,0.00226577431502,0.00255202818063,-0.060179947945,0.573642116898,0.819071190769,0.00615248522174,0.0,0.819069798877,-0.573550683337,-0.0120426372808,0.0,-0.00633513712543,0.0119477088063,-0.999908554965,0.0,0.260833030948,-0.265358968332,0.304951675394,1.0,-0.01252,-0.0164548571429,3.124
-0.666258843856,-0.515866975959,-0.125225060781,-2.63781281858,-0.0671183425756,2.11145014443,-0.914401761479,-0.0531309092151,0.0105590305355,0.000963793357424,0.00850482921346,0.0027708851792,0.00969531800043,-0.0571999111398,0.573678194848,0.819045887838,0.00615705067819,0.0,0.819044827579,-0.573587248599,-0.0119993983834,0.0,-0.00629657337304,0.0119269233452,-0.999909046695,0.0,0.260595101536,-0.265685005294,0.30495786909,1.0,-0.01214,-0.0159554285714,3.143
-0.667094008065,-0.515712399611,-0.125235788726,-2.63768043183,-0.067105506931,2.11148790686,-0.915236157848,-0.0498052499932,0.00943514394022,-7.91191846169e-05,0.00928613668697,5.35729649672e-06,0.00169209872366,-0.0517249201573,0.573704978716,0.819027081843,0.00616307587361,0.0,0.819026231939,-0.573614251661,-0.0119778374043,0.0,-0.00627506587534,0.0119196952541,-0.999909268091,0.0,0.26039074236,-0.265958646822,0.304964702158,1.0,-0.01182,-0.0155348571429,3.159
-0.668108571234,-0.515524902662,-0.12522685007,-2.63751385008,-0.0670867447232,2.11150886836,-0.916233370095,-0.0492417685734,0.0123518610851,0.000748860192006,0.0064482526234,0.00316157107205,0.00337568235381,-0.0500065846208,0.573723175341,0.819014290266,0.0061690614358,0.0,0.819013540161,-0.573632460961,-0.0119736237675,0.0,-0.00626791575541,0.0119223198358,-0.999909281646,0.0,0.260174620523,-0.266244258305,0.304972401902,1.0,-0.01146,-0.0150617142857,3.177
-0.668938268635,-0.515367583061,-0.125218148652,-2.63737068476,-0.0670748459408,2.11153928638,-0.916993411946,-0.0484794660163,0.0103799811608,0.00107865372842,0.0120056336514,0.00230818194059,0.00385131582844,-0.054664469694,0.573786445716,0.818969993936,0.00616527740551,0.0,0.818969329386,-0.573695990305,-0.0119538752803,0.0,-0.00625299062857,0.011908373985,-0.999909541277,0.0,0.259990135293,-0.266495964975,0.304982163002,1.0,-0.01114,-0.0146411428571,3.193
-0.669758376657,-0.515212603573,-0.125207231758,-2.63723412321,-0.067057002302,2.11157900596,-0.917794975447,-0.0485121691155,0.00907563831441,0.000697766664652,0.0100608759543,0.000107445728907,0.000511139287176,-0.0463600692635,0.573808493004,0.818954544125,0.00616562358251,0.0,0.818954046184,-0.573718340579,-0.0119282364113,0.0,-0.00623147205718,0.0118941147381,-0.999909845331,0.0,0.259809023898,-0.266743639635,0.304990630313,1.0,-0.01082,-0.0142205714286,3.209
-0.670596928043,-0.515036719184,-0.125196300424,-2.63710233618,-0.0670436804062,2.11161856419,-0.918664157907,-0.0474289527717,0.0146002047849,0.00053775500088,0.00838309639688,0.000218395384446,0.00105012604838,-0.0511113065653,0.573788204997,0.818968763583,0.00616498039052,0.0,0.818968254664,-0.573698054504,-0.0119284119333,0.0,-0.00623227950714,0.0118935342895,-0.999909847203,0.0,0.259620793362,-0.266994795793,0.304989184421,1.0,-0.01048,-0.0137737142857,3.226
-0.671450937732,-0.514855097402,-0.125192254294,-2.63698366348,-0.0670243900183,2.11164316637,-0.919489865417,-0.0426379400598,0.00845849358979,-0.00288586365168,0.00817036185393,0.00112615051169,0.00452954463319,-0.0483622981132,0.573823057735,0.818944254843,0.00617679314597,0.0,0.818943684234,-0.5737324401,-0.0119614435425,0.0,-0.00625204923645,0.0119224273879,-0.999909379697,0.0,0.259421811551,-0.267245042243,0.304978217896,1.0,-0.01012,-0.0133005714286,3.244
-0.672146115702,-0.51471352971,-0.125167873043,-2.63689440184,-0.0670076181686,2.11165337769,-0.920144574982,-0.0430118257831,0.00551100384469,0.000463973920515,0.00785430440593,0.000237363028681,0.000683199532787,-0.0482963753788,0.573840620756,0.818931966149,0.00617443856926,0.0,0.81893116102,-0.573749621111,-0.0119946941454,0.0,-0.00628037758687,0.0119397127568,-0.999908995917,0.0,0.259252462916,-0.26745327516,0.304970631369,1.0,-0.0098,-0.01288,3.26
-0.672941439701,-0.514542819122,-0.125130216003,-2.63679476192,-0.0669934842574,2.11169743827,-0.920946033128,-0.0480961938614,0.00995762119757,0.0042856067357,0.00582898628512,0.000480083327051,0.00248279023871,-0.0473003289045,0.573830410138,0.818939156802,0.00616966434092,0.0,0.818938115686,-0.573739103031,-0.0120229460497,0.0,-0.0063064050331,0.0119519354643,-0.999908686078,0.0,0.259083824826,-0.267666860069,0.304954778509,1.0,-0.00946000000001,-0.0124331428571,3.277
-0.6735758545,-0.51440886055,-0.125091180151,-2.63669855189,-0.0669761219297,2.11172195965,-0.921601826265,-0.0422765762368,0.0113543776776,0.00513779646797,0.00711829080196,0.00355680788219,3.46489736517e-05,-0.0445270876583,0.573797604312,0.818962203155,0.00616165484568,0.0,0.818960999717,-0.573706228674,-0.0120329142455,0.0,-0.00631964386968,0.01195084247,-0.999908615557,0.0,0.258946720056,-0.267847474285,0.304952008848,1.0,-0.00916000000001,-0.0120388571429,3.292
-0.674264640291,-0.514261013948,-0.125054283722,-2.63659181966,-0.0669523674511,2.11174841926,-0.922316880186,-0.0407270995208,0.00595831795742,0.00133944865967,0.00510830046566,0.0014369683189,0.000366311344122,-0.0450709406336,0.573765587894,0.81898464941,0.00615963309342,0.0,0.818983352336,-0.57367410056,-0.0120433319719,0.0,-0.00632980390641,0.0119549165783,-0.99990850259,0.0,0.258797376856,-0.268044711959,0.304948999785,1.0,-0.00882000000001,-0.011592,3.309
-0.674992389223,-0.51410093523,-0.125032121678,-2.63647337966,-0.0669351296443,2.11180219984,-0.923004188927,-0.0402873783373,0.00502566498695,-0.000496626114828,0.00536453318391,-0.000319470501416,0.00128468135292,-0.0405858807492,0.57379646693,0.818963057125,0.00615406400258,0.0,0.8189617949,-0.573705199807,-0.0120278472622,0.0,-0.00631986572327,0.0119417094802,-0.99990872327,0.0,0.258640098944,-0.268262548157,0.304948761318,1.0,-0.00844000000001,-0.0110925714286,3.328
-0.675546763923,-0.513962582077,-0.125021784845,-2.63637575241,-0.0669174966252,2.11181648201,-0.923552684892,-0.0358758195543,0.0116600060834,-0.000954064474534,0.00531752159274,0.00137262770743,0.0031794954426,-0.0321942174729,0.57380659201,0.818955914086,0.00616057224339,0.0,0.818954586111,-0.573715010449,-0.0120507084662,0.0,-0.00633470816109,0.0119602351197,-0.99990840793,0.0,0.25851628128,-0.26842719059,0.304943444243,1.0,-0.00814000000001,-0.0106982857143,3.343
-0.676214946568,-0.513834151377,-0.125011142506,-2.63627984186,-0.0668979708607,2.11183828349,-0.924208035894,-0.0375195906797,0.010384622083,-0.000349063638697,0.00863754656102,0.000290265826939,0.00236911161456,-0.0376365580281,0.573822867786,0.818944450786,0.0061684547934,0.0,0.818943178847,-0.573731160509,-0.0120570387209,0.0,-0.0063351321972,0.0119704489812,-0.99990828302,0.0,0.258363031309,-0.268621740321,0.304941659073,1.0,-0.00778000000001,-0.0102251428571,3.361
-0.676825139551,-0.513728539696,-0.124999054887,-2.63620935845,-0.0668769933622,2.11186176662,-0.924835081469,-0.0361784232094,0.00583269543204,0.00020854356773,0.00150329150771,0.000441214344799,-0.000210720602402,-0.0343887911685,0.573813147703,0.81895118041,0.00617920130319,0.0,0.818949992153,-0.573721289279,-0.0120639745285,0.0,-0.00633478880649,0.0119831547696,-0.999908133006,0.0,0.25822077143,-0.2687947408,0.304936933605,1.0,-0.00744000000001,-0.00977828571429,3.378
-0.677369191446,-0.51362248179,-0.124989500379,-2.63613869773,-0.0668584254539,2.11187452114,-0.925362943178,-0.0348207259447,0.00813476548814,-0.00053904085498,0.00650933232798,0.00231693035611,0.00102214813318,-0.0292672439279,0.573831279152,0.818938398437,0.00618946959169,0.0,0.818937217238,-0.573739132127,-0.0120826069105,0.0,-0.00634389197991,0.0120023958658,-0.999907844518,0.0,0.258093767384,-0.268949864198,0.304931144303,1.0,-0.00712000000001,-0.00935771428572,3.394
-0.677914525132,-0.513527666336,-0.124978870849,-2.6360723257,-0.0668332636247,2.11189125613,-0.925880432679,-0.0350653751337,0.00713430782706,0.00132818849733,-0.000468286995857,0.000477737117796,0.000899112672084,-0.031538130662,0.573860751174,0.818917635823,0.00620410365023,0.0,0.818916589241,-0.573768427072,-0.0120896179543,0.0,-0.00634080464047,0.0120186320371,-0.999907669078,0.0,0.257967081604,-0.269104024936,0.304927928939,1.0,-0.00678000000001,-0.00891085714286,3.411
-0.678455129087,-0.513428181046,-0.12496043048,-2.63599921845,-0.0668085220801,2.11191688118,-0.926415029571,-0.0315886332855,0.00653015501159,-0.00218255808326,0.00327394696906,0.000873805990133,0.0011283157868,-0.0262635962213,0.573866925863,0.818913243988,0.00621265826734,0.0,0.818912323504,-0.573774590339,-0.0120860579043,0.0,-0.00633288936093,0.0120236428046,-0.999907659,0.0,0.257846073288,-0.269258255965,0.304926984617,1.0,-0.00642000000001,-0.00843771428572,3.429
-0.67890929409,-0.513338048617,-0.124928793013,-2.63593507334,-0.0667845540726,2.11193642627,-0.926875666401,-0.0248523475697,0.00304531148299,0.00177937418842,0.00575011577004,0.000291647158409,-0.000327639688018,-0.0281810480272,0.573852710504,0.818923187694,0.0062149984404,0.0,0.818922275272,-0.573760325091,-0.0120889749819,0.0,-0.00633414435445,0.0120271232836,-0.999907609192,0.0,0.257748445102,-0.269384335232,0.304925215886,1.0,-0.00610000000001,-0.00801714285715,3.445
-0.679350486429,-0.513247152718,-0.124885178922,-2.63586697918,-0.0667607351514,2.11196126942,-0.927339057934,-0.0223750407359,0.0076383209628,0.00432405068112,0.00244939732502,0.000581328589708,0.00588150926827,-0.0289202196114,0.573817207404,0.818948102961,0.00620999559266,0.0,0.81894715833,-0.573724914369,-0.0120839313464,0.0,-0.00633340540049,0.012019857403,-0.999907701242,0.0,0.257658626427,-0.26950628646,0.304925688419,1.0,-0.00576000000001,-0.00757028571429,3.462
-0.679766634466,-0.513150217127,-0.124850820269,-2.63579593601,-0.0667380504006,2.11198158707,-0.927782984756,-0.0219669226804,0.00249790253257,0.000370522368304,0.00233725511913,0.00236223574888,0.000391094840713,-0.0281507279456,0.573783399802,0.818971798593,0.00620887445448,0.0,0.818970820749,-0.573691083692,-0.0120864450876,0.0,-0.00633660375695,0.0120201199864,-0.999907677822,0.0,0.257573134052,-0.269623860959,0.30492465999,1.0,-0.00542000000001,-0.00712342857144,3.479
-0.680153032628,-0.51307711805,-0.124828261077,-2.63574190331,-0.0667189135087,2.11199695365,-0.928177031421,-0.0238932645326,0.00445449484726,-0.000604120865727,0.000730827198118,-5.17195982471e-05,0.00158915389563,-0.0245366553367,0.573772068055,0.818979713854,0.00621201384805,0.0,0.81897876817,-0.573679723897,-0.012087124456,0.0,-0.00633552531761,0.012022993325,-0.999907650111,0.0,0.257488592111,-0.269731839384,0.304924017323,1.0,-0.00510000000001,-0.00670285714286,3.495
-0.680547957889,-0.51300318628,-0.124798835909,-2.63568654785,-0.0666979237059,2.11201130263,-0.92856565795,-0.0268926256834,0.00697205298013,-0.00218497323818,0.000411472748429,0.00355794211838,-7.00838136039e-05,-0.0215860564699,0.573768128452,0.818982464458,0.00621325875474,0.0,0.818981525288,-0.57367576121,-0.012088388546,0.0,-0.0063359042828,0.0120247077169,-0.999907627094,0.0,0.257403550629,-0.269840524419,0.304923740925,1.0,-0.00476000000001,-0.00625600000001,3.512
-0.680926235796,-0.512948279899,-0.12476724497,-2.63563726248,-0.0666774648002,2.11202331638,-0.928924010931,-0.0183526837989,0.00062375616843,0.000289613237639,0.00122410355498,0.00151002422278,-0.000155657969063,-0.0258881780318,0.573773211744,0.818978907241,0.00621271918066,0.0,0.818978019877,-0.573680957494,-0.0120792743249,0.0,-0.00632867404522,0.012019075882,-0.999907740594,0.0,0.257322107239,-0.269942886116,0.304927594026,1.0,-0.00442000000001,-0.00580914285715,3.529
-0.68126646128,-0.512877749451,-0.124745723616,-2.63559221432,-0.0666543370642,2.11203395725,-0.929255784171,-0.0224231895942,0.000971548013546,0.00116121396483,-0.000856319439247,0.00441268469614,0.00507888755073,-0.0126378495287,0.573777087645,0.81897612835,0.00622107607357,0.0,0.81897526917,-0.573684642278,-0.012090765248,0.0,-0.00633323424416,0.012032543187,-0.999907549751,0.0,0.257247372054,-0.270035728671,0.304923391024,1.0,-0.00408000000001,-0.00536228571429,3.546
-0.681571187559,-0.512840075706,-0.124726762851,-2.63555437999,-0.0666377039013,2.11204027513,-0.92953397181,-0.0142815835116,0.00293092593307,0.00327541081962,0.000762827026019,-0.000137940937714,0.000236901053809,-0.0184680528301,0.573785721059,0.818970066649,0.00622279213016,0.0,0.818969326975,-0.573693450953,-0.0120752933694,0.0,-0.00631945039282,0.0120251383169,-0.99990772604,0.0,0.257178535093,-0.270122484695,0.304929807955,1.0,-0.00374000000001,-0.00491542857144,3.563
-0.68188755875,-0.512775830961,-0.124701510138,-2.63550737023,-0.0666159742243,2.11205588021,-0.929829728843,-0.0172745711002,0.00529199204046,0.00309538699724,0.00275472257445,-8.4848349507e-06,0.00553078520805,-0.0122942521811,0.573804973775,0.818956540988,0.00622759556651,0.0,0.818955826687,-0.573712607481,-0.0120807637709,0.0,-0.00632089211629,0.0120323596744,-0.999907630056,0.0,0.257113162885,-0.270206018383,0.304927151877,1.0,-0.00340000000001,-0.00446857142858,3.58
