nelsonifechukwu/NELSON_IML_WORK/CNN-GradCAM/train2dof/data_sample_2022-02-22-15-06-44/robot_state.csv
position_joint1,position_joint2,position_joint3,position_joint4,position_joint5,position_joint6,position_joint7,velocity_joint1,velocity_joint2,velocity_joint3,velocity_joint4,velocity_joint5,velocity_joint6,velocity_joint7,ee_T_00,ee_T_10,ee_T_20,ee_T_30,ee_T_01,ee_T_11,ee_T_21,ee_T_31,ee_T_02,ee_T_12,ee_T_22,ee_T_32,ee_T_03,ee_T_13,ee_T_23,ee_T_33,v_x,v_y,time
0.465076514282,0.54777421692,-0.123985600162,-1.35586083099,0.0795688771754,1.89410512416,0.159162752817,0.00069950889708,-0.00276959748713,0.000569440475868,1.3530588122e-05,-0.000412176733172,0.000432326335661,0.00176942200364,0.573824101444,0.81896444812,0.00196982699603,0.0,0.818920886901,-0.573764786699,-0.0119706909482,0.0,-0.00867351993192,0.00848236675948,-0.999926407045,0.0,0.661666517581,0.260902296656,0.303206499525,1.0,0.0,0.0,0.0
0.465078620218,0.547777080448,-0.123992789285,-1.35586083397,0.0795688635454,1.89410349655,0.159158077829,-0.000255626721072,-0.00132893631479,0.0010721402332,-8.212871802e-05,-0.000159048951228,-7.39257318603e-05,0.00245632155365,0.573823561341,0.818964839932,0.00196425693032,0.0,0.818921240119,-0.573764303427,-0.011969690758,0.0,-0.0086759024043,0.00847722551306,-0.999926429976,0.0,0.661667218382,0.26089937788,0.303204566171,1.0,-0.00016,-0.000210285714286,0.009
0.465076426556,0.547773607314,-0.123988517361,-1.35586165519,0.0795688771694,1.89410268275,0.159153394585,0.000929229990882,0.000641530802717,0.000959837398677,0.000227904630635,-0.000272847927448,-0.000396797270666,-0.00102996934248,0.573818574565,0.818968327172,0.00196709797601,0.0,0.818924740233,-0.573759281661,-0.0119709416615,0.0,-0.00867534837284,0.00848021714985,-0.999926409416,0.0,0.661666550417,0.260900294196,0.303206423622,1.0,-0.00044,-0.000578285714286,0.023
0.46507522286,0.547760927228,-0.123995394226,-1.35587907476,0.0795681639372,1.89410669032,0.159163566619,6.8062972235e-05,0.000827595369301,-0.00185267985399,-0.0020314809285,-0.00012291082639,0.000256121161848,0.00121915160494,0.573833462875,0.818957900483,0.00196494864918,0.0,0.818914315695,-0.573774206686,-0.0119687172878,0.0,-0.00867460574217,0.00847733828088,-0.99992644027,0.0,0.661665625057,0.260893773131,0.303207689929,1.0,-0.00082,-0.00107771428571,0.042
0.465070116734,0.54770883961,-0.123990683618,-1.35592657563,0.0795654680249,1.89410913364,0.15916095644,-0.000848775655779,-0.00266510401207,-0.00322015356142,-0.00487616541895,6.65421680455e-05,0.000474212828123,0.00184869296707,0.573834019709,0.818957490057,0.00197337431613,0.0,0.818913970581,-0.573774684368,-0.0119694305216,0.0,-0.00867034948311,0.00848465358238,-0.999926415139,0.0,0.66165700317,0.260887897177,0.303222032126,1.0,-0.0011,-0.00144571428571,0.056
0.465069433984,0.547539938528,-0.123983306244,-1.35613278259,0.0795687658141,1.89414699907,0.159155446802,-0.00133749503643,-0.0086070099368,0.0045572608945,-0.00673912842052,0.000336535172405,0.00722555338833,0.00111918121405,0.57383700857,0.818955363686,0.00198665175965,0.0,0.818911785199,-0.573777389406,-0.0119892606536,0.0,-0.00867894055509,0.00850693779241,-0.999926151273,0.0,0.661620042182,0.260872562067,0.303246584848,1.0,-0.00152,-0.00199771428571,0.077
0.465054265368,0.547423400166,-0.123986845161,-1.35628833114,0.0795620423198,1.89418819678,0.159152391158,-0.00177196771332,-0.00849451323099,0.000719149662402,-0.0108912312183,-0.000302197673063,0.00371583253708,-7.85274965889e-05,0.573856191413,0.818941913944,0.00198999094165,0.0,0.818898352573,-0.573796529803,-0.0119907231335,0.0,-0.00867802293472,0.00851071487108,-0.999926127097,0.0,0.661600819377,0.26084525269,0.303258784041,1.0,-0.00178,-0.00233942857143,0.09
0.465026913497,0.547196986108,-0.123988426455,-1.35655032222,0.0795585144409,1.89434795954,0.159141634958,-0.00105072891241,-0.0118543444306,0.000771149929339,-0.013905802701,0.00056948474443,0.0105004363094,0.00150878112631,0.573884963355,0.818921475089,0.00210080314766,0.0,0.818879352038,-0.573824829884,-0.0119339145038,0.0,-0.00856761081326,0.00856916339094,-0.999926580047,0.0,0.661586295177,0.260808415749,0.303308383355,1.0,-0.0022,-0.00289142857143,0.111
0.46500702506,0.5470402263,-0.123989274818,-1.35673632003,0.0795547961242,1.89444634236,0.159131697678,-0.00397413337904,-0.0176911210334,-0.0012068510105,-0.0187493251547,-0.000737847701692,0.0117243574986,-0.00168253792132,0.573898077141,0.818912117551,0.00216510569258,0.0,0.81887082001,-0.573837668127,-0.0119020030264,0.0,-0.00850443903641,0.00860364417171,-0.999926823234,0.0,0.661575961574,0.260782638267,0.303339689234,1.0,-0.00244,-0.00320685714286,0.123
0.464967236194,0.546785306007,-0.123989138057,-1.35711169456,0.0795484569448,1.89459972408,0.159106069053,-0.00519457548621,-0.00969533066514,0.001403608915,-0.0186757139564,0.000559268114257,0.0110474800016,-0.00622884365494,0.573934185909,0.818886719091,0.00219964608018,0.0,0.818845743881,-0.573873504053,-0.0118994106688,0.0,-0.00848211406499,0.00863081557575,-0.999926778701,0.0,0.661534910027,0.260722774087,0.303354640095,1.0,-0.00286,-0.00375885714286,0.144
0.464943136597,0.546577440767,-0.123991667243,-1.35742257391,0.0795404141821,1.89471653485,0.159054502971,-0.000132377835557,-0.0154599130964,-0.000259417137295,-0.0240313261162,-0.000221178036646,0.0106397483136,-0.00506532126263,0.573928730916,0.818890495929,0.00221684638247,0.0,0.818849662565,-0.573867897068,-0.0119001568287,0.0,-0.00847291148526,0.00864527226693,-0.999926731835,0.0,0.661499679144,0.260677823801,0.303364095304,1.0,-0.00312,-0.00410057142857,0.157
0.464901441704,0.546248947411,-0.123991828982,-1.3579568519,0.0795283158168,1.89490202315,0.158934751941,-0.00249158000342,-0.0102740035285,-0.000465222693544,-0.0273627057494,0.000594076808211,0.00913810097078,0.000108020107071,0.573891564733,0.818916558545,0.00221110141087,0.0,0.81887544319,-0.573830547513,-0.011927203504,0.0,-0.00849875054064,0.0086557047787,-0.9999264223,0.0,0.661434299704,0.26060167082,0.303358507869,1.0,-0.00352,-0.00462628571429,0.177
0.464866110695,0.546008772677,-0.123989983277,-1.35835190525,0.0795106263025,1.89503575345,0.158915726183,-0.00306861726998,-0.0193845076301,-0.000570679840433,-0.0270504035787,-0.000160961549784,0.0112477410074,6.76011384829e-05,0.573920972452,0.81889598825,0.00219652178541,0.0,0.818854598841,-0.573859925211,-0.0119448354806,0.0,-0.00852124608823,0.0086541901802,-0.999926243959,0.0,0.661386381985,0.260541838697,0.303352058002,1.0,-0.00378,-0.004968,0.19
0.46479971513,0.545582664163,-0.123991463434,-1.35907272758,0.0794721429961,1.8952833614,0.158817316886,-0.00538404151541,-0.0208999346744,-8.04022549093e-05,-0.041232308568,-0.00337516466797,0.0188173934934,-0.00704691499568,0.573925816025,0.818892695211,0.00215831671391,0.0,0.818850730566,-0.573864846769,-0.0119735372858,0.0,-0.00856662506293,0.00863942771118,-0.999925983873,0.0,0.661301239577,0.260427667402,0.303332139731,1.0,-0.0042,-0.00552,0.211
0.464754994806,0.545285965163,-0.123991413314,-1.35958484411,0.0794081429872,1.89544812193,0.158744700612,-0.000883110519788,-0.0216294181977,-0.000431529290318,-0.0417393318938,-0.00107974101041,0.0172745982347,-0.00271280020598,0.573914428968,0.818900835338,0.00209690403116,0.0,0.818858322389,-0.573853969087,-0.0119756802906,0.0,-0.00860374354132,0.00859024842152,-0.999926088883,0.0,0.661239466846,0.260342040407,0.303312619512,1.0,-0.00446,-0.00586171428571,0.224
0.464680032065,0.544768787392,-0.123992413413,-1.3604479908,0.0793770141956,1.89573427781,0.158662239673,-0.00408548322572,-0.0254514178625,0.00179512250764,-0.0373901918117,-4.70877496172e-05,0.0159084672049,-0.00417611256563,0.573948744977,0.818876885804,0.00205692409773,0.0,0.818833607991,-0.573888206801,-0.0120247835947,0.0,-0.00866653971822,0.00858605334122,-0.99992558262,0.0,0.661133234491,0.260210600195,0.303292697698,1.0,-0.00488,-0.00641371428571,0.245
0.464634247511,0.544461958812,-0.12398993409,-1.36095891093,0.0793567815075,1.89591720058,0.158583718548,-0.00550939167355,-0.0261923397651,0.00103965759077,-0.0446856744901,-0.00492558811973,0.0125649743646,0.000262146960522,0.573943327428,0.818880712891,0.00204495903433,0.0,0.818837151787,-0.573882715132,-0.0120455397171,0.0,-0.00869046082607,0.00858811092486,-0.999925357335,0.0,0.661072775882,0.260134282824,0.303282442848,1.0,-0.00512,-0.00672914285714,0.257
0.464557527446,0.543850364578,-0.123987494401,-1.36195488925,0.0793156706511,1.89628217762,0.158466260681,-0.0029441402944,-0.0346975022497,0.00192980326959,-0.048423282484,-0.00375695127251,0.0149148437061,-0.00579961173321,0.573952881416,0.818874033006,0.00203835302131,0.0,0.818830182042,-0.573892095262,-0.0120724013345,0.0,-0.00871614909547,0.00859822004945,-0.999925046869,0.0,0.660954204462,0.259992893797,0.303272725709,1.0,-0.00554,-0.00728114285714,0.278
0.464499320757,0.543455864606,-0.123990280093,-1.36259129348,0.0792852686011,1.89649848037,0.158382636625,-0.00651657503326,-0.0355682331007,0.000538769352702,-0.0524265964183,-0.00218155267374,0.0154634169629,-1.92443392605e-05,0.573961269825,0.818868197797,0.00202046484659,0.0,0.818824017617,-0.573900465997,-0.0120925680986,0.0,-0.00874284205548,0.00859523636941,-0.999924839488,0.0,0.66087868846,0.259892198209,0.303267762862,1.0,-0.0058,-0.00762285714286,0.291
0.464408126232,0.54280313955,-0.123996251062,-1.36363477942,0.0792225155736,1.8968737056,0.158252727659,-0.00298622056137,-0.0359735656792,8.79773923629e-05,-0.0516987734794,-0.00698699288723,0.0176695304558,-0.0116512174387,0.573975064127,0.818858565907,0.00200541840586,0.0,0.818814190003,-0.573914324963,-0.0121002790475,0.0,-0.00875764740908,0.00858748882563,-0.999924776494,0.0,0.660758913424,0.259728479103,0.303265516612,1.0,-0.0062,-0.00814857142857,0.311
0.464345203714,0.542346216079,-0.123996570326,-1.3643254633,0.0791870277495,1.89712266862,0.158154174211,-0.00142343456642,-0.0333901028326,0.000515942915461,-0.0528579287886,0.000366053180916,0.0250554623913,-0.0129541788092,0.573973333105,0.818859753937,0.00201573007762,0.0,0.818815443032,-0.573912480708,-0.0121029600061,0.0,-0.00875394274374,0.00859745273928,-0.999924723313,0.0,0.660673503993,0.259611157439,0.303275502094,1.0,-0.00648,-0.00851657142857,0.325
0.464233768574,0.541580032977,-0.124007077878,-1.36550940217,0.079119428644,1.89756782415,0.158007201743,-0.00193694897957,-0.0312832540133,-0.0021266621556,-0.0584612404241,-0.00235207895689,0.0146525705849,-0.0101697154518,0.574001036455,0.818840263434,0.00204451189298,0.0,0.818796352009,-0.573940078521,-0.0120858225075,0.0,-0.00872309871615,0.00861147932299,-0.999924872164,0.0,0.660550809521,0.259430961633,0.303298688049,1.0,-0.00688,-0.00904228571429,0.345
0.464148410163,0.541032644802,-0.124002817838,-1.36634567559,0.0790678994425,1.89787963321,0.157895996058,-0.00419486547036,-0.0456045902846,-0.000141071998608,-0.0610515021717,-0.00199371693537,0.028091290585,-0.00758870534057,0.574009531079,0.818834258681,0.00206444697759,0.0,0.818790595108,-0.573948473574,-0.0120771663007,0.0,-0.00870447891139,0.00862292435237,-0.999924935794,0.0,0.660458440604,0.259297788949,0.303314498182,1.0,-0.00716,-0.00941028571429,0.359
0.464038095333,0.54020214509,-0.124008680557,-1.36761688665,0.0789898988968,1.89834266192,0.157727709672,-0.00365160809175,-0.0418820012693,-0.000929491948745,-0.062211501041,-0.00270666402199,0.0203062342151,-0.0059498899487,0.574015717463,0.818829878353,0.00208166332678,0.0,0.818786461854,-0.573954607255,-0.0120658856051,0.0,-0.00868529460393,0.00863061189858,-0.999925036288,0.0,0.660313332686,0.259100342855,0.303336741304,1.0,-0.00756,-0.009936,0.379
0.463956933385,0.539644764092,-0.124014121718,-1.36849126885,0.0789383550352,1.898675395,0.1576314053,-0.00754549657787,-0.0395325821623,-0.000813690953255,-0.0677923841158,9.36517594745e-05,0.0273272588861,-0.012274026225,0.574041837822,0.818811536844,0.00209343309042,0.0,0.818768297549,-0.573980697349,-0.0120574002736,0.0,-0.008671315213,0.00863565512303,-0.999925114073,0.0,0.660217407398,0.258961357481,0.303343445546,1.0,-0.00782,-0.0102777142857,0.392
0.463829749442,0.538707091587,-0.124022634818,-1.36993488269,0.078855973307,1.89923232948,0.157446250604,-0.00903801192811,-0.0491189983275,0.000434653356523,-0.0692897712667,-0.00616661952779,0.0245611197073,-0.00511495079661,0.57405827315,0.818799903633,0.0021362909329,0.0,0.818757247711,-0.573996972651,-0.0120329384725,0.0,-0.00862651042056,0.0086568782367,-0.9999253181,0.0,0.660058691298,0.258737861949,0.303367318802,1.0,-0.00824,-0.0108297142857,0.413
0.463747352268,0.53815248792,-0.124028623062,-1.37080042379,0.0788031834212,1.89955223644,0.157345951987,-0.0093117042507,-0.0479431307019,-0.000987571188773,-0.0764700933452,-0.00121732339256,0.024431814956,-0.00916549641899,0.574081484076,0.818783615737,0.0021417615879,0.0,0.818741058718,-0.574020185203,-0.0120271630503,0.0,-0.00861839559684,0.00865828646196,-0.999925375882,0.0,0.659962333882,0.258597705889,0.303374983366,1.0,-0.00848,-0.0111451428571,0.425
0.463622061645,0.537152165335,-0.124035966636,-1.37236709751,0.0787130910123,1.90014079886,0.157151497887,-0.00257313151116,-0.0541377795811,-0.000316581895016,-0.0733925756917,-0.00801218933801,0.0265165372822,-0.00698753541274,0.574092354529,0.818775945236,0.00216029550073,0.0,0.818733623369,-0.574030969753,-0.0120185952052,0.0,-0.00860062571697,0.00866865708083,-0.999925439031,0.0,0.659782122263,0.258363280763,0.303386906697,1.0,-0.0089,-0.0116971428571,0.446
0.463536333697,0.536510012068,-0.12403395355,-1.37336937218,0.0786606633283,1.90052091806,0.157025819981,-0.00556703072832,-0.0495178879654,0.000918317793166,-0.0804064745713,-0.00560604483702,0.0343410025502,-0.00640377453399,0.57409233112,0.81877590322,0.00218232840613,0.0,0.818733787234,-0.574030771842,-0.0120168848615,0.0,-0.00858657741521,0.0086857146708,-0.999925411743,0.0,0.659657273429,0.258202836977,0.303396003888,1.0,-0.00918,-0.0120651428571,0.46
0.463401904559,0.535435094156,-0.124045212581,-1.3750769814,0.0785645850379,1.90113768778,0.156817709746,-0.0127606459019,-0.0518119643852,-0.00289287337801,-0.0865271829162,-0.000790952066467,0.026993214602,-0.0116645510271,0.574115103688,0.818759972107,0.00216856945318,0.0,0.818717627083,-0.574053549095,-0.0120298286065,0.0,-0.00860483281297,0.00868211949236,-0.999925286036,0.0,0.659464520143,0.25795715243,0.303395761844,1.0,-0.00958,-0.0125908571429,0.48
0.463316881114,0.53474440669,-0.124037621198,-1.37617524805,0.0785112866046,1.90153432759,0.156684769437,-0.00497927109358,-0.0516897869635,0.000741894820076,-0.0841076712863,-0.00428448767936,0.0288881497949,-0.00965795726306,0.574116497726,0.818758996313,0.00216792436728,0.0,0.818716458029,-0.574054759241,-0.0120516242415,0.0,-0.00862303448735,0.00869411904944,-0.999925024974,0.0,0.659329770108,0.257802472144,0.30339449143,1.0,-0.00984,-0.0129325714286,0.493
0.463170355821,0.533689950193,-0.124040140005,-1.37791375264,0.0784069940381,1.90216668249,0.156464275266,-0.00572380816129,-0.0504505700638,-0.000293293574509,-0.0904327844516,-0.00501870829813,0.0272256169774,-0.0156842222568,0.574125017248,0.818753142706,0.00212197543786,0.0,0.8187099584,-0.574063427003,-0.0120802605667,0.0,-0.00867276978949,0.00867302921135,-0.999924777985,0.0,0.659123408315,0.257537909834,0.303365698135,1.0,-0.01024,-0.0134582857143,0.513
0.463069188296,0.53297562532,-0.124043119184,-1.37906086541,0.0783440190586,1.90260932551,0.156325738165,-0.00770155431347,-0.0564363157643,0.000757795043867,-0.0929691254029,-0.00715803058016,0.0361179775713,-0.0139461969855,0.574142540723,0.818740830248,0.00213136562564,0.0,0.818697736841,-0.574080876254,-0.0120793258145,0.0,-0.00866642785583,0.00868036615142,-0.999924769306,0.0,0.658993655035,0.257362539381,0.30336190661,1.0,-0.0105,-0.0138,0.526
0.462907947745,0.531775606075,-0.124043622951,-1.38100212286,0.0782385430854,1.90332383382,0.156082303211,-0.00493105684969,-0.0558231745473,-0.00109691857576,-0.0976489402746,-0.00286439480458,0.0365683446534,-0.0100808855628,0.574153347307,0.818733298631,0.00211338363071,0.0,0.818689825093,-0.574091613584,-0.0121052221136,0.0,-0.00869784007341,0.00868062660035,-0.999924494299,0.0,0.658762747181,0.257072720199,0.303345863603,1.0,-0.01092,-0.014352,0.547
0.462800081327,0.531018546759,-0.124045367296,-1.38222833134,0.0781624594997,1.90375662976,0.155923383481,-0.0101585442051,-0.059464362237,-0.00179478623606,-0.0979566672438,-0.00239525091157,0.0301496003079,-0.0125373610421,0.574159048943,0.818729383823,0.00208074091181,0.0,0.818685454239,-0.574097426889,-0.0121251126998,0.0,-0.00873280617962,0.00866538233007,-0.999924321759,0.0,0.658615220013,0.256882097786,0.303333322802,1.0,-0.01118,-0.0146937142857,0.56
0.462640432196,0.529802762011,-0.124043590267,-1.38417135951,0.0780396567344,1.90444929752,0.155667551771,-0.00882833871374,-0.0640315780761,-0.000867331740071,-0.0949208536839,-0.00134353663519,0.0382381262955,-0.00930249882986,0.574151545969,0.818734726197,0.00204872677421,0.0,0.818690342266,-0.574090029718,-0.0121452937264,0.0,-0.00876778892605,0.00865067854559,-0.999924142942,0.0,0.65837890471,0.256590458353,0.303325009342,1.0,-0.01158,-0.0152194285714,0.58
0.46253157319,0.529000401205,-0.124046756249,-1.38543244405,0.0779634315035,1.90493211792,0.155496598554,-0.00684266111263,-0.0652494658716,0.000654230405082,-0.0963868385127,-0.00541731445167,0.0339749447833,-0.011712315937,0.574151010005,0.818735054946,0.0020674655978,0.0,0.818690938463,-0.574089433746,-0.0121332699885,0.0,-0.0087471917269,0.00865911128378,-0.999924250345,0.0,0.658234314723,0.256398208828,0.303331814181,1.0,-0.01184,-0.0155611428571,0.593
0.462351345042,0.52761718119,-0.1240496035,-1.38756848655,0.0778278879167,1.90575248496,0.155196199608,-0.00955927168256,-0.0687991490594,-0.00173503903417,-0.10142274276,-0.0045965965375,0.0480454533589,-0.0154947845334,0.574133999525,0.818746849889,0.00211973783432,0.0,0.8187035089,-0.574072290334,-0.0120961517492,0.0,-0.00868697063808,0.00868041591044,-0.999924590617,0.0,0.657988639192,0.256076269641,0.30336013433,1.0,-0.01226,-0.0161131428571,0.614
0.46223557527,0.52673382389,-0.12405526169,-1.38892033367,0.0777505395483,1.90626476167,0.15500918541,-0.0119999500983,-0.0739604190794,-0.00106849682708,-0.10579971777,-0.00503090857047,0.0386083075735,-0.0156424332075,0.574131974004,0.818748170444,0.0021579439106,0.0,0.818705320932,-0.574070093723,-0.0120777428337,0.0,-0.00864998532419,0.00870110601975,-0.999924731421,0.0,0.657832428607,0.255870173988,0.30338296443,1.0,-0.01252,-0.0164548571429,0.627
0.462061796235,0.525349389227,-0.124060957319,-1.39107542734,0.0776089362153,1.90704709015,0.154725694529,-0.00861454625932,-0.0674188860188,-0.00166941094359,-0.106844722282,-0.00982670524948,0.039270005656,-0.0133464586946,0.574123582213,0.818754038217,0.00216428997572,0.0,0.818711309627,-0.574061714277,-0.0120700701028,0.0,-0.00864014897426,0.00870180810221,-0.999924810354,0.0,0.657560139355,0.255531341733,0.303400807774,1.0,-0.01294,-0.0170068571429,0.648
0.461930882513,0.524374259214,-0.124064018151,-1.39262536039,0.0775114210374,1.90759989503,0.154510011945,-0.00975889802006,-0.0735951000204,-0.000277468469486,-0.111309801664,-0.00191846927511,0.0421352919231,-0.00979049675199,0.574113803974,0.818760959726,0.0021395829218,0.0,0.818717931561,-0.57405206586,-0.0120797815974,0.0,-0.00866238835546,0.00868705152087,-0.99992474625,0.0,0.657383996992,0.255307848082,0.303395211398,1.0,-0.0132,-0.0173485714286,0.661
0.461735432982,0.522898850564,-0.124068122414,-1.39499431845,0.077371108374,1.90849902336,0.154200626753,-0.0105749428473,-0.0692920705822,-0.00286708561191,-0.115127882986,-0.00691794953644,0.0448364547632,-0.0121789350868,0.574112978086,0.818761530984,0.00214258597813,0.0,0.818718521358,-0.574051206488,-0.0120806463606,0.0,-0.00866138120215,0.00868999799257,-0.999924729372,0.0,0.657103363885,0.254953465736,0.303382954744,1.0,-0.01362,-0.0179005714286,0.682
0.461613052153,0.521945199039,-0.124065291735,-1.39648262536,0.0772807602627,1.90908226145,0.153999836147,-0.00935228419807,-0.074247573866,-0.000274601387449,-0.112097120063,-0.00191629097409,0.0429741036576,-0.0129616673713,0.574102297359,0.818768913543,0.00218295294948,0.0,0.818726446857,-0.574040371384,-0.0120583638656,0.0,-0.00862007632268,0.00871014340685,-0.999924911024,0.0,0.656929722035,0.254735506185,0.303395170063,1.0,-0.01388,-0.0182422857143,0.695
0.461410765838,0.520458028662,-0.124071944531,-1.39885811615,0.0771323081479,1.90996510357,0.153676133383,-0.0117401495799,-0.0818655197525,-0.000595347534884,-0.120069286142,-0.00681792216794,0.0469504272022,-0.0168038277462,0.57409445473,0.818774439162,0.00217295295449,0.0,0.81873187206,-0.57403260252,-0.0120598432287,0.0,-0.00862711163496,0.0087027225172,-0.999924914964,0.0,0.656645781108,0.254372233714,0.303385906192,1.0,-0.01428,-0.018768,0.715
0.461280104334,0.519444746012,-0.124074415984,-1.40042946436,0.0770284351526,1.91053170658,0.15346065339,-0.00902563892591,-0.0836117835852,0.000187726485927,-0.12261148647,-0.0132280400874,0.0432526697352,-0.0164799268115,0.574082231729,0.818783002193,0.00217564544316,0.0,0.818740511496,-0.574020411319,-0.0120535938707,0.0,-0.00862057885739,0.00870121065791,-0.999924984463,0.0,0.656453796055,0.254133481629,0.303398632466,1.0,-0.01454,-0.0191097142857,0.728
0.461076973788,0.517852997944,-0.124075890567,-1.40291566324,0.0768778210977,1.91142193384,0.153119685805,-0.0121300431674,-0.0811273561653,-8.94778287159e-05,-0.128584486215,-0.0114674055932,0.0396358207899,-0.0200155140362,0.574061607294,0.81879746943,0.00217301333235,0.0,0.818754859696,-0.573999715242,-0.0120645566662,0.0,-0.0086312856131,0.0087051316179,-0.999924857973,0.0,0.656145391232,0.25376120304,0.303409657809,1.0,-0.01494,-0.0196354285714,0.748
0.460941947534,0.516820955177,-0.124078034259,-1.40454375684,0.0767743936827,1.91200686531,0.152903618182,-0.0110820530231,-0.0740971314613,0.000386682558961,-0.126495245373,-0.00948012126291,0.043242930275,-0.025440651814,0.574054943866,0.818802173365,0.00216083728227,0.0,0.818759397524,-0.573993097245,-0.0120714615147,0.0,-0.00864399966338,0.00869905547733,-0.999924801024,0.0,0.655944008116,0.253514682535,0.303409541753,1.0,-0.0152,-0.0199771428571,0.761
0.460704115342,0.515134829309,-0.12408402202,-1.40723322841,0.0766016438772,1.91302661074,0.152528678254,-0.00796636733512,-0.0770640568718,-0.000635746649871,-0.126161391851,-0.00579222165814,0.0496396368771,-0.0295888877035,0.574042482773,0.81881089573,0.00216608082047,0.0,0.818768282251,-0.573980710032,-0.0120578352957,0.0,-0.00862996446529,0.00869539539592,-0.99992495409,0.0,0.655624936171,0.253099428929,0.303400443601,1.0,-0.01562,-0.0205291428571,0.782
0.460565894621,0.514081022038,-0.124084194136,-1.40896316806,0.0765005318066,1.91363631548,0.152303060245,-0.00631380738875,-0.0792217578687,1.6606492073e-05,-0.13575833728,-0.00984392257945,0.0566500683406,-0.0176427504738,0.574034752785,0.818816457645,0.00211144184148,0.0,0.818772999672,-0.573973083506,-0.0121004678016,0.0,-0.0086963188278,0.00867504763478,-0.999924555948,0.0,0.655403863562,0.252842310113,0.30336862814,1.0,-0.01588,-0.0208708571429,0.795
0.460331368113,0.512418477905,-0.124090160836,-1.41163463906,0.0763322380723,1.91457287597,0.151915619394,-0.0131612252038,-0.0813882155187,6.37317901749e-05,-0.129527205201,-0.00161273664972,0.0544668551144,-0.0245048246864,0.574008246958,0.818835203994,0.00204646659678,0.0,0.818790828733,-0.573946796734,-0.0121408485265,0.0,-0.0087669600232,0.00864474169813,-0.999924201554,0.0,0.655068664326,0.252426383652,0.30334334303,1.0,-0.01628,-0.0213965714286,0.815
0.460156102928,0.511145545721,-0.124087247382,-1.4136718469,0.0762088324938,1.91534629349,0.151638318959,-0.0129309636841,-0.0869977993887,-0.00190239496242,-0.134954535827,-0.0127508674176,0.0538317352404,-0.0200938976868,0.573996085957,0.818843711298,0.00205345446088,0.0,0.81879939164,-0.573934571279,-0.0121412949253,0.0,-0.00876344321442,0.00865058957957,-0.999924181807,0.0,0.654821338267,0.252120778057,0.303332129046,1.0,-0.01658,-0.0217908571429,0.83
0.459931920589,0.509486415958,-0.124090815218,-1.41630291008,0.0760462229431,1.91633059413,0.151272968741,-0.0104648528032,-0.0948031286909,-0.000457062052835,-0.138007684586,-0.0091730967408,0.0560982806741,-0.0121001199978,0.573976436237,0.818857466938,0.00206067596089,0.0,0.818813238831,-0.573914889529,-0.0121378084492,0.0,-0.00875665105714,0.00865429141707,-0.999924209279,0.0,0.654499624603,0.251722026144,0.303326633933,1.0,-0.01696,-0.0222902857143,0.849
0.459762445133,0.508254447889,-0.124094011372,-1.41824645097,0.0759228854032,1.91702104769,0.150990632991,-0.0106176484049,-0.084243711535,0.000178164882529,-0.136471420273,-0.0105255108785,0.0569951451905,-0.0213378023581,0.573953791897,0.81887338975,0.00204039880326,0.0,0.818828866153,-0.573892307415,-0.0121513104671,0.0,-0.00877958464905,0.00864519460446,-0.99992408687,0.0,0.654255318839,0.251421807507,0.303323461503,1.0,-0.01724,-0.0226582857143,0.863
0.459513881811,0.506429007334,-0.124094705061,-1.42111729935,0.0757465497389,1.91806504502,0.150596503329,-0.0107030692178,-0.0957187303097,0.00131679752632,-0.150353125249,-0.00848975636658,0.0550829169833,-0.0193753439299,0.573936083326,0.81888580541,0.0020388367894,0.0,0.818841184829,-0.57387453266,-0.0121606617191,0.0,-0.00878832595899,0.00864909261185,-0.999923976372,0.0,0.653896557026,0.25098457438,0.303324078939,1.0,-0.01764,-0.023184,0.883
0.459337544205,0.505202500682,-0.124105316996,-1.42297990564,0.0756309054265,1.9187896471,0.150347268832,-0.0150495028253,-0.0966948765896,-0.00027489897259,-0.13958280007,-0.00222108392629,0.0606509151545,-0.0194427342894,0.573949095917,0.81887650532,0.00210979430238,0.0,0.818832914316,-0.573887333572,-0.0121133686482,0.0,-0.00870873642988,0.00868019312199,-0.999924403221,0.0,0.653679748286,0.250688661462,0.30335788471,1.0,-0.0179,-0.0235257142857,0.896
0.459071898808,0.503244304623,-0.124106800934,-1.42590761928,0.0754434274467,1.91989926822,0.14994001192,-0.0118951220648,-0.100029080579,0.000588709987263,-0.149443677509,-0.00814721333885,0.0552916384796,-0.0224471769241,0.573934127417,0.81888669175,0.00222494078408,0.0,0.818844700838,-0.573871972859,-0.0120441511718,0.0,-0.00858612926038,0.00873459853209,-0.999924989773,0.0,0.65332664814,0.250237610531,0.303428411122,1.0,-0.0183,-0.0240514285714,0.916
0.458884809208,0.501844206855,-0.124110683512,-1.42797494022,0.0753091035701,1.92064748766,0.149645442421,-0.0116010503499,-0.0964255344429,0.00245760979553,-0.149627131651,-0.0031561716404,0.0633027948346,-0.0194886116228,0.573918237929,0.81889764453,0.00229147477036,0.0,0.818856566638,-0.573855854973,-0.0120053274723,0.0,-0.00851632214094,0.00876663433652,-0.9999253064,0.0,0.653070425443,0.249915436061,0.303486791602,1.0,-0.01858,-0.0244194285714,0.93
0.458601487785,0.499827251663,-0.12411914759,-1.43103661469,0.0751172567694,1.92173054205,0.149222410239,-0.0148181489395,-0.102353657214,-0.0019257599656,-0.148975935884,-0.00330529841218,0.0604019779775,-0.0229090967446,0.573913980316,0.818900538298,0.00232346181309,0.0,0.81885983441,-0.573851422198,-0.0119943208455,0.0,-0.0084889973705,0.00878646713985,-0.999925364674,0.0,0.652684869187,0.249431494314,0.30353098147,1.0,-0.01898,-0.0249451428571,0.95
0.45841469058,0.498545169885,-0.124116392766,-1.4330328986,0.0749892685982,1.92248321185,0.148929455174,-0.0137094684403,-0.0927094020374,-0.000909004880046,-0.151059935947,-0.00571119902411,0.05679797016,-0.0250378370114,0.573892110503,0.818915779748,0.00235331304534,0.0,0.818875485439,-0.573829454893,-0.0119767668717,0.0,-0.00845772587701,0.00880061181844,-0.999925505278,0.0,0.652439837731,0.249121719615,0.303540103667,1.0,-0.01924,-0.0252868571429,0.963
0.458108662955,0.496582618185,-0.124114303926,-1.43616559829,0.074796573129,1.92360980908,0.148460694581,-0.013348561848,-0.0997535977246,0.00141425023657,-0.161100651687,-0.0115024672152,0.0586866317427,-0.0224716202556,0.573864027225,0.818935562619,0.00231720442262,0.0,0.818894660026,-0.573801380093,-0.0120107820532,0.0,-0.00850660524105,0.00879027132699,-0.9999251816,0.0,0.652044965772,0.248623078738,0.303514701239,1.0,-0.01964,-0.0258125714286,0.983
0.457886274143,0.495205509433,-0.124114327186,-1.43841912061,0.0746528464504,1.92437544003,0.148149202039,-0.0155382118659,-0.0912352621677,0.000651087924598,-0.159934937162,-0.0113818036348,0.050812515387,-0.0185433415989,0.573865659125,0.818934684443,0.00222143980957,0.0,0.818892398248,-0.573803274453,-0.0120743206454,0.0,-0.00861357636893,0.0087483265813,-0.999924633702,0.0,0.651751126608,0.248257927786,0.303467966906,1.0,-0.01992,-0.0261805714286,0.997
0.457526289701,0.492772737402,-0.124185054518,-1.44213944322,0.0744374724181,1.9257341328,0.147613229653,-0.0168198461812,-0.156217864218,-0.000921223338791,-0.233301740752,-0.014161392321,0.0843173541939,-0.0349437362318,0.573901502391,0.818909417497,0.00227560770621,0.0,0.818867956658,-0.573839006426,-0.01203375101,0.0,-0.00854888415723,0.00876977886197,-0.999925000967,0.0,0.651300195287,0.247630327363,0.303510859445,1.0,-0.0338862857143,-0.0445362612245,1.017
0.457222971664,0.490155745121,-0.124243367423,-1.44618337819,0.0742304933489,1.92731182014,0.147002173084,-0.0227369782603,-0.203226426522,-0.00636013932488,-0.32181370661,-0.0113243597523,0.129619206429,-0.055316431542,0.573825002194,0.818962622205,0.00241602752636,0.0,0.818922934782,-0.573761882046,-0.0119698162268,0.0,-0.00841676963275,0.00884729051278,-0.99992543894,0.0,0.650755419897,0.246980914711,0.303541174099,1.0,-0.0469234285714,-0.0616707918367,1.032
0.456494842243,0.484970938099,-0.124314440873,-1.45438422708,0.0737856027974,1.93043109516,0.145760621218,-0.047926250975,-0.290458226006,-0.00207183416988,-0.460139836769,-0.0196948204884,0.177846992822,-0.0819774236475,0.573759049313,0.819008539245,0.00251254367046,0.0,0.818969836795,-0.57369526395,-0.0119539718178,0.0,-0.0083491313391,0.00891656865701,-0.999925390621,0.0,0.649774620232,0.245747742008,0.303516811571,1.0,-0.0634371428571,-0.0833745306122,1.051
0.455841797732,0.48068349454,-0.124443793932,-1.46124716903,0.0733729275996,1.9328151499,0.144713253485,-0.0485188220965,-0.350517754212,-0.00926286955353,-0.555169389836,-0.0302762722363,0.187746715032,-0.0954989059929,0.573754811465,0.819012037462,0.00233360563456,0.0,0.818971001101,-0.573691751132,-0.0120424640455,0.0,-0.0085243168305,0.0088207468574,-0.999924762393,0.0,0.648889729517,0.244586743401,0.3034351583,1.0,-0.074736,-0.0982244571429,1.064
0.454571130417,0.472589741472,-0.12463487544,-1.4740127686,0.0726028437533,1.93723430018,0.14286453752,-0.0689574705585,-0.429886545189,-0.00611628293542,-0.68083920314,-0.0374605695078,0.239643904191,-0.0966821134637,0.573828981593,0.818960694917,0.00210403594945,0.0,0.818916431369,-0.573766665634,-0.0121835438744,0.0,-0.00877078673165,0.00871446796534,-0.999923562753,0.0,0.647224417334,0.242422765646,0.303350868788,1.0,-0.0921188571428,-0.121070497959,1.084
0.453516659031,0.465866296797,-0.124749632503,-1.48415082511,0.0720119921604,1.94104349709,0.14125406634,-0.0790902988621,-0.499701629677,-0.00962858120593,-0.763371066441,-0.0511879827955,0.285258400677,-0.115152629615,0.573781500632,0.818993017963,0.00244396425353,0.0,0.818953256672,-0.573717812147,-0.0120075939933,0.0,-0.0084321521636,0.00889139897204,-0.999924918098,0.0,0.645951062621,0.240725737264,0.30350082955,1.0,-0.104286857143,-0.137062726531,1.098
0.451687980289,0.455134701362,-0.124884254896,-1.5009810864,0.0709429339448,1.94691194155,0.138648238025,-0.101977384462,-0.553314597613,-0.00965482265888,-0.894605154611,-0.0571659863206,0.296112639994,-0.134020164247,0.573736674154,0.819025019096,0.00223466460025,0.0,0.818982081375,-0.573673412569,-0.0121619488231,0.0,-0.00867913980028,0.00880807591726,-0.999923542243,0.0,0.643705077435,0.23784811383,0.303390945306,1.0,-0.121669714286,-0.159908767347,1.118
0.450292459545,0.447072614781,-0.12505334091,-1.51302854249,0.0700767691468,1.95127160641,0.136741839859,-0.110211339768,-0.646056716496,-0.0101498335531,-0.946636107291,-0.0748052503969,0.340696198688,-0.143898083519,0.573752125216,0.819013501266,0.00247597547271,0.0,0.818974958651,-0.573689162251,-0.0118957605786,0.0,-0.00832250846111,0.00885315027401,-0.999926176067,0.0,0.642149878994,0.235694153034,0.303570197069,1.0,-0.132968571429,-0.174758693878,1.131
0.447849136607,0.433639134391,-0.125216169724,-1.53354245484,0.0687587032206,1.95834979846,0.133462336575,-0.13000217251,-0.703960936537,-0.0128796968524,-1.05205784276,-0.0680585841285,0.376055785623,-0.17887401168,0.57372413144,0.819033036106,0.00250073414689,0.0,0.818994163373,-0.573660379954,-0.0119614268994,0.0,-0.00836239269071,0.00891081748997,-0.999925331072,0.0,0.639196476374,0.23187569084,0.303620898286,1.0,-0.151220571429,-0.198747036735,1.152
0.445896308541,0.423310346035,-0.125344080838,-1.54912285214,0.0676819237229,1.96374867802,0.130883473245,-0.141222661158,-0.753305129011,5.21247498709e-05,-1.13725334895,-0.0821777437534,0.392670074874,-0.203090421783,0.573690032628,0.819056718852,0.00256606065284,0.0,0.819018895626,-0.5736262424,-0.0119050215663,0.0,-0.00827908756999,0.0089316163341,-0.999925838719,0.0,0.637199567544,0.229248890254,0.303692321905,1.0,-0.162519428571,-0.213596963265,1.165
0.442743722828,0.407394585718,-0.125555855556,-1.57289731204,0.0659805401277,1.97211655361,0.12691813053,-0.167814459155,-0.802813033046,-0.0122359320679,-1.22556215029,-0.0837069164487,0.410652651613,-0.207932873426,0.57369513192,0.81905197827,0.00291537394258,0.0,0.819019611423,-0.573631107668,-0.0116178879717,0.0,-0.00784345595339,0.00905304850538,-0.999928258682,0.0,0.63391677943,0.224849336316,0.303888005494,1.0,-0.179902285714,-0.236443004082,1.185
0.440433877933,0.396282473822,-0.125687626168,-1.58937009168,0.0648941841753,1.97775751272,0.12410991578,-0.18155547663,-0.878256717185,-0.0112867674606,-1.27648716118,-0.0869504482123,0.450364400178,-0.212565842715,0.57374418988,0.81901667571,0.003168026088,0.0,0.818987092591,-0.573678762173,-0.0115571147898,0.0,-0.00764818770257,0.00922557755845,-0.999928194394,0.0,0.631573076741,0.221750602964,0.304029287946,1.0,-0.191201142857,-0.251292930612,1.198
0.436507375478,0.378295361078,-0.125901073473,-1.61625230835,0.0628484814518,1.98679538172,0.119344195731,-0.208291020104,-0.933692820849,-0.0120972092983,-1.37673561972,-0.120362471351,0.477649562697,-0.24488526419,0.573652933717,0.819080603858,0.00316589999463,0.0,0.819051613955,-0.573588274524,-0.0114757094312,0.0,-0.00758375390615,0.00917628655388,-0.99992913871,0.0,0.627434608114,0.216309136469,0.304074125884,1.0,-0.209453142857,-0.275281273469,1.219
0.433461373223,0.3650323032,-0.126024742087,-1.63606793086,0.0614008097749,1.99326706602,0.115812602904,-0.221480324067,-0.952833993143,-0.00709560394219,-1.41770721616,-0.104230443861,0.463309512629,-0.256447582557,0.573674723229,0.819065608209,0.00309649450255,0.0,0.819035250306,-0.573609713852,-0.0115715958861,0.0,-0.00770186518166,0.00917464685765,-0.99992825099,0.0,0.624659313067,0.212702526621,0.304053759521,1.0,-0.220752,-0.2901312,1.232
0.428574679415,0.344956192311,-0.126301416375,-1.66569517549,0.0591442068653,2.00294659078,0.110263668891,-0.261093267653,-1.03250571793,-0.0188443470602,-1.48928570439,-0.105365176247,0.50108705504,-0.290082040876,0.573719423684,0.819034147732,0.00313602280587,0.0,0.819004317736,-0.573654301861,-0.0115506012226,0.0,-0.00766149136223,0.00919539753502,-0.999928370542,0.0,0.620150612579,0.206690741432,0.304091569858,1.0,-0.238134857143,-0.312977240816,1.252
0.424846764841,0.330270958388,-0.12644816176,-1.68727394584,0.0574739747997,2.00987177804,0.10611603903,-0.271323843682,-1.04319919937,-0.00610977452671,-1.51822845885,-0.110475976818,0.480486563625,-0.311452353351,0.573706419536,0.819043278388,0.00313036922487,0.0,0.819013016622,-0.57364088785,-0.0115998832671,0.0,-0.00770524698846,0.00921891813095,-0.999927817754,0.0,0.616764693204,0.20226731038,0.304082614818,1.0,-0.250302857143,-0.328969469388,1.266
0.419112308293,0.30829778711,-0.126645466551,-1.71915477296,0.054883868488,2.02000589363,0.099772484249,-0.299264925088,-1.1214356185,-0.00770517527142,-1.57194112492,-0.12224726901,0.526450160209,-0.327735995876,0.573565860502,0.819141285906,0.00324103244761,0.0,0.819112474543,-0.573500016998,-0.0115425930092,0.0,-0.00759642857126,0.00927538597993,-0.999928128161,0.0,0.611636974098,0.195647754552,0.304135111047,1.0,-0.267685714286,-0.351815510204,1.286
0.414996646539,0.293418492089,-0.126821605121,-1.74066020115,0.0529941920602,2.02649763847,0.0953302523293,-0.320770473088,-1.14250663141,-0.0169725855692,-1.61698974453,-0.133322157994,0.493711817509,-0.338110004581,0.57347136612,0.819208261743,0.00302705048083,0.0,0.819177000891,-0.573406604498,-0.0116040523378,0.0,-0.0077705544142,0.00913445774771,-0.999928087497,0.0,0.608063558653,0.191013499351,0.304106026408,1.0,-0.278984571429,-0.366665436735,1.299
0.408098331378,0.269639983977,-0.12709141843,-1.77444182688,0.0502052712662,2.0368708821,0.0880688450037,-0.354992736328,-1.21322807768,-0.0119327301975,-1.7194095545,-0.144078599405,0.531741521104,-0.382391195062,0.573426049656,0.819238914994,0.00330342809994,0.0,0.819210688597,-0.573359757744,-0.0115404848121,0.0,-0.00756050708408,0.00932399774127,-0.999927948304,0.0,0.602391527497,0.183600530636,0.304211107443,1.0,-0.296367428571,-0.389511477551,1.319
0.402750686061,0.252441894906,-0.127378366169,-1.79856502636,0.048027136721,2.04406673729,0.0827343762289,-0.389333135632,-1.24439144611,-0.0201033357192,-1.72076464286,-0.155568478174,0.542869081318,-0.384508167621,0.573560064334,0.819144595722,0.00342502564676,0.0,0.819118613228,-0.573494233381,-0.0113933596139,0.0,-0.00736871836795,0.00934045816397,-0.999929226411,0.0,0.598269225814,0.178031920926,0.304311236925,1.0,-0.308535428571,-0.405503706122,1.333
0.394146315208,0.225764727019,-0.127701106716,-1.8357574714,0.0446852106845,2.05485843334,0.0740396623746,-0.418467065949,-1.29932397197,-0.0132488399559,-1.80375540272,-0.159818958617,0.502047293213,-0.431605753835,0.573484926896,0.819196535015,0.00358085786554,0.0,0.8191722802,-0.573418306093,-0.0113564294813,0.0,-0.00724995781379,0.00944626250352,-0.999929100605,0.0,0.591672290017,0.169417063953,0.304377620419,1.0,-0.326787428571,-0.42949204898,1.354
0.388852895796,0.210043043352,-0.127899252072,-1.85743645067,0.042629734019,2.06094391701,0.0687417603603,-0.444410592604,-1.3259561411,-0.0184962778642,-1.810478125,-0.178728272756,0.508061758082,-0.442201659368,0.573388557226,0.819263820392,0.00361966021309,0.0,0.819240146336,-0.573321948929,-0.0113257409678,0.0,-0.00720367785936,0.00945960336238,-0.999929308966,0.0,0.58771597141,0.164277930955,0.304412095039,1.0,-0.337217142857,-0.443199673469,1.366
0.379239471635,0.183175062333,-0.12832564787,-1.89423100793,0.0390521899036,2.07079983359,0.0593666236028,-0.499063039736,-1.35882805173,-0.0253514382052,-1.86127211058,-0.172785354459,0.478727517473,-0.488475782215,0.573362853871,0.819282489699,0.00346219213845,0.0,0.819256393554,-0.573296188609,-0.0114537613111,0.0,-0.00739914698265,0.00940376536963,-0.999928408348,0.0,0.580811771293,0.155243427131,0.304382462963,1.0,-0.3546,-0.466045714286,1.386
0.371844277044,0.163830207781,-0.128735059452,-1.92034971391,0.0364566995969,2.07762869231,0.0523887040584,-0.534851950687,-1.39614541052,-0.0269935725467,-1.89131799862,-0.199548730795,0.471851261877,-0.511006712321,0.573534605346,0.819162346096,0.00344297977743,0.0,0.81913582041,-0.57346774383,-0.0114891866113,0.0,-0.00743721440365,0.00940989534313,-0.999928068269,0.0,0.57582048362,0.148544072853,0.304385071223,1.0,-0.366768,-0.482037942857,1.4
0.360601304081,0.135419811954,-0.129226614012,-1.95796080597,0.0325247613777,2.08720515025,0.041755862685,-0.585091623259,-1.44637073126,-0.0321379137118,-1.89548398732,-0.189221197293,0.495194438238,-0.553975265681,0.573516860699,0.819173965156,0.00362935346674,0.0,0.819150285552,-0.57345003723,-0.0113406958281,0.0,-0.00720888868192,0.0094772486645,-0.999929104328,0.0,0.568419960217,0.138771857727,0.304497879233,1.0,-0.384150857143,-0.504883983673,1.42
0.352691617743,0.116571258719,-0.129615449375,-1.98264001587,0.0299045911419,2.09313752347,0.0343956158464,-0.625793641643,-1.45827835474,-0.0316174652132,-1.88722313249,-0.196880316495,0.459751690993,-0.578393616415,0.573589065023,0.819123243413,0.00366653619486,0.0,0.819099773491,-0.573521774559,-0.0113614292713,0.0,-0.00720371114333,0.00952023385377,-0.999928733307,0.0,0.563416531444,0.132134338564,0.304532862514,1.0,-0.395449714286,-0.519733910204,1.433
0.338950759592,0.085271581728,-0.130240149313,-2.02310535667,0.0253287587938,2.10237289925,0.0216493221877,-0.66661431457,-1.50602279649,-0.028377479257,-1.9588485124,-0.20905082773,0.414114324272,-0.623691734484,0.573526085625,0.819167688476,0.00358805885624,0.0,0.819143299467,-0.573459143395,-0.0113847572328,0.0,-0.00726856005044,0.00946877192492,-0.999928752658,0.0,0.554938654983,0.121023678883,0.304542806285,1.0,-0.40998,-0.538830857143,1.454
0.329908490711,0.065887397608,-0.130572815103,-2.04782475367,0.0225129873922,2.10779880025,0.0133652643713,-0.697989843689,-1.47644829945,-0.0189981363764,-1.91090985805,-0.22571427056,0.408621764491,-0.635521462158,0.57348073427,0.819199271096,0.00362609399743,0.0,0.819175007393,-0.573413213842,-0.0114166700458,0.0,-0.00727341760293,0.00951782914564,-0.999928251588,0.0,0.549615960974,0.114062176125,0.304533352012,1.0,-0.40998,-0.538830857143,1.467
0.315132634715,0.0363164115531,-0.131191411918,-2.08480749426,0.0180753323371,2.11514319189,0.00030261035457,-0.741664368693,-1.46922760493,-0.0203528027487,-1.78683137831,-0.195502218222,0.357613261865,-0.655120944165,0.573769586227,0.818997507581,0.00350590897131,0.0,0.818971021073,-0.573701517664,-0.0115664243678,0.0,-0.00746167109152,0.0095078834299,-0.999926959141,0.0,0.54140216126,0.103106476322,0.30455301735,1.0,-0.40998,-0.538830857143,1.487
0.304443586001,0.0157554527358,-0.131532361087,-2.10988562857,0.0149330899008,2.11998449392,-0.0091930890233,-0.770211872071,-1.47391655732,-0.0302429345213,-1.74257164706,-0.220616334187,0.347536531795,-0.698155306122,0.573787701023,0.818983996393,0.0036925205398,0.0,0.818960452949,-0.573719770257,-0.0114082699463,0.0,-0.00722485757773,0.00957013753376,-0.999928104366,0.0,0.535694792768,0.0955355098163,0.304677211271,1.0,-0.40998,-0.538830857143,1.501
0.288544051783,-0.0131784976949,-0.132047557332,-2.14465402168,0.0105090210486,2.12630481857,-0.0232267504741,-0.791465938595,-1.45840255993,-0.0144936732819,-1.71192335898,-0.223311316231,0.314174442474,-0.71386357973,0.573879236219,0.818918321719,0.0040188915806,0.0,0.818899465145,-0.573811103131,-0.0111906572811,0.0,-0.00685828171152,0.00971334103102,-0.99992930499,0.0,0.527562749235,0.0847061092617,0.304827238379,1.0,-0.40998,-0.538830857143,1.521
0.277895479803,-0.0316610662168,-0.132315650838,-2.16655174957,0.00760037273982,2.12981547869,-0.032632460348,-0.816264659469,-1.42815303287,-0.0256522158672,-1.65658079391,-0.23757354103,0.291299693128,-0.721083928568,0.573823994891,0.818956851894,0.00405518475494,0.0,0.818938466979,-0.573755790133,-0.0111726224369,0.0,-0.00682334133557,0.00973225300271,-0.999929360137,0.0,0.52224500994,0.0777353654357,0.304883605307,1.0,-0.40998,-0.538830857143,1.534
0.260775808647,-0.0597531223523,-0.132899346768,-2.19951199982,0.00315343056629,2.13467762897,-0.0475778618992,-0.859153553152,-1.39538156622,-0.0219131706663,-1.60115668342,-0.222196379072,0.216124261645,-0.751931119689,0.574006574128,0.818828976728,0.00403814686068,0.0,0.818809776662,-0.573937538636,-0.0112693517748,0.0,-0.00691016075428,0.00977534433968,-0.999928343593,0.0,0.514020757111,0.066854597214,0.304870294718,1.0,-0.40998,-0.538830857143,1.554
0.248455506278,-0.0792062727631,-0.133255845449,-2.22186835101,2.9623647689e-05,2.13763944491,-0.0584587795993,-0.885737652192,-1.40320005147,-0.0289822974979,-1.60466179484,-0.227165408407,0.208923993639,-0.786344780191,0.573951477478,0.818867434426,0.00407102429558,0.0,0.81884849014,-0.573882129075,-0.0112782545256,0.0,-0.00689924008966,0.00980691175953,-0.9999281099,0.0,0.50826231198,0.0593260651468,0.304893502764,1.0,-0.40998,-0.538830857143,1.568
0.230202053292,-0.106438372247,-0.133753107178,-2.25276481439,-0.00435675847867,2.14118166602,-0.0745125527552,-0.924187597197,-1.33898508987,-0.0194511835501,-1.52432903698,-0.21461218556,0.14004943321,-0.804959478787,0.573926390152,0.818885296251,0.00401461968171,0.0,0.818864580696,-0.573855727155,-0.0114520650439,0.0,-0.00707425138069,0.00986026205333,-0.999926362389,0.0,0.500039771564,0.0485893956466,0.3048543263,1.0,-0.40998,-0.538830857143,1.588
0.215955166071,-0.126580544671,-0.134201209379,-2.27530133216,-0.00775029909842,2.14346544006,-0.0869690264463,-0.958867042277,-1.35031891948,-0.0319197294099,-1.5168043731,-0.22498537134,0.140202046482,-0.843560895785,0.573973714919,0.818852667989,0.00390251335188,0.0,0.818830275819,-0.573903054862,-0.0115329928564,0.0,-0.00720429634113,0.00981531981356,-0.999925876058,0.0,0.493862505201,0.0404667055343,0.30478735851,1.0,-0.40998,-0.538830857143,1.603
0.197446535808,-0.151678066662,-0.134620866989,-2.30285286584,-0.0119111657288,2.14575086978,-0.103414580578,-0.987886232437,-1.30842925664,-0.0265969311712,-1.46122994506,-0.225253985372,0.115256523753,-0.87298101297,0.573737205099,0.819018831037,0.00381061579382,0.0,0.818994353956,-0.573665658737,-0.0116921800938,0.0,-0.00739023853815,0.00982930079327,-0.999924381751,0.0,0.486044640449,0.0303599330896,0.304715675493,1.0,-0.40998,-0.538830857143,1.622
0.184282661361,-0.168641577446,-0.135042811615,-2.32109724518,-0.0147344994084,2.14691409121,-0.115001134737,-1.00642969085,-1.31901835648,-0.0246211551767,-1.38794165136,-0.217868016723,0.0929429156864,-0.897006504583,0.573789226049,0.818982555957,0.00377412358432,0.0,0.818956795812,-0.573716723028,-0.0118167344543,0.0,-0.00751256621154,0.00987134912864,-0.999923055947,0.0,0.480702952008,0.0233456584864,0.304689813921,1.0,-0.40998,-0.538830857143,1.635
0.162278934436,-0.195759068563,-0.135734739379,-2.34967192298,-0.0193247592628,2.14827042139,-0.134480866535,-1.06819873922,-1.31532154029,-0.0393812388789,-1.34032305629,-0.220225502294,0.0687298635831,-0.94552855142,0.573782010466,0.818987685024,0.00375807750583,0.0,0.818961014067,-0.573708645353,-0.0119161481125,0.0,-0.00760328338883,0.00991518128409,-0.999921936584,0.0,0.472055993618,0.0120094537447,0.304679759271,1.0,-0.40998,-0.538830857143,1.656
0.149363787488,-0.210911666066,-0.136104070227,-2.36553991572,-0.0218009328539,2.14868764497,-0.146015884017,-1.0833395609,-1.26115952512,-0.0330534053294,-1.30236535531,-0.210683394918,0.0206594172469,-0.970008455768,0.573738344204,0.819018620477,0.00368220093836,0.0,0.818988911387,-0.573662636967,-0.012210195523,0.0,-0.00788818826496,0.0100213320415,-0.999918671388,0.0,0.467068939585,0.00559794838619,0.30458676467,1.0,-0.40998,-0.538830857143,1.668
0.125887449587,-0.237164698009,-0.13688872991,-2.39209594625,-0.0263456037263,2.14906042019,-0.166800398415,-1.12723045219,-1.23560176849,-0.0314446731628,-1.24172573681,-0.201204603372,-0.00439354738603,-1.01065361842,0.573858555781,0.818933962462,0.00377756331663,0.0,0.818905767053,-0.5737827962,-0.0121406084526,0.0,-0.00777500543711,0.0100606541171,-0.999919162997,0.0,0.458471581125,-0.00577445150491,0.304641161873,1.0,-0.40998,-0.538830857143,1.689
0.109669866443,-0.254349088424,-0.137476443601,-2.40902832258,-0.0292376761057,2.14906315785,-0.181255040764,-1.16360149597,-1.21147132527,-0.035966173313,-1.20323674259,-0.217744413248,-0.00707515037188,-1.04334770146,0.57399805181,0.818834917485,0.00404491361098,0.0,0.818810739986,-0.573921971962,-0.011970341883,0.0,-0.00748041313318,0.0101831676849,-0.999920170071,0.0,0.452791260565,-0.0133862532155,0.304737925286,1.0,-0.40998,-0.538830857143,1.703
0.0846708511425,-0.279516524223,-0.138289389701,-2.43347862604,-0.0335821712209,2.1486724906,-0.203689677006,-1.21437066911,-1.16997983794,-0.0399593720967,-1.15378849154,-0.200781708683,-0.0390695630792,-1.09211225479,0.574044685099,0.818800691299,0.00434446066863,0.0,0.818781655866,-0.573969339311,-0.0116852235568,0.0,-0.00707441811112,0.010265202814,-0.99992228609,0.0,0.444261213669,-0.024719639139,0.30483148467,1.0,-0.40998,-0.538830857143,1.724
0.0687980395116,-0.294731633807,-0.13868839696,-2.44797426043,-0.0361851561698,2.14799758098,-0.218093270567,-1.23989550026,-1.16550471752,-0.028884485016,-1.08834341917,-0.204262009858,-0.0476715184139,-1.12240695473,0.57391515226,0.818890941898,0.00444636764593,0.0,0.818873368573,-0.57383971736,-0.0116246257188,0.0,-0.00696793250519,0.0103127594441,-0.999922544455,0.0,0.438959632353,-0.0316459930426,0.30488206057,1.0,-0.40998,-0.538830857143,1.737
0.043571214496,-0.317517045566,-0.139480815264,-2.46943786141,-0.0401866247811,2.14663456859,-0.240945458458,-1.26881989677,-1.12056256516,-0.0320464711905,-1.05919996824,-0.199771805575,-0.0825741460945,-1.15350818377,0.573927493648,0.81888182918,0.00453086914463,0.0,0.818865281847,-0.57385169763,-0.0116028536993,0.0,-0.00690145198495,0.0103695678282,-0.999922418002,0.0,0.430772438672,-0.0424135295959,0.304895079894,1.0,-0.40998,-0.538830857143,1.757
0.0267028734105,-0.331956664107,-0.140006488654,-2.48270211072,-0.0427328833253,2.14557366205,-0.256307834788,-1.29456073891,-1.08817381089,-0.0289457721972,-1.01384526632,-0.206215964771,-0.091696237418,-1.20585407836,0.573929851742,0.818879433814,0.00466315955251,0.0,0.818865237146,-0.573854645999,-0.0114593001442,0.0,-0.00670793858834,0.0103955338319,-0.999923465289,0.0,0.425488337027,-0.0494174125982,0.304952190024,1.0,-0.40998,-0.538830857143,1.77
-0.00136572027592,-0.354569648822,-0.14084967973,-2.50321630563,-0.0467593305966,2.14335757593,-0.281989035463,-1.35119223246,-1.07551581148,-0.03099072534,-0.934644615013,-0.189943474216,-0.0946073567675,-1.2414159376,0.573916993701,0.818888139587,0.00471657577148,0.0,0.818874462566,-0.573841374957,-0.0114646346064,0.0,-0.0066818156237,0.0104422331225,-0.999923153601,0.0,0.416875217684,-0.0607301602979,0.304975913294,1.0,-0.40998,-0.538830857143,1.791
-0.0178457561362,-0.367030026586,-0.141429801009,-2.51440130006,-0.0489459025372,2.14195403818,-0.297148334627,-1.39330387799,-1.02728682075,-0.0552834497278,-0.93444418846,-0.193720003817,-0.116269585632,-1.27071873761,0.573997347997,0.818831408319,0.00478708101274,0.0,0.818817888433,-0.573920330282,-0.0115527906853,0.0,-0.00671251398767,0.0105512219257,-0.999921803879,0.0,0.411939321086,-0.0672216303795,0.304954848456,1.0,-0.40998,-0.538830857143,1.803
-0.0473812480061,-0.388117957085,-0.14232997168,-2.53288447186,-0.0527765253007,2.13928252017,-0.324437848847,-1.425565145,-0.98949953559,-0.0494784825565,-0.838309355328,-0.174384235515,-0.115373478022,-1.32010337517,0.573999662962,0.818829274022,0.00487378958821,0.0,0.818817105525,-0.573922757491,-0.0114875164828,0.0,-0.00660926327086,0.0105847766627,-0.99992213704,0.0,0.403343129529,-0.0785298286837,0.304984455113,1.0,-0.40998,-0.538830857143,1.824
-0.0661598358848,-0.400599553447,-0.142860484397,-2.54372603446,-0.0549740538823,2.13746251515,-0.341928785479,-1.46063998642,-0.952831833043,-0.0438996985501,-0.852040896981,-0.179153874957,-0.13588004151,-1.34679023365,0.573977893181,0.818844188266,0.00493157008289,0.0,0.818831939732,-0.573899494096,-0.0115918959989,0.0,-0.00666185935543,0.0106918249911,-0.999920649106,0.0,0.397996922937,-0.0855070687338,0.304959608304,1.0,-0.40998,-0.538830857143,1.837
-0.0972133261905,-0.419965387341,-0.143806325937,-2.5599694387,-0.0584588318742,2.13441560081,-0.370952904707,-1.50190485026,-0.888955823184,-0.061474726076,-0.759916046992,-0.151691485389,-0.151524721244,-1.40130071384,0.574020886782,0.818812597712,0.00516703666799,0.0,0.818804067662,-0.573942905521,-0.0114099466867,0.0,-0.00637714682794,0.0107805459156,-0.999921552837,0.0,0.389437088846,-0.0968227736788,0.305063072974,1.0,-0.40998,-0.538830857143,1.858
-0.116884416973,-0.431215523653,-0.144285513803,-2.56954035201,-0.0605419354246,2.1323903265,-0.389494760878,-1.52985880649,-0.85631193415,-0.0392261287635,-0.724325596529,-0.152264366112,-0.15897190929,-1.43537791618,0.573890474683,0.818904437745,0.00509821640826,0.0,0.818893982472,-0.573810988594,-0.0115905884696,0.0,-0.00656629815815,0.0108268355069,-0.999919828467,0.0,0.384490496853,-0.103222145016,0.304997674002,1.0,-0.40998,-0.538830857143,1.87
-0.147820957655,-0.447679078947,-0.145174858373,-2.58291067768,-0.0636136224281,2.12930255131,-0.418665111405,-1.56946721614,-0.785352174244,-0.0528064746015,-0.646004032918,-0.144896091853,-0.135854543318,-1.48998252198,0.573959734113,0.818854811789,0.00526950931699,0.0,0.818847030672,-0.573880495192,-0.0114657969404,0.0,-0.006364876923,0.0108960376031,-0.999920379183,0.0,0.375928298432,-0.114546402199,0.305078718878,1.0,-0.40998,-0.538830857143,1.891
-0.16989618025,-0.458370403511,-0.145700806844,-2.59169300158,-0.0656428529187,2.12710201134,-0.439681194958,-1.59014835094,-0.743790517443,-0.0366018716151,-0.606107578476,-0.138832066068,-0.166702567791,-1.50609144121,0.57385241467,0.818930120972,0.00525452604956,0.0,0.818921226633,-0.573771676841,-0.0116118184037,0.0,-0.00649449466671,0.010966724091,-0.999918772952,0.0,0.370183928852,-0.122023931768,0.305031845855,1.0,-0.404274857143,-0.531332669388,1.905
-0.201617238473,-0.472143262955,-0.146170914245,-2.60283384473,-0.0680810280481,2.12415929832,-0.469768642128,-1.58625646723,-0.662093471418,-0.0327685939381,-0.521411573961,-0.109149850938,-0.147200021821,-1.50234949122,0.573852499269,0.81892943384,0.0053514834668,0.0,0.818920806659,-0.573769768233,-0.0117350920089,0.0,-0.00653981873826,0.0111168670701,-0.999916819559,0.0,0.362213751981,-0.132479166247,0.304993883734,1.0,-0.386892,-0.508486628572,1.925
-0.222055743167,-0.48023688446,-0.146288209536,-2.60902419267,-0.0694471236042,2.12240395589,-0.489031625871,-1.58466132409,-0.616772684422,-0.0136523211818,-0.464032141655,-0.101493934384,-0.137223966049,-1.47724254441,0.573953068474,0.818857969977,0.00549973597082,0.0,0.818852702076,-0.573872350088,-0.0114684352957,0.0,-0.00623499328152,0.0110860307294,-0.999919109119,0.0,0.357280976347,-0.139080006086,0.305108124331,1.0,-0.375593142857,-0.493636702041,1.938
-0.253012015353,-0.49127414606,-0.146314491636,-2.61760882888,-0.0711836972356,2.11977060361,-0.518396325989,-1.54684895866,-0.524349697213,-0.00398563401616,-0.39811664616,-0.0727377875741,-0.133023059019,-1.45328222157,0.574024849352,0.818806533524,0.0056639108654,0.0,0.818803171238,-0.573943237777,-0.0114574640158,0.0,-0.00613080109013,0.0112147131518,-0.999918318408,0.0,0.34984541467,-0.148830238719,0.305150106205,1.0,-0.358210285714,-0.470790661225,1.958
-0.272682622764,-0.497571903363,-0.14611656778,-2.6223322434,-0.0720438893447,2.118357189,-0.537085318256,-1.51399974644,-0.476302174404,0.0183971607146,-0.353818618217,-0.0605516589374,-0.115977905298,-1.41399497517,0.574035309986,0.81879791636,0.00584653348765,0.0,0.818798287954,-0.573955778533,-0.0111747408613,0.0,-0.00579431441199,0.0112020431185,-0.999920466912,0.0,0.345284557547,-0.154898876706,0.305250483813,1.0,-0.346911428572,-0.455940734694,1.971
-0.30356965662,-0.506291086376,-0.14573428344,-2.62863500828,-0.0731781393459,2.11631473409,-0.566553752742,-1.45811915639,-0.391682893288,0.0170686166348,-0.267799534615,-0.0503985522314,-0.0911246091288,-1.38596184784,0.574055543786,0.818781620987,0.00613487438576,0.0,0.818788362107,-0.573980852561,-0.0105993336141,0.0,-0.00515733842241,0.0111079838348,-0.999925004466,0.0,0.338278110677,-0.16433514983,0.305473115937,1.0,-0.328659428572,-0.431952391837,1.992
-0.322121518807,-0.510943930976,-0.145417214578,-2.63172835396,-0.07375611869,2.11534173072,-0.584286679748,-1.41059127561,-0.342831953312,0.0265634523347,-0.230023821149,-0.0301086662202,-0.0711450556254,-1.35515751018,0.57406168639,0.818775837839,0.00632886170908,0.0,0.8187881516,-0.573993922521,-0.00988365361706,0.0,-0.00445985447975,0.0108560328559,-0.999931125752,0.0,0.334205801517,-0.169971226443,0.305718684876,1.0,-0.317360571429,-0.417102465306,2.005
-0.349819249832,-0.51701224776,-0.144726790866,-2.63592840113,-0.074421258503,2.11372673195,-0.610809191325,-1.35690800045,-0.279892125314,0.0488988999232,-0.195236238113,-0.02684921941,-0.0751713656632,-1.29601815773,0.573989567246,0.818825613329,0.00642950616004,0.0,0.818841037121,-0.573926540689,-0.00940365459914,0.0,-0.00400996622018,0.0106625484133,-0.999935113011,0.0,0.3280668436,-0.178183836493,0.305931961234,1.0,-0.299977714286,-0.39425642449,2.025
-0.368527420741,-0.5204466,-0.144200869205,-2.63840991869,-0.0748052989525,2.11278513368,-0.628709033247,-1.31766789342,-0.231639390245,0.0418668271616,-0.166812833455,-0.0244687882043,-0.063649666535,-1.27156107317,0.573961926736,0.818845136509,0.00641061424563,0.0,0.818861056304,-0.573900852422,-0.00922653559746,0.0,-0.00387612144804,0.0105452855308,-0.999936884326,0.0,0.323934219177,-0.183666445944,0.306001617127,1.0,-0.287809714286,-0.378264195918,2.039
-0.394120817569,-0.524329362505,-0.143387517357,-2.6412628652,-0.0750834355226,2.11167521847,-0.65324932533,-1.25374875957,-0.177573593844,0.0502330280739,-0.126489814052,-0.00691302311499,-0.0567159920581,-1.21482465626,0.57395456592,0.818850124945,0.00643242083087,0.0,0.81886679826,-0.573894855165,-0.0090889396002,0.0,-0.00375101832487,0.0104841360859,-0.999938004454,0.0,0.318330254705,-0.191081745183,0.306056788282,1.0,-0.270426857143,-0.355418155102,2.059
-0.410077123518,-0.526376277902,-0.142929917675,-2.6427899652,-0.0752074553057,2.11112456312,-0.668565778104,-1.22356266286,-0.13463854679,0.0165978400519,-0.109148113257,-0.00366923505557,-0.0427611986193,-1.16915943152,0.57400861462,0.818811952167,0.00646871174472,0.0,0.81882937318,-0.573949800173,-0.00899062840017,0.0,-0.00364898843263,0.0104576706783,-0.999938659122,0.0,0.314833107859,-0.195690349268,0.306077346894,1.0,-0.259128,-0.340568228572,2.072
-0.433488173309,-0.528313672863,-0.141930234894,-2.64460941634,-0.075271639022,2.11027427091,-0.691073527343,-1.14489723385,-0.114895494479,0.0383824806423,-0.0842227013683,-0.0128541072676,-0.0360561882796,-1.10653942585,0.573906481933,0.818884981951,0.00628356837052,0.0,0.818898453693,-0.573843026947,-0.0094999928575,0.0,-0.00417369994254,0.0105979159442,-0.999935130099,0.0,0.309726872678,-0.202312886037,0.305912295593,1.0,-0.241745142857,-0.317722187755,2.092
-0.447911356949,-0.529468516425,-0.141364700654,-2.64553981899,-0.0752653360338,2.11000548113,-0.704959370038,-1.08810025292,-0.0830495262505,0.0342157348171,-0.0754886326795,0.00275064911781,-0.0111832153372,-1.0357440354,0.573893919775,0.818893912308,0.00626706717361,0.0,0.818907533935,-0.573831362032,-0.00942155584992,0.0,-0.00411909434313,0.0105393250559,-0.999935975795,0.0,0.306603144889,-0.206403163289,0.305903270876,1.0,-0.230446285714,-0.302872261225,2.105
-0.470105243525,-0.530424123969,-0.140385048386,-2.64647444622,-0.0752145817654,2.10949128755,-0.726156045123,-1.03690759561,-0.0359937035273,0.0576374165354,-0.0385031318896,0.00478063634262,-0.0158501452038,-0.986709728138,0.573985998774,0.818830603888,0.0061042811858,0.0,0.818841239812,-0.573921002347,-0.00971874220314,0.0,-0.00445471413752,0.0105770627659,-0.999934138464,0.0,0.301807682137,-0.212658885002,0.30580910009,1.0,-0.212194285714,-0.278883918367,2.126
-0.482968084406,-0.530934737287,-0.139679112887,-2.6468443736,-0.0751353738034,2.10933351855,-0.738529327982,-0.980896287253,-0.0230666573371,0.053724076305,-0.0265766108713,-0.00319836288435,-0.0128105633851,-0.930006059948,0.573900422045,0.818891410364,0.005992537894,0.0,0.818901303776,-0.573836955629,-0.0096202873427,0.0,-0.00443931643918,0.0104285848431,-0.999935766481,0.0,0.299067443368,-0.216247786236,0.305832553781,1.0,-0.200895428572,-0.264033991837,2.139
-0.5022979512,-0.531197300396,-0.138481607981,-2.64706007249,-0.0747747344112,2.10913655699,-0.757206066011,-0.887032176747,-0.0156546681242,0.0577538324166,-0.00910455523464,0.0348432073143,-0.00409746163321,-0.858771737117,0.573761467518,0.818989437593,0.00590138998587,0.0,0.818998383757,-0.573698431113,-0.00961792299775,0.0,-0.00449144564471,0.0103518217787,-0.999936331324,0.0,0.295175047609,-0.221353634472,0.305838377937,1.0,-0.183512571429,-0.241187951021,2.159
-0.513513990764,-0.531193465264,-0.137799569473,-2.64710150686,-0.0745121609913,2.10909485463,-0.767918139766,-0.85002485302,0.00939611649907,0.0500223901655,0.000448632869406,0.0222261449538,-0.0152859750946,-0.808957798362,0.573772411752,0.818981895521,0.0058839801451,0.0,0.818990762796,-0.573709684596,-0.00959558006925,0.0,-0.0044829962721,0.0103248032903,-0.999936648584,0.0,0.292621257354,-0.224675902166,0.305839741975,1.0,-0.171344571429,-0.225195722449,2.173
-0.529384614553,-0.531003854809,-0.136532512585,-2.64696621347,-0.0739849231551,2.10907425855,-0.783191135557,-0.761205928987,0.0140301669288,0.0637066449952,0.00417856771531,0.0269948408994,-0.000890950297759,-0.730904391545,0.573600226109,0.819102958621,0.00581985296171,0.0,0.819111449794,-0.573538464396,-0.00952940580745,0.0,-0.00446774097797,0.0102333745471,-0.999937656725,0.0,0.289327433274,-0.22895816366,0.305863936909,1.0,-0.153961714286,-0.202349681633,2.193
-0.538962394919,-0.530704290662,-0.135815708682,-2.6468069529,-0.0736030233575,2.10907405062,-0.792295030917,-0.728293360532,0.0253229102713,0.0519994455616,0.0159430469946,0.038384130173,-0.000186283790713,-0.690213119004,0.573664614022,0.819057678653,0.00584607215036,0.0,0.819066152732,-0.57360206949,-0.00959428093147,0.0,-0.00450503712017,0.0102924174531,-0.9999368834,0.0,0.287172969475,-0.231731634138,0.305844182066,1.0,-0.141793714286,-0.186357453061,2.207
-0.552302611083,-0.53009607198,-0.134602838447,-2.64649182088,-0.0729828823681,2.10917068319,-0.805043904937,-0.633739322161,0.0345694313755,0.0630473483492,0.0138994020873,0.0308861898283,0.00380876863246,-0.615978206236,0.573565814858,0.819127023925,0.00582422559065,0.0,0.81913494069,-0.573502632003,-0.00966576053933,0.0,-0.0045773650874,0.010314975099,-0.999936322481,0.0,0.284575665558,-0.235079198877,0.30580721294,1.0,-0.12528,-0.164653714286,2.226
-0.560238039212,-0.529629428366,-0.133891729403,-2.64621276723,-0.0725676860978,2.10923362072,-0.812515646771,-0.596554794236,0.0372479297081,0.0534310228333,0.0225026314637,0.0332982434602,0.00522922416962,-0.561222419713,0.573639548278,0.819075185022,0.00585293376653,0.0,0.819083202634,-0.573575779759,-0.00970973418104,0.0,-0.00459598975888,0.0103641268054,-0.999935728811,0.0,0.282825487013,-0.237343864813,0.305792610574,1.0,-0.113112,-0.148661485714,2.24
-0.57178012508,-0.528873513904,-0.132767041898,-2.64573220563,-0.071917799176,2.10937623656,-0.823192722284,-0.506293643281,0.0391237141267,0.0611831663855,0.0270470169399,0.024573121796,0.00765615110171,-0.474088170246,0.573855133598,0.818924058659,0.0058667447617,0.0,0.818932047989,-0.573790878738,-0.00975064898109,0.0,-0.00461884533309,0.0104001255111,-0.999935249732,0.0,0.280589906581,-0.240230210133,0.305771178553,1.0,-0.0957291428573,-0.125815444898,2.26
-0.577835218529,-0.528408586786,-0.131998788982,-2.64541440643,-0.0714645528743,2.10945682588,-0.828963337195,-0.450400401181,0.0356949700491,0.059027014667,0.0227631172701,0.0391364946493,0.00392498315411,-0.429491644994,0.573756384797,0.818993171248,0.0058773509426,0.0,0.819001237479,-0.573692022046,-0.00975621596603,0.0,-0.00461857382872,0.0104114493497,-0.999935133145,0.0,0.279402473551,-0.241779854813,0.305772338575,1.0,-0.0844302857144,-0.110965518368,2.273
-0.586566360284,-0.527731753568,-0.130815127037,-2.6449560009,-0.0707829372413,2.10958123593,-0.836895865032,-0.387552097782,0.0270794355805,0.0574360834397,0.0227879990985,0.035133747497,0.00733302581643,-0.349875230856,0.573890061592,0.818899520166,0.0058753705361,0.0,0.818907544361,-0.57382563737,-0.00976312385356,0.0,-0.00462366821629,0.0104145455198,-0.999935077359,0.0,0.277694392514,-0.243984625719,0.305773999506,1.0,-0.0661782857144,-0.0869771755104,2.294
-0.591059506809,-0.527357922144,-0.130040074985,-2.64465243675,-0.070339778032,2.10968239962,-0.840905776003,-0.329921519954,0.0225055884246,0.0616051184279,0.0266172844485,0.0358360595272,0.00782756942531,-0.298975723632,0.573943303297,0.818862310384,0.00586072821388,0.0,0.818870555358,-0.573879780275,-0.00968288490835,0.0,-0.00456568399116,0.0103568041176,-0.999935943517,0.0,0.276872209408,-0.245087825508,0.305803502054,1.0,-0.0548794285716,-0.0721272489798,2.307
-0.596573812524,-0.526758907236,-0.128808952646,-2.64428632874,-0.0695891033661,2.10980770787,-0.845912341823,-0.240075099145,0.0317346197323,0.0645649723598,0.0154998564328,0.0338838155862,0.010809912033,-0.21207124814,0.57382889197,0.818942370671,0.0058773430194,0.0,0.818950619469,-0.5737649299,-0.00971776664814,0.0,-0.00458616584883,0.0103897890103,-0.999935507604,0.0,0.275927699346,-0.246348843131,0.305792247509,1.0,-0.0374965714287,-0.0492812081634,2.327
-0.599523881172,-0.526469512883,-0.12786441656,-2.64415165339,-0.0691161696788,2.10980933207,-0.848452203197,-0.19048581831,0.0135625501145,0.0646307744073,0.00953357205252,0.0353569612203,-0.00209269369653,-0.168691746922,0.573706226084,0.819028766486,0.00581315078205,0.0,0.819035829956,-0.573641424916,-0.0098270936506,0.0,-0.00471409905394,0.0103992438048,-0.999934814375,0.0,0.275460233057,-0.246926380485,0.305770986603,1.0,-0.0253285714287,-0.033288979592,2.341
-0.602617429504,-0.526201974065,-0.126820690443,-2.64396003136,-0.068498260107,2.10988220904,-0.850943513041,-0.140253713683,0.0139528872452,0.041173555952,0.0138029323017,0.0257786235007,0.00279194669118,-0.120247488119,0.573734742598,0.819008793049,0.00581282590491,0.0,0.819016077869,-0.573670435377,-0.00977970693931,0.0,-0.00467510961945,0.0103719552098,-0.999935280853,0.0,0.275014710726,-0.247528424866,0.305792074404,1.0,-0.0197030769231,-0.0258954725275,2.361
-0.604163297234,-0.526083720043,-0.126356050844,-2.64380731754,-0.0682482462759,2.10992800769,-0.852247584278,-0.11908444493,0.0158818115433,0.0301612642296,0.0160053906568,0.0127840111783,-8.79281952678e-05,-0.104614007513,0.57371838507,0.81902044472,0.00578555651728,0.0,0.819027919249,-0.573655256556,-0.00967786220697,0.0,-0.00460754080989,0.0102910979279,-0.999936429915,0.0,0.274790395882,-0.247863504281,0.305833515291,1.0,-0.0194430769231,-0.0255537582418,2.374
-0.606340354928,-0.525816636184,-0.125889807724,-2.64359625813,-0.068016398439,2.11000920909,-0.854263447042,-0.0953788418648,0.0100618106623,0.0161395114953,0.0117592823142,0.0113931831902,0.000673508538535,-0.095640260225,0.573630550718,0.819082289148,0.0057394937579,0.0,0.819089510797,-0.573568138048,-0.00962866651946,0.0,-0.00459476792967,0.0102246532689,-0.999937170313,0.0,0.274424203306,-0.248389923683,0.305849918624,1.0,-0.0190230769231,-0.0250017582418,2.395
-0.607548395209,-0.525707700342,-0.125759277091,-2.64348358182,-0.0679056998199,2.11001055625,-0.855380281126,-0.0879275473559,0.0153970198693,0.0107911646966,0.00924588053125,0.00254704925249,0.00272505725762,-0.0896949052984,0.573665816199,0.819057399838,0.00576662784155,0.0,0.819064980515,-0.573603455445,-0.0096114773338,0.0,-0.00456468186171,0.0102372160084,-0.999937179571,0.0,0.274185132118,-0.248706338787,0.305864552804,1.0,-0.0187630769231,-0.024660043956,2.408
-0.60956273515,-0.525430304355,-0.125597599995,-2.64332564195,-0.0678388185186,2.11003054505,-0.857282619142,-0.0940187042562,0.00734310714454,0.00691683422686,0.00605998088765,0.00737248645803,-6.21272506679e-05,-0.0762397990513,0.573680400921,0.819047357874,0.00574195618941,0.0,0.819054291878,-0.573617275264,-0.00969718389658,0.0,-0.00464885709016,0.0102662558635,-0.999936494043,0.0,0.273757648224,-0.24925192683,0.30584025512,1.0,-0.0183230769231,-0.0240817582418,2.43
-0.610545747648,-0.525363633827,-0.125534714453,-2.64321829373,-0.067822521885,2.11006007416,-0.858259848721,-0.0756475574881,0.00515562540705,0.00452198454833,0.00310449756231,0.00236524097286,0.0056444762079,-0.0830863359529,0.573652956919,0.819066733299,0.00571999324312,0.0,0.819073791315,-0.573590709328,-0.00962130215249,0.0,-0.00459964209982,0.0102045814509,-0.999937352943,0.0,0.273555885851,-0.249534418177,0.305868701813,1.0,-0.0180830769231,-0.0237663296703,2.442
-0.612081220524,-0.525148516291,-0.125470160219,-2.64304478425,-0.0677892171201,2.11010137771,-0.859823242562,-0.0809862095724,0.00505009451597,-0.00254145253273,0.00455717961059,0.000458136037153,0.00119872563636,-0.0793060321104,0.573606166511,0.819099561704,0.00571144970067,0.0,0.819106554016,-0.57354401323,-0.00961587003187,0.0,-0.00460067572309,0.0101942044994,-0.999937454033,0.0,0.273212583893,-0.250005234761,0.305871674831,1.0,-0.0176830769231,-0.0232406153846,2.462
-0.613216049627,-0.525033361136,-0.125475252273,-2.64293743998,-0.0677712483925,2.11013506025,-0.860950371059,-0.0815494267461,0.0150494617512,9.92621089268e-05,0.00628697180298,0.00232336495115,-0.000804680134862,-0.0793208286231,0.573630855799,0.819082185998,0.00572370135227,0.0,0.819089470735,-0.573569015089,-0.00957970574266,0.0,-0.00456371643931,0.0101836343813,-0.999937731103,0.0,0.272977001565,-0.2503196176,0.305883184972,1.0,-0.0174230769231,-0.0228989010989,2.475
-0.614867179547,-0.524854983723,-0.125513509283,-2.64279271073,-0.0677497911308,2.11014936097,-0.862490855324,-0.0827884326625,0.00734083814172,-0.00224992395244,0.00826383088184,0.00129066236321,0.000285031468266,-0.0742917211157,0.573765273628,0.818987783159,0.00575922885619,0.0,0.818995393435,-0.573703166839,-0.00959003610176,0.0,-0.004550122178,0.0102194083463,-0.999937428083,0.0,0.272589857994,-0.250811332115,0.305883891228,1.0,-0.0170230769231,-0.0223731868132,2.495
-0.615902111066,-0.524764240435,-0.125513476304,-2.64269214523,-0.0677380392982,2.11017089839,-0.86351595644,-0.0799703511181,0.00554522735684,-7.22840122652e-05,0.00385849962466,-9.89466917286e-06,-0.000216239792034,-0.0764980729446,0.573783434131,0.818975009426,0.00576641606926,0.0,0.818982862687,-0.573721673905,-0.00955292721164,0.0,-0.00451537770853,0.010204103782,-0.999937741877,0.0,0.272356475646,-0.251118487501,0.30589820388,1.0,-0.0167630769231,-0.0220314725275,2.508
-0.617542521314,-0.524550572261,-0.125482593756,-2.64253261095,-0.067711149353,2.11020506578,-0.865063442904,-0.0746253765978,0.00336466747494,0.00144952316064,0.00843522246489,0.00496361943844,0.000605502829632,-0.0717515961518,0.573857596344,0.818923027751,0.00576893749681,0.0,0.818930863342,-0.573795714713,-0.00956377252214,0.0,-0.00452188899681,0.0102128011044,-0.999937623661,0.0,0.271991529728,-0.251596065827,0.305896029459,1.0,-0.0163230769231,-0.0214531868132,2.53
-0.61839147614,-0.524425869541,-0.125450938461,-2.64245137736,-0.067704923862,2.11025612347,-0.865986285595,-0.0720420645358,0.00685221408088,0.00678336083329,0.00379017388493,0.000803353229078,0.00201442690169,-0.0815681298021,0.573781722043,0.818976291944,0.00575461417233,0.0,0.818984031478,-0.573720030409,-0.00955142884808,0.0,-0.004520943405,0.0101935686647,-0.999937824181,0.0,0.271809760318,-0.251844262815,0.305892338416,1.0,-0.0160830769231,-0.0211377582418,2.542
-0.619861278983,-0.524199303989,-0.125346649216,-2.64229770192,-0.0676772240219,2.11028972399,-0.867521918748,-0.0647238819673,0.00810707756495,0.00531884472192,0.00572943725747,0.000630210917871,0.00104532886387,-0.0650860889422,0.573674059266,0.819051940198,0.00572187772948,0.0,0.819059199475,-0.57361220462,-0.00958192923492,0.0,-0.00456604674228,0.0101836568994,-0.999937720235,0.0,0.271500364821,-0.252256477044,0.305884435206,1.0,-0.0156630769231,-0.0205857582418,2.563
-0.620761280086,-0.524065876515,-0.125337537881,-2.64221125323,-0.0676659182037,2.11029708949,-0.868425479861,-0.0704298473279,0.00841598474995,0.000204349778677,0.00659380641856,0.000231623925185,0.00122370143711,-0.0787887652534,0.573674172759,0.819051831321,0.00572608238977,0.0,0.819058975474,-0.573611947061,-0.0096164331538,0.0,-0.004591896325,0.0102068950244,-0.999937364929,0.0,0.271294756031,-0.252517932526,0.305875611364,1.0,-0.0154030769231,-0.020244043956,2.576
-0.622139859278,-0.523860997836,-0.125302376475,-2.64209344565,-0.067646393913,2.11032115399,-0.869821662319,-0.0707551270233,0.0104601169557,-0.00202195881159,0.00504792645234,0.00525484181123,-9.19334507645e-05,-0.0680053556765,0.573649637028,0.819069025494,0.0057247108987,0.0,0.819075899967,-0.573586855316,-0.0096714219669,0.0,-0.0046380325401,0.0102371775297,-0.999936842431,0.0,0.270982616246,-0.25291120748,0.305856854056,1.0,-0.0150030769231,-0.0197183296703,2.596
-0.623008221727,-0.523740552385,-0.12530952199,-2.64201489856,-0.0676339158196,2.11034801702,-0.870679389609,-0.0683520668619,0.0126356293942,-0.00187415242773,0.00411555643526,0.000681581518918,0.00708756463755,-0.0698924767458,0.573672935434,0.819052622225,0.00573690490132,0.0,0.819059576957,-0.573609994733,-0.00968143784539,0.0,-0.00463895037812,0.0102530431724,-0.999936675618,0.0,0.270782641381,-0.253168069686,0.305850480704,1.0,-0.0147430769231,-0.0193766153846,2.609
-0.624363053232,-0.523576159863,-0.125306947535,-2.64191296174,-0.0676144525517,2.11036782278,-0.871948077178,-0.0681043839405,0.0101904677821,-0.00136278125446,0.00943642742276,0.000818853574298,-0.000134221552475,-0.0670988362627,0.573769418001,0.818984896355,0.00575685762849,0.0,0.818991916163,-0.573706059779,-0.00971314235552,0.0,-0.00465226234903,0.0102881219748,-0.999936253469,0.0,0.270447996131,-0.253580284504,0.305839819211,1.0,-0.0143230769231,-0.0188246153846,2.63
-0.625305424736,-0.523501362903,-0.125312263855,-2.64184610126,-0.0676029950898,2.1103804263,-0.872875835469,-0.0659799889787,0.00757829546949,0.000994152699803,0.00333968427389,1.40669491312e-05,9.47263103577e-06,-0.0747687351165,0.573779538113,0.818977743939,0.00576571557179,0.0,0.818984887709,-0.573716209741,-0.00970624988556,0.0,-0.00464140751057,0.0102914796391,-0.999936269361,0.0,0.270242049062,-0.253829686978,0.30584212351,1.0,-0.0140630769231,-0.0184829010989,2.643
-0.626647803498,-0.523354447115,-0.125322285879,-2.64168595114,-0.0675837183051,2.1104268582,-0.874174466806,-0.0633382558742,0.0137502070089,-0.000121201469946,0.00499652658009,0.000259158402485,0.00272611066316,-0.0579948556699,0.573838812754,0.818936125625,0.00577806402659,0.0,0.818943709467,-0.573776115955,-0.00963931450268,0.0,-0.00457875589283,0.010263519582,-0.999936845586,0.0,0.26994242309,-0.254236569914,0.30586476913,1.0,-0.0136430769231,-0.0179309010989,2.664
-0.627423265815,-0.523235415634,-0.125312535712,-2.64155508497,-0.0675689669313,2.11047082937,-0.874966493226,-0.0639092336612,0.0124631828993,0.000895212105986,0.00709579970149,-7.83936920662e-05,0.00454224087237,-0.0567582720746,0.573831280572,0.818941424506,0.00577508155338,0.0,0.818949250338,-0.573769211577,-0.00957935897629,0.0,-0.00453145714081,0.0102266314316,-0.999937438996,0.0,0.269783673501,-0.254479034898,0.305884589011,1.0,-0.0133830769231,-0.0175891868132,2.677
-0.628579713896,-0.523042414748,-0.125259113655,-2.64137308931,-0.0675447809824,2.1105340531,-0.876176074744,-0.0615159562993,0.0105052728411,0.00107090174891,0.00335861260958,0.000573059235995,-0.000117930663418,-0.0567683820768,0.573769623939,0.818984762948,0.00575531106865,0.0,0.818992646584,-0.57370824062,-0.00952083967615,0.0,-0.00449563979282,0.0101765219742,-0.999938111897,0.0,0.269551204147,-0.254827697913,0.305903172316,1.0,-0.0129830769231,-0.0170634725275,2.697
-0.629330249293,-0.522888762078,-0.125215901142,-2.64127814767,-0.0675307479239,2.1105306495,-0.876949355351,-0.0595556644561,0.0182792366105,0.00342326446044,0.00709826716093,-0.000248176944434,-0.000393991468988,-0.0493343490145,0.573731526285,0.819011530787,0.00574413497486,0.0,0.819019035793,-0.5736696032,-0.00957874076634,0.0,-0.00454995110696,0.0102003778372,-0.999937623173,0.0,0.269388580444,-0.255039791162,0.305890615152,1.0,-0.0127230769231,-0.0167217582418,2.71
-0.630518952518,-0.522711558891,-0.125161895297,-2.64119801662,-0.0675078907991,2.11054535464,-0.878086060427,-0.0575715048548,0.00682098237197,0.00116925895669,0.0066419669098,0.000109879957216,0.00181391261213,-0.0593677090273,0.5737501511,0.818998517107,0.00573933707292,0.0,0.819005628775,-0.573687479062,-0.00965418584037,0.0,-0.00461426690922,0.0102398371014,-0.999936925149,0.0,0.269115936168,-0.255364796119,0.305864461221,1.0,-0.0123030769231,-0.0161697582418,2.731
-0.631236137017,-0.522604988106,-0.125154649669,-2.64115512907,-0.0675019279392,2.11056034824,-0.878816916451,-0.058508241183,0.00558442529654,-0.00130307418435,0.00201992876612,0.0024235491537,0.00065822867457,-0.0545254773935,0.573738847518,0.819006409405,0.00574309176469,0.0,0.819013352197,-0.573675700782,-0.00969877083489,0.0,-0.00464877278764,0.0102684281384,-0.99993647213,0.0,0.268944875299,-0.255566647771,0.305846237261,1.0,-0.0120430769231,-0.015828043956,2.744
-0.632316267658,-0.522451201012,-0.125153150233,-2.64106324776,-0.0674769256789,2.11057772366,-0.879938471383,-0.0547739699429,0.00627748220078,0.000576109618633,0.00347440966768,0.00121881459791,0.00151533926479,-0.0525938342632,0.573719479631,0.819019828582,0.00576419837016,0.0,0.819026814007,-0.573655852298,-0.00973591098375,0.0,-0.00466732787667,0.0103069132498,-0.999935989746,0.0,0.268692026953,-0.255877136962,0.305833019191,1.0,-0.0116430769231,-0.0153023296703,2.764
-0.63307524667,-0.522341011733,-0.125152470283,-2.64097608162,-0.0674657786178,2.11059703561,-0.880651205595,-0.0493822023198,0.008031180314,-1.22759754158e-05,0.00715077736016,-9.25093482234e-05,-0.00217152708642,-0.0545916597379,0.573766184652,0.818987072507,0.00576951627076,0.0,0.818994117773,-0.573702535971,-0.00973561376525,0.0,-0.00466344548657,0.0103113643792,-0.99993596197,0.0,0.268519859096,-0.256102541861,0.305833830159,1.0,-0.0113630769231,-0.0149343296703,2.778
-0.634103772794,-0.522193385291,-0.12514965968,-2.64083611326,-0.0674433833676,2.11064320171,-0.881646007991,-0.0539965113688,0.00630335461966,0.000634684616412,0.00749110904376,0.0081327517269,0.00239424209988,-0.0540449877035,0.573812511779,0.818954545471,0.00577933205384,0.0,0.818961872574,-0.573749210807,-0.00969748777646,0.0,-0.0046260035542,0.0102977906844,-0.999936275769,0.0,0.268284199653,-0.256429723328,0.305845021725,1.0,-0.0109430769231,-0.0143823296703,2.799
-0.634741248483,-0.522068447003,-0.125136206425,-2.64073488745,-0.0674293407252,2.11067502817,-0.882295261573,-0.0549359525138,0.0115332852711,-0.00118724367747,0.00504616542649,0.00295801308843,0.00269195577711,-0.0512441565214,0.573800619391,0.81896290506,0.00577548468705,0.0,0.818970274142,-0.573737519842,-0.00967963321976,0.0,-0.00461373711008,0.0102843278196,-0.999936470998,0.0,0.268162134674,-0.256609408352,0.305850410554,1.0,-0.0107030769231,-0.0140669010989,2.811
-0.635773255554,-0.521918731881,-0.125100447395,-2.6406055675,-0.0674050677954,2.11069772138,-0.8833449561,-0.0432486926864,0.010831963453,0.00127432613248,0.00326691015262,0.00196741257976,0.000192505324986,-0.0420583417958,0.573777843048,0.818978882019,0.00577274074458,0.0,0.818986260013,-0.573714842624,-0.00967120279344,0.0,-0.00460869253537,0.0102771150972,-0.999936568417,0.0,0.267937385986,-0.25690898756,0.305856977999,1.0,-0.0102630769231,-0.0134886153846,2.833
-0.63627063402,-0.521859692351,-0.125091917885,-2.64054554807,-0.0673950735607,2.11071111201,-0.883828986582,-0.0502466628895,0.00624213333933,0.000985490747685,0.0070051097824,0.000108615167707,3.82548698177e-05,-0.0462093461405,0.573790048284,0.818970323175,0.00577383323555,0.0,0.818977792353,-0.573727219368,-0.00965402972648,0.0,-0.00459384700349,0.0102682250747,-0.99993672806,0.0,0.267827074127,-0.257055369721,0.305863922365,1.0,-0.0100430769231,-0.0131994725275,2.844
-0.637291368449,-0.521688069273,-0.125046396222,-2.64043359686,-0.067370630263,2.1107494974,-0.884820204714,-0.0403916149601,0.00615118156958,0.000392256961692,0.00544956586521,0.00210859794263,0.00010014961789,-0.0378771848919,0.573798364148,0.818964544064,0.00576712818606,0.0,0.818971873664,-0.573735406933,-0.00966953353884,0.0,-0.00461028825161,0.0102716760645,-0.999936616948,0.0,0.267604855088,-0.257346888576,0.305856085713,1.0,-0.00958307692308,-0.0125949010989,2.867
-0.637767262015,-0.521600126775,-0.125017728029,-2.64039067684,-0.0673623632979,2.11076238569,-0.885315959607,-0.0390626079258,0.0106075297475,0.0010613610793,0.00118804678968,-0.000110119841881,-0.000521835484339,-0.0384842809615,0.573767705445,0.818986074482,0.00575993878718,0.0,0.818993191499,-0.573704478244,-0.00969901142442,0.0,-0.00463894193023,0.0102825281508,-0.999936372892,0.0,0.267499346322,-0.257478245589,0.305845032813,1.0,-0.00936307692308,-0.0123057582418,2.878
-0.638642550592,-0.521444728523,-0.124990337693,-2.64031845018,-0.0673381623895,2.11078073123,-0.886220351777,-0.0374981390434,0.00734456129808,0.000470226308749,0.00362810810037,-0.000237909713632,0.000878735016,-0.0442661927097,0.573738826338,0.819006247416,0.00576825347373,0.0,0.819013173742,-0.573674954199,-0.00975782060341,0.0,-0.00468270364455,0.0103229148732,-0.999935752794,0.0,0.267298186697,-0.257722068604,0.305822925609,1.0,-0.00894307692308,-0.0117537582418,2.899
-0.639175688258,-0.521363755629,-0.124974712196,-2.64029002277,-0.067323423566,2.1107842488,-0.886738166567,-0.037941130849,0.010685673442,7.57931144366e-05,0.00134642388657,0.000310857935158,0.000787668205631,-0.0380370316776,0.573748266481,0.818999579055,0.00577608165637,0.0,0.81900637406,-0.57368388897,-0.00980314677471,0.0,-0.00471521887684,0.010355385535,-0.999935264255,0.0,0.267170795489,-0.257865956231,0.305806727992,1.0,-0.00868307692308,-0.011412043956,2.912
-0.640009126683,-0.521303179744,-0.124963218521,-2.64024712288,-0.0673042442368,2.11080018751,-0.887548113796,-0.0407206194717,0.00194452483503,0.00364723758825,0.00173156211051,0.000141704020534,0.000317894702496,-0.0374065695022,0.573769783034,0.818984415287,0.00578882503872,0.0,0.818991362158,-0.573705385613,-0.00979929233023,0.0,-0.004704478174,0.010363735072,-0.999935228343,0.0,0.266971110841,-0.258096141692,0.305805598419,1.0,-0.00826307692308,-0.010860043956,2.933
-0.640453668448,-0.521234142968,-0.124966020652,-2.64019701438,-0.0672922550948,2.11081366356,-0.887980729968,-0.0347439570622,0.00236371883324,-0.000494422197315,0.00458744833068,0.00255379359952,0.00154366319402,-0.0404100593511,0.573789277687,0.818970689511,0.0057983993231,0.0,0.818977725427,-0.573724809472,-0.00980179329316,0.0,-0.00470078636957,0.0103731234972,-0.999935148355,0.0,0.266869038494,-0.258227644877,0.305804077909,1.0,-0.00802307692308,-0.0105446153846,2.945
-0.64119673164,-0.521149786838,-0.124933780574,-2.64008421732,-0.0672717560548,2.11083355279,-0.888741778478,-0.0350536566334,0.0034601591994,0.00109365792892,0.00590005750339,0.00015222716481,4.8304604754e-05,-0.0327203290106,0.573766050838,0.818987006631,0.0057921305101,0.0,0.818994222272,-0.573702156978,-0.00974914688662,0.0,-0.00466155660815,0.0103376499624,-0.999935699374,0.0,0.266713263605,-0.258446690393,0.305826832116,1.0,-0.00760307692308,-0.00999261538462,2.966
-0.641645233073,-0.521089109236,-0.124905217709,-2.64000407161,-0.0672576385575,2.11086311098,-0.889207414151,-0.0332418181837,0.00999949991946,0.00185675543471,0.00397234701244,0.000203302250308,0.00099465471947,-0.0430065566551,0.573741777078,0.819004082447,0.00578213376357,0.0,0.819011431929,-0.573678460266,-0.00969770583728,0.0,-0.00462546413109,0.0102998109372,-0.999936257457,0.0,0.266626647892,-0.258582014434,0.305844183789,1.0,-0.00734307692308,-0.00965090109891,2.979
-0.642333913845,-0.520992153941,-0.124870931329,-2.63989291243,-0.0672358144195,2.11091156309,-0.889893011469,-0.0338790728747,0.000286998611362,-6.35810925668e-05,0.00247045840223,0.000667902605356,0.00209360624225,-0.0282536167827,0.573734880391,0.819008979937,0.00577275557888,0.0,0.819016538302,-0.573672289702,-0.00963124694453,0.0,-0.00457649593646,0.010253962025,-0.999936953986,0.0,0.266489119345,-0.258789186225,0.305864049325,1.0,-0.00692307692308,-0.00909890109891,3.0
-0.642732399848,-0.520929738853,-0.124843663943,-2.63984279653,-0.0672281410341,2.11091784817,-0.890269280085,-0.0293220757379,0.0056092971474,-0.00158678633154,0.00335396082405,-0.000131156832554,-0.000612661007186,-0.0273454368465,0.573739631181,0.819005715975,0.00576365457988,0.0,0.819013162185,-0.573677039221,-0.00963544182899,0.0,-0.00458509391667,0.0102489411283,-0.999936966073,0.0,0.266403764254,-0.258901162888,0.305865056509,1.0,-0.00666307692308,-0.00875718681319,3.013
-0.64334429784,-0.520835953051,-0.12480536047,-2.63977392673,-0.0672066851161,2.11092504488,-0.890848240009,-0.0225642573448,0.00437524659749,0.00126362116998,0.00163830942471,0.00352774071141,0.000420054267736,-0.0318574900063,0.573752213718,0.818996920023,0.00576100236403,0.0,0.819004276065,-0.573689491286,-0.00964936665121,0.0,-0.00459786357511,0.0102548284849,-0.999936847077,0.0,0.266270483453,-0.259070490475,0.305863388463,1.0,-0.00626307692308,-0.00823147252748,3.033
-0.643757528656,-0.520737052504,-0.124790453272,-2.63973582543,-0.0671979011855,2.11094362935,-0.891248118979,-0.035216831423,0.00727221662691,0.00355255111517,0.0062816785188,7.87558096659e-05,-6.00962912219e-05,-0.0325418843814,0.573758534696,0.818992493122,0.00576081376116,0.0,0.818999663673,-0.573695403716,-0.00968924971531,0.0,-0.004630559557,0.0102775921273,-0.999936462491,0.0,0.266177005617,-0.259186988584,0.305846243967,1.0,-0.00598307692308,-0.00786347252748,3.047
-0.644308481514,-0.520625838313,-0.124773147068,-2.63970713402,-0.0671804602203,2.11095159217,-0.891787226347,-0.0272687903039,0.000130366269608,-1.24681725936e-05,-0.00150208548856,-3.41776766602e-05,-0.000339221733987,-0.0261040863157,0.573765224981,0.818987734226,0.00577102172082,0.0,0.818994682049,-0.573701319938,-0.00975977346646,0.0,-0.00468238212959,0.0103264535343,-0.999935717761,0.0,0.266044928562,-0.259334611834,0.305819427607,1.0,-0.00558307692308,-0.00733775824176,3.067
-0.644653648893,-0.520558998309,-0.124764355807,-2.63969242104,-0.0671675018392,2.11095979056,-0.892136494458,-0.0259413883509,0.00668933315714,8.80519667767e-05,0.00101028295337,-8.53404300157e-05,-0.000264567024578,-0.0355462974477,0.573762131446,0.8189898358,0.00578033537006,0.0,0.818996686681,-0.573697757584,-0.00980086986918,0.0,-0.00471073806127,0.0103576429189,-0.999935261995,0.0,0.265961697095,-0.259426968873,0.305802414564,1.0,-0.00532307692308,-0.00699604395605,3.08
-0.64508232285,-0.520502421232,-0.124753367949,-2.63968316333,-0.06715359092,2.11096179668,-0.892549574741,-0.0280242372473,0.000513509943649,0.00243440201609,-0.000407370405365,-0.000377253750013,-0.000235598258101,-0.02721659411,0.573773717579,0.818981642639,0.00579110835772,0.0,0.818988407918,-0.573708857547,-0.00984283340303,0.0,-0.00473878094502,0.0103906097786,-0.999934787465,0.0,0.265855305559,-0.259538836256,0.305786221028,1.0,-0.00498307692308,-0.00654918681319,3.097
-0.645485740675,-0.520488141117,-0.124735718948,-2.63966472945,-0.0671351294032,2.11096653085,-0.892917151978,-0.0254029608864,0.000395905099411,0.000914765440637,-0.000816319253552,0.000335372434486,-0.000144792082298,-0.0105790791443,0.573799328464,0.818963643599,0.00579896711972,0.0,0.818970549899,-0.573734557374,-0.00983071587137,0.0,-0.0047240220076,0.0103902415005,-0.999934861127,0.0,0.265760740284,-0.259645431641,0.305790183564,1.0,-0.00464307692308,-0.00610232967034,3.114
-0.645931255975,-0.520475046541,-0.124706149465,-2.63960248081,-0.0671218474324,2.11097729115,-0.893326159923,-0.020298648002,-0.00226231598644,0.00129842166035,0.00298668906069,-0.000294073998735,-0.000239185868959,-0.0244614855197,0.573816859222,0.818951424107,0.00578998500826,0.0,0.818958530838,-0.57375277497,-0.00976856613378,0.0,-0.0046780512482,0.010347324772,-0.999935522275,0.0,0.26566838679,-0.259773110448,0.30581531946,1.0,-0.00424307692308,-0.00557661538462,3.134
-0.646189743899,-0.52045699247,-0.124694502556,-2.63954534345,-0.0671069831701,2.11098633948,-0.893577524502,-0.0235473817052,0.000674213318408,-0.00098628502361,0.00321597281237,-0.000175788964732,-4.42721362721e-05,-0.0178165458562,0.573823488107,0.818946773914,0.00579075924587,0.0,0.818954121936,-0.573759916769,-0.00971858915532,0.0,-0.00463659096155,0.010319319561,-0.999936004786,0.0,0.265619268043,-0.259853234879,0.305835732702,1.0,-0.00398307692308,-0.00523490109891,3.147
-0.646571642831,-0.520439543893,-0.124666865362,-2.63944279958,-0.0670863250037,2.11100905026,-0.893943071501,-0.0152775231082,-0.000692617381443,0.00079333749225,0.000878287767729,0.000297729136224,0.000210665933085,-0.0181505238331,0.573830901013,0.818941644555,0.0057815877437,0.0,0.818949403817,-0.57376850231,-0.00960867561935,0.0,-0.00455173930811,0.0102487801448,-0.99993712011,0.0,0.265554654428,-0.259975514768,0.305878591814,1.0,-0.00356307692308,-0.00468290109891,3.168
-0.646788975938,-0.520411622019,-0.124639868332,-2.63938536557,-0.067076718563,2.11102775603,-0.894148391582,-0.0149471421691,0.00672393798859,0.00259325955377,0.00436343612508,0.000166862030348,0.00471243288084,-0.0132755918772,0.573828471864,0.818943435201,0.00576903121444,0.0,0.818951288042,-0.573766631308,-0.00955968160371,0.0,-0.00451884788797,0.0102103696112,-0.99993766224,0.0,0.265520434196,-0.260043117003,0.305896693375,1.0,-0.00330307692308,-0.00434118681319,3.181
-0.647114305315,-0.520360271829,-0.124591951754,-2.63933317088,-0.0670552312142,2.11104428202,-0.894467733615,-0.0138198929717,0.000582295548383,-0.000168712946022,0.00138293321442,0.000413609350136,0.000186472830765,-0.0179482088025,0.573811193427,0.818955612097,0.00575904627454,0.0,0.818963450218,-0.573749597633,-0.00954009037557,0.0,-0.00450874687757,0.0101908552563,-0.999937906908,0.0,0.265461660841,-0.260131561145,0.305904088439,1.0,-0.00288307692308,-0.00378918681319,3.202
-0.64729610313,-0.520328455148,-0.124563083505,-2.63932620069,-0.0670443040864,2.1110527199,-0.894631888787,-0.0110381299893,0.00174055191681,0.00435674413308,-0.00142424697909,0.000324035866129,0.000257232076584,-0.0145742867371,0.573810288161,0.818956276524,0.00575475837709,0.0,0.818964002635,-0.573748557719,-0.00955519778452,0.0,-0.00452359197335,0.0101960070536,-0.999937787343,0.0,0.265423872381,-0.260174805811,0.30589694592,1.0,-0.00262307692308,-0.00344747252748,3.215
-0.647492770431,-0.520276896119,-0.124534687256,-2.63933009877,-0.0670308905572,2.11105139263,-0.894848383658,-0.010913006161,0.00112770148023,0.000776007919184,-0.00157966385425,0.00230851416167,-0.000567416927502,-0.00939894316432,0.573787388419,0.818972286783,0.0057596245173,0.0,0.818979790642,-0.573725028523,-0.00961462775771,0.0,-0.00456976092289,0.0102339652686,-0.999937189647,0.0,0.265373850807,-0.260219600893,0.305875052823,1.0,-0.00228307692308,-0.00300061538462,3.232
-0.647695726781,-0.520231915071,-0.124512071071,-2.63933009877,-0.0670187383766,2.11104905732,-0.895036611497,-0.0132825533603,0.00161464744331,0.00263983571087,0.00107796642311,0.00290277309073,-0.000177930375016,-0.012873012333,0.573781080862,0.818976707254,0.0057594375813,0.0,0.818984021549,-0.573718303669,-0.009655432889,0.0,-0.00460336850443,0.0102571895541,-0.999936797533,0.0,0.265329701698,-0.260263976852,0.305860490149,1.0,-0.00196307692308,-0.00258004395605,3.248
-0.647941645758,-0.520207642611,-0.124491644189,-2.63933516871,-0.0669958975965,2.11105058337,-0.895263021581,-0.0121176988476,-0.00126011952972,-6.20285236374e-05,0.000147113839991,0.0024130475541,0.000115113349275,-0.00680358894843,0.573792162891,0.818968852518,0.00577228816623,0.0,0.81897618561,-0.573729072523,-0.00968016766694,0.0,-0.00461611514495,0.0102819688472,-0.999936484282,0.0,0.265270728219,-0.260320939272,0.305849862454,1.0,-0.00148307692308,-0.00194918681319,3.272
-0.648033246847,-0.520196217627,-0.124488140938,-2.63932500504,-0.0669917689551,2.11105539118,-0.8953350093,-0.0117100110976,0.00106579871551,-0.00126888780889,0.00190924267973,0.00108293996371,0.00025252177154,-0.00945777482106,0.573808018217,0.818957737388,0.00577317100478,0.0,0.818965099819,-0.573744966346,-0.00967604116967,0.0,-0.00461202977521,0.0102804135058,-0.999936519125,0.0,0.265250860455,-0.260347128467,0.305850774879,1.0,-0.00130307692308,-0.00171261538462,3.281
-0.648219319092,-0.520192292504,-0.124469415667,-2.63931866292,-0.0669745626236,2.11106122209,-0.89546767431,-0.00626554315051,0.00112431641508,-0.000595721392422,0.00122704273278,0.00126434075272,0.0004046223556,-0.0105033580731,0.573846105302,0.818931013771,0.00577832277847,0.0,0.818938478742,-0.573783134152,-0.00966591431836,0.0,-0.00460030142785,0.010279036055,-0.999936587312,0.0,0.265210321126,-0.260392995424,0.305853167673,1.0,-0.000883076923082,-0.00116061538462,3.302
-0.648312264953,-0.520192683066,-0.124459131295,-2.6393205625,-0.066963655079,2.11106262602,-0.8954999192,-0.0130173851244,0.00139842235194,0.00207450748767,-0.000867696457101,0.000692049133587,0.000998022302322,-0.00166800028594,0.573893070567,0.81889806986,0.00578287429989,0.0,0.818905589385,-0.573830088187,-0.00966501255624,0.0,-0.0045963613522,0.01028250979,-0.999936569716,0.0,0.265189126211,-0.260413999289,0.305852816999,1.0,-0.000623076923082,-0.000818901098908,3.315
-0.648376625555,-0.520181687336,-0.124457318416,-2.63930625633,-0.0669473538679,2.11107114514,-0.895550980913,-0.00145432372321,0.00089083502481,-0.00013383067077,0.00131838721326,0.000531876337504,0.00021457316775,-0.00884683723852,0.573910314743,0.81888590826,0.00579368506519,0.0,0.818893601563,-0.573847420283,-0.00965165556723,0.0,-0.00457900166676,0.0102837943086,-0.999936636152,0.0,0.265178609999,-0.26043367788,0.305856059525,1.0,-0.000223076923082,-0.000293186813194,3.335
-0.648386393217,-0.520180239565,-0.124439980911,-2.63930847004,-0.0669342343485,2.11107142716,-0.895580102016,-0.00172826930285,0.00108605894737,0.00141458983493,-0.000805053811851,0.0016083201033,-7.89801462961e-05,-0.00588434188952,0.573887658036,0.818901764439,0.00579681409647,0.0,0.818909477626,-0.573824725312,-0.0096539616585,0.0,-0.00457937914662,0.0102875535179,-0.999936595755,0.0,0.265180519449,-0.260430584139,0.305854959574,1.0,0.0,0.0,3.349
-0.648369718089,-0.52018313062,-0.124410054217,-2.63930518212,-0.066920636582,2.11107535516,-0.895595372405,0.000917262278086,-0.00384356094414,0.00499920683436,0.00107372400632,0.000191449704923,0.000151317741477,-0.00453484294639,0.573846201233,0.818930845651,0.00579260509921,0.0,0.818938561879,-0.573783398614,-0.00964314489827,0.0,-0.00457345621882,0.0102776676342,-0.999936724521,0.0,0.265194034198,-0.260419653486,0.305858573207,1.0,0.0,0.0,3.369
-0.648372724663,-0.520187759692,-0.124388478602,-2.63930490441,-0.0669143635191,2.11107466348,-0.895592079885,-8.17758110765e-05,-0.00146049670337,0.00168715526857,0.000945559651997,0.000218787782103,-0.000228448206979,0.00144965323986,0.573840677785,0.81893477442,0.00578434661916,0.0,0.818942390675,-0.57377787994,-0.00964635411497,0.0,-0.00458089288752,0.0102727148139,-0.999936741375,0.0,0.265196731811,-0.260415357685,0.305857702134,1.0,0.0,0.0,3.383
-0.648372518621,-0.520185806116,-0.124371653368,-2.63930768742,-0.0669095589472,2.11107547728,-0.8955959968,-0.000351531756098,-0.00191065499748,-0.000102103191288,-0.0007341952289,-8.64268705696e-05,3.50936393353e-05,0.00443497341939,0.573825343045,0.818945527787,0.00578317363249,0.0,0.818953148383,-0.573762589822,-0.00964251912199,0.0,-0.00457861738337,0.0102694678161,-0.999936785149,0.0,0.265202160549,-0.260410269396,0.305859341759,1.0,0.0,0.0,3.403
-0.648372753592,-0.520174275745,-0.124368128664,-2.63930768742,-0.0669043100745,2.1110754768,-0.895609440555,-0.000157887369663,0.00194327060308,-1.91990341269e-05,-0.000237253970983,-5.97138644901e-05,-0.000740895443578,-0.00151129635197,0.57381431175,0.818953234178,0.00578642903711,0.0,0.818960836828,-0.573751430175,-0.00965354939638,0.0,-0.00458592185703,0.0102784014604,-0.999936659886,0.0,0.265203086119,-0.260408836695,0.30585517751,1.0,0.0,0.0,3.416
-0.648376039219,-0.520180568213,-0.124373155372,-2.63931047054,-0.0668986550229,2.11107630433,-0.895602385566,1.97013047652e-06,0.000435657645262,-0.00170169438752,-0.00222292811113,0.000319852748694,0.000281170349967,0.00149576797015,0.573828589599,0.818943178367,0.00579372640089,0.0,0.818950879724,-0.573765725409,-0.00964861890474,0.0,-0.00457751713286,0.0102816286638,-0.999936665219,0.0,0.265201268821,-0.260409745251,0.305856186592,1.0,0.0,0.0,3.436
-0.648375787921,-0.520174325009,-0.124370525533,-2.63930517859,-0.0668986357649,2.11107633033,-0.895605588542,-0.000251989663644,0.00145345050224,-0.000338252578653,-0.000657507423226,0.000197963701694,-0.000357831357057,-0.00102271434949,0.573824178424,0.818946281925,0.00579193223404,0.0,0.818953959848,-0.57376131197,-0.00964963400888,0.0,-0.00457943342435,0.0102807170811,-0.999936665817,0.0,0.265202992505,-0.260410351886,0.305856357982,1.0,0.0,0.0,3.45
-0.648373542271,-0.520179765971,-0.124362779232,-2.63930308982,-0.066892654217,2.1110754773,-0.895615759274,0.00010086976511,0.000184066726998,-1.7057865949e-05,3.06042680896e-05,0.000243312950415,-0.000265904188586,-0.00178432700647,0.573811133727,0.818955415578,0.00579284106488,0.0,0.818963134399,-0.573748336118,-0.00964252034646,0.0,-0.00457324938441,0.0102773066776,-0.999936729177,0.0,0.265206260566,-0.260407952977,0.305859427595,1.0,0.0,0.0,3.47
-0.648376021818,-0.520179193127,-0.124359250451,-2.63930467316,-0.0668925226133,2.11107501669,-0.895606407024,-0.00134283714452,-0.00119405649913,0.00115009947534,0.000680761565896,-0.000257451344497,0.000272077532012,-0.00105890705211,0.57381335822,0.818953886623,0.00578864527602,0.0,0.818961587,-0.573750634858,-0.00963716345177,0.0,-0.00457124157334,0.0102708089907,-0.99993680512,0.0,0.265207109633,-0.260408844157,0.305860553716,1.0,0.0,0.0,3.484
-0.648370758104,-0.52017952605,-0.124356358224,-2.6393045884,-0.066892009514,2.11107714413,-0.895613460958,0.00224195422016,-0.000437476929822,0.000730948302788,-0.00076996909229,-7.96532149304e-05,0.000394731575431,0.000934093050116,0.573812895435,0.818954181164,0.00579284805385,0.0,0.818961877962,-0.573750047869,-0.00964737871603,0.0,-0.0045772024139,0.0102801099593,-0.999936682274,0.0,0.265207491031,-0.260405599822,0.305857823658,1.0,0.0,0.0,3.502
-0.648373533604,-0.520177017485,-0.124356014769,-2.63929980659,-0.0668870330171,2.1110762913,-0.895619959551,0.00108456771391,0.000536991920914,0.000312910429423,0.00101599385871,0.000152419224433,-2.15132539508e-05,-0.00174851023667,0.573805445567,0.818959394079,0.00579382326296,0.0,0.818967130412,-0.573742661064,-0.00964080296747,0.0,-0.00457135059271,0.0102770939201,-0.999936740046,0.0,0.265209061095,-0.260406803043,0.305860141614,1.0,0.0,0.0,3.518
-0.648378597981,-0.520181915852,-0.124361026076,-2.63930481757,-0.0668890543183,2.11107466493,-0.895612097844,-0.00057469709979,-0.00101893999977,-0.00056929830405,0.000262262230109,-0.000438569998521,-0.000209327617951,0.00112539962881,0.573818470895,0.81895025765,0.00579524432445,0.0,0.818958001323,-0.573755661438,-0.00964261051686,0.0,-0.00457185214895,0.010279367641,-0.999936714382,0.0,0.265205168505,-0.260408024422,0.305859407584,1.0,0.0,0.0,3.537
-0.648373539394,-0.520179274913,-0.124360947156,-2.63929957668,-0.0668873764696,2.11107723764,-0.895619395996,0.000426160687061,-0.00104821087364,-0.00208232937924,0.000234014977407,-0.000271789318399,0.000287981551625,-3.35801117533e-05,0.573809262108,0.818956706328,0.00579575533947,0.0,0.818964478712,-0.573746504578,-0.00963732296344,0.0,-0.00456734384007,0.010276700787,-0.999936762396,0.0,0.265208206063,-0.260408149517,0.30586104326,1.0,0.0,0.0,3.551
-0.648374257527,-0.520179275517,-0.124361026072,-2.63930205682,-0.066882591761,2.11107629109,-0.895619745032,0.000486081387253,-0.000521197242962,-0.000638960967766,-0.000840037192885,-0.000220996004768,-1.10660579677e-05,-0.000299931327792,0.573811540221,0.818955077866,0.00580031455825,0.0,0.818962883823,-0.573748731574,-0.00964027177744,0.0,-0.00456711433472,0.0102821394975,-0.999936707534,0.0,0.265207709805,-0.26040710623,0.305859834534,1.0,0.0,0.0,3.567
