nelsonifechukwu/NELSON_IML_WORK/CNN-GradCAM/train2dof/data_sample_2022-02-22-16-23-58/robot_state.csv
position_joint1,position_joint2,position_joint3,position_joint4,position_joint5,position_joint6,position_joint7,velocity_joint1,velocity_joint2,velocity_joint3,velocity_joint4,velocity_joint5,velocity_joint6,velocity_joint7,ee_T_00,ee_T_10,ee_T_20,ee_T_30,ee_T_01,ee_T_11,ee_T_21,ee_T_31,ee_T_02,ee_T_12,ee_T_22,ee_T_32,ee_T_03,ee_T_13,ee_T_23,ee_T_33,v_x,v_y,time
0.465078842742,0.547756445067,-0.123959506786,-1.35583771846,0.0795525722255,1.89410337881,0.159162870925,0.000221264186099,-0.00215395274451,0.00028758795583,-0.00144755962303,0.000273332216491,-6.14945355217e-05,0.005005714315,0.573798433928,0.818982357555,0.00200053385351,0.0,0.818939237115,-0.573739033185,-0.0119496700304,0.0,-0.00863895090109,0.00849518117577,-0.999926597518,0.0,0.661666258808,0.260919162317,0.303229043884,1.0,0.0,0.0,0.0
0.465079031341,0.547756467306,-0.123960375591,-1.35583341456,0.0795511480719,1.89410111836,0.159156809847,0.000376745614144,-0.00138384161864,0.000715562818332,0.000470264071052,-0.000353236896842,0.000243735905722,0.0010325947261,0.573793294671,0.818985956349,0.00200129802926,0.0,0.818942864461,-0.57373390966,-0.0119470731246,0.0,-0.008636438844,0.00849426273143,-0.999926627021,0.0,0.661667024715,0.260918911005,0.303230906323,1.0,-2e-05,-2.62857142857e-05,0.002
0.465076157251,0.547759269529,-0.123960235589,-1.3558383077,0.0795517416753,1.89410468123,0.159156547576,0.00014514145739,-0.00167980059714,0.000340012038879,-0.000685051619608,0.000104838472132,0.000243910838635,-0.000250862299911,0.573795790323,0.818984215773,0.00199805496069,0.0,0.818941074738,-0.573736411779,-0.0119495944011,0.0,-0.00864033866902,0.00849307975843,-0.999926603378,0.0,0.661667223115,0.260916809958,0.303226898261,1.0,-0.00034,-0.000446857142857,0.018
0.465072707553,0.547755770789,-0.123961194481,-1.35584937937,0.0795500638266,1.89410434481,0.15916204074,7.25499570972e-05,0.00250721884416,0.00019471672516,-0.00146927411179,-0.000509520799241,0.000126551745402,0.000711902328769,0.573803935387,0.818978527481,0.00199051783719,0.0,0.818935296577,-0.573744595569,-0.0119526556629,0.0,-0.00864708596604,0.00848874960779,-0.999926581822,0.0,0.661665923712,0.260912407728,0.303224106654,1.0,-0.00068,-0.000893714285714,0.035
0.465074749717,0.547702791925,-0.123962989954,-1.35588609348,0.0795518594986,1.894109167,0.159157005952,0.000246785860077,-0.00337577095521,-0.00102149261264,-0.0014847443822,-0.000154082241047,-0.000812423233297,-0.00156593087077,0.573801813713,0.818979962887,0.00201143505773,0.0,0.818936967594,-0.573742350417,-0.0119459343471,0.0,-0.00862960153703,0.00850200101139,-0.999926620286,0.0,0.661659651989,0.260909680833,0.303244644573,1.0,-0.00102,-0.00134057142857,0.052
0.465076878327,0.547582859872,-0.123960722038,-1.35602292128,0.079549096483,1.89413096702,0.159157954827,0.00127001048075,-0.00690665447365,-0.000642587997367,-0.00863132838165,0.000282489162525,-0.000305384875486,0.00126100607338,0.573805938922,0.818977049005,0.00202102985738,0.0,0.818934080637,-0.573746338379,-0.0119523080923,0.0,-0.00862927367008,0.00851355950779,-0.999926524771,0.0,0.661634880942,0.260898768696,0.303266292636,1.0,-0.00134,-0.00176114285714,0.068
0.465059816536,0.547449115213,-0.123960811621,-1.35621773276,0.0795485425,1.89416193721,0.159145983956,-0.000698123485761,-0.00613839555248,-0.00070989518926,-0.0146514513763,-9.1262965929e-05,0.000896398688171,0.000372868631998,0.573827724457,0.818961824446,0.00200490549413,0.0,0.818918513236,-0.573768058104,-0.0119762715366,0.0,-0.00865792514755,0.00851433479712,-0.9999262705,0.0,0.661603522498,0.260865507096,0.303274168842,1.0,-0.0017,-0.00223428571429,0.086
0.465031905919,0.547272349979,-0.123963443692,-1.3564303096,0.0795436128723,1.89428741679,0.15914566759,-0.00139776183147,-0.0116104288927,-0.000354111713371,-0.0141951595596,0.000426294644739,0.00581324267089,0.00166524172651,0.573855929572,0.81894186836,0.00208212476077,0.0,0.818899552655,-0.573795927211,-0.0119374820927,0.0,-0.00858155440233,0.00855561064022,-0.99992657653,0.0,0.661593547206,0.260832905643,0.303306010596,1.0,-0.00202,-0.00265485714286,0.102
0.465012973617,0.547084347068,-0.123961173863,-1.35664112359,0.0795403811563,1.89439927702,0.159128503671,-2.26548352726e-05,-0.0150039730716,0.00072129325479,-0.0136466590121,-0.000196663880707,0.00243774072213,-0.00110010959868,0.573866877242,0.818933985592,0.00216364241731,0.0,0.81889268941,-0.573806498681,-0.0119000925938,0.0,-0.00850404190607,0.00860102553014,-0.99992684914,0.0,0.661577082189,0.260806226676,0.303348468944,1.0,-0.00234,-0.00307542857143,0.118
0.464987859131,0.546881463996,-0.123961174837,-1.35691690146,0.0795365315588,1.89453916634,0.159110857477,-0.001160794901,-0.0122074576505,0.000142928996335,-0.0208970984217,-0.000208083841104,0.004648484243,-0.0041767761488,0.573887625621,0.818919277087,0.00222658411198,0.0,0.818878743316,-0.573826934623,-0.0118743314685,0.0,-0.0084466076298,0.00863800060008,-0.999927017219,0.0,0.661553855179,0.260768425883,0.3033730472,1.0,-0.00268,-0.00352228571429,0.135
0.46494941361,0.546613403137,-0.123966042613,-1.35731332056,0.0795316353168,1.89468068022,0.15906161167,-0.00187178819545,-0.0181823463136,-0.0011264858321,-0.0249678869822,-0.000146175466888,0.00937197529144,-0.0103087160825,0.573903016778,0.81890843386,0.00224748451058,0.0,0.818868020482,-0.573842085536,-0.0118816160503,0.0,-0.00844041689687,0.00865945520904,-0.999926883926,0.0,0.661509624088,0.260705455668,0.303386651075,1.0,-0.00304,-0.00399542857143,0.153
0.464923209445,0.546340407383,-0.123964275863,-1.35771121384,0.0795184837947,1.89483235864,0.158931796213,0.000463621805947,-0.0182222856304,-0.000620427814508,-0.0253982516582,-0.00255033734862,0.00974648649051,-0.00763654598552,0.573835709483,0.818955515947,0.00227778898865,0.0,0.8189153913,-0.573774557936,-0.0118779400117,0.0,-0.00842072924578,0.00868146973995,-0.999926859026,0.0,0.661462934308,0.260653668816,0.303403680286,1.0,-0.00336,-0.004416,0.169
0.464881326965,0.546049173598,-0.123964360406,-1.35820408619,0.0795062789524,1.89499381552,0.15891593272,-0.000842751160393,-0.0183041882352,-0.00109245277899,-0.0297688696208,0.000219362345514,0.0107435974331,-0.00182172254929,0.573881318872,0.818923625607,0.00225259256145,0.0,0.818882984638,-0.573820068281,-0.0119135892876,0.0,-0.00846389987224,0.00868176320358,-0.999926491992,0.0,0.661401294959,0.260580213041,0.303389310813,1.0,-0.0037,-0.00486285714286,0.186
0.46482419137,0.545711557035,-0.123961579626,-1.35877227491,0.0794787906702,1.89518173472,0.158864133106,-0.00206248163735,-0.0170946413939,-0.00557616606439,-0.0338666514463,0.000526212715396,0.0133917872654,-0.00314937174333,0.573908117023,0.818904933515,0.00222035586941,0.0,0.818863759476,-0.573846877516,-0.0119436796324,0.0,-0.00850675767409,0.00867291062315,-0.999926205125,0.0,0.661332987665,0.260489320037,0.303374088821,1.0,-0.00404,-0.00530971428571,0.203
0.464774487805,0.54536552929,-0.123961591322,-1.35935945964,0.0794041668277,1.89538242397,0.158748073747,-0.00482671184282,-0.0295059570001,0.000503566930238,-0.0392333259058,-0.00470875561819,0.00976726072073,-0.00937019595522,0.573866713922,0.818934098306,0.00216429798531,0.0,0.818892507114,-0.573806025855,-0.0119353837819,0.0,-0.00853256980807,0.00862181287027,-0.999926427091,0.0,0.661264371155,0.260392818836,0.303356868794,1.0,-0.00436,-0.00573028571429,0.219
0.464716195201,0.544964654714,-0.123963956349,-1.360043265,0.0793767176612,1.89560226497,0.158699479189,-0.000677862973533,-0.0234046646911,-4.53305632311e-05,-0.0370378484932,-0.000364268172784,0.0130093493129,-0.00436694545412,0.57390704165,0.818905960486,0.00211715045338,0.0,0.818863586811,-0.573846373746,-0.0119796675273,0.0,-0.0085954675218,0.00860903871531,-0.999925998457,0.0,0.661178879397,0.260287466878,0.303334286972,1.0,-0.0047,-0.00617714285714,0.236
0.464640274995,0.544533011753,-0.123964666763,-1.36077390292,0.0793528464396,1.8958486225,0.158594322471,-0.00680481382949,-0.0250863725718,2.67883987183e-05,-0.044980987284,-0.00220230782794,0.00410981329993,-0.00581713352621,0.573917927962,0.818898418395,0.00208307852929,0.0,0.818855373236,-0.573857174974,-0.0120236165448,0.0,-0.00865089756841,0.00860647484187,-0.999925542509,0.0,0.661092641905,0.260168648663,0.303313411533,1.0,-0.00504,-0.006624,0.253
0.464574578138,0.544083993017,-0.123962270235,-1.36151294212,0.0793224569458,1.89611641611,0.158507922468,-0.00484237018917,-0.0302274135257,-0.00020808486684,-0.0466791712191,-0.000894917256292,0.019484798276,-0.00176859173644,0.573932359456,0.818888324911,0.00207484821733,0.0,0.818845005677,-0.57387147397,-0.0120471964422,0.0,-0.00867477932609,0.00861342081427,-0.999925275801,0.0,0.661003360451,0.260049167545,0.303302706013,1.0,-0.00538,-0.00707085714286,0.27
0.464491605049,0.543551345211,-0.123969969267,-1.36238825352,0.0792758964221,1.89642615318,0.158400177579,-0.00814834422166,-0.0295350371235,-0.000375806808273,-0.048318867153,-0.00377486305825,0.019663421982,-0.012110717008,0.573953868589,0.818873325581,0.00204457465461,0.0,0.818829568071,-0.573893067537,-0.012067824417,0.0,-0.00870881996427,0.00860069828099,-0.999925089416,0.0,0.660906377504,0.259915297497,0.30328987562,1.0,-0.00572,-0.00751771428571,0.287
0.464409997732,0.543014957148,-0.123970790077,-1.36325160779,0.0792192623983,1.89673752391,0.158274600471,-0.00647352132355,-0.0300908751526,0.000201756026802,-0.0489947048011,-0.00243243109145,0.0169802896071,-0.000400876213918,0.573951382803,0.818875108433,0.0020282673023,0.0,0.818831160175,-0.573890674323,-0.0120736056003,0.0,-0.00872293934892,0.00859063649437,-0.999925052838,0.0,0.660808324124,0.259777413884,0.30328538164,1.0,-0.00606,-0.00796457142857,0.304
0.464343540861,0.542459147249,-0.123971202239,-1.36410589578,0.0791713075703,1.89703474274,0.158179510407,-0.00451843910956,-0.0296355022354,0.000229359406569,-0.0529412052911,-0.00209694226693,0.013806509895,-0.000537916690902,0.573962805833,0.818867098622,0.00202958538624,0.0,0.818823104299,-0.573902027882,-0.0120802798398,0.0,-0.00872752856601,0.00859566821174,-0.999924969552,0.0,0.660705407714,0.25965156507,0.303297643769,1.0,-0.00638,-0.00838514285714,0.32
0.464248659961,0.541852332577,-0.123974363455,-1.36503425428,0.0791189481369,1.8973915375,0.158035332008,-0.00377351581826,-0.0385637913368,0.00044604180836,-0.0530105167784,-0.00377480912619,0.0110053110572,-0.00651333067738,0.573962344821,0.818867344391,0.00206056288764,0.0,0.818823750792,-0.573901429563,-0.0120648740321,0.0,-0.00869713881902,0.00861218703312,-0.9999250922,0.0,0.660606765304,0.259500559073,0.303315904333,1.0,-0.00672,-0.008832,0.337
0.464168041643,0.541213671455,-0.123977568086,-1.36603058131,0.0790566183983,1.89776713669,0.157927792956,-0.00645432266947,-0.035511449232,0.000203093820846,-0.0604993249281,-0.000924216881581,0.0272751757158,-0.00774437502788,0.573981257467,0.818854056599,0.00207291327122,0.0,0.818810664312,-0.573920326598,-0.0120541125137,0.0,-0.00868103900578,0.00861632404184,-0.999925196463,0.0,0.660493730719,0.259350970048,0.30332586575,1.0,-0.00706,-0.00927885714286,0.354
0.464084647339,0.54056012584,-0.123980589919,-1.36703719812,0.0790014721415,1.89812183884,0.157796744696,-0.00431733759036,-0.0425446895232,-0.00155405267742,-0.0639915278606,-0.00179030614713,0.0213198955267,-0.00427031317233,0.573985301649,0.818851210707,0.00207728566903,0.0,0.818807805873,-0.573924282428,-0.0120599328699,0.0,-0.00868325312406,0.00862328795201,-0.999925117206,0.0,0.660374643673,0.259198380905,0.303339549452,1.0,-0.00738,-0.00969942857143,0.37
0.463981846665,0.539822295503,-0.123980991262,-1.36814108072,0.0789372687455,1.89853709338,0.157654389897,-0.00292667506822,-0.0384359349118,0.000801987516943,-0.0637697458482,-0.00751751532997,0.0200349482678,-0.00868592100537,0.573997160613,0.818842786858,0.00212059435087,0.0,0.818799935355,-0.573935943514,-0.0120393316761,0.0,-0.00864140095571,0.00864705119767,-0.999925274556,0.0,0.660252133395,0.259026712753,0.303371554232,1.0,-0.00772,-0.0101462857143,0.387
0.463883800316,0.539027362164,-0.123989953721,-1.36938876838,0.0788667451124,1.89900880966,0.157514326175,-0.00627416837769,-0.0457642338992,-0.000997182308399,-0.0740956737389,-0.00127743789845,0.0240546072723,-0.00560271288368,0.574019275971,0.818827243951,0.002135949187,0.0,0.818784598794,-0.573957997153,-0.0120310092223,0.0,-0.00862553907439,0.00865508013821,-0.999925342045,0.0,0.66010997843,0.258839711916,0.303380517571,1.0,-0.00808,-0.0106194285714,0.405
0.463791043334,0.538341093549,-0.123984564969,-1.37044099002,0.07880756329,1.89941683098,0.157381356799,-0.0035556104061,-0.0453558348615,-0.00286964357882,-0.0701618013355,-0.00568794096664,0.0214638242055,-0.0110034819606,0.574022802724,0.818824679928,0.00217080516777,0.0,0.818782459709,-0.573961347045,-0.0120167662746,0.0,-0.00859383199821,0.00867548208135,-0.999925438251,0.0,0.659982672419,0.258670986166,0.30339937204,1.0,-0.0084,-0.01104,0.421
0.463683415552,0.537496244831,-0.123995187273,-1.37175788797,0.0787310617961,1.89991270194,0.157218383507,-0.0045632719595,-0.0454926985481,0.000645047636513,-0.0759079353767,-0.00236727532027,0.0280079483334,-0.00510235290908,0.574039323277,0.818813038763,0.00219312226889,0.0,0.81877112226,-0.573977785209,-0.0120040968117,0.0,-0.00857047253357,0.00868665603675,-0.999925541732,0.0,0.659842595879,0.258482674731,0.303412780431,1.0,-0.00874,-0.0114868571429,0.438
0.463559838376,0.536618773879,-0.123996334013,-1.37312822515,0.0786512815182,1.90042578523,0.157041414683,-0.00556016785764,-0.0476286683612,-0.000951038490894,-0.0721221805841,-0.00352626218162,0.0265075899198,-0.0114904612156,0.574050556448,0.818805115479,0.00221097459308,0.0,0.818763406893,-0.573988917616,-0.0119980368281,0.0,-0.00855514373002,0.0086979122696,-0.999925575149,0.0,0.659686950851,0.258271234621,0.303424539848,1.0,-0.0091,-0.01196,0.456
0.463459665642,0.535863628728,-0.124002019756,-1.37432633631,0.0785792218439,1.90086736618,0.156903647597,-0.00349476559365,-0.047801396133,-0.00039995021798,-0.0813770376461,-0.0072908622096,0.0318100970034,-0.00709496313458,0.574070355857,0.818791242882,0.00220771536977,0.0,0.818749500887,-0.574008737242,-0.0119988027695,0.0,-0.00855743147824,0.0086958902557,-0.99992557316,0.0,0.659548042365,0.258087853114,0.303425724006,1.0,-0.0094,-0.0123542857143,0.471
0.463340720758,0.534961717157,-0.124007382101,-1.37573630495,0.0785050755082,1.90137562099,0.156725587901,-0.00623175636279,-0.0579868029871,-0.00109054242304,-0.0870614746239,-0.00120794904049,0.0348541771981,-0.0174243633633,0.574083193393,0.818782228583,0.00221271815201,0.0,0.818740444693,-0.574021443485,-0.0120088943957,0.0,-0.00856268650676,0.00870591390339,-0.999925440952,0.0,0.659381700219,0.257873256833,0.303435273589,1.0,-0.00974,-0.0128011428571,0.488
0.463213094754,0.534020694165,-0.124011262382,-1.37729735471,0.0784159443883,1.90193266099,0.156534475884,-0.0108508462075,-0.0545297308405,-0.00200376954095,-0.0812705132456,-0.00509350931612,0.0297019718457,-0.0129000270731,0.574095578179,0.818773686654,0.00215964329991,0.0,0.818731119863,-0.574033957559,-0.0120464035364,0.0,-0.00862373567773,0.0086841213769,-0.999925105805,0.0,0.659193345109,0.257637283363,0.303404510235,1.0,-0.0101,-0.0132742857143,0.506
0.463093049037,0.533157145777,-0.124006406734,-1.37869329777,0.0783419004731,1.90246749034,0.156363290719,-0.00727994343497,-0.0498491318266,0.0010021724847,-0.0857660202253,-0.00190147534137,0.0388093458802,-0.0167884289682,0.574107003633,0.818765657471,0.0021664317447,0.0,0.818723067943,-0.574045240662,-0.0120559774676,0.0,-0.00862755659265,0.00869529615568,-0.999924975732,0.0,0.659031778027,0.257430904492,0.303395304566,1.0,-0.01042,-0.0136948571429,0.522
0.462955520852,0.532210098043,-0.124006198887,-1.38023638056,0.0782565157686,1.90305247737,0.156167516277,-0.00615268212532,-0.0556641206993,0.0009915331517,-0.0897351301106,-0.00374223163593,0.0388922262293,-0.0147970834662,0.574120717966,0.818756060119,0.00215919470808,0.0,0.818713297717,-0.57405890501,-0.0120688284824,0.0,-0.00864208789562,0.00869689333531,-0.999924836357,0.0,0.658853960353,0.257195526939,0.303379259164,1.0,-0.01076,-0.0141417142857,0.539
0.462818095322,0.531218767795,-0.124009931774,-1.38183964775,0.0781497854123,1.90362812368,0.155965610384,-0.00621226341112,-0.0568784937807,-0.000815013595231,-0.0917041746371,-0.00914046513938,0.0365233002031,-0.01585698368,0.574129188463,0.818750219641,0.00212124832933,0.0,0.818707012965,-0.574067587929,-0.0120821485298,0.0,-0.0086746888653,0.0086735620067,-0.999924756717,0.0,0.658663022937,0.256947332474,0.303364851464,1.0,-0.0111,-0.0145885714286,0.556
0.462681553078,0.530240240776,-0.124004887544,-1.38339410149,0.0780641081176,1.90416735501,0.155766742679,-0.0110128260353,-0.0646471100515,0.00615717466689,-0.099156402698,-0.000996402374593,0.0330787452062,-0.00831313147723,0.574135949678,0.818745542284,0.00209646806544,0.0,0.818701831612,-0.574074275423,-0.0121154494101,0.0,-0.00871610962382,0.00867246426977,-0.999924406041,0.0,0.658472044698,0.256711409099,0.303361018212,1.0,-0.01142,-0.0150091428571,0.572
0.462535814777,0.529191105967,-0.124017897206,-1.3850426175,0.0779613045133,1.90478076829,0.155544478054,-0.0118284663999,-0.0654207190086,-0.000416133130455,-0.102106501865,-0.00658274418432,0.0381441535836,-0.016233608242,0.574144368778,0.818739621815,0.00210294355888,0.0,0.818696070784,-0.574082740086,-0.0121036407603,0.0,-0.00870263421079,0.00867107575804,-0.999924535454,0.0,0.65828273709,0.256450978475,0.303368919306,1.0,-0.01176,-0.015456,0.589
0.462396733603,0.528109582518,-0.124015988363,-1.38674759605,0.0778504070369,1.90544563992,0.15530447395,-0.0103252871057,-0.065827491141,-0.000441271854547,-0.101658385664,-0.00657429984538,0.0387020594506,-0.0150038444613,0.574123160536,0.818754417448,0.00213245085678,0.0,0.818711338546,-0.574061494238,-0.0120785706981,0.0,-0.00866539202596,0.00868061600805,-0.999924776114,0.0,0.658086196961,0.256199528531,0.303376476053,1.0,-0.0121,-0.0159028571429,0.606
0.46226286329,0.527018948532,-0.124021524183,-1.38839825415,0.077754690664,1.90607674491,0.155062894012,-0.00251950858199,-0.069677549957,-0.0011826444026,-0.110020649983,-0.0117705452432,0.0434119114478,-0.0146925621263,0.574102471299,0.818768762198,0.00219394581104,0.0,0.818726492456,-0.574040552975,-0.0120466174448,0.0,-0.00860414584383,0.00871240214509,-0.999925028551,0.0,0.6578949223,0.255953933982,0.303413338278,1.0,-0.01242,-0.0163234285714,0.622
0.462108995124,0.525782753645,-0.124021888244,-1.39030837462,0.0776266434236,1.90677746606,0.154815917817,-0.00943240111646,-0.0704852970988,0.000329695667554,-0.105866950848,-0.0116715972216,0.0321393972093,-0.0147864405348,0.574094929317,0.81877400723,0.00221000394278,0.0,0.818732027826,-0.574033026515,-0.0120290474931,0.0,-0.00858062137076,0.00871538397803,-0.999925204712,0.0,0.657665696432,0.255668865944,0.303434679743,1.0,-0.01278,-0.0167965714286,0.64
0.461950050469,0.524619629535,-0.124020174492,-1.39215458455,0.077511815408,1.90744378142,0.15456093379,-0.0098448631648,-0.0682685272905,-0.000535281786046,-0.112425143495,-0.00284968114028,0.0368521384163,-0.0157710310431,0.574089364963,0.818777965757,0.00218877333617,0.0,0.818735657641,-0.57402749959,-0.012045726308,0.0,-0.00860652489947,0.00870751779019,-0.999925050623,0.0,0.657428165957,0.25536653195,0.303428979068,1.0,-0.01314,-0.0172697142857,0.658
0.461800550257,0.523483235983,-0.124028286689,-1.39395639176,0.0773940062888,1.90810147235,0.154315262223,-0.00961425794135,-0.0705207462467,-0.000112938046138,-0.110170308909,-0.00587499095305,0.0384045508351,-0.0146175785375,0.574075322931,0.818787832279,0.00218087481936,0.0,0.818745503511,-0.574013575958,-0.012040016502,0.0,-0.00860653296096,0.00869762526982,-0.99992513665,0.0,0.657226046705,0.255111786491,0.303430331922,1.0,-0.01344,-0.017664,0.673
0.461643920627,0.522251571854,-0.124031127476,-1.39589883717,0.0772806513036,1.90885790282,0.154053565443,-0.0104892992287,-0.0740413736582,0.00015970099036,-0.114957802461,-0.00698163280592,0.0409959506181,-0.0142141627809,0.574065103268,0.818794894451,0.00221921876243,0.0,0.818753066506,-0.574003197584,-0.0120204888697,0.0,-0.00856864122243,0.00871770319409,-0.999925287228,0.0,0.656998837459,0.25482578259,0.303437090143,1.0,-0.01378,-0.0181108571429,0.69
0.461472102691,0.521005621125,-0.124036486547,-1.39789418287,0.0771609663246,1.90962716648,0.153782610349,-0.0117107224712,-0.0771155335247,-0.00490527653745,-0.116925129193,-0.00308242274399,0.041502992806,-0.0151313257864,0.57406234514,0.818796790431,0.00223310846622,0.0,0.81875516667,-0.57400040551,-0.0120107629148,0.0,-0.00855273362674,0.00872346377397,-0.999925373179,0.0,0.656766212615,0.254522138134,0.30342956854,1.0,-0.01412,-0.0185577142857,0.707
0.461315818079,0.51979096948,-0.124040393145,-1.39982845189,0.077039280101,1.91032471019,0.153515321738,-0.0120691297921,-0.0782683624157,-0.00364642221508,-0.121503115037,-0.0141633644177,0.0395322770792,-0.021032660362,0.574044368291,0.818809453832,0.00221098383783,0.0,0.818767532183,-0.573982513551,-0.012022864951,0.0,-0.00857553452897,0.0087121074315,-0.999925276904,0.0,0.656527998081,0.254231286998,0.303422502858,1.0,-0.01444,-0.0189782857143,0.723
0.461141934728,0.518438255702,-0.124037871101,-1.40190358809,0.0769050111852,1.91105723177,0.153245099698,-0.00733852877877,-0.0753170688177,0.00117000502576,-0.119204015773,-0.0109834768686,0.0426175121691,-0.0214691193944,0.57403450928,0.818816344972,0.00221861736626,0.0,0.818774509078,-0.573972609912,-0.0120205347794,0.0,-0.00856934973913,0.00871691695595,-0.999925288011,0.0,0.656255021301,0.253901554137,0.303449194997,1.0,-0.0148,-0.0194514285714,0.741
0.460962562797,0.51707638969,-0.124041103458,-1.40404871668,0.0767640451854,1.91183048637,0.152948813794,-0.0128903026134,-0.084750282256,9.57510297791e-05,-0.127918585834,-0.00932616953569,0.0453319803818,-0.0156716125179,0.574016560131,0.818828943848,0.00221276161954,0.0,0.818787029281,-0.57395468516,-0.0120236003442,0.0,-0.00857541217564,0.00871369398853,-0.999925264129,0.0,0.655993429416,0.253573277559,0.303454178088,1.0,-0.01514,-0.0198982857143,0.758
0.460783714084,0.515741786192,-0.124046768931,-1.40620135627,0.0766289711176,1.91264276538,0.152650544552,-0.00928530658063,-0.0830366173467,-0.000518775927311,-0.132641003826,-0.00773793896582,0.0428373695992,-0.0162890671986,0.57400307631,0.818838451731,0.00219208883696,0.0,0.818796343948,-0.573941367043,-0.0120250253734,0.0,-0.00858858805194,0.00869744333508,-0.999925292527,0.0,0.655747174619,0.253266290924,0.303431435676,1.0,-0.01546,-0.0203188571429,0.774
0.46059849718,0.514427440906,-0.124053122485,-1.40828376658,0.0765007868067,1.91341193533,0.152375117394,-0.0119311812145,-0.0830651626679,-0.0005685948268,-0.13354420173,-0.00530419965043,0.0434539364173,-0.0170980705816,0.574008862266,0.818834401501,0.0021899450565,0.0,0.818792267908,-0.573947163419,-0.01202591029,0.0,-0.00859048169497,0.00869625659256,-0.999925286582,0.0,0.65549613867,0.252942760626,0.303428584562,1.0,-0.01578,-0.0207394285714,0.79
0.460408039541,0.513044678589,-0.124053814123,-1.41056153836,0.076358273823,1.91419980965,0.152056110615,-0.00693665953907,-0.081757403991,3.11515489491e-06,-0.134543935314,-0.0150871817468,0.0460045044439,-0.0183913921846,0.573984998145,0.818851373723,0.0020967968501,0.0,0.818807912277,-0.573923585562,-0.0120858441652,0.0,-0.00869327630337,0.00865413371093,-0.999924763628,0.0,0.65520417492,0.252595900507,0.303381794185,1.0,-0.01612,-0.0211862857143,0.807
0.460222455955,0.511706969525,-0.124059551146,-1.41271650682,0.0762397831898,1.91497795978,0.151747962399,-0.0120813699815,-0.086626413803,-0.000746531007675,-0.134471181977,-0.00811932509404,0.0493404368988,-0.0231430860269,0.573969684164,0.818862178831,0.00206897122053,0.0,0.818818182788,-0.573908224324,-0.0121194261665,0.0,-0.00873690833012,0.00865046101228,-0.999924415122,0.0,0.654936090253,0.252266483446,0.303360787368,1.0,-0.01644,-0.0216068571429,0.823
0.460008621704,0.510158709719,-0.124058338925,-1.4151854435,0.0760888315954,1.91591112777,0.151411461462,-0.0151811101454,-0.0844039676084,-0.000410663247014,-0.138401714016,-0.00531537062777,0.0478042793603,-0.0176606378328,0.57395670884,0.818871251483,0.00207768437348,0.0,0.818827344407,-0.573895188004,-0.0121177612439,0.0,-0.00873068134349,0.00865650180459,-0.999924417234,0.0,0.654636068293,0.25189345781,0.303350500063,1.0,-0.0168,-0.02208,0.841
0.459803705463,0.508651507312,-0.124065946134,-1.4175563316,0.0759285610483,1.91676401642,0.151072863544,-0.0158593682371,-0.0901867505254,-0.000921106265723,-0.135862452631,-0.00731140037522,0.0520927661196,-0.0203271079151,0.573932420756,0.818888322198,0.00205890101086,0.0,0.818844259743,-0.573871074115,-0.0121167438678,0.0,-0.00874088461094,0.00864027776598,-0.999924468416,0.0,0.654341558785,0.251525436054,0.303350868456,1.0,-0.01714,-0.0225268571429,0.858
0.459609027972,0.50721473465,-0.124071266821,-1.41980855786,0.0757838568126,1.91757280311,0.15076693166,-0.0145771256831,-0.0982454720016,-0.000664475790596,-0.140340593698,-0.0145017920606,0.0487966033411,-0.0125365522772,0.573922597558,0.818895232171,0.00204881449154,0.0,0.818851044946,-0.573861303204,-0.0121209643816,0.0,-0.00875023305636,0.00863433548781,-0.999924437981,0.0,0.654059901462,0.251178187779,0.303354062883,1.0,-0.01746,-0.0229474285714,0.874
0.459388651985,0.505635028828,-0.124078021067,-1.42225267055,0.0756328753343,1.9185023834,0.15043133406,-0.00980468995021,-0.0918676433146,-0.00123265392657,-0.148274665501,-0.00701502282654,0.0476000256364,-0.0213699705652,0.573918774897,0.818897779316,0.00210089333451,0.0,0.818854318497,-0.573857300477,-0.0120892791162,0.0,-0.00869443823915,0.00865875654733,-0.999924713505,0.0,0.653766364905,0.250799585111,0.303375853154,1.0,-0.0178,-0.0233942857143,0.891
0.459151768918,0.503891405331,-0.124079758279,-1.42487999895,0.0754694109932,1.919513392,0.150068270665,-0.0137810527549,-0.0947812413238,0.000365404830366,-0.143683458747,-0.00674031930659,0.0571593991656,-0.017853104185,0.573907984528,0.818905062526,0.00220698117271,0.0,0.818863051218,-0.573846125947,-0.0120280500095,0.0,-0.00858352870862,0.00871037697756,-0.999925223388,0.0,0.653452034089,0.250397129453,0.303431186154,1.0,-0.01816,-0.0238674285714,0.909
0.458952903408,0.502409744265,-0.124087239472,-1.42706672251,0.0753261977619,1.92033454885,0.149759291575,-0.00991073676376,-0.101604078901,-0.00251754225587,-0.148235680978,-0.00393874391897,0.0570930429791,-0.0254990776906,0.573896522666,0.818912838035,0.00230040739061,0.0,0.818872165407,-0.573834403651,-0.0119666540833,0.0,-0.00847975701562,0.0087515292417,-0.999925749472,0.0,0.653188409735,0.250055512916,0.303496318908,1.0,-0.01846,-0.0242617142857,0.924
0.458702580419,0.500583805817,-0.124088915345,-1.42980044367,0.0751552409566,1.92129430397,0.149368753595,-0.0137916799087,-0.109456805647,-0.00285244408146,-0.153129923737,-0.00520101502097,0.0566535457903,-0.0198562510913,0.573875994067,0.818927092817,0.00234669678592,0.0,0.818886950694,-0.573813615275,-0.0119517283237,0.0,-0.00844119008266,0.0087806584027,-0.999925820423,0.0,0.652841856006,0.249628443102,0.303552657115,1.0,-0.01882,-0.0247348571429,0.942
0.458459457855,0.498881841358,-0.124089723615,-1.43240846278,0.0749786446636,1.92225414238,0.148994726299,-0.0132587273259,-0.0996415233712,-0.000167036095769,-0.153046864345,-0.00943190755826,0.0577535014408,-0.0276105981473,0.573854186095,0.818942266548,0.00238412725151,0.0,0.818902712475,-0.573791765516,-0.0119207478251,0.0,-0.00839457327955,0.00879330861243,-0.999926101701,0.0,0.652519430575,0.249219042192,0.303581649951,1.0,-0.01916,-0.0251817142857,0.959
0.458219700042,0.497315267536,-0.124089416363,-1.4349023976,0.0748265064541,1.92317404074,0.148632704252,-0.0142986126405,-0.100183525018,0.000770618896047,-0.158547649795,-0.0157439436799,0.0583911515719,-0.0222559912102,0.573839404952,0.818952642392,0.00237776033737,0.0,0.818912932886,-0.57377693567,-0.0119324493032,0.0,-0.00840796872639,0.00879465762376,-0.99992597729,0.0,0.652209477366,0.248825549422,0.303566571865,1.0,-0.01948,-0.0256022857143,0.975
0.457956161055,0.495630298022,-0.12409530822,-1.43760333305,0.0746637400483,1.92410362859,0.148239620009,-0.0128942779555,-0.10558414315,-0.00100967834377,-0.159794890043,-0.00748592024169,0.053200390502,-0.0209919989117,0.573829860423,0.818959532897,0.00230687330528,0.0,0.818918718068,-0.573767489837,-0.0119894831357,0.0,-0.0084954561666,0.00876923399913,-0.999925461102,0.0,0.651861166224,0.248389120265,0.303535939306,1.0,-0.01982,-0.0260491428571,0.992
0.457642664816,0.493816387055,-0.124115878555,-1.44060006981,0.0744778571614,1.92516308661,0.147819819318,-0.0192352228759,-0.116116897604,-0.00612452102137,-0.185088022275,-0.0159140905498,0.0709628288585,-0.0247183785769,0.573858192649,0.818939985468,0.00219586710677,0.0,0.818897656132,-0.573796211837,-0.0120533383097,0.0,-0.00861114626388,0.00871526516057,-0.99992494334,0.0,0.651486012084,0.247883382063,0.303465483286,1.0,-0.0286251428571,-0.0376216163265,1.01
0.457343537084,0.491195566103,-0.124203785339,-1.44441536144,0.0742751574615,1.92661014281,0.147252997249,-0.0250579613144,-0.188927244893,-0.00792880709406,-0.29019751731,-0.00906997966137,0.105752640591,-0.0475028260448,0.573839379026,0.818952560889,0.00241184424174,0.0,0.81891319928,-0.573776673632,-0.01192676576,0.0,-0.00838375680921,0.00881930874068,-0.999925963467,0.0,0.651021296208,0.247284557392,0.303601142404,1.0,-0.0430337142857,-0.0565585959184,1.025
0.456739138674,0.486587318286,-0.124241915751,-1.45174438634,0.0739029631162,1.92943898253,0.146137960222,-0.0373940841069,-0.278811192727,-0.00290937667636,-0.448840822138,-0.0210649139637,0.171914282174,-0.0649191654698,0.573715478006,0.819038999526,0.00253267705126,0.0,0.819000691994,-0.573651761036,-0.0119277187496,0.0,-0.00831655230012,0.00891755281207,-0.999925653341,0.0,0.650097362768,0.246192425382,0.303562482553,1.0,-0.0612845714286,-0.0805454367347,1.044
0.455956062709,0.481346764421,-0.124393485827,-1.46007692462,0.0734074878956,1.93242872437,0.144853893065,-0.0560147991743,-0.346262541189,-0.0120405755411,-0.560949991365,-0.032075691195,0.198686359942,-0.0939755321408,0.573691231271,0.819056304833,0.00242643302151,0.0,0.819016723403,-0.573628055526,-0.0119669377859,0.0,-0.00840988770347,0.00885278693934,-0.999925448197,0.0,0.649041883337,0.244799697751,0.303497022389,1.0,-0.0766537142857,-0.100744881633,1.06
0.454941327973,0.47482293639,-0.124550752376,-1.47043136928,0.0727864228767,1.93597199053,0.143348161512,-0.0702241056748,-0.424641999018,-0.0150647386043,-0.683701986692,-0.0364441466777,0.236558098916,-0.103296339092,0.573726998431,0.819031995036,0.00216085159402,0.0,0.818988682089,-0.57366465394,-0.01213055363,0.0,-0.00869587478107,0.00872950719267,-0.999924085852,0.0,0.647771343062,0.243166650394,0.303392096766,1.0,-0.0910622857143,-0.119681861224,1.075
0.453664278332,0.466528786185,-0.124705881076,-1.48310315415,0.0720451844464,1.94062287416,0.141392812155,-0.0791857789599,-0.52167938759,-0.0114973283057,-0.757042189083,-0.0416931378704,0.287166811427,-0.128152896191,0.57370045785,0.819049898741,0.00240726740819,0.0,0.819009718738,-0.573636992302,-0.0120178440539,0.0,-0.00846247924868,0.00886638874446,-0.999924883977,0.0,0.646063996699,0.240939076683,0.303504657006,1.0,-0.108352571429,-0.142406236735,1.093
0.45210096152,0.457115212262,-0.124830059858,-1.49780535718,0.0711065479814,1.9458701789,0.139084141035,-0.0983496729613,-0.591216627202,-0.00768640926885,-0.91964274192,-0.0593927994341,0.319353448968,-0.140541568587,0.573612944471,0.819111354878,0.00235056315918,0.0,0.819070363271,-0.573549649272,-0.0120534946065,0.0,-0.00852515375827,0.00883948734063,-0.999924589765,0.0,0.644126481811,0.238450066288,0.303448907834,1.0,-0.124682285714,-0.163868146939,1.11
0.450330278596,0.446916086319,-0.125016216685,-1.51324077307,0.0700455193088,1.95138348894,0.136667800163,-0.110156847013,-0.652935984472,-0.0122029340301,-0.99333384245,-0.0696099843643,0.35949857911,-0.144672402154,0.573633714067,0.819096303283,0.00252089952746,0.0,0.819058396341,-0.573570647254,-0.0118660395002,0.0,-0.00827367440949,0.0088716950417,-0.999926416962,0.0,0.642107026712,0.23571994068,0.303584941687,1.0,-0.140051428571,-0.184067591837,1.126
0.44817308214,0.435047543269,-0.125159542457,-1.5315241897,0.068861409602,1.95762028118,0.133765032546,-0.134949422647,-0.732285176168,-0.0053239698897,-1.09506265664,-0.0695712700358,0.371431281163,-0.174382947237,0.573615671862,0.81910939917,0.0023664502583,0.0,0.819068831189,-0.573552535364,-0.0120202268401,0.0,-0.00848876067437,0.00883344621316,-0.999924952769,0.0,0.639588608058,0.232493149924,0.303542230335,1.0,-0.156381142857,-0.205529502041,1.143
0.44568312773,0.421831978361,-0.125339445722,-1.5514593894,0.0674928596584,1.96451603207,0.130456054949,-0.151278597848,-0.808864809472,-0.0130865889248,-1.20930399976,-0.0798251965474,0.41023468834,-0.203355538565,0.57355625583,0.819150683829,0.00247497103389,0.0,0.819111709761,-0.573492877588,-0.0119445883202,0.0,-0.00836520048637,0.00887834204512,-0.999925596464,0.0,0.636841635623,0.228884196974,0.303650994839,1.0,-0.172710857143,-0.226991412245,1.16
0.443029105253,0.408392320485,-0.125511940779,-1.5714286034,0.0660732086663,1.97161430695,0.127129127693,-0.170043056767,-0.873007149871,-0.00338833472772,-1.2846668404,-0.0850316024726,0.443215905329,-0.209865792162,0.573566955437,0.819141825816,0.00289201158563,0.0,0.819109105461,-0.573502967737,-0.0116347002191,0.0,-0.00787204391446,0.0090423266978,-0.999928131044,0.0,0.63409879569,0.225194984513,0.303868428209,1.0,-0.18808,-0.247190857143,1.176
0.439630692173,0.392169704498,-0.125718531326,-1.59550535984,0.0644762946297,1.97985311871,0.122993598871,-0.196743981007,-0.91429253175,-0.011750575274,-1.36541233982,-0.0920227472613,0.469378262105,-0.237736438992,0.573634780365,0.819093053127,0.00323357008487,0.0,0.819064128409,-0.57356893053,-0.0115491292023,0.0,-0.00760528258918,0.00927366200333,-0.999928076848,0.0,0.630669987816,0.220643956794,0.304055861564,1.0,-0.205370285714,-0.269915232653,1.194
0.436276668574,0.376866000202,-0.125909427172,-1.61833477231,0.0626915683376,1.98753447333,0.118917701081,-0.211608354641,-0.978847583673,-0.015645525202,-1.44965192624,-0.119351188505,0.497357046378,-0.265895309557,0.573545270145,0.819155673535,0.00324846290725,0.0,0.819127911574,-0.573480575143,-0.0114123317344,0.0,-0.00748569003486,0.0092065727797,-0.999929599253,0.0,0.627332633617,0.216226151946,0.30410917212,1.0,-0.220739428571,-0.290114677551,1.21
0.432298169698,0.359603762746,-0.126128922183,-1.64383147378,0.0607764591238,1.99599874787,0.11433897394,-0.243637990104,-1.04924773251,-0.0104321800794,-1.53891314991,-0.132346878678,0.526523961148,-0.275260700407,0.573594702138,0.819120533517,0.00337877936801,0.0,0.81909463744,-0.573529860135,-0.0113234867414,0.0,-0.00733761091431,0.00926281040386,-0.999930177467,0.0,0.623520781284,0.211184659487,0.304201146569,1.0,-0.237069142857,-0.311576587755,1.227
0.427829529916,0.341442510265,-0.126395412993,-1.67059808698,0.0587456738484,2.00464595494,0.109287038526,-0.267116183417,-1.10916969451,-0.0255116741796,-1.6104762328,-0.133996620678,0.544042099575,-0.3033708729,0.573648678544,0.819082794724,0.00336391030294,0.0,0.819056492513,-0.573583600791,-0.0113605403609,0.0,-0.00737588137268,0.0092723700613,-0.9999298073,0.0,0.61941099796,0.205716546099,0.304221635768,1.0,-0.253398857143,-0.333038497959,1.244
0.42298659287,0.32244267383,-0.126582926597,-1.69843277734,0.0565357642359,2.01358995617,0.103866416158,-0.29204055087,-1.16054799521,-0.0153015279686,-1.70836069715,-0.155956269619,0.536615632915,-0.328650003225,0.573562924324,0.819142742508,0.0033891205527,0.0,0.819116690581,-0.57349769268,-0.0113574030276,0.0,-0.00735982314603,0.00929044937429,-0.99992975781,0.0,0.615014603359,0.199999597375,0.304219867308,1.0,-0.269728571429,-0.354500408163,1.261
0.418020840978,0.303740547942,-0.126776342896,-1.72554454195,0.0543096064405,2.02209350053,0.098363805702,-0.319458845372,-1.20735726203,-0.0175278412801,-1.74437526997,-0.154939998105,0.534581703767,-0.353644889553,0.573418847326,0.819243572621,0.00339722710895,0.0,0.819217577415,-0.573353551589,-0.0113583729552,0.0,-0.00735760346718,0.00929635227318,-0.999929719283,0.0,0.610610152213,0.194309046492,0.304234782275,1.0,-0.285097714286,-0.374699853061,1.277
0.412171588938,0.283004983732,-0.127010137055,-1.75531174989,0.0518132379733,2.03114748194,0.0922058228276,-0.349799188277,-1.24244986301,-0.010671192006,-1.76537784973,-0.145822260112,0.528032621103,-0.375668485795,0.573398170496,0.819258260115,0.00334487758864,0.0,0.81923120547,-0.573332545984,-0.0114354974108,0.0,-0.00745104198407,0.00929750039884,-0.999929016711,0.0,0.605347237107,0.187472445819,0.304250182698,1.0,-0.302388,-0.397424228571,1.295
0.405368635832,0.260144382577,-0.127336986513,-1.78774859955,0.0490168440733,2.04081470963,0.085116894329,-0.392202889904,-1.28274347055,-0.0232251216579,-1.83189549571,-0.163486044953,0.533688002387,-0.397398634842,0.573392020338,0.81926253456,0.00335222018166,0.0,0.819235380583,-0.573326132651,-0.0114579109023,0.0,-0.0074652654235,0.00931631142529,-0.999928735537,0.0,0.600102159105,0.180602597503,0.3042811967,1.0,-0.318717714286,-0.418886138775,1.312
0.399096473805,0.240461085833,-0.127675228478,-1.81533090693,0.0464958544424,2.04894760171,0.0788398682747,-0.429533623969,-1.33343305276,-0.0241514790086,-1.87209300306,-0.172656715923,0.530340885989,-0.43348883296,0.573497565481,0.819188313851,0.00343449240562,0.0,0.819162699677,-0.573432028746,-0.0113545923252,0.0,-0.00733224256188,0.00932541866976,-0.999929634917,0.0,0.594991651896,0.173737975965,0.304348024871,1.0,-0.334086857143,-0.439085583673,1.328
0.391080891323,0.216098650974,-0.127959696259,-1.84894810265,0.0434771082614,2.05861344978,0.0707525898381,-0.460252751695,-1.38441256143,-0.0193472084319,-1.86268038772,-0.178085189157,0.540198390502,-0.460868497313,0.573378878614,0.819270072468,0.00373588261784,0.0,0.819248036437,-0.573312153366,-0.0112506221095,0.0,-0.00707560730999,0.00951166671695,-0.99992972952,0.0,0.589284987628,0.166304106454,0.304474436116,1.0,-0.350416571429,-0.460547493878,1.345
0.382767828545,0.192328302893,-0.128304109962,-1.88161554125,0.0403144314436,2.06758969109,0.0625854521054,-0.504163314295,-1.42262277388,-0.0210605432451,-1.9518046826,-0.196681103816,0.547168094127,-0.492006890912,0.573313941149,0.819315704006,0.00369444927648,0.0,0.819293182879,-0.573247396023,-0.0112627856905,0.0,-0.00711008065067,0.00948413175816,-0.999929746531,0.0,0.583227980679,0.158397027849,0.304467274857,1.0,-0.366746285714,-0.482009404082,1.362
0.374190401556,0.169268322029,-0.128787645117,-1.91280992923,0.0372991560402,2.07579941335,0.0543249794076,-0.542998754185,-1.44824258162,-0.0267703351418,-1.95856290988,-0.18589373857,0.510864483513,-0.517799342348,0.573429863091,0.819234494513,0.00371241379868,0.0,0.819211626782,-0.573362483905,-0.0113366440116,0.0,-0.00715894886138,0.00954220648784,-0.999928845342,0.0,0.577300052535,0.150512237192,0.304496481241,1.0,-0.382115428571,-0.50220884898,1.378
0.364396069888,0.144111833883,-0.129213299021,-1.94651300379,0.0337489479604,2.08433819933,0.0450277217912,-0.589585825561,-1.49521100415,-0.0176914506183,-1.99790000433,-0.217258126516,0.482172119486,-0.558273743413,0.57338226108,0.81926844222,0.00357059699103,0.0,0.819243951711,-0.573315548172,-0.0113743883442,0.0,-0.00727173865226,0.00944724438483,-0.99992893317,0.0,0.570678524285,0.141861824217,0.304467854496,1.0,-0.398445142857,-0.523670759184,1.395
0.353720446533,0.118289433702,-0.129749090548,-1.98028504725,0.0301668303339,2.09261797192,0.0350345475835,-0.647270235273,-1.53222696114,-0.0397470107049,-1.98611994745,-0.201455613759,0.474515008147,-0.605737701902,0.573452111235,0.819218711304,0.00375846648757,0.0,0.819196746986,-0.573385023018,-0.0112717349038,0.0,-0.00707910404328,0.00954290742869,-0.99992940711,0.0,0.563897416563,0.132825695445,0.304585756634,1.0,-0.414774857143,-0.545132669388,1.412
0.34281822503,0.0932941048178,-0.130331101251,-2.01260772217,0.02647333393,2.10016243445,0.0249371617962,-0.697206770402,-1.59449796634,-0.0322384117474,-2.03129643356,-0.232048922312,0.482335102778,-0.650745551899,0.57348365852,0.819196540048,0.00377744422896,0.0,0.819175671417,-0.573417672934,-0.011141751541,0.0,-0.00696136506088,0.0094841854485,-0.999930792417,0.0,0.557208724997,0.123904939396,0.304641025056,1.0,-0.42998,-0.565116571429,1.428
0.329854271351,0.0651239597165,-0.130819088531,-2.04877234649,0.0224319669778,2.10805904152,0.0129638718823,-0.73322965085,-1.57895558875,-0.0240096695129,-2.00295072869,-0.236739387611,0.435208228626,-0.669356522952,0.573372045556,0.819275063228,0.00368985765327,0.0,0.819251707852,-0.573304474325,-0.0113739088273,0.0,-0.00720308665312,0.00954458731733,-0.999928505642,0.0,0.549413269272,0.113835979969,0.304547728334,1.0,-0.42998,-0.565116571429,1.446
0.316671241291,0.0387466612293,-0.131434870245,-2.0817898365,0.0183854999219,2.11462601897,0.00136155732281,-0.779608445795,-1.55561858356,-0.0282670155346,-1.8968058089,-0.233244718532,0.375914011898,-0.687657352594,0.573691675161,0.819052024582,0.0035199118861,0.0,0.819026425587,-0.57362447859,-0.0114637975417,0.0,-0.00737048087014,0.00945976819569,-0.999928091813,0.0,0.542098354539,0.104004730872,0.304559707772,1.0,-0.42998,-0.565116571429,1.463
0.303073010436,0.0125339350201,-0.131872799192,-2.11370738359,0.0144393136369,2.12077749906,-0.0107058950495,-0.821019739465,-1.55652266606,-0.0290481915265,-1.84975191826,-0.244166295558,0.367124048778,-0.715776491058,0.573719670729,0.819031155494,0.00380166414771,0.0,0.819009424868,-0.573651996877,-0.0113002370828,0.0,-0.00707455021254,0.00959695183655,-0.999928922101,0.0,0.535256954474,0.0949607898075,0.304730222147,1.0,-0.42998,-0.565116571429,1.479
0.288883776772,-0.0132164105384,-0.132361854107,-2.14461314536,0.0104949256783,2.12632928295,-0.02325373622,-0.827866375063,-1.52637950992,-0.0230692291364,-1.79712073395,-0.229769876478,0.334783167242,-0.7479807282,0.573830011125,0.818952472444,0.00408816732538,0.0,0.818934801406,-0.573762144625,-0.011114825395,0.0,-0.00675700817914,0.00972615013529,-0.999929869963,0.0,0.527580909895,0.0847210314221,0.304867784568,1.0,-0.42998,-0.565116571429,1.497
0.274200170782,-0.0385929648262,-0.132783617954,-2.174597636,0.00645167537042,2.13111632074,-0.0361875625919,-0.884620747042,-1.49711599405,-0.0356241516814,-1.76917099808,-0.241590738076,0.270876785324,-0.771299071342,0.573798382855,0.818974321829,0.00415005052019,0.0,0.81895777862,-0.573730868361,-0.0110360512922,0.0,-0.00665735870877,0.00973137189879,-0.999930487572,0.0,0.520279434428,0.0751238501719,0.304950884327,1.0,-0.42998,-0.565116571429,1.514
0.259796953872,-0.0621066573908,-0.133268104032,-2.20204377292,0.00276476871587,2.13508711585,-0.0488250812381,-0.899759100844,-1.46027065085,-0.0257121512027,-1.68751924885,-0.235510279808,0.243985144355,-0.802484994555,0.573902557694,0.818901082076,0.00419749323589,0.0,0.818884493872,-0.573833966909,-0.0111135511402,0.0,-0.00669236370851,0.0098155465281,-0.999929431167,0.0,0.513389731978,0.0660374282819,0.304961154849,1.0,-0.42998,-0.565116571429,1.53
0.242992920774,-0.0881495634394,-0.133842538862,-2.23200719129,-0.00143821977984,2.1389058777,-0.0636304611275,-0.953800797198,-1.41946808221,-0.0340742718999,-1.67215838672,-0.225641097897,0.205739490533,-0.839935697466,0.573935257195,0.818878519212,0.00412773826151,0.0,0.81886023761,-0.573865671741,-0.0112627243899,0.0,-0.00685416774444,0.00984430488641,-0.999928052435,0.0,0.505610594267,0.0558143948333,0.304916490458,1.0,-0.42998,-0.565116571429,1.548
0.226612676666,-0.11232987035,-0.134233429938,-2.25929896137,-0.0054402002721,2.14187842946,-0.0780428872139,-0.965112274352,-1.39526451648,-0.0256585106219,-1.60507067637,-0.241222081632,0.156733442588,-0.854405284146,0.573809879017,0.81896699903,0.00400301686328,0.0,0.818946610841,-0.573739930554,-0.0113880455046,0.0,-0.00702987818152,0.00981301903759,-0.999927140081,0.0,0.498265361522,0.0462973675254,0.30487401524,1.0,-0.42998,-0.565116571429,1.565
0.21153328732,-0.133383839543,-0.134720945872,-2.28260119052,-0.00890074310273,2.14409658068,-0.0912448017783,-1.0203249833,-1.38713429895,-0.0245448905437,-1.54359173911,-0.219349187505,0.12015222661,-0.880342528494,0.573900992548,0.818903119944,0.00400971322953,0.0,0.818882270303,-0.573830248634,-0.0114638578821,0.0,-0.00708703069412,0.00986279237896,-0.999926246941,0.0,0.491821026054,0.0377895408065,0.304861571341,1.0,-0.42998,-0.565116571429,1.58
0.192927073106,-0.158202561451,-0.135282867392,-2.30979049912,-0.013109876754,2.14620396458,-0.107754780701,-1.05795387197,-1.37005044418,-0.0427224729041,-1.49485495893,-0.233113296183,0.0916626381203,-0.930387711972,0.573766196682,0.818998440078,0.00382800158993,0.0,0.81897429974,-0.573694738855,-0.0116700418564,0.0,-0.0073617834407,0.0098310997317,-0.999924573967,0.0,0.484031758087,0.0276551531122,0.304747816008,1.0,-0.42998,-0.565116571429,1.598
0.174747637438,-0.181291576774,-0.135762493257,-2.33453848495,-0.0169448495414,2.14758434998,-0.123900434912,-1.07660926754,-1.35720209323,-0.0327238881944,-1.44519923508,-0.233835747743,0.0679968171828,-0.967982786434,0.573641017539,0.819086615128,0.00372113117644,0.0,0.819059415096,-0.573567743159,-0.0119358892135,0.0,-0.00764235342251,0.00989493366665,-0.999921839306,0.0,0.47666747507,0.0181566100523,0.304662640294,1.0,-0.42998,-0.565116571429,1.615
0.158035991582,-0.201379420007,-0.136350466329,-2.35561282805,-0.0204078717895,2.14845411966,-0.138685360878,-1.11128120652,-1.30777151316,-0.0301327075589,-1.4000554604,-0.221143540729,0.0315740701534,-0.998022604117,0.57369031383,0.819052311171,0.00367182306236,0.0,0.819023908107,-0.573616491659,-0.0120293535768,0.0,-0.007746600732,0.00990862527478,-0.999920901533,0.0,0.470202999407,0.00963293949342,0.304625049125,1.0,-0.42998,-0.565116571429,1.63
0.137285003518,-0.225194233593,-0.137080480845,-2.38002310212,-0.0244506220511,2.14898349242,-0.157064260477,-1.16117905568,-1.30727494324,-0.0455249929315,-1.34672658088,-0.225129966895,0.00771420565738,-1.02948966025,0.573816955233,0.81896331495,0.00373330346682,0.0,0.818934813631,-0.573741724874,-0.0121223373772,0.0,-0.00778594753643,0.0100135276943,-0.999919550906,0.0,0.462433923337,-0.000591417887704,0.304627749574,1.0,-0.42998,-0.565116571429,1.648
0.117061686519,-0.24732856869,-0.137751512515,-2.40210350884,-0.0282560108681,2.14913324882,-0.175112470261,-1.20968802846,-1.30803767155,-0.0533970406781,-1.28150061486,-0.218540566321,0.00363897887897,-1.07251603278,0.573831202061,0.818952386772,0.00393530728061,0.0,0.818927127166,-0.573756010231,-0.0119644480378,0.0,-0.0075405522516,0.0100884977202,-0.999920677997,0.0,0.455147124943,-0.0102021158687,0.304711112338,1.0,-0.42998,-0.565116571429,1.665
0.0973792186656,-0.267569226476,-0.138407948388,-2.4220280701,-0.031742104432,2.14884962979,-0.192706897471,-1.23809189576,-1.25942365852,-0.0444650143499,-1.20081706043,-0.219033681703,-0.0144654720458,-1.11005909613,0.573909375094,0.818897016112,0.00405624014774,0.0,0.818873148691,-0.573833490042,-0.0119431553728,0.0,-0.00745275134589,0.0101760308984,-0.999920449282,0.0,0.448294447415,-0.0192582178205,0.304732561668,1.0,-0.42998,-0.565116571429,1.681
0.0758198268958,-0.288713384534,-0.139110454778,-2.44238955158,-0.0354193675694,2.14821175345,-0.212123722889,-1.28681317094,-1.23094735193,-0.0311763061393,-1.18481653929,-0.212632390972,-0.0619341411352,-1.15415315713,0.573915304763,0.818891932536,0.00423942063171,0.0,0.818870948617,-0.57383948198,-0.0118053095435,0.0,-0.00723466509676,0.0102469835049,-0.99992132638,0.0,0.441009262145,-0.0288676727974,0.30478851627,1.0,-0.42998,-0.565116571429,1.698
0.0535964015351,-0.30925708389,-0.139870969402,-2.461668679,-0.0390430257374,2.14720481679,-0.232295749138,-1.32182606075,-1.20071056673,-0.0405243719429,-1.12549443248,-0.213264978312,-0.065672986429,-1.19165187115,0.573898179593,0.81890268664,0.00447394387012,0.0,0.818885920622,-0.573823334177,-0.0115488987223,0.0,-0.00689030346261,0.0102917397458,-0.999923298964,0.0,0.433788091354,-0.0384915057992,0.304897884516,1.0,-0.42998,-0.565116571429,1.715
0.032018101329,-0.32808142557,-0.140588596677,-2.47904441093,-0.0423018484577,2.14587431539,-0.251858871746,-1.36840604481,-1.16943608178,-0.0423630067359,-1.07316264249,-0.21743752541,-0.0846275816014,-1.26543505891,0.574003283585,0.818827834945,0.00468551535291,0.0,0.818814060048,-0.573928210798,-0.0114320085165,0.0,-0.00667182579275,0.0103987764846,-0.999923673181,0.0,0.426956836635,-0.0475427168837,0.304974491812,1.0,-0.42998,-0.565116571429,1.731
0.00848687765131,-0.347333397142,-0.141330786238,-2.49686190087,-0.0458001612449,2.14405705024,-0.273415785258,-1.41346187868,-1.12161793849,-0.060798223177,-1.02487637908,-0.205464125671,-0.123262693919,-1.26731182672,0.573927997994,0.818881312343,0.00456029765561,0.0,0.818864601119,-0.573851291886,-0.0116707641632,0.0,-0.00694017159275,0.0104326454927,-0.999921493882,0.0,0.419592275781,-0.0571136563472,0.304874365661,1.0,-0.42998,-0.565116571429,1.748
-0.0157759509443,-0.366062748787,-0.142114921929,-2.51359832201,-0.0491312181744,2.14199847807,-0.295766362307,-1.44773410764,-1.08198009707,-0.0584023743286,-0.979176568787,-0.192654184038,-0.128023746521,-1.32675716411,0.573909110191,0.818893905525,0.00467457330464,0.0,0.818878413375,-0.573831650724,-0.0116673749298,0.0,-0.00687205641599,0.0105241225571,-0.999921005722,0.0,0.412291590623,-0.0667101579313,0.304907038749,1.0,-0.42998,-0.565116571429,1.765
-0.0392642845225,-0.383032344291,-0.142838980497,-2.52855819739,-0.0522884756043,2.13982782849,-0.317433291817,-1.48891465684,-1.05263813692,-0.0522960303038,-0.904294585437,-0.192357791108,-0.133941210246,-1.36515474003,0.573887466933,0.818909210389,0.00465052028347,0.0,0.81889329016,-0.573809909466,-0.0116924774799,0.0,-0.00690669585303,0.0105186486556,-0.999920824657,0.0,0.405393585112,-0.0757501952355,0.304905657671,1.0,-0.42998,-0.565116571429,1.781
-0.0664261472959,-0.401314880237,-0.143724256909,-2.54441951424,-0.0555355680169,2.13726640093,-0.342660509907,-1.5428348617,-0.999061178084,-0.0493019815696,-0.849524141049,-0.181682609724,-0.147368827552,-1.43927833704,0.573965822778,0.818853355594,0.00481281790384,0.0,0.818838711443,-0.57388644931,-0.0117581819519,0.0,-0.00686634796746,0.0106899220033,-0.999919286159,0.0,0.397638343105,-0.0859211628286,0.304896346892,1.0,-0.42998,-0.565116571429,1.799
-0.0927153001391,-0.417840246924,-0.144541253302,-2.55819929325,-0.0585942324655,2.13469022491,-0.367267609061,-1.57480383528,-0.975033140589,-0.0539791601421,-0.790865984231,-0.178410691039,-0.140471429834,-1.47449838517,0.573932471738,0.818875575764,0.00500561719867,0.0,0.818864797358,-0.573854690921,-0.0114884401712,0.0,-0.00653523197287,0.0106927184449,-0.999921475175,0.0,0.390393301299,-0.0955306191402,0.305026101221,1.0,-0.42998,-0.565116571429,1.816
-0.118081227887,-0.43242045144,-0.145278395898,-2.57050193743,-0.061279703902,2.13211779584,-0.39110454252,-1.60052173188,-0.908500789236,-0.050814644632,-0.753671267602,-0.171117947581,-0.163170487676,-1.50459869592,0.573928232339,0.8188783185,0.00504286788363,0.0,0.818866852845,-0.573848431719,-0.0116533955376,0.0,-0.00664899913007,0.0108178583321,-0.999919379126,0.0,0.38348888867,-0.104536978546,0.304977565191,1.0,-0.42998,-0.565116571429,1.832
-0.145598584386,-0.447100660452,-0.146077681053,-2.58236261478,-0.0640658763153,2.1293451431,-0.41710313144,-1.63757355838,-0.836357369911,-0.0538642162307,-0.666484823732,-0.161412293186,-0.155349143057,-1.543905754,0.573915150891,0.818886626845,0.00518062283516,0.0,0.818877846942,-0.57383643125,-0.0114703469507,0.0,-0.00642020721268,0.0108255115987,-0.999920791482,0.0,0.376248541575,-0.114131048444,0.305082623603,1.0,-0.42998,-0.565116571429,1.849
-0.178643789434,-0.46279177482,-0.146830482176,-2.59526410165,-0.0669596704037,2.12611266728,-0.448504550377,-1.65280005886,-0.754706190914,-0.0333890149163,-0.616550025085,-0.12570048035,-0.15241398907,-1.57390617506,0.573846222858,0.818934592716,0.0052337621775,0.0,0.818924731742,-0.573764382407,-0.0117245095097,0.0,-0.0065987871438,0.0110143348443,-0.99991756682,0.0,0.367701930804,-0.125270320565,0.304998753559,1.0,-0.416204,-0.547010971429,1.869
-0.205112181745,-0.473955789806,-0.147163703222,-2.60425829783,-0.0689975055633,2.12367688657,-0.473511218353,-1.65423375376,-0.66434379732,-0.0189506263093,-0.532031657921,-0.118574794702,-0.141202954173,-1.52952742372,0.573892870172,0.818901761684,0.0052559658393,0.0,0.818891561088,-0.573809899063,-0.0118134591596,0.0,-0.00665826548187,0.0110839394551,-0.999916403399,0.0,0.361097396499,-0.133944079253,0.304970194333,1.0,-0.400834857143,-0.526811526531,1.885
-0.228031756839,-0.482823522411,-0.147337361878,-2.61115781472,-0.0704260770933,2.12170753052,-0.495202237842,-1.63318845889,-0.612545784369,-0.0266822154547,-0.481475886272,-0.0905389141762,-0.142367811006,-1.54170927737,0.574007132421,0.818820317144,0.00546324660033,0.0,0.818813155857,-0.573924023733,-0.0117037463326,0.0,-0.00644790095438,0.0111916275345,-0.999916582544,0.0,0.355536793363,-0.141303064933,0.305030918532,1.0,-0.387386857143,-0.509137012245,1.899
-0.256960335603,-0.492747610541,-0.147278697617,-2.6190716288,-0.0719657033137,2.1192820803,-0.522569525851,-1.60388275499,-0.528282010117,-0.00453738083724,-0.42070802408,-0.0703342803797,-0.133113307618,-1.51086441346,0.574113879594,0.818744834069,0.00555849300391,0.0,0.818737295972,-0.574027610648,-0.0119285078558,0.0,-0.00657580233184,0.01139948693,-0.999913401511,0.0,0.348587514101,-0.150334724693,0.304971014907,1.0,-0.370096571429,-0.486412636735,1.917
-0.280470182891,-0.49991796782,-0.147084092357,-2.62462784006,-0.0729433284975,2.11754589941,-0.544952647393,-1.55153008733,-0.460083200817,0.00557689901957,-0.348552263832,-0.0566417352645,-0.117946398828,-1.489614778,0.574143848609,0.818722558727,0.00574106577457,0.0,0.818717266345,-0.574056652011,-0.0119056697331,0.0,-0.00645186760818,0.0115360988234,-0.999912642098,0.0,0.343100589319,-0.157548392002,0.30498824443,1.0,-0.355688,-0.467475657143,1.932
-0.307837327931,-0.507204960573,-0.146742057711,-2.63021595182,-0.0739614716724,2.11574913134,-0.57097577683,-1.49305332505,-0.383311866694,0.0113584040837,-0.281977232931,-0.0442210264722,-0.0942973212716,-1.43106282125,0.574224447084,0.818665074014,0.00587604143195,0.0,0.818661982407,-0.574137535752,-0.0118065872686,0.0,-0.00629210583492,0.0115903459237,-0.999913032861,0.0,0.336833970473,-0.165843906215,0.305017617057,1.0,-0.338397714286,-0.444751281633,1.95
-0.332919661709,-0.512997200877,-0.146279907204,-2.63460537709,-0.0746684305903,2.11427452073,-0.594876891727,-1.46131017754,-0.323365636898,0.0173065133738,-0.248393381342,-0.030206589,-0.0879887316438,-1.38486513097,0.574291218245,0.81861727639,0.0060081897105,0.0,0.818616436203,-0.574204814385,-0.0116922374354,0.0,-0.00612165396754,0.0116333761082,-0.999913591223,0.0,0.331179085947,-0.173323883138,0.305054792723,1.0,-0.322068,-0.423289371429,1.967
-0.357031418159,-0.517695818857,-0.145607776472,-2.63833830962,-0.0751234279264,2.11288708469,-0.617998622292,-1.40565594161,-0.258624912339,0.0281598650675,-0.208907078981,-0.0163977192507,-0.0727110475475,-1.33794244426,0.57420163554,0.818679772217,0.00605468475629,0.0,0.818678088398,-0.574112338105,-0.0119146008586,0.0,-0.00627829437166,0.0117984481986,-0.999910685831,0.0,0.325761605399,-0.180345638066,0.304991203777,1.0,-0.305738285714,-0.401827461225,1.984
-0.378777270908,-0.521233588168,-0.144865218769,-2.6411307042,-0.0754790617422,2.11187635061,-0.638838850159,-1.34526986312,-0.218574396754,0.0467129743642,-0.161816969926,-0.0163170322542,-0.0583439005702,-1.28266645408,0.574093816952,0.818755663851,0.00601657304634,0.0,0.818753091594,-0.57400396323,-0.0119821576773,0.0,-0.00635704508261,0.0118051977054,-0.999910108602,0.0,0.320965822689,-0.18662845073,0.304956650536,1.0,-0.290369142857,-0.381628016327,2.0
-0.400858116689,-0.524210456469,-0.144048850117,-2.6434403434,-0.0756620455071,2.11097979574,-0.660088128597,-1.27047552628,-0.162652275507,0.0516069907095,-0.123778634684,-0.00253559391328,-0.049263760779,-1.23554334628,0.573977212996,0.818837304025,0.00603120221106,0.0,0.8188346512,-0.573886819747,-0.0120199424132,0.0,-0.00638127264328,0.0118379583229,-0.999909566962,0.0,0.316150805492,-0.192958534118,0.304944267974,1.0,-0.274039428572,-0.360166106123,2.017
-0.420788775377,-0.526344235243,-0.143242412854,-2.64511746666,-0.075745317276,2.11031946673,-0.679196971906,-1.2172317531,-0.121600139546,0.053019863001,-0.0926497029055,-0.00256203990623,-0.0344965984338,-1.16339933735,0.573942168629,0.818861978599,0.0060161429281,0.0,0.818858960116,-0.573851532291,-0.0120486192912,0.0,-0.00641390688199,0.0118418112185,-0.999909312541,0.0,0.311841185419,-0.198635005616,0.304928474151,1.0,-0.258670285714,-0.339966661225,2.033
-0.442008879948,-0.528110472173,-0.142338265592,-2.64654210654,-0.0757494455895,2.10975067994,-0.699558183527,-1.14365686161,-0.0884373705493,0.0641421559719,-0.0732383399348,-0.00173714736797,-0.0322768869931,-1.11349558786,0.573918840928,0.818878502549,0.00599241118328,0.0,0.818874922503,-0.573827846309,-0.0120917739284,0.0,-0.00646320576087,0.0118469602117,-0.999908934106,0.0,0.307264713547,-0.204638806503,0.304902352347,1.0,-0.24138,-0.317242285714,2.051
-0.460886678845,-0.529192465297,-0.141453190195,-2.64745085972,-0.0756757936149,2.10933812372,-0.717618278146,-1.10849590923,-0.0500148838201,0.0386908114773,-0.046101563,0.00222584383966,-0.0160020253592,-1.04291018429,0.573940648974,0.818863597701,0.00594026239218,0.0,0.818858912587,-0.573849102431,-0.0121669970613,0.0,-0.00655442293784,0.0118475990954,-0.999908332766,0.0,0.303216703589,-0.209945520766,0.304872970365,1.0,-0.225050285714,-0.29578037551,2.068
-0.477576153675,-0.529874707036,-0.14053696302,-2.6479739566,-0.0755068430611,2.1090720877,-0.733608441048,-1.01415578184,-0.0378359106652,0.0604970700348,-0.0262809158598,0.00880126848084,-0.00901754931632,-0.980582409936,0.573907436034,0.818887236813,0.00589025889105,0.0,0.818882213139,-0.573816678956,-0.0121279370527,0.0,-0.00655161020509,0.0117839683729,-0.999909103115,0.0,0.299677972795,-0.214595613489,0.304886081573,1.0,-0.209681142857,-0.275580930612,2.084
-0.494261164441,-0.530229827407,-0.139587237943,-2.64823334791,-0.0752845288704,2.1088865435,-0.749481871488,-0.948048347738,-0.0128132362859,0.0607982082697,-0.0103454040951,0.0131161161173,-0.0137777478714,-0.898929183969,0.573981345608,0.818835861323,0.00583043789944,0.0,0.818830485289,-0.573891593442,-0.0120756879255,0.0,-0.00654209298256,0.0117055852681,-0.999910086104,0.0,0.296153955293,-0.219234860214,0.304907327894,1.0,-0.193351428572,-0.254119020408,2.101
-0.509521032829,-0.530314983704,-0.138479225946,-2.64829858452,-0.074810182264,2.10879296495,-0.764188516158,-0.877733501506,0.000851203141641,0.0571278903205,0.0020964247573,0.0305995289049,-0.00740302501984,-0.834728400613,0.573851109216,0.818926912156,0.00586207299039,0.0,0.818922283394,-0.573761855358,-0.0120155731501,0.0,-0.00647656703638,0.0116959573622,-0.999910625336,0.0,0.292984784062,-0.223384079082,0.304930441045,1.0,-0.177021714286,-0.232657110204,2.118
-0.523696732631,-0.530190051465,-0.137400558126,-2.6482596894,-0.0743755568731,2.10879844162,-0.777721350398,-0.798518897701,0.0119521212793,0.0705507006929,0.00446590153703,0.0298823018523,0.00605745989538,-0.77133452951,0.573804622856,0.818959648932,0.00583910197245,0.0,0.818955030549,-0.573716029831,-0.0119717147353,0.0,-0.0064544891642,0.0116516115225,-0.999911285824,0.0,0.290034029937,-0.227217608356,0.304931695732,1.0,-0.160692,-0.2111952,2.135
-0.536582652739,-0.529880169662,-0.136285246734,-2.64810063662,-0.0738279403283,2.10880172533,-0.790012024413,-0.741539640695,0.021196462634,0.0587131790514,0.0101657459443,0.0320618688385,0.000543655790089,-0.70200279242,0.573748415009,0.818998876638,0.00586031072763,0.0,0.818994293495,-0.573659312945,-0.0120036159394,0.0,-0.00646925069741,0.0116868416715,-0.999910779283,0.0,0.287372225586,-0.230645673928,0.304920709252,1.0,-0.144362285714,-0.189733289796,2.152
-0.548942432365,-0.529399311003,-0.135133832618,-2.6478325425,-0.0732145980101,2.10884361974,-0.801693492391,-0.645116035218,0.0282732833122,0.0750459517447,0.0147656647812,0.0311274710928,0.00415827640359,-0.619791148588,0.573768976049,0.818984208963,0.00589699025711,0.0,0.818979677503,-0.573678948383,-0.0120622932923,0.0,-0.00649597362859,0.0117507110878,-0.999909857495,0.0,0.284835089642,-0.23390503581,0.304900875222,1.0,-0.127072,-0.167008914286,2.17
-0.558154945417,-0.52890526105,-0.134154984554,-2.64757585623,-0.0726864584618,2.10894234055,-0.810395894356,-0.6008962622,0.0330610046868,0.066982391183,0.017725341265,0.0324632183451,0.00804329896526,-0.5526738506,0.573736457095,0.819006871542,0.0059134650218,0.0,0.819002196083,-0.573645717921,-0.0121136296865,0.0,-0.00652903776894,0.0117933988777,-0.999909139577,0.0,0.282971777396,-0.236300493207,0.304871079829,1.0,-0.112663428572,-0.148071934694,2.185
-0.56712536426,-0.528382450908,-0.133226906314,-2.647246884,-0.0721432691482,2.10902166107,-0.818597366101,-0.533029366283,0.0344856418016,0.0559931811312,0.0211114218994,0.0259039600027,0.0119039231496,-0.48720416232,0.573966461637,0.818845379775,0.00595750271636,0.0,0.818841075366,-0.573875116709,-0.0121404537195,0.0,-0.00652241744667,0.0118466892803,-0.999908552831,0.0,0.281049379654,-0.238771330995,0.30486175734,1.0,-0.0963337142858,-0.12661002449,2.202
-0.575628475744,-0.527719186712,-0.132045959122,-2.64683819304,-0.0714868846808,2.10915156285,-0.826606387966,-0.440406290058,0.0479239577123,0.0708561761176,0.0223148055726,0.0384026760491,0.00186288037197,-0.415361425643,0.573835841243,0.818936913684,0.00595865860103,0.0,0.818932338867,-0.573744000783,-0.0121816593562,0.0,-0.00655739214174,0.0118702395079,-0.999908044783,0.0,0.279508681789,-0.240783199617,0.304845144331,1.0,-0.0800040000001,-0.105148114286,2.219
-0.582166144929,-0.527243851527,-0.131069362191,-2.6465385183,-0.0709196818711,2.10923009859,-0.832479858832,-0.396401706868,0.0226882977725,0.0593782089789,0.0155744379516,0.035332562139,0.0108358504203,-0.348398400417,0.573948892553,0.818857540059,0.00597868935819,0.0,0.818853032886,-0.573856588196,-0.0122095707851,0.0,-0.00656711525859,0.0119035667248,-0.999907584778,0.0,0.278247545328,-0.242397046001,0.304839081933,1.0,-0.064634857143,-0.0849486693879,2.235
-0.587913800129,-0.526780106891,-0.129938323097,-2.64621268777,-0.0702914199334,2.10934764336,-0.837523906955,-0.31113939257,0.027038152481,0.0742039451883,0.0195685906118,0.0386585910417,0.00534058893538,-0.269112014831,0.574012059324,0.818813397832,0.00596004890452,0.0,0.81880898812,-0.573920442331,-0.0121619796772,0.0,-0.00653792387552,0.0118614929831,-0.999908276061,0.0,0.277219430916,-0.243755276389,0.304856061796,1.0,-0.0483051428573,-0.0634867591838,2.252
-0.592571872103,-0.526349429896,-0.128798201551,-2.64594044199,-0.0695738089649,2.10945132105,-0.841565108669,-0.234066796756,0.021130021915,0.0670538187482,0.0136828891564,0.0347553640971,0.0104996011672,-0.205578419161,0.574032720173,0.818798566534,0.00600753817778,0.0,0.818794794359,-0.57394092303,-0.0121510700468,0.0,-0.00650143190201,0.0118942817807,-0.999908124502,0.0,0.276446585986,-0.244782054617,0.30485955908,1.0,-0.031014857143,-0.0407623836736,2.27
-0.595394069066,-0.526097942181,-0.127769147649,-2.64581162653,-0.0689942861161,2.10945986389,-0.843897257045,-0.169738103769,0.0157976355769,0.0644788165756,0.00736249452761,0.0350151064196,-0.000713492482233,-0.136575647227,0.573961218678,0.818848779211,0.00599525972749,0.0,0.818844426512,-0.573868725053,-0.0122163201166,0.0,-0.00656295311497,0.0119211085135,-0.999907403122,0.0,0.2760403279,-0.245294951778,0.304852237597,1.0,-0.0199097560976,-0.0261671080139,2.285
-0.597838126893,-0.52591940275,-0.126868355785,-2.64568116504,-0.0685030651853,2.10946902031,-0.845801750039,-0.122243747813,0.0102078365487,0.0489360408269,0.00456029318568,0.0213131950953,0.000244650776504,-0.10095312575,0.573982875324,0.818833794243,0.00596851247407,0.0,0.818829137246,-0.573890578744,-0.0122145211178,0.0,-0.00657651621205,0.0118983469517,-0.999907585117,0.0,0.275694628983,-0.245742980757,0.304869048278,1.0,-0.0195497560976,-0.0256939651568,2.303
-0.599684186092,-0.525742848913,-0.126251390643,-2.64548973387,-0.0682696302148,2.10957319458,-0.847511640434,-0.106514586087,0.0121495722282,0.0294395470578,0.0126791757514,0.0118443881631,0.00790214364964,-0.0932900512414,0.573767719288,0.818985418938,0.00585104867484,0.0,0.818980288635,-0.573677883507,-0.0120714416566,0.0,-0.00652984320196,0.0117183226944,-0.999910016982,0.0,0.275445951359,-0.246144933146,0.30491526795,1.0,-0.0192097560976,-0.0252471080139,2.32
-0.601216771911,-0.525527243319,-0.125970536108,-2.64530680094,-0.0681054281702,2.10966853375,-0.848978398915,-0.0916373602736,0.0125407120291,0.0146693830433,0.009965169891,0.00830852048906,0.00716054933916,-0.0871011701209,0.573702702266,0.819031035492,0.00584116544081,0.0,0.81902630037,-0.57361386243,-0.0119917901997,0.0,-0.00647119946572,0.0116640151319,-0.999911033207,0.0,0.275194746346,-0.246539904879,0.304934410418,1.0,-0.0188897560976,-0.0248265365854,2.336
-0.602902547716,-0.525308799682,-0.12584831542,-2.64518183413,-0.0679873766494,2.10965849497,-0.850586773044,-0.0915983721813,0.0102964090537,0.000830660273251,0.0076316362843,0.00528036913287,0.000155449690905,-0.087079785573,0.573736932863,0.8190067374,0.00588581883418,0.0,0.819001955918,-0.573646769989,-0.0120799993447,0.0,-0.00651734536725,0.0117514651625,-0.999909709562,0.0,0.274837257563,-0.246989239654,0.304913317803,1.0,-0.0185297560976,-0.0243533937282,2.354
-0.604449875026,-0.525158886369,-0.125787132933,-2.64507799962,-0.0679563755403,2.10967076652,-0.851988979005,-0.0884247990349,0.00830303230555,-0.000117244385226,0.00828391071215,0.00514795287941,-0.00039044224365,-0.0817090817537,0.573831352232,0.818940584432,0.00588602295941,0.0,0.818935656307,-0.573740900178,-0.0121044286889,0.0,-0.00653588162947,0.0117664012975,-0.999909412923,0.0,0.2744935019,-0.247421888045,0.304908107513,1.0,-0.0181897560976,-0.0239065365854,2.371
-0.605779843232,-0.525007220186,-0.125738169597,-2.64492768831,-0.0679173777853,2.10969962885,-0.853338175502,-0.080149416321,0.0129226857187,0.000288127824435,0.00782939275994,0.00186876116654,0.00104620010219,-0.0880174314823,0.573805398893,0.818958721529,0.00589266785285,0.0,0.818954107139,-0.573715333772,-0.0120678538298,0.0,-0.00650248543305,0.0117506504571,-0.999909815882,0.0,0.274214936356,-0.247810002829,0.304924502778,1.0,-0.0178697560976,-0.0234859651568,2.387
-0.60721269037,-0.524857260848,-0.125711945832,-2.64477452395,-0.0678762815382,2.10974942638,-0.854763534607,-0.0769685093482,0.00619705152823,-0.00121397266575,0.00469001725405,0.00201949134914,9.222799931e-05,-0.0830334550579,0.573818404177,0.818949472837,0.00591158772097,0.0,0.818945486606,-0.573728950573,-0.0120053381085,0.0,-0.00644024029042,0.0117303778839,-0.999910456761,0.0,0.273909929768,-0.248234419513,0.304944059942,1.0,-0.0175097560976,-0.0230128222997,2.405
-0.608583483998,-0.524737705862,-0.125721966645,-2.64465195688,-0.0678527436244,2.10975600144,-0.85610899315,-0.0801753085074,0.00553195205927,-0.000590008284937,0.00641653185506,0.00311217508089,-7.86752341427e-05,-0.087057662372,0.573862602609,0.818918303921,0.00593900090663,0.0,0.81891475956,-0.573773183285,-0.0119873941732,0.0,-0.00640918044559,0.011742878805,-0.999910509597,0.0,0.27359698891,-0.248638659513,0.304956282704,1.0,-0.0171697560976,-0.0225659651568,2.422
-0.609758669517,-0.524641596768,-0.1257219406,-2.64455175499,-0.067833119099,2.1097613427,-0.85725975663,-0.0760757276394,0.00725290115182,-0.000557634096907,0.00457143818881,0.000688219096841,-0.000528608438742,-0.0801143393702,0.573896115795,0.818894678816,0.00595820299247,0.0,0.818891470092,-0.573806768917,-0.0119707584169,0.0,-0.00638405607422,0.011749319577,-0.999910594662,0.0,0.273328904642,-0.248981882247,0.304967062947,1.0,-0.0168697560976,-0.0221716794425,2.437
-0.61110186457,-0.524488023743,-0.125716257762,-2.64444186665,-0.0678061554166,2.10977761231,-0.85856988188,-0.0761723291634,0.00842408943403,0.00103471755204,0.00394403561889,0.00771061901403,2.0530036068e-06,-0.0683631263454,0.573936564205,0.818866165464,0.00598082167232,0.0,0.818863106594,-0.573846850416,-0.0119896550174,0.0,-0.00638597009945,0.0117790024035,-0.999910233215,0.0,0.273023083949,-0.249371587714,0.304962244962,1.0,-0.0165097560976,-0.0216985365854,2.455
-0.612265222658,-0.524337748451,-0.125692623617,-2.64434988075,-0.0677861896619,2.10979978656,-0.859787093289,-0.0738057768451,0.00830848003126,0.00388904945199,0.00447072252657,0.000933937374446,0.00157815772793,-0.081954233641,0.573889298925,0.818899231729,0.00598896928785,0.0,0.818896081942,-0.573799198066,-0.0120180772052,0.0,-0.00640525173652,0.0118016166041,-0.999909843234,0.0,0.272761529895,-0.249704984117,0.304951419096,1.0,-0.0161897560976,-0.0212779651568,2.471
-0.613409515374,-0.52417083245,-0.125593317026,-2.64425992586,-0.0677627696,2.10983405775,-0.860959043904,-0.0650017855612,0.0120265282785,0.00758063246836,0.00140994204566,0.000255473699976,0.00122625225132,-0.0730230591959,0.573811412344,0.818954013173,0.00596106307009,0.0,0.818950299487,-0.573721076327,-0.012053233956,0.0,-0.00645118100457,0.0117983247404,-0.999909586811,0.0,0.272521512517,-0.25001642046,0.304936397067,1.0,-0.0158697560976,-0.0208573937282,2.487
-0.614567164107,-0.523984314535,-0.125498181894,-2.64414859235,-0.067740477208,2.10985807158,-0.862142939435,-0.0723663509754,0.0101704744452,0.00377080581152,0.00510435939352,0.0007269312725,-0.000213394606754,-0.0733345886515,0.573738235802,0.819005484149,0.00593301056369,0.0,0.819001147237,-0.573647564328,-0.0120970932682,0.0,-0.00650425389698,0.0117999345936,-0.999909223992,0.0,0.272279800147,-0.250335923772,0.304922916099,1.0,-0.0155297560976,-0.0204105365854,2.504
-0.615681031249,-0.523798521064,-0.125423601809,-2.64404080428,-0.0677111201368,2.1098885609,-0.863363741589,-0.0628835008244,0.0131965556599,0.00311377936629,0.00679569072885,0.0039756992924,-0.00135800764641,-0.0746222280053,0.573616331821,0.819090949782,0.00592171886973,0.0,0.819086207882,-0.573525267586,-0.0121366551863,0.0,-0.00654489503392,0.0118124093072,-0.99990881151,0.0,0.272045236769,-0.250647153243,0.304908146606,1.0,-0.0151897560976,-0.0199636794425,2.521
-0.616743016976,-0.523643379236,-0.125394944027,-2.64394542997,-0.0676935203886,2.10991865896,-0.864380092689,-0.0657243363585,0.00696235384944,0.000348559936438,0.00661431175518,0.00426172871463,0.000810016293405,-0.0657750229311,0.573646135578,0.819070072881,0.0059223093589,0.0,0.819065187305,-0.573554789625,-0.0121601456888,0.0,-0.00656336888229,0.0118266057056,-0.999908522609,0.0,0.271810413237,-0.250952929661,0.304897837868,1.0,-0.0148697560976,-0.0195431080139,2.537
-0.617952381848,-0.523493683446,-0.12539291116,-2.64384945734,-0.0676638969003,2.10993006175,-0.865571249159,-0.0648180351062,0.00896735886823,-0.000998843703818,0.00181336878686,0.000791230744185,0.000625935910014,-0.0681547344465,0.573677448245,0.819047941095,0.00594999697926,0.0,0.819043162532,-0.573585515237,-0.0121943232698,0.0,-0.00657502987385,0.0118691411172,-0.999907941998,0.0,0.271530901314,-0.251300923159,0.304887572442,1.0,-0.0145097560976,-0.0190699651568,2.555
-0.619170160929,-0.523361332081,-0.125404437369,-2.64374746685,-0.0676393185143,2.10994977199,-0.866789988724,-0.0681779946472,0.00541036412137,-0.000622373144398,0.00405757807284,0.000579540833437,-0.000483664825475,-0.0626872769953,0.573700698315,0.819031443956,0.00597908557887,0.0,0.819026996182,-0.573608542525,-0.0121969819579,0.0,-0.00656018348421,0.0118946785776,-0.999907736051,0.0,0.2712487213,-0.251657354191,0.304886783527,1.0,-0.0141497560976,-0.0185968222997,2.573
-0.62016125674,-0.523293107558,-0.125402887832,-2.64366715187,-0.0676207635983,2.10996686188,-0.86773140363,-0.0644681939273,-0.000193990825403,0.00207555335119,0.00460476033376,-0.00015464711083,-0.000959406466266,-0.0568997021281,0.573752278079,0.81899519308,0.005995332543,0.0,0.818991175137,-0.573660435414,-0.012161693505,0.0,-0.00652120899671,0.0118881526823,-0.999908068604,0.0,0.271021331518,-0.251945031913,0.304899754946,1.0,-0.0138497560976,-0.0182025365854,2.588
-0.621233526487,-0.523180544366,-0.125390378919,-2.64354748869,-0.0675945058293,2.10999894385,-0.86876284486,-0.060286322824,0.0042596746169,0.00225450058966,0.00669485741409,0.0033233567484,0.00512580115359,-0.0627869428121,0.573794177355,0.818965744264,0.00600821577133,0.0,0.818962182485,-0.573702796333,-0.012115776478,0.0,-0.00647560038702,0.0118726920843,-0.999908548709,0.0,0.270786859778,-0.252262379006,0.30491587971,1.0,-0.0135097560976,-0.0177556794425,2.605
-0.622225595975,-0.523031676402,-0.125349005455,-2.64340908658,-0.0675624306669,2.11003529823,-0.869814921898,-0.0548194873361,0.0119446467951,0.00402397150693,0.00697574934553,0.000518424829668,0.00068549691205,-0.0556053469751,0.573736590357,0.819006078502,0.00600958930068,0.0,0.819002738717,-0.573645590103,-0.0120829562191,0.0,-0.00644876434777,0.0118545324349,-0.999908937603,0.0,0.270583152408,-0.252555443119,0.304928244648,1.0,-0.0131697560976,-0.0173088222997,2.622
-0.62311956316,-0.522869114214,-0.125292897901,-2.643267443,-0.0675455982805,2.11008960874,-0.870738251975,-0.0565527537588,0.0116668032725,0.00457954372175,0.010628134718,0.00216724225916,0.00226144630742,-0.0625911630166,0.573687376195,0.819040715359,0.00598730991836,0.0,0.819037353043,-0.573596972774,-0.0120446687635,0.0,-0.00643089509078,0.0118139323423,-0.999909533203,0.0,0.270409084581,-0.252823148022,0.304938920107,1.0,-0.0128497560976,-0.0168882508711,2.638
-0.624121141568,-0.522708563177,-0.125231745264,-2.64314404506,-0.0675223423586,2.11010156859,-0.87173370676,-0.0547325113144,0.00755743887937,0.000644603061423,0.00597747448272,-0.000840900369599,-0.000690308627262,-0.0579511634722,0.573665544516,0.819056099372,0.00597461446991,0.0,0.819052461186,-0.573574996573,-0.0120638316123,0.0,-0.00645418965292,0.01181435468,-0.999909378124,0.0,0.270198037173,-0.253107723918,0.304938541895,1.0,-0.0124897560976,-0.0164151080139,2.656
-0.62505449679,-0.52257410761,-0.125178101102,-2.64307503079,-0.0674957723335,2.11011186535,-0.872716622362,-0.0546070139245,0.00652467341044,0.00160587967073,-0.000282657617188,0.00167520849215,0.00496846048063,-0.0584478453008,0.573602161903,0.81910048739,0.00597480699048,0.0,0.819096530969,-0.573511040308,-0.012112245873,0.0,-0.00649465376741,0.0118417820884,-0.999908791675,0.0,0.269990195288,-0.253361603613,0.304922704474,1.0,-0.0121497560976,-0.0159682508711,2.673
-0.626024425549,-0.522447951069,-0.125165951622,-2.64302533725,-0.0674717476668,2.11012048405,-0.873694609329,-0.0524993062248,0.00819688545862,0.000123835746226,0.00134817766573,-0.000756620744891,-0.000541477219355,-0.0498372548867,0.573600125404,0.81910175868,0.00599599578338,0.0,0.819097657231,-0.573508143766,-0.0121730790618,0.0,-0.00653236382456,0.011894014772,-0.999907926079,0.0,0.26975920888,-0.253629732055,0.304900001485,1.0,-0.0117897560976,-0.0154951080139,2.691
-0.626822687121,-0.522351365045,-0.125162758248,-2.64297679782,-0.0674552334754,2.11014073098,-0.874478248578,-0.0569478540574,0.0063640495847,0.00174974056447,0.00287589300994,-0.000258712326528,0.00255698295544,-0.0588990446728,0.573619602353,0.819088004159,0.00601166705129,0.0,0.819083944746,-0.573527250845,-0.012195527842,0.0,-0.00654148162662,0.0119198832888,-0.999907558428,0.0,0.269571266023,-0.253855930819,0.304888404859,1.0,-0.0114897560976,-0.0151008222997,2.706
-0.627644483882,-0.522247646284,-0.125162075093,-2.64291600239,-0.067434955549,2.11015384897,-0.875311949556,-0.049758484468,0.00531601413769,0.00327514836226,0.0010125807848,0.00261951795902,-0.00186679169903,-0.0564167842925,0.573621343358,0.819086637902,0.00603166275457,0.0,0.819082660717,-0.573528575366,-0.0122194538721,0.0,-0.00654958654219,0.0119499999973,-0.999907145897,0.0,0.269378518482,-0.254090486611,0.30487909034,1.0,-0.0111697560976,-0.0146802508711,2.722
-0.628466377419,-0.522138062877,-0.125154594168,-2.64282577381,-0.0674276531948,2.1101577978,-0.876120876504,-0.0516665721171,0.00729449942214,-0.000876501603831,0.006486507166,0.000663154388853,0.000594754920418,-0.0509306868716,0.573634514196,0.819077394974,0.00603424122985,0.0,0.819073378455,-0.573541598535,-0.0122303866255,0.0,-0.00655687109587,0.0119584884788,-0.999906996673,0.0,0.269191152891,-0.254330805852,0.304880363501,1.0,-0.0108497560976,-0.0142596794425,2.738
-0.629410590015,-0.521994410435,-0.125135899028,-2.64271720215,-0.0674139990556,2.11018066173,-0.877033958691,-0.050415961381,0.00521534827577,-4.49216361922e-05,0.0094827696134,-0.000220434605762,0.000541401759173,-0.0512524655026,0.573658335079,0.819060709851,0.00603449039867,0.0,0.819056653093,-0.573565333931,-0.0122373868878,0.0,-0.00656211463149,0.0119628988197,-0.999906909519,0.0,0.268981950233,-0.254607391791,0.304879337448,1.0,-0.0104697560976,-0.0137602508711,2.757
-0.630187326902,-0.521873333643,-0.12512618962,-2.64261705665,-0.0674062932698,2.11021739678,-0.877746080571,-0.0482797845354,0.00171798632225,-0.000758452434458,0.00657679239955,-0.000208447098488,0.00576810376471,-0.0478094815556,0.573712894645,0.819022519423,0.00603109418271,0.0,0.819018555756,-0.573620148078,-0.0122179355141,0.0,-0.00654733324519,0.0119493952604,-0.999907167881,0.0,0.268813490437,-0.254841551622,0.304883736319,1.0,-0.0101497560976,-0.0133396794425,2.773
-0.630986263877,-0.521738096205,-0.125124019727,-2.64250491365,-0.0673989890855,2.11028166177,-0.878512896401,-0.0415175061127,0.00526782792252,0.000996677732209,0.00648433062966,0.00299827680391,0.00531284732371,-0.0391969935406,0.573746616287,0.818998920069,0.00602794545189,0.0,0.818995216094,-0.573654426549,-0.0121729953753,0.0,-0.00651183784797,0.0119213029167,-0.999907734996,0.0,0.268644447383,-0.255089846729,0.30489055,1.0,-0.00980975609756,-0.0128928222997,2.79
-0.631785793618,-0.521614666613,-0.12511484416,-2.64238521628,-0.0673878848666,2.11030319592,-0.879353915708,-0.0413983395319,0.0102320029879,0.0019459388476,0.00919505782917,-0.000128839869677,0.00460285153174,-0.0404373731702,0.573711633234,0.819023429727,0.00602746646568,0.0,0.819019797541,-0.573619595907,-0.0121604822708,0.0,-0.00650237220903,0.0119134538798,-0.999907890144,0.0,0.26848089271,-0.25531876359,0.304898745746,1.0,-0.00946975609756,-0.0124459651568,2.807
-0.632471639936,-0.521506391269,-0.125094288075,-2.64231756016,-0.0673836284648,2.11033003518,-0.880024612911,-0.0453431818043,0.00388632267915,0.000640563888998,0.00338815246536,0.000427713750983,0.00319487311059,-0.0332204070575,0.573720343719,0.819017377895,0.00602069848499,0.0,0.819013662221,-0.573628343328,-0.0121610743158,0.0,-0.00650661317333,0.0119083193238,-0.999907923719,0.0,0.268319280384,-0.25553053309,0.3048953879,1.0,-0.00912975609756,-0.0119991080139,2.824
-0.633186368542,-0.521438630376,-0.125066902173,-2.64227552741,-0.067376741467,2.11034231401,-0.880703305349,-0.0414131109101,0.00726847535673,5.39963423208e-05,-0.000814915158238,-0.000897047455637,0.000927096754282,-0.0451417785152,0.573735671244,0.819006675213,0.00601601198749,0.0,0.819002842932,-0.57364358697,-0.0121706736941,0.0,-0.00651694177288,0.0119101098688,-0.999907835129,0.0,0.268153289377,-0.255726655337,0.304891286766,1.0,-0.00878975609757,-0.0115522508711,2.841
-0.633786102973,-0.521371767571,-0.125050809872,-2.64223714529,-0.0673657789487,2.11035177985,-0.881286954128,-0.0414723423836,0.000694522672404,0.000427236185537,0.000290179255693,0.000387630821588,-0.000468962588551,-0.0392676342026,0.573744223118,0.819000655102,0.00601999023221,0.0,0.818996771745,-0.573651931161,-0.0121859200531,0.0,-0.00652702314967,0.0119221833389,-0.99990762549,0.0,0.268013245536,-0.255892634213,0.304885350949,1.0,-0.00848975609757,-0.0111579651568,2.856
-0.634394845795,-0.521319247339,-0.1250342112,-2.64219593375,-0.0673588408907,2.11037090363,-0.881922626061,-0.0360701358277,0.000450850651129,-0.000345984025078,0.00647035547361,7.50492622004e-05,0.00582987493989,-0.0363812668743,0.573715526228,0.819020762618,0.00601932438282,0.0,0.819016943047,-0.573623375706,-0.0121744300101,0.0,-0.00651841127899,0.0119148175722,-0.999907769465,0.0,0.267873082345,-0.256063536705,0.304886803963,1.0,-0.00816975609757,-0.0107373937282,2.872
-0.63503193652,-0.521247094319,-0.12502676419,-2.64213801015,-0.0673473706066,2.11037440621,-0.882551381409,-0.0384968573833,0.000525603139457,-0.000329947069892,-0.000758793330208,0.000194344502384,0.00103648888543,-0.0330112431199,0.573725007461,0.819014066481,0.00602674217168,0.0,0.819010292561,-0.573632728378,-0.0121811540938,0.0,-0.00651952551471,0.0119248261824,-0.999907642889,0.0,0.26772493835,-0.256245255015,0.304887087873,1.0,-0.00782975609757,-0.0102905365854,2.889
-0.635648179151,-0.521170121626,-0.125011841449,-2.64205532485,-0.0673388951581,2.11038747213,-0.883138567784,-0.0368473620668,0.00260549453037,0.00126899587199,0.0085063346531,4.80346756693e-05,-0.00084393427422,-0.0304492115424,0.57374605173,0.818999349665,0.006023310878,0.0,0.818995679758,-0.57365405577,-0.012159265508,0.0,-0.00650325903701,0.0119096254613,-0.999907929983,0.0,0.267590552526,-0.256427474113,0.304897840782,1.0,-0.00748975609757,-0.00984367944251,2.906
-0.63621245058,-0.521062602989,-0.125001931203,-2.64196826835,-0.0673292639015,2.11041209259,-0.883688699668,-0.0344455096595,0.00787983693519,0.00143037033743,0.00625792467199,0.00114766256627,7.15343215884e-05,-0.0176940708644,0.573759264884,0.818990103223,0.00602193349823,0.0,0.818986464566,-0.573667362385,-0.0121521641486,0.0,-0.00649804057147,0.0119045279933,-0.999908024611,0.0,0.267470588642,-0.256598903917,0.304900217679,1.0,-0.00714975609757,-0.00939682229966,2.923
-0.63674302363,-0.52097241571,-0.124985589326,-2.64189080556,-0.0673174269369,2.11043253098,-0.884178608145,-0.031357378483,0.00183265402443,0.000325691523609,0.00502461645555,0.000160136752745,0.000166092631434,-0.0277038304347,0.573789832291,0.818968734889,0.00601552444872,0.0,0.818965093364,-0.573698099465,-0.0121413929241,0.0,-0.00649245125915,0.0118933413352,-0.99990819404,0.0,0.267352221876,-0.25676620986,0.304905864927,1.0,-0.00680975609757,-0.0089499651568,2.94
-0.637280975287,-0.520887200548,-0.124963512355,-2.64181250135,-0.0673094666285,2.11045354892,-0.88469610017,-0.0303646257125,0.00812471134892,0.00153776460136,0.00551118713714,0.0010312798419,0.000562184635652,-0.025695823519,0.57379859649,0.81896262445,0.00601143256865,0.0,0.818959041581,-0.573707084998,-0.0121250045991,0.0,-0.00648124891647,0.0118806564158,-0.999908417514,0.0,0.267245176225,-0.256916340535,0.304910972191,1.0,-0.00648975609757,-0.00852939372823,2.956
-0.637812739594,-0.520797311611,-0.124940463039,-2.64174296137,-0.0672951446854,2.1104618057,-0.885229774047,-0.0275700831633,0.00467115051127,0.00061494612453,0.00385983373497,-0.000278438347112,0.00047121572604,-0.0229001498143,0.5737904626,0.818968328028,0.00601079179319,0.0,0.818964679662,-0.573698850904,-0.012133789168,0.0,-0.00648892961479,0.0118851075004,-0.999908314803,0.0,0.267130203637,-0.257069141412,0.304910779528,1.0,-0.00612975609757,-0.00805625087109,2.974
-0.638291789867,-0.520720157624,-0.124921676791,-2.64168269567,-0.0672826965116,2.1104837591,-0.885719946186,-0.0265857639971,0.00196918597457,0.00106496454538,0.00305368488696,0.0002512422629,0.00137276968731,-0.0246719705181,0.573776503686,0.818978115813,0.00600970358822,0.0,0.818974505093,-0.573684994624,-0.0121257515713,0.0,-0.00648317322517,0.0118794940802,-0.999908418849,0.0,0.267027944229,-0.257208703004,0.304912119631,1.0,-0.00578975609757,-0.00760939372823,2.991
-0.638732837624,-0.520673319329,-0.124903171379,-2.64162947921,-0.0672711678801,2.11049086839,-0.886125233948,-0.0280618569985,0.00147675563828,0.000705248707249,0.00137869519793,2.30821871327e-05,-5.8889027959e-05,-0.0281256220838,0.573800281538,0.818961464959,0.00600855392162,0.0,0.818957946978,-0.573708970011,-0.0121097362327,0.0,-0.00647037061845,0.0118695515693,-0.99990861985,0.0,0.266931923445,-0.257334899696,0.30492012872,1.0,-0.00546975609757,-0.00718882229966,3.007
-0.639173936178,-0.52064207593,-0.124885178009,-2.64154845218,-0.0672626193293,2.11051836863,-0.886552718366,-0.0258572082999,0.000963075836218,2.10872765886e-05,0.00206917984646,-0.000496105017939,0.00387810886462,-0.0324915746647,0.573806214486,0.818957377206,0.0059991197955,0.0,0.818954258759,-0.573715902611,-0.0120304635489,0.0,-0.0064107698734,0.0118163869549,-0.999909633431,0.0,0.266845528833,-0.257471639469,0.304948235671,1.0,-0.00512975609757,-0.0067419651568,3.024
-0.639555783826,-0.52063078457,-0.12487454464,-2.64144851534,-0.0672476945339,2.11054377739,-0.88690017454,-0.0242694139028,0.00140228876655,0.0010767379773,0.0111269129913,0.000675866288045,0.00520116883095,-0.0202025191822,0.573837877386,0.81893522319,0.00599479744394,0.0,0.818932795474,-0.573748959442,-0.0119144843597,0.0,-0.0063178037501,0.0117465448016,-0.999911048064,0.0,0.266777814694,-0.257598359229,0.304991927476,1.0,-0.00480975609757,-0.00632139372823,3.04
-0.639933264794,-0.520635009079,-0.124867406987,-2.64133080449,-0.0672332008826,2.11056556999,-0.88727131909,-0.0180814213087,-1.38162258217e-05,-0.00114853058286,0.00574758918369,0.000236002255822,9.68754251507e-05,-0.0184729664292,0.573849608517,0.818927041345,0.00598954590892,0.0,0.818925464994,-0.573762427637,-0.0117688706974,0.0,-0.00620138945501,0.0116587779785,-0.999912804031,0.0,0.266714270556,-0.257728983052,0.305049017003,1.0,-0.00446975609757,-0.00587453658537,3.057
-0.640288482619,-0.520647837507,-0.124852758668,-2.64120314535,-0.0672201439252,2.11058734287,-0.88760415022,-0.0241682099959,7.8061922018e-05,0.000708923394364,0.00294716513694,-9.47637969483e-05,-0.000464324124788,-0.0241058941415,0.573868967862,0.818913565584,0.00597718395568,0.0,0.818912851796,-0.573783761465,-0.0116053067037,0.0,-0.00607424894751,0.0115549406071,-0.999914789793,0.0,0.266660388775,-0.257854814778,0.305113974914,1.0,-0.00412975609757,-0.00542767944251,3.074
-0.640652867287,-0.520663403053,-0.124831830926,-2.6410297542,-0.0671997682722,2.11063341239,-0.887977091571,-0.0200927906396,0.000346478045955,0.000832289936302,0.013344478392,-0.000328265862096,0.000115203125043,-0.0179613407713,0.573863746957,0.818917353712,0.00595941435157,0.0,0.818917849983,-0.573781361305,-0.0113688741795,0.0,-0.00589088089621,0.0114046750986,-0.99991761206,0.0,0.266620619628,-0.257995981471,0.305202968548,1.0,-0.00374975609757,-0.00492825087109,3.093
-0.640927896123,-0.520668411408,-0.124796201281,-2.64086274161,-0.067180610318,2.11069387751,-0.888242692705,-0.0172760280652,0.000590528906804,0.0057217602004,0.0065563916542,0.00482743221832,0.00239453954248,-0.0154897182006,0.573862062518,0.818918735675,0.00593164935956,0.0,0.818920269155,-0.573782476404,-0.0111359525317,0.0,-0.00571607376121,0.0112482651419,-0.999920398348,0.0,0.26660748346,-0.25811040646,0.305286770612,1.0,-0.00342975609757,-0.00450767944251,3.109
-0.641181588725,-0.520712212185,-0.12473513349,-2.64059418366,-0.0671551431789,2.11082605246,-0.88851011758,-0.0138192754928,-0.00231332186878,0.00715760103614,0.0132541182504,0.000955510381135,0.0052131557334,-0.015992539824,0.573830557726,0.818941227715,0.00587396541438,0.0,0.818944580484,-0.573756214289,-0.0106924067732,0.0,-0.00538633227462,0.0109462926342,-0.999925580282,0.0,0.266641656262,-0.258249278894,0.305437795738,1.0,-0.00308975609757,-0.00406082229966,3.126
-0.64140357792,-0.520819065374,-0.124632932248,-2.64030742014,-0.0671261216944,2.11092094344,-0.888762502379,-0.0108168092463,-0.00717205008606,0.0027634644656,0.0200857359117,0.00391242092794,0.00574243102377,-0.0183371367838,0.573758345617,0.818992363991,0.00579788419451,0.0,0.818997427936,-0.573689646541,-0.0102053606643,0.0,-0.00503202320366,0.0106040672551,-0.999931113877,0.0,0.266692789989,-0.258370734719,0.305618156647,1.0,-0.00274975609757,-0.0036139651568,3.143
-0.641576938542,-0.520946569649,-0.124560388752,-2.64012894837,-0.0671075571245,2.11092525786,-0.888963398179,-0.0135574818089,-0.00888309403117,0.00845527888056,0.00683880532878,0.00439510341275,0.000385752007805,-0.0112499543474,0.573699974846,0.819033586686,0.00575062114541,0.0,0.819039673758,-0.573634759518,-0.00989557400597,0.0,-0.00480614382576,0.0103872774124,-0.99993450058,0.0,0.26671005965,-0.258447070209,0.305748426151,1.0,-0.00242975609757,-0.00319339372823,3.159
-0.64177142239,-0.520995153166,-0.12451658037,-2.63998499431,-0.0670883964621,2.11091555246,-0.889168521424,-0.00799446277851,-0.000238907741902,0.0023070807989,0.00809356885782,0.000359941855597,-0.000392417025136,-0.00865132404462,0.573674828712,0.819051367417,0.0057267211987,0.0,0.8190580745,-0.573611619553,-0.00971222994374,0.0,-0.00466999130637,0.0102623766701,-0.999936435383,0.0,0.266703741071,-0.258523304341,0.305832055062,1.0,-0.00208975609757,-0.00274653658537,3.176
-0.641958913446,-0.52099237069,-0.124510474611,-2.63986667512,-0.0670776377833,2.1109044644,-0.889348560967,-0.00643688029047,0.00145609149151,-0.00142144510168,0.0104424195656,-0.000916283004382,-0.00448434227479,-0.0026698515769,0.573686691541,0.819043109409,0.00571942133899,0.0,0.819050228799,-0.573624590415,-0.00960723043514,0.0,-0.00458802349909,0.0101962299085,-0.999937491514,0.0,0.266683048916,-0.258599305695,0.305884086331,1.0,-0.00174975609757,-0.00229967944252,3.193
-0.642204587368,-0.520907823482,-0.124511189574,-2.63983426854,-0.0669816482376,2.11089281443,-0.889493978536,-0.0234208800699,0.0203082663795,0.018194791499,-0.00186931309847,0.00932039051287,-0.0121609766478,-0.0127431215717,0.573812008486,0.818954738387,0.00580192137352,0.0,0.818962460681,-0.5737489671,-0.0096621761126,0.0,-0.00458412677394,0.0102960267167,-0.999936486791,0.0,0.266631659105,-0.258660410447,0.305866731644,1.0,-0.00142975609757,-0.00187910801394,3.209
-0.642302725146,-0.520906212979,-0.124483821618,-2.63988883361,-0.0669943217667,2.11090223277,-0.889593574291,0.0113229418764,0.000727878039369,0.00245815361672,0.00324336220378,-0.0156181880325,-0.00354304734144,-0.00278375230695,0.573783505396,0.818974827343,0.00578515467973,0.0,0.818982157562,-0.573720055608,-0.00970928883783,0.0,-0.00463269307873,0.0103091667291,-0.999936127578,0.0,0.266599930548,-0.258669265232,0.305842747773,1.0,-0.00108975609757,-0.00143225087109,3.226
-0.642381199033,-0.520894563963,-0.12445483676,-2.63989179914,-0.0669429949411,2.11089753795,-0.889684676735,-0.00345160834062,0.0173953728185,0.00737298165374,0.00622954023566,-0.00407024026557,-0.00850374912056,-0.00140492327774,0.573774360192,0.818981013143,0.00581640772709,0.0,0.818988597146,-0.573710613416,-0.00972402692897,0.0,-0.00462694766422,0.0103431680725,-0.999935803054,0.0,0.266588765545,-0.258676964604,0.305837420082,1.0,-0.000769756097566,-0.00101167944252,3.242
-0.642436321881,-0.520882179144,-0.124421231948,-2.63986735527,-0.0669434224883,2.11093749172,-0.889737243892,-0.000721430739715,0.00678904003586,-0.00293181556182,0.00288482455846,-0.000871130912844,0.00502446652572,-0.00409350372719,0.573753628691,0.818995705324,0.0057926787537,0.0,0.819003279328,-0.573690520147,-0.00967276817628,0.0,-0.00459883924962,0.0102942069314,-0.999936437971,0.0,0.266593474179,-0.258695850904,0.305848205127,1.0,-0.000449756097566,-0.000591108013944,3.258
-0.642491225348,-0.52086870367,-0.124384554821,-2.63989539129,-0.0669344053576,2.11092770369,-0.889770802728,-0.00168059315844,0.00398656750532,0.00701690354143,-2.46422752368e-06,0.00068921367898,-0.0093537733267,-0.00138783002399,0.573747719257,0.818999880121,0.00578773794888,0.0,0.819007169314,-0.573684112852,-0.00972328000149,0.0,-0.00464312123945,0.0103191072736,-0.999935976676,0.0,0.266579676331,-0.258692785976,0.305830509614,1.0,-6.9756097566e-05,-9.16794425153e-05,3.277
-0.642544873683,-0.520926887387,-0.124396715638,-2.63988497113,-0.066936201226,2.11093848057,-0.889771925165,-0.00181296671644,-0.00260225920293,0.00111004370104,2.06307449438e-05,-0.00113516109621,-0.00167205893498,0.00138775769849,0.573798799312,0.818964092771,0.00578788055485,0.0,0.818971752579,-0.573736008355,-0.00964407051673,0.0,-0.00457752010643,0.0102740645723,-0.999936742953,0.0,0.266568395111,-0.258715040259,0.305857326735,1.0,0.0,0.0,3.293
-0.642584870398,-0.520841487429,-0.124391092805,-2.63988092735,-0.066937232897,2.11091940035,-0.889794591688,-0.00181950430629,-0.00407211637268,0.00308671193966,0.000168081060599,-0.000485405564071,0.00917116547949,-0.00274610851581,0.573809161163,0.818956828108,0.00578853709741,0.0,0.818964031873,-0.573745333,-0.00974444765627,0.0,-0.00465922550424,0.0103322559435,-0.999935765989,0.0,0.266555211563,-0.258721554221,0.305826197007,1.0,0.0,0.0,3.311
-0.642595124224,-0.520895882219,-0.124394384418,-2.63990342214,-0.066932911658,2.1109514175,-0.889790812125,-0.000182430489321,0.00131268995389,0.000771590332009,-0.00320553632449,-0.000780079860685,0.000233065444499,-0.000587162731928,0.573823513392,0.818946748288,0.00579187772338,0.0,0.818954285822,-0.573760333974,-0.00968007192248,0.0,-0.00460440237622,0.010298134236,-0.999936371931,0.0,0.266553314757,-0.258724193382,0.305838672436,1.0,0.0,0.0,3.328
-0.642590149865,-0.52088800876,-0.124383324,-2.63988331723,-0.0669306554349,2.11096216297,-0.889792116046,0.000961935975077,-0.00255059036935,0.000869069729814,0.00129765294228,-0.000178584435434,0.00491843108906,0.000454083776152,0.573812456332,0.818954546841,0.00578464066802,0.0,0.818962113504,-0.573749543825,-0.00965735509353,0.0,-0.00459008829326,0.0102791101,-0.999936633485,0.0,0.266563376976,-0.258726669398,0.305846107499,1.0,0.0,0.0,3.343
-0.642591727051,-0.520892331043,-0.124382894255,-2.63989064368,-0.0669264516037,2.11093348712,-0.889794054833,-0.000408568343228,0.00500917062137,-0.000513789334673,0.00150691296834,0.000332268732995,-0.000237838565154,0.000681934178949,0.573813296888,0.818953906735,0.00579187873353,0.0,0.818961404992,-0.573750031313,-0.00968842621084,0.0,-0.00461137267397,0.0103028712931,-0.999936291013,0.0,0.266557271543,-0.258720792491,0.305841916376,1.0,0.0,0.0,3.361
-0.642589572294,-0.520927312959,-0.12438019447,-2.63988519379,-0.0669293264196,2.11094459489,-0.889798535945,-0.00104592722903,-0.00344330936362,0.000858808190794,-7.21396038723e-05,-0.000115137011619,-0.00770575659884,0.00131730110317,0.573804812373,0.81895989919,0.00578512897819,0.0,0.818967562198,-0.573742103654,-0.00963729546678,0.0,-0.00457347450764,0.0102679571834,-0.999936824198,0.0,0.266561945297,-0.258723412511,0.305858301087,1.0,0.0,0.0,3.376
-0.642599788947,-0.520873357771,-0.124385818591,-2.63988761642,-0.0669180982612,2.11092748832,-0.889806599309,-0.000823566949149,0.00313715854936,0.0013211743729,0.00123378440962,0.00153642650203,-0.00482930637346,-0.00171055295686,0.573815480107,0.818952310062,0.00580133908858,0.0,0.81895980864,-0.573751953291,-0.00970952260237,0.0,-0.00462319534187,0.0103227366682,-0.99993603154,0.0,0.266554625677,-0.25872236009,0.30583572537,1.0,0.0,0.0,3.393
-0.642597797417,-0.520875583469,-0.124384804257,-2.6398931211,-0.0669231325376,2.11091526357,-0.889805028448,-0.0016792087374,0.00170628865227,6.74071512392e-05,0.00168134994917,-0.00139556773894,-0.00571556440308,-0.00200001182026,0.573812017331,0.818954756291,0.00579851837409,0.0,0.818962152152,-0.573748340039,-0.00972535583318,0.0,-0.00463782541689,0.0103294920116,-0.99993589403,0.0,0.266551744748,-0.258719059448,0.305833011239,1.0,0.0,0.0,3.412
-0.642594767904,-0.520872065964,-0.12439578667,-2.63988780974,-0.0669204367141,2.11093763094,-0.889802688783,0.000486590900334,0.00239582499734,-0.00153942277477,0.00237789510065,-0.000306152882895,0.00967634469104,0.000486090831172,0.573820632315,0.81894868624,0.00580328667972,0.0,0.81895624475,-0.573757184655,-0.00970098673286,0.0,-0.00461502176648,0.0103194628892,-0.999936103088,0.0,0.266555103046,-0.258724796075,0.305835795506,1.0,0.0,0.0,3.428
-0.642597659258,-0.520893215056,-0.124380195988,-2.63987809805,-0.066919418989,2.11094476703,-0.889805377463,0.00146174483881,-0.00163302034909,0.00245610175381,0.00156583670181,0.000277633406375,0.00218132738535,-0.000617330348987,0.573810531482,0.818955831714,0.00579366573051,0.0,0.818963463785,-0.573747516439,-0.00966329479209,0.0,-0.00458979866744,0.0102898989876,-0.999936523849,0.0,0.266561656441,-0.258725828561,0.305848988983,1.0,0.0,0.0,3.445
-0.642581422979,-0.520892949802,-0.124362062585,-2.63988246563,-0.0669179689864,2.11094193933,-0.889800741545,0.00108626524968,0.00131397830001,0.00247226278254,0.000220640786205,0.000187271330693,-0.00172954707685,0.00138600074925,0.573788598121,0.818971248097,0.0057867398391,0.0,0.818978772386,-0.573725536709,-0.0096708743307,0.0,-0.00460025617001,0.010288452599,-0.999936490676,0.0,0.266568443531,-0.258715849963,0.305847088919,1.0,0.0,0.0,3.461
-0.642572520839,-0.520890126626,-0.124348337844,-2.63989838016,-0.0669218927195,2.11093731104,-0.889802619998,0.00105384345601,0.00145823644662,0.000667808877827,0.000202974556136,-0.000398507126381,0.000480203016551,0.000797652910711,0.573767653115,0.818985974159,0.00577938322929,0.0,0.818993311814,-0.573704381541,-0.00969457093215,0.0,-0.00462414916687,0.010295905651,-0.999936303757,0.0,0.266568893426,-0.258706122717,0.305838728583,1.0,0.0,0.0,3.477
-0.642585994217,-0.520891106971,-0.124351057858,-2.63988525598,-0.0669225646602,2.11095202126,-0.889802776159,-0.00119775892237,0.000158559158202,0.000606680890419,0.00121410471338,0.000525663810898,0.0030225460593,0.00183998924321,0.573780798011,0.818976783253,0.0057767834529,0.0,0.818984226962,-0.573717832412,-0.00966600543131,0.0,-0.00460207895841,0.0102774607134,-0.999936595325,0.0,0.266570154231,-0.258715774086,0.305846261787,1.0,0.0,0.0,3.496
-0.642591995837,-0.520862175626,-0.124356382293,-2.63988839149,-0.0669199594802,2.11094846376,-0.889807452776,-0.000995998735604,0.000561359093254,6.0519921166e-05,-0.00209874054656,-0.000112351365782,0.000119002696425,6.92816279249e-05,0.573786754037,0.818972563679,0.00578340149189,0.0,0.818979913431,-0.573723395539,-0.00970122201231,0.0,-0.00462705100562,0.0103031207088,-0.999936216017,0.0,0.266565761253,-0.258716520366,0.305833745872,1.0,0.0,0.0,3.512
-0.642591715124,-0.520882173231,-0.124367660314,-2.63990084545,-0.0669216360925,2.11094764978,-0.889800290567,0.00156010074938,-0.00240403229469,-0.000857936650301,-0.00108317217805,5.98470167651e-05,0.00319317098867,0.00156520727884,0.573798999846,0.81896394645,0.00578870374588,0.0,0.818971383489,-0.573735687619,-0.00969436324932,0.0,-0.0046182369763,0.0103035970282,-0.999936251856,0.0,0.26656067457,-0.258716152358,0.305835108288,1.0,0.0,0.0,3.529
-0.642602700989,-0.520881595616,-0.124371739142,-2.63989061635,-0.0669199594259,2.11093171125,-0.889808270935,-0.000372723055707,0.000366976842591,-0.000414069992875,0.00208470870307,0.000314958181087,-0.00055110508815,-0.000175982619218,0.573805548553,0.818959331342,0.00579249155738,0.0,0.818966779919,-0.573742156391,-0.00970042630739,0.0,-0.00462094701298,0.0103102151006,-0.99993617112,0.0,0.266556911287,-0.258720182332,0.305838088232,1.0,0.0,0.0,3.546
-0.642611826993,-0.520905584673,-0.124374486113,-2.63987717952,-0.0669192473491,2.11094567542,-0.889811696751,0.00110102926462,-0.00206926761772,0.00071958812172,8.06979736834e-05,0.000182616716583,-0.000590088034812,-0.00134278798908,0.573812970607,0.818954145655,0.00579042134516,0.0,0.818961809362,-0.573750115854,-0.00964915883768,0.0,-0.00458005189476,0.0102791443437,-0.999936679153,0.0,0.26655986679,-0.258728889877,0.305854177293,1.0,0.0,0.0,3.562
