nelsonifechukwu/NELSON_IML_WORK/CNN-GradCAM/train2dof/data_sample_2022-02-22-07-37-14/robot_state.csv
position_joint1,position_joint2,position_joint3,position_joint4,position_joint5,position_joint6,position_joint7,velocity_joint1,velocity_joint2,velocity_joint3,velocity_joint4,velocity_joint5,velocity_joint6,velocity_joint7,ee_T_00,ee_T_10,ee_T_20,ee_T_30,ee_T_01,ee_T_11,ee_T_21,ee_T_31,ee_T_02,ee_T_12,ee_T_22,ee_T_32,ee_T_03,ee_T_13,ee_T_23,ee_T_33,v_x,v_y,time
0.465098217798,0.547665706762,-0.124028303695,-1.35583487953,0.0795248101594,1.89415303027,0.159132179677,-0.00052575005588,0.00109073823755,0.000891752334423,-0.000255489113192,-5.595828231e-05,0.00038987541707,0.00049783675278,0.573798167951,0.818982317926,0.00209100011288,0.0,0.818941050858,-0.573739069248,-0.011822966591,0.0,-0.00848327545422,0.00849656598466,-0.999927918604,0.0,0.661691534901,0.260892597669,0.303301214758,1.0,0.0,0.0,0.0
0.465098217809,0.547663534764,-0.124028303695,-1.35583814578,0.0795260716085,1.89415063255,0.15912792222,-0.000465117767532,-0.000213007586859,7.86189051471e-05,-0.00122025837881,-6.93266631227e-05,-0.000381804853276,-0.00120971691672,0.57379517368,0.81898442081,0.00208902687101,0.0,0.818943109798,-0.573736064874,-0.0118261438475,0.0,-0.00848704091484,0.00849674201378,-0.999927885156,0.0,0.66169029414,0.260892279389,0.303300992755,1.0,-4e-05,-5.25714285714e-05,0.003
0.465100889094,0.5476581901,-0.124029051983,-1.35583590814,0.0795273916215,1.89415784409,0.159130364934,0.000414996051388,0.000685516213154,0.000874617727339,-0.000709035712648,-0.000291111208201,0.000187058051006,-3.68214915592e-05,0.57379577605,0.818983965763,0.0021019305095,0.0,0.818942826793,-0.573736620246,-0.0118187958074,0.0,-0.0084736128977,0.00850309973649,-0.999927944994,0.0,0.661691789164,0.260894656275,0.303306497952,1.0,-0.00034,-0.000446857142857,0.018
0.465095697056,0.547651788238,-0.124033245253,-1.35583933521,0.0795257113293,1.89415538358,0.159133055944,-0.000392991401667,0.00182555295225,-2.7742434478e-05,0.000166482497282,-0.000214710321569,-3.34695200198e-05,0.000524551012357,0.573804875345,0.818977593564,0.00210075488055,0.0,0.818936469588,-0.573745753461,-0.011815924223,0.0,-0.00847184110332,0.0085005833738,-0.999927981402,0.0,0.661693093982,0.260888031791,0.303309323846,1.0,-0.00068,-0.000893714285714,0.035
0.465094268807,0.547596908314,-0.124031263179,-1.3558812539,0.0795246480048,1.89416055729,0.15913205591,0.000459453193446,-0.00568255475993,0.000586403159719,-0.00309335305869,-0.000281063201259,-0.000578032649747,0.000549755794493,0.573805785426,0.81897690982,0.00211865413323,0.0,0.818935983467,-0.573746557508,-0.011810572896,0.0,-0.008457178805,0.00851218104902,-0.999928006859,0.0,0.661685945411,0.260884160481,0.303328630683,1.0,-0.00104,-0.00136685714286,0.053
0.465093537006,0.547466609236,-0.124031491189,-1.35603064669,0.0795275144705,1.89420095517,0.159128587239,0.000486923741611,-0.00265295911601,-0.000608767887836,-0.0123752787836,0.000496613979942,0.000485851050446,-0.000188843187605,0.573812668379,0.818972019677,0.00214464337465,0.0,0.818931308391,-0.573753213503,-0.0118113941946,0.0,-0.00844286788208,0.00853400753099,-0.999927941752,0.0,0.661663280232,0.260870732208,0.303353347655,1.0,-0.0014,-0.00184,0.071
0.465073706309,0.547331854872,-0.124034204804,-1.35621301515,0.0795193036605,1.89424758633,0.159124397594,-0.000522407116992,-0.00956792031769,-0.00359608669878,-0.0130414728242,6.20983048981e-05,0.0015065434312,-0.00186023518503,0.573835241712,0.818956200346,0.00214573679291,0.0,0.818915466303,-0.573775742385,-0.0118153883065,0.0,-0.00844527638951,0.00853742762303,-0.999927892218,0.0,0.661640583431,0.260837996231,0.303366123823,1.0,-0.0017,-0.00223428571429,0.086
0.465052850536,0.54714935157,-0.124026488687,-1.35643054614,0.079517021439,1.89436072997,0.15911225632,-0.00181323187459,-0.00911851348941,0.00138216475892,-0.0145569581298,-4.05014451711e-05,0.00954439683807,-0.00119116744665,0.57384870816,0.81894656713,0.00221973654874,0.0,0.818906707266,-0.573788829634,-0.0117868860958,0.0,-0.00837933119698,0.00858181173388,-0.999928067071,0.0,0.661621890322,0.260812562966,0.303401426452,1.0,-0.00206,-0.00270742857143,0.104
0.465032615632,0.546946206027,-0.124033662209,-1.35665361044,0.0795159129946,1.89449029864,0.159097563817,0.000147645744133,-0.0118642056817,-0.000204939404502,-0.0146682052039,0.000407357921761,0.00766124984173,0.00107406189496,0.573870658189,0.81893091469,0.00231765748452,0.0,0.818892321885,-0.573810399532,-0.0117361598187,0.0,-0.00828136757009,0.00863311589283,-0.99992844157,0.0,0.661608932551,0.260779845639,0.303450632323,1.0,-0.0024,-0.00315428571429,0.121
0.465003972539,0.546746297707,-0.124029234585,-1.35693318534,0.0795113513239,1.89461092579,0.159070835801,0.000601428551281,-0.0125830116542,0.000422164694672,-0.0251964617395,0.000271891811695,0.0148401080049,-0.00315385339615,0.57388365287,0.818921687332,0.00236006088171,0.0,0.818883540311,-0.573823124865,-0.0117267079237,0.0,-0.00824915675156,0.00866254777046,-0.99992845328,0.0,0.661580851209,0.260740351783,0.303469468935,1.0,-0.00272,-0.00357485714286,0.137
0.464968328416,0.546474894076,-0.124029085495,-1.35732566714,0.0794988340471,1.89474737237,0.158978388916,-0.00138802948233,-0.0156534863666,0.000334015836299,-0.0254834766944,-9.70368107752e-05,0.00612145779986,-0.0102395750898,0.573855589168,0.818941293692,0.00238058155609,0.0,0.81890329953,-0.573794869076,-0.0117294988249,0.0,-0.00823996410458,0.00868067167974,-0.9999283719,0.0,0.661535142531,0.260681066571,0.303486684342,1.0,-0.00308,-0.004048,0.155
0.464938854403,0.546234243427,-0.124034703269,-1.35767640023,0.0794876075526,1.89487661086,0.158922244754,-0.00285506770222,-0.017697960134,-0.000842617031999,-0.027946981048,0.000174721934181,0.00740764936054,-0.00428046193233,0.573854293431,0.81894214078,0.00240143020867,0.0,0.818904356403,-0.573793432091,-0.0117260076142,0.0,-0.00822515525676,0.00869572889343,-0.999928362994,0.0,0.661496383607,0.260626798108,0.303501546004,1.0,-0.00336,-0.004416,0.169
0.464897695584,0.545940117831,-0.124034703744,-1.35817681798,0.0794706876247,1.8950352491,0.158904550933,-0.006854762625,-0.0156377054162,-0.00100129606967,-0.030923355834,0.00041553386316,0.00341127668938,-0.000383913002286,0.573896898927,0.818912382454,0.00236773457434,0.0,0.818874006272,-0.573835995298,-0.011762621019,0.0,-0.00827402397713,0.00868957532402,-0.999928013313,0.0,0.661432585568,0.260552052067,0.303485364743,1.0,-0.0037,-0.00486285714286,0.186
0.464841273244,0.545623513272,-0.124031820373,-1.3587327207,0.0794196247174,1.89522075952,0.15882430659,-0.004043660512,-0.0182336911884,0.00122819856076,-0.0347289135533,-0.00361190810007,0.0111101832553,-0.00563315836431,0.573892851554,0.81891537663,0.00231252139962,0.0,0.818876385054,-0.573832263745,-0.011779048658,0.0,-0.0083192048489,0.0086537475985,-0.999927949146,0.0,0.66136717949,0.260458885614,0.303460845968,1.0,-0.00404,-0.00530971428571,0.203
0.464789359639,0.545250486489,-0.124032224506,-1.35936304211,0.0793606072954,1.89542014998,0.158725466043,-0.00252869882351,-0.0250608857721,-0.000963733660692,-0.0358535233551,-0.000758286520864,0.00974413713129,-0.000885361151552,0.573874085515,0.818928696209,0.0022519770467,0.0,0.818889048283,-0.573813866888,-0.0117949001553,0.0,-0.00836712764195,0.00861307270926,-0.999927900478,0.0,0.661288897785,0.260358362521,0.303442124125,1.0,-0.00438,-0.00575657142857,0.22
0.464714199116,0.544825603509,-0.124032806517,-1.36009456155,0.0793364660733,1.8956560057,0.158652246845,-0.0048348768382,-0.0219886642892,0.000497823862642,-0.0375705093316,8.1978330143e-05,0.0102349453586,-0.0113493141043,0.573910370334,0.818903403296,0.00220222493503,0.0,0.818862878126,-0.573850105364,-0.0118486414049,0.0,-0.00843930824277,0.00860354407013,-0.999927375916,0.0,0.661200059704,0.260239158311,0.303415148061,1.0,-0.00474,-0.00622971428571,0.238
0.46464878016,0.544385584981,-0.124036107601,-1.36087581137,0.0793051872346,1.89591832107,0.158541408378,-0.00220002528496,-0.0234131935928,-0.00119346313987,-0.0420048706772,-0.00393207753373,0.0223022281267,-0.00974143489658,0.573910704221,0.818903328675,0.00214214061523,0.0,0.818861843609,-0.573850499011,-0.0119009565993,0.0,-0.00851662848407,0.00858436887195,-0.999926885152,0.0,0.661103850564,0.260119760294,0.303377552311,1.0,-0.0051,-0.00670285714286,0.256
0.46458775657,0.54395316314,-0.12403224541,-1.3615697579,0.079268444447,1.89616682933,0.15846870477,-0.00443886911943,-0.0300656151059,0.00104607695146,-0.046526235315,-0.000241761527387,0.0182327930274,-0.00499321729208,0.573927323166,0.818891701757,0.00213434250701,0.0,0.818850032314,-0.573867064092,-0.0119148743669,0.0,-0.00853232715203,0.00858614369198,-0.999926736081,0.0,0.661022198945,0.260015873142,0.303374643368,1.0,-0.0054,-0.00709714285714,0.271
0.464519651484,0.54348074511,-0.124038587723,-1.36235951398,0.0792263703749,1.89643060977,0.158357732443,-0.00399595124882,-0.0248674928525,0.000476115050519,-0.0497332671449,-0.0028330305544,0.016002706866,-0.00928742526378,0.573929334703,0.818890405622,0.00209027474844,0.0,0.818848090999,-0.573869184698,-0.0119461133235,0.0,-0.00858317857216,0.00856800732014,-0.999926456444,0.0,0.660926976093,0.259890719322,0.303356043713,1.0,-0.00572,-0.00751771428571,0.287
0.464434575331,0.542942905527,-0.124041687821,-1.36321577254,0.0791821644628,1.89673394481,0.158255729043,-0.00279496357421,-0.0304151068711,-0.000390573035739,-0.0520019420112,-0.000829667582771,0.0210088954355,-0.00991693459509,0.573953469984,0.818873514216,0.00208060327178,0.0,0.818830994913,-0.573893278576,-0.0119604964348,0.0,-0.00860025509585,0.00856859585056,-0.999926304673,0.0,0.660829725734,0.259751542524,0.303355341069,1.0,-0.00606,-0.00796457142857,0.304
0.46435340375,0.542353992371,-0.124044946081,-1.36411809437,0.0791217022846,1.89705274361,0.158161905984,-0.00653236177679,-0.035952981956,0.000487855099029,-0.0480988175925,-0.00177455849947,0.0168869245714,-0.00913977839827,0.573979336089,0.818855381895,0.00208139019228,0.0,0.81881291813,-0.573919183304,-0.0119550424459,0.0,-0.00859506657,0.00856638143252,-0.999926368259,0.0,0.660726087384,0.259608488108,0.303370084464,1.0,-0.0064,-0.00841142857143,0.321
0.464267062226,0.541749703238,-0.124047560411,-1.36505710759,0.0790623625076,1.89740099779,0.158011450359,-0.00459200469113,-0.0309736206518,-0.00112815023657,-0.0549638281715,-0.00609630624203,0.0221916719926,-0.00426039944239,0.573965017022,0.818865394662,0.00209082805079,0.0,0.818823081685,-0.573904854716,-0.01194677925,0.0,-0.00858303298674,0.00856921660737,-0.999926447331,0.0,0.660621253509,0.259460425459,0.303380699839,1.0,-0.00674,-0.00885828571429,0.338
0.464184067362,0.541133413191,-0.124047797307,-1.36599446994,0.0790157466836,1.89774139575,0.157889634916,-0.00453631109107,-0.0430506842717,0.00180979711687,-0.058635059417,-0.000641621020501,0.022585026435,-0.00564341899891,0.573972917551,0.818859799741,0.00211309882221,0.0,0.818817672916,-0.57391255834,-0.0119474181949,0.0,-0.0085706915318,0.00858790248251,-0.99992639288,0.0,0.660513271445,0.259317840122,0.303399763429,1.0,-0.00706,-0.00927885714286,0.354
0.464098216914,0.540440073103,-0.124049581838,-1.36705398703,0.0789534515275,1.89812329704,0.15777122712,-0.00804390895991,-0.0431120370292,-0.00353689955874,-0.0655493026615,-0.00244756466467,0.0185735932282,-0.00827234406213,0.573989524289,0.818848122637,0.00212719584285,0.0,0.818806152753,-0.573929078179,-0.0119433804048,0.0,-0.00855911986276,0.00859730180586,-0.999926411227,0.0,0.660389193468,0.259159271477,0.303418686653,1.0,-0.0074,-0.00972571428571,0.371
0.464004729787,0.539705871408,-0.124056990341,-1.3681613954,0.0788825322165,1.89854347516,0.157625245938,-0.00623662975965,-0.0436986462564,0.000893877221842,-0.0673764977224,-0.00522187684606,0.0210387433142,-0.00819207320927,0.573994137322,0.818844795133,0.00216303147919,0.0,0.818803373508,-0.573933626491,-0.0119153185622,0.0,-0.0085155240362,0.00861058625168,-0.999926669139,0.0,0.660266310431,0.25898846167,0.303447072671,1.0,-0.00774,-0.0101725714286,0.388
0.463896138628,0.53890659105,-0.124063346195,-1.36939685542,0.0788059151579,1.89900326096,0.157469677486,-0.00351464276888,-0.0461064953774,-0.000718023941678,-0.0721913021472,-0.00317353349555,0.0282003743148,-0.0053941442022,0.57400797602,0.818835049071,0.00218008710856,0.0,0.818793892501,-0.573947438049,-0.0119015486749,0.0,-0.00849431332439,0.00861679177592,-0.999926796091,0.0,0.660127181305,0.258795718993,0.30346376447,1.0,-0.0081,-0.0106457142857,0.406
0.463799923988,0.538176683006,-0.124068751727,-1.37052174861,0.0787512275566,1.89944131856,0.157330399122,-0.00583394629681,-0.0499024336494,0.000206576504745,-0.0719634021164,-0.00724257165128,0.0303448276724,-0.00842875293844,0.574017109739,0.818828530577,0.00222309293262,0.0,0.818787852631,-0.573956315465,-0.0118889538002,0.0,-0.00845921920792,0.00864487082724,-0.999926851234,0.0,0.660009153509,0.258637594892,0.303486475698,1.0,-0.0084,-0.01104,0.421
0.463692064829,0.537370411623,-0.124064576925,-1.3717699699,0.0786793069156,1.89991762503,0.15718421966,-0.0115821444392,-0.0512210299814,0.00136428320159,-0.0749074891539,8.64626369018e-05,0.0261291318917,-0.00397739792829,0.574039535296,0.818812728136,0.00225278933106,0.0,0.818772408063,-0.573978590761,-0.0118772069528,0.0,-0.00843231773035,0.00866267488856,-0.999926924371,0.0,0.659860614204,0.258440320335,0.303498444803,1.0,-0.00876,-0.0115131428571,0.439
0.463574141197,0.536490700675,-0.124071986449,-1.37314425867,0.078601993672,1.90042748397,0.157016003004,-0.0124707383494,-0.0481410563514,0.000248797719606,-0.0765194817357,-0.000178181698813,0.0280355242006,-0.00729741992411,0.574058563798,0.818799349775,0.00226650396436,0.0,0.818759182458,-0.573997536154,-0.0118733538213,0.0,-0.00842108882934,0.00867188833573,-0.999926939139,0.0,0.65970329247,0.258228706119,0.30350980356,1.0,-0.00912,-0.0119862857143,0.457
0.463460652426,0.535629793863,-0.124073729374,-1.3745149756,0.0785204912135,1.90092202665,0.156848549411,-0.00937655276722,-0.0459147891476,0.001284926592,-0.0782730037052,-0.00111802850463,0.0283530577592,-0.0103699132679,0.574069081974,0.818792011829,0.00225330594378,0.0,0.818751634153,-0.574008065592,-0.0118848268211,0.0,-0.0084379479338,0.0086677764279,-0.999926832667,0.0,0.659540705974,0.258021789049,0.303507901018,1.0,-0.00946,-0.0124331428571,0.474
0.463361502553,0.534827515972,-0.124073283851,-1.37577037299,0.0784582657019,1.90137102288,0.156700777657,-0.0086197018378,-0.0510511497264,0.00422136174718,-0.0881310011968,-0.00189752250992,0.0279549806209,-0.0113524304467,0.574081122302,0.81878355852,0.00225747985315,0.0,0.81874307653,-0.574019924797,-0.011901574311,0.0,-0.00844913762291,0.00868093227265,-0.999926624052,0.0,0.659388698233,0.257838559212,0.303515358414,1.0,-0.00976,-0.0128274285714,0.489
0.463239158014,0.533940126369,-0.12407764166,-1.3772514858,0.0783758759543,1.90189698664,0.156523431008,-0.0102042022236,-0.0512792991265,0.00134566158729,-0.0832903358345,-0.00472673765714,0.029312125046,-0.0053139792501,0.574098227077,0.818771718457,0.0022012775559,0.0,0.818730401809,-0.574037149046,-0.0119426785491,0.0,-0.00851487628393,0.00865869014605,-0.999926259265,0.0,0.659209693646,0.257613547778,0.303482106211,1.0,-0.0101,-0.0132742857143,0.506
0.463109996705,0.533081093444,-0.124077617758,-1.37864249287,0.0782916078725,1.90242351674,0.156344547517,-0.00934140808625,-0.0552105621704,0.000609751817799,-0.0839332693065,-0.00284846744151,0.029691787819,-0.0151226625741,0.574111141277,0.818762680825,0.00219473274063,0.0,0.818721275612,-0.574050084942,-0.0119465367098,0.0,-0.0085216559752,0.0086556808625,-0.999926227563,0.0,0.659051523028,0.25739666361,0.303471462068,1.0,-0.01042,-0.0136948571429,0.522
0.462972300303,0.532118825971,-0.124082554408,-1.38019148684,0.0782022517545,1.90301844954,0.156148110471,-0.0134388401508,-0.0546171982752,-0.00111493630624,-0.0929840019021,-0.00899521366972,0.0317377359578,-0.0117921738638,0.574127362941,0.818751290171,0.00220065125506,0.0,0.818709955965,-0.574066274223,-0.0119443587384,0.0,-0.00851630342568,0.00865944499775,-0.999926240574,0.0,0.658876160955,0.257157707519,0.303464326496,1.0,-0.01076,-0.0141417142857,0.539
0.462825154183,0.531009041469,-0.124082633342,-1.38198389426,0.078099535236,1.90365391877,0.155925629137,-0.0104114627133,-0.0608953231855,-0.000789054241306,-0.0993316897955,-0.0111629849486,0.0350899429297,-0.0115784429747,0.574135750501,0.818745508465,0.00216316126509,0.0,0.818703563987,-0.574074691298,-0.0119778974597,0.0,-0.00856519851715,0.00864809348728,-0.999925921183,0.0,0.658657583238,0.256889027379,0.30344842767,1.0,-0.01114,-0.0146411428571,0.558
0.462697313075,0.530035822567,-0.124086443702,-1.38353446034,0.0779919983965,1.90420311709,0.155724185781,-0.00808274128375,-0.0600416572579,-0.00162812549262,-0.100510886706,-0.0074695703538,0.0430423516179,-0.0141372506493,0.574133438094,0.818747214849,0.00213080762734,0.0,0.818704929229,-0.574072594566,-0.0119850709923,0.0,-0.00858967060935,0.00862569879379,-0.999925904695,0.0,0.658470311175,0.256651222917,0.303443765792,1.0,-0.01146,-0.0150617142857,0.574
0.462553648321,0.528998662156,-0.124088290682,-1.38517958614,0.0778999751244,1.90481695568,0.155489823179,-0.0101730921706,-0.0656113612064,0.000157955480144,-0.0967578282771,-0.00120746703849,0.0456943614548,-0.0143399153539,0.574125149446,0.818753006504,0.00213869477331,0.0,0.818710745641,-0.5740641957,-0.0119900412246,0.0,-0.00858929957645,0.0086349228515,-0.999925828269,0.0,0.658277849287,0.256400645063,0.303444493968,1.0,-0.0118,-0.0155085714286,0.591
0.462437370014,0.52804172277,-0.124084316252,-1.38670616029,0.0778062147037,1.90539690789,0.155290289087,-0.00657024684741,-0.0644581734791,0.00215384379115,-0.104890307448,-0.000881312743962,0.0376798858347,-0.0161616761274,0.574111804112,0.818762344938,0.00214611113178,0.0,0.818720169815,-0.574050810187,-0.0119874001832,0.0,-0.00858302029951,0.0086393387501,-0.999925844045,0.0,0.658095555832,0.256181948951,0.303441799185,1.0,-0.0121,-0.0159028571429,0.606
0.462280474237,0.52680961406,-0.124089724023,-1.38856647116,0.077673189653,1.90610667842,0.155033210834,-0.00708442923831,-0.0765039573323,-0.000632878494381,-0.105198927403,-0.0075715137867,0.0423844777371,-0.0189993026383,0.574097518053,0.81877221518,0.00220143507009,0.0,0.818730975168,-0.574036515326,-0.0119338289524,0.0,-0.00850754724719,0.00865373127526,-0.999926364576,0.0,0.657895627239,0.255910644642,0.303483404596,1.0,-0.01244,-0.0163497142857,0.623
0.462127964964,0.52571781189,-0.124095418524,-1.39027677042,0.0775776529192,1.9067295847,0.154796758569,-0.0132232719816,-0.0645124299501,-0.000689344692754,-0.107898883262,-0.00747381524193,0.0390411367805,-0.00472954269808,0.574100161124,0.81877033908,0.00220991905052,0.0,0.81872913288,-0.574039045535,-0.0119385122921,0.0,-0.00850648371124,0.00866339373564,-0.999926289955,0.0,0.657679844916,0.255632059473,0.303493462682,1.0,-0.01278,-0.0167965714286,0.64
0.461972432254,0.524547806353,-0.124098479718,-1.39211399652,0.0774656623225,1.90738975469,0.154545650152,-0.0112957708561,-0.0667539033054,0.000671385223381,-0.109055135982,-0.00841335108874,0.0414552734593,-0.0163768075601,0.574092665997,0.818775612376,0.00220325387718,0.0,0.818734281555,-0.574031540017,-0.0119463037864,0.0,-0.00851676895636,0.00866233164649,-0.999926211606,0.0,0.657457439177,0.255351979056,0.303499193757,1.0,-0.01312,-0.0172434285714,0.657
0.461825327566,0.523429921289,-0.124110561433,-1.39391208305,0.0773504195294,1.90803675701,0.154304574052,-0.0110644679694,-0.0711356930009,-0.00106363423856,-0.114998587258,-0.00979476953779,0.0432811012626,-0.0179546335012,0.574089686116,0.818777795158,0.00216826041911,0.0,0.818736059861,-0.574028755913,-0.0119582009651,0.0,-0.00854663013847,0.00864047918683,-0.999926145889,0.0,0.657239732738,0.255074772545,0.303485772588,1.0,-0.01344,-0.017664,0.673
0.461666428086,0.522198584905,-0.124111471674,-1.39585473014,0.0772376032805,1.90879838064,0.154043035929,-0.0146082968078,-0.0731651700213,-0.000819130207434,-0.115950321834,-0.011099722686,0.0509104238839,-0.016846385338,0.574080301263,0.818784260658,0.00221113134254,0.0,0.818743074407,-0.574019187493,-0.0119372275202,0.0,-0.00850494593932,0.00866344244247,-0.999926302614,0.0,0.65701362293,0.254788794345,0.303492572475,1.0,-0.01378,-0.0181108571429,0.69
0.461501603616,0.520943056349,-0.124111985043,-1.39785291009,0.0771051129112,1.90956810953,0.153769107652,-0.00887627149505,-0.0729875362472,0.000979458144501,-0.12245792286,-0.0143637094519,0.0456288940531,-0.0147838503457,0.574062551781,0.81879666593,0.00222562501353,0.0,0.818755778178,-0.574001493576,-0.011916709808,0.0,-0.0084800134443,0.00866334697739,-0.999926515196,0.0,0.656778498876,0.254490323835,0.303490259643,1.0,-0.01412,-0.0185577142857,0.707
0.461331858463,0.519651484085,-0.124126278144,-1.39990269981,0.0769735143501,1.91031630763,0.153492233906,-0.0101098158844,-0.0760082372931,-0.00103010241701,-0.124450585022,-0.00928498950143,0.0471383416188,-0.0192387434374,0.574058637422,0.818799454325,0.00220936633766,0.0,0.818758433281,-0.573997725258,-0.0119157975364,0.0,-0.0084886407012,0.0086494703478,-0.999926562124,0.0,0.656531459289,0.254173697712,0.303486906068,1.0,-0.01446,-0.0190045714286,0.724
0.46116034541,0.518294105794,-0.124127370975,-1.40196763808,0.0768433778939,1.9110511009,0.153217833269,-0.0111159874135,-0.0791650519066,-0.000248829469581,-0.125238669767,-0.00765929498045,0.0458752004619,-0.0208084944414,0.574049491551,0.818805805985,0.00223164434065,0.0,0.818765051721,-0.573988467134,-0.011906997066,0.0,-0.00846874326476,0.00866256478685,-0.999926617487,0.0,0.656276531262,0.253862064705,0.303520501637,1.0,-0.0148,-0.0194514285714,0.741
0.46097960511,0.516938001214,-0.12413335004,-1.40411047089,0.0766983239192,1.91181792207,0.152911134529,-0.0135387794727,-0.0744113128457,-5.59414549804e-05,-0.119883794842,-0.0125686158294,0.0414592234071,-0.0245032699881,0.574024749016,0.81882322204,0.00220578038086,0.0,0.818782210207,-0.573963912522,-0.0119107628612,0.0,-0.00848693428516,0.00864329280761,-0.999926630026,0.0,0.656013021768,0.253532098559,0.303518680214,1.0,-0.01514,-0.0198982857143,0.758
0.460784613809,0.515510874345,-0.124131260969,-1.40641140679,0.0765651169495,1.91269961977,0.152603435691,-0.00910603692443,-0.0733742179709,0.00134137550173,-0.128503647943,-0.00455023048267,0.0526259696127,-0.0285403947573,0.574016950243,0.818828667533,0.00221381138776,0.0,0.818787686269,-0.573956006951,-0.0119152759229,0.0,-0.00848610254678,0.00865237843571,-0.999926558509,0.0,0.655737154834,0.253189334991,0.303500775714,1.0,-0.0155,-0.0203714285714,0.776
0.460591541366,0.51403082135,-0.124137925026,-1.40878343229,0.0764307634636,1.91354506492,0.152279268839,-0.0128160567035,-0.0818652554465,-0.000301287610142,-0.132035885629,-0.0083937035016,0.04727804064,-0.018604074908,0.57400297154,0.818838561777,0.00217837367224,0.0,0.818796961772,-0.57394201435,-0.011951839096,0.0,-0.00853653091714,0.00864420332858,-0.999926199971,0.0,0.655439168975,0.252832464581,0.303482790916,1.0,-0.01586,-0.0208445714286,0.794
0.460414104653,0.512778211201,-0.124140166604,-1.41077800673,0.0763036415612,1.91424055059,0.152008968284,-0.0133413146251,-0.0910781825052,-0.000575653868877,-0.133483672649,-0.00763427787532,0.0392602298754,-0.0169717767522,0.573998651001,0.81884170146,0.00213623480357,0.0,0.818799507306,-0.573937822745,-0.0119787043667,0.0,-0.00858276195767,0.0086250742113,-0.999925969406,0.0,0.655188788457,0.252521333367,0.303471457937,1.0,-0.01616,-0.0212388571429,0.809
0.460200558266,0.511275995919,-0.124143690728,-1.41321848283,0.0761491178053,1.91515374564,0.151643690734,-0.0133669401023,-0.0806345579012,-0.000646031632058,-0.132290730262,-0.0143556390424,0.0562560165863,-0.017988298054,0.573963093391,0.818866696419,0.00210898599392,0.0,0.818824169012,-0.573902405138,-0.0119898506588,0.0,-0.00860790299399,0.00860878622315,-0.999925893657,0.0,0.654892357109,0.252146510468,0.303441283553,1.0,-0.01652,-0.021712,0.827
0.460015274841,0.509899565472,-0.124141810625,-1.41541950283,0.0760136557872,1.91598708924,0.151348150949,-0.00700763014814,-0.0816759426783,-0.000314959193187,-0.139569681181,-0.0025742667363,0.0511813407189,-0.0178798556496,0.573949931516,0.818875908189,0.00211423755812,0.0,0.818833431142,-0.573889204869,-0.0119891400669,0.0,-0.00860444551178,0.00861254033238,-0.999925891087,0.0,0.654623450552,0.25181783154,0.303429422826,1.0,-0.01684,-0.0221325714286,0.843
0.459821780688,0.508486597033,-0.124146887344,-1.41764336215,0.0758720976361,1.91678041665,0.15103450543,-0.0119954654607,-0.0873632851859,0.00187569424364,-0.138026123683,-0.00993890431291,0.0469559902498,-0.0249099410769,0.573932387484,0.81888825167,0.00209589497618,0.0,0.818845520505,-0.573871724907,-0.0120001584305,0.0,-0.00862417993391,0.00860365943801,-0.999925797529,0.0,0.654345166511,0.251473927474,0.303428525423,1.0,-0.01716,-0.0225531428571,0.859
0.45959444415,0.506875105166,-0.124150320422,-1.42017346453,0.0757078077547,1.91770004853,0.150681297489,-0.0106584242002,-0.0950672537697,0.000686568581007,-0.140276933661,-0.00996586981616,0.0505991302837,-0.0196992372512,0.573918369403,0.818898088769,0.0020910220284,0.0,0.818855320824,-0.573857755744,-0.0119994429824,0.0,-0.00862653780378,0.00859911082367,-0.999925816318,0.0,0.654032484089,0.251080088328,0.303431107459,1.0,-0.01752,-0.0230262857143,0.877
0.459366303482,0.505287351731,-0.124161324756,-1.42263118011,0.0755498714937,1.91862915076,0.150351500898,-0.0144899039598,-0.0869092026864,0.000352583206423,-0.148849963217,-0.0157714518325,0.0583781076645,-0.0216414574927,0.57392734329,0.818891689135,0.00213377390704,0.0,0.818849585935,-0.573866657841,-0.0119650128924,0.0,-0.00857371298789,0.00861445379696,-0.999926138588,0.0,0.653738907314,0.25069128141,0.303451995046,1.0,-0.01786,-0.0234731428571,0.894
0.45914150166,0.503628827232,-0.124162486536,-1.42511183343,0.0753963867906,1.91957822043,0.150007615136,-0.0130850954869,-0.0988358654633,0.000467659275644,-0.142582993581,-0.00852982370651,0.0505114671979,-0.0179932344311,0.573916984557,0.818898662922,0.0022408935187,0.0,0.818857991002,-0.573855900782,-0.0119055705725,0.0,-0.00846366880629,0.00866794961208,-0.999926613787,0.0,0.653441328623,0.250310754714,0.303512153295,1.0,-0.0182,-0.02392,0.911
0.458934813423,0.502130388876,-0.124173516196,-1.42731947817,0.0752609274025,1.92040053306,0.149688265793,-0.0179026228001,-0.09528085303,-0.00108574504237,-0.148194916433,-0.00846099855432,0.0552081593801,-0.0221433411552,0.573909200882,0.818903850839,0.0023364771673,0.0,0.818864461161,-0.573847780145,-0.0118518509727,0.0,-0.00836490521564,0.00871531223409,-0.999927033185,0.0,0.65317557214,0.249961002277,0.303579162012,1.0,-0.0185,-0.0243142857143,0.926
0.458718694779,0.500520377509,-0.124173947065,-1.42974673128,0.0750993718021,1.92125118013,0.149355775464,-0.0133796283603,-0.108397749932,-0.000643376686634,-0.155838063208,-0.00955259696916,0.0522977544425,-0.0261252459874,0.573889483241,0.818917598576,0.00236107375677,0.0,0.818878553883,-0.573827995823,-0.0118360509274,0.0,-0.00833806071378,0.00872618582002,-0.99992716256,0.0,0.652844494022,0.249560549029,0.303625011432,1.0,-0.01884,-0.0247611428571,0.943
0.458472980903,0.498823135083,-0.124172095609,-1.43236211558,0.0749374437386,1.92221076706,0.148980982915,-0.0115305658353,-0.105931242044,0.000340101690908,-0.158867324649,-0.00927874590053,0.0624774240842,-0.0195045706836,0.573876475916,0.81892660928,0.00239706174127,0.0,0.818887961099,-0.573814776714,-0.0118260768576,0.0,-0.00830937955557,0.00874980077368,-0.999927194949,0.0,0.652540847783,0.249176462177,0.30364320729,1.0,-0.01916,-0.0251817142857,0.959
0.458216199958,0.497163202859,-0.124177438273,-1.4350101339,0.0747719750339,1.92318729312,0.148585741355,-0.0181033084067,-0.10297094358,-0.00318901816038,-0.156058485432,-0.00353467420145,0.0562143697987,-0.0166178216987,0.573856673623,0.818940524361,0.00238382010162,0.0,0.818901684412,-0.573795007188,-0.0118350282517,0.0,-0.00832452044277,0.00874389258835,-0.999927120695,0.0,0.65221361588,0.24875320417,0.303624912152,1.0,-0.0195,-0.0256285714286,0.976
0.457947063278,0.495495003138,-0.124169620497,-1.43770283978,0.0746103146293,1.92411628577,0.148188732869,-0.0208834840724,-0.0965664455205,0.000431935621991,-0.156292508686,-0.00702572687925,0.0587466330748,-0.0192186542878,0.57383856904,0.818953426772,0.0023083243663,0.0,0.818913361579,-0.573776946888,-0.0119024513725,0.0,-0.00842325220487,0.00872057122809,-0.999926497529,0.0,0.651864921681,0.248322042833,0.303585989875,1.0,-0.01984,-0.0260754285714,0.993
0.457664131015,0.493782061521,-0.124182766883,-1.4404952534,0.0744279807411,1.92510958782,0.147812638882,-0.0186684544718,-0.104683846759,-0.00380154799432,-0.169984685056,-0.0169917688947,0.0659805404903,-0.0223654837757,0.573862834462,0.818936651822,0.00222585401856,0.0,0.818895526331,-0.573801554792,-0.0119431810741,0.0,-0.00850367394646,0.0086766566943,-0.999926198856,0.0,0.651514001021,0.24785954918,0.303536378885,1.0,-0.024012,-0.0315586285714,1.01
0.457347441017,0.491320589202,-0.124256757848,-1.44428059422,0.0742141628828,1.92653405835,0.147256428025,-0.0181074478752,-0.146887839213,-0.00407447396678,-0.232054026678,-0.00883592422972,0.0907457465386,-0.0394150525774,0.573852534358,0.818943649352,0.00230540630905,0.0,0.81890368877,-0.573791069637,-0.0118871284881,0.0,-0.00841222879378,0.00870953222518,-0.99992668654,0.0,0.651049699301,0.247255648029,0.303573322672,1.0,-0.032076,-0.0421570285714,1.028
0.456916602683,0.488434135465,-0.124266244458,-1.44895714956,0.073959810133,1.92823924485,0.146574682291,-0.0264770684167,-0.186873175438,-0.000809512840681,-0.295547835358,-0.0148312390411,0.106924861484,-0.0500695617107,0.573819048474,0.818967270446,0.0022486546559,0.0,0.818926138788,-0.573757371572,-0.0119668156651,0.0,-0.00851041202802,0.00870843651742,-0.999925865262,0.0,0.650448533235,0.246528095796,0.303502731948,1.0,-0.039692,-0.0521666285714,1.045
0.456505164043,0.485692221058,-0.124326043316,-1.45320244041,0.0737023755144,1.92985885718,0.145931508847,-0.034553152919,-0.220853863673,-0.00830813147465,-0.34145718203,-0.0197943954939,0.129573115371,-0.057141609559,0.573813630562,0.81897082327,0.00233557610907,0.0,0.818931036822,-0.573751824659,-0.011897374999,0.0,-0.00840372374119,0.0087397199736,-0.99992649466,0.0,0.649934940863,0.245826807095,0.303528914921,1.0,-0.045516,-0.0598210285714,1.058
0.455693132769,0.480533261821,-0.124445429029,-1.46131114251,0.0732148743534,1.93272001271,0.144698328541,-0.0439213684449,-0.268549453409,-0.00598099105737,-0.414535187484,-0.0210188769717,0.147281145391,-0.0646058349408,0.573821128753,0.818965812333,0.00224885041913,0.0,0.818924874012,-0.573759646085,-0.0119442935999,0.0,-0.00849183198425,0.00869569500086,-0.999926134111,0.0,0.648903796556,0.244452687674,0.303500029605,1.0,-0.054924,-0.0721858285714,1.079
0.4549066789,0.475599599433,-0.124550417343,-1.46895600118,0.0727586391929,1.93545231152,0.143584863705,-0.0484420157272,-0.303015411258,-0.00723003117697,-0.470230717135,-0.0283335415713,0.168740746207,-0.0716049071079,0.573877190514,0.818926497173,0.00226038419945,0.0,0.818885679867,-0.573815624023,-0.0119423547599,0.0,-0.00848303030624,0.00870460884038,-0.999926131263,0.0,0.647933005362,0.243153066873,0.303518021731,1.0,-0.06254,-0.0821954285714,1.096
0.454102994766,0.47076544245,-0.124607330844,-1.47644527229,0.0723082669093,1.93814510252,0.142477127927,-0.0582597429825,-0.335201333429,-0.00325892834255,-0.516060924263,-0.0315223355689,0.185566152969,-0.0753553169831,0.573907290876,0.818905306974,0.00229490526724,0.0,0.818864742106,-0.573845377954,-0.011948357115,0.0,-0.00846781530229,0.00873663447937,-0.999925980922,0.0,0.646973204992,0.241887222747,0.303530741309,1.0,-0.06926,-0.0910274285714,1.111
0.45303167955,0.464267019182,-0.124661700766,-1.48623698659,0.0716953381826,1.94180120124,0.14088457511,-0.065471861267,-0.363794649571,-0.000481642932933,-0.565178341588,-0.0377683776936,0.200096073157,-0.0851602529513,0.573818033701,0.818966947154,0.00259818582396,0.0,0.81893044026,-0.573755079675,-0.0117808939943,0.0,-0.00815759753389,0.00888799400918,-0.999927225934,0.0,0.645736960398,0.240240140037,0.303672358712,1.0,-0.077324,-0.101625828571,1.129
0.451879066879,0.457560878397,-0.12471961604,-1.49665096768,0.071015689871,1.94534182136,0.139316791081,-0.0686392004515,-0.408300711119,-0.00402897458015,-0.631669876702,-0.0404019355342,0.20874985794,-0.0942834676054,0.573819284034,0.818966533884,0.00244796858088,0.0,0.818927760448,-0.573756563561,-0.0118943616613,0.0,-0.00833670660928,0.00883009352678,-0.999926261667,0.0,0.644332797564,0.238453314493,0.30364133086,1.0,-0.08494,-0.111635428571,1.146
0.450687960331,0.450633594706,-0.124828827316,-1.50711194162,0.0702955736525,1.94907839699,0.137645507611,-0.0744344447417,-0.451181850929,-0.00540964738344,-0.661438505315,-0.0504673915302,0.255702851654,-0.105374996721,0.573787678058,0.818988276034,0.00257897827306,0.0,0.818951737172,-0.57372503529,-0.0117636289452,0.0,-0.00815480679432,0.00886205469687,-0.999927478927,0.0,0.642964998009,0.236618293177,0.303746709243,1.0,-0.092108,-0.121056228571,1.162
0.449206503815,0.442314192627,-0.124877785739,-1.51968884082,0.0694802202133,1.95365371143,0.135724133828,-0.085052726026,-0.468281692168,-0.00280228504837,-0.723353110782,-0.0530166345958,0.256272061631,-0.108069258609,0.573806825388,0.818973992582,0.00284139291567,0.0,0.818940836251,-0.573743229544,-0.0116344391074,0.0,-0.00789822516469,0.00900302659601,-0.999928279204,0.0,0.641302229483,0.2344464499,0.303856931843,1.0,-0.100172,-0.131654628571,1.18
0.447749192233,0.434415677729,-0.124910547594,-1.53174850771,0.0686598577853,1.95776500387,0.133753915671,-0.0915869808982,-0.51219311202,-0.00133259533141,-0.768042874332,-0.0495302353972,0.268280332,-0.122198376227,0.573715362308,0.819038244521,0.00278997577022,0.0,0.819004122327,-0.573651616162,-0.0116969135461,0.0,-0.00797989906528,0.00899587384847,-0.999927695118,0.0,0.639631232686,0.232329362968,0.303869220752,1.0,-0.10734,-0.141075428571,1.196
0.446065696554,0.42550370894,-0.124959459437,-1.54520836012,0.067707877394,1.9625647403,0.131547457613,-0.106088335369,-0.532616780251,-0.00312386575892,-0.785785174907,-0.0539330196023,0.283685983953,-0.132383675166,0.573639377948,0.819090851349,0.00296449066176,0.0,0.819059333617,-0.573575446305,-0.0115655658282,0.0,-0.00777303976126,0.00906273221892,-0.999928720828,0.0,0.637798134773,0.229938024013,0.303948916533,1.0,-0.114956,-0.151085028571,1.213
0.444205770652,0.416085463461,-0.125065605283,-1.55951646672,0.0666797006418,1.96743562165,0.129216404372,-0.1132765704,-0.573235123468,-0.00770117323894,-0.858624900975,-0.0637446466983,0.306411728424,-0.126975002442,0.573646627174,0.819086000156,0.00290144493972,0.0,0.819053882294,-0.573583150749,-0.0115695279575,0.0,-0.00781236886049,0.00901343396951,-0.99992885992,0.0,0.635794206853,0.227309358382,0.303956650542,1.0,-0.122572,-0.161094628571,1.23
0.442318022303,0.406771445584,-0.125158251893,-1.57364263524,0.0657237696363,1.97233297186,0.126847793166,-0.121613678592,-0.585015857637,-0.00323060588853,-0.92215500137,-0.0617357345911,0.304137394695,-0.147142157786,0.573636018581,0.819093209675,0.00296292969538,0.0,0.819061668306,-0.573572088444,-0.0115667528257,0.0,-0.00777494461597,0.00906210265175,-0.999928711725,0.0,0.63380385976,0.224711914124,0.303960933119,1.0,-0.12974,-0.170515428571,1.246
0.440202418872,0.396939310842,-0.125264710822,-1.58834088698,0.0647238381032,1.97732653031,0.124355002658,-0.137660084906,-0.630980877408,-0.00541888826163,-0.922445944669,-0.0627190874663,0.333328209613,-0.156816553777,0.573714732269,0.819037691121,0.00306812656055,0.0,0.819007191436,-0.573650076523,-0.0115566856497,0.0,-0.00770547844966,0.00914323456637,-0.999928510876,0.0,0.631713741388,0.221911830078,0.304028055046,1.0,-0.136908,-0.179936228571,1.262
0.437693095921,0.385502422474,-0.125406721381,-1.60570406542,0.0633859243979,1.98313084512,0.121357077378,-0.137808257047,-0.644375042529,-0.00765771684085,-0.96906040858,-0.072013778297,0.306325241814,-0.183692577086,0.573691011501,0.819055070356,0.00285691224421,0.0,0.819022312408,-0.573627603715,-0.0116004713358,0.0,-0.00786277252414,0.0089951341913,-0.999928629638,0.0,0.629034711468,0.218385386462,0.303942417014,1.0,-0.14542,-0.191123428571,1.281
0.435106787475,0.374091719652,-0.125516247607,-1.62256343708,0.0621471491842,1.98876936305,0.118295202258,-0.160657612662,-0.675723345932,-0.00626599120157,-1.01055535532,-0.0747273083033,0.333583420463,-0.189526320554,0.57368245041,0.819060520288,0.0030095013848,0.0,0.819029782424,-0.573618600245,-0.0115179796894,0.0,-0.00770776486363,0.00907270875413,-0.999929135647,0.0,0.626704370208,0.215277216132,0.304045263312,1.0,-0.152588,-0.200544228571,1.297
0.432463926443,0.36299678141,-0.125662313958,-1.63898794632,0.0608828727433,1.99423285487,0.115410348661,-0.168919638687,-0.701826511539,-0.00648440543899,-1.02221805288,-0.0844628042299,0.347598692197,-0.188291096043,0.573824150695,0.818961066346,0.00305986776939,0.0,0.818931389671,-0.573760611962,-0.0114405451266,0.0,-0.00761387602325,0.00907085749745,-0.999929871759,0.0,0.624269737539,0.211973824696,0.304090257274,1.0,-0.159756,-0.209965028571,1.313
0.429465634804,0.350839668977,-0.125798831085,-1.65718947326,0.059509974676,2.00009202668,0.11201879163,-0.178215623879,-0.728336962187,-0.00604407137908,-1.08746560274,-0.0724224026447,0.339029526119,-0.206122871755,0.573853890467,0.818940889714,0.00287722985761,0.0,0.818908404834,-0.573790405571,-0.0115905938972,0.0,-0.00784123535962,0.0090076685393,-0.999928685925,0.0,0.621313756259,0.208073270871,0.304000347982,1.0,-0.16782,-0.220563428571,1.331
0.426066343978,0.337379277095,-0.12595077197,-1.67673716543,0.0580098142954,2.00650262081,0.108292098038,-0.193081453337,-0.745126015645,-0.0103772201216,-1.1084665696,-0.0936253162368,0.358364913965,-0.217478677946,0.573906173726,0.81890340952,0.00310749689608,0.0,0.818874039827,-0.573842111122,-0.0114579797733,0.0,-0.0075999124453,0.00912062946776,-0.999929525241,0.0,0.618484034025,0.204263885933,0.304125103239,1.0,-0.175436,-0.230573028571,1.348
0.422905129626,0.325101803287,-0.126001469283,-1.69469967976,0.0565155853624,2.01224545927,0.104784397653,-0.198791915644,-0.769197369199,-0.00192585836245,-1.13246918712,-0.103452216054,0.369813756906,-0.222882279555,0.573789078765,0.81898553824,0.00308676948501,0.0,0.818956149005,-0.573725391538,-0.0114345096981,0.0,-0.00759388625407,0.00908910062947,-0.999929858111,0.0,0.615632420019,0.200586167939,0.304128557447,1.0,-0.182604,-0.239993828571,1.364
0.419758938419,0.313260896426,-0.126038740687,-1.71203798123,0.055108088176,2.01761068037,0.101375137536,-0.215238184465,-0.794712128558,-0.00558045597231,-1.15498656264,-0.0980302772837,0.354500607395,-0.242371836449,0.573710609184,0.819041018606,0.00294849975997,0.0,0.819009346668,-0.573646781789,-0.011567485212,0.0,-0.00778299731914,0.00905141211748,-0.999928745907,0.0,0.612801538933,0.197003065121,0.304072914723,1.0,-0.189324,-0.248825828571,1.379
0.415947254496,0.299410501566,-0.126160490828,-1.73198045422,0.0534001772149,2.02386800839,0.0972427817652,-0.231148857257,-0.843783572904,-0.00679951427427,-1.19957120836,-0.114464432924,0.361880118177,-0.235745415068,0.573603155029,0.8191160791,0.00300273227576,0.0,0.819085589097,-0.573539731168,-0.0114769946406,0.0,-0.00767895243132,0.00904290917514,-0.999929627265,0.0,0.609555547566,0.192742056518,0.304119679453,1.0,-0.19694,-0.258835428571,1.396
0.411353580009,0.28343077381,-0.126318649928,-1.75475849371,0.0515647604848,2.03081923006,0.0925250053976,-0.251468488483,-0.839255597903,-0.00822948671247,-1.20873198213,-0.109674194643,0.369597373293,-0.252281441097,0.573692761742,0.819052868017,0.00312432680936,0.0,0.819023252454,-0.57362811906,-0.0115082520232,0.0,-0.007633812089,0.00916127357404,-0.999928895462,0.0,0.605764306261,0.187768363521,0.304195502865,1.0,-0.205452,-0.270022628571,1.415
0.406965891785,0.268774166422,-0.126485659217,-1.77559129053,0.0497774396455,2.03708243182,0.0879873417549,-0.262949777835,-0.88335046679,-0.00916480983765,-1.23362544908,-0.106900727155,0.369969458557,-0.268577135229,0.573683305709,0.81905940147,0.0031477795439,0.0,0.819029977623,-0.573618457237,-0.0115112194076,0.0,-0.00762289479682,0.00918209699571,-0.999928787749,0.0,0.602234163583,0.18311628282,0.304223164205,1.0,-0.213068,-0.280032228571,1.432
0.402504557688,0.254668948194,-0.126672088235,-1.79552191814,0.0479856481053,2.04293563988,0.0835899814008,-0.283183928193,-0.896732281148,-0.0140697125918,-1.24404033963,-0.0999117466342,0.376314992089,-0.276844644057,0.573798471567,0.818978921359,0.00309633642956,0.0,0.818949017575,-0.573733990633,-0.011513535796,0.0,-0.00765301701549,0.00914236693807,-0.999928921703,0.0,0.598807117946,0.178514871005,0.304235497564,1.0,-0.220236,-0.289453028571,1.448
0.397553377466,0.239384671242,-0.126819877335,-1.81712214012,0.0460656568299,2.04911859413,0.078624887123,-0.300656373526,-0.909400080176,-0.00634409098777,-1.27936982788,-0.110777901738,0.354618735241,-0.295896615917,0.5737800902,0.818992336379,0.00295092249232,0.0,0.818959924817,-0.573715350613,-0.0116655439567,0.0,-0.00786115291951,0.00911031952807,-0.999927599556,0.0,0.594981641832,0.173534349016,0.30417141421,1.0,-0.227852,-0.299462628571,1.465
0.392719763197,0.224544125677,-0.126925789352,-1.83763823655,0.0442010504738,2.05510284685,0.0738002695525,-0.307895697569,-0.927247583085,-0.00351815156668,-1.31179813106,-0.125506332027,0.369212551639,-0.310015798141,0.573699211548,0.819048193668,0.0031651255206,0.0,0.819018563456,-0.573633787467,-0.0115593033164,0.0,-0.00765215088875,0.00922403734697,-0.999928178282,0.0,0.591312827803,0.168799380235,0.304258182682,1.0,-0.23502,-0.308883428571,1.481
0.387532480386,0.209411310623,-0.127075527086,-1.85839089775,0.0422126817072,2.06088416349,0.0687403146606,-0.330864732638,-0.944289574598,-0.0103619543044,-1.29918345636,-0.126153169739,0.353882659047,-0.313015416684,0.573669874272,0.8190684761,0.00323322027826,0.0,0.819040042855,-0.573604626574,-0.0114842271832,0.0,-0.00755192374575,0.00923646987025,-0.999928825503,0.0,0.587292746537,0.163512114702,0.304338390543,1.0,-0.242636,-0.318893028571,1.498
0.381293037396,0.192124202714,-0.127277391459,-1.88208762302,0.0399473187918,2.06733323264,0.0627432085757,-0.352751331448,-0.973159311065,-0.00819200619913,-1.32045940585,-0.128088335929,0.347593418735,-0.334363330961,0.573694944257,0.819050919072,0.00323261540827,0.0,0.819022168532,-0.573629316959,-0.0115256704092,0.0,-0.00758593402568,0.00925998080797,-0.999928350613,0.0,0.582879087712,0.157699578337,0.304352050397,1.0,-0.2507,-0.329491428571,1.516
0.374930022825,0.175381258352,-0.127568670731,-1.90465598537,0.0377496039202,2.07342709376,0.0567689351678,-0.384695323676,-1.00297925022,-0.0167050478222,-1.33585338618,-0.130292273534,0.367286987964,-0.361466223853,0.573855319745,0.818938004813,0.00337093079186,0.0,0.818911125422,-0.573789355915,-0.0114494803,0.0,-0.00744235363349,0.00933101755795,-0.999928769205,0.0,0.578894394258,0.152258991126,0.304419164304,1.0,-0.257868,-0.338912228571,1.532
0.368721720704,0.159408709717,-0.127732636641,-1.92615737136,0.035530901077,2.07889715421,0.0509359228639,-0.395190346918,-1.02196751375,-0.0111240620031,-1.32031379543,-0.137548046154,0.352776112717,-0.371062238408,0.573829612047,0.818956508361,0.00324971572766,0.0,0.81892796999,-0.573763902927,-0.0115200072714,0.0,-0.00756996109715,0.00927198292159,-0.999928360445,0.0,0.574710656189,0.146786222112,0.304407279239,1.0,-0.265036,-0.348333028571,1.548
0.361414949278,0.141182318459,-0.127915932975,-1.95057434959,0.0330011436556,2.08503559975,0.0441162241614,-0.421247006282,-1.02760028383,-0.0129539122949,-1.33717832801,-0.138488645484,0.343368074885,-0.380846418099,0.573790040389,0.818984640972,0.00314552140193,0.0,0.81895440834,-0.573724248205,-0.0116151187747,0.0,-0.00770809038262,0.00924085600459,-0.99992759334,0.0,0.569866837851,0.140512110235,0.304350026399,1.0,-0.2731,-0.358931428571,1.566
0.354062678143,0.123567680471,-0.128144777199,-1.97382157473,0.0305682463478,2.09072153248,0.0372333081107,-0.440121004671,-1.02002552939,-0.0168858381685,-1.36602695467,-0.147712151682,0.319859805845,-0.404036469146,0.573736789065,0.819021929696,0.00314999250925,0.0,0.8189913645,-0.573670521482,-0.011662956639,0.0,-0.0077453085282,0.00927146246078,-0.999927022427,0.0,0.565175789878,0.134369591187,0.304343927668,1.0,-0.280716,-0.368941028571,1.583
0.347147705904,0.107608173569,-0.128445891282,-1.99444519469,0.0282638393168,2.09569274422,0.0309576590114,-0.467316527761,-1.05767810232,-0.0219763711213,-1.39604067647,-0.156019164204,0.325459489863,-0.426332497655,0.573846869538,0.818944220215,0.00329869661548,0.0,0.818916447213,-0.573781171436,-0.0114789673496,0.0,-0.00750804850994,0.00928870522823,-0.999928672038,0.0,0.560979379802,0.128707016844,0.304447015716,1.0,-0.287436,-0.377773028571,1.598
0.338090865348,0.087305360281,-0.128662594057,-2.02068758126,0.0254253316816,2.10167224703,0.0226007046568,-0.491272437053,-1.06254365511,-0.015579811878,-1.40735075461,-0.144374205177,0.3138181705,-0.451914462369,0.57373563106,0.819022062076,0.0033218047216,0.0,0.818993743549,-0.573668832611,-0.0115786622639,0.0,-0.00757770990103,0.0093638086674,-0.999927446068,0.0,0.555441388054,0.12156919564,0.30443547344,1.0,-0.295948,-0.388960228571,1.617
0.32998565205,0.0698203618938,-0.128889206439,-2.04280846718,0.0229202330869,2.10649721242,0.0151680437704,-0.516344332941,-1.09192311651,-0.0150683423225,-1.39981511902,-0.150173646881,0.299399010528,-0.462518672515,0.573643521509,0.819086087268,0.00344075225949,0.0,0.819059188487,-0.573576216834,-0.0115375967313,0.0,-0.00747689525246,0.00943682906034,-0.999927518521,0.0,0.550685649168,0.115357197749,0.304519227632,1.0,-0.29998,-0.394259428571,1.633
0.321459320652,0.0524060494013,-0.129222280852,-2.06473817053,0.0203434182221,2.1110874806,0.00757117153347,-0.539838495474,-1.08830979765,-0.0166364347351,-1.36222914823,-0.152499620629,0.278698897319,-0.479097812886,0.57376720273,0.818999435487,0.00344509005662,0.0,0.81897260039,-0.573699877454,-0.011535914434,0.0,-0.00747160351747,0.00944054547771,-0.999927522995,0.0,0.545893604032,0.108958023302,0.304539603416,1.0,-0.29998,-0.394259428571,1.649
0.311612155616,0.032998985937,-0.129434307332,-2.08891170721,0.0175109901265,2.11589422017,-0.00113582089649,-0.55426146402,-1.08058719486,-0.0131435524999,-1.33170579081,-0.166085321471,0.27857428962,-0.48765622823,0.573816814744,0.818964560018,0.00347267232156,0.0,0.81893739794,-0.573748532242,-0.0116149432568,0.0,-0.0075199310285,0.00950893405444,-0.999926512705,0.0,0.540465203282,0.10187131788,0.304548486118,1.0,-0.29998,-0.394259428571,1.667
0.302604507252,0.0158981037454,-0.129630231047,-2.10980587486,0.0148888522834,2.11986614267,-0.009108918482,-0.57329373351,-1.09567677456,-0.014893565752,-1.29033559633,-0.163357431222,0.262045201527,-0.511139101781,0.573785583833,0.818986137417,0.0035436428601,0.0,0.818960349418,-0.573717667224,-0.0115209069821,0.0,-0.00740255511577,0.00951281648513,-0.999927351611,0.0,0.535687944954,0.0955637245395,0.304624225349,1.0,-0.29998,-0.394259428571,1.683
0.293270843367,-0.000985473768197,-0.129878303214,-2.13036440257,0.0123439802957,2.1234761912,-0.0172838958941,-0.587210836249,-1.05917622533,-0.00489475201342,-1.28015146151,-0.154878481673,0.211848058904,-0.517205358813,0.573884949004,0.818916746498,0.00348919958172,0.0,0.818889578096,-0.57381632549,-0.0116374562683,0.0,-0.00752809308094,0.00953601376822,-0.999926193404,0.0,0.530871635421,0.0891867585288,0.304616142905,1.0,-0.29998,-0.394259428571,1.699
0.282051449142,-0.0208469623559,-0.130068523715,-2.15421583847,0.00929686050112,2.12762364719,-0.0272601144323,-0.59976231378,-1.02384766992,-0.0172213155628,-1.26289508698,-0.162883438395,0.196705149487,-0.528797219607,0.573740428047,0.819017618509,0.00357892412347,0.0,0.818991662865,-0.573671606907,-0.0115883772655,0.0,-0.00743810120398,0.00958001399679,-0.999926446286,0.0,0.525178807806,0.0817736207443,0.304637453051,1.0,-0.29998,-0.394259428571,1.718
0.272206488876,-0.0374886996319,-0.130330310707,-2.17375149301,0.00667037416895,2.1307740372,-0.0357637516648,-0.621135582092,-1.02602198185,-0.0227061865045,-1.23196177,-0.159079858957,0.191564294618,-0.536272819625,0.573869223508,0.818926788137,0.0037117223617,0.0,0.818903313133,-0.573800989375,-0.0114252016995,0.0,-0.00722675290556,0.00959629812561,-0.999927839949,0.0,0.520431222422,0.0754096022112,0.304737276618,1.0,-0.29998,-0.394259428571,1.734
0.262161653774,-0.0539947802115,-0.130513062919,-2.19295422996,0.00422256527163,2.13363947009,-0.0446074345485,-0.628013812078,-1.03957394544,-0.0088826603768,-1.19058104854,-0.157562900988,0.190562808897,-0.552949889142,0.573856714095,0.81893470003,0.00389559690031,0.0,0.818913042054,-0.573787215482,-0.0114196236808,0.0,-0.00711681941629,0.00974357042386,-0.999927204209,0.0,0.515641506151,0.0691347673806,0.304807789419,1.0,-0.29998,-0.394259428571,1.75
0.251256428448,-0.0711317454873,-0.130731790628,-2.21298798697,0.00144909704749,2.13635122878,-0.0541929194969,-0.651087185332,-1.01059764656,-0.0154763248384,-1.14989182998,-0.162453974994,0.156639569058,-0.569999223833,0.573781528089,0.818988203057,0.00371862596196,0.0,0.81896384963,-0.573712004984,-0.0115540138852,0.0,-0.00732932182569,0.00967508625115,-0.99992633416,0.0,0.510513914855,0.06245288706,0.304723356841,1.0,-0.29998,-0.394259428571,1.767
0.239284219487,-0.0892217502584,-0.131033718798,-2.23378254809,-0.0013851883814,2.138920119,-0.0646423786725,-0.664088918895,-1.00067376459,-0.01207974833,-1.16003146602,-0.15762085058,0.131181514714,-0.569960346692,0.573861826872,0.818932229657,0.00365428369035,0.0,0.818906037294,-0.573791180486,-0.0117187960797,0.0,-0.00750024845295,0.00971767179835,-0.999924653725,0.0,0.505075372244,0.0553032411459,0.304668898501,1.0,-0.29998,-0.394259428571,1.785
0.228532096147,-0.105245419895,-0.131206980064,-2.25168778585,-0.0039373387536,2.14096150215,-0.0741335535299,-0.68474198894,-0.994027958353,-0.0186653043277,-1.12290940776,-0.152611514506,0.117420896816,-0.59530186295,0.573729634925,0.819024348488,0.00376423890599,0.0,0.818999879288,-0.573659045056,-0.0116294734721,0.0,-0.00736557404768,0.00975527259836,-0.999925288697,0.0,0.500291998361,0.0490851847537,0.30474779765,1.0,-0.29998,-0.394259428571,1.801
0.215877581442,-0.122910712304,-0.131563854746,-2.27146511974,-0.00680019565618,2.14296404443,-0.0850948811507,-0.70959860506,-0.972180703342,-0.017609621699,-1.09323198029,-0.156976430737,0.113428144953,-0.618857739028,0.573903161718,0.818903070429,0.00369717625098,0.0,0.818877159991,-0.573832011266,-0.0117374014301,0.0,-0.00749038019893,0.00976385296393,-0.999924277823,0.0,0.494890457728,0.0418890191373,0.304700541612,1.0,-0.29998,-0.394259428571,1.819
0.204513144553,-0.138506813274,-0.131739127001,-2.2887401663,-0.00926862943824,2.14441268367,-0.0951273848978,-0.718434098525,-0.968950941523,-0.0122418335102,-1.06364825664,-0.143298242061,0.0846747481479,-0.646737442674,0.573800839622,0.818975227133,0.00359453650855,0.0,0.81894661391,-0.573728301875,-0.0119593517732,0.0,-0.00773227437796,0.00980620839093,-0.999922022065,0.0,0.490023374921,0.0356556758728,0.304634040664,1.0,-0.29998,-0.394259428571,1.835
0.192734772782,-0.154010612856,-0.132092388403,-2.30545466299,-0.0117962213229,2.1458155661,-0.105431843329,-0.749445120008,-0.950920015342,-0.0289431397898,-1.0376016783,-0.159213621905,0.076134435571,-0.661128487279,0.573907164691,0.818900062242,0.00374182813309,0.0,0.818873859691,-0.573834725133,-0.0118345700155,0.0,-0.00754428445488,0.00985621953132,-0.999922966387,0.0,0.485271692415,0.0292687549072,0.304693604986,1.0,-0.29998,-0.394259428571,1.851
0.180049951464,-0.170353673846,-0.132308747025,-2.32284958561,-0.0143712978068,2.14690263771,-0.116610433179,-0.746489481338,-0.960151753781,-0.0161423460863,-1.02072739059,-0.150624740243,0.057551781881,-0.676876918378,0.573862177841,0.818931120157,0.0038429393708,0.0,0.818905708577,-0.573788706781,-0.0118620121052,0.0,-0.00750928022572,0.00995435674094,-0.999922257724,0.0,0.480163426348,0.0226358359416,0.304742376762,1.0,-0.29998,-0.394259428571,1.868
0.166998757928,-0.186410114998,-0.132629928242,-2.33992617576,-0.0170524816584,2.14772804081,-0.128141208003,-0.78037725415,-0.950677501119,-0.0352795085214,-0.99296641968,-0.160864860615,0.0400968266689,-0.690090540978,0.573836973459,0.818949302301,0.00373028879484,0.0,0.818921692525,-0.573762951839,-0.0120034791402,0.0,-0.00769008741488,0.00994304598868,-0.999920996075,0.0,0.475015497043,0.0159164130187,0.304690609505,1.0,-0.29998,-0.394259428571,1.885
0.154460143167,-0.201378947279,-0.132852707035,-2.35540153956,-0.019497582514,2.14844048286,-0.139285732404,-0.780336036933,-0.913494853564,-0.0186406669257,-0.959987118142,-0.147585591428,0.0395018477165,-0.707953443984,0.57373556343,0.819019584224,0.00389497284918,0.0,0.818994815804,-0.573661887385,-0.0118438823932,0.0,-0.00746611790319,0.00998541135933,-0.999922271301,0.0,0.470275407585,0.00965921372507,0.30476486559,1.0,-0.29998,-0.394259428571,1.901
0.139958226211,-0.218041627424,-0.133228884266,-2.37243367555,-0.0222009287893,2.14887343711,-0.15210017421,-0.812091198953,-0.914207109614,-0.0273901384101,-0.928124417842,-0.159911583182,0.0337714064103,-0.721382031817,0.573815317643,0.818963122429,0.00401649611408,0.0,0.818939752252,-0.573740970169,-0.0118206696895,0.0,-0.0073764061996,0.010072343589,-0.999922065226,0.0,0.464893484445,0.00254289517649,0.30481795551,1.0,-0.29998,-0.394259428571,1.919
0.126864667182,-0.232633661788,-0.13344128952,-2.38728729323,-0.0246545844459,2.14905489621,-0.163780222166,-0.812849898076,-0.905679484416,-0.0155203613105,-0.916389933652,-0.157128825096,0.012485268863,-0.744102567308,0.573668744093,0.819066031235,0.00396931083997,0.0,0.819041962871,-0.573594464525,-0.0118490600201,0.0,-0.00742853086095,0.0100486609899,-0.999921917622,0.0,0.459766847153,-0.00408124801535,0.304798456899,1.0,-0.29998,-0.394259428571,1.936
0.112448468197,-0.247983449997,-0.133838313109,-2.40247945505,-0.0271351767237,2.1491324382,-0.176559362717,-0.860220952726,-0.912734201057,-0.0191970584512,-0.894548314228,-0.142702210781,-0.00538256584958,-0.765507360171,0.573818822474,0.818959592277,0.00422990459691,0.0,0.81893935404,-0.573744279885,-0.0116868560752,0.0,-0.00714431686965,0.0101703691409,-0.999922758181,0.0,0.454727258317,-0.0108465967099,0.304896409563,1.0,-0.29998,-0.394259428571,1.953
0.0995611413009,-0.261223116121,-0.134078398953,-2.4157306849,-0.0293530334936,2.14904125818,-0.188098105963,-0.866855415074,-0.89469167003,-0.0217048976887,-0.877904531157,-0.153876341027,-0.0129883382464,-0.768310847659,0.573739089385,0.819015626728,0.00419611587362,0.0,0.818994681461,-0.573664286453,-0.0117364853073,0.0,-0.00720534177617,0.0101704727892,-0.999922319249,0.0,0.450506932522,-0.0163185968752,0.304839347149,1.0,-0.29998,-0.394259428571,1.967
0.0845225789298,-0.276065746328,-0.134514929749,-2.43009106899,-0.0318361858204,2.1487576661,-0.201503845496,-0.892817335733,-0.865384999146,-0.0309596049159,-0.862154015362,-0.161449167298,-0.0226471610451,-0.788289468877,0.573876896902,0.818918105218,0.00438075903038,0.0,0.81890031986,-0.573802605484,-0.0115578100671,0.0,-0.00695134280987,0.0102203619211,-0.9999236086,0.0,0.44547153387,-0.023098006628,0.304912159639,1.0,-0.29998,-0.394259428571,1.984
0.0675005160492,-0.292293446216,-0.13480950553,-2.4458264627,-0.0344594163678,2.14810667658,-0.216910098981,-0.904133255614,-0.857711833466,-0.016835387814,-0.810606611603,-0.140337299707,-0.0449592538829,-0.81837000509,0.573756456655,0.819002319556,0.00441315198573,0.0,0.818983999332,-0.573680683763,-0.0116802746524,0.0,-0.00703456742183,0.0103161324777,-0.999922043097,0.0,0.43975816606,-0.0304868105346,0.304868626297,1.0,-0.29998,-0.394259428571,2.003
0.0518021683996,-0.306567995895,-0.135178094723,-2.45928900041,-0.0368924031595,2.14744875079,-0.231088018342,-0.922097324051,-0.798645915937,-0.00630692714168,-0.800813412945,-0.137704103824,-0.0449377400132,-0.838056452847,0.57374765208,0.819007801256,0.00453873500658,0.0,0.818992066693,-0.57367293386,-0.0114937613859,0.0,-0.00680986192456,0.0103119051081,-0.999923642282,0.0,0.434719926123,-0.0372105210827,0.304922261181,1.0,-0.29998,-0.394259428571,2.02
0.0367731288874,-0.319759634292,-0.135550099545,-2.47174329439,-0.0391023873551,2.14650326291,-0.244698534953,-0.949816070064,-0.787722537715,-0.0342288756586,-0.767319715902,-0.142541002163,-0.05801225814,-0.865403579218,0.573771563993,0.818991191135,0.00451310288905,0.0,0.818974197151,-0.573695522681,-0.0116386664532,0.0,-0.00694295205423,0.0103742504053,-0.999922082137,0.0,0.42987852001,-0.0435052387887,0.304878141018,1.0,-0.29998,-0.394259428571,2.036
0.0233749810795,-0.33112492984,-0.13580203407,-2.48210397773,-0.0409343356325,2.14572727043,-0.256913191498,-0.964160575321,-0.767047264127,-0.0142594221751,-0.738892861861,-0.126444221754,-0.0598916354818,-0.887109232219,0.573723393796,0.819023701044,0.00473195948386,0.0,0.81901030835,-0.573647897237,-0.0114434134929,0.0,-0.00665807645239,0.0104410786448,-0.999923324008,0.0,0.425455658709,-0.0493767489893,0.304957634153,1.0,-0.29998,-0.394259428571,2.051
0.00572986847035,-0.34539178404,-0.136251954459,-2.49524393569,-0.0433896147263,2.14439653641,-0.272945201244,-0.999124269729,-0.794083413761,-0.024945902208,-0.718711719445,-0.128110237287,-0.0886623495842,-0.892276625044,0.573806857498,0.818965424727,0.00469790285149,0.0,0.818951099897,-0.573730677329,-0.0115305147594,0.0,-0.00674789185004,0.0104638426082,-0.999922483972,0.0,0.420317321128,-0.0561165618943,0.304926041251,1.0,-0.29998,-0.394259428571,2.068
-0.011187550214,-0.358582739721,-0.136583146061,-2.50695436702,-0.0456176425578,2.1431044661,-0.288549597099,-1.01192155464,-0.770764417551,-0.0202267515628,-0.690509862821,-0.129077707421,-0.0700841777411,-0.929305217728,0.573675575953,0.819056474703,0.00485506984011,0.0,0.819045361809,-0.573600861531,-0.0112913175403,0.0,-0.00646347893827,0.0104542768042,-0.999924462915,0.0,0.415295611696,-0.0627828389215,0.305025028149,1.0,-0.29998,-0.394259428571,2.085
-0.0284892780268,-0.371367520156,-0.136996042199,-2.51846912559,-0.04780084182,2.14159058825,-0.304488195646,-1.00764148946,-0.732992698092,-0.0170927751408,-0.66916193548,-0.129408574007,-0.0908220762451,-0.95190717525,0.573659791137,0.81906770414,0.00482565732785,0.0,0.819055321262,-0.573583728016,-0.0114382939456,0.0,-0.00660094572971,0.010514372063,-0.999922934778,0.0,0.410155154349,-0.0694778433209,0.304969108993,1.0,-0.29998,-0.394259428571,2.102
-0.0451069963639,-0.383141192821,-0.137408522902,-2.52868992692,-0.0497715783031,2.14007912415,-0.319751469442,-1.05580503971,-0.749301655999,-0.0313804705262,-0.626291989951,-0.124986823685,-0.0817127081028,-0.954798281246,0.57376809558,0.81899103291,0.00496058558185,0.0,0.818980649923,-0.573692066512,-0.0113514216365,0.0,-0.00645098813899,0.0105759107974,-0.999923264487,0.0,0.405387520962,-0.0758073940679,0.305034273309,1.0,-0.29998,-0.394259428571,2.118
-0.06299752336,-0.395206023315,-0.13772041791,-2.53923658158,-0.0518777644074,2.13844739943,-0.336414328935,-1.05859375715,-0.696469207672,-0.0161208435294,-0.603318171265,-0.128567253609,-0.108898145452,-0.992768802859,0.57360871384,0.819102786751,0.00494115828172,0.0,0.819092256654,-0.573532931515,-0.011340126047,0.0,-0.00645493613034,0.0105522627678,-0.999923488848,0.0,0.400302702851,-0.0824488016983,0.305017618339,1.0,-0.29998,-0.394259428571,2.135
-0.0823948386644,-0.407567260376,-0.138132767309,-2.54994282213,-0.0539047611668,2.13645310793,-0.354448009523,-1.0842314555,-0.682262854883,-0.0135466466044,-0.570215808608,-0.110441274164,-0.110983880139,-1.0162031623,0.57364952521,0.819074054568,0.00496611126635,0.0,0.819062155929,-0.573570919848,-0.011590147983,0.0,-0.00664490042927,0.0107164430127,-0.999920498413,0.0,0.394857107082,-0.0895184324655,0.30496826414,1.0,-0.29998,-0.394259428571,2.153
-0.102180238883,-0.419549182407,-0.138567109653,-2.55990764215,-0.0559862467621,2.13466638069,-0.372889724889,-1.11575155697,-0.64415597416,-0.0168246257798,-0.549485837187,-0.122923363119,-0.104517332659,-1.0366293804,0.573684825034,0.81904822078,0.00514591719452,0.0,0.819040270984,-0.573608402475,-0.0112775004991,0.0,-0.00628519638694,0.0106846500268,-0.999923164328,0.0,0.389538046031,-0.0966519736816,0.305073127476,1.0,-0.29998,-0.394259428571,2.171
-0.118887419999,-0.429116255933,-0.138893322169,-2.56807122398,-0.0576838189738,2.1328612268,-0.388584677392,-1.1310764918,-0.644605629552,-0.0357400285822,-0.528705458893,-0.107872351545,-0.116089182405,-1.05144286183,0.573613600705,0.819098782975,0.00503663742147,0.0,0.819087936967,-0.573535015885,-0.0115448677017,0.0,-0.00656782561154,0.0107479490182,-0.999920669483,0.0,0.384966861942,-0.10252552516,0.304998567293,1.0,-0.29998,-0.394259428571,2.186
-0.140326471956,-0.440741700232,-0.139286694067,-2.57770053667,-0.0596398273048,2.13073021844,-0.408820247511,-1.13609377807,-0.609604433869,-0.0211981100356,-0.479064165305,-0.0965386283753,-0.107310254873,-1.08366978438,0.573551897506,0.819141396174,0.00513233295902,0.0,0.819131406148,-0.573472404637,-0.0115709758992,0.0,-0.00653513985149,0.0108408190159,-0.999919881086,0.0,0.379291003443,-0.10994297085,0.305006703346,1.0,-0.29998,-0.394259428571,2.205
-0.160060382151,-0.450675778129,-0.13972775121,-2.58566134866,-0.0614272324721,2.12890967624,-0.427338021912,-1.1606517845,-0.567861430319,-0.0256926281917,-0.467602111597,-0.104242593467,-0.116490355605,-1.09464796569,0.573682116197,0.819049368147,0.0052639334567,0.0,0.819042442058,-0.57360453559,-0.0113164375762,0.0,-0.00624942526143,0.0108036307731,-0.99992211009,0.0,0.374245180204,-0.116733923037,0.305098927368,1.0,-0.29998,-0.394259428571,2.222
-0.177601332578,-0.458976887158,-0.140073629393,-2.59250504753,-0.0629195898814,2.12709083142,-0.443995970443,-1.17455387379,-0.544166333369,-0.0200830975011,-0.440175404163,-0.09184255268,-0.125351859081,-1.1141188424,0.573649919278,0.819072232934,0.00521481060979,0.0,0.819063260689,-0.573570075492,-0.0115538041896,0.0,-0.00647246549632,0.0108993084681,-0.999919652905,0.0,0.369693573337,-0.122625358672,0.305040598634,1.0,-0.29998,-0.394259428571,2.237
-0.198912654505,-0.468405427199,-0.140481213801,-2.60017167954,-0.0646254577165,2.12513510256,-0.464338265527,-1.20419691302,-0.511043959197,-0.0336878540397,-0.414340910602,-0.0918853496358,-0.106952844403,-1.13354183093,0.573589504586,0.819114326876,0.00524848900459,0.0,0.819105332176,-0.573508794928,-0.011613089245,0.0,-0.00650251836932,0.0109604224584,-0.9999187899,0.0,0.364294524405,-0.129697229512,0.305005850229,1.0,-0.298188,-0.391904228572,2.255
-0.220382607738,-0.477146432511,-0.14068452523,-2.60697673341,-0.0661099778146,2.12326742285,-0.484722269979,-1.19240055976,-0.463300790535,-0.0081463709548,-0.363426313597,-0.0858022284181,-0.102873338903,-1.1452274107,0.573609913824,0.81909926227,0.00536770079913,0.0,0.819092832883,-0.573530598841,-0.0114162259006,0.0,-0.00627260232637,0.0109453163399,-0.999920424089,0.0,0.359052496217,-0.136684843519,0.305086140925,1.0,-0.290124,-0.381305828572,2.273
-0.237023599767,-0.483382167964,-0.140836316852,-2.61195030632,-0.0671629682924,2.12180993474,-0.500558452287,-1.1756873948,-0.445590970972,-0.00872908850342,-0.350262053206,-0.0837986833604,-0.0999095052187,-1.13954254757,0.573647567266,0.819072648704,0.00540477711093,0.0,0.819066072357,-0.573567045158,-0.0115048130931,0.0,-0.00632339744078,0.0110267899028,-0.999919209011,0.0,0.354984992883,-0.142013764682,0.305064239077,1.0,-0.283852,-0.373062628572,2.287
-0.259418655588,-0.491041109661,-0.140919653256,-2.6181322094,-0.0684229063999,2.11986256387,-0.521859914286,-1.17670586352,-0.387039406221,0.00643040158473,-0.304601842433,-0.0779893147959,-0.101310340496,-1.12787345128,0.573712296772,0.819027347714,0.00539917873571,0.0,0.819018696159,-0.573628331736,-0.0118177524064,0.0,-0.00658206724366,0.0112022338819,-0.999915589611,0.0,0.349557112777,-0.14905154359,0.304977010936,1.0,-0.27534,-0.361875428572,2.306
-0.279210901859,-0.497259145415,-0.140918758807,-2.62292824682,-0.069317393691,2.11843677476,-0.540644471607,-1.16935279162,-0.339446112343,-0.00631214867678,-0.26688865358,-0.0527243791663,-0.0885117515772,-1.09507041236,0.573877779371,0.818910197412,0.00557941032376,0.0,0.81890426172,-0.57379380839,-0.0117142003876,0.0,-0.00639157011122,0.0112917395985,-0.999915818681,0.0,0.344917442385,-0.155207279415,0.305009464774,1.0,-0.267724,-0.351865828572,2.323
-0.297332693273,-0.502484271425,-0.140757128851,-2.6269589013,-0.0701227919229,2.11708186798,-0.558033044586,-1.1254905051,-0.314742051199,0.0138767322621,-0.239840845856,-0.0493168778216,-0.0875953864884,-1.0769726832,0.573783465681,0.818976198825,0.00559170555785,0.0,0.818970268778,-0.57369919829,-0.0117335263646,0.0,-0.00640164507676,0.0113121618199,-0.999915523399,0.0,0.340687640949,-0.160739813618,0.305018139971,1.0,-0.260556,-0.342445028572,2.339
-0.314213873089,-0.506899968612,-0.1406611886,-2.63026052151,-0.0707772406469,2.11601883455,-0.574121708033,-1.10834002555,-0.281330427815,0.0136742229678,-0.21012826157,-0.0464084358211,-0.0619549027999,-1.07125416141,0.573890562791,0.818900456736,0.00569304826939,0.0,0.818896708887,-0.573807494435,-0.0115709293262,0.0,-0.00620884508644,0.011302683246,-0.99991684634,0.0,0.336829752985,-0.165897665124,0.30507262181,1.0,-0.253836,-0.333613028572,2.354
-0.331882990042,-0.511098345553,-0.140539017889,-2.63343870064,-0.0712964095769,2.11493472563,-0.591031695557,-1.10656452218,-0.250046146565,-0.00033612855621,-0.195316480308,-0.0333942448189,-0.0717108582096,-1.04362984879,0.574016496252,0.818811059784,0.00585297425206,0.0,0.818809394895,-0.573932913762,-0.0115296241569,0.0,-0.00608148629563,0.0114108844622,-0.999916400126,0.0,0.332799079485,-0.171228534244,0.305095884407,1.0,-0.246668,-0.324192228572,2.37
-0.350075532668,-0.514990501226,-0.140199409596,-2.63649052483,-0.0718164449757,2.11378128205,-0.608634888609,-1.06086690629,-0.225083858391,0.0244708291271,-0.181368107597,-0.0282567781625,-0.0593055479525,-1.03147436513,0.573855795476,0.818923781898,0.00584057714228,0.0,0.818920955046,-0.573770422141,-0.0116926884415,0.0,-0.00622439006538,0.0114931093162,-0.999914579055,0.0,0.328641831986,-0.176596532532,0.305057969551,1.0,-0.239052,-0.314182628572,2.387
-0.366947238339,-0.518089876133,-0.139967236665,-2.63898231739,-0.0722223935549,2.11289879996,-0.6248501177,-1.03856529315,-0.183282008454,0.0168672748522,-0.14528878646,-0.0120009115835,-0.0551034782383,-1.00459556714,0.573908829821,0.818886312324,0.00588297913081,0.0,0.818883037755,-0.573821453105,-0.0118430289398,0.0,-0.0063224363883,0.0116145143174,-0.999912561105,0.0,0.32482247435,-0.181580912977,0.304998662312,1.0,-0.231884,-0.304761828572,2.403
-0.386447785669,-0.521223975963,-0.139669986117,-2.64143249828,-0.0726104848536,2.11201231545,-0.643611153256,-1.02043199799,-0.153765496543,0.0179958505548,-0.120321212721,-0.0271543310507,-0.0530470393327,-0.969497262733,0.573993334669,0.818826559535,0.00595517058404,0.0,0.81882375524,-0.573904799108,-0.0119032061467,0.0,-0.00632908221329,0.0117088215612,-0.999911419185,0.0,0.320460957921,-0.187319358249,0.304969545733,1.0,-0.223372,-0.293574628572,2.422
-0.404256754778,-0.523694737546,-0.139264029364,-2.64332527487,-0.0728600366029,2.11125235367,-0.660924747467,-0.991927978814,-0.130143375549,0.0174952611648,-0.100008723785,-0.00648985806467,-0.0435140211157,-0.934261066853,0.573892890335,0.818896612603,0.00600293186579,0.0,0.818894082828,-0.573803542215,-0.0119466711742,0.0,-0.00633870702791,0.011772101684,-0.999910615213,0.0,0.316514775612,-0.19249448454,0.304961507358,1.0,-0.215308,-0.282976228572,2.44
-0.418826547715,-0.525447432676,-0.138979110395,-2.64460816769,-0.0730773803024,2.11072788966,-0.674993233924,-0.944786279753,-0.105234985523,0.0281792829922,-0.0839816826161,-0.0106212171711,-0.0309362726414,-0.925234947186,0.57393274909,0.818868463053,0.0060321339666,0.0,0.818866638957,-0.57384388408,-0.0118899625064,0.0,-0.00627493295057,0.011763778624,-0.999911115414,0.0,0.313301055699,-0.196743392501,0.30498302364,1.0,-0.208588,-0.274144228572,2.455
-0.43576600562,-0.527153067366,-0.138651038675,-2.64586226458,-0.0732444367928,2.1102311915,-0.691329112085,-0.936902739363,-0.0851967243196,0.0122829454625,-0.0627512404675,-0.0165082514551,-0.0213438060143,-0.898430031114,0.574049320917,0.818786215661,0.00610385938941,0.0,0.81878573787,-0.573960935408,-0.0118113076438,0.0,-0.00616767778983,0.0117782529139,-0.999911612348,0.0,0.309576102221,-0.201665570609,0.305003074201,1.0,-0.200524,-0.263545828572,2.473
-0.449315653828,-0.528236564675,-0.138280448067,-2.64667729166,-0.0732991747077,2.10987487492,-0.704527683785,-0.885379745316,-0.0658064807147,0.0218427918336,-0.0467259513756,-0.000596340216864,-0.0119426599126,-0.869899003472,0.574003453429,0.818818098497,0.00614035228733,0.0,0.818818153604,-0.573915049807,-0.0117938049593,0.0,-0.00613305844238,0.0117977438412,-0.99991159551,0.0,0.306616499836,-0.20555724292,0.305007821989,1.0,-0.193804,-0.254713828572,2.488
-0.464368403169,-0.529161360901,-0.137916503559,-2.64737580242,-0.0733276802143,2.10953913393,-0.719007414456,-0.87870629735,-0.0508123909084,0.0250185046239,-0.0374676485013,6.26148676442e-05,-0.0243875433515,-0.839232621748,0.574162308943,0.818706275603,0.00619872387718,0.0,0.818707050466,-0.574073572636,-0.0117917606647,0.0,-0.00609558225348,0.0118455515355,-0.999911259455,0.0,0.303324693901,-0.209886156232,0.305008849293,1.0,-0.186188,-0.244704228572,2.505
-0.480299233879,-0.529812936432,-0.137375078477,-2.64785781011,-0.0733305441587,2.10928114361,-0.734625231286,-0.822150233312,-0.0246806666474,0.0287416099767,-0.0225631976245,-0.000817379277534,-0.0125501576407,-0.806377699905,0.574006974654,0.818815370386,0.00617488211854,0.0,0.818816100325,-0.573918876244,-0.0117500740929,0.0,-0.00607737687234,0.011800944583,-0.999911897718,0.0,0.299881694062,-0.214432202366,0.305019645618,1.0,-0.177676,-0.233517028572,2.524
-0.494153954761,-0.530113538145,-0.136965902124,-2.64811404054,-0.0733362204327,2.10908298313,-0.748049347167,-0.783046691729,-0.0139488135474,0.0344273090468,-0.00435657169158,-0.000327378242177,-0.014842108209,-0.788042110917,0.57405375912,0.818782759363,0.00614991967395,0.0,0.818782914546,-0.573965261646,-0.0117967865141,0.0,-0.00612928316655,0.011807666133,-0.999911501538,0.0,0.296861311564,-0.218391325678,0.305006552211,1.0,-0.17006,-0.223507428572,2.541
-0.504970097661,-0.53021633982,-0.136527759572,-2.64821092026,-0.0733102108201,2.10898051538,-0.75867308696,-0.768830514825,-0.00402132344503,0.029704437102,-0.00525102737641,-0.00140474026372,-0.00797106655752,-0.739649672209,0.573914000716,0.81888128152,0.00607564485525,0.0,0.818880437483,-0.573825752242,-0.0118144857103,0.0,-0.00618841886576,0.011755951816,-0.99991174664,0.0,0.294354571804,-0.221663816709,0.304999215898,1.0,-0.16334,-0.214675428572,2.556
-0.518587156596,-0.530204244997,-0.136056181246,-2.64824436661,-0.0732721986536,2.10889519729,-0.771791131056,-0.737724197765,0.00400269019738,0.0287880648679,-6.14880939829e-05,0.0103059197733,-0.00574578204934,-0.716790242017,0.573998634916,0.818822267628,0.00603390857905,0.0,0.818820827238,-0.573910427298,-0.0118330562779,0.0,-0.00622636680044,0.0117330740626,-0.999911779773,0.0,0.291548710073,-0.225302963464,0.30498799724,1.0,-0.155724,-0.204665828572,2.573
-0.530610991841,-0.530018537402,-0.135509299621,-2.64816907303,-0.0731450899481,2.10889202067,-0.783598170786,-0.691001378168,0.00429742565621,0.0317369682256,0.0051343739313,0.00323186438914,-0.00200287764668,-0.672563510747,0.57384950392,0.818927124359,0.00598821685405,0.0,0.818925010987,-0.573761354409,-0.0118524878638,0.0,-0.00627063711934,0.0117056702043,-0.99991182431,0.0,0.288946640745,-0.22866278034,0.304968422216,1.0,-0.148108,-0.194656228572,2.59
-0.543636276685,-0.52970047263,-0.135032860405,-2.6479655397,-0.0729665893359,2.10890110403,-0.796152438381,-0.665804538488,0.0241425524017,0.0254738236877,0.0116836340712,0.0147436821266,0.00126322142947,-0.637895936176,0.573982284662,0.818833822849,0.00602115879105,0.0,0.818832063232,-0.57389384107,-0.0118599454747,0.0,-0.00625593899177,0.0117379424672,-0.999911538054,0.0,0.286236411557,-0.232138408935,0.304959139841,1.0,-0.140044,-0.184057828572,2.608
-0.553801799721,-0.529232757207,-0.134484749822,-2.64767233842,-0.07271868232,2.10894176886,-0.806205595229,-0.631697783644,0.0291596038955,0.0302216592355,0.0183267884215,0.0141496176113,0.0011434231537,-0.625550180016,0.573815441156,0.81895071676,0.00602577056864,0.0,0.81894862859,-0.573726286292,-0.0119180136555,0.0,-0.00630324421212,0.0117737634883,-0.999910819826,0.0,0.283914383141,-0.235128757796,0.304938311923,1.0,-0.132428,-0.174048228572,2.625
-0.562438821872,-0.528760337518,-0.134084690488,-2.64736635071,-0.0725333820905,2.10899304394,-0.814580228516,-0.603734584949,0.0355001033455,0.0237303048052,0.021296110105,0.0159427391122,0.00604123437864,-0.593511348358,0.573844830573,0.818930044462,0.00603652240143,0.0,0.818927762634,-0.57375500379,-0.0119692152541,0.0,-0.00633858708433,0.0118121755049,-0.999910143375,0.0,0.282040114717,-0.237531899363,0.304919621926,1.0,-0.126156,-0.165805028572,2.639
-0.572395022478,-0.528068117175,-0.133598596829,-2.64688684487,-0.0722775533789,2.10912835932,-0.82424443894,-0.556023640549,0.0417124483213,0.0370355820348,0.0289698112949,0.0214803130297,0.00306579980292,-0.555888824762,0.573876742029,0.81890749716,0.00606159670345,0.0,0.818905482722,-0.573786695476,-0.0119743627965,0.0,-0.00632795375871,0.011835910962,-0.99990993005,0.0,0.279787117136,-0.240463142715,0.304908778896,1.0,-0.118092,-0.155206628572,2.657
-0.581588420328,-0.527267988153,-0.133056125618,-2.64636853506,-0.0719715888794,2.10924257164,-0.83327204505,-0.538212861763,0.0457904386582,0.0270563796988,0.0307841817764,0.0185696796826,0.0141800293525,-0.512426647693,0.573790506607,0.818967802438,0.00607782844893,0.0,0.818965374616,-0.573699244214,-0.0120681096238,0.0,-0.00639667078628,0.011902326944,-0.999908704441,0.0,0.277943391707,-0.242846330803,0.30487561309,1.0,-0.110924,-0.145785828572,2.673
-0.590431006168,-0.526480012906,-0.132573022716,-2.64580456361,-0.0716916299487,2.10936211506,-0.841739468759,-0.506090063185,0.0475016745333,0.0332754045763,0.0366646058046,0.0190696005469,0.00592654291133,-0.486495884315,0.573907812385,0.818885444498,0.00609906332007,0.0,0.818883035773,-0.573815953502,-0.0121066977714,0.0,-0.00641438224816,0.0119427778556,-0.999908108657,0.0,0.276044658313,-0.245296832682,0.304866306645,1.0,-0.103308,-0.135776228572,2.69
-0.598106548902,-0.525652221623,-0.132088935966,-2.64521235808,-0.0713987733016,2.10950359058,-0.849229019369,-0.454495032863,0.054140841551,0.0329792355789,0.033579751764,0.0192775985517,0.0133020926873,-0.453470332387,0.573876308921,0.818907397881,0.00611577119143,0.0,0.818904964902,-0.573783932229,-0.0121410244788,0.0,-0.00643336738294,0.0119759122807,-0.999907590385,0.0,0.274424159161,-0.247420055328,0.304856914447,1.0,-0.0961400000001,-0.126355428572,2.706
-0.605581176352,-0.524784776709,-0.131519775839,-2.64458546045,-0.071059414597,2.10965450069,-0.856603935607,-0.432177663109,0.0499408548055,0.0318607143154,0.0395649488266,0.020338617598,0.00485563579324,-0.419615303745,0.573735407608,0.819006053732,0.00612477830774,0.0,0.819003529888,-0.573642633018,-0.0121694090165,0.0,-0.00645350994978,0.0119984669039,-0.999907190194,0.0,0.272868182671,-0.249463021703,0.304851453431,1.0,-0.0885240000001,-0.116345828572,2.723
-0.6130715883,-0.523934002914,-0.13095005587,-2.64391848578,-0.0707418129764,2.10982607095,-0.863752185998,-0.404583980237,0.0494825101601,0.0336325264886,0.0398312895681,0.020062110717,0.00872055130486,-0.38614407374,0.573784912627,0.81897150106,0.00610748676716,0.0,0.818969067132,-0.573692791412,-0.0121241521015,0.0,-0.00642563762713,0.011958728537,-0.99990784575,0.0,0.271304716496,-0.251515708014,0.30487176763,1.0,-0.0804600000001,-0.105747428572,2.741
-0.619892643358,-0.523048234276,-0.130442843601,-2.64323977513,-0.0703802564187,2.11000429141,-0.870252022857,-0.368945718884,0.0525251999854,0.026215789009,0.0460426532821,0.0202881815292,0.00256416250288,-0.359555709912,0.573880576324,0.818904153903,0.0061496129212,0.0,0.818902407809,-0.573788508348,-0.0120971514821,0.0,-0.00637795316949,0.0119784837156,-0.999907914581,0.0,0.269889356203,-0.253390622118,0.304883328187,1.0,-0.0723960000001,-0.0951490285715,2.759
-0.625272090892,-0.522324525758,-0.129915520983,-2.64270287451,-0.0700454257438,2.11014758452,-0.875464557312,-0.326761694555,0.0448961377454,0.0341918895195,0.0312630573508,0.0243260470361,0.010108525101,-0.318779078599,0.573816257715,0.818949124763,0.00616281862453,0.0,0.818947554098,-0.573724151613,-0.0120933201974,0.0,-0.00636817871137,0.0119865997571,-0.99990787962,0.0,0.268795817732,-0.254830724066,0.304887140971,1.0,-0.0652280000001,-0.0857282285715,2.775
-0.630218987697,-0.521705193199,-0.129395611551,-2.64222141833,-0.0697350320384,2.11028407982,-0.880215472659,-0.304038801416,0.0391878077786,0.0358649905246,0.0311571135582,0.0191699693612,0.0134315566325,-0.28591894027,0.573767119588,0.818983573463,0.00616001450373,0.0,0.818982228394,-0.573675530282,-0.0120516567629,0.0,-0.00633638132985,0.0119600170597,-0.999908399937,0.0,0.267790229461,-0.256141191985,0.304903094262,1.0,-0.0580600000001,-0.0763074285715,2.791
-0.634749097117,-0.52107748754,-0.128911092575,-2.64174240894,-0.0694276727854,2.11041484559,-0.884453688751,-0.276283979646,0.0383300195889,0.0306134017711,0.0283587361399,0.0195328566797,0.00431034224381,-0.251362519494,0.573819994669,0.818946471695,0.00616742384596,0.0,0.818945359397,-0.573728619806,-0.0120297979852,0.0,-0.00631345459784,0.0119539519044,-0.999908617487,0.0,0.266876132904,-0.2573430296,0.304913323476,1.0,-0.0508920000001,-0.0668866285715,2.807
-0.639353095457,-0.520340742305,-0.128367064589,-2.64121409982,-0.0690331370429,2.11056122958,-0.888791724483,-0.233491182081,0.0355541927564,0.035188734924,0.024113861229,0.0250452701001,0.00545099165376,-0.22234668326,0.573849273719,0.818925593826,0.00621528195681,0.0,0.818924958243,-0.573757407371,-0.0120456280723,0.0,-0.0062985303267,0.0120024555222,-0.999908130569,0.0,0.265969685277,-0.258552215264,0.304908515448,1.0,-0.0423800000001,-0.0556994285715,2.826
-0.64294884308,-0.519838145769,-0.127888726576,-2.64084591273,-0.0687345225085,2.11064178308,-0.89205587587,-0.201932749101,0.0272569086622,0.0291109731595,0.020274320573,0.0151634439906,0.00674660517073,-0.175577070643,0.573929005878,0.818869645025,0.00622475456463,0.0,0.818869009919,-0.573836846736,-0.0120650248334,0.0,-0.00630781051635,0.0120219577758,-0.999907837782,0.0,0.265254832561,-0.259468794004,0.304909597522,1.0,-0.0347640000001,-0.0456898285715,2.843
-0.645792988077,-0.519412239921,-0.127384630875,-2.64055994689,-0.0684384202855,2.11074052238,-0.894608450267,-0.163454402328,0.0350910066665,0.0334876443069,0.0174481678254,0.0215036459622,0.00333604471987,-0.145313858003,0.573952192532,0.818853440786,0.00621852891991,0.0,0.818852663582,-0.573859939662,-0.0120760878069,0.0,-0.00632010310272,0.0120233875311,-0.999907742969,0.0,0.2647236353,-0.260161866228,0.304903586677,1.0,-0.0275960000001,-0.0362690285715,2.859
-0.64792949384,-0.519092406496,-0.126873232171,-2.64035266287,-0.0681592518061,2.11080720421,-0.896572355896,-0.13336127084,0.0153599555303,0.0316147432821,0.0149399297773,0.012901411561,0.00405076684511,-0.125764936712,0.573861227983,0.818917341659,0.00619882638799,0.0,0.818916190048,-0.573768858463,-0.0120961826912,0.0,-0.00634920247508,0.0120180809268,-0.999907622413,0.0,0.264354542202,-0.26064405061,0.304898192091,1.0,-0.0208760000001,-0.0274370285715,2.874
-0.649872374433,-0.518780856283,-0.126387364759,-2.6401732579,-0.067891293007,2.11084543615,-0.898278574783,-0.108080606565,0.0164178860013,0.027298792702,0.00867624240263,0.0140533912762,0.00165398522977,-0.100552811309,0.573834626387,0.818936075276,0.00618652341253,0.0,0.81893432635,-0.573741493981,-0.0121661049897,0.0,-0.00641392057427,0.0120479206545,-0.999906850277,0.0,0.264017893218,-0.26107026328,0.30488005112,1.0,-0.01968,-0.0258651428571,2.891
-0.65154471898,-0.518533836193,-0.126036864492,-2.6399864746,-0.0677068037121,2.11089538182,-0.899953910885,-0.0973367385472,0.01198967157,0.0160709065229,0.0132407757617,0.00860439750354,0.00779096883419,-0.0899868032922,0.57367211512,0.819050081077,0.00616570537395,0.0,0.819048114209,-0.573579212534,-0.012158143811,0.0,-0.00642173187927,0.0120250289544,-0.999907075702,0.0,0.263719231536,-0.261467276494,0.304886674374,1.0,-0.01934,-0.0254182857143,2.908
-0.653138493275,-0.518270193011,-0.125849701197,-2.63977047831,-0.067583302927,2.11099156805,-0.901451410874,-0.0912661423569,0.015147420626,0.00792229417392,0.0140312200965,0.00127646414346,0.00697579528366,-0.0873144161245,0.573682125689,0.819043089288,0.00616307191566,0.0,0.819041491366,-0.573589989617,-0.0120957072353,0.0,-0.00637195174484,0.0119871334411,-0.999907849186,0.0,0.263412929615,-0.26189872688,0.304900430926,1.0,-0.019,-0.0249714285714,2.925
-0.654656468204,-0.517987882864,-0.125743289715,-2.63955617273,-0.0675312765109,2.11104326673,-0.902941463808,-0.0877362720656,0.0159649836209,4.48207325626e-05,0.0147883343741,0.000940539479223,0.00287905416538,-0.0823793974525,0.57366297373,0.819056631363,0.0061460631751,0.0,0.819054780588,-0.573570858161,-0.0121030560386,0.0,-0.00638800856745,0.0119772681432,-0.999907864953,0.0,0.263093871859,-0.262327625683,0.304900757032,1.0,-0.01866,-0.0245245714286,2.942
-0.656308758373,-0.517726361362,-0.125724255753,-2.63935690061,-0.0674820721066,2.11105804645,-0.904441422766,-0.0869689720112,0.0162155970763,0.00447609184367,0.00958137168037,0.000972978269535,-0.000229048694003,-0.0812577290837,0.573805736109,0.818956398929,0.00617582081704,0.0,0.818954688652,-0.57371299312,-0.0121394547616,0.0,-0.00639865870461,0.0120236376821,-0.99990724035,0.0,0.262710606924,-0.262801957271,0.30489666518,1.0,-0.01828,-0.0240251428571,2.961
-0.65762368649,-0.517512260961,-0.125715274108,-2.63916276531,-0.0674483275588,2.11110536663,-0.905801950302,-0.0847564372254,0.0134035820054,-0.000640212176209,0.0150412500878,0.00484002674835,0.000398813569859,-0.0799011001201,0.573781349859,0.81897341406,0.00618518528501,0.0,0.818972012478,-0.57368892162,-0.0121082983499,0.0,-0.00636812476802,0.0120132407042,-0.999907560245,0.0,0.262436384843,-0.263168157134,0.304908262044,1.0,-0.01798,-0.0236308571429,2.976
-0.658809381603,-0.517287448725,-0.125706377296,-2.63897217006,-0.0674144089474,2.11118904804,-0.907013011005,-0.0783780187078,0.0150505929513,0.000151310852229,0.0167447500822,-0.000103048498668,0.00239125806003,-0.0746307634181,0.573783685354,0.818971663373,0.00620031567965,0.0,0.818970836895,-0.573691905809,-0.0120462618942,0.0,-0.00630859768213,0.0119900571113,-0.999908215851,0.0,0.262160926871,-0.263558011074,0.304921313295,1.0,-0.01766,-0.0232102857143,2.992
-0.660149898946,-0.517047721976,-0.125699289322,-2.63879081609,-0.0673855882716,2.11121957201,-0.908337972902,-0.0812378396706,0.0117912180748,0.00051427652235,0.00935390857924,0.00275548760838,0.00122160692183,-0.0776714400316,0.573813243075,0.818950830827,0.00621656338315,0.0,0.818950080143,-0.573721127914,-0.0120656752611,0.0,-0.00631474260201,0.0120147306531,-0.999907880894,0.0,0.261852187749,-0.263951982085,0.304918108257,1.0,-0.01732,-0.0227634285714,3.009
-0.661471323237,-0.516833648365,-0.12568932853,-2.63861265373,-0.0673575976151,2.11122609826,-0.9096837155,-0.0787066084628,0.006849415631,0.000204585881387,0.00873764632125,0.000148960014894,-8.83772122249e-05,-0.0807284235424,0.573807492701,0.818954733488,0.00623319500121,0.0,0.818954051047,-0.573715022798,-0.0120864300209,0.0,-0.00632228318792,0.0120402162147,-0.999907526689,0.0,0.261544563058,-0.264336269329,0.30492091636,1.0,-0.01698,-0.0223165714286,3.026
-0.662716408934,-0.516587655939,-0.12565631831,-2.63841736511,-0.0673321680674,2.1112883371,-0.910893604471,-0.0756253076949,0.0183368868395,0.00122344439369,0.00869455124541,0.000184862943827,0.00180644950892,-0.0681247804226,0.573833920301,0.818936265933,0.00622664864655,0.0,0.818935620352,-0.57374170632,-0.0120685976334,0.0,-0.00631104576899,0.0120248265797,-0.999907782872,0.0,0.261273350941,-0.264707363693,0.304925014366,1.0,-0.01664,-0.0218697142857,3.043
-0.66387488766,-0.516345414049,-0.125606401878,-2.63824043304,-0.0672987610295,2.11136541318,-0.912110366637,-0.0768215619917,0.0177176833625,0.00329381969127,0.0115833952714,0.00119076514086,0.00176229364439,-0.0809179339336,0.573774299731,0.818978093951,0.00621944507499,0.0,0.818977472553,-0.573682355032,-0.0120499741309,0.0,-0.00630080025817,0.0120077820639,-0.999908052316,0.0,0.261027314151,-0.265048540646,0.304923809319,1.0,-0.01632,-0.0214491428571,3.059
-0.665093148701,-0.516129446549,-0.125538728333,-2.63806062212,-0.067275447363,2.11137694746,-0.913350636041,-0.0699780597016,0.0133004442325,0.0068570901709,0.0116328697685,0.00100088696223,0.0039203819346,-0.0736168802878,0.573727507294,0.819011009122,0.00620171036727,0.0,0.819010051205,-0.57363544961,-0.0120687148284,0.0,-0.00632701121015,0.0120036479076,-0.999907936445,0.0,0.260759011714,-0.265394108691,0.30492841001,1.0,-0.01598,-0.0210022857143,3.076
-0.666355681735,-0.515884257289,-0.125500464386,-2.63787509754,-0.0672406488609,2.11142589111,-0.914620390477,-0.0695401791591,0.0140117672319,9.47289779038e-05,0.00781100897681,0.000317553507481,0.00108809553544,-0.0718020046645,0.573718984922,0.819016958345,0.00620444882068,0.0,0.819016013109,-0.573626873417,-0.0120717548546,0.0,-0.00632805519927,0.012007569061,-0.999907882759,0.0,0.260479476595,-0.265762466818,0.304927310354,1.0,-0.01562,-0.0205291428571,3.094
-0.667377332445,-0.51567827116,-0.125491550827,-2.63771843802,-0.0672216383154,2.11148550129,-0.915686109518,-0.0657521628445,0.0132379345995,0.000813970335502,0.0131473409847,0.00251693363691,0.00646220131744,-0.0750478685314,0.573684912675,0.81904082647,0.00620422801577,0.0,0.819040015437,-0.573593069765,-0.0120494950731,0.0,-0.0063104477058,0.0119943554671,-0.999908152625,0.0,0.260237170235,-0.266092325363,0.304929821898,1.0,-0.0153,-0.0201085714286,3.11
-0.668472788644,-0.515466149854,-0.125487312572,-2.63754413778,-0.067194011082,2.11151560919,-0.916729737619,-0.0691067425067,0.0143567566981,-0.00081935132458,0.0125060369984,0.000465414453071,0.000167221785777,-0.0638028231941,0.573756552477,0.818990533544,0.00621862971137,0.0,0.818989882594,-0.573664579076,-0.0120527931514,0.0,-0.0063038372664,0.0120085950662,-0.99990802341,0.0,0.259989329254,-0.266417599091,0.304932861712,1.0,-0.01498,-0.019688,3.126
-0.669892979213,-0.515197375709,-0.125478438542,-2.63732303841,-0.0671634142609,2.11157347528,-0.918129552174,-0.0604914067289,0.00833041287375,0.00290657684313,0.0066950673817,0.000279255311133,0.00175004165788,-0.0720268344728,0.573788039187,0.818968389876,0.00622971678148,0.0,0.818967967423,-0.573696171142,-0.0120382080586,0.0,-0.00628506821292,0.0120095495084,-0.999908130099,0.0,0.259681574799,-0.266823256308,0.304937682471,1.0,-0.01458,-0.0191622857143,3.146
-0.670814479141,-0.515038169009,-0.125459975199,-2.63718128251,-0.0671425915818,2.11161445954,-0.919093280394,-0.0632888060366,0.00687254656766,0.00211096160238,0.0147876770613,0.00185759111212,0.000654795864646,-0.0689999080636,0.573756495451,0.818990486828,0.00623003334005,0.0,0.81899024621,-0.57366497278,-0.0120092680605,0.0,-0.00626164494495,0.0119929629961,-0.999908476132,0.0,0.259476300617,-0.267096587084,0.30494722898,1.0,-0.0143,-0.0187942857143,3.16
-0.671951897356,-0.514820928481,-0.125425966781,-2.63700255456,-0.0671142325418,2.1116516116,-0.920202480873,-0.0656247111433,0.00674781110837,0.00323165503681,0.00721236882532,0.00670461037219,0.000459005094551,-0.0589648338098,0.573785812313,0.818969958398,0.00622862193958,0.0,0.818969721945,-0.573694332596,-0.0120064226948,0.0,-0.00625969490679,0.0119903986292,-0.999908519096,0.0,0.25920807687,-0.2674491273,0.304952330092,1.0,-0.01392,-0.0182948571429,3.179
-0.672934954863,-0.51462099889,-0.125384119679,-2.63683714348,-0.0670891042509,2.11168143724,-0.92120303704,-0.0581012808813,0.00843266366331,0.00107716045801,0.00865902112089,0.00179537753485,0.0058953673418,-0.0680032166456,0.573752004065,0.818993699025,0.00622138978207,0.0,0.818993387783,-0.573660599658,-0.0120039188812,0.0,-0.00626228830268,0.0119827803147,-0.999908594183,0.0,0.259009549695,-0.267717133196,0.304957003254,1.0,-0.01362,-0.0179005714286,3.194
-0.673902490733,-0.514425066581,-0.125347097025,-2.63667390919,-0.0670644698249,2.11173066998,-0.922212187742,-0.0670430391441,0.0148634825371,0.00388618089817,0.00814443003313,0.00229859584951,-0.000317232224499,-0.0539555108612,0.573710534434,0.819022807148,0.00621377118392,0.0,0.819022535712,-0.573619437327,-0.0119822375581,0.0,-0.0062495062329,0.0119637848845,-0.999908901612,0.0,0.258800822947,-0.268003695413,0.304963851813,1.0,-0.0133,-0.01748,3.21
-0.675057354884,-0.514180318449,-0.125307672745,-2.63646726763,-0.0670376937581,2.11179057075,-0.923330920933,-0.0554296066063,0.0113436572002,0.00394248218665,0.0100767141446,0.00471568040575,0.000253269013603,-0.0555998355904,0.573734160167,0.819006344585,0.00620224860116,0.0,0.819006106792,-0.573643458074,-0.0119552058783,0.0,-0.00623363014641,0.0119390193475,-0.999909296723,0.0,0.258552545028,-0.268349886916,0.304973333694,1.0,-0.0129,-0.0169542857143,3.23
-0.67590430783,-0.514001685261,-0.125310820554,-2.636325853,-0.0670169395142,2.11181071479,-0.924172633163,-0.0529260685859,0.0134342709032,-0.000844079316962,0.0114744804681,0.00144773404104,0.0041438201667,-0.0590427179485,0.573756901088,0.818990311691,0.00621568266075,0.0,0.818990164773,-0.573665976936,-0.0119667795174,0.0,-0.00623507086544,0.0119568355046,-0.999909074854,0.0,0.258357143414,-0.268604313086,0.304973207119,1.0,-0.0126,-0.01656,3.245
-0.676926025769,-0.513785522368,-0.125310347648,-2.63616484719,-0.0669955011221,2.11184678651,-0.925232068586,-0.0579790777855,0.0143032708819,-0.00105517934864,0.00398945559523,0.00390212079273,0.000390741257528,-0.0598053704278,0.573741793058,0.81900082866,0.00622450428127,0.0,0.819000702628,-0.57365065472,-0.0119800807806,0.0,-0.00624112529149,0.0119715768979,-0.999908860698,0.0,0.2581588108,-0.268858015079,0.304969643359,1.0,-0.0123,-0.0161657142857,3.26
-0.677926718501,-0.513586148526,-0.125292821894,-2.63599586992,-0.0669702320249,2.11190117308,-0.926183260937,-0.0529365894946,0.00939291494229,0.000168344652873,0.00753867077913,0.00399843098345,0.00534642959415,-0.0497979915757,0.573790785183,0.818966481983,0.00622761026549,0.0,0.818966584885,-0.573699985476,-0.011950163514,0.0,-0.00621412309448,0.0119573286325,-0.999909199361,0.0,0.257900122032,-0.269210417151,0.304977655696,1.0,-0.01188,-0.0156137142857,3.281
-0.678668488245,-0.513437652639,-0.125285644167,-2.63586316304,-0.066959068957,2.11193555557,-0.9269136727,-0.0501041183066,0.0082119446552,0.00116636100923,0.0106163484511,-0.000174008859628,0.0059660330885,-0.0543829898678,0.573806527883,0.818955478688,0.00622409737653,0.0,0.818955677266,-0.573716011679,-0.0119282655307,0.0,-0.00619797341464,0.0119420064308,-0.999909482707,0.0,0.257734600972,-0.269436315846,0.304986137537,1.0,-0.0116,-0.0152457142857,3.295
-0.67958386365,-0.513234673799,-0.125269770281,-2.63570581651,-0.0669354780903,2.11196719839,-0.927844480596,-0.051741131834,0.0126468638956,0.00189881035855,0.00676396966287,-0.000363699721836,0.000498465978854,-0.0556877635975,0.57380084477,0.818959423935,0.00622891564156,0.0,0.818959626462,-0.573710196595,-0.0119368107027,0.0,-0.00620229061272,0.0119508125823,-0.999909350726,0.0,0.257529054786,-0.269708882306,0.304985634101,1.0,-0.01124,-0.0147725714286,3.313
-0.680330832164,-0.513072041924,-0.125246006041,-2.63557707269,-0.0669210567952,2.11199468872,-0.928619547037,-0.0581868268349,0.00221738015166,0.000101448969308,0.0125026458138,-0.000106248386248,0.00439850841889,-0.0447797655694,0.573773749867,0.818978450794,0.00622318244098,0.0,0.818978564236,-0.573683103421,-0.0119396429335,0.0,-0.00620829518571,0.0119475367456,-0.99990935261,0.0,0.257363518972,-0.269929743915,0.304986875614,1.0,-0.01094,-0.0143782857143,3.328
-0.681160026872,-0.512873202187,-0.125224846921,-2.63543626906,-0.0668992614502,2.11203353347,-0.929434637433,-0.0507296940172,0.0149968095304,0.000207703133874,0.00827804259527,0.000919983045564,-0.00022215146809,-0.0481199854568,0.573786934337,0.818969206049,0.00622418101924,0.0,0.818969241764,-0.573696106415,-0.0119543058948,0.0,-0.00621953973659,0.0119568675482,-0.999909171197,0.0,0.257179312334,-0.270175677547,0.304981104453,1.0,-0.0106,-0.0139314285714,3.345
-0.682016953509,-0.51267681416,-0.125203632224,-2.63529244537,-0.066879827411,2.11206824951,-0.930248549381,-0.0488531938245,0.0132473591438,2.35762292742e-05,0.00659064589605,0.00182099588413,0.000252417535952,-0.0479891813771,0.57382287184,0.818944034791,0.00622306476336,0.0,0.818943976246,-0.573731887752,-0.0119679425024,0.0,-0.00623082438943,0.0119640508835,-0.999909015018,0.0,0.256987262272,-0.27042907724,0.304977247658,1.0,-0.01024,-0.0134582857143,3.363
-0.682861127637,-0.512489783542,-0.1251819606,-2.63515166105,-0.0668566119691,2.11211339523,-0.931086800635,-0.04206462371,0.0126726138604,0.00118365561331,0.00614740414826,-0.000216385473835,0.00367143650373,-0.0436840308814,0.57382952424,0.818939369502,0.00622359151407,0.0,0.818939340518,-0.573738580121,-0.0119643275079,0.0,-0.00622746416528,0.0119624586063,-0.999909055002,0.0,0.256800008406,-0.270679481641,0.30497636384,1.0,-0.00988000000001,-0.0129851428571,3.381
-0.683565014654,-0.512332654975,-0.125173468672,-2.63501319249,-0.0668370447302,2.11214074489,-0.931816447505,-0.0442850158171,0.00780053345999,0.00084569097081,0.0106680549749,0.00282896097236,0.000290595431171,-0.0473823389207,0.573817814838,0.81894754788,0.00622704561962,0.0,0.81894763917,-0.573727003525,-0.011951427737,0.0,-0.00621508787439,0.011957796682,-0.999909187767,0.0,0.256644595811,-0.270894250455,0.304983653199,1.0,-0.00956000000001,-0.0125645714286,3.397
-0.684313299879,-0.512153356459,-0.125155299059,-2.63488062919,-0.0668102703632,2.11218034409,-0.932552779034,-0.040725124638,0.00910498383414,-0.000913778677801,0.0104485985518,0.00205976948586,0.000239312353721,-0.0398218954187,0.573833003246,0.818936861788,0.00623279162883,0.0,0.81893700912,-0.573742128561,-0.0119537403925,0.0,-0.00621346313612,0.0119639448275,-0.999909124321,0.0,0.256479936204,-0.27111738571,0.304981324136,1.0,-0.00920000000001,-0.0120914285714,3.415
-0.684963959806,-0.512005296993,-0.125106929578,-2.63476430803,-0.0667868727818,2.1122037846,-0.933184197709,-0.0396462241271,0.0141486203172,0.00436743960284,0.00552008070288,0.000108010974819,-6.47437301399e-05,-0.037296845692,0.573830332492,0.818938809756,0.00622272355081,0.0,0.818938803772,-0.573739457737,-0.0119589804803,0.0,-0.00622357102778,0.0119586857679,-0.99990912437,0.0,0.256342757592,-0.271303202972,0.304982500897,1.0,-0.00888000000001,-0.0116708571429,3.431
-0.685671674095,-0.511837454044,-0.125069132627,-2.63465666879,-0.0667649465556,2.11223467961,-0.933901606844,-0.0331638512076,0.0115199428801,0.00191561527757,0.00426542344346,0.000823361682836,0.00216370038833,-0.0424748739552,0.573810549203,0.818952695412,0.00621958212028,0.0,0.818952491303,-0.573719390197,-0.0119843732365,0.0,-0.00624646016725,0.0119705325308,-0.999908839888,0.0,0.25618620814,-0.271504400582,0.30497279029,1.0,-0.00852000000001,-0.0111977142857,3.449
-0.686228260858,-0.511711614319,-0.125055613178,-2.63458459274,-0.0667429263128,2.11225805989,-0.934484775136,-0.0382402207286,0.01236813358,0.00304026679413,0.00422287960788,0.00504765257935,0.000597829264303,-0.0377885069142,0.573792440555,0.818965294287,0.00623127737041,0.0,0.818965067097,-0.573700899529,-0.0120101480081,0.0,-0.00626112551135,0.0119947615631,-0.999908457811,0.0,0.256056944654,-0.271662193905,0.304961260627,1.0,-0.00822000000001,-0.0108034285714,3.464
-0.686764016149,-0.511572102523,-0.125040217294,-2.63452287797,-0.0667252676576,2.1122806093,-0.935039129867,-0.0315571405732,0.00916286968888,0.00269007331004,0.00386065859978,0.0046486604859,0.00432151234789,-0.0358541688112,0.573777261069,0.818975854257,0.00624113167141,0.0,0.818975422373,-0.573685043314,-0.0120613236349,0.0,-0.00629761018265,0.0120320783416,-0.999907780346,0.0,0.255930560807,-0.271811511907,0.304939929606,1.0,-0.00792000000001,-0.0104091428572,3.479
-0.687369187696,-0.511443128036,-0.125033274983,-2.63445022998,-0.066703828254,2.11229010123,-0.935621621986,-0.0332000207549,0.00686033096267,0.000322592267407,0.00884399614476,0.00403550943521,0.00432337686398,-0.0302085111055,0.573803984208,0.818957003845,0.00625783199187,0.0,0.818956511947,-0.573711156275,-0.0121032064324,0.0,-0.00632193936591,0.0120699927178,-0.999907169871,0.0,0.255784275958,-0.271981132257,0.304926150734,1.0,-0.00758000000001,-0.00996228571429,3.496
-0.68794031538,-0.511306335129,-0.125020739707,-2.63438321897,-0.0666802092763,2.11231241905,-0.936176419476,-0.0378077842154,0.00493534412868,-1.46405850928e-06,0.00285714891922,0.00321277263716,0.00253543917416,-0.0288446762941,0.573822223752,0.818944107435,0.00627306358062,0.0,0.818943531712,-0.57372878402,-0.012145828709,0.0,-0.00634783992654,0.012107064381,-0.999906557594,0.0,0.255649174031,-0.272140812414,0.304908138729,1.0,-0.00724000000001,-0.00951542857144,3.513
-0.688477622368,-0.511185217629,-0.125005065276,-2.63431262858,-0.0666550932086,2.11233487581,-0.936713761007,-0.0306717804301,0.00831402372576,-0.000643293400423,0.00379455701575,0.00425894593844,0.00532829387901,-0.0311650791118,0.573825551966,0.818941676459,0.00628596617773,0.0,0.818941108965,-0.573731746948,-0.012169202575,0.0,-0.00635953124225,0.0121310690578,-0.999906192363,0.0,0.255525190263,-0.272292222397,0.304897638454,1.0,-0.00690000000001,-0.00906857142858,3.53
-0.689062313138,-0.511061159883,-0.12496969669,-2.63422134512,-0.0666310859969,2.11235179208,-0.937297331988,-0.0325836551904,0.0079479163147,0.000578209199538,0.00494552966886,0.00287576941892,0.000426090823501,-0.0296320889031,0.573816283606,0.818948169215,0.00628615211846,0.0,0.818947526044,-0.573722330849,-0.0121812796309,0.0,-0.00636945343871,0.0121380790288,-0.999906044136,0.0,0.255396259791,-0.272456240622,0.304895429563,1.0,-0.00652000000001,-0.00856914285715,3.549
-0.689525280358,-0.51096336082,-0.124926391014,-2.634137184,-0.0666105790729,2.11237243383,-0.937782751818,-0.0253920254703,0.00473867907217,0.00180170013591,0.00260355743124,0.00104245518992,0.000209442502156,-0.0303023726543,0.573780100319,0.818973590512,0.00627705528188,0.0,0.818972892882,-0.57368631992,-0.0121718512727,0.0,-0.00636748658923,0.0121249376099,-0.999906216104,0.0,0.255301472109,-0.272586905693,0.304900209044,1.0,-0.00620000000001,-0.00814857142858,3.565
-0.689988079846,-0.510862836571,-0.12489446751,-2.63405410171,-0.0665909237362,2.11240821396,-0.9382635735,-0.0298770903019,0.00599283885783,0.00148315657409,0.00939734195007,0.000425677582222,0.00308172590408,-0.0348982150394,0.573755235281,0.818991058193,0.00627084426865,0.0,0.818990415449,-0.573661747729,-0.0121509463013,0.0,-0.00635429522637,0.0121076635169,-0.999906509338,0.0,0.255205991483,-0.272721875768,0.304904509489,1.0,-0.00586000000001,-0.00770171428572,3.582
