nelsonifechukwu/NELSON_IML_WORK/CNN-GradCAM/train2dof/data_sample_2022-02-21-17-28-49/robot_state.csv
position_joint1,position_joint2,position_joint3,position_joint4,position_joint5,position_joint6,position_joint7,velocity_joint1,velocity_joint2,velocity_joint3,velocity_joint4,velocity_joint5,velocity_joint6,velocity_joint7,ee_T_00,ee_T_10,ee_T_20,ee_T_30,ee_T_01,ee_T_11,ee_T_21,ee_T_31,ee_T_02,ee_T_12,ee_T_22,ee_T_32,ee_T_03,ee_T_13,ee_T_23,ee_T_33,v_x,v_y,time
0.46506408031,0.547849861361,-0.124000945389,-1.35586612761,0.0794889944724,1.8941026255,0.159170754591,-4.64101376397e-05,0.000332001332365,0.00049269707966,-0.00162105743795,-0.00010113918465,-0.000346042725872,0.000912774276238,0.57383078938,0.818960044007,0.00184888662531,0.0,0.818915708587,-0.573772762663,-0.0119426109895,0.0,-0.00871984831875,0.0083672812883,-0.999926973758,0.0,0.661674039491,0.260870428923,0.303150535327,1.0,0.0,0.0,0.0
0.465058483461,0.547849602641,-0.124000954306,-1.35586651888,0.0794898379828,1.89409808445,0.159174059492,-0.00200552885705,0.000144703822263,0.00055993128177,-0.0001080399821,0.000192341118662,-0.000161541890371,0.00223708321898,0.573838297961,0.818954790381,0.00184553699041,0.0,0.818910397726,-0.573780271524,-0.0119460205802,0.0,-0.00872448603806,0.00836657463046,-0.999926939217,0.0,0.661674465068,0.260866504775,0.303150139919,1.0,-0.00024,-0.000315428571429,0.013
0.465060605837,0.547843504099,-0.123997821159,-1.35586464216,0.0794894067545,1.89409758047,0.159162145163,0.000134342247767,-0.000731722752468,0.000630667811212,0.00114168208042,0.000162192921873,-0.000549667965684,-0.00145043956278,0.573824383778,0.818964523597,0.00185272041625,0.0,0.818920212528,-0.573766316992,-0.0119434458614,0.0,-0.00871839773651,0.00837083182309,-0.99992695669,0.0,0.661673708779,0.260869922962,0.303155204932,1.0,-0.00056,-0.000736,0.029
0.465057494754,0.547817639612,-0.123998115374,-1.35589684952,0.0794880814839,1.89410071392,0.159168102695,-0.000302558838605,-0.00409365082804,0.00131006150362,-0.00734669532975,-0.000564509082661,0.000818016993435,0.00143687573206,0.573833398863,0.818958211638,0.00185063259851,0.0,0.818913858383,-0.573775325461,-0.0119463526651,0.0,-0.00872188421597,0.00837088600101,-0.999926925832,0.0,0.66166858745,0.260864208405,0.303158478445,1.0,-0.00092,-0.00120914285714,0.047
0.46505739893,0.547736799786,-0.123998141661,-1.35598457028,0.0794864109029,1.8941222452,0.159169110987,-0.000518294606982,-0.00239347600774,0.000855965279939,-0.00628039268501,0.000262697053859,-0.00192784685333,0.000248163466644,0.573838676062,0.818954478921,0.00186606858491,0.0,0.818910279878,-0.573780491412,-0.0119435374303,0.0,-0.00871066743037,0.00838196783249,-0.999926930775,0.0,0.661655036688,0.260855974472,0.303175863281,1.0,-0.00126,-0.001656,0.064
0.465061558459,0.547614752647,-0.124001164036,-1.3561482531,0.0794834732877,1.89414736083,0.159154874835,-0.000804099855349,-0.0104258365432,-0.00464404574217,-0.00973681126521,0.000392689909016,0.00128176733044,-0.00156298012125,0.573833836754,0.818957890669,0.00185688133884,0.0,0.818913474855,-0.573775598456,-0.0119595241502,0.0,-0.00872908153184,0.00838356618805,-0.999926756795,0.0,0.661625515707,0.260840377459,0.303186692042,1.0,-0.00156,-0.00205028571429,0.079
0.465035342086,0.547448084355,-0.124003076254,-1.35637940232,0.07948094863,1.89425154508,0.159157123999,-0.000538649182174,-0.0135715579071,0.000548512153263,-0.00971625669632,0.000800218829065,0.00916313589011,-0.00386901072812,0.573870865025,0.818931855017,0.0018957885132,0.0,0.818887878525,-0.57381239176,-0.0119468978264,0.0,-0.00869603568326,0.00840857671486,-0.999926834724,0.0,0.661605120036,0.260803350835,0.303203844638,1.0,-0.00192,-0.00252342857143,0.097
0.465010669591,0.547252198663,-0.124003061578,-1.3566185219,0.0794787435517,1.89438619162,0.159145118427,-0.00211373403339,-0.010451161502,-0.000950189121012,-0.0169079441236,0.000377204863897,0.00879253607804,0.000899721978637,0.573894286662,0.818915243966,0.0019793529786,0.0,0.818872309183,-0.573835415541,-0.0119081495431,0.0,-0.00861610823609,0.0084550191171,-0.999927135011,0.0,0.661588878979,0.260770029223,0.303240474483,1.0,-0.00228,-0.00299657142857,0.115
0.464988727427,0.547048772726,-0.123998862419,-1.35687495699,0.0794739512846,1.89450286365,0.159127016573,-0.00088866822635,-0.0147254041982,-3.99411455256e-05,-0.0235716330544,-6.75429660771e-05,0.00966614854493,-0.00100104060959,0.573907667437,0.818905716715,0.0020404140136,0.0,0.818863490266,-0.573848458523,-0.0118860363636,0.0,-0.00856281955156,0.00849247145164,-0.999927275381,0.0,0.661563737126,0.260737333517,0.30327249132,1.0,-0.0026,-0.00341714285714,0.131
0.464948057336,0.546821824676,-0.124004410981,-1.35723129332,0.0794659389035,1.89463721032,0.159105949914,-0.00124683734343,-0.00669374812305,-0.00175365278999,-0.021200456839,0.000371574630498,0.00947864660381,0.000933459406416,0.57394544222,0.818879217794,0.00205010267122,0.0,0.818837027104,-0.573886099458,-0.0118917952282,0.0,-0.00856158338615,0.00850410537797,-0.99992718709,0.0,0.661527099803,0.260675723218,0.303275461433,1.0,-0.00294,-0.003864,0.148
0.464903322739,0.546515062546,-0.124001318084,-1.35765978235,0.0794539932559,1.89479796465,0.158971951641,-0.0018443303352,-0.0198621836995,0.000256040738432,-0.0248487510549,-0.000826370261791,0.00364313208144,-0.0150616299984,0.573890953318,0.818917296513,0.00209333996914,0.0,0.818875523317,-0.573831296708,-0.0118855850359,0.0,-0.00853225144844,0.00853537892222,-0.999927171344,0.0,0.661480554452,0.260610073511,0.303302598609,1.0,-0.0033,-0.00433714285714,0.166
0.46486681977,0.546260788771,-0.123998813075,-1.35807949177,0.0794416189655,1.89494156701,0.158930938285,0.00108542510634,-0.0193214564988,0.00112573315074,-0.0277867605906,0.000461793709571,0.0101354758665,0.000368417745569,0.573905651384,0.818907024355,0.00208222797155,0.0,0.81886495737,-0.573845889156,-0.0119089878301,0.0,-0.0085576405864,0.00853986335597,-0.99992691609,0.0,0.661429190489,0.260548638235,0.303295257545,1.0,-0.0036,-0.00473142857143,0.181
0.464822656907,0.545939921777,-0.124004840935,-1.35862334376,0.079405113548,1.89512852446,0.158895554505,-0.00109559023756,-0.0215381676538,-0.00288987455447,-0.0309816423207,0.00062465740561,0.00779819271513,-0.00454343353458,0.573937723784,0.818884634872,0.00204716599492,0.0,0.818842151354,-0.573878141309,-0.0119229608106,0.0,-0.00858887095627,0.00851950682277,-0.999926821972,0.0,0.661364993147,0.260462368405,0.303279969158,1.0,-0.00394,-0.00517828571429,0.198
0.464756033948,0.545591289724,-0.12399957466,-1.35922604511,0.0793065670738,1.89533417457,0.158799751275,-0.00153904478473,-0.0224866219079,0.000612341858706,-0.0374856457334,-0.00442213585692,0.0145538194504,-0.00452870237345,0.573917579345,0.818898936523,0.00197250637112,0.0,0.818855986695,-0.573858806349,-0.0119033747833,0.0,-0.00861588668192,0.00844691732178,-0.999927205393,0.0,0.661298410379,0.260352386845,0.303257441434,1.0,-0.00428,-0.00562514285714,0.215
0.46470245147,0.545239543134,-0.124009823956,-1.35983240815,0.0792934093375,1.89552642989,0.158709310908,-0.00242271842853,-0.0229856091514,-0.000582870125926,-0.036694209546,-0.000522061765843,0.00841289840065,-0.00274144623546,0.573923954258,0.818894579087,0.00192612893929,0.0,0.818850781184,-0.573865136141,-0.0119561941197,0.0,-0.00868569153165,0.00843932087673,-0.999926665624,0.0,0.661217881989,0.260249354491,0.303232523043,1.0,-0.0046,-0.00604571428571,0.231
0.464632395392,0.544781838021,-0.124004885091,-1.36058477759,0.0792731989572,1.89577835137,0.158643631125,-0.00479374560588,-0.0224066483683,-0.000553761956232,-0.0385679167241,-0.00151036288558,0.0111982471316,-0.000445497827035,0.573961369017,0.818868397102,0.00190840361426,0.0,0.818824098177,-0.573902359892,-0.0119968519449,0.0,-0.00872877364051,0.00844853909516,-0.999926212627,0.0,0.661131265241,0.260141638322,0.303222415975,1.0,-0.00494,-0.00649257142857,0.248
0.464570291644,0.544334899639,-0.124012733182,-1.36133550235,0.0792419516014,1.89606212937,0.158527798816,-0.00392978858773,-0.024821791103,-3.43763962436e-05,-0.046842579112,0.000226927955078,0.0160677572553,-0.0070854736499,0.573956520495,0.818871824594,0.00189588187439,0.0,0.81882726937,-0.573897475908,-0.0120140327747,0.0,-0.00875007958281,0.00844809487877,-0.999926030164,0.0,0.661046653579,0.260026989981,0.303206262014,1.0,-0.00528,-0.00693942857143,0.265
0.464507875055,0.543855671742,-0.124006152661,-1.36211122258,0.079209581494,1.89632620794,0.158460231812,-0.00811067566764,-0.0274278172661,0.00170462066797,-0.0526846565204,-0.00153543660515,0.0168319039198,-0.00430615319549,0.573982173526,0.818853885599,0.00187760885084,0.0,0.818808885543,-0.573923006117,-0.0120473609914,0.0,-0.0087875946315,0.00845253599527,-0.999925663645,0.0,0.660949945596,0.259916436642,0.303198823461,1.0,-0.0056,-0.00736,0.281
0.464422736654,0.543319852176,-0.124014034153,-1.36296328491,0.0791573990668,1.89662255976,0.158325638285,-0.00630161478621,-0.0332593792643,-0.000262257445249,-0.0458946917421,-0.00284995627202,0.0156283949368,-0.00801440012913,0.573980617382,0.818855019367,0.00185877053724,0.0,0.818809783467,-0.573921542219,-0.0120560680367,0.0,-0.00880555290654,0.00844209141247,-0.999925593897,0.0,0.660853805937,0.259773160897,0.303198275924,1.0,-0.00594,-0.00780685714286,0.298
0.464351048518,0.542760462683,-0.124023200522,-1.36385873276,0.0790997232118,1.896939916,0.158236641852,-0.00379404442714,-0.0328577679243,-2.31794270402e-05,-0.052446140618,-0.00510227330502,0.0185169960758,-0.000215584504854,0.574007221327,0.818836417226,0.00183809426158,0.0,0.8187909648,-0.573948284777,-0.0120610639769,0.0,-0.00882123720225,0.00842831506465,-0.99992557187,0.0,0.660749453826,0.259633731973,0.303195543867,1.0,-0.00628,-0.00825371428571,0.315
0.464264031053,0.542124620378,-0.124025660125,-1.36484110368,0.0790526488763,1.89730488859,0.158096530198,-0.00115226555867,-0.0345593869886,-0.000333290478815,-0.0573110590059,-0.00374583567371,0.0201767001159,-0.00516446665564,0.574007510926,0.818836165102,0.00185984504998,0.0,0.818790887999,-0.573948374747,-0.0120619963788,0.0,-0.00880951342502,0.00844666332265,-0.999925520402,0.0,0.660638284353,0.259483704598,0.303209365183,1.0,-0.00664,-0.00872685714286,0.333
0.464175269082,0.541490081087,-0.124026868828,-1.36580175062,0.0789889968305,1.89766367254,0.157960647854,-0.00345196336704,-0.0368947658713,0.00137101489161,-0.052293547607,-0.00042019843891,0.0267505897027,-0.00557077001877,0.574006099485,0.818837098323,0.00188442697433,0.0,0.818792197788,-0.57394690952,-0.0120427901728,0.0,-0.00877969135893,0.00845575191731,-0.99992570588,0.0,0.660531783587,0.259332722377,0.303231901294,1.0,-0.00698,-0.00917371428571,0.35
0.464092085581,0.540848754675,-0.12403219809,-1.36679141542,0.0789327931788,1.89803793,0.157837961336,-0.00314304421766,-0.0384953281334,-0.00109049161555,-0.0597287554639,-0.0040622630838,0.024433650804,-0.0101015843854,0.574017405662,0.818829121263,0.0019065856742,0.0,0.818784507505,-0.573958115785,-0.0120315624502,0.0,-0.00875766199953,0.00846757210301,-0.999925799037,0.0,0.660420762408,0.25918194049,0.303246830177,1.0,-0.0073,-0.00959428571429,0.366
0.463999260162,0.540175175191,-0.124030104563,-1.36782952046,0.0788734297358,1.89841886267,0.157709437451,-0.00553031518895,-0.0401864392547,0.00104426991666,-0.0650134801661,-0.00497426341895,0.0213922177125,-0.0157978759717,0.574028306532,0.818821441424,0.00192282748398,0.0,0.818776984961,-0.573968892186,-0.0120294057695,0.0,-0.00874646060729,0.00847974957385,-0.999925793884,0.0,0.660301526454,0.259023720393,0.3032617359,1.0,-0.00762,-0.0100148571429,0.382
0.463906011219,0.53942930618,-0.124037870183,-1.36897181033,0.0788035469666,1.89885266721,0.157571385449,-0.00150137488677,-0.0484779072374,-0.00115231003212,-0.0650189361522,-0.00074937210282,0.0223443145843,-0.01207940485,0.574041629975,0.818812032737,0.00195166629129,0.0,0.818768007143,-0.573982143172,-0.0120081930388,0.0,-0.00871239909167,0.00849132810937,-0.999925992986,0.0,0.660173409572,0.258849981566,0.303282924993,1.0,-0.00796,-0.0104617142857,0.399
0.463795067167,0.53866574691,-0.124033567755,-1.37015692353,0.0787369031331,1.89931385225,0.157420101917,-0.00507071471117,-0.0481658097191,0.000487856731564,-0.0717836605912,-0.00387129598927,0.0266109682731,-0.00933701287813,0.574053378312,0.81880370906,0.00198790825617,0.0,0.818760110399,-0.573993691006,-0.0119946324,0.0,-0.00868036982463,0.00851334314237,-0.999926084352,0.0,0.660042714497,0.258669099778,0.303298095281,1.0,-0.0083,-0.0109085714286,0.416
0.463693055915,0.537933711198,-0.12404497439,-1.37130033634,0.0786749572179,1.89975630801,0.157279171153,-0.00713610906916,-0.0499316406278,-0.00254595227902,-0.0715025469818,-0.00319022711089,0.0270469840003,-0.0124706140622,0.574076173838,0.818787662637,0.0020142110569,0.0,0.818744416057,-0.574016381537,-0.0119800585874,0.0,-0.00865310062548,0.00852675441824,-0.999926206432,0.0,0.659917888254,0.25848903607,0.303309618852,1.0,-0.00862,-0.0113291428571,0.432
0.463575089858,0.537114744919,-0.124046065607,-1.37258287577,0.0786023051058,1.90023154866,0.157124076981,-0.00797754830055,-0.0513410515534,0.000705685333631,-0.0768385519948,-0.000281927042634,0.0295924306912,-0.0091017847184,0.574097762,0.818772497317,0.00202588355193,0.0,0.818729352437,-0.574037868125,-0.0119799965714,0.0,-0.00864612430008,0.00853650390314,-0.999926183593,0.0,0.659771750862,0.258289566586,0.303318673251,1.0,-0.00896,-0.011776,0.449
0.463454526015,0.536213621477,-0.124062069381,-1.37397789297,0.0785178763927,1.90075715341,0.156955781563,-0.0114394631272,-0.0448156689333,-0.00215823545892,-0.0730825973407,-0.00287494057878,0.0272735886517,-0.00917522165906,0.574124101176,0.81875397314,0.00204812540842,0.0,0.818711199975,-0.57406419189,-0.0119591607209,0.0,-0.00861602078331,0.00854303009036,-0.999926387702,0.0,0.659616163292,0.258068984814,0.303336870621,1.0,-0.00932,-0.0122491428571,0.467
0.463351343307,0.535367993192,-0.124060510456,-1.37531224695,0.078439362699,1.90123357518,0.156788688885,-0.00470939034554,-0.0520631869516,-0.00102736392749,-0.0855999366647,-0.0156726092528,0.0317761992228,-0.00865496314706,0.574120633451,0.818756434144,0.00203634328635,0.0,0.818713433426,-0.574060700542,-0.0119738432962,0.0,-0.00863484283417,0.00854177655733,-0.999926236051,0.0,0.659461981594,0.25789036184,0.303337343665,1.0,-0.00962,-0.0126434285714,0.482
0.463232170835,0.534480114924,-0.124061381833,-1.37677205752,0.0783652032934,1.90177022469,0.156616011824,-0.0106655906693,-0.0561391964536,0.000285623308619,-0.0879285553428,-0.0101255236246,0.0367592084016,-0.0156177693561,0.574139862731,0.818743003077,0.00201490387609,0.0,0.818699575184,-0.574079872009,-0.012002210137,0.0,-0.00867017673959,0.0085407126631,-0.999925939389,0.0,0.659280350969,0.25765786653,0.303317944064,1.0,-0.00998,-0.0131165714286,0.5
0.463104425289,0.533557060549,-0.124058863905,-1.3782513938,0.0782767663156,1.90231370559,0.15642445623,-0.00928671615291,-0.0607349974842,0.000768159163778,-0.0927889264467,-0.00231825955803,0.0326240497625,-0.0115177755501,0.574143101132,0.818740758396,0.00200421192495,0.0,0.818697141326,-0.574083106476,-0.0120135150806,0.0,-0.00868553746372,0.00853848376973,-0.999925825116,0.0,0.659106083549,0.257434204531,0.303311903018,1.0,-0.01032,-0.0135634285714,0.517
0.462986951264,0.532676976057,-0.12405887366,-1.37968814298,0.0782051023241,1.90286522266,0.156254063083,-0.00926428082492,-0.0505902542809,-0.00115901298883,-0.0884011989306,-0.00330482485121,0.0320847185176,-0.0072818891727,0.574159298258,0.818729396365,0.00200565540259,0.0,0.818685664803,-0.574099164355,-0.0120282431759,0.0,-0.0086965986206,0.00854829356893,-0.99992564516,0.0,0.658938841894,0.257223593882,0.303296467345,1.0,-0.01064,-0.013984,0.533
0.462843108319,0.531630070494,-0.12405635925,-1.38135021051,0.0781021815566,1.90345808305,0.156033423133,-0.00752739040974,-0.0622317924858,0.000455735040877,-0.0925397820767,-0.00346040867942,0.0307870671952,-0.0120056197028,0.574157511876,0.818730696984,0.00198601971295,0.0,0.81868666051,-0.574097414654,-0.0120439732647,0.0,-0.00872076974466,0.00854123001442,-0.999925495007,0.0,0.658739240101,0.256970326282,0.303294639315,1.0,-0.011,-0.0144571428571,0.551
0.462691767425,0.530565046407,-0.124066603116,-1.38309680561,0.0779881535634,1.90406636455,0.155816113265,-0.00720243305249,-0.0576312886728,-0.00186553610662,-0.0938631046844,-0.00947551647274,0.0299042650952,-0.00452427428844,0.574174925825,0.818718651293,0.00191611081453,0.0,0.818673741685,-0.574115168362,-0.0120758036537,0.0,-0.00878678657066,0.00850245697582,-0.99992524751,0.0,0.658528397309,0.25669419904,0.303266861872,1.0,-0.01136,-0.0149302857143,0.569
0.462571013191,0.5296393585,-0.1240669751,-1.38454820485,0.0778961566318,1.90460704696,0.155610043632,-0.0101903848176,-0.0565097981613,-0.000505949217057,-0.0977426482185,-0.00520892094624,0.0368734286849,-0.0180783883902,0.574159446856,0.818729483281,0.0019260564464,0.0,0.81868472635,-0.574099669957,-0.0120679202232,0.0,-0.00877478266015,0.00850590715986,-0.999925323578,0.0,0.658357605287,0.256476153357,0.303275000258,1.0,-0.01166,-0.0153245714286,0.584
0.462422515289,0.52842233995,-0.124071256505,-1.38643916354,0.0777767723517,1.90532760356,0.155354087515,-0.00530910699888,-0.064000232594,-0.000249234618357,-0.103345578854,-0.0103064666487,0.0438078319465,-0.015251340275,0.574144978639,0.818739546591,0.00196093159762,0.0,0.818695314989,-0.574085120395,-0.0120417048933,0.0,-0.00873344649814,0.00851925393278,-0.999925571843,0.0,0.658136631533,0.256197013315,0.303294564639,1.0,-0.01204,-0.015824,0.603
0.462293795191,0.527431001816,-0.124069814519,-1.38796636504,0.0776793242502,1.90591670892,0.155144178907,-0.00755671947488,-0.0645486667658,-0.000606251433728,-0.0999842103877,-0.00506167874784,0.0342856170882,-0.0147221710628,0.57413397544,0.818747160775,0.00200296506149,0.0,0.818703530446,-0.574073990189,-0.0120137390232,0.0,-0.00868653181313,0.00853749468571,-0.999925824924,0.0,0.657960559371,0.25596909038,0.303316512318,1.0,-0.01234,-0.0162182857143,0.618
0.462125496503,0.526112442058,-0.124066052143,-1.38999989036,0.0775686592073,1.90667362599,0.154865757957,-0.00902353112301,-0.0677831599855,0.00110583106545,-0.11181749965,-0.00102997190793,0.0402468673471,-0.0235999733734,0.57412115011,0.818756046636,0.0020464593045,0.0,0.818712829671,-0.574060830031,-0.012008865787,0.0,-0.00865770603703,0.00857017132749,-0.999925795392,0.0,0.657717690558,0.255669949295,0.303341965608,1.0,-0.01272,-0.0167177142857,0.637
0.462001407872,0.525152310218,-0.124076556114,-1.3915072418,0.0774633310586,1.90721127379,0.154671745676,-0.0100625855816,-0.0642336882417,-0.00359928362508,-0.109889758561,-0.00628178934716,0.040439818924,-0.00666756543876,0.574123908753,0.818754157054,0.00202844918455,0.0,0.818710830485,-0.574063788388,-0.0120037415115,0.0,-0.0086638208447,0.00855251297509,-0.999925893619,0.0,0.657536194605,0.255435396305,0.303346813899,1.0,-0.013,-0.0170857142857,0.651
0.461822589714,0.523837030794,-0.124085828166,-1.39362123164,0.0773170050544,1.90797655995,0.154373944016,-0.0111350077723,-0.0676748902478,-0.00113074941055,-0.115028568124,-0.00998141923667,0.03794122022,-0.0156337074806,0.574107018521,0.818766101531,0.00198725197032,0.0,0.818722381666,-0.574047216847,-0.0120083924736,0.0,-0.00869145556597,0.00852127412728,-0.9999259205,0.0,0.657282309979,0.255107087293,0.303332119678,1.0,-0.01338,-0.0175851428571,0.67
0.461685873613,0.522755332777,-0.124091401005,-1.39533040168,0.0772295603261,1.90863000686,0.154146338968,-0.0104278413325,-0.0700519730302,-0.0013325656514,-0.115272742497,-0.00564492437643,0.0499983766848,-0.0176560869311,0.574104833971,0.818767564396,0.00201544184476,0.0,0.818724092984,-0.574044795578,-0.0120074617615,0.0,-0.00867453333093,0.00854379713188,-0.999925875254,0.0,0.657079772338,0.254855488753,0.303335801376,1.0,-0.01368,-0.0179794285714,0.685
0.461513004768,0.521441822346,-0.124090407164,-1.39743112163,0.0770936298721,1.9094477891,0.153862783821,-0.0111657529753,-0.073411845697,-0.000210113219875,-0.121112648263,-0.00641030360187,0.0428160943453,-0.011532803798,0.574089416275,0.818778328693,0.00203408099256,0.0,0.818735191287,-0.574029390772,-0.0119871589398,0.0,-0.00864737017824,0.00854723932993,-0.999926081112,0.0,0.656833647798,0.254543894965,0.303329715392,1.0,-0.01404,-0.0184525714286,0.703
0.461358439745,0.520237396984,-0.124096365685,-1.39933090456,0.076980296959,1.91014288715,0.153597643709,-0.00660446806993,-0.0790111299362,-0.00180499509742,-0.122811764013,-0.0106447801688,0.0479922114706,-0.0198818758351,0.574073799928,0.818789279573,0.00203341914266,0.0,0.818746097449,-0.574013743502,-0.0119915421694,0.0,-0.00865150220791,0.00854904876342,-0.999926029902,0.0,0.656602543246,0.254258090614,0.303331862719,1.0,-0.01436,-0.0188731428571,0.719
0.461182904275,0.51889838099,-0.124098486868,-1.40141879361,0.0768384174672,1.91088076664,0.153329847969,-0.0121770697724,-0.0831645158382,-0.000646994287305,-0.123749378058,-0.0118058264388,0.0516848932385,-0.00956767308689,0.574072133054,0.818790490357,0.00201639622842,0.0,0.818747147143,-0.574012208746,-0.0119933380198,0.0,-0.00866276185045,0.00853612414581,-0.999926042836,0.0,0.656344409654,0.253938584774,0.303342156415,1.0,-0.0147,-0.01932,0.736
0.461013714949,0.517620411454,-0.124099069677,-1.40340552646,0.0767072543726,1.91159973457,0.153041369618,-0.00749868834473,-0.0825497409617,0.00256123798359,-0.121271301472,-0.0107912436169,0.0410298777104,-0.0174206214343,0.574044609233,0.818809778185,0.00202006434753,0.0,0.818766520172,-0.573984709725,-0.0119868823619,0.0,-0.00865565708797,0.00853513058543,-0.999926112843,0.0,0.656101559624,0.25363582582,0.303355679083,1.0,-0.01502,-0.0197405714286,0.752
0.460819818839,0.516193191737,-0.124110328316,-1.40568888195,0.0765633798007,1.9124488541,0.152730241414,-0.00741246165994,-0.0834438084645,-0.000409425116876,-0.131527337964,-0.00900873086067,0.0490252444487,-0.0199358463715,0.574038562596,0.818814048689,0.00200729261815,0.0,0.818770683142,-0.573978775826,-0.0119866688311,0.0,-0.00866287626336,0.00852448661711,-0.999926141124,0.0,0.655826951138,0.253284189213,0.303344006493,1.0,-0.01538,-0.0202137142857,0.77
0.460660062675,0.514985001815,-0.124116963894,-1.40762054798,0.0764457095486,1.9131722978,0.152467820437,-0.00975296230619,-0.0781631901959,-0.00166101643299,-0.132376595775,-0.00671039176033,0.0388615604895,-0.0207786694369,0.574029407476,0.818820474313,0.00200427034986,0.0,0.818777074686,-0.573969639849,-0.0119875519833,0.0,-0.0086654295063,0.00852242205902,-0.999926136599,0.0,0.655593017735,0.252992249337,0.303334689178,1.0,-0.01568,-0.020608,0.785
0.460460964506,0.513505614358,-0.124109973562,-1.41002335564,0.0763085314722,1.9140060139,0.152136748682,-0.0110902824052,-0.0825010580769,9.33702371739e-05,-0.129668735367,-0.0110998917203,0.0535628874387,-0.0208092137659,0.574005442724,0.818837439964,0.00193533923021,0.0,0.818792883653,-0.57394572178,-0.0120527603047,0.0,-0.00875864035201,0.008503155716,-0.999925488505,0.0,0.655283407182,0.25263456507,0.303300002618,1.0,-0.01604,-0.0210811428571,0.803
0.460271015092,0.512147807356,-0.12411597761,-1.41218401808,0.0761765670567,1.91477414692,0.151830796515,-0.0133196687011,-0.0878974950738,0.00101968049968,-0.135026430363,-0.00640181035904,0.0586237391218,-0.0185318830687,0.573992151469,0.818846828372,0.00190489324381,0.0,0.818801811627,-0.573932504113,-0.0120756325215,0.0,-0.00879498257198,0.00849121181249,-0.99992527101,0.0,0.655014569197,0.25229888681,0.303289597044,1.0,-0.01636,-0.0215017142857,0.819
0.460077462416,0.510705031458,-0.124119094975,-1.41449606248,0.0760294065748,1.91566430448,0.151508170547,-0.0117064479668,-0.0862419733094,-0.0007752740015,-0.141459331712,-0.00791010795695,0.052288041934,-0.0178623826513,0.573969973954,0.818862348271,0.00191585082393,0.0,0.818817545634,-0.573910350097,-0.0120616712928,0.0,-0.00877749085567,0.00849193292321,-0.999925418584,0.0,0.654736498792,0.251951509004,0.303276708277,1.0,-0.0167,-0.0219485714286,0.836
0.459874026066,0.509211376017,-0.124127373688,-1.41684471741,0.075883498298,1.91652061592,0.151183475906,-0.0118916424611,-0.090942439815,-0.000581339001005,-0.13846280032,-0.0126186463167,0.0412152413476,-0.0164670166744,0.57395939163,0.818869770532,0.00191378389671,0.0,0.818824936546,-0.573899773897,-0.0120631551487,0.0,-0.00878000198512,0.00849097864571,-0.999925404641,0.0,0.654446911292,0.251589003603,0.303278713422,1.0,-0.01704,-0.0223954285714,0.853
0.459663314651,0.507696758641,-0.12412874516,-1.41923109322,0.07572879107,1.91737320674,0.150853478075,-0.0142399277835,-0.0894079607681,0.000844120840629,-0.138957033078,-0.0133388531972,0.0538954255107,-0.0198268104195,0.573944462636,0.818880282378,0.00189310426345,0.0,0.818835169759,-0.573884928993,-0.0120747647044,0.0,-0.00880153218178,0.0084805479675,-0.999925303879,0.0,0.654147874942,0.251220022408,0.303276368249,1.0,-0.01738,-0.0228422857143,0.87
0.459453369088,0.506221893584,-0.124136962632,-1.42152437174,0.0755782521837,1.91823435113,0.150531150753,-0.0137212950641,-0.0976664329519,-0.000741292567155,-0.146659658276,-0.0120101059143,0.0589702749125,-0.0135948315381,0.573936229829,0.818885986783,0.00192136449167,0.0,0.818841351332,-0.573876678361,-0.0120476671333,0.0,-0.00876320823539,0.00848804877071,-0.999925576835,0.0,0.653871983275,0.250859345989,0.303290951766,1.0,-0.0177,-0.0232628571429,0.886
0.459238431432,0.504591604459,-0.124138351216,-1.42399430261,0.0754215006184,1.91919545915,0.150200058854,-0.0166164002516,-0.0991912060102,0.00104881037067,-0.14709188465,-0.00776745016137,0.0575164773431,-0.0254021141284,0.573927272758,0.818892026767,0.00202014446631,0.0,0.818848769145,-0.573867386928,-0.0119859247545,0.0,-0.00865604984461,0.0085334062101,-0.999926124161,0.0,0.653576881908,0.250486285845,0.303337937521,1.0,-0.01804,-0.0237097142857,0.903
0.459011176983,0.502922188929,-0.12414375131,-1.42647696564,0.0752650093186,1.92012917931,0.149837706624,-0.0162002603997,-0.099280849213,0.000119244130211,-0.148267575873,-0.00698987744353,0.0562577165235,-0.0189639837143,0.57390567716,0.818906908285,0.00212042158081,0.0,0.818865009909,-0.573845429724,-0.0119274990534,0.0,-0.00855088177115,0.00858176368542,-0.999926615184,0.0,0.653277183764,0.250100153766,0.30340326629,1.0,-0.01838,-0.0241565714286,0.92
0.45875950713,0.501017454698,-0.124147330195,-1.42934933701,0.0750888410245,1.92112965226,0.149451272946,-0.0110300661006,-0.0969902709218,-0.000232466661579,-0.155289785241,-0.00847022043741,0.049054907433,-0.0248696765561,0.573896744275,0.818913086759,0.00215177739816,0.0,0.818871476817,-0.573836249223,-0.011925201612,0.0,-0.00853110004109,0.00860602920849,-0.999926575601,0.0,0.652908733095,0.249657587773,0.303452430579,1.0,-0.01876,-0.024656,0.939
0.458553912853,0.4996059161,-0.124147933138,-1.4314787421,0.0749468296512,1.92190636104,0.149150331402,-0.0106706475562,-0.101042507052,-0.0026594417295,-0.14956753387,-0.010611502215,0.0466346923796,-0.0199741498599,0.573888968026,0.818918415902,0.00219712879443,0.0,0.818877450491,-0.573828345255,-0.0118952998884,0.0,-0.00848066864006,0.00862592667874,-0.999926833147,0.0,0.652646546498,0.249318867625,0.303490932745,1.0,-0.01904,-0.025024,0.953
0.458301345286,0.497926980389,-0.124148670071,-1.43412407273,0.0747872770325,1.92289681953,0.148757746935,-0.0135229052844,-0.101816974734,0.000587904239702,-0.16252539162,-0.00933429589082,0.062271381548,-0.0288069286568,0.573866318847,0.818934230841,0.00221823140528,0.0,0.818893476684,-0.573805549721,-0.0118916716243,0.0,-0.00846582645754,0.00864089141147,-0.999926829712,0.0,0.652321264955,0.24890344542,0.303488516926,1.0,-0.01938,-0.0254708571429,0.97
0.458054769405,0.496335470279,-0.124140405112,-1.43664298908,0.0746322629262,1.92378275143,0.148385113592,-0.0153431978183,-0.0962412704471,0.00217428602051,-0.163793581954,-0.0102252240927,0.0513761886689,-0.0252842201457,0.573842514937,0.818950996334,0.00218644830815,0.0,0.818909663561,-0.573781709248,-0.0119272779816,0.0,-0.00851347604991,0.00863504909316,-0.999926475623,0.0,0.65199840358,0.248504928283,0.303475367968,1.0,-0.0197,-0.0258914285714,0.986
0.457763533753,0.494567964619,-0.124151495427,-1.43953016497,0.0744504755759,1.92478642909,0.147974965873,-0.0208409569358,-0.102157900107,-0.00104947801852,-0.159608195081,-0.00475338601685,0.0599942425251,-0.0259258602275,0.573849240442,0.81894655132,0.00208380110495,0.0,0.818903789338,-0.573788765532,-0.0119909656847,0.0,-0.0086244643785,0.00858760450937,-0.999925933089,0.0,0.65163007935,0.248028479066,0.303419853282,1.0,-0.0212297142857,-0.0279019102041,1.004
0.45749023047,0.492499466367,-0.124219086868,-1.44270307676,0.0742579034002,1.92595607385,0.14752980211,-0.0197178382128,-0.128560807184,-0.0016679690554,-0.2058864688,-0.0153512623851,0.0780033799942,-0.0186944340788,0.573864472766,0.818935767716,0.0021265356811,0.0,0.818893782068,-0.573804037857,-0.0119434806659,0.0,-0.00856089357161,0.00859551157218,-0.999926411433,0.0,0.651240763188,0.247510209754,0.303452992686,1.0,-0.0283114285714,-0.0372093061224,1.021
0.457153674001,0.49010685171,-0.12423429755,-1.44655325813,0.0740502685977,1.92739267379,0.146954570502,-0.0227694104103,-0.155411684357,-0.000455690224408,-0.257267207085,-0.0129262217845,0.0980906212789,-0.0360113310403,0.573817105397,0.818968975922,0.00211965358115,0.0,0.818926615801,-0.573756419293,-0.0119798227797,0.0,-0.00859510382713,0.00861023373818,-0.999925991294,0.0,0.650751217448,0.246921209088,0.303409989414,1.0,-0.0349765714286,-0.0459692081633,1.037
0.456658198042,0.486911004138,-0.124258375023,-1.45159649107,0.0737492943806,1.92925468047,0.146221631922,-0.0326901148459,-0.202267499267,-0.00281792302367,-0.315574546837,-0.0201326477688,0.116264900666,-0.0450303818377,0.573809392809,0.818974347581,0.00213204811903,0.0,0.818932035425,-0.573748542155,-0.0119866021282,0.0,-0.00859362561144,0.00862419343719,-0.999925883697,0.0,0.650119702331,0.246107040989,0.303392842838,1.0,-0.0420582857143,-0.0552766040816,1.054
0.456092303549,0.48310748364,-0.124375968084,-1.45751686984,0.0733922596693,1.93141759631,0.145303985968,-0.0339794801095,-0.233871229126,-0.0067193803196,-0.366011450186,-0.0260800594117,0.125761172067,-0.0617043505539,0.573801684814,0.818979694107,0.0021526835541,0.0,0.818937915643,-0.573741016141,-0.0119450249614,0.0,-0.00854781461114,0.00861715553777,-0.999926337035,0.0,0.649385700069,0.245108268009,0.30340626881,1.0,-0.04914,-0.064584,1.071
0.455424103901,0.478958902263,-0.124463379861,-1.46404672826,0.0730089538718,1.93369280515,0.144343346032,-0.0435972779111,-0.268356146155,-0.00355669329673,-0.42482220099,-0.025299807291,0.1510902905,-0.057784014844,0.573840549007,0.818952697205,0.00206178489128,0.0,0.818909541587,-0.573780062112,-0.0120145711943,0.0,-0.00865652108723,0.0085830287003,-0.99992569537,0.0,0.648546372632,0.243997552134,0.303374227611,1.0,-0.0558051428571,-0.0733439020408,1.087
0.454607916698,0.473955935357,-0.124542717708,-1.47173806922,0.0725408511478,1.93649243169,0.143240325747,-0.0520364536592,-0.306427404087,-0.00190757844451,-0.468996045769,-0.0229959008368,0.171236016677,-0.0652780279364,0.573908378443,0.818904939602,0.00214940694961,0.0,0.818862944548,-0.573847534602,-0.011967956296,0.0,-0.00856735159693,0.00862874622502,-0.99992606988,0.0,0.647577835728,0.242692203911,0.303421179858,1.0,-0.0628868571429,-0.0826512979592,1.104
0.453627223619,0.468046789153,-0.124606273932,-1.4807202949,0.0720054092711,1.9398026234,0.14182733716,-0.0533046401474,-0.343633433613,0.000348492069629,-0.507985759197,-0.0340983685497,0.207884928316,-0.0928053148039,0.573885011052,0.818920742,0.00235781960741,0.0,0.818881308203,-0.573823174302,-0.0118791671126,0.0,-0.00837528606485,0.00874821878465,-0.999926658936,0.0,0.646442984422,0.24117413442,0.303516916495,1.0,-0.0703851428571,-0.0925061877551,1.122
0.452725180721,0.462639077362,-0.124646851355,-1.48901560509,0.0714728140982,1.94274740881,0.140514091131,-0.0625735287051,-0.368204609349,-0.00467325468608,-0.571908127087,-0.037458870699,0.195301022893,-0.0871867401008,0.573823193881,0.81896393301,0.00240114448573,0.0,0.818924955648,-0.573761083316,-0.0118694224913,0.0,-0.00834310629535,0.00877747605858,-0.999926671557,0.0,0.645355402886,0.239773201674,0.30355369834,1.0,-0.0766337142857,-0.100718595918,1.137
0.451494861302,0.455618640751,-0.12471903581,-1.49995841638,0.0707503065845,1.94644524333,0.138885954363,-0.0688381883543,-0.397033691286,-0.00765554245532,-0.633823782963,-0.0441307604851,0.214816561343,-0.102360294378,0.573858984617,0.818939430927,0.00219571144511,0.0,0.818897508042,-0.57379741806,-0.0120058839862,0.0,-0.00857236328597,0.00868791429379,-0.999925514592,0.0,0.64387624645,0.237874551901,0.303498618411,1.0,-0.084132,-0.110573485714,1.155
0.45023567716,0.448305730024,-0.124811885675,-1.51080683692,0.0700065832844,1.95048987331,0.137162184485,-0.0775400532158,-0.43978384956,-0.00500854024526,-0.646656556156,-0.0388932577239,0.240602861677,-0.0988770834173,0.573837321052,0.818953470932,0.00258617800101,0.0,0.818917381577,-0.573775033262,-0.0117166657429,0.0,-0.00811167588428,0.00884149642468,-0.999928011737,0.0,0.642489554485,0.235982393608,0.303706483095,1.0,-0.0912137142857,-0.119880881633,1.172
0.44892733972,0.441081219973,-0.124831976331,-1.52187449099,0.0692861473049,1.95435471944,0.135440751494,-0.0841638398656,-0.459869858858,-0.00175581713777,-0.719823158349,-0.0540819647275,0.252544726361,-0.115992459306,0.573811538671,0.818971465972,0.00260823959304,0.0,0.818935258543,-0.573748732845,-0.0117550318882,0.0,-0.00813071807805,0.00888132329334,-0.999927504132,0.0,0.640981752505,0.234070977877,0.303720053048,1.0,-0.0978788571428,-0.128640783673,1.188
0.44741978046,0.432821281766,-0.124875516585,-1.53434688777,0.0684480556981,1.95870448336,0.133402355109,-0.0895746547658,-0.507491874718,-0.00292981858937,-0.73602184894,-0.0574914331959,0.271769027243,-0.120772829674,0.573724882834,0.819031822452,0.00271652893773,0.0,0.818996849899,-0.573661509522,-0.0117208894103,0.0,-0.00804156814852,0.0089495668532,-0.999927616598,0.0,0.639271976278,0.231885574195,0.303800633767,1.0,-0.104960571429,-0.137948179592,1.205
0.445760412674,0.424190680186,-0.124917560491,-1.54752124584,0.0675117715393,1.96331237251,0.13124091171,-0.10393392509,-0.524773080424,-0.00363401534886,-0.792678765144,-0.0424573718317,0.278291937758,-0.134431082011,0.57364968793,0.819084430589,0.00273459425979,0.0,0.819049844035,-0.573586429469,-0.0116922117617,0.0,-0.00800853664476,0.00894717489112,-0.999927903102,0.0,0.63745306728,0.229534827513,0.30380529669,1.0,-0.112042285714,-0.14725557551,1.222
0.444052117762,0.41556090458,-0.125033192984,-1.5605638902,0.0665658429639,1.96779205182,0.129108816894,-0.1031007719,-0.553192824976,-0.00783869371283,-0.832932113173,-0.0588829044595,0.301901640701,-0.134633729093,0.573676346021,0.819065726285,0.00274462080805,0.0,0.819031722408,-0.573613556145,-0.0116306834429,0.0,-0.00795209558186,0.00892035123143,-0.999928593205,0.0,0.635522000429,0.22697131605,0.303842855308,1.0,-0.119124,-0.156562971429,1.239
0.44208716698,0.40598935776,-0.125106345754,-1.57515416403,0.0655954598956,1.97279031236,0.12667296405,-0.123211268598,-0.578027773055,-0.00176288241584,-0.894979812097,-0.0652682598797,0.291068143252,-0.145595986069,0.573665784036,0.819073232679,0.00271194323715,0.0,0.819038158918,-0.573602388313,-0.0117277985366,0.0,-0.00805050373895,0.0089491940383,-0.999927548033,0.0,0.63343289157,0.224277982796,0.303805570168,1.0,-0.126205714286,-0.165870367347,1.256
0.439769650702,0.395234294576,-0.125246830505,-1.59116887524,0.0644919417798,1.97826521737,0.12395462122,-0.129495030007,-0.61304804977,-0.00361712458761,-0.888086181825,-0.0631481549688,0.314941805339,-0.151920602121,0.573772360606,0.818997955763,0.00289371082631,0.0,0.818965175214,-0.573708246041,-0.0116463347258,0.0,-0.00787833025209,0.00905236764803,-0.999927990684,0.0,0.631297191849,0.221371177451,0.303910966652,1.0,-0.133287428571,-0.175177763265,1.273
0.437588408427,0.385443736352,-0.125362077321,-1.60614646793,0.0633156352226,1.98322559017,0.121349876374,-0.141097692301,-0.61795197612,-0.00845955081772,-0.947138381899,-0.0729114478649,0.304445389661,-0.163509010594,0.573752810224,0.819012577241,0.00261877495282,0.0,0.818976724716,-0.573690212323,-0.011722267637,0.0,-0.00809847499054,0.00887057051854,-0.999927861239,0.0,0.629101111522,0.218476921171,0.303788021411,1.0,-0.139952571429,-0.183937665306,1.289
0.435085693402,0.374420934437,-0.125482144741,-1.62242931805,0.0621499843224,1.98868023984,0.11842056246,-0.150195151982,-0.640233304597,-0.013552005215,-0.966649840878,-0.0637513409277,0.321601586093,-0.175454498618,0.573772288385,0.81899843995,0.00276827422475,0.0,0.818964333732,-0.573708945388,-0.0116710306724,0.0,-0.00797052568455,0.00896380441376,-0.999928057878,0.0,0.626711546371,0.215290317282,0.303882789806,1.0,-0.147034285714,-0.193245061224,1.306
0.432371868605,0.363043344543,-0.125625326523,-1.63924985858,0.0608448279284,1.99427370615,0.115442400302,-0.163558445377,-0.677755988148,-0.00655968654883,-0.991474088475,-0.0735581416735,0.337998971895,-0.175375169102,0.57390211572,0.818907241338,0.00283523490176,0.0,0.81887451308,-0.5738391076,-0.0115739931855,0.0,-0.00785120932503,0.00896421336501,-0.999928998175,0.0,0.624067195735,0.211698628133,0.30394297184,1.0,-0.154532571429,-0.20309995102,1.324
0.429655527787,0.352017518336,-0.125749084514,-1.65573791991,0.0596050365037,1.99958808577,0.112372198087,-0.174289849676,-0.708121000364,-0.00754127187727,-1.05596305436,-0.076361943717,0.330089580795,-0.200518613398,0.573916128739,0.818897953489,0.00267690969561,0.0,0.818862782257,-0.573853221754,-0.0117034447314,0.0,-0.00804792863374,0.00890898894002,-0.999927927783,0.0,0.621692926365,0.208573777045,0.303864889872,1.0,-0.160781142857,-0.211312359184,1.339
0.42658152059,0.339789021436,-0.125883888217,-1.67351491328,0.0582500033171,2.00541955374,0.109003289736,-0.177651535726,-0.724792031348,-0.00468629092678,-1.06534440715,-0.083067876081,0.352947808167,-0.198349707698,0.573979791132,0.818852624985,0.00288527800907,0.0,0.81882015732,-0.573916163295,-0.0115988954936,0.0,-0.00784202932023,0.00902022907344,-0.99992856647,0.0,0.618973432956,0.204918589823,0.303979990033,1.0,-0.167862857143,-0.220619755102,1.356
0.423167747567,0.326526710953,-0.125932622038,-1.69294633728,0.0566406497326,2.01164008331,0.105208499443,-0.196177768964,-0.765092707653,-0.00263167484813,-1.09237355999,-0.105642215556,0.35846718532,-0.219129137817,0.573849722017,0.81894388218,0.00285679591693,0.0,0.818911269209,-0.573786461904,-0.0115834450376,0.0,-0.00784715170853,0.00898679210863,-0.999928827356,0.0,0.615896057399,0.200945299329,0.303978693531,1.0,-0.175361142857,-0.230474644898,1.374
0.420149075386,0.315140139189,-0.125945734088,-1.70961846593,0.0552899389184,2.01681885883,0.101967211248,-0.202006393565,-0.772128134199,0.000824495989898,-1.11809583742,-0.0862516352906,0.351937095563,-0.221098979759,0.573777501276,0.818994930913,0.0027256318269,0.0,0.81896000106,-0.573714004751,-0.0117262235176,0.0,-0.0080401392664,0.0089605991925,-0.999927529285,0.0,0.612990095712,0.197287167482,0.303924251819,1.0,-0.182026285714,-0.239234546939,1.39
0.41630416895,0.301038233397,-0.126067839926,-1.72991692117,0.0535732853001,2.02320712783,0.0977447733163,-0.224956885461,-0.797627892528,-0.00576860129724,-1.14889191435,-0.10011874723,0.350488043707,-0.232089252466,0.573644042056,0.819088063439,0.00282917771929,0.0,0.819054955369,-0.573580743652,-0.0116128161089,0.0,-0.00788930909122,0.00897904767747,-0.999928565201,0.0,0.609879400239,0.193202225314,0.30399062066,1.0,-0.189108,-0.248541942857,1.407
0.412385968421,0.287282569109,-0.126212768033,-1.74951001363,0.0520093986623,2.029189694,0.0937082866096,-0.234236371911,-0.795574648258,-0.00792010850815,-1.16074419614,-0.10386450595,0.360265683732,-0.237720323339,0.573729879874,0.819027513748,0.00295018033708,0.0,0.818995310411,-0.57366540194,-0.0116376562714,0.0,-0.00783929522372,0.00909323006842,-0.999927926711,0.0,0.606627823096,0.188934902129,0.304073088385,1.0,-0.196189714286,-0.257849338775,1.424
0.408482314611,0.274159061812,-0.126348088904,-1.768355421,0.0503854638154,2.0347793136,0.0896551231804,-0.24963065792,-0.821482303448,-0.0106243108763,-1.16537682395,-0.103676727523,0.363793961873,-0.25211474108,0.573704701253,0.819045703108,0.00279264770682,0.0,0.819011146779,-0.573640419017,-0.0117540641132,0.0,-0.00802529461702,0.00903074531129,-0.999927017479,0.0,0.6034235278,0.184757335164,0.304022945436,1.0,-0.202854857143,-0.266609240816,1.44
0.404023292104,0.25981537265,-0.126536132045,-1.78871732561,0.0485805288309,2.04084728958,0.0851992761821,-0.263192641435,-0.838495651706,-0.0156584391787,-1.20936761731,-0.10346237464,0.341618310244,-0.264542137024,0.573791922126,0.818984706456,0.00276181011366,0.0,0.818949928801,-0.573727939892,-0.011747851086,0.0,-0.00803693748225,0.00900277958285,-0.999927176146,0.0,0.599947533584,0.18010986266,0.304022347895,1.0,-0.209936571429,-0.275916636735,1.457
0.399282991565,0.245102276588,-0.126696992766,-1.80931554897,0.0467105525856,2.0468977458,0.0805370967659,-0.28347645674,-0.870736613352,-0.00926891698418,-1.23196238754,-0.116464146046,0.358978744398,-0.282408241906,0.57386369728,0.818934189572,0.00282789588451,0.0,0.818900524851,-0.57379976104,-0.0116838149039,0.0,-0.00794578248757,0.00902085632256,-0.999927741735,0.0,0.596372787792,0.175324850855,0.304082223946,1.0,-0.217018285714,-0.285224032653,1.474
0.394693090071,0.230922387331,-0.12681183103,-1.82896310461,0.0449884710022,2.05262292169,0.0759458211784,-0.288228717228,-0.885802406367,-0.00861839747946,-1.22316364119,-0.10861404349,0.361773728647,-0.287404831908,0.573827241005,0.818959007258,0.00303130537936,0.0,0.818927549853,-0.573762122655,-0.0116379379529,0.0,-0.00779189592169,0.00916076168672,-0.999927680787,0.0,0.592882247857,0.170795324492,0.304169038121,1.0,-0.223683428571,-0.293983934694,1.49
0.389207545406,0.214661779168,-0.12692022445,-1.85145938031,0.0428228976208,2.05898946746,0.0704997135351,-0.309729860944,-0.93598671784,-0.00957395639045,-1.25294869552,-0.116928410667,0.359956913621,-0.298259034492,0.57368240425,0.8190604099,0.00304809604008,0.0,0.819029512939,-0.573617653913,-0.0115840820008,0.0,-0.00773977026707,0.00914224064483,-0.999928255122,0.0,0.588796253259,0.165506080203,0.304198311361,1.0,-0.231181714286,-0.30383882449,1.508
0.383636876636,0.199059535966,-0.127084502618,-1.87296770038,0.0408028633126,2.06481322219,0.0651527955659,-0.337404189501,-0.94015269652,-0.0090104102433,-1.25908639068,-0.12118952447,0.342793704736,-0.323104843782,0.573719607018,0.819034712517,0.00294942650781,0.0,0.819001892153,-0.573654429797,-0.0117150640498,0.0,-0.0079032446965,0.00913692374758,-0.999927025011,0.0,0.584804281717,0.160277373166,0.304169331633,1.0,-0.238263428571,-0.313146220408,1.525
0.378050712574,0.184084054903,-0.127317089225,-1.8934591025,0.0388300619737,2.07033168775,0.0598696114561,-0.356936567816,-0.915158613617,-0.0165578152331,-1.28643059446,-0.118920534148,0.323644113188,-0.332350483139,0.573831273797,0.818956634971,0.00290622608995,0.0,0.818922979342,-0.573765917683,-0.0117716826131,0.0,-0.00797315760929,0.00913511083604,-0.999926486552,0.0,0.580967745189,0.15514162952,0.304142881311,1.0,-0.244928571429,-0.321906122449,1.541
0.371783301574,0.167802947331,-0.127533442445,-1.91538330467,0.0366518606631,2.07612541727,0.0540339765881,-0.374012213447,-0.945136058567,-0.0131844899047,-1.31241339464,-0.139683327676,0.32970965095,-0.349969822665,0.573941999076,0.8188787941,0.00297475562828,0.0,0.818846008204,-0.573876363444,-0.0117422838564,0.0,-0.00790851756568,0.00917543329738,-0.999926630695,0.0,0.576792024135,0.149553874575,0.304187188035,1.0,-0.252010285714,-0.331213518367,1.558
0.365324477996,0.151261201864,-0.127700059671,-1.93743573941,0.0343868058789,2.08182904972,0.0479053232376,-0.387933596527,-0.95810763934,-0.0100448878884,-1.31518926101,-0.141680167938,0.334830448516,-0.357447412959,0.573850709742,0.818942424563,0.00306840041412,0.0,0.818910989773,-0.573784924079,-0.011678982368,0.0,-0.00780396248871,0.00921491655681,-0.999927089083,0.0,0.572486998347,0.143934995089,0.304240823731,1.0,-0.259092,-0.340520914286,1.575
0.358882332044,0.135380264056,-0.127874639286,-1.95842825065,0.0322289559761,2.08703499125,0.0419059455726,-0.402981376674,-1.02046499826,-0.00791231216043,-1.31342725695,-0.132528605502,0.322770721976,-0.386978500526,0.573836909982,0.818951912259,0.00311657668108,0.0,0.818920713965,-0.573770502998,-0.0117055982463,0.0,-0.0077982724389,0.00926951199477,-0.999926628856,0.0,0.568295998652,0.138474453988,0.304277354873,1.0,-0.265757142857,-0.349280816326,1.591
0.351191515251,0.117230441505,-0.128169063447,-1.98217207977,0.0296474881317,2.09278929244,0.0348325519941,-0.443050183004,-1.02978210069,-0.0236116205564,-1.32034226001,-0.149904143175,0.333671349562,-0.398436773251,0.573885945155,0.818917390957,0.00315842423046,0.0,0.818887109108,-0.573819838365,-0.011637978175,0.0,-0.00771832484331,0.00926544338055,-0.999927286867,0.0,0.563492220199,0.132084536523,0.304327040795,1.0,-0.273255428571,-0.359135706122,1.609
0.343052078177,0.098811536083,-0.128417865862,-2.00602388798,0.0269970277143,2.09837625117,0.0273648765702,-0.455216727012,-1.03717707824,-0.00942918780429,-1.32226605832,-0.154333338245,0.325304896692,-0.431042403468,0.573858936544,0.818936137951,0.00320465410188,0.0,0.818906699943,-0.573792979245,-0.011583637548,0.0,-0.00764759861239,0.00927186515177,-0.999927770768,0.0,0.558556811,0.125552500187,0.304368300794,1.0,-0.280753714286,-0.368990595918,1.627
0.33605002261,0.0833108708814,-0.128573097798,-2.02616859769,0.0248767316286,2.10277122194,0.0208789634739,-0.475295890308,-1.04011540724,-0.0109647992397,-1.32355615253,-0.145340919537,0.265910575509,-0.441684787663,0.573761680325,0.819004806023,0.00306737706268,0.0,0.818971738694,-0.573694006923,-0.0118837932757,0.0,-0.0079733014795,0.0093307399704,-0.999924679041,0.0,0.553945015468,0.119710161162,0.304283371679,1.0,-0.287418857143,-0.377750497959,1.643
0.32811936527,0.0663561949465,-0.128806615177,-2.04757120058,0.0223852459371,2.10753867141,0.0136739036705,-0.50335095873,-1.0610461844,-0.0171908359517,-1.35331571491,-0.160168348921,0.290888570159,-0.453274556691,0.573699015332,0.819048060714,0.00323433906305,0.0,0.819017865608,-0.573631598809,-0.0117162948127,0.0,-0.00774103849627,0.00937078869021,-0.999926129593,0.0,0.54963848891,0.114037214982,0.304357536023,1.0,-0.28998,-0.381116571429,1.658
0.318751086838,0.0475095078149,-0.129125698375,-2.07122608042,0.0195962085573,2.11238212366,0.0053478541921,-0.527156961497,-1.04188299435,-0.00726037401149,-1.30698974646,-0.161673292246,0.265687098102,-0.470930843884,0.573813809268,0.818967720403,0.00321436354483,0.0,0.81893706247,-0.573746199251,-0.011753019169,0.0,-0.0077812642633,0.00937658666725,-0.999925763019,0.0,0.544432870879,0.107089145481,0.304381273155,1.0,-0.28998,-0.381116571429,1.676
0.310288607663,0.0308379831688,-0.12929408394,-2.09188051713,0.017204416309,2.1164406329,-0.00216198861003,-0.535762358726,-1.04938748454,-0.00845766196071,-1.26935573312,-0.152432728569,0.245434481527,-0.482971555668,0.573829838151,0.818956162391,0.00329663934037,0.0,0.818925755951,-0.573760950249,-0.0118205376908,0.0,-0.00778916922977,0.00948286266839,-0.999924699244,0.0,0.53976773025,0.101041096588,0.304416411601,1.0,-0.28998,-0.381116571429,1.692
0.300394074776,0.0122229894179,-0.129543316838,-2.1145194879,0.014349651389,2.12076704074,-0.010871812282,-0.552181775385,-1.03336717184,-0.0162771411695,-1.23839287334,-0.155422901565,0.233668529362,-0.484285669742,0.573863597553,0.818931864441,0.00345249285483,0.0,0.818904307825,-0.573795204972,-0.0116423484577,0.0,-0.0075534117102,0.00950856431077,-0.99992626387,0.0,0.534595077179,0.0941370005317,0.304530909357,1.0,-0.28998,-0.381116571429,1.71
0.290759883366,-0.005088219411,-0.129755397706,-2.13546685859,0.0117955477285,2.12444497857,-0.0193474879321,-0.570986310875,-1.03051508086,-0.0120105270195,-1.20731736481,-0.144144956465,0.222530775967,-0.499926227065,0.573919532233,0.818892419841,0.00351029196856,0.0,0.818864842802,-0.573849971401,-0.0117186367575,0.0,-0.00758206784408,0.00960019404075,-0.999925171461,0.0,0.529672022042,0.0876297785428,0.304560383185,1.0,-0.28998,-0.381116571429,1.727
0.282168576509,-0.0201942808348,-0.129911273194,-2.1537128757,0.00941720616474,2.12755837174,-0.0269638182901,-0.580252010084,-0.99378698921,-0.0129705167266,-1.21569271476,-0.16513524483,0.196952816947,-0.520396058839,0.573812251977,0.818967889911,0.00344117384885,0.0,0.818939398869,-0.573742915879,-0.0117505046612,0.0,-0.00764908415826,0.00956088046127,-0.999925037729,0.0,0.525294724098,0.0819520075189,0.30451715375,1.0,-0.28998,-0.381116571429,1.742
0.271432387543,-0.0382961737686,-0.130195348855,-2.17497006954,0.00657359935448,2.13097621041,-0.0362472195379,-0.602421089172,-0.984780309684,-0.0180076197832,-1.18240467801,-0.153872616543,0.181599425394,-0.534704160346,0.573953681681,0.818868188177,0.00357890733236,0.0,0.818842148677,-0.573884723007,-0.0116020321564,0.0,-0.00744679818194,0.00958977387397,-0.999926288,0.0,0.519833598354,0.0746327378469,0.304620977969,1.0,-0.28998,-0.381116571429,1.761
0.261107761132,-0.055233726097,-0.130371419521,-2.19461606819,0.00405449055615,2.13391234402,-0.0453014633477,-0.603139462662,-0.991560009714,-0.0038097077583,-1.13804695209,-0.155586116131,0.168481976287,-0.531039694729,0.573954782003,0.818866400933,0.00380427914116,0.0,0.818842985654,-0.573884750921,-0.011541421359,0.0,-0.00726780431028,0.00973954878682,-0.999926157379,0.0,0.515223689627,0.0685881332599,0.304714996462,1.0,-0.28998,-0.381116571429,1.777
0.253057461554,-0.0678617969232,-0.130525239817,-2.20952720212,0.00203331725979,2.13589031216,-0.0524134503664,-0.622586510566,-0.965495706881,-0.00654883390534,-1.12845914802,-0.151398780797,0.139888075365,-0.543620423551,0.57387645075,0.81892233578,0.00357409246474,0.0,0.818894930016,-0.57380584775,-0.011776654186,0.0,-0.00759347619494,0.0096853371775,-0.999924263814,0.0,0.511393488936,0.0636520803252,0.304587871147,1.0,-0.28998,-0.381116571429,1.79
0.239600452332,-0.0882905781334,-0.130837455237,-2.2329442562,-0.00118748761767,2.13888863201,-0.0641650957468,-0.639239587347,-0.953600648818,-0.00655151843424,-1.12472988621,-0.152722763582,0.132745745208,-0.565167513371,0.573929692527,0.818884939254,0.0035932159038,0.0,0.81885735197,-0.573858467866,-0.0118255183425,0.0,-0.00762188824124,0.00972953469001,-0.99992361857,0.0,0.505304498487,0.0556074422737,0.304578747624,1.0,-0.28998,-0.381116571429,1.811
0.227236854522,-0.106644198896,-0.131038333355,-2.25350542141,-0.00408992282871,2.14119781957,-0.0750670245631,-0.657158299941,-0.953194728486,-0.0129285939467,-1.08012808271,-0.150413954673,0.110946547351,-0.573220015982,0.573802625459,0.81897360099,0.00367896712038,0.0,0.818947072155,-0.573731054149,-0.0117948045987,0.0,-0.00754904125347,0.00978095751106,-0.99992366951,0.0,0.499800824491,0.0484640956021,0.304641785266,1.0,-0.28998,-0.381116571429,1.83
0.218385254368,-0.119028050703,-0.131298767323,-2.2673418071,-0.00613472847831,2.14260030562,-0.0826825674304,-0.684914714325,-0.961266958543,-0.0256206319425,-1.04239226824,-0.156218707181,0.114035478317,-0.597594750959,0.573958160428,0.818864850507,0.00362402870676,0.0,0.818837539296,-0.573886666111,-0.0118290152113,0.0,-0.00760672947336,0.00975703841217,-0.999923466005,0.0,0.496029052645,0.0434124926871,0.3046262383,1.0,-0.28998,-0.381116571429,1.843
0.206068524538,-0.136022120469,-0.131489192716,-2.28622550029,-0.00881398563902,2.14425972405,-0.0935702211882,-0.682981806435,-0.926838789186,-0.0149897259122,-1.04873166714,-0.146824006543,0.0815025146546,-0.5956626521,0.573839743123,0.818948256482,0.00352835925708,0.0,0.818918226947,-0.573766749476,-0.0120582615147,0.0,-0.00785078817374,0.0098091362532,-0.999921069871,0.0,0.490738319975,0.0366264590506,0.304551030324,1.0,-0.28998,-0.381116571429,1.861
0.194019083446,-0.15198724107,-0.131814421564,-2.30346246967,-0.0113968628668,2.14574287701,-0.104097040491,-0.721759360604,-0.934866827962,-0.0206213466873,-1.01686648382,-0.152035859279,0.073245813442,-0.624618836302,0.5739356559,0.818880310499,0.00369416631276,0.0,0.818852959977,-0.573862693754,-0.0119241584307,0.0,-0.00764466151019,0.00986886871614,-0.999922079255,0.0,0.485853807585,0.030090052013,0.30461648031,1.0,-0.28998,-0.381116571429,1.878
0.181742999569,-0.167794270393,-0.132027463132,-2.32028662011,-0.0138934882054,2.14682098502,-0.114870310202,-0.719377324942,-0.942959179382,-0.00592608677217,-0.980933119185,-0.134886178606,0.0751176326688,-0.644842961835,0.57393509691,0.818880207964,0.00380216263394,0.0,0.818853922409,-0.573861305183,-0.0119248928927,0.0,-0.00758329076216,0.00995772206148,-0.999921665668,0.0,0.480932444298,0.0236488339977,0.304677870922,1.0,-0.28998,-0.381116571429,1.895
0.169972381485,-0.182456863075,-0.132278808317,-2.33589913825,-0.0162876358164,2.14762035553,-0.12530210439,-0.743372050136,-0.924979860344,-0.0213511020639,-0.974034207467,-0.148013108372,0.0485059849342,-0.655949429779,0.57386843863,0.818927202027,0.00374163412393,0.0,0.818899326766,-0.573793835547,-0.0120529585872,0.0,-0.00772371776232,0.00998102635611,-0.999920358477,0.0,0.4762487432,0.0175818725598,0.304642347719,1.0,-0.28998,-0.381116571429,1.911
0.156314721123,-0.198804164059,-0.132552041097,-2.35281631302,-0.018962032453,2.14842622439,-0.137352593542,-0.76419412078,-0.895508737675,-0.005835600666,-0.933002909113,-0.139927265442,0.0307497281467,-0.67237480446,0.573856117442,0.818934978299,0.00392488127613,0.0,0.818910330095,-0.573781959943,-0.0118693137035,0.0,-0.00746831387725,0.0100255971238,-0.999921852792,0.0,0.471092753766,0.010718862478,0.304735321014,1.0,-0.28998,-0.381116571429,1.929
0.143986654302,-0.213086253267,-0.132830157848,-2.36763426092,-0.0212257942308,2.14877927593,-0.148344949564,-0.787190759819,-0.862927471708,-0.0248869455383,-0.895665051955,-0.131588832976,0.00939613006757,-0.692761776553,0.573825227331,0.818956669234,0.00391526469269,0.0,0.818930488259,-0.573749230645,-0.0120591308,0.0,-0.00762967238347,0.010126358063,-0.999919619255,0.0,0.466418434122,0.00466130418235,0.30469837583,1.0,-0.28998,-0.381116571429,1.945
0.130521359488,-0.228110319794,-0.133110016451,-2.38290258147,-0.0237583160926,2.14908634678,-0.160196027742,-0.797327492716,-0.88635768888,-0.00590731278253,-0.898449961484,-0.137912605444,0.0160827760245,-0.699047524033,0.573864965735,0.818928604551,0.00396089010317,0.0,0.818903537614,-0.573789487735,-0.0119735854389,0.0,-0.00753293954414,0.0101150028604,-0.999920467607,0.0,0.461514611665,-0.00181669607663,0.304727506469,1.0,-0.28998,-0.381116571429,1.962
0.11760354607,-0.242106764767,-0.1333978255,-2.39689798505,-0.0260713852678,2.14918835751,-0.171768392891,-0.824854441971,-0.890997402826,-0.0260553187653,-0.835843715365,-0.133773976801,0.00822872084214,-0.722482810884,0.573809201259,0.818966979898,0.00410283899509,0.0,0.818944183036,-0.573733805894,-0.0118613636151,0.0,-0.00736026941369,0.0101663514446,-0.999921232764,0.0,0.456621964583,-0.00828558646895,0.304783629291,1.0,-0.28998,-0.381116571429,1.979
0.103514297238,-0.256720409404,-0.13368600655,-2.41149951101,-0.0284421129793,2.14914445593,-0.184352778485,-0.830224867116,-0.860410059209,-0.00519782850008,-0.872281073357,-0.138439316318,-0.011188009592,-0.746160971325,0.573824867114,0.818955864632,0.00413044413038,0.0,0.818932955887,-0.573748722131,-0.0119148863611,0.0,-0.00738807126346,0.0102198116667,-0.999920482765,0.0,0.452259277215,-0.0140018193728,0.304750521551,1.0,-0.28998,-0.381116571429,1.994
0.0891124998168,-0.271188664914,-0.134092338575,-2.42553720078,-0.030852811341,2.14898076447,-0.197181989271,-0.856102207134,-0.843667461994,-0.0312485180604,-0.790963927506,-0.14201990384,-0.000839420877597,-0.756602249517,0.573906046775,0.818897774589,0.00436247056561,0.0,0.818878969448,-0.573830661337,-0.0116770033785,0.0,-0.00705908862011,0.0102740360552,-0.999922303707,0.0,0.44710527019,-0.0209016000835,0.304837627045,1.0,-0.28998,-0.381116571429,2.012
0.072717904244,-0.287009123006,-0.134409382672,-2.44096673139,-0.0334455020202,2.14838842137,-0.21194848438,-0.871328255891,-0.816872888355,-0.0196166723754,-0.809102626181,-0.133322577441,-0.0335010287689,-0.767789533907,0.573846673819,0.81893946943,0.00434594724905,0.0,0.818919434663,-0.573769882739,-0.0118248930081,0.0,-0.00719043640085,0.0103448553558,-0.999920637647,0.0,0.441553154942,-0.0280906634427,0.304784119553,1.0,-0.28998,-0.381116571429,2.031
0.061186198559,-0.297677117514,-0.134715024149,-2.45099051842,-0.0352323357257,2.14794622094,-0.222307346308,-0.893737784792,-0.816423673166,-0.0305735912854,-0.769464852694,-0.143107855362,-0.0328514821198,-0.803370734082,0.573909028523,0.818894781975,0.00452878957724,0.0,0.818878201148,-0.573833231881,-0.0116043343149,0.0,-0.0069040917843,0.0103685589226,-0.999922410241,0.0,0.43756513647,-0.0334854130628,0.304882462604,1.0,-0.28998,-0.381116571429,2.045
0.0441747597122,-0.313028449768,-0.135013998339,-2.46555517055,-0.0378006019708,2.14699885639,-0.23771353392,-0.904911515398,-0.795335562056,-0.0200105358244,-0.751391342919,-0.142054990324,-0.0605824217069,-0.812168486754,0.573817113311,0.818959421963,0.00448693113627,0.0,0.818941668649,-0.573740521953,-0.0117091298152,0.0,-0.0070151030355,0.0103936340514,-0.99992137726,0.0,0.432308040415,-0.0402574770415,0.304839952714,1.0,-0.28998,-0.381116571429,2.063
0.0284797730561,-0.326488022888,-0.135397617569,-2.47790239812,-0.040007957428,2.14608462395,-0.251925355677,-0.920929461651,-0.807418639236,-0.0112748677925,-0.712484617876,-0.128587141085,-0.0601022219453,-0.851925082274,0.573898070497,0.818901477556,0.00470336448231,0.0,0.818887302607,-0.573821982707,-0.0115180160229,0.0,-0.00673335604503,0.0104618940495,-0.999922602349,0.0,0.427445263773,-0.0467751701223,0.30493371108,1.0,-0.28998,-0.381116571429,2.08
0.0145436603876,-0.338049311702,-0.135617496006,-2.48864771273,-0.041919613104,2.14509483418,-0.264775626371,-0.938169833458,-0.793316068199,-0.0232613659521,-0.696813776543,-0.139224203761,-0.0725348522099,-0.867293535538,0.573701911665,0.819039019996,0.00468478151718,0.0,0.819023957454,-0.573624910752,-0.0116174774082,0.0,-0.00682799139154,0.0105021194942,-0.999921538932,0.0,0.423084788645,-0.0523906043164,0.304889383935,1.0,-0.28998,-0.381116571429,2.095
-0.00270611707875,-0.351675116458,-0.136007238774,-2.50095859439,-0.0442377258134,2.14369275071,-0.280448007057,-0.962485548864,-0.761251943965,-0.0165443966152,-0.670496553144,-0.128352064134,-0.0855534014105,-0.880145739674,0.573779764803,0.818984334513,0.00471043798189,0.0,0.81896950986,-0.573702526981,-0.0116232248808,0.0,-0.00681698016847,0.0105270790025,-0.999921351602,0.0,0.417874706703,-0.0592773217793,0.304919082786,1.0,-0.28998,-0.381116571429,2.113
-0.0193097287353,-0.364250300515,-0.136440031706,-2.51222725414,-0.0463187371545,2.14238062345,-0.295680751079,-0.990119257857,-0.745014284316,-0.0320787989682,-0.659527894197,-0.120322313851,-0.0847576331812,-0.896704404962,0.573851195995,0.818933519278,0.0048417722503,0.0,0.818920285901,-0.573773374253,-0.0115942761634,0.0,-0.00671699070347,0.0106186191999,-0.999921060365,0.0,0.412954509489,-0.0657875631373,0.304933053067,1.0,-0.28998,-0.381116571429,2.13
-0.0350894651654,-0.375700440541,-0.136688620265,-2.52255796235,-0.0482621226197,2.14091066907,-0.310313355551,-0.991644201898,-0.717824953497,-0.0148009157379,-0.639868971122,-0.117991750473,-0.0986185296032,-0.915708304574,0.573683629868,0.81905154166,0.00473411305508,0.0,0.819035596111,-0.57360413644,-0.0118209078482,0.0,-0.00696656009397,0.010659073651,-0.999918922308,0.0,0.408273159897,-0.0717888251367,0.30484950972,1.0,-0.28998,-0.381116571429,2.146
-0.0513109904039,-0.38699599436,-0.137082184707,-2.5322195034,-0.0502349284533,2.13955027521,-0.325203746254,-0.99870409561,-0.693982400156,-0.0220143716555,-0.608286611967,-0.11128571319,-0.0883236207478,-0.943231209565,0.573777429069,0.818984820289,0.00490641713056,0.0,0.818972944274,-0.573700259351,-0.0114924266059,0.0,-0.00659743717937,0.0106125221989,-0.999921921049,0.0,0.403714328548,-0.0779484407753,0.304970453535,1.0,-0.28998,-0.381116571429,2.162
-0.0698236363686,-0.399190346984,-0.137494419969,-2.5429077135,-0.0522956960073,2.13772936245,-0.342419105277,-1.04203985653,-0.665900117989,-0.0337032711592,-0.589328494903,-0.109411974135,-0.1103741244,-0.967856399338,0.57376133609,0.818996205333,0.00488791976652,0.0,0.81898272222,-0.57368204495,-0.0117029444034,0.0,-0.00678068579958,0.0107180252086,-0.999919569883,0.0,0.398454000555,-0.0847953794495,0.304909050529,1.0,-0.28998,-0.381116571429,2.18
-0.0864809952293,-0.40974885046,-0.137753720912,-2.55193357997,-0.0540047337289,2.13605465075,-0.357959959309,-1.04816938232,-0.649762216961,-0.0124075025963,-0.548625436855,-0.110688383498,-0.0956178422775,-0.969128421944,0.57369930393,0.819039240895,0.00495756446699,0.0,0.819026054197,-0.573618831664,-0.011768832085,0.0,-0.00679551379436,0.0108123534104,-0.999918453678,0.0,0.393823422361,-0.0908047730542,0.304915222566,1.0,-0.28998,-0.381116571429,2.196
-0.104642112333,-0.420602121425,-0.138140514899,-2.56100143439,-0.0558899327001,2.13440913671,-0.374910995722,-1.07020629795,-0.624293266116,-0.00752291661761,-0.538767439894,-0.109411453452,-0.106003441046,-1.0150816968,0.573718450775,0.819024993939,0.00509366720593,0.0,0.819014773589,-0.573639493061,-0.0115446760253,0.0,-0.00653357532935,0.010795390182,-0.999920382803,0.0,0.38894877884,-0.0973288089268,0.304983807096,1.0,-0.28998,-0.381116571429,2.213
-0.125210615816,-0.432208256706,-0.138555820989,-2.57086171929,-0.0579538536748,2.13220706567,-0.394175830583,-1.0850650928,-0.606508810723,-0.0179634634068,-0.50707738438,-0.109219317927,-0.121643040936,-1.01979189763,0.573707454352,0.819033390024,0.00498093834486,0.0,0.819019965084,-0.573626039408,-0.0118410560185,0.0,-0.00684115603045,0.0108729993934,-0.99991748483,0.0,0.38335982446,-0.104545261775,0.304904091599,1.0,-0.28998,-0.381116571429,2.232
-0.141600685544,-0.441009514966,-0.138822618344,-2.57808868531,-0.0593841331825,2.1306288805,-0.409708722058,-1.10788731411,-0.578131352538,-0.0158079539953,-0.463036377824,-0.0930845864058,-0.106291991451,-1.04497938203,0.573618302213,0.819094977328,0.00511941232188,0.0,0.819083486795,-0.573536646485,-0.0117772534929,0.0,-0.00671064780847,0.0109490850521,-0.999917538971,0.0,0.379062774947,-0.110190012032,0.304938156058,1.0,-0.28998,-0.381116571429,2.247
-0.160671113263,-0.4506019839,-0.139208118021,-2.58577627136,-0.0610801375691,2.12886462944,-0.427611575919,-1.12565510384,-0.551063143556,-0.0182379961851,-0.454213907414,-0.103455980519,-0.116109845798,-1.05258465874,0.573722815646,0.819020933549,0.00525243910385,0.0,0.819012481898,-0.573642902176,-0.0115378585315,0.0,-0.00643684718388,0.0109215561435,-0.999919640076,0.0,0.374190217331,-0.116732289999,0.305027286344,1.0,-0.28998,-0.381116571429,2.264
-0.179897789295,-0.459697004592,-0.139559339704,-2.59326335022,-0.0627375898411,2.12685639271,-0.445889575266,-1.12604512518,-0.526483921557,-0.0110581162367,-0.423791439491,-0.0931847994746,-0.116106431169,-1.08435500187,0.573643374004,0.819077105625,0.0051692750319,0.0,0.819066084865,-0.573561252954,-0.0117891745051,0.0,-0.0066914758988,0.0109969714275,-0.999917141952,0.0,0.369200343651,-0.12317747625,0.304967012366,1.0,-0.28998,-0.381116571429,2.281
-0.199401515412,-0.468249743814,-0.139977586796,-2.60024080846,-0.064238811919,2.12510799556,-0.464496805032,-1.16390660536,-0.490761029031,-0.0397666078387,-0.400313955729,-0.0846337390902,-0.100644158989,-1.09836468447,0.573658481073,0.819065939773,0.00526120689264,0.0,0.819055458546,-0.573574954416,-0.0118606236495,0.0,-0.00669706529139,0.0111133815383,-0.99991581749,0.0,0.364270935887,-0.129656688767,0.304925543837,1.0,-0.289686857143,-0.380731297959,2.298
-0.217899117749,-0.47587716026,-0.140152832049,-2.60612426401,-0.0655221197993,2.12347688318,-0.482068319703,-1.15611085739,-0.458343300099,-0.00177048919287,-0.354298215339,-0.0702291567952,-0.102865295493,-1.10022731626,0.573666159611,0.819059738944,0.00538778802015,0.0,0.819052111103,-0.573584246529,-0.0116403751326,0.0,-0.00644393635104,0.0110907819827,-0.999917731736,0.0,0.359754367266,-0.135683607575,0.305022099854,1.0,-0.283021714286,-0.371971395918,2.314
-0.237547157989,-0.483277638219,-0.140332320666,-2.61202218967,-0.0667744716677,2.12177229371,-0.500757814986,-1.15043702756,-0.422284204275,-0.00423645224751,-0.339888836826,-0.0663691747153,-0.0940169786452,-1.10449074338,0.573733878118,0.819011875459,0.0054526926971,0.0,0.819004463976,-0.573650659278,-0.0117198975505,0.0,-0.00647091909773,0.0111900973765,-0.999916450973,0.0,0.354677198507,-0.14235431142,0.305002438524,1.0,-0.275523428571,-0.362116506123,2.332
-0.255866917825,-0.489608861889,-0.140448810158,-2.61714238409,-0.0678121384929,2.12015119413,-0.518185019977,-1.14463965175,-0.383743175551,-0.000699203551268,-0.306834854392,-0.0602318762397,-0.0997680494553,-1.09111079981,0.573811356994,0.818957653157,0.00544387927639,0.0,0.818948282347,-0.57372500084,-0.012003380906,0.0,-0.0067071001468,0.0113461503175,-0.999913136068,0.0,0.350223482165,-0.148111380739,0.30492542149,1.0,-0.268858285714,-0.353356604082,2.348
-0.276271170903,-0.496155862319,-0.140408285548,-2.6222406499,-0.0688136692109,2.11864806152,-0.537596714083,-1.13971989,-0.348844967242,-0.00468323856537,-0.264849498506,-0.0452725218582,-0.0806930597875,-1.07694323149,0.573856944843,0.818924925531,0.00556058458096,0.0,0.81891741117,-0.573770711238,-0.0119244081587,0.0,-0.00657482107917,0.0113967833881,-0.999913438782,0.0,0.345685711527,-0.154100360746,0.304940335627,1.0,-0.261776571429,-0.344049208163,2.365
-0.296187920467,-0.501972040042,-0.140269579986,-2.62669576355,-0.0697163445965,2.11715389905,-0.556644452671,-1.09304019344,-0.30758723562,0.0120192252975,-0.233973029729,-0.0435346050448,-0.0797170681141,-1.05217597748,0.573824702094,0.818947279972,0.00559560493521,0.0,0.818940271807,-0.573738430638,-0.0119076161849,0.0,-0.00654142223424,0.0114155703216,-0.999913443529,0.0,0.341038210492,-0.160205570869,0.304965878399,1.0,-0.254278285714,-0.334194318367,2.383
-0.309413969353,-0.50544447484,-0.140214382503,-2.62933619395,-0.0702353247119,2.11630766159,-0.569201518913,-1.09178597692,-0.286297497918,0.0134426545836,-0.212993579742,-0.0458870189364,-0.0649830238615,-1.04542571692,0.57392682781,0.818875203326,0.00566962068322,0.0,0.818869698284,-0.573841216801,-0.0118077107832,0.0,-0.00641570305895,0.0114196624357,-0.999914211352,0.0,0.337763328069,-0.164581779326,0.304997063669,1.0,-0.248862857143,-0.327076897959,2.396
-0.330933537427,-0.510680079945,-0.14004661382,-2.63326742291,-0.0709448525675,2.1150064685,-0.589841424624,-1.07467386869,-0.241744271456,0.00470728652952,-0.185925819602,-0.0296192516138,-0.0635474674064,-1.02884440422,0.574024363464,0.818805738262,0.00582580814721,0.0,0.818802762329,-0.573939087079,-0.0116922036975,0.0,-0.00623010441974,0.0114820186531,-0.999914670883,0.0,0.333105171834,-0.170765516698,0.305038132998,1.0,-0.240948,-0.316674514286,2.415
-0.348667319346,-0.514495419132,-0.139740960424,-2.63629369447,-0.0714484080057,2.11385933361,-0.607021563315,-1.02876471198,-0.213045545242,0.0216299989121,-0.168360672086,-0.0279075797337,-0.0682300466483,-0.996399076827,0.573867973511,0.818915363311,0.00582439810292,0.0,0.818910994646,-0.573780222899,-0.0119073741633,0.0,-0.00640933059677,0.0116031477212,-0.999912139862,0.0,0.329038465942,-0.176001613965,0.304983626468,1.0,-0.233866285714,-0.307367118367,2.432
-0.365179681237,-0.517567397544,-0.139536996014,-2.63876531365,-0.0718902101866,2.11298716694,-0.62290387086,-1.01620264947,-0.177007433661,0.0203102815041,-0.144903670599,-0.025580243343,-0.0544336475632,-0.982445988088,0.573905709165,0.818888764494,0.00584596223898,0.0,0.818883701517,-0.573816106401,-0.012054307345,0.0,-0.00651675502615,0.0117054243682,-0.999910253445,0.0,0.325293620983,-0.180893928113,0.304923973765,1.0,-0.227201142857,-0.298607216327,2.448
-0.382247690479,-0.520396054103,-0.139280200294,-2.64099547512,-0.0722081025847,2.11221209183,-0.63932415416,-0.998472394651,-0.155998228476,0.0115747639418,-0.118228069086,-0.0191957786071,-0.0376010047447,-0.956413602929,0.573982034349,0.818834532096,0.00594812518585,0.0,0.818830296948,-0.573891074776,-0.0121130505816,0.0,-0.00650513339341,0.0118234061644,-0.999908941007,0.0,0.321249322128,-0.186207666402,0.304892499545,1.0,-0.219702857143,-0.288752326531,2.466
-0.399786755918,-0.522947925411,-0.138905910608,-2.64292719904,-0.072516457051,2.11142782939,-0.656348961474,-0.969706156885,-0.13479887094,0.0226255723787,-0.104299542061,-0.0196352311066,-0.0434150852182,-0.947580377491,0.573897355586,0.81889376027,0.00596502678659,0.0,0.818889565824,-0.573806013801,-0.0121360789651,0.0,-0.00651551653992,0.0118497899658,-0.99990856108,0.0,0.317576524127,-0.191030661781,0.304893254218,1.0,-0.212621142857,-0.279444930612,2.483
-0.415127730384,-0.524888816493,-0.138677985821,-2.64434672347,-0.0727445122982,2.11084879678,-0.67108462427,-0.945476777317,-0.110173776221,0.0122017436298,-0.0757707034772,-0.0196758319635,-0.0376693369117,-0.910357728883,0.574050154193,0.818786077516,0.00604372724907,0.0,0.818783162807,-0.573958905185,-0.0120852953615,0.0,-0.00642654424042,0.0118862966259,-0.999908703573,0.0,0.314178238004,-0.19552442571,0.304915820091,1.0,-0.205956,-0.270685028572,2.499
-0.430811144709,-0.526552755617,-0.138335940843,-2.64558447904,-0.0729010306391,2.11036285912,-0.686318950794,-0.926344624186,-0.091294397468,0.018215090702,-0.0684435049375,-0.0063285019939,-0.0218889413307,-0.893461596008,0.574036019049,0.818795556843,0.00610178897489,0.0,0.81879370721,-0.573945099711,-0.0120264064177,0.0,-0.00634519842276,0.0118999259893,-0.999909060974,0.0,0.31073233061,-0.200072071495,0.30492960428,1.0,-0.198874285714,-0.261377632653,2.516
-0.448686064922,-0.528053103092,-0.137935328068,-2.64672559536,-0.0730341111042,2.10987870653,-0.70369545737,-0.869110320405,-0.0701683213813,0.0264315876575,-0.0474416304683,-0.0010530479609,-0.0194329868364,-0.859209848485,0.574037103951,0.818794416948,0.00615247621972,0.0,0.818793240714,-0.573945994274,-0.0120154699967,0.0,-0.00630713210099,0.0119351613307,-0.999908881853,0.0,0.306806024894,-0.205234135523,0.304928422563,1.0,-0.190542857143,-0.250427755102,2.536
-0.460860485818,-0.528835843455,-0.137670076782,-2.64733061562,-0.0730682725975,2.10960344666,-0.715422579861,-0.875844541341,-0.0490956122341,0.0154449466793,-0.0437787001502,0.00189762267905,-0.0189649611115,-0.831487363489,0.574165960195,0.818703621942,0.00621099621488,0.0,0.818703105022,-0.574074377331,-0.0120242263955,0.0,-0.00627882480324,0.0119890942076,-0.999908414796,0.0,0.304135677886,-0.208741805197,0.30492269463,1.0,-0.184710857143,-0.242762840816,2.55
-0.475069623236,-0.529501337142,-0.137225892386,-2.6478341339,-0.0730810267238,2.10932526452,-0.729289925315,-0.82143398135,-0.03350829769,0.0268022754714,-0.026169321677,-8.7762218933e-05,-0.0119652793504,-0.80305256809,0.574097363532,0.818751730807,0.0062102646591,0.0,0.818751183634,-0.574005758948,-0.0120264248223,0.0,-0.0062820494087,0.0119892311534,-0.9999083929,0.0,0.301049688176,-0.212801507125,0.30492455742,1.0,-0.177629142857,-0.233455444898,2.567
-0.488868970881,-0.529895906543,-0.136870919001,-2.64815319094,-0.0730928982238,2.10911406383,-0.742645391562,-0.803983179916,-0.0221698669172,0.0155483733669,-0.0185038127884,0.00186669863387,-0.0148312352714,-0.77622742938,0.574186819752,0.818688923029,0.00622014736787,0.0,0.818688308033,-0.574094778084,-0.012057651801,0.0,-0.00630063315114,0.0120159380097,-0.999907955392,0.0,0.298036093638,-0.216760392599,0.304914681538,1.0,-0.170547428572,-0.22414804898,2.584
-0.501209943901,-0.530053794805,-0.136384269938,-2.64829876319,-0.073079837789,2.1089975342,-0.754821878719,-0.761240493525,-0.0123977881727,0.0282404919269,-0.0077992822605,0.00298707525917,-0.0073936183039,-0.755663658136,0.573975634165,0.818837541567,0.00614807339291,0.0,0.81883602991,-0.573884031381,-0.0120590857014,0.0,-0.00634627313073,0.0119561155638,-0.999908383862,0.0,0.295374022149,-0.220258331706,0.304908791542,1.0,-0.163882285714,-0.215388146939,2.6
-0.515520422768,-0.530105857676,-0.1359402018,-2.64837378999,-0.073067370445,2.10888315291,-0.768647294541,-0.746193646325,-0.000321088009891,0.0143058341488,-0.00226683246744,0.000107599976266,-0.00996962699048,-0.719347678264,0.574060955148,0.818778042528,0.0061060420811,0.0,0.818775847772,-0.573969262713,-0.01208898124,0.0,-0.00639363502175,0.0119395217717,-0.999908280419,0.0,0.292237662345,-0.224324744694,0.304895403319,1.0,-0.155967428572,-0.204985763265,2.619
-0.526847871551,-0.529996068457,-0.135449190971,-2.64831963289,-0.0730005841772,2.10885029273,-0.779819831059,-0.694539145312,0.00739936447835,0.0296829851612,0.00575610350671,0.00803806434844,-0.00311802538966,-0.69520329843,0.573873432104,0.818909983052,0.0060390797505,0.0,0.818906977106,-0.573782183476,-0.0120878316367,0.0,-0.00643385350696,0.0118825587471,-0.999908700996,0.0,0.289781429012,-0.227503393909,0.304889878393,1.0,-0.149302285714,-0.196225861225,2.635
-0.537192442918,-0.529795382626,-0.135094971472,-2.64818546059,-0.0729468566258,2.1088557213,-0.789817225701,-0.683244850596,0.0161231576284,0.0187242645861,0.0125137435541,0.0093294145224,0.000218465072334,-0.666510032791,0.573938755545,0.818864443354,0.00600626309109,0.0,0.818861141044,-0.573847876034,-0.0120745087326,0.0,-0.00644082856023,0.0118485520853,-0.999909059635,0.0,0.287514603015,-0.230428372734,0.304887257715,1.0,-0.143053714286,-0.188013453061,2.65
-0.548369041961,-0.529448197513,-0.134627649801,-2.64791395799,-0.0727954137326,2.10888022263,-0.80069064914,-0.635128875322,0.0234169386361,0.0322161246811,0.0176481755314,0.0201557341769,0.0012556654269,-0.624433029727,0.573937525111,0.81886539621,0.00599391868467,0.0,0.818862146454,-0.573847090783,-0.0120436043346,0.0,-0.00642262169107,0.0118206971701,-0.99990950643,0.0,0.285087884184,-0.233563347075,0.304898155883,1.0,-0.135972,-0.178706057143,2.667
-0.55952690672,-0.528889453012,-0.134104609414,-2.64753462255,-0.0725985749337,2.10894287635,-0.81167520203,-0.613376539343,0.0310359783918,0.0301072225606,0.0183286881484,0.0152324921249,0.00277306215508,-0.614223514831,0.573816352257,0.818950450496,0.00597498243338,0.0,0.818946746812,-0.573725642903,-0.0120772290909,0.0,-0.00646277599524,0.011823531608,-0.999909214192,0.0,0.282674257252,-0.236676882533,0.304885446878,1.0,-0.128473714286,-0.168851167347,2.685
-0.569146144941,-0.52830494298,-0.133728894709,-2.64708792732,-0.0723861509753,2.10904731541,-0.820875175142,-0.592747327778,0.0427374158364,0.0286173191726,0.0327202622684,0.0116954825038,0.00526771618507,-0.563293554748,0.574010476552,0.818814095873,0.00601632028821,0.0,0.818811122656,-0.573919904592,-0.0120430656242,0.0,-0.00640826930387,0.0118393037508,-0.999909378379,0.0,0.280590222188,-0.239387365973,0.304893623221,1.0,-0.121808571429,-0.160091265306,2.701
-0.578511011344,-0.527514786537,-0.133182665783,-2.64655724565,-0.0720901213042,2.10917685266,-0.830225299896,-0.54291141471,0.0504273668404,0.0305210542585,0.0323302477568,0.0115104282412,0.00544834101134,-0.536698474024,0.573793616682,0.818965974839,0.00603029127712,0.0,0.818962780614,-0.573702286719,-0.0120994662448,0.0,-0.00644958344743,0.0118814093627,-0.999908613317,0.0,0.278602934674,-0.241981093161,0.30487118018,1.0,-0.114726857143,-0.150783869388,2.718
-0.587585690296,-0.526734910751,-0.132723927807,-2.64600141192,-0.0718390604786,2.10930773318,-0.838986149275,-0.524461454608,0.0506210670468,0.0212032270772,0.0350635126691,0.0211732570688,0.00713193341606,-0.506880648228,0.57386523851,0.818915696672,0.00604290291603,0.0,0.818912485114,-0.573773503787,-0.0121266227233,0.0,-0.00646354855993,0.0119078851494,-0.999908208193,0.0,0.276647766726,-0.244509197681,0.304861546494,1.0,-0.107645142857,-0.141476473469,2.735
-0.595632489306,-0.525921585068,-0.132315087452,-2.64539888365,-0.0715714358773,2.10945173278,-0.846762769724,-0.489412603013,0.0529345940354,0.0310561979208,0.0425278868733,0.0166941451959,0.00944580618421,-0.477596937949,0.573945626162,0.818859096758,0.00607822078531,0.0,0.818856267589,-0.573853574815,-0.0121340267274,0.0,-0.00644817358717,0.0119416906683,-0.9999079043,0.0,0.274927321745,-0.246761270934,0.30486053163,1.0,-0.10098,-0.132716571429,2.751
-0.603384421511,-0.524996853059,-0.131760966788,-2.64476866502,-0.0712428019329,2.10960475636,-0.854484559128,-0.449106029894,0.0548548213629,0.0316946655285,0.035167544421,0.0196537517619,0.00999770110968,-0.44342945624,0.573754392553,0.818993024864,0.00608844402572,0.0,0.818989785396,-0.573661331693,-0.012212896376,0.0,-0.00650969736945,0.0119938073255,-0.999906881878,0.0,0.273302950703,-0.248887898882,0.304835496544,1.0,-0.0938982857144,-0.12340917551,2.768
-0.611279952281,-0.524125199068,-0.131251374503,-2.64410517456,-0.0709347232296,2.10975757766,-0.862032337389,-0.417000488292,0.045665199651,0.0322300947047,0.0395494099793,0.0134714960231,0.00518725049074,-0.405934763591,0.573847013795,0.818928044898,0.00609991304755,0.0,0.818924979893,-0.573753926546,-0.0122088484824,0.0,-0.00649844447072,0.0120016134816,-0.999906861409,0.0,0.271624285018,-0.25106408625,0.304843560697,1.0,-0.0864000000001,-0.113554285714,2.786
-0.617393057356,-0.523361758602,-0.130847988549,-2.64350935163,-0.0706594336602,2.10992273903,-0.867904878067,-0.394027806626,0.0542346453786,0.0250460117868,0.0343043050184,0.016508963205,0.00730044309751,-0.387745169223,0.573908832486,0.818884547299,0.00612348687053,0.0,0.818882062604,-0.5738161308,-0.0121639829455,0.0,-0.00644726625444,0.0119956617631,-0.999907264128,0.0,0.270342780228,-0.252760960092,0.304858671012,1.0,-0.0801514285715,-0.105341877551,2.801
-0.623704989973,-0.522481581133,-0.130361074951,-2.64284820302,-0.0703385507205,2.11009562705,-0.874051013325,-0.355780682253,0.0478886719122,0.0314357818084,0.0310418342521,0.0192404846175,0.0136321634091,-0.341600409558,0.573864576662,0.818915430307,0.00614105518411,0.0,0.81891323559,-0.573771918911,-0.0121509071983,0.0,-0.00642712412184,0.0120021976657,-0.999907315368,0.0,0.268966127736,-0.25459052935,0.304867097224,1.0,-0.0726531428572,-0.0954869877552,2.819
-0.629441172507,-0.52173509962,-0.129823221893,-2.64226195935,-0.0700088178975,2.11024569595,-0.879623624429,-0.3328406748,0.0443426344696,0.0369566284057,0.0349548403839,0.0177202571482,0.00662799878584,-0.319865704156,0.573788316623,0.818968852674,0.00614271581557,0.0,0.818966886869,-0.573696055336,-0.0121169800626,0.0,-0.00639950063751,0.0119834931605,-0.999907716884,0.0,0.267792182983,-0.256128662647,0.304883630525,1.0,-0.0655714285715,-0.0861795918368,2.836
-0.634809254025,-0.521010201223,-0.129333663967,-2.64169528883,-0.0697016460028,2.11039556498,-0.884703135134,-0.30424055932,0.0406287367296,0.0261570091169,0.0324223799213,0.0194641382568,0.00543075713257,-0.289849250133,0.573850191835,0.818925475746,0.00614568192691,0.0,0.81892375312,-0.573758287884,-0.0120855517896,0.0,-0.00637115297316,0.0119683715502,-0.999908079021,0.0,0.266751955919,-0.257488410703,0.304897859253,1.0,-0.0589062857144,-0.077419689796,2.852
-0.639523520251,-0.520267351241,-0.128865992968,-2.64111671308,-0.0693714330347,2.1105681476,-0.889217266846,-0.269585999919,0.0471835836001,0.0209702503682,0.033130790407,0.0193998018418,0.00800154908554,-0.259352748347,0.57385475604,0.818922097469,0.00616961496828,0.0,0.818920981409,-0.573763303216,-0.0120351564668,0.0,-0.00631607851744,0.0119590891724,-0.999908539487,0.0,0.26580972989,-0.258766198976,0.304914014052,1.0,-0.0518245714287,-0.0681122938777,2.869
-0.643772278453,-0.519622355748,-0.128448117073,-2.6406648624,-0.0690584249132,2.11070799644,-0.893220834977,-0.244069288797,0.03727011174,0.0289404644409,0.0275002419258,0.0166098932661,0.00816865135667,-0.216655019245,0.573917430049,0.818877822651,0.0062162656316,0.0,0.818877187952,-0.573825522059,-0.0120485761373,0.0,-0.00629938120465,0.0120054771151,-0.999908088934,0.0,0.264938104568,-0.259894497045,0.30490436175,1.0,-0.0447428571429,-0.0588048979593,2.886
-0.647293964128,-0.519100505278,-0.127965546647,-2.64029641163,-0.0687730884355,2.11082079909,-0.896462823693,-0.206998422095,0.0313979124911,0.0328890834574,0.0209342677181,0.0168044886125,0.00918163781627,-0.196087895269,0.57394596259,0.818857875081,0.00620961727737,0.0,0.818857114245,-0.573854002187,-0.0120564308284,0.0,-0.00630921107439,0.0120047602103,-0.999908035565,0.0,0.264242512367,-0.260793361436,0.304901214632,1.0,-0.0380777142858,-0.0500449959185,2.902
-0.650413439711,-0.518605992808,-0.12739630674,-2.63996220345,-0.0684759811255,2.11090532891,-0.899414276417,-0.175080639514,0.028435464517,0.0293053955394,0.0236654507695,0.0211915209227,0.00272193636666,-0.168661808841,0.573824688408,0.818943131482,0.00617424266307,0.0,0.818941647222,-0.573732412416,-0.0121014168673,0.0,-0.00636813169302,0.01200066727,-0.999907711183,0.0,0.263657531238,-0.2615519312,0.304892119988,1.0,-0.0309960000001,-0.0407376000001,2.919
-0.653306323273,-0.518146677911,-0.126802062509,-2.63963487885,-0.0681560691803,2.11102135535,-0.902113859271,-0.139143058428,0.0207608705421,0.0329374245663,0.0171226774155,0.0194888062859,0.00597028115749,-0.128154727071,0.573715387683,0.819019968708,0.0061393561584,0.0,0.819018146179,-0.573623507301,-0.0120869765517,0.0,-0.00637791893966,0.0119629588619,-0.99990810066,0.0,0.263141617407,-0.262245072156,0.304896016178,1.0,-0.0230811428572,-0.0303352163266,2.938
-0.655152696952,-0.517840643392,-0.126401659378,-2.63943750364,-0.0679088352418,2.11106615165,-0.903711160285,-0.113892597846,0.0164075595599,0.0209976199659,0.0137116005917,0.0234763476306,0.00202885824729,-0.102265508643,0.573751396422,0.818994682648,0.00614750356365,0.0,0.818992698006,-0.57365896962,-0.0121282351641,0.0,-0.0064065128945,0.0119935833048,-0.999907551003,0.0,0.262812434448,-0.262670662126,0.30488647656,1.0,-0.0198288888889,-0.0260608253968,2.953
-0.656886594089,-0.517570024541,-0.126125476112,-2.63925849097,-0.0677091412086,2.1111060583,-0.905204540146,-0.0954097429841,0.0148667081713,0.0210712350371,0.00924553896208,0.0123004667588,0.00204905878421,-0.0999703888397,0.573841370662,0.818931376718,0.00618291551216,0.0,0.818929630206,-0.573748346099,-0.0121590715538,0.0,-0.00641013107289,0.0120409828266,-0.999906958148,0.0,0.262456279001,-0.26311883202,0.304879104022,1.0,-0.0194888888889,-0.025613968254,2.97
-0.658607283333,-0.51729528715,-0.125914082476,-2.63903092687,-0.06755135564,2.11117889674,-0.906899209314,-0.0954663987103,0.0167083555977,0.0144070332224,0.0128641675434,0.002582902598,0.00501554434777,-0.0896831357611,0.573797637139,0.818961922057,0.00619586435861,0.0,0.81896060137,-0.573705047786,-0.0121160410013,0.0,-0.00636810017389,0.0120265560476,-0.999907400338,0.0,0.262141224909,-0.26354731856,0.304891633107,1.0,-0.0191488888889,-0.0251671111111,2.987
-0.660046941506,-0.517021984843,-0.125766467875,-2.63882953547,-0.0674977166123,2.11126660138,-0.908294556888,-0.0861914112725,0.0206298175262,0.00980885874024,0.0154075487553,0.000881964964839,0.00686800698503,-0.0906886314654,0.573762622225,0.818986753823,0.00615607837668,0.0,0.818985098783,-0.573670563741,-0.0120929388308,0.0,-0.00637251845516,0.0119804434121,-0.999907925753,0.0,0.26185238441,-0.263947026339,0.304893379911,1.0,-0.0188288888889,-0.0247465396825,3.003
-0.661512220138,-0.516771867557,-0.1256763946,-2.63862657219,-0.0674391918423,2.11127790903,-0.909763182951,-0.0859207714811,0.0190789312897,0.00355468797485,0.0136653414859,0.00546074599545,0.000430545014601,-0.0808158082787,0.573731512009,0.819008535369,0.00615776111065,0.0,0.819006732685,-0.573639134226,-0.0121186799022,0.0,-0.00639309261187,0.0119963473186,-0.99990760374,0.0,0.261532805107,-0.264355032215,0.304896486229,1.0,-0.0184888888889,-0.0242996825397,3.02
-0.66289035221,-0.516532227989,-0.125640817876,-2.63843245514,-0.0674050012977,2.11132661109,-0.911094741433,-0.0781622692891,0.017319038568,0.00064186307039,0.0106208299103,-0.000430134464097,0.00522879952864,-0.0801844057886,0.573769097169,0.818982184965,0.0061604176552,0.0,0.81898048927,-0.573676835448,-0.0121075830583,0.0,-0.0063819287942,0.0119924497575,-0.999907721809,0.0,0.261225469052,-0.264757316297,0.304901302367,1.0,-0.0181488888889,-0.0238528253968,3.037
-0.66416497686,-0.516283396287,-0.125622279826,-2.63823274145,-0.0673642652689,2.11139648184,-0.912443635346,-0.0811734342914,0.0176383216732,0.000125394585324,0.0140450044928,0.000932459868173,0.00923075138859,-0.0866353338295,0.573722886966,0.81901445429,0.00617410210888,0.0,0.819013106293,-0.573630893813,-0.0120779255421,0.0,-0.00635046215172,0.0119862836305,-0.999907996085,0.0,0.260946154516,-0.265139584848,0.304906658331,1.0,-0.0178288888889,-0.0234322539683,3.053
-0.665617484675,-0.516021566296,-0.125619367164,-2.63802318345,-0.0673299253863,2.11144832261,-0.913845352291,-0.0754505253873,0.020040241812,0.000516465772423,0.0155598148636,0.00403700814433,0.00010306148654,-0.0687865835182,0.57378799686,0.818968705034,0.0061920704281,0.0,0.818967634199,-0.573695992482,-0.0120693514732,0.0,-0.00633217707088,0.011996585246,-0.999907988505,0.0,0.260614124414,-0.265571707495,0.304909759113,1.0,-0.0174688888889,-0.0229591111111,3.071
-0.666951758739,-0.515778964318,-0.125618354607,-2.6378314127,-0.0673081775704,2.11148063488,-0.915186504829,-0.0777203426815,0.016066752325,0.00067726848165,0.0116992961791,0.000551432591942,0.00298941366078,-0.0707842810614,0.5738009458,0.818959542456,0.00620397621001,0.0,0.818958547887,-0.573708736875,-0.012080106701,0.0,-0.00633396525012,0.0120126072784,-0.999907784823,0.0,0.26030464533,-0.265967218924,0.304910137106,1.0,-0.0171288888889,-0.0225122539683,3.088
-0.668097291774,-0.515566728759,-0.125612670977,-2.63765852925,-0.0672798363023,2.1115359024,-0.916325750486,-0.0737488357111,0.0135512323289,0.00335267828112,0.0161890314831,-0.000321216769704,0.0031235793869,-0.0779223614261,0.573815758874,0.818949108474,0.0062112397035,0.0,0.818948314414,-0.573723715926,-0.0120624625885,0.0,-0.00631512904543,0.0120085466114,-0.99990795274,0.0,0.260031527584,-0.266331309796,0.304913835296,1.0,-0.0168088888889,-0.0220916825397,3.104
-0.66944838848,-0.515311699563,-0.125584389867,-2.63745412515,-0.0672538477307,2.11159136018,-0.917606702318,-0.0702855219934,0.0150680933314,0.00238238694682,0.00843757681136,0.00181967185896,0.00722563330934,-0.0680454886421,0.573882202349,0.818902542984,0.00621207069159,0.0,0.81890187338,-0.573790357778,-0.0120454969534,0.0,-0.00629978311229,0.0120000036842,-0.999908152104,0.0,0.259744064895,-0.266709880784,0.304919316033,1.0,-0.0164688888889,-0.0216448253968,3.121
-0.670536971715,-0.515112515548,-0.125531799509,-2.63727784146,-0.0672226658932,2.11162975967,-0.918775971364,-0.0704485218042,0.0149106155642,0.00293926890662,0.0117954888676,0.00281845699974,-0.000276801560783,-0.0747295461932,0.573801131049,0.818959414428,0.00620374304951,0.0,0.818958773475,-0.573709601057,-0.0120236393663,0.0,-0.00628784676529,0.011980018319,-0.999908466883,0.0,0.259509344764,-0.267026213077,0.30493038292,1.0,-0.0161688888889,-0.0212505396825,3.136
-0.671741175017,-0.51486792894,-0.125481900819,-2.63708291452,-0.0671994061173,2.11167016701,-0.919992059207,-0.0702293394582,0.0167737141283,0.0004907824199,0.0120272639244,1.17357632323e-05,0.00278425583892,-0.0728618219932,0.573775999144,0.818977126985,0.0061899259773,0.0,0.818976294591,-0.573684512065,-0.0120273195313,0.0,-0.00629915620933,0.0119706203933,-0.999908508254,0.0,0.259245506092,-0.267378059454,0.304933239765,1.0,-0.0158288888889,-0.0208036825397,3.153
-0.672982776126,-0.514618240943,-0.125437039295,-2.63688854788,-0.0671670516319,2.11171887179,-0.921248142119,-0.0683643262719,0.01327214356,0.00210063835647,0.0151506680921,5.57316716555e-05,0.00124236256228,-0.071795109591,0.573756183662,0.818991038627,0.00618605361304,0.0,0.818990159407,-0.573664724301,-0.0120270440705,0.0,-0.00630144189674,0.0119671383458,-0.999908535532,0.0,0.258971946891,-0.26774047507,0.304934533134,1.0,-0.0154688888889,-0.0203305396825,3.171
-0.674085580865,-0.514402673072,-0.125407945377,-2.63670869334,-0.0671406989346,2.1117609533,-0.922388877918,-0.0693620572844,0.015519397959,0.00029039955423,0.00894633271474,0.00528318420335,0.00207207088759,-0.067867795359,0.573724972982,0.819012912766,0.00618473929164,0.0,0.819012093446,-0.573633672215,-0.0120144825742,0.0,-0.00629236280444,0.0119586152054,-0.999908694678,0.0,0.258727489182,-0.268066521932,0.304940880856,1.0,-0.0151488888889,-0.019909968254,3.187
-0.675286979697,-0.514161171245,-0.125400657848,-2.63650823969,-0.0671111680998,2.11183563409,-0.923517893234,-0.0724915478411,0.0129636199959,6.57047148647e-05,0.0110811264694,0.00210373233194,0.00332836552884,-0.0629475224988,0.573802011659,0.818958899323,0.00619027758763,0.0,0.818958406865,-0.57371115628,-0.0119743010633,0.0,-0.0062551495375,0.0119406878048,-0.999909142412,0.0,0.258460627732,-0.268431852884,0.30494925585,1.0,-0.0147888888889,-0.0194368253968,3.205
-0.676396796473,-0.513936789969,-0.125391419386,-2.63632510637,-0.0670801700365,2.11187138699,-0.924636555666,-0.0695153343919,0.0131381388107,-4.70731767592e-05,0.0100166700347,0.000714049308377,0.00100801078081,-0.0615470011298,0.573810912749,0.818952565124,0.0062031756235,0.0,0.818952238575,-0.57371999746,-0.0119725664846,0.0,-0.00624619838936,0.0119503239464,-0.999909083249,0.0,0.258208956528,-0.268762844662,0.304952799522,1.0,-0.0144488888889,-0.018989968254,3.222
-0.677360507905,-0.513741688818,-0.125386232629,-2.63616509573,-0.0670553274267,2.1119043582,-0.925643027534,-0.0682420557136,0.0144669317374,-0.000238466482812,0.0117673340299,0.000561322920251,8.34523314179e-06,-0.0591210944108,0.573791624711,0.818966001781,0.00621339202232,0.0,0.818965815059,-0.573700683649,-0.0119693878725,0.0,-0.00623801457986,0.0119567203799,-0.999909057871,0.0,0.257974388059,-0.269071190134,0.3049569943,1.0,-0.0141288888889,-0.0185693968254,3.238
-0.678488409602,-0.513510659684,-0.125373834023,-2.63597754947,-0.0670266391648,2.11194572952,-0.926758146128,-0.0608024572264,0.015725361664,-0.000115373962492,0.0147673130762,-6.61117876185e-05,0.00262751313513,-0.0685569681343,0.573814686781,0.818949775989,0.00622226193889,0.0,0.818949733143,-0.573723758032,-0.0119637350587,0.0,-0.00622795855081,0.0119609169246,-0.999909070365,0.0,0.257734653425,-0.269388060192,0.304959926219,1.0,-0.0137888888889,-0.0181225396825,3.255
-0.679507011176,-0.513281898071,-0.125352149638,-2.63579412846,-0.0670058747991,2.11202089075,-0.927793546819,-0.0560575072604,0.0156296924323,0.00148519636287,0.0120097157081,0.000450765607247,0.00775227268164,-0.0556719642144,0.57380383412,0.818957441946,0.00621410747112,0.0,0.818957515199,-0.573713368777,-0.0119291947456,0.0,-0.00620450573809,0.0119343374697,-0.999909533757,0.0,0.257514301596,-0.269698969798,0.304965585193,1.0,-0.0134488888889,-0.0176756825397,3.272
-0.680439482114,-0.5130686664,-0.125330851817,-2.63564279007,-0.0669730431491,2.11204741514,-0.928779950639,-0.0557695683769,0.015293831111,0.0039804081385,0.0075846321171,0.00281733735811,0.000283453201929,-0.0562747313929,0.573766488753,0.818983507141,0.00622722384829,0.0,0.81898355595,-0.573675601474,-0.0119576861231,0.0,-0.00622086110256,0.0119611438005,-0.999909111833,0.0,0.257303604412,-0.269971197346,0.304958248646,1.0,-0.0131288888889,-0.0172551111111,3.288
-0.681433806562,-0.512866098688,-0.125296072399,-2.63547673707,-0.0669566811914,2.11206273339,-0.929747866777,-0.0581323853067,0.0116310396911,0.00369497110147,0.00944215150791,0.000437690547757,-0.000670593476359,-0.0581796372091,0.573778938051,0.818974855618,0.00621795915533,0.0,0.818974688826,-0.573687904684,-0.0119747226952,0.0,-0.00623994896945,0.0119634251688,-0.999908965604,0.0,0.257079220016,-0.270260352783,0.304960877572,1.0,-0.0127888888889,-0.0168082539683,3.305
-0.682298303445,-0.512689309717,-0.125259783256,-2.63533012671,-0.0669322844395,2.11209284147,-0.930565836798,-0.060635098109,0.0100564733374,0.00173221871157,0.0110713648867,0.00171297287379,0.00161212370611,-0.0554117416844,0.573809700258,0.81895333903,0.00621315395359,0.0,0.818953172605,-0.573718801195,-0.0119659991958,0.0,-0.00623511180353,0.0119547187194,-0.999909099909,0.0,0.25687537658,-0.270533430825,0.304966969106,1.0,-0.0124688888889,-0.0163876825397,3.321
-0.683297780082,-0.512461628795,-0.125246229125,-2.63514334709,-0.0669099903294,2.11216458775,-0.931619698149,-0.0572725346711,0.00865713095126,0.00122631993286,0.0107021442745,0.00204666169375,0.00284621499379,-0.0572462636461,0.573774114564,0.818978298789,0.00620954678584,0.0,0.818978281363,-0.573683614166,-0.0119345043397,0.0,-0.00621190441703,0.0119334233704,-0.99990949873,0.0,0.256671314585,-0.270819667011,0.304972546358,1.0,-0.0121288888889,-0.0159408253968,3.338
-0.684257241875,-0.512252167386,-0.125234884009,-2.63496119111,-0.0668862168981,2.11220458799,-0.932565847478,-0.0505116993582,0.00771931557993,0.000643481745414,0.00774580822195,0.00433048689346,4.00997782836e-05,-0.050844126812,0.573796414095,0.818962658634,0.00621174982242,0.0,0.818962780674,-0.57370611294,-0.0119166583994,0.0,-0.00619569868603,0.0119251573612,-0.999909697893,0.0,0.256458011994,-0.271111367572,0.30498145799,1.0,-0.0117688888889,-0.0154676825397,3.356
-0.68508930803,-0.512071732261,-0.125210203556,-2.63480981846,-0.0668609770642,2.11222112563,-0.933389250257,-0.0534286274318,0.0061783158686,0.00350909841675,0.0101499097038,0.000139814294128,0.00214550597649,-0.0456668636402,0.573804505725,0.818956971471,0.0062140960735,0.0,0.818957074707,-0.573714098257,-0.0119243511392,0.0,-0.00620053534997,0.0119315540732,-0.999909591603,0.0,0.256272373063,-0.271356224599,0.30498543163,1.0,-0.0114488888889,-0.0150471111111,3.372
-0.686008641848,-0.511864637826,-0.125189732409,-2.63464636878,-0.0668419912012,2.11227055773,-0.934304366724,-0.0538996740373,0.0156918425969,0.000824873998644,0.0140598283367,0.000244847050862,0.00159033699028,-0.0425902741654,0.573809926015,0.818953210383,0.00620926007164,0.0,0.818953318817,-0.573719668372,-0.0119143032589,0.0,-0.00619500154722,0.0119218691475,-0.999909741423,0.0,0.256068386767,-0.271632340801,0.304987714621,1.0,-0.0110888888889,-0.014573968254,3.39
-0.686836519306,-0.511668079136,-0.125159231469,-2.63450173163,-0.0668169892095,2.11232875138,-0.935148209728,-0.0500806251351,0.0117706770752,0.00294833065996,0.00722544597164,-0.000168409924569,0.000369293405182,-0.0403470189182,0.57379332088,0.818964876417,0.00620507938752,0.0,0.818964999323,-0.573703216383,-0.0119036253849,0.0,-0.00618889624519,0.0119121929232,-0.999909894552,0.0,0.25588925049,-0.271878669512,0.304986327989,1.0,-0.0107488888889,-0.0141271111111,3.407
-0.687595707821,-0.511498234697,-0.125150736357,-2.63437351604,-0.0668005341677,2.11235639391,-0.93589295001,-0.0463727211919,0.00837173424471,-0.00132027143848,0.00651001637377,0.000710694394887,-0.00055327623662,-0.0433635687482,0.573812786661,0.81895120928,0.00620883120737,0.0,0.818951317891,-0.573722541248,-0.0119135003166,0.0,-0.00619454833682,0.0119210788331,-0.999909753653,0.0,0.255715043904,-0.272104480416,0.304984235547,1.0,-0.0104288888889,-0.0137065396825,3.423
-0.688375689843,-0.511315717776,-0.125131913091,-2.6342282528,-0.0667793186483,2.1123820354,-0.936656588534,-0.0461733037347,0.00931632324956,0.000522250407805,0.00809316042541,0.000697407070158,0.00149099079873,-0.0510568461675,0.573829321428,0.818939615431,0.00620991531302,0.0,0.818939692675,-0.573738980564,-0.0119209414453,0.0,-0.00619978008669,0.0119263614977,-0.999909658233,0.0,0.255540962139,-0.272336846834,0.304985257852,1.0,-0.0100888888889,-0.0132596825397,3.44
-0.689187335037,-0.511141052161,-0.125112759626,-2.63409695768,-0.0667572872572,2.11241565941,-0.937452219932,-0.0435128299647,0.00601070572757,0.0001361773824,0.0105719153987,0.00073543151958,-8.32547680814e-05,-0.0503594445307,0.57384501205,0.81892859971,0.0062126986459,0.0,0.818928680031,-0.573754592642,-0.011926078423,0.0,-0.006202161733,0.0119317074402,-0.999909579686,0.0,0.255356513689,-0.272574641294,0.304983523665,1.0,-0.00972888888889,-0.0127865396825,3.458
-0.689828746103,-0.510996833278,-0.12508656435,-2.63398684341,-0.0667382001182,2.11244402133,-0.938135024239,-0.0439584176589,0.00594399634508,0.000388311845369,0.00237232290188,0.000501426162818,0.00121731971652,-0.0465971441953,0.5738015643,0.818959061636,0.00621023924824,0.0,0.818959083556,-0.573711113504,-0.0119299875824,0.0,-0.00620740767342,0.0119316071007,-0.99990954833,0.0,0.255205001732,-0.272776431887,0.304983717378,1.0,-0.00940888888889,-0.012365968254,3.474
-0.690540088653,-0.510836962126,-0.125067505375,-2.63386447985,-0.0667185701969,2.11247806011,-0.938839579645,-0.0361323121896,0.0104339693517,0.0012554745683,0.00302300818006,0.00103938363686,0.00537798377256,-0.042725909633,0.573812991895,0.818951050648,0.00621078701341,0.0,0.818951093973,-0.573722563859,-0.0119277952774,0.0,-0.00620513129343,0.0119308844204,-0.999909571083,0.0,0.255055553618,-0.272972010953,0.304982859947,1.0,-0.00908888888889,-0.0119453968254,3.49
-0.691241071855,-0.510678289122,-0.125054822481,-2.63375486299,-0.0666995854249,2.11250779455,-0.939532054112,-0.0406810391262,0.00828726025433,-0.000702175254136,0.00684805057924,0.00129924296405,0.000225189589791,-0.0408511894539,0.573824771324,0.818942754779,0.00621635826165,0.0,0.818942772266,-0.573734128654,-0.0119428753624,0.0,-0.00621411399954,0.0119441893546,-0.999909356456,0.0,0.254893990912,-0.273176895022,0.30497669558,1.0,-0.00874888888889,-0.0114985396825,3.507
-0.691906584435,-0.510526673987,-0.125040276602,-2.63365900661,-0.0666779557857,2.1125385305,-0.940178311351,-0.0393433907924,0.0087210350118,-0.00144518463658,0.00197942801618,0.00137997194245,-0.000238076824343,-0.0413420811519,0.573844490274,0.818928875059,0.00622458660838,0.0,0.818928865192,-0.573753550623,-0.0119634361044,0.0,-0.0062259444718,0.0119628758632,-0.999909059473,0.0,0.254739927058,-0.273368609142,0.304967020834,1.0,-0.00840888888889,-0.0110516825397,3.524
-0.692540960969,-0.510375347924,-0.125022226708,-2.63356676264,-0.0666532506941,2.11256414634,-0.940825521128,-0.0294079777174,0.00376508393003,-0.00195336158506,0.00565348033113,0.00145479256144,3.26089294996e-05,-0.0369249642472,0.573836585803,0.818934333229,0.00623518683242,0.0,0.818934271101,-0.573745237531,-0.0119920359966,0.0,-0.0062434014575,0.0119879079813,-0.999908650828,0.0,0.254593769285,-0.273549561654,0.304955453201,1.0,-0.00806888888889,-0.0106048253968,3.541
-0.693133633526,-0.51023013548,-0.125001292988,-2.63347255287,-0.0666336055129,2.11259176919,-0.941444044325,-0.0346855481921,0.00916608898317,0.00292788675385,0.0078335200671,-0.000103871201834,0.000450107592448,-0.0359940811013,0.573813858184,0.818950231928,0.00623864426046,0.0,0.818950086578,-0.573722253884,-0.0120115774819,0.0,-0.00625775559951,0.0120017789464,-0.999908394703,0.0,0.254459959169,-0.273720636,0.304947273321,1.0,-0.00772888888889,-0.010157968254,3.558
-0.693671836529,-0.510096164027,-0.124972231651,-2.63338324652,-0.0666107192365,2.112614397,-0.941988508284,-0.0340713216158,0.00395902386506,0.00326798645447,0.00523462602406,0.00132402856848,-4.03173008606e-05,-0.0317383314841,0.573802491437,0.818958179777,0.00624079310669,0.0,0.818957943399,-0.57371065218,-0.0120300216343,0.0,-0.00627179588844,0.012014034781,-0.999908159555,0.0,0.254341541315,-0.273873919495,0.304940793448,1.0,-0.00740888888889,-0.0097373968254,3.574
