nelsonifechukwu/NELSON_IML_WORK/CNN-GradCAM/train2dof/data_sample_2022-02-22-08-51-46/robot_state.csv
position_joint1,position_joint2,position_joint3,position_joint4,position_joint5,position_joint6,position_joint7,velocity_joint1,velocity_joint2,velocity_joint3,velocity_joint4,velocity_joint5,velocity_joint6,velocity_joint7,ee_T_00,ee_T_10,ee_T_20,ee_T_30,ee_T_01,ee_T_11,ee_T_21,ee_T_31,ee_T_02,ee_T_12,ee_T_22,ee_T_32,ee_T_03,ee_T_13,ee_T_23,ee_T_33,v_x,v_y,time
0.465078621306,0.547790332931,-0.124005602498,-1.35582991426,0.0795036924976,1.89411119624,0.15915654781,0.00138325368919,-0.00190386435574,-0.000113092502459,0.00175590915475,-0.000348095737122,8.44568924064e-05,-0.00102336705236,0.573812379918,0.818972719856,0.00194516992351,0.0,0.818929577845,-0.573753893046,-0.0118980521924,0.0,-0.00862829747021,0.00842036894741,-0.999927322294,0.0,0.661682096241,0.260885424363,0.303210866094,1.0,0.0,0.0,0.0
0.465078620434,0.547791032373,-0.124008314119,-1.35583770963,0.0795029990912,1.89411169607,0.1591557338,0.00120486347567,-0.00084614620358,-0.000297735312984,-0.00181805170608,3.53007748283e-06,0.000308803757736,-0.000545252249916,0.573813854947,0.818971704562,0.00193749806933,0.0,0.818928475136,-0.573755411848,-0.0119007095355,0.0,-0.00863486061889,0.00841562638155,-0.999927305565,0.0,0.661681050935,0.260882839746,0.303206792385,1.0,-2e-05,-2.62857142857e-05,0.002
0.465072789031,0.547794968587,-0.124006517589,-1.35582991422,0.0795050315165,1.89411247064,0.159160413142,0.00302378947683,0.00124773943625,0.000490234947539,0.000695716184757,-7.3604710366e-05,0.000658797889493,-0.00125464692514,0.573821332927,0.818966452992,0.00194258909475,0.0,0.818923272019,-0.573762850418,-0.0119001230055,0.0,-0.00863138225265,0.00841953796488,-0.999927302668,0.0,0.661683883702,0.260881277571,0.303207725649,1.0,-0.00032,-0.000420571428571,0.017
0.465072948903,0.547790253733,-0.124003891744,-1.35583838694,0.0795060765413,1.89411013531,0.159159701061,-0.000237548969432,0.00200584089064,0.000713442940806,-0.00146385421906,-0.000269815651116,0.000114272728249,-7.07554080586e-05,0.573819498973,0.818967746233,0.00193910570302,0.0,0.818924484726,-0.573760996839,-0.0119060373018,0.0,-0.0086382436274,0.00842005961016,-0.999927239025,0.0,0.661680895988,0.260881968715,0.303206745299,1.0,-0.00066,-0.000867428571429,0.034
0.465076898136,0.54774205081,-0.1240066351,-1.35588081366,0.0795041459967,1.89411798123,0.159162748429,0.00103432962133,-0.0026443664351,-0.000555745356791,-0.00231621411847,-0.00470349720784,0.000445321374302,0.00137994032529,0.573822451757,0.818965648644,0.0019511794929,0.0,0.818922543325,-0.573763898204,-0.0118997501276,0.0,-0.00862613630984,0.00842637090007,-0.99992729038,0.0,0.661673719909,0.260878814175,0.303221468368,1.0,-0.00102,-0.00134057142857,0.052
0.465074039649,0.547646736484,-0.123998840106,-1.35601050356,0.079504857911,1.89415015134,0.159155620839,0.000855664213825,-0.00639532450921,0.0010193100815,-0.009689392661,9.40970290267e-05,-0.00039918736688,-0.000550181490591,0.573820833807,0.818966768956,0.00195676685907,0.0,0.818923597166,-0.573762121248,-0.0119128975061,0.0,-0.00863371470135,0.0084384738018,-0.99992712291,0.0,0.661651838458,0.260869590965,0.303229800065,1.0,-0.00132,-0.00173485714286,0.067
0.465059819548,0.54749767128,-0.124004132555,-1.3562205402,0.0795006701699,1.89419627538,0.159155652704,-0.00316613631509,-0.0111051712024,-0.00022796804083,-0.012994349156,7.25893389269e-05,0.00145887210229,0.0012067546632,0.573846615958,0.818948722721,0.00194879679386,0.0,0.818905355728,-0.573787844165,-0.0119279147137,0.0,-0.00865032115392,0.00844083613785,-0.999926959447,0.0,0.661621977534,0.26083659545,0.30323959972,1.0,-0.00168,-0.002208,0.085
0.465043160415,0.547340090599,-0.124001427521,-1.35642312135,0.0794985244595,1.89429959473,0.159146735151,-0.0031563779881,-0.0176648660251,0.000883349312314,-0.0186170116986,1.72828585829e-05,0.00765887618221,0.000121964145496,0.573861995142,0.818937812893,0.00200400783649,0.0,0.818895099672,-0.573802928408,-0.0119063841923,0.0,-0.00860084825777,0.00847385673253,-0.999927106924,0.0,0.661604145676,0.260811841372,0.303263681257,1.0,-0.002,-0.00262857142857,0.101
0.46502162232,0.547169045787,-0.123998841199,-1.35663023979,0.0794951578367,1.89442251373,0.159134865972,-0.00106855115053,-0.00896317566492,0.000880313548019,-0.0168886169364,-0.000231129252734,0.000918878067803,-0.00103100889532,0.573879065655,0.818925654691,0.00208254472494,0.0,0.818883934001,-0.573819647089,-0.0118685362243,0.0,-0.00852460784374,0.00851663086774,-0.999927396394,0.0,0.661590902015,0.260784566834,0.303296839174,1.0,-0.00232,-0.00304914285714,0.117
0.464993568811,0.546925369428,-0.124001357429,-1.35693737139,0.0794926168771,1.89455285803,0.159111379877,0.00050741875459,-0.0147703973685,0.000140512815745,-0.0188681543265,-0.00081006970969,0.00878390434395,-0.0026193445517,0.573901116796,0.818910032331,0.00214801971802,0.0,0.818869059138,-0.57384132859,-0.0118465391467,0.0,-0.0084687903173,0.00855785369718,-0.999927518739,0.0,0.661560927638,0.260739743273,0.303334644665,1.0,-0.00268,-0.00352228571429,0.135
0.46495916683,0.546681821451,-0.124001436317,-1.35731103534,0.0794854575849,1.8946813632,0.159065227027,-0.00412404328365,-0.0155953048762,0.000183614033839,-0.0202283802979,0.000454414644815,0.00809895061155,-0.0106529608755,0.57391049556,0.818903440014,0.00215543963019,0.0,0.818862410907,-0.573850522555,-0.0118607195409,0.0,-0.00847604706515,0.0085721649623,-0.999927334667,0.0,0.661516645903,0.260683346144,0.303340429354,1.0,-0.00302,-0.00396914285714,0.152
0.464915871756,0.546411365819,-0.124002092354,-1.35770060432,0.0794729266135,1.894838489,0.158939600255,-0.00602180290915,-0.0172882218963,0.000230682602231,-0.0296886427333,0.000351064059181,0.0130722114792,-0.00747673587803,0.573862061877,0.818937277901,0.00219447105054,0.0,0.818896673065,-0.573801855159,-0.0118497578406,0.0,-0.00844517946576,0.00859733703495,-0.999927379733,0.0,0.661477863674,0.260620277975,0.303360180488,1.0,-0.00334,-0.00438971428571,0.168
0.464876024614,0.546102359627,-0.124000207018,-1.35820975551,0.0794553395528,1.89500895092,0.158923655889,0.000168448648793,-0.0200893982686,0.00175663986422,-0.0310149883719,-0.00399123781751,0.00892844898183,0.000748901258672,0.573904044396,0.818907905877,0.00217633172804,0.0,0.818866912159,-0.573843749263,-0.0118776472707,0.0,-0.00847798812227,0.00859892140441,-0.999927088476,0.0,0.661414069857,0.260547350121,0.303351359039,1.0,-0.0037,-0.00486285714286,0.186
0.464827078288,0.54580020911,-0.124006665149,-1.35874080358,0.079424522994,1.89518777845,0.15884841127,-0.00307909390397,-0.0207788730797,0.00043479544878,-0.0334030769125,-0.00397057807776,0.0122324846705,-0.00506536875634,0.573909530032,0.818904171918,0.00213435100096,0.0,0.818862607689,-0.573849378929,-0.0119023918564,0.0,-0.00852228643112,0.00857880151145,-0.999926884726,0.0,0.661349253319,0.260451848471,0.3033285939,1.0,-0.00404,-0.00530971428571,0.203
0.464763051146,0.545454534989,-0.124004869822,-1.35932433273,0.079317556308,1.8953810321,0.158757719848,-0.00257585228132,-0.0265794161428,0.000582964158939,-0.037869253088,-0.00277324780184,0.0148972755552,-0.00561572471166,0.573889471026,0.818918431968,0.00205517159315,0.0,0.818876446525,-0.573830252985,-0.0118723623172,0.0,-0.00854334118313,0.00849651892557,-0.999927407609,0.0,0.661287568482,0.260349065668,0.303311731845,1.0,-0.00434,-0.005704,0.218
0.464695775957,0.545068332451,-0.124002613993,-1.36002469294,0.0793018144298,1.89560335417,0.158711540148,-0.00194849163645,-0.0192089269612,0.0010396387624,-0.0380899954204,-0.000235692281598,0.0164008183547,-0.0030266971362,0.57393994577,0.818883215834,0.00199107381776,0.0,0.818840086179,-0.573880679099,-0.0119426263245,0.0,-0.00863714374719,0.00848488472187,-0.999926700553,0.0,0.661198993291,0.260240351302,0.303270981943,1.0,-0.00468,-0.00615085714286,0.235
0.464626529598,0.54460037483,-0.124005120674,-1.36078484986,0.0792784887538,1.89586360245,0.15858948628,-0.00644169233135,-0.0286028082084,0.000543619773956,-0.0425596575706,-0.00430664739797,0.0192084957067,-0.00667905355373,0.573934559304,0.818887027638,0.00197598164548,0.0,0.818843468161,-0.573875128051,-0.0119774352623,0.0,-0.00867436664931,0.00849244719841,-0.999926314137,0.0,0.661108338444,0.260122912697,0.30326303359,1.0,-0.00504,-0.006624,0.253
0.464561411362,0.544151775136,-0.124013125524,-1.36152402753,0.0792491133522,1.89613174752,0.158511290576,-0.00316307729031,-0.0305139405409,-0.00128229815913,-0.0501785918288,-0.00492578369825,0.0159581627927,-0.00398791370382,0.573962861688,0.818867223453,0.0019623095709,0.0,0.818823371975,-0.573903373716,-0.0119979184396,0.0,-0.00869869355364,0.00849330806409,-0.999926095493,0.0,0.661024001404,0.260006815764,0.303252181351,1.0,-0.00536,-0.00704457142857,0.269
0.464488786345,0.543641923926,-0.124008393929,-1.36235264234,0.0792118721601,1.89641705556,0.158396241784,-0.0117118356457,-0.0296898260599,0.000529850693372,-0.0490162612035,-0.00433520651244,0.0186147658111,-0.00144696019351,0.573960949917,0.818868611695,0.00194207405909,0.0,0.818824313474,-0.573901370769,-0.0120294303358,0.0,-0.00873613215155,0.00849480427197,-0.999925756392,0.0,0.660923481416,0.259883219607,0.303243109039,1.0,-0.0057,-0.00749142857143,0.286
0.464404153312,0.543097320799,-0.124011607188,-1.36320691574,0.0791647805535,1.89671646647,0.158277285713,-0.0032903022538,-0.0291427893363,0.00166613068528,-0.0511044863444,5.20725335839e-05,0.0186400436242,-0.0058901566785,0.573969990633,0.818862290627,0.00193539202353,0.0,0.818817848436,-0.573910384032,-0.012039480251,0.0,-0.0087481032249,0.00849519745835,-0.999925648391,0.0,0.660826154652,0.259743869655,0.303247815228,1.0,-0.00604,-0.00793828571429,0.303
0.464340340905,0.542555281607,-0.124020073834,-1.36405363217,0.0791140445216,1.89702063699,0.158173207996,-0.00626659547648,-0.0356283239671,-0.000549832583198,-0.0478970200222,-0.00219017213941,0.0222318452588,-0.00930012452875,0.57397645267,0.818857766631,0.00193305701629,0.0,0.818813313148,-0.573916873982,-0.0120385577448,0.0,-0.0087486209064,0.00849282500283,-0.999925664015,0.0,0.660727324288,0.259615838143,0.303254817687,1.0,-0.00636,-0.00835885714286,0.319
0.464254666044,0.541954499853,-0.124017398325,-1.3649977806,0.0790550185426,1.8973685792,0.158046898635,-0.00603368080552,-0.0366031847714,0.00349022137298,-0.0612717508485,-0.00130955369324,0.0165365870281,-0.00510433420815,0.573978012389,0.818856666128,0.00193611303318,0.0,0.818812245898,-0.573918413858,-0.0120377366361,0.0,-0.00874617835954,0.00849487276168,-0.999925667988,0.0,0.660619756668,0.259470660581,0.303260340739,1.0,-0.0067,-0.00880571428571,0.336
0.46416925532,0.541308414633,-0.124024327557,-1.36598365496,0.0789950117785,1.89772994774,0.157909052931,-0.00514878975716,-0.0398649808581,-0.00093314960691,-0.0583682463468,-0.00525067565274,0.0235102362238,-0.00752997480611,0.573978586394,0.818856224099,0.00195282260484,0.0,0.818812048751,-0.573918941877,-0.0120259667889,0.0,-0.00872694389356,0.00850180578152,-0.99992577712,0.0,0.660508462093,0.259316496556,0.303279428258,1.0,-0.00704,-0.00925257142857,0.353
0.464096649437,0.540656221886,-0.124023730991,-1.36698133742,0.0789390398574,1.89810093847,0.157779359316,-0.00189527068051,-0.0408022974713,1.62257138126e-05,-0.0667000012248,-0.00704784649056,0.0249251839575,-0.00867276316586,0.573971779193,0.818860937649,0.00197696326381,0.0,0.818817029137,-0.573911985033,-0.0120188656619,0.0,-0.00870734433769,0.00851742488107,-0.999925815062,0.0,0.660391081777,0.259175143613,0.303297715071,1.0,-0.00736,-0.00967314285714,0.369
0.463987335624,0.539880910896,-0.124030402713,-1.3681615254,0.0788677951425,1.89853543709,0.157636650794,-0.00887380138842,-0.0413124097255,-0.00152474175162,-0.0676513068948,0.000293347507746,0.0323568464224,-0.0145774654397,0.573995378011,0.818844338276,0.00200064899736,0.0,0.818800762042,-0.573935502796,-0.0120040664058,0.0,-0.00868138546807,0.00852857575941,-0.999925945729,0.0,0.660259276243,0.258987136813,0.303321771715,1.0,-0.00772,-0.0101462857143,0.387
0.463888367839,0.539121175404,-0.124029996075,-1.36932643349,0.0788044752191,1.89897921723,0.157504399527,-0.00819046661389,-0.0464236779129,0.000948348569368,-0.0670849081704,-0.00667603252435,0.0256103338743,-0.00264975001135,0.57401539888,0.818830214744,0.00203670617597,0.0,0.818787053158,-0.573955313853,-0.0119919215167,0.0,-0.00865053588786,0.00855134090051,-0.999926018662,0.0,0.660127461909,0.258813596323,0.303342552124,1.0,-0.00806,-0.0105931428571,0.404
0.463780776849,0.538389943809,-0.124035759121,-1.37044986756,0.0787397489219,1.89941485735,0.157356802137,-0.0060442556725,-0.051793767955,-0.00144920346806,-0.0698135308897,-0.00205174915859,0.0286279639071,-0.0101219517367,0.574031538152,0.818818809174,0.00207312593616,0.0,0.818776142813,-0.573971318696,-0.0119708051728,0.0,-0.00861217142004,0.0085692107477,-0.999926196842,0.0,0.660006360487,0.258634565039,0.303362303201,1.0,-0.00838,-0.0110137142857,0.42
0.46367716168,0.537606906036,-0.124042488367,-1.3716913153,0.0786698160784,1.89988783225,0.157203392123,-0.00249655875572,-0.0490697325859,-0.00275208572121,-0.0699443437429,-0.00481718731911,0.0332562838736,-0.00596325479985,0.574045368398,0.818809082555,0.00208524514076,0.0,0.818766567338,-0.573985089968,-0.0119654337849,0.0,-0.00860067182961,0.00857619596938,-0.999926235933,0.0,0.659865974909,0.258445968729,0.303365622141,1.0,-0.00872,-0.0114605714286,0.437
0.463559201674,0.536767964248,-0.124041922216,-1.37299183035,0.0785980581954,1.90036262584,0.157041239631,-0.00695224330553,-0.0506830809219,5.48596980147e-05,-0.0736927409503,-0.00713684922728,0.0268553936422,-0.0162967316108,0.574061144495,0.818797983568,0.00210033027076,0.0,0.818755579356,-0.574000715952,-0.0119677174677,0.0,-0.00859371730701,0.00859002409878,-0.999926177029,0.0,0.659715590111,0.258245711741,0.303380066193,1.0,-0.00906,-0.0119074285714,0.454
0.463448786161,0.535970122403,-0.124046616564,-1.37425449454,0.0785164377215,1.90083959612,0.156893456528,-0.0100906315723,-0.0518584852476,-0.000211742382053,-0.0798298368001,-0.0088234471512,0.0319745264086,-0.0104372600811,0.574081486961,0.81878370836,0.00210526835509,0.0,0.818741439922,-0.57402110683,-0.011957021733,0.0,-0.00858191135255,0.00858814060892,-0.999926294603,0.0,0.659572849406,0.258049901031,0.303383710349,1.0,-0.00938,-0.012328,0.47
0.463335138262,0.535072624886,-0.124052293361,-1.37566460033,0.0784421257351,1.9013413089,0.156720152586,-0.00629078908422,-0.0532032950021,-0.0020429108008,-0.0848518636071,-0.000594333183978,0.0280210137706,-0.0147536183427,0.574094025152,0.818774928738,0.00210077512658,0.0,0.818732485967,-0.574033546291,-0.0119729301262,0.0,-0.00859738514126,0.00859372594669,-0.999926113692,0.0,0.659403774052,0.257838072113,0.303389546048,1.0,-0.00972,-0.0127748571429,0.487
0.463203143616,0.534117341693,-0.124055180306,-1.37723055916,0.0783558455687,1.90190089276,0.156522618035,-0.00571514087219,-0.0555497990569,0.000429844540375,-0.085240991426,-0.0020208356486,0.0335700856401,-0.0111840290641,0.574103703836,0.818768257563,0.00205537105963,0.0,0.818725135079,-0.574043326735,-0.0120066282815,0.0,-0.00865094063391,0.00857599882997,-0.999925803983,0.0,0.659227588047,0.25761252029,0.303361553228,1.0,-0.01006,-0.0132217142857,0.504
0.463080893109,0.533302561244,-0.124058098657,-1.37854315789,0.0782774500841,1.90239877034,0.156357341311,-0.00532979426437,-0.0536814322378,-0.00108192449229,-0.0885430207442,-0.00705234616141,0.0380622013811,-0.0076269159355,0.574122785805,0.818754869835,0.00205835909687,0.0,0.818711760715,-0.574062368291,-0.0120082088693,0.0,-0.00865031953721,0.00857955431193,-0.999925778855,0.0,0.659067680858,0.25739373416,0.303359842574,1.0,-0.01038,-0.0136422857143,0.52
0.462944999799,0.532307370151,-0.124055667614,-1.38016703631,0.0781893029998,1.90301180511,0.156150449637,-0.00762738787359,-0.0530213230919,0.000417280632697,-0.0931590447997,-0.00638449152541,0.0337885994048,-0.0128413541082,0.574128161643,0.818751123934,0.00204889386802,0.0,0.818707777336,-0.574067670604,-0.0120262961034,0.0,-0.00867050665545,0.00858224585276,-0.999925580916,0.0,0.658877141295,0.257153222147,0.303341674113,1.0,-0.01074,-0.0141154285714,0.538
0.462803904834,0.531317094945,-0.124061904388,-1.38175782147,0.0780923151174,1.90359627694,0.155944050908,-0.0126279091416,-0.0585629554904,-0.00238799988448,-0.0950720744966,-0.00923537721308,0.0393686287285,-0.016018996377,0.574139770525,0.818743024837,0.00203226060578,0.0,0.818699467455,-0.574079355058,-0.0120342422381,0.0,-0.00868644027463,0.00857331281552,-0.999925519258,0.0,0.658691837976,0.256904784699,0.303333348029,1.0,-0.01108,-0.0145622857143,0.555
0.46267617348,0.530345810248,-0.124059410433,-1.38330186818,0.0779972788861,1.90412405492,0.155747809342,-0.0109755807282,-0.057433891619,-0.000750468369163,-0.0971143208562,-0.00416554785989,0.0355769835111,-0.0147373028137,0.57414009673,0.81874288868,0.00199460894322,0.0,0.818698752926,-0.574079757511,-0.0120636177882,0.0,-0.00873210477748,0.00855935533235,-0.999925241097,0.0,0.658499656283,0.256672041692,0.303328458456,1.0,-0.0114,-0.0149828571429,0.571
0.462531257844,0.529236193084,-0.124061003552,-1.38504265238,0.0778899685707,1.90477607245,0.15550854041,-0.0029896223017,-0.0626606577439,0.000478974509927,-0.0992064116753,-0.00947567338425,0.0424877314957,-0.0127430987957,0.5741296839,0.818750152566,0.00201013387083,0.0,0.818706231138,-0.574069290441,-0.0120542012993,0.0,-0.00871559083005,0.00856654883969,-0.99992532357,0.0,0.658295512663,0.256410520313,0.303338039486,1.0,-0.01176,-0.015456,0.589
0.462387888293,0.528150021154,-0.124062483732,-1.38674286015,0.0777791423275,1.90544116142,0.155273652863,-0.00806563256162,-0.0644939147509,0.000840548185795,-0.102415666596,-0.0068703406265,0.0405176803061,-0.0119890131952,0.574118315626,0.818758032847,0.00204700072474,0.0,0.818714700362,-0.574057872283,-0.0120227110991,0.0,-0.00866876130889,0.0085785333938,-0.999925627905,0.0,0.658102114873,0.256154930263,0.303351273399,1.0,-0.0121,-0.0159028571429,0.606
0.462262805224,0.527145906598,-0.124062512785,-1.38829293256,0.0776903140059,1.90603357426,0.155058967792,-0.00837882512983,-0.0702483685344,0.000785229622035,-0.10651495611,-0.0024158355731,0.0406506757433,-0.0194736750097,0.574105004898,0.81876726115,0.00208861692302,0.0,0.818724433355,-0.574044349426,-0.0120055829064,0.0,-0.00863098566523,0.00860263256741,-0.999925747643,0.0,0.6579205256,0.255927613052,0.303371617593,1.0,-0.0124,-0.0162971428571,0.621
0.462100282037,0.525902160298,-0.124070259132,-1.39021477537,0.0775660493526,1.90673986149,0.154795295477,-0.00942334742613,-0.0743197362664,-0.000218096035577,-0.111649394961,-0.00875879931522,0.0412120801404,-0.0135181590409,0.574097785988,0.818772276488,0.00210672225925,0.0,0.818729760318,-0.574037130969,-0.0119874408844,0.0,-0.00860581314931,0.00860696519252,-0.999925927322,0.0,0.65769356864,0.25563224619,0.30339345775,1.0,-0.01276,-0.0167702857143,0.639
0.461952888456,0.524747043461,-0.124074530572,-1.39205038224,0.077445601534,1.90739337423,0.154549689548,-0.00575068817569,-0.0636877783802,-0.000766352799063,-0.111536322831,-0.00327187553463,0.0323872832976,-0.00897165053704,0.574086544908,0.818780231948,0.00207789042683,0.0,0.818737372907,-0.574026045058,-0.0119983624809,0.0,-0.00863142497303,0.00858951038517,-0.999925856659,0.0,0.65746849124,0.255355014688,0.3033890033,1.0,-0.0131,-0.0172171428571,0.656
0.461806847197,0.523613992306,-0.124086089251,-1.39385361392,0.0773346579215,1.90804432079,0.154311534693,-0.00696184056471,-0.0716209575024,-0.00317231866228,-0.113106022801,-0.0108137781684,0.039560537958,-0.0167762194772,0.574086151444,0.818780558948,0.00205764685799,0.0,0.81873745036,-0.574025751287,-0.0120071286475,0.0,-0.00865022776554,0.0085779639698,-0.999925793294,0.0,0.657250150785,0.255079364447,0.303384177544,1.0,-0.01342,-0.0176377142857,0.672
0.461647303813,0.522400991612,-0.124084995537,-1.39579540971,0.0772187997819,1.90880424977,0.154043856924,-0.00939179312969,-0.0712569230158,-0.00365278879278,-0.110024532041,-0.0073877483959,0.0422332302808,-0.0118379421193,0.574069973016,0.818791839086,0.00208260133053,0.0,0.818749057214,-0.574009471142,-0.011993967334,0.0,-0.00862529574665,0.00859066977669,-0.999925899588,0.0,0.657023306128,0.254793398448,0.303378356537,1.0,-0.01376,-0.0180845714286,0.689
0.461491877252,0.52115466488,-0.124081928531,-1.39778435155,0.0770966826429,1.90957217016,0.153784366971,-0.00833355969617,-0.0709281252003,0.00118398288827,-0.113586044376,-0.00778887638184,0.0488443060129,-0.00858858160775,0.574056185647,0.8188014571,0.00210154076355,0.0,0.818758930108,-0.573995614206,-0.0119831607664,0.0,-0.00860572000164,0.00859982840206,-0.999925989529,0.0,0.656786002272,0.254505711204,0.303373793963,1.0,-0.0141,-0.0185314285714,0.706
0.461327719117,0.519934684803,-0.124087217936,-1.39971550319,0.076970019336,1.91027051195,0.153509988276,-0.00995000074315,-0.0740391208714,0.00148735453729,-0.123128287808,-0.00920353373705,0.0423991182807,-0.0188405957851,0.574038281431,0.818814053335,0.00208432566748,0.0,0.818771351391,-0.573977833547,-0.0119861436661,0.0,-0.00861823207574,0.00858725678588,-0.99992598981,0.0,0.656551440884,0.25420857519,0.303372093508,1.0,-0.01442,-0.018952,0.722
0.46114761467,0.518508332876,-0.124090407176,-1.40191414541,0.0768357927328,1.91105294536,0.153228237485,-0.00839501862309,-0.0787033647934,-0.00331490699626,-0.121191692449,-0.00145988962897,0.0449245896983,-0.0131363892529,0.57403768611,0.818814447898,0.00209326061664,0.0,0.818771805028,-0.573977143672,-0.0119881914634,0.0,-0.00861478648603,0.00859574195645,-0.999925946595,0.0,0.656279152133,0.253877694417,0.303394777401,1.0,-0.01478,-0.0194251428571,0.74
0.460963613114,0.517154282612,-0.124093573944,-1.40406224528,0.0766887856236,1.91182032828,0.152924241541,-0.0116512238513,-0.0764004085884,0.00156046526957,-0.126551365928,-0.0114843261784,0.0506537274501,-0.0255264380717,0.574015541439,0.818830053335,0.00206127222902,0.0,0.818787072613,-0.57395521482,-0.011995332594,0.0,-0.00863922721459,0.00857341545275,-0.999925927407,0.0,0.656014763852,0.253546314152,0.303389048879,1.0,-0.01512,-0.019872,0.757
0.46079678697,0.515882236781,-0.124096720878,-1.40608786648,0.0765723599231,1.91258568573,0.15264784781,-0.00757187522564,-0.082858077842,0.000203421078712,-0.120638776789,-0.00560777186717,0.0543825083908,-0.0147847611427,0.574006621903,0.818836292789,0.00206652460268,0.0,0.818793351299,-0.573946245264,-0.0119959292231,0.0,-0.00863679446218,0.00857796456728,-0.999925909408,0.0,0.655787852681,0.25326045834,0.303378810454,1.0,-0.01542,-0.0202662857143,0.772
0.460608949484,0.514491377801,-0.124104895705,-1.40830611816,0.0764295759196,1.91340138252,0.152334357172,-0.00795963151122,-0.0843969381129,-0.00121621186692,-0.132693631302,-0.00802843868516,0.0477247981848,-0.0198110422959,0.573985088663,0.818851414024,0.0020558804473,0.0,0.818808354144,-0.573924779796,-0.0119988842155,0.0,-0.00864554902715,0.0085707177185,-0.999925895894,0.0,0.655499955654,0.252903828904,0.303373837647,1.0,-0.01578,-0.0207394285714,0.79
0.46041753619,0.513095334147,-0.1241000286,-1.41057986319,0.0762875253349,1.91418642614,0.152016686851,-0.0143657966187,-0.083008282788,0.000586507470463,-0.137063111864,-0.00460737657849,0.0441559944283,-0.0182721151512,0.573958987927,0.818869903326,0.00197699422369,0.0,0.818825681522,-0.573898888533,-0.0120547053503,0.0,-0.00873680882788,0.00853788450595,-0.999925383566,0.0,0.655207673731,0.252560119577,0.303337849295,1.0,-0.01612,-0.0211862857143,0.807
0.460231144876,0.511746729572,-0.124110314103,-1.4127276763,0.0761615986039,1.91497073641,0.151718845137,-0.0107336552034,-0.0780326789695,-0.00232255420322,-0.13662806246,-0.0105315293374,0.0504150663339,-0.0171235816072,0.573953561816,0.81887373713,0.00196428601757,0.0,0.818829291375,-0.573893461548,-0.012067861427,0.0,-0.00875493244334,0.00853497130197,-0.999925249918,0.0,0.654944435921,0.252227728701,0.303328538414,1.0,-0.01644,-0.0216068571429,0.823
0.460031915119,0.510278611609,-0.124106774474,-1.41503952091,0.0760174391164,1.91585673895,0.151399513502,-0.00603347686935,-0.0864917328726,0.0010098586661,-0.140834519749,-0.0124976065298,0.0484929110151,-0.0170820078145,0.573934653711,0.818886909287,0.00199749101327,0.0,0.818842908376,-0.573874423252,-0.0120492589595,0.0,-0.00872083932849,0.00855128325783,-0.999925408476,0.0,0.654665806396,0.251881097297,0.303332743838,1.0,-0.01678,-0.0220537142857,0.84
0.459811286243,0.508677730471,-0.124112781307,-1.41754818525,0.0758608674931,1.91675862434,0.15104725444,-0.0121560971908,-0.0894286865614,0.000504470751093,-0.136983831883,-0.00640029591842,0.0487647973594,-0.0159632722486,0.573919185287,0.818897768359,0.00199013495593,0.0,0.818853640652,-0.573858958353,-0.0120564509985,0.0,-0.00873111214515,0.00854922238757,-0.999925336451,0.0,0.65435404937,0.251492502001,0.303337323245,1.0,-0.01714,-0.0225268571429,0.858
0.459633236741,0.507334609083,-0.124119509126,-1.41966317558,0.0757187512941,1.91752391652,0.150743098109,-0.0092310555668,-0.0913363974744,9.03633627155e-05,-0.140125860908,-0.0145006782525,0.050589070177,-0.0225649523054,0.573891770087,0.818917014853,0.00197633804514,0.0,0.818872784392,-0.573831681891,-0.0120544905308,0.0,-0.00873771024462,0.00853650670034,-0.999925387453,0.0,0.654090097095,0.251167824966,0.303336631164,1.0,-0.01744,-0.0229211428571,0.873
0.459412806738,0.505764156035,-0.124128288316,-1.42209903746,0.0755702913779,1.91843850135,0.15042359591,-0.00961144563407,-0.094115789298,-0.00200531678662,-0.140448969645,-0.004792286531,0.0555815908959,-0.0162409961692,0.573902833916,0.81890916526,0.00201573268663,0.0,0.818865463201,-0.573842588864,-0.0120325925374,0.0,-0.00869705449262,0.00855631757233,-0.999925572567,0.0,0.653795681504,0.250788253335,0.303354696074,1.0,-0.01778,-0.023368,0.89
0.459204984192,0.504218632652,-0.124134452924,-1.42443778484,0.0754225936776,1.91934229525,0.150093337499,-0.0112864383805,-0.0947694546387,-0.00157982465852,-0.143666147545,-0.0109125930811,0.0512178908693,-0.0218359350648,0.573887710215,0.818919538587,0.00210529949763,0.0,0.818877098012,-0.573827181706,-0.0119754243469,0.0,-0.0085989964605,0.0085966959134,-0.999926074307,0.0,0.653516977394,0.250429095356,0.303399916119,1.0,-0.0181,-0.0237885714286,0.906
0.45895075582,0.502439972232,-0.124138371184,-1.42705602895,0.0752527810288,1.92032988313,0.149727443634,-0.0112151478382,-0.103552821968,-0.00230400884508,-0.143359351989,-0.0024676837478,0.0594156396381,-0.0192980670651,0.57388742429,0.818919417587,0.0022268010812,0.0,0.818878663567,-0.573826504412,-0.0119005920149,0.0,-0.00846799143642,0.00865324659417,-0.999926704536,0.0,0.653205229292,0.250013086042,0.303481411846,1.0,-0.01846,-0.0242617142857,0.924
0.45872117488,0.500711049466,-0.124139320194,-1.4296350701,0.0750911248596,1.92122617372,0.149365232576,-0.0151315077534,-0.104680281768,0.000127440295789,-0.151174813787,-0.0115909453151,0.0485417403334,-0.0171640775176,0.57386713786,0.81893351916,0.00226851977271,0.0,0.818893222956,-0.573805966646,-0.0118890260113,0.0,-0.00843479412572,0.00868056392483,-0.999926748346,0.0,0.652874875227,0.249614259337,0.303538160371,1.0,-0.0188,-0.0247085714286,0.941
0.458467147861,0.499023716751,-0.124138730247,-1.43225671537,0.074926158884,1.92219480642,0.14899307054,-0.0152787657754,-0.0975266582312,0.00106511168191,-0.161397713006,-0.00769552552418,0.0606355818072,-0.0225536212449,0.573858909373,0.818939209164,0.00229580645815,0.0,0.818899249681,-0.573797612175,-0.011877122341,0.0,-0.00840947482187,0.00869599408395,-0.999926827533,0.0,0.652552376789,0.249199179362,0.303551298403,1.0,-0.01914,-0.0251554285714,0.958
0.458232193235,0.497445523148,-0.124144072513,-1.43474798816,0.0747730840938,1.92310876422,0.148620915666,-0.0144727742753,-0.098423372758,-0.000182988781063,-0.155451232002,-0.0136379371387,0.0543252757101,-0.0322617845852,0.573835505717,0.818955609663,0.00229536094816,0.0,0.818915601465,-0.57377416886,-0.0118822441746,0.0,-0.00841417370085,0.00869832795622,-0.999926767704,0.0,0.652242358173,0.248805428422,0.303545269202,1.0,-0.01946,-0.025576,0.974
0.457965540836,0.495770313459,-0.124143947594,-1.43744966136,0.0746088751925,1.92403954072,0.148231757812,-0.0178917443241,-0.10248341138,-0.000962445573605,-0.162398433025,-0.00515517613742,0.0542458938051,-0.0216626935573,0.573827060469,0.818961743456,0.00221682873301,0.0,0.818920519656,-0.573765841686,-0.0119452208671,0.0,-0.0085109021647,0.00867006444048,-0.99992619454,0.0,0.651893399155,0.248370121039,0.303507471064,1.0,-0.0198,-0.0260228571429,0.991
0.45768335247,0.494072466761,-0.124150237345,-1.44021218457,0.0744350344153,1.92501016119,0.14784815202,-0.0163378960377,-0.107935658491,-0.00740840944218,-0.170964285748,-0.0117491950542,0.0571202897989,-0.0205857595776,0.573839831389,0.818953027415,0.00212924878623,0.0,0.818910631437,-0.573778941085,-0.0119938062579,0.0,-0.00860081142358,0.00862635431285,-0.999925803274,0.0,0.651521259086,0.247884303103,0.303458325621,1.0,-0.0246611428571,-0.0324117877551,1.009
0.457389132984,0.491678290257,-0.124226287254,-1.44384490113,0.0742289166907,1.9263862486,0.147316116625,-0.0173813243538,-0.154617369818,-0.00469024195435,-0.237383464554,-0.00922952120026,0.0973312043394,-0.0363072782479,0.573827490684,0.818961369157,0.00224358318685,0.0,0.818920579947,-0.57376625143,-0.0119213825176,0.0,-0.00847602262364,0.00867830054425,-0.999926419363,0.0,0.651098837002,0.24733997153,0.303518268707,1.0,-0.0340234285714,-0.0447165061224,1.025
0.45701316731,0.488962204419,-0.124242925269,-1.44818364396,0.0739951147579,1.92800950131,0.146655357006,-0.0265087829214,-0.196934306713,0.000293442101401,-0.314249129726,-0.0140775757446,0.115300818572,-0.0487624509543,0.573760464443,0.819008291483,0.00225717179391,0.0,0.818967367463,-0.573698859283,-0.0119505978308,0.0,-0.00849286534224,0.00870549821159,-0.999926040035,0.0,0.650546611402,0.246679333562,0.303483317525,1.0,-0.0428005714286,-0.0562521795918,1.04
0.456342302489,0.484494463605,-0.124331924842,-1.45518836275,0.0735798770365,1.93063909364,0.145605351322,-0.0354436640331,-0.258598923693,-0.00393559464639,-0.399937217553,-0.0249043847834,0.143189972239,-0.0603495463862,0.5737494514,0.819015819129,0.00232420660701,0.0,0.818975906665,-0.573687721513,-0.0118999743123,0.0,-0.00841306039376,0.00873124105004,-0.99992649022,0.0,0.649683781831,0.245531114608,0.303483147919,1.0,-0.0539182857143,-0.0708640326531,1.059
0.455637611461,0.479964269905,-0.1244633286,-1.46241283337,0.0731514068637,1.93313008262,0.144514881853,-0.0458729356699,-0.298635804791,-0.00931988677628,-0.478707823613,-0.0239802071133,0.161050465337,-0.0744572193529,0.57376634841,0.819004483659,0.00214011209173,0.0,0.818962094994,-0.573705287169,-0.0120032220505,0.0,-0.00860306469117,0.00863988191172,-0.999925667097,0.0,0.648750419822,0.244300777514,0.303406496308,1.0,-0.0632805714286,-0.0831687510204,1.075
0.454669139289,0.473891718129,-0.12460396404,-1.47183014111,0.0725790448823,1.93650384777,0.143152865748,-0.0537343001799,-0.349566485159,-0.00890462465909,-0.547328535917,-0.0298926951302,0.19887031068,-0.0816258695314,0.573832716399,0.818957955437,0.00215121318077,0.0,0.818915821928,-0.573771711501,-0.0119852650452,0.0,-0.00858128810464,0.00863936604228,-0.999925858676,0.0,0.647625443342,0.242793922612,0.303425131712,1.0,-0.073228,-0.0962425142857,1.092
0.453615532092,0.467343518381,-0.124696213916,-1.48180836527,0.0719982670339,1.94020353103,0.141599830939,-0.0628330116707,-0.406624603958,-0.00392419891109,-0.614563138711,-0.0358369229157,0.223970629358,-0.102759742218,0.573825397112,0.81896243096,0.00238688224085,0.0,0.818923196341,-0.573763266642,-0.0118852534209,0.0,-0.00836423171995,0.00877490244206,-0.999926517658,0.0,0.646293604535,0.24102002078,0.303521908069,1.0,-0.0837605714286,-0.110085322449,1.11
0.452439266405,0.460500854194,-0.124726433901,-1.49240132115,0.0713206515139,1.94395060806,0.13993789373,-0.0764700300084,-0.438349094643,-0.001980813134,-0.693129496161,-0.0429572399392,0.239089041071,-0.101210622787,0.573762371901,0.819006598609,0.00238304967486,0.0,0.818967010868,-0.573699946799,-0.0119227955637,0.0,-0.00839785445361,0.00879265981726,-0.999926079855,0.0,0.644897324212,0.23922720789,0.303521640859,1.0,-0.0931228571428,-0.122390040816,1.126
0.451112997083,0.452963664713,-0.124852858708,-1.50413013652,0.0705484692765,1.94791533089,0.138127342368,-0.0876240970865,-0.484714575143,-0.00541768344041,-0.737746166814,-0.0481653180414,0.252745132276,-0.112989974684,0.573787213981,0.818989793672,0.00216744850923,0.0,0.818947266585,-0.573725537164,-0.0120469688964,0.0,-0.00862299002987,0.00868759001511,-0.999925082105,0.0,0.64331717989,0.237160061566,0.303468442061,1.0,-0.102485142857,-0.134694759184,1.142
0.449476277009,0.44352749401,-0.124976159473,-1.51820523808,0.0696015172347,1.95307314962,0.135957002974,-0.0917976522611,-0.537091531008,-0.0049909283737,-0.799847845731,-0.0473853972505,0.285139319507,-0.122485493174,0.57381753938,0.818967390271,0.00256750328538,0.0,0.81893072436,-0.573754958856,-0.0117670211905,0.0,-0.00816384607316,0.00885490095497,-0.999927468543,0.0,0.64148462284,0.234700151933,0.30368664118,1.0,-0.113017714286,-0.148537567347,1.16
0.44794763665,0.435149022188,-0.125025658883,-1.53099327147,0.0687528293739,1.95745883488,0.133877864952,-0.106308810033,-0.589191724116,-0.00809566517364,-0.873216504547,-0.0570235858867,0.309605938906,-0.147275433689,0.573725628552,0.819031782997,0.00256680420334,0.0,0.818994706315,-0.573662627157,-0.0118155885265,0.0,-0.0082050208674,0.00888127600083,-0.999926897613,0.0,0.639600676898,0.232306054072,0.303719999039,1.0,-0.12238,-0.160842285714,1.176
0.445916164781,0.424345075584,-0.125116919452,-1.54723334105,0.0676058891944,1.96322841549,0.131192765772,-0.1211942406,-0.608210186354,-0.00345416046788,-0.924483981857,-0.067060068307,0.318303535828,-0.162624915272,0.573648301411,0.819085252536,0.00277889679034,0.0,0.819051416924,-0.573585087306,-0.0116477876333,0.0,-0.00794675031655,0.00895796541322,-0.999928299437,0.0,0.637509364429,0.229556545982,0.303835626968,1.0,-0.132327428571,-0.17391604898,1.193
0.443773928483,0.413435556873,-0.125245443666,-1.56360231747,0.066426524188,1.96896694798,0.128499180561,-0.129237104651,-0.664124153608,-0.0087193542664,-0.985445588258,-0.0772325287899,0.355434086949,-0.160869769716,0.573648317469,0.819084626818,0.00295446721661,0.0,0.81905365746,-0.573585207919,-0.0114831336749,0.0,-0.00771116803198,0.00900732091035,-0.999929700558,0.0,0.635249752914,0.226549186509,0.303944708712,1.0,-0.142274857143,-0.186989812245,1.21
0.441566185683,0.402682070099,-0.125329737915,-1.58003778366,0.065323281276,1.97447468251,0.125729863808,-0.140164474714,-0.691612875386,-0.000200530292848,-1.04475660457,-0.0742375218669,0.348092777989,-0.176720046802,0.573612677349,0.819110076297,0.00281534974164,0.0,0.819076497493,-0.573549098844,-0.0116563018173,0.0,-0.00793320570247,0.00899236242986,-0.999928098248,0.0,0.632875172078,0.223525885057,0.303867900625,1.0,-0.151637142857,-0.199294530612,1.226
0.438791708029,0.38977631523,-0.125477760145,-1.59923582155,0.0639346708902,1.98106539754,0.122460294313,-0.157730616527,-0.726908771782,-0.00746050493776,-1.08281384284,-0.0879551134607,0.356215421162,-0.185840078515,0.573681387373,0.819061232387,0.003018324617,0.0,0.819030603598,-0.573617503537,-0.0115142045846,0.0,-0.00769962300698,0.00907775986853,-0.999929152531,0.0,0.630138659804,0.219856403503,0.30398605166,1.0,-0.162169714286,-0.213137338775,1.244
0.436135673352,0.37774551747,-0.125615224598,-1.61723063371,0.0625663255917,1.98705317266,0.119223741233,-0.167768215298,-0.75136186615,-0.00628940882247,-1.13403532464,-0.081598931401,0.383328720149,-0.203863931345,0.573599129115,0.81911907775,0.00295337882273,0.0,0.819087825285,-0.57353571533,-0.0115180125277,0.0,-0.00774090459986,0.0090259723701,-0.99992930261,0.0,0.62730854852,0.216165664859,0.303981699724,1.0,-0.172117142857,-0.226211102041,1.261
0.433006263895,0.364448330827,-0.125769660131,-1.63704209572,0.0610985740043,1.99358055134,0.115709131672,-0.195495377923,-0.790606393579,-0.0172915766347,-1.1664799543,-0.09440705067,0.3952071588,-0.213618757946,0.573703649279,0.819045901672,0.00294629585933,0.0,0.819014501254,-0.573640179046,-0.0115299011747,0.0,-0.0077535538995,0.00902797923011,-0.999929186489,0.0,0.624529844573,0.212441450297,0.303999354674,1.0,-0.181479428571,-0.238515820408,1.277
0.429594406962,0.350606601447,-0.125974784157,-1.65775851731,0.0595128142076,2.00027114825,0.111880194034,-0.203748082294,-0.797619520561,-0.0109515338907,-1.24616667156,-0.0820956177924,0.392043973618,-0.233291548783,0.573782381825,0.818991484903,0.00273365413132,0.0,0.818957244424,-0.573719510257,-0.011649131157,0.0,-0.00797234200692,0.00892298387111,-0.999928408498,0.0,0.621370778011,0.208222269353,0.303900462982,1.0,-0.191426857143,-0.251589583673,1.294
0.42589502108,0.336023192232,-0.126132488831,-1.67892108211,0.0579001850229,2.00721079245,0.107838663638,-0.222064085017,-0.857376184259,-0.0120180115196,-1.27619906711,-0.0985633243276,0.416938207462,-0.241609107249,0.573858228953,0.818937386394,0.00300618209871,0.0,0.818906625358,-0.573794389817,-0.0115188567534,0.0,-0.00770844043219,0.00907214784067,-0.999929135529,0.0,0.61812695184,0.203852731103,0.304044194311,1.0,-0.201374285714,-0.264663346939,1.311
0.422290061642,0.321897257014,-0.126232470035,-1.6994785616,0.0562126297658,2.01379418576,0.103795974364,-0.223308159435,-0.881074171338,-0.00536666366822,-1.30189863505,-0.107724125611,0.417711882238,-0.252660812264,0.573725800803,0.819029952347,0.00306423763886,0.0,0.819000190687,-0.573662092957,-0.0114559006575,0.0,-0.00762503559798,0.00908233185225,-0.999929682568,0.0,0.614859161847,0.199636362274,0.304089952718,1.0,-0.210736571429,-0.276968065306,1.327
0.418148043621,0.306341924114,-0.126360717593,-1.72192145296,0.0543654500612,2.02089027143,0.0992554673921,-0.249803347342,-0.932193933256,-0.00701404317087,-1.33883528801,-0.111304414714,0.424157418898,-0.273591383634,0.573617629036,0.819105281812,0.00317802900253,0.0,0.819077090874,-0.573553717873,-0.0113841477751,0.0,-0.00750218966198,0.00913337445119,-0.999930146871,0.0,0.611231105155,0.194928319479,0.30415851574,1.0,-0.220684,-0.290041828571,1.344
0.413627549721,0.290277003599,-0.126518151667,-1.74502334772,0.0524317731892,2.0279371098,0.0945022854117,-0.279213178795,-0.985179004426,-0.0101924278497,-1.36308156257,-0.116606395669,0.436330098056,-0.283731631985,0.573613619761,0.819108264907,0.00313248887538,0.0,0.819079263284,-0.573549573968,-0.0114365012072,0.0,-0.00757124077038,0.00912606524021,-0.999929693152,0.0,0.607401699013,0.18993612242,0.30417411519,1.0,-0.230631428571,-0.303115591837,1.361
0.409080094113,0.274838009867,-0.126654855173,-1.76724154922,0.0505864518403,2.03454926466,0.0897561547687,-0.293998131286,-0.983640455876,-0.00749465291575,-1.37620368835,-0.119235561321,0.40961356296,-0.30219733907,0.573580265591,0.819132199072,0.00297762805966,0.0,0.8191002868,-0.573515640254,-0.0116308833979,0.0,-0.00781966538455,0.00911039658941,-0.999927924156,0.0,0.603622884591,0.185061347901,0.304102760813,1.0,-0.239993714286,-0.315420310204,1.377
0.403804819942,0.257852889545,-0.126883198792,-1.79131149669,0.048457318648,2.04172082392,0.0844636182745,-0.314908484263,-0.983723244809,-0.0127323615433,-1.4072957115,-0.113461680182,0.404840193703,-0.311322478003,0.573672722082,0.819067480364,0.00296941935515,0.0,0.819035627927,-0.573608305549,-0.0116145982543,0.0,-0.00781000648965,0.00909521355361,-0.999928137862,0.0,0.599513140293,0.179563087702,0.30411695543,1.0,-0.249941142857,-0.328494073469,1.394
0.398164450916,0.24034107453,-0.127085712582,-1.81590936612,0.0462231983439,2.04886985484,0.0788676189659,-0.332481378175,-1.02326413658,-0.00557049949094,-1.4414193203,-0.118399723927,0.409244960916,-0.331395946123,0.573725595522,0.819030499614,0.00295442823628,0.0,0.818998243163,-0.573660978382,-0.0116493123624,0.0,-0.00784645300031,0.00910335547543,-0.999927778439,0.0,0.594945363769,0.17353371533,0.304131246233,1.0,-0.260473714286,-0.342336881633,1.412
0.392640386462,0.223411352352,-0.1272357309,-1.83937562835,0.0441123670789,2.05564660467,0.0733054331804,-0.359082902759,-1.04704052704,-0.0117868798078,-1.49083720405,-0.149655373448,0.427276981191,-0.362058392858,0.573617335502,0.819105741016,0.00311196852947,0.0,0.819075430302,-0.573552101313,-0.0115833266286,0.0,-0.00770324156351,0.00919351092288,-0.999928067126,0.0,0.590994754859,0.168430713961,0.304195063691,1.0,-0.269250857143,-0.353872555102,1.427
0.385942117152,0.203954736077,-0.127453622555,-1.86616791031,0.0415210327416,2.0630658012,0.0667222164941,-0.382992341292,-1.07217040539,-0.0136116163427,-1.53481059759,-0.152969130782,0.413357764668,-0.37585538098,0.573536832943,0.819162224953,0.00308178010894,0.0,0.819131729267,-0.573471951661,-0.0115705517825,0.0,-0.00771099294897,0.00916069786644,-0.999928308531,0.0,0.586073560157,0.162014784349,0.304222701486,1.0,-0.279783428571,-0.367715363265,1.445
0.379103431873,0.185086027346,-0.127707446103,-1.89183213276,0.0390508435325,2.06998265087,0.0601302365104,-0.420713720349,-1.11893420442,-0.0235848459267,-1.51624309212,-0.156698637276,0.398449213537,-0.406061194797,0.573549216509,0.819153372714,0.00312971475122,0.0,0.81912321762,-0.573483845548,-0.0115836156922,0.0,-0.00769406514612,0.0092075729962,-0.999928008389,0.0,0.581265254804,0.15568086884,0.304272211501,1.0,-0.289730857143,-0.380789126531,1.462
0.37219253774,0.167003079221,-0.127999057802,-1.91621876569,0.0366704774329,2.07637176686,0.0536530030208,-0.434301827251,-1.1316862738,-0.0167480678786,-1.5351288174,-0.161738949119,0.38330084999,-0.409462111153,0.573694386728,0.819051575546,0.00316451173291,0.0,0.819021415834,-0.573628337571,-0.0116274521086,0.0,-0.00770837777467,0.00926258522,-0.999927390077,0.0,0.576609074964,0.149471072832,0.30430124613,1.0,-0.299093142857,-0.393093844898,1.478
0.364518249596,0.147334812525,-0.128213847653,-1.94246617668,0.0339383412035,2.08307658255,0.0463581921381,-0.461599522561,-1.1549086448,-0.0148064188255,-1.54898241177,-0.161231925632,0.377794589773,-0.432108039499,0.57356725676,0.819140543526,0.00318101024631,0.0,0.81911071634,-0.573501313973,-0.0116027647208,0.0,-0.00768012931008,0.0092607438113,-0.9999276245,0.0,0.571454465004,0.142783098878,0.304331874125,1.0,-0.309040571429,-0.406167608163,1.495
0.35579459598,0.126121914582,-0.128552454738,-1.97050243118,0.0309800327344,2.08997548299,0.0381886421662,-0.501771556631,-1.17716244909,-0.0207949501275,-1.57414322403,-0.181707981801,0.376375767145,-0.457201653594,0.573551065332,0.819151920856,0.00317063327419,0.0,0.81912180187,-0.573484968943,-0.0116280264389,0.0,-0.00770695805126,0.00926658020277,-0.999927364006,0.0,0.565830617915,0.135389254607,0.304337325474,1.0,-0.319573142857,-0.420010416326,1.513
0.347963543709,0.107982396652,-0.128912226736,-1.99397686039,0.0284060598593,2.09558558369,0.0310632815657,-0.536078408672,-1.22067919705,-0.0267628994453,-1.56161831763,-0.176048680746,0.354936398518,-0.480805516234,0.573697622453,0.819048719689,0.00331355829534,0.0,0.819020908791,-0.573631614603,-0.0115008083326,0.0,-0.00751910531123,0.00931203920868,-0.999928371925,0.0,0.561050273766,0.128951295429,0.304442962059,1.0,-0.328350285714,-0.431546089796,1.528
0.338703342983,0.0872353499111,-0.129231048625,-2.02082646789,0.0254544513454,2.10170661943,0.0225192177328,-0.561340190112,-1.21935029799,-0.015305284196,-1.62169451614,-0.168589997237,0.343269360747,-0.510662205684,0.573644908878,0.819085730108,0.00329122352815,0.0,0.819057059026,-0.573578272842,-0.0115864526691,0.0,-0.00760267011195,0.00934238931907,-0.999927456953,0.0,0.555398942216,0.121589042738,0.304417706289,1.0,-0.338297714286,-0.444619853061,1.545
0.328256077986,0.0650084641488,-0.129618360776,-2.04920238167,0.0221968484011,2.10788052744,0.0129896337355,-0.593833753285,-1.22908600023,-0.0257780497233,-1.58837774439,-0.191050659423,0.334756819098,-0.531694429919,0.573624419219,0.819100244095,0.00325003090365,0.0,0.819070739979,-0.573557552451,-0.0116449061138,0.0,-0.00767441342599,0.00934198758578,-0.999926912652,0.0,0.54928770686,0.113550772271,0.304393644441,1.0,-0.33998,-0.446830857143,1.563
0.318429028775,0.0453734959674,-0.130022509064,-2.0739219101,0.0192734380986,2.11290241926,0.00435830910449,-0.619898007725,-1.21100078297,-0.0207693353134,-1.56081462943,-0.17573786396,0.303826085828,-0.541381546262,0.573881074739,0.818920814804,0.00315563594663,0.0,0.818889609219,-0.573813915468,-0.0117535199192,0.0,-0.00781460474606,0.0093294197506,-0.999925944198,0.0,0.543836940497,0.106240846696,0.30437058229,1.0,-0.33998,-0.446830857143,1.579
0.307784492348,0.0246522366833,-0.130286262265,-2.0995205551,0.0161864400477,2.11788998236,-0.00506963787284,-0.63563063475,-1.21538103805,-0.0183155490318,-1.49202205344,-0.192817071462,0.284562892297,-0.567063507719,0.573909403851,0.818900723547,0.00321683790498,0.0,0.818869929346,-0.573841569293,-0.0117745090939,0.0,-0.00779634880874,0.009391854145,-0.999925502236,0.0,0.538039938381,0.0986476988149,0.304415192548,1.0,-0.33998,-0.446830857143,1.596
0.296729387572,0.0041521409885,-0.130622776919,-2.1243747634,0.01308763223,2.12246893627,-0.0148048932449,-0.658580717574,-1.21546652405,-0.0259266464295,-1.45881926356,-0.173399315184,0.248191108219,-0.576877230555,0.574005520753,0.818832777855,0.0033602020064,0.0,0.818803889848,-0.573937241767,-0.0117038192068,0.0,-0.00765507310517,0.00946958563099,-0.999925860654,0.0,0.532296090577,0.0909909172454,0.304514512544,1.0,-0.33998,-0.446830857143,1.613
0.286137008867,-0.0148992247041,-0.130792367758,-2.14723774274,0.0102366947399,2.12650775026,-0.0242326911362,-0.666398409468,-1.18183794036,-0.00660000208788,-1.4225174573,-0.174888683686,0.230691154598,-0.58071113121,0.573880528932,0.818919597097,0.00354667502843,0.0,0.818892850665,-0.573811311372,-0.0116543971458,0.0,-0.00750903653819,0.00959276311324,-0.99992579388,0.0,0.526872499731,0.0839462249542,0.304579087019,1.0,-0.33998,-0.446830857143,1.629
0.274437368444,-0.0349756709239,-0.131097581079,-2.17097229003,0.00702800714254,2.13032318904,-0.0344671974923,-0.695764729031,-1.1541374184,-0.0175958041759,-1.38565224765,-0.186813451669,0.214236130126,-0.600283366658,0.573896415678,0.818908298047,0.00358474039158,0.0,0.818882660038,-0.573827867478,-0.011554847292,0.0,-0.00740547897417,0.00956695138547,-0.999926813483,0.0,0.521106315495,0.0763187074483,0.304650182619,1.0,-0.33998,-0.446830857143,1.646
0.26164011012,-0.0560267607037,-0.131396744079,-2.19546828812,0.0037846260693,2.13399383674,-0.045681884024,-0.715233650981,-1.17497451397,-0.0109574684837,-1.33859836921,-0.185639290589,0.205207749426,-0.624980177162,0.573922154565,0.818889450461,0.00376501307304,0.0,0.818866042515,-0.573852932828,-0.0114875063516,0.0,-0.00724657348833,0.00967616204713,-0.999926926861,0.0,0.515005444358,0.0682735535597,0.304739043131,1.0,-0.33998,-0.446830857143,1.664
0.249997437467,-0.0744385813536,-0.131649959211,-2.21671543104,0.000886276796828,2.13688458951,-0.0559592942984,-0.741917466249,-1.171357836,-0.0254749114767,-1.30705241226,-0.18450128782,0.192236851191,-0.654986787946,0.573841801643,0.818945554481,0.00380951238322,0.0,0.818922446464,-0.573772092706,-0.0115047473257,0.0,-0.00723610910303,0.00972178730806,-0.999926560092,0.0,0.50956396831,0.0611690749976,0.304755817454,1.0,-0.33998,-0.446830857143,1.68
0.237202418077,-0.0936414954726,-0.13197078906,-2.23872249617,-0.00215570241058,2.13952039214,-0.0671538922444,-0.745720964952,-1.13721208344,-0.0129513704821,-1.25210052806,-0.178325478902,0.144230952595,-0.655438344229,0.573887737016,0.81891377869,0.0037195799718,0.0,0.818888420159,-0.573816857185,-0.0116925891334,0.0,-0.0074410079229,0.00975634232422,-0.999924719759,0.0,0.503773000573,0.0535692095564,0.304695864347,1.0,-0.33998,-0.446830857143,1.697
0.224139125225,-0.112694586044,-0.13221515677,-2.26029153479,-0.00531003810348,2.14185544893,-0.0786737714088,-0.781275548,-1.09696059322,-0.0219965095999,-1.25971800986,-0.184329246204,0.113181940387,-0.687663350618,0.573724722458,0.819028727745,0.00355427489169,0.0,0.819000798977,-0.573653871201,-0.0118183854046,0.0,-0.00764082072044,0.00969164045633,-0.999923842082,0.0,0.497944035228,0.0460509159269,0.30461805628,1.0,-0.33998,-0.446830857143,1.714
0.211333082018,-0.130508613823,-0.132570004711,-2.27999185229,-0.0081812908527,2.1437522126,-0.0898401929076,-0.797264637056,-1.10218658077,-0.00928974959978,-1.21758728578,-0.183025659366,0.109377769446,-0.707891592284,0.573828344154,0.818955959505,0.00359370801992,0.0,0.818928113264,-0.573756794051,-0.011858899094,0.0,-0.007650148983,0.00974814864103,-0.999923221462,0.0,0.492507099032,0.0388541462735,0.30462666388,1.0,-0.33998,-0.446830857143,1.73
0.197472227989,-0.149230094862,-0.132881877881,-2.30041117796,-0.0112387149741,2.14547542605,-0.10210618202,-0.832302974154,-1.0962006511,-0.0217593677581,-1.19002320038,-0.179245260586,0.0896752062508,-0.720742735577,0.573720613471,0.819031263278,0.00363240318774,0.0,0.819003729645,-0.573648699912,-0.0118662048353,0.0,-0.0076352163719,0.00978302642956,-0.999922994968,0.0,0.486721767773,0.0313044022,0.304632585886,1.0,-0.33998,-0.446830857143,1.747
0.18226330739,-0.168829237206,-0.133299962189,-2.3214122031,-0.0143902410459,2.14686173286,-0.115406293944,-0.842816631967,-1.09517369994,-0.00944751071604,-1.1480741692,-0.174568270989,0.0765057444903,-0.748404057317,0.573853684652,0.818937704424,0.00370564230318,0.0,0.818910305919,-0.573780438535,-0.0119442921974,0.0,-0.00765555356046,0.00988905515511,-0.999921796486,0.0,0.480591672971,0.0232347517067,0.304651688511,1.0,-0.33998,-0.446830857143,1.765
0.168392011813,-0.185956712977,-0.133687452319,-2.33966787447,-0.0172616587859,2.14773137665,-0.127652827842,-0.887288813258,-1.07517069557,-0.0299979087513,-1.12406579412,-0.184150943909,0.0438903571505,-0.769829180305,0.573858509664,0.818934944565,0.00356571979597,0.0,0.818904566991,-0.57378432345,-0.0121493714175,0.0,-0.00790374285907,0.00989219485593,-0.999919834452,0.0,0.475089681568,0.0160616230206,0.304581380491,1.0,-0.33998,-0.446830857143,1.781
0.152366583923,-0.205048241204,-0.134075026389,-2.35941018208,-0.020375077843,2.14857626039,-0.141874525389,-0.901946938475,-1.05289704407,-0.0171165793352,-1.08985318747,-0.165464113689,0.0336673454499,-0.807141966038,0.573827651107,0.818955649701,0.00377061648697,0.0,0.818928211477,-0.573753022055,-0.0120333299545,0.0,-0.00769150903191,0.00999311407703,-0.999920486019,0.0,0.469017282317,0.00804138505431,0.304656147281,1.0,-0.33998,-0.446830857143,1.799
0.13674017417,-0.222880908226,-0.134535604946,-2.37748045582,-0.023355227775,2.14900528645,-0.155631453151,-0.925337202016,-1.03717439794,-0.0268954689298,-1.06049438492,-0.182293662853,0.016832696248,-0.805381174132,0.573961842039,0.818860795309,0.0039431828346,0.0,0.818836198253,-0.573887353566,-0.011888345076,0.0,-0.00747210080337,0.0100524708211,-0.999921554693,0.0,0.463275408052,0.000389978497925,0.304754860344,1.0,-0.33998,-0.446830857143,1.816
0.122768751943,-0.238261629838,-0.134798971032,-2.39308358266,-0.0259534875077,2.14909563727,-0.168152352499,-0.940581839009,-1.03359006919,-0.0142369434961,-1.03137078531,-0.160313128537,0.000618959320932,-0.843549643249,0.573793494379,0.818979022179,0.00389023652161,0.0,0.818953285585,-0.57371861806,-0.0119670473031,0.0,-0.00756900530434,0.0100527294167,-0.999920823261,0.0,0.458154459459,-0.00621574967007,0.304727574717,1.0,-0.33998,-0.446830857143,1.831
0.10638280487,-0.2553946184,-0.135252160124,-2.41011605992,-0.028775191001,2.14911062349,-0.18279454494,-0.960585556502,-0.998187200466,-0.0210989453258,-0.987981824432,-0.165469304584,-0.00372384700858,-0.870149797641,0.573845537328,0.818941680182,0.00407070637197,0.0,0.818918313559,-0.573770038806,-0.0118947546313,0.0,-0.00740560357093,0.0101595234622,-0.999920967436,0.0,0.452432043782,-0.013827158721,0.304755241187,1.0,-0.33998,-0.446830857143,1.848
0.0896347745196,-0.272390158659,-0.13567413608,-2.4266475141,-0.0316366953636,2.14892802296,-0.197818892739,-1.00632302845,-1.00966153689,-0.0340075910139,-0.967399122494,-0.176944201824,-0.0197800040998,-0.900509417036,0.573816692616,0.818960723383,0.00429927125394,0.0,0.81894151573,-0.573742121905,-0.0116412313557,0.0,-0.00706717430523,0.0102009809922,-0.999922994552,0.0,0.446710600875,-0.0214002278833,0.30483719282,1.0,-0.33998,-0.446830857143,1.865
0.0734887522609,-0.287988400737,-0.136058169783,-2.4418576122,-0.0342318622168,2.14827347066,-0.212397328888,-1.0160804859,-0.986078288279,-0.0272672084213,-0.950292199374,-0.169033212793,-0.0430492277262,-0.922353375318,0.573758508703,0.819001728882,0.00425307889486,0.0,0.818980518336,-0.573682092218,-0.0118538835446,0.0,-0.00726857586085,0.0102846533142,-0.999920693711,0.0,0.441214300813,-0.0284996137121,0.304771626255,1.0,-0.33998,-0.446830857143,1.881
0.0547521044362,-0.305227466625,-0.136593631568,-2.45812748764,-0.0372040234333,2.14749122787,-0.22928896846,-1.05534990004,-0.945583060596,-0.0243313116863,-0.904296675031,-0.164593112814,-0.0549897189882,-0.948952837734,0.573809743514,0.818964945295,0.00442080629039,0.0,0.818946942835,-0.573734259353,-0.0116469466734,0.0,-0.00700220783663,0.0103037356586,-0.999922398047,0.0,0.43515594546,-0.0365978401449,0.304845067477,1.0,-0.33998,-0.446830857143,1.899
0.0367055688727,-0.321133489149,-0.137082671146,-2.47302758725,-0.0398443179351,2.14639368386,-0.245625475388,-1.07928910829,-0.916017539835,-0.0354894979149,-0.829242345952,-0.157568844049,-0.0623085852155,-0.969670729858,0.573878750706,0.818916066924,0.00451682665275,0.0,0.818898576045,-0.57380186752,-0.0117169058707,0.0,-0.00700353374328,0.0104231068945,-0.99992115157,0.0,0.429369834504,-0.0441707741409,0.30484641221,1.0,-0.33998,-0.446830857143,1.916
0.020454284376,-0.334872185911,-0.137478739918,-2.48565074552,-0.0421756798004,2.1453702429,-0.260503698049,-1.08629367498,-0.917427642729,-0.0278167844652,-0.862983715807,-0.151835474353,-0.0751540199208,-1.00825269432,0.57378057807,0.818984042866,0.00466183024415,0.0,0.818968957956,-0.573704056402,-0.0115865643963,0.0,-0.00681483163751,0.0104662413819,-0.999922004889,0.0,0.423970862275,-0.0512666522499,0.304893893857,1.0,-0.33998,-0.446830857143,1.932
-0.000741578806438,-0.351851503072,-0.138011139686,-2.50099826506,-0.0451661309014,2.14370631486,-0.279833871914,-1.12282008453,-0.884784136839,-0.0234630971077,-0.795551332817,-0.158646164062,-0.0785865981886,-1.03451681529,0.573795543726,0.818973443356,0.00468187775215,0.0,0.81895902135,-0.573719582526,-0.0115199338973,0.0,-0.00674856491249,0.0104445538463,-0.999922681094,0.0,0.41786103792,-0.0593399587041,0.304934431756,1.0,-0.33998,-0.446830857143,1.95
-0.0201252627031,-0.36654994463,-0.138529541286,-2.5141067771,-0.0476265776923,2.14213062685,-0.297660585108,-1.15281230222,-0.84571049753,-0.03432770838,-0.765158842251,-0.15301216915,-0.0960452470107,-1.05530067229,0.573831815978,0.818947063139,0.00484784984313,0.0,0.818934704272,-0.573755243633,-0.0114724645833,0.0,-0.00661398924945,0.0105535408516,-0.999922435953,0.0,0.412113627376,-0.0669316313276,0.304968131733,1.0,-0.33998,-0.446830857143,1.967
-0.0374935671169,-0.379095196111,-0.138859354079,-2.52528650045,-0.049833385154,2.14048741531,-0.313760806615,-1.17414459793,-0.862330444623,-0.024311880031,-0.704935799249,-0.140602800111,-0.109242978875,-1.07779533632,0.573661581651,0.819066868305,0.00475414391961,0.0,0.819052532983,-0.573584110119,-0.0116173893322,0.0,-0.00678864799119,0.0105585468432,-0.99992121257,0.0,0.406994031573,-0.0735426104274,0.304922945593,1.0,-0.33998,-0.446830857143,1.982
-0.0588971499351,-0.393729056627,-0.139421440445,-2.53797950277,-0.0523777872064,2.1386144174,-0.333587331561,-1.1926862078,-0.82622696005,-0.0331346088996,-0.705065573965,-0.135125762394,-0.115474163279,-1.12065275048,0.573685380508,0.819049312385,0.00490458703623,0.0,0.819037526736,-0.573608414768,-0.0114744588947,0.0,-0.00658496205367,0.0105999742353,-0.999922136379,0.0,0.400922470098,-0.0815970894471,0.304964614541,1.0,-0.33998,-0.446830857143,2.0
-0.0783138403155,-0.406235267926,-0.139869047497,-2.54886562678,-0.0545383118645,2.13660474061,-0.351639827002,-1.21224168575,-0.784715469478,-0.0127229617906,-0.663796675068,-0.137225124174,-0.124377038442,-1.13862197794,0.573681443767,0.819052362302,0.00485549035286,0.0,0.819038219986,-0.573601896453,-0.0117475737398,0.0,-0.00683689117965,0.0107164035636,-0.999919204543,0.0,0.395423897586,-0.0887050935993,0.304894606688,1.0,-0.33998,-0.446830857143,2.016
-0.099394944631,-0.419080035362,-0.14042981756,-2.5595312776,-0.0567743922545,2.13467876144,-0.371324280024,-1.25382952913,-0.742545790045,-0.0325039272468,-0.617464687537,-0.126354690139,-0.12317772631,-1.14680835548,0.573747888614,0.819004327579,0.00510084492807,0.0,0.818994894596,-0.573670057966,-0.0114356512569,0.0,-0.00643976984807,0.0107389534759,-0.999921599048,0.0,0.389740155776,-0.0963480317898,0.305014145045,1.0,-0.33998,-0.446830857143,2.033
-0.12084330506,-0.431286481297,-0.140890879696,-2.56995762969,-0.0589584081939,2.13239755587,-0.391459506321,-1.2741216052,-0.702483582191,-0.0419147609273,-0.603951502872,-0.117638312616,-0.128419332223,-1.20296724415,0.573692017123,0.819044135073,0.00499211315879,0.0,0.819031256015,-0.573611205459,-0.011778520468,0.0,-0.00678372667014,0.0108461486986,-0.999918167707,0.0,0.38388246599,-0.103891923981,0.304910884653,1.0,-0.33998,-0.446830857143,2.05
-0.143918116652,-0.443666617576,-0.141372246014,-2.58006569955,-0.0611227073494,2.13012653757,-0.413259755615,-1.29654230751,-0.685518469691,-0.0257254292396,-0.534714069494,-0.122426966523,-0.121191991435,-1.22241833726,0.573627686554,0.819088344727,0.00512909854791,0.0,0.819077711445,-0.573547196561,-0.0116645974143,0.0,-0.0066126830096,0.0108924760437,-0.999918809899,0.0,0.377820654467,-0.111881158686,0.304973329136,1.0,-0.33998,-0.446830857143,2.068
-0.163564829715,-0.453412872014,-0.141822040524,-2.58802951086,-0.0629203429232,2.12824589691,-0.431848039867,-1.30756384653,-0.633795006568,-0.0326246074867,-0.533276790136,-0.103605834616,-0.138728688025,-1.24519763376,0.573623263384,0.819091186014,0.00516987420962,0.0,0.819081138191,-0.573542738335,-0.0116431638851,0.0,-0.00657179563198,0.0109135462354,-0.999918849713,0.0,0.372734194451,-0.118590464508,0.304976275286,1.0,-0.33998,-0.446830857143,2.083
-0.187490090299,-0.464527166411,-0.142316042267,-2.59706829822,-0.0650198180584,2.12585656799,-0.454635140301,-1.32897272663,-0.607812536711,-0.0361890278333,-0.502769440871,-0.106748131582,-0.115634288511,-1.29125344029,0.573517426721,0.819165601022,0.00512115708102,0.0,0.819154071916,-0.573435683019,-0.0117843457738,0.0,-0.00671680579916,0.0109537552333,-0.999917446476,0.0,0.366572158228,-0.12659521718,0.304942414981,1.0,-0.336322857143,-0.442024326531,2.101
-0.208889593029,-0.47351905562,-0.142575250597,-2.604194877,-0.0665087378853,2.12395088992,-0.474918015476,-1.33461452098,-0.55154871795,-0.00133169624668,-0.425756230378,-0.100430170944,-0.115977468347,-1.27455933829,0.573582468144,0.819119066389,0.00527770944411,0.0,0.819109704748,-0.573500410018,-0.0117182847937,0.0,-0.00657202850168,0.0110446383824,-0.999917408792,0.0,0.361287268845,-0.133599110879,0.304977629807,1.0,-0.326960571429,-0.429719608163,2.117
-0.231556652314,-0.482287183938,-0.142835156513,-2.61099414319,-0.0679449781444,2.1219966215,-0.496341932097,-1.3251690887,-0.497633215106,-0.00848844291345,-0.38593738038,-0.0856520453566,-0.117451939738,-1.25508347906,0.573785430655,0.818975632547,0.00547172396589,0.0,0.818969250873,-0.573703502861,-0.0115932666042,0.0,-0.00635557800913,0.0111334355017,-0.999917823245,0.0,0.355787841396,-0.140922358168,0.305047698668,1.0,-0.317013142857,-0.416645844898,2.134
-0.253929639607,-0.490091909635,-0.14289770956,-2.61726227923,-0.069191626202,2.12004876423,-0.517563090737,-1.32108571783,-0.440449490873,-0.0135971262473,-0.356749775266,-0.0698220776389,-0.111391704722,-1.23374437251,0.573879167817,0.818909687927,0.00551095873559,0.0,0.818902064639,-0.57379404265,-0.0118554649848,0.0,-0.00654652588007,0.0113167577489,-0.999914533344,0.0,0.350365231309,-0.14795570073,0.30497881994,1.0,-0.307065714286,-0.403572081633,2.151
-0.275868295426,-0.497059685751,-0.142793207202,-2.62266939936,-0.0702672749223,2.11843269127,-0.538481110006,-1.28975691451,-0.39637151222,-0.00177071510789,-0.307573095211,-0.0559818013641,-0.0910011456303,-1.23068031991,0.573863863001,0.818919773641,0.00560517451638,0.0,0.818913843088,-0.573779223552,-0.0117587039916,0.0,-0.0064134260076,0.0113382685977,-0.999915152216,0.0,0.345214435644,-0.154757431934,0.305002193086,1.0,-0.297118285714,-0.390498318367,2.168
-0.294826482628,-0.502436573814,-0.142642953149,-2.62685479018,-0.071094308169,2.11705178212,-0.556555870349,-1.24412313572,-0.341934084084,0.00600012136414,-0.270432451938,-0.0412693778111,-0.0874791817046,-1.18136365637,0.573879710843,0.818908475222,0.00563325778304,0.0,0.818902565778,-0.573794360818,-0.0118053444094,0.0,-0.00643528894011,0.0113881561456,-0.999914444818,0.0,0.340807740004,-0.160560270857,0.304994737534,1.0,-0.288341142857,-0.378962644898,2.183
-0.317182806495,-0.508142051514,-0.142403320468,-2.6311824627,-0.0718658782146,2.11565465917,-0.577889379959,-1.22723812906,-0.298192156935,0.0140191096711,-0.22106576281,-0.0415804268819,-0.0692443684508,-1.19096495455,0.573959698741,0.818851449862,0.00577184388405,0.0,0.81884796617,-0.573874974284,-0.011673435313,0.0,-0.00624661293703,0.0114265640378,-0.999915203135,0.0,0.335719109869,-0.167339532406,0.305036963307,1.0,-0.277808571429,-0.365119836735,2.201
-0.337750143681,-0.512830829264,-0.142116946282,-2.63477929394,-0.0724801644959,2.11436729488,-0.597588915876,-1.19234403149,-0.258911193924,0.0310409602398,-0.202190387764,-0.0349301105725,-0.0735569927407,-1.16353467401,0.57398972772,0.818829869254,0.00584675904663,0.0,0.818826966659,-0.573904018489,-0.0117184954179,0.0,-0.00624009570003,0.0115140016493,-0.999914240809,0.0,0.331034818553,-0.17348259609,0.30503650046,1.0,-0.267861142857,-0.352046073469,2.218
-0.356539648304,-0.516561851997,-0.141795243451,-2.63779466061,-0.0729073842157,2.11326143613,-0.615682322597,-1.17454596753,-0.224051674114,0.0100360193354,-0.175540488572,-0.0219615895121,-0.0666325193717,-1.1214594616,0.573969693135,0.818843476519,0.00590755668633,0.0,0.818839689687,-0.57388068447,-0.0119695232699,0.0,-0.00641105680461,0.0117077108917,-0.99991090996,0.0,0.326753811385,-0.179008639865,0.304957390611,1.0,-0.258498857143,-0.339741355102,2.234
-0.377033241151,-0.520063642805,-0.141309244989,-2.64060412636,-0.0733687009082,2.11227726196,-0.635428711524,-1.12991684933,-0.188787409364,0.0304249747285,-0.145710914175,-0.0262452050288,-0.0505010086546,-1.08525034449,0.573872572998,0.818911771388,0.00587601430744,0.0,0.818906847055,-0.573782396558,-0.0120865275444,0.0,-0.00652637176267,0.0117482612007,-0.999909688337,0.0,0.322167285741,-0.184994790945,0.304898178543,1.0,-0.247966285714,-0.325898546939,2.252
-0.396949206134,-0.522983859399,-0.140870923788,-2.64282505534,-0.0736442630466,2.11141232373,-0.654589622893,-1.07753378213,-0.160262668398,0.0229322413034,-0.111872476936,-0.00159882721114,-0.0435745148367,-1.06200070738,0.573929727961,0.818871063869,0.00596615632689,0.0,0.818867095354,-0.573838759216,-0.012103944328,0.0,-0.00648808294068,0.0118325303901,-0.999908943857,0.0,0.317760213693,-0.190798750478,0.304898630042,1.0,-0.237433714286,-0.312055738776,2.27
-0.411963305746,-0.524868718673,-0.140515917491,-2.64420568836,-0.0738258481059,2.11083940924,-0.669010136002,-1.06800208934,-0.132628493596,0.026452928853,-0.097857263095,-0.00994827661461,-0.0357825506342,-1.02090044438,0.574004051039,0.818818624781,0.00601298621601,0.0,0.81881551897,-0.573913329929,-0.0120574675749,0.0,-0.00642206972073,0.0118447897112,-0.999909224869,0.0,0.314463531669,-0.195161906111,0.304922265468,1.0,-0.229241714286,-0.301289110204,2.284
-0.43051417381,-0.526800152474,-0.139978506978,-2.64566256913,-0.0739507163314,2.11025898777,-0.686945829802,-1.02346276659,-0.0924257772536,0.0236004919784,-0.0804512124913,-0.00505101781276,-0.0261026357574,-0.979022842583,0.573987433958,0.81882991622,0.00606142419605,0.0,0.818827643714,-0.57389688729,-0.0120166363947,0.0,-0.006361071364,0.0118608883399,-0.999909423947,0.0,0.310413146583,-0.200499508179,0.304931476952,1.0,-0.218709142857,-0.287446302041,2.302
-0.447389758818,-0.528200879357,-0.139497200493,-2.64670161585,-0.0740202966438,2.10980585544,-0.703257970259,-0.969982765194,-0.078610411409,0.0358678046885,-0.0516522505582,-0.000696847799239,-0.0292318623479,-0.944685737998,0.574017007177,0.818808857252,0.00610554330184,0.0,0.818807364714,-0.573926655436,-0.0119766678139,0.0,-0.00630258898388,0.0118743034527,-0.999909635062,0.0,0.306734296788,-0.205344686439,0.304945109733,1.0,-0.208761714286,-0.274372538776,2.319
-0.461744294658,-0.529085002103,-0.139043129379,-2.64738955677,-0.0740357129457,2.10949947822,-0.717061859734,-0.958388457187,-0.0512188757712,0.0253654995339,-0.0389965007374,-0.000642135587873,-0.0190818517161,-0.914565036715,0.574121367167,0.818735552904,0.00612348546248,0.0,0.818734241131,-0.574030819211,-0.0119836512385,0.0,-0.00629649317314,0.0118938064485,-0.999909441671,0.0,0.303410220361,-0.209712615331,0.304938046123,1.0,-0.199399428572,-0.262067820408,2.335
-0.478995530775,-0.529799721944,-0.138355405236,-2.64794840909,-0.0740305226175,2.10919544658,-0.733833542211,-0.880600623423,-0.0269564806984,0.0329699148978,-0.0220660435675,-0.000240548473262,-0.0170027476652,-0.870681134445,0.573976703226,0.818837496688,0.00605351735143,0.0,0.818835386831,-0.573886687382,-0.0119760686667,0.0,-0.00633254298845,0.0118310464174,-0.999909958566,0.0,0.299896202601,-0.214333274969,0.304939998084,1.0,-0.188866857143,-0.248225012245,2.353
-0.492939921466,-0.53013427283,-0.13783614461,-2.64820997902,-0.0740137154161,2.10900816612,-0.747271471719,-0.850868720518,-0.0165399089531,0.0417836995098,-0.0112094824863,-0.00268518817678,-0.0152923209647,-0.839732312037,0.574017019426,0.818809627178,0.0060002292862,0.0,0.818806873464,-0.573927306616,-0.0119790479453,0.0,-0.00636498689443,0.0117894333621,-0.999910244073,0.0,0.296880590461,-0.218290381009,0.30494077817,1.0,-0.179504571429,-0.235920293878,2.369
-0.506028355118,-0.530244929454,-0.137194742487,-2.64831440161,-0.0739251371461,2.10889998942,-0.760099232883,-0.806823924206,-0.00251864764957,0.0416716949468,-0.00469832194115,0.00382376491417,-0.00278308169751,-0.791193986755,0.573809963319,0.818955350612,0.00591663768068,0.0,0.818951640438,-0.573720874649,-0.0119714458965,0.0,-0.00640970453302,0.0117150006153,-0.999910833249,0.0,0.294079917778,-0.221957758222,0.304941272977,1.0,-0.170142285714,-0.22361557551,2.385
-0.519527699656,-0.530208562151,-0.136624392545,-2.64831447581,-0.0738093348455,2.10883903032,-0.773013281904,-0.767361253271,0.00490522461139,0.0419747242925,0.00168659575501,0.00139125804264,-0.00405349873956,-0.741568520418,0.573936632231,0.818866861277,0.00587814478918,0.0,0.818862747054,-0.573847849271,-0.0119663810622,0.0,-0.00642583587353,0.0116815631428,-0.999911120908,0.0,0.291161350358,-0.225750306718,0.304937712221,1.0,-0.160194857143,-0.210541812245,2.402
-0.532723198363,-0.529955633862,-0.135891448501,-2.64819199556,-0.0735251451017,2.10884735396,-0.785887344446,-0.723882805305,0.0187915368028,0.0392809594079,0.00548841933285,0.01334410675,0.00202199659053,-0.69376447166,0.573811594153,0.818954472504,0.0058799048876,0.0,0.818950257846,-0.573722605338,-0.0119830796656,0.0,-0.0064402863307,0.0116916047692,-0.999910910576,0.0,0.288345515429,-0.229393541323,0.304921054831,1.0,-0.149662285714,-0.196699004082,2.42
-0.543982137191,-0.529625399848,-0.135351445996,-2.64797985838,-0.0732638835082,2.1088507532,-0.79663751836,-0.685970594832,0.023400086019,0.0403412618577,0.0198568454735,0.0162637319123,0.00290314943635,-0.663410532222,0.57397114075,0.818842328564,0.00592599683426,0.0,0.818838474001,-0.573881494824,-0.0120137544268,0.0,-0.00643667465404,0.0117482087272,-0.99991027038,0.0,0.285915517592,-0.232515404456,0.304911406691,1.0,-0.1403,-0.184394285714,2.436
-0.554925838596,-0.529094852476,-0.134612756969,-2.64766413076,-0.0728816147291,2.10892391489,-0.807379702412,-0.630713905861,0.0345798524983,0.0439888619735,0.0137680479742,0.0194018185652,0.00620091981175,-0.622600380347,0.573796570397,0.81896443759,0.00595757205656,0.0,0.818960608444,-0.573706124266,-0.0120644808263,0.0,-0.00646260960542,0.0118018017793,-0.999909471978,0.0,0.283607490635,-0.235493008141,0.304886761251,1.0,-0.130352571429,-0.171320522449,2.453
-0.565969192339,-0.52845509114,-0.133952946471,-2.64723779004,-0.0725325412464,2.10902571565,-0.817902017219,-0.603807612145,0.0349258418273,0.0348564370497,0.0256564143224,0.0164128622912,0.00350114502832,-0.571588390257,0.573931098331,0.818869953892,0.00598664194184,0.0,0.818866315859,-0.57384015742,-0.0120903839803,0.0,-0.00646520109333,0.0118415347746,-0.999908985473,0.0,0.281255941832,-0.238525975775,0.304872705335,1.0,-0.11982,-0.157477714286,2.471
-0.574369006131,-0.527823540809,-0.133330603029,-2.6467882319,-0.0721831561817,2.10914793145,-0.826076116742,-0.533351192918,0.0465785534656,0.0525072497183,0.0305479761339,0.0309639205104,0.00894893683856,-0.529734860125,0.573851194307,0.81892581064,0.00600586061568,0.0,0.818922457199,-0.573760250367,-0.0120801943459,0.0,-0.00644698298124,0.0118507962504,-0.999908993378,0.0,0.279511434398,-0.24081427977,0.304872774415,1.0,-0.111042857143,-0.145942040816,2.486
-0.583673853252,-0.527042696046,-0.132607965654,-2.64624891212,-0.0717989639257,2.10926236785,-0.835042123722,-0.512568906086,0.0407458935673,0.0423773617042,0.0314994056362,0.0165148468172,0.00435864337222,-0.486285175755,0.573812881614,0.818952676456,0.00600312589077,0.0,0.818948958743,-0.573721354776,-0.0121308263614,0.0,-0.00649057616106,0.0118773068032,-0.999908396807,0.0,0.27756852269,-0.243332995245,0.3048607189,1.0,-0.100510285714,-0.132099232653,2.504
-0.591379196991,-0.526367140188,-0.132019575909,-2.64575864776,-0.0714353240027,2.10937545077,-0.842319931318,-0.466505707315,0.0414300215061,0.0317094731645,0.0356087781059,0.0263617506393,0.00771503124088,-0.448872680419,0.573950230972,0.818856140237,0.00604159455012,0.0,0.818852804043,-0.573858286064,-0.012144946603,0.0,-0.00647806972802,0.0119180010047,-0.9999079937,0.0,0.275860648669,-0.245541129919,0.304859589592,1.0,-0.090562857143,-0.119025469388,2.521
-0.5986911206,-0.525604248864,-0.131346096141,-2.64521083509,-0.071013819025,2.10950861857,-0.849356794842,-0.409385630292,0.0472815191338,0.0452119871949,0.0349834070212,0.0232950499572,0.0040728053141,-0.402824067082,0.573889632881,0.818898394582,0.00607087508081,0.0,0.818895322788,-0.573797354472,-0.0121570234068,0.0,-0.00647203949688,0.0119484309531,-0.999907669589,0.0,0.274465265651,-0.247372384425,0.304859313251,1.0,-0.0812005714287,-0.106720751021,2.537
-0.605207171572,-0.524912948113,-0.130643446628,-2.64471903685,-0.0706070214199,2.10963914525,-0.855607959711,-0.373499052178,0.0318368443819,0.041336263055,0.0289658251119,0.0240497904003,0.00657122795986,-0.358920582527,0.573810654303,0.818953713063,0.00607418886947,0.0,0.81895060965,-0.573718239703,-0.0121666464917,0.0,-0.00647917211823,0.0119560422527,-0.999907532416,0.0,0.273150659457,-0.249083318248,0.304858503218,1.0,-0.0712531428572,-0.0936469877552,2.554
-0.611143833847,-0.524272486213,-0.129950230967,-2.64422551694,-0.0702031674005,2.10978184507,-0.86107882453,-0.331165266871,0.0384138547454,0.041035421003,0.0269885309657,0.0269381554618,0.00600219224945,-0.317064108774,0.573901116754,0.81889035145,0.00607020523998,0.0,0.818887531141,-0.573809320023,-0.012117033375,0.0,-0.00643950535824,0.0119250239618,-0.99990815907,0.0,0.271972164997,-0.250635007341,0.304877656056,1.0,-0.0613057142858,-0.0805732244899,2.571
-0.615925476708,-0.52367220909,-0.129328453448,-2.64376628599,-0.0697809703841,2.10992292303,-0.865567289475,-0.284899611065,0.0380119787446,0.036721945008,0.0290263149232,0.0291244292618,0.0134332428278,-0.261201595828,0.573906385031,0.818886363949,0.00610991496436,0.0,0.818884332684,-0.57381491977,-0.0120679093004,0.0,-0.00637640876803,0.0119293935176,-0.999908511306,0.0,0.27105526154,-0.251874066495,0.304893854537,1.0,-0.0519434285715,-0.0682685061226,2.587
-0.620339254546,-0.523133420627,-0.128662683131,-2.64338132675,-0.0693677286941,2.11002772151,-0.86960164529,-0.242412473055,0.0323053622278,0.0448932659136,0.0187055328299,0.0287575165413,0.00813379840974,-0.223022001824,0.573943218794,0.818860426152,0.00612625360554,0.0,0.818858577005,-0.573851617398,-0.01207058307,0.0,-0.00636868487337,0.0119445945802,-0.999908379059,0.0,0.270212495227,-0.25297896066,0.304896634562,1.0,-0.0419960000001,-0.0551947428573,2.604
-0.624097411549,-0.52268290203,-0.127836785795,-2.64305623706,-0.0689199423754,2.1101167975,-0.873018493248,-0.193811827283,0.0231709589417,0.0454999793243,0.0201609455747,0.0299485922616,0.00481252221543,-0.167286028277,0.573846704577,0.818928314444,0.00609281129282,0.0,0.818926107594,-0.57375541393,-0.01206242877,0.0,-0.00638260388028,0.0119117765738,-0.999908681804,0.0,0.269554203724,-0.253849450567,0.304906982338,1.0,-0.0314634285715,-0.041351934694,2.622
-0.626619336691,-0.522417859463,-0.12716809502,-2.64286420213,-0.0685755686978,2.110195792,-0.875243956568,-0.154151604023,0.0159216897718,0.0455619285954,0.00995886293956,0.0293801817215,0.00700706914416,-0.138142720142,0.573762075378,0.818987951303,0.00604676612186,0.0,0.818985469046,-0.573671602094,-0.0120183752406,0.0,-0.00637416923017,0.0118481296224,-0.9999094918,0.0,0.26911435661,-0.254430664428,0.304923536141,1.0,-0.0221011428572,-0.0290472163267,2.638
-0.628850637102,-0.522149448415,-0.126558768436,-2.64267516777,-0.0682177156676,2.11022940333,-0.877171468056,-0.120474639392,0.0153306195429,0.032143750945,0.0110690873293,0.0231471887514,0.00057646606184,-0.10462616945,0.573753330816,0.818994043507,0.00605136165632,0.0,0.818991481985,-0.573662581534,-0.012039181207,0.0,-0.00638870095,0.011863762383,-0.9999092137,0.0,0.268773080645,-0.254875150331,0.304925128548,1.0,-0.0197325,-0.0259341428571,2.654
-0.630794726808,-0.521908491635,-0.126166121647,-2.64249371786,-0.0679558345253,2.11026656692,-0.878866160876,-0.100604552178,0.00908807879139,0.0180085400949,0.0104629068298,0.0120098848065,0.000758057266876,-0.0966670952954,0.573800827202,0.818960585144,0.00607598413637,0.0,0.818958335651,-0.573709947465,-0.0120369244092,0.0,-0.00637203679928,0.0118830038234,-0.999909091551,0.0,0.268426639408,-0.255330217547,0.304931811651,1.0,-0.0193725,-0.025461,2.672
-0.63229673326,-0.521712779421,-0.12597152353,-2.642320156,-0.0678218334216,2.11032074435,-0.880315630867,-0.102109475353,0.0145580881679,0.0138189508197,0.0113481609043,0.0104072677091,0.00175308291338,-0.0911044368691,0.573774285017,0.818979095294,0.00608754669593,0.0,0.818977337598,-0.573684000689,-0.011980599127,0.0,-0.00631965376414,0.0118599508245,-0.999909697694,0.0,0.268123138383,-0.255751612684,0.304951375749,1.0,-0.0190525,-0.0250404285714,2.688
-0.633930812558,-0.521431478137,-0.125803874479,-2.64211696814,-0.0677066710246,2.11040658689,-0.881851683572,-0.0843781151596,0.0204471275765,0.00375666525677,0.00632334627806,0.00793094146841,0.00390470630968,-0.082705918524,0.57379365141,0.818965505145,0.00609047495436,0.0,0.818963864921,-0.573703499959,-0.0119678314442,0.0,-0.00630723576034,0.0118551728605,-0.999909832762,0.0,0.267823478806,-0.256171853613,0.30494849588,1.0,-0.0187125,-0.0245935714286,2.705
-0.635395028297,-0.521171417893,-0.125685766836,-2.64195827161,-0.0676819889478,2.1104048873,-0.883328446421,-0.0873785205854,0.016104587572,0.00743182453616,0.00686173425305,0.00671628086214,4.13305534612e-05,-0.0879904783931,0.573718912367,0.819018122749,0.00605566698392,0.0,0.819015456423,-0.573627853389,-0.0120629539619,0.0,-0.00640620199507,0.0118806584252,-0.999908901116,0.0,0.267506391233,-0.256570763749,0.304927706836,1.0,-0.0183725,-0.0241467142857,2.722
-0.636764040139,-0.520955409575,-0.125615387377,-2.64180760044,-0.0676483409117,2.11041248543,-0.884658145526,-0.0840058379234,0.015801760996,0.00621355132039,0.0111086389004,0.00126873351323,0.000169103462812,-0.0733089676511,0.57372366818,0.819014834827,0.00604977718056,0.0,0.819011781132,-0.573632058997,-0.0121123968838,0.0,-0.00645001077525,0.0119042367481,-0.999908339053,0.0,0.267204352107,-0.256953430684,0.304919110294,1.0,-0.0180325,-0.0236998571429,2.739
-0.638026203866,-0.520739984464,-0.125545972755,-2.64163257574,-0.0676128412687,2.11046843014,-0.885988859429,-0.0808180277252,0.0104465966071,0.00161228807359,0.00928521959046,0.00486609386659,0.00115009114276,-0.0850852252817,0.573642641567,0.819071675688,0.00603794362039,0.0,0.819068623369,-0.573551387891,-0.0120889437399,0.0,-0.00643876442905,0.0118804525254,-0.999908694412,0.0,0.266942630076,-0.257320131552,0.304925882753,1.0,-0.0177125,-0.0232792857143,2.755
-0.639447663338,-0.520515343014,-0.12554941444,-2.64145734119,-0.0675783561929,2.1105614029,-0.887427537132,-0.0807841701764,0.0136368624679,-0.00100528731965,0.00731651186923,0.00145191445757,0.000652282723329,-0.0824598413426,0.57365488075,0.81906294675,0.00605920403486,0.0,0.81906048696,-0.573564118071,-0.0120361149812,0.0,-0.00638311668022,0.0118676592008,-0.999909203121,0.0,0.266629349074,-0.257750222942,0.304930776567,1.0,-0.0173525,-0.0228061428571,2.773
-0.640732832064,-0.520350208036,-0.125562825102,-2.64129952159,-0.0675554587641,2.11056102174,-0.888640119179,-0.0824136996367,0.0104272405153,-0.000772510783652,0.0116165519769,0.00184707679685,4.30025255346e-05,-0.0721551887207,0.573741755533,0.819001918111,0.00608300817923,0.0,0.818999751118,-0.5736508416,-0.0120360501101,0.0,-0.00636814797176,0.0118877955816,-0.999909059369,0.0,0.266329806749,-0.258130626861,0.304941418634,1.0,-0.0170325,-0.0223855714286,2.789
-0.642042001153,-0.520169057277,-0.125560456158,-2.64112415012,-0.0675354750431,2.11057385228,-0.889987330318,-0.0750451624883,0.00949883620409,0.000788500255487,0.0142750024015,-0.000414431516054,0.00369166890033,-0.0785617860181,0.573726479737,0.819012531504,0.00609480023178,0.0,0.819010597811,-0.573635668097,-0.0120211422191,0.0,-0.00634939356308,0.0118887824851,-0.999909166901,0.0,0.266032479332,-0.258519945707,0.304955636199,1.0,-0.0166925,-0.0219387142857,2.806
-0.643366779982,-0.519972049239,-0.125549465241,-2.64094986109,-0.0674997255029,2.1106246354,-0.891265298174,-0.0734744117562,0.011516348967,0.000583448532472,0.0142107317496,0.000388354956183,0.0046580917653,-0.0649809482334,0.573781305643,0.818973998582,0.0061114516557,0.0,0.818972500263,-0.573690823004,-0.0119845865617,0.0,-0.00630910251746,0.0118818713305,-0.999909504085,0.0,0.265739251299,-0.258914321017,0.304966971337,1.0,-0.0163325,-0.0214655714286,2.824
-0.64452224427,-0.519794817983,-0.125513274606,-2.64079607183,-0.0674774307436,2.1106972531,-0.892458347178,-0.0733552954596,0.00700337870139,0.00207621058451,0.00820429463758,0.000806172168169,0.00990220790004,-0.0831226347654,0.57374234035,0.819001359567,0.00610301706892,0.0,0.819000107041,-0.573652571255,-0.011928916983,0.0,-0.0062689084892,0.0118427243896,-0.999910221303,0.0,0.265492796046,-0.259257412518,0.304978709743,1.0,-0.0160125,-0.021045,2.84
-0.645729239742,-0.51958279315,-0.125444865129,-2.6406342662,-0.0674558205243,2.11071885937,-0.893664785468,-0.0703243718403,0.0122518229697,0.00434341845463,0.0110983878489,4.02717739783e-05,3.47142594311e-05,-0.0657173353938,0.573712042834,0.819022727554,0.00608363037884,0.0,0.819021100976,-0.573622129629,-0.0119513788689,0.0,-0.00629886717815,0.0118394995834,-0.999910071217,0.0,0.265232428523,-0.259601293254,0.304977683914,1.0,-0.0156725,-0.0205981428571,2.857
-0.646895075267,-0.519372090815,-0.125394332992,-2.64049135324,-0.0674322047676,2.11073623213,-0.894839478122,-0.0660355647614,0.0136664939385,0.000895749666018,0.00884575885165,1.49955921659e-05,0.000245457643439,-0.0695186707324,0.57368667359,0.81904054211,0.00607764971205,0.0,0.819038565336,-0.573596279646,-0.0119951394104,0.0,-0.00633851025748,0.0118595094607,-0.999909583574,0.0,0.264973629379,-0.25993231443,0.304967762204,1.0,-0.0153325,-0.0201512857143,2.874
-0.647980769716,-0.519190635719,-0.125357769387,-2.64035863289,-0.0674042117257,2.11077072925,-0.895937470444,-0.067206707639,0.0134099939492,0.00387321376583,0.0106725561384,0.00508254194389,0.00146316739828,-0.0641489643817,0.573669624498,0.819052466149,0.00608001021214,0.0,0.819050468443,-0.573579127604,-0.0120025590019,0.0,-0.00634348072895,0.011865567177,-0.999909480187,0.0,0.264733658733,-0.26024475729,0.304965096624,1.0,-0.0150125,-0.0197307142857,2.89
-0.649158615073,-0.518986009618,-0.125353581215,-2.64020164017,-0.0673828349177,2.11081302307,-0.897118785754,-0.0629604699103,0.0132399138132,-0.000230329880874,0.00758413046856,0.0011470770825,0.00518446230323,-0.0594745943332,0.573681176486,0.819044298381,0.00609031497008,0.0,0.819042434648,-0.573590633665,-0.0120009215657,0.0,-0.00633606074959,0.0118731577987,-0.999909437128,0.0,0.264467963827,-0.2605960256,0.304964812617,1.0,-0.0146525,-0.0192575714286,2.908
-0.650273615192,-0.518805307696,-0.125345334131,-2.64005907204,-0.0673592299164,2.11086688633,-0.898218334646,-0.0699898145591,0.0103793143694,-0.000337794300207,0.00902642221435,0.00032858855713,0.000881800081814,-0.0611406837404,0.573705500095,0.819027193306,0.00609940060914,0.0,0.819025582017,-0.573615166117,-0.0119784850689,0.0,-0.00631211784022,0.0118679163948,-0.999909650783,0.0,0.264218349611,-0.260927640939,0.30496785712,1.0,-0.0143125,-0.0188107142857,2.925
-0.651243982196,-0.518647219971,-0.125346348457,-2.63992178062,-0.0673422664945,2.1109065276,-0.899249368032,-0.0680100626912,0.0136440507302,-0.000468441530667,0.00478415530584,-0.000253857837067,0.00113772536622,-0.063508155016,0.573670871125,0.819051384133,0.0061080826329,0.0,0.819050028541,-0.573580777252,-0.0119536444379,0.0,-0.00628729128806,0.0118605112242,-0.999909895061,0.0,0.264000539643,-0.261220566032,0.304975386162,1.0,-0.0140125,-0.0184164285714,2.94
-0.652327390992,-0.518478865349,-0.125333952818,-2.63977611824,-0.0673178073607,2.11091985739,-0.900298652424,-0.0611161271073,0.00983306739762,0.00196155003326,0.0114932480651,0.000332800240256,0.000838968008055,-0.0720547232369,0.5737080163,0.819025285887,0.00611882439545,0.0,0.819024044647,-0.573617822375,-0.011956380908,0.0,-0.00628283253016,0.0118711644344,-0.999909796667,0.0,0.263753987276,-0.261537726044,0.304981005518,1.0,-0.0136725,-0.0179695714286,2.957
-0.653421859853,-0.518281435707,-0.125329668693,-2.63960546801,-0.0672984337109,2.11095961057,-0.901375071057,-0.0630274208604,0.00890042560867,1.37619521344e-05,0.00870809945431,0.00106632498504,0.00175252210308,-0.0567642058575,0.573736857905,0.819005043339,0.00612403191309,0.0,0.819003986098,-0.573646856434,-0.0119374100842,0.0,-0.00626388800697,0.0118647671346,-0.999909991453,0.0,0.263511167063,-0.261869512349,0.304989318045,1.0,-0.0133125,-0.0174964285714,2.975
-0.654309808656,-0.518114969693,-0.125323382506,-2.63949688987,-0.0672818088759,2.1109951555,-0.902293598485,-0.0637596598186,0.0122167218678,0.000610632347646,0.00230817718269,0.000184077941076,-9.07578757318e-05,-0.0590102053675,0.573720254616,0.819016610393,0.00613255618444,0.0,0.819015547306,-0.573630000411,-0.0119541959455,0.0,-0.00627298761108,0.0118812519523,-0.999909738666,0.0,0.263308118884,-0.262130491368,0.304980511266,1.0,-0.0130125,-0.0171021428571,2.99
-0.655304813221,-0.517930067991,-0.125310189409,-2.63936899203,-0.0672682595092,2.11101824179,-0.903255136762,-0.0590507645719,0.0058734259204,-0.000586620977931,0.00702003708422,0.000236730227858,0.00366032036122,-0.0522545683933,0.573750881518,0.818995137491,0.00613495105008,0.0,0.818993925903,-0.573660270933,-0.011982895661,0.0,-0.00629467678991,0.0118999137046,-0.999909380443,0.0,0.263080001944,-0.262421196795,0.304972778613,1.0,-0.0126725,-0.0166552857143,3.007
-0.656331832189,-0.517736837923,-0.125282117336,-2.63922084509,-0.067252725712,2.11105489611,-0.904209886982,-0.0536596555427,0.00773804677856,0.000861539331995,0.01071821464,6.04805642837e-05,0.000240242354209,-0.0529301141193,0.57380453448,0.818957605224,0.00612731240969,0.0,0.818956284974,-0.573713927133,-0.0119866599355,0.0,-0.00630136317081,0.0118962298714,-0.999909382163,0.0,0.262853175767,-0.262723688385,0.304972676857,1.0,-0.0123125,-0.0161821428571,3.025
-0.657203496963,-0.517574533528,-0.125259756971,-2.6390928854,-0.0672414085227,2.11109587486,-0.90512232057,-0.0548810666357,0.0134122944084,0.00160894386189,0.00742108423676,0.00376871410516,0.0036936290517,-0.0562058783113,0.573766775422,0.818984117446,0.00611961556026,0.0,0.81898277044,-0.573676346738,-0.0119757178331,0.0,-0.00629736524603,0.0118833575015,-0.999909560413,0.0,0.262662000072,-0.262982778192,0.304975022811,1.0,-0.0119925,-0.0157615714286,3.041
-0.658101560638,-0.517400944988,-0.125228890657,-2.63896162875,-0.067226571806,2.11113246698,-0.906063166624,-0.0549141603112,0.0117371179908,0.00221342673724,0.011051432364,0.000280924862242,0.00613388211559,-0.0582658774315,0.573723034382,0.819014820055,0.00611156701785,0.0,0.81901336549,-0.573632643081,-0.0119768461164,0.0,-0.00630354148771,0.0118770762384,-0.999909596126,0.0,0.262465629822,-0.263246498237,0.304974527232,1.0,-0.0116525,-0.0153147142857,3.058
-0.658978324754,-0.51724033397,-0.125193467792,-2.6388425786,-0.0672141120668,2.11117297607,-0.906917514032,-0.0492681931402,0.0133028603467,0.00153047551104,0.00469626938128,0.00357010564964,0.000266896321396,-0.0512635135372,0.573727806393,0.819011570568,0.00609904490521,0.0,0.819009985453,-0.573637527152,-0.0119740583079,0.0,-0.0063083727191,0.0118652573287,-0.999909705975,0.0,0.262273531975,-0.263501359351,0.30497370171,1.0,-0.0113125,-0.0148678571429,3.075
-0.6598038122,-0.517090089673,-0.125148993169,-2.63874194335,-0.0672037922345,2.11119933195,-0.907733746073,-0.0475677793639,0.0107729701862,0.00532051419008,0.00161150975679,-0.000323379891472,9.66733887505e-05,-0.0457665307915,0.573713562844,0.819021660772,0.00608390468737,0.0,0.819019769586,-0.57362314497,-0.011993810227,0.0,-0.00633344376904,0.0118640782329,-0.999909561479,0.0,0.262090347977,-0.263734299393,0.30496732899,1.0,-0.0109925,-0.0144472857143,3.091
-0.6606469764,-0.516928100599,-0.125147502102,-2.63863689555,-0.0671890611797,2.1112241527,-0.908571857903,-0.0515431915928,0.00992141933533,-0.000819829529116,0.00530586915453,-3.23938536684e-05,0.00172430516424,-0.050085762239,0.573728539672,0.819011093766,0.0060940918729,0.0,0.81900915367,-0.573637735877,-0.012020860391,0.0,-0.00634953920098,0.0118880565869,-0.999909174607,0.0,0.261893698227,-0.263981339099,0.304957480394,1.0,-0.0106525,-0.0140004285714,3.108
-0.66151332145,-0.516759531605,-0.125143601936,-2.63851674046,-0.0671714560919,2.11125656103,-0.909436701878,-0.0487172972879,0.00973400107245,0.000535979961902,0.00694258061008,0.00251761279397,0.000198094256989,-0.0477328749725,0.573740845301,0.819002407869,0.0061028877095,0.0,0.819000505174,-0.573649857144,-0.0120316592498,0.0,-0.00635315955153,0.0119015516072,-0.999908991075,0.0,0.261695956844,-0.264238373164,0.304952766556,1.0,-0.0102925,-0.0135272857143,3.126
-0.662249934106,-0.516614503311,-0.12514320605,-2.63840455237,-0.0671513379677,2.11129955555,-0.910145137378,-0.0462474853714,0.00812689270049,-0.000751014017679,0.007534582627,0.000419188646767,0.00127472903196,-0.0423322510303,0.573778068428,0.818976259371,0.00611242010961,0.0,0.81897456792,-0.573687195412,-0.0120168973691,0.0,-0.00633505847621,0.0119011779137,-0.999909110369,0.0,0.261532103705,-0.264461688167,0.304953930359,1.0,-0.0099725,-0.0131067142857,3.142
-0.663009291696,-0.516452708706,-0.125131925158,-2.63828581736,-0.0671345887794,2.1113208115,-0.910866452594,-0.0425937204983,0.00899710566255,0.00460848835854,0.00807448000249,0.00426400292298,0.000667626538675,-0.0376957497654,0.573814598964,0.81895063487,0.0061164174238,0.0,0.818948883219,-0.57372349045,-0.0120345370527,0.0,-0.00634668159954,0.011914855669,-0.999908873772,0.0,0.261361863173,-0.264687147944,0.304950276602,1.0,-0.0096325,-0.0126598571429,3.159
-0.663726681754,-0.516297610825,-0.125109581302,-2.63818470245,-0.0671168001203,2.11134357393,-0.911623716527,-0.0362876485883,0.0113560337752,0.00147803045234,0.00351567578987,0.00153319281022,-8.63121292813e-06,-0.0380518377444,0.573779056199,0.818975521274,0.0061185882878,0.0,0.818973621326,-0.573687614709,-0.0120613101678,0.0,-0.00636788206314,0.0119317192946,-0.999908537894,0.0,0.261201495637,-0.264894796546,0.304941471305,1.0,-0.0092925,-0.012213,3.176
-0.664393474025,-0.516167403488,-0.125083699557,-2.63810173572,-0.0670970371836,2.11136774083,-0.912312437249,-0.0449843207951,0.0107787360662,0.000664052293129,0.00673224481138,0.00172908303424,0.00256457847602,-0.0490294338787,0.573755578758,0.818991948767,0.00612132339364,0.0,0.818989959567,-0.573663896516,-0.0120800191701,0.0,-0.00638197908429,0.0119445107578,-0.999908295298,0.0,0.261052010527,-0.265084093338,0.304933803229,1.0,-0.0089725,-0.0117924285714,3.192
-0.665073981446,-0.51604052161,-0.125036854363,-2.63802715417,-0.0670742642772,2.11139591831,-0.912964402279,-0.0343194426192,0.00764447855187,0.00454270953198,0.0040681009812,-4.59563589484e-05,-0.000128615210924,-0.0313419765477,0.573759419233,0.818989294103,0.00611652580594,0.0,0.818987119301,-0.573667527043,-0.0121001544352,0.0,-0.00640116794853,0.0119521635475,-0.999908081193,0.0,0.260902488934,-0.265270505153,0.304924385813,1.0,-0.0086325,-0.0113455714286,3.209
-0.665732042545,-0.515923810066,-0.125011156163,-2.63795476456,-0.0670562546776,2.11141965865,-0.913616694894,-0.0373138618352,0.00531635655488,0.00361396120403,0.00484555124388,0.000744584490948,3.47403933121e-05,-0.0387487861269,0.573757449457,0.818990659067,0.00611853368479,0.0,0.818988402416,-0.573665347258,-0.012116639944,0.0,-0.00641354766309,0.0119632508875,-0.999907869273,0.0,0.260752697473,-0.265454994036,0.304916841435,1.0,-0.0082925,-0.0108987142857,3.226
-0.66632607912,-0.515809036887,-0.125009109945,-2.63787591787,-0.0670391494272,2.11143338216,-0.914196603372,-0.0351740224305,0.00988567652414,0.000445948883328,0.00494446822835,0.0016055276025,0.000477087492324,-0.0357494412188,0.573779039602,0.818975442306,0.00613070261271,0.0,0.818973218128,-0.57368664343,-0.0121346627944,0.0,-0.00642101224988,0.011983727136,-0.999907576172,0.0,0.260614378127,-0.265628191915,0.304911529633,1.0,-0.0079725,-0.0104781428571,3.242
-0.66693523136,-0.515701540763,-0.125002694213,-2.63779290922,-0.0670132709411,2.11145590039,-0.914828933312,-0.0368127624257,-0.000577630226345,-0.00138929329359,0.00307158237674,0.000285450060268,0.000318179680696,-0.0327379301469,0.573770866687,0.818981049375,0.00614656059935,0.0,0.818979035031,-0.573678407341,-0.0121314480392,0.0,-0.00640940035116,0.0119948066612,-0.999907517824,0.0,0.260476170702,-0.265805907362,0.304911648621,1.0,-0.0076325,-0.0100312857143,3.259
-0.667522572188,-0.51561152738,-0.124990885529,-2.63771176596,-0.0669895352577,2.11146891661,-0.915416617769,-0.0310453364576,0.00338393639997,0.00064406279738,0.00520603208264,0.00212883556192,0.00457779468392,-0.0372567513867,0.573769706814,0.818981740337,0.0061627460736,0.0,0.818979894234,-0.573677095244,-0.012135490646,0.0,-0.00640344226902,0.0120103732745,-0.99990736914,0.0,0.260334021108,-0.265981815098,0.304910026726,1.0,-0.00727250000001,-0.00955814285715,3.277
-0.668057106395,-0.51553884264,-0.124979649257,-2.63765780819,-0.0669634071779,2.1114842246,-0.915923818978,-0.037478195371,0.00681545987802,-0.00017555589715,0.000117063412964,0.000372420360275,0.003561564091,-0.0259225958427,0.573804858762,0.818957028264,0.00617388199017,0.0,0.818955410584,-0.573712346262,-0.0121213086131,0.0,-0.00638492148782,0.012011631098,-0.999907472467,0.0,0.260218754074,-0.266124479917,0.304915950577,1.0,-0.00697250000001,-0.00916385714286,3.292
-0.668609434727,-0.515451831329,-0.124937300676,-2.63757058939,-0.066939794991,2.11151094997,-0.916449117452,-0.0285278862935,0.00122504177184,0.0020511712754,0.00272886366433,6.95874833429e-05,0.000475340600478,-0.0266703307522,0.573811387335,0.81895251017,0.00616642136088,0.0,0.81895099555,-0.57371928354,-0.0120912151508,0.0,-0.00636445868917,0.0119883046648,-0.999907882866,0.0,0.26010521054,-0.266281757242,0.304926737858,1.0,-0.00661250000001,-0.00869071428572,3.31
-0.669109388623,-0.515357425101,-0.124874368804,-2.63747216826,-0.0669158200191,2.11152985016,-0.916943556087,-0.0307086090125,0.00446910193631,0.00680045282284,0.00862871335725,0.00319986925771,-0.00028332080376,-0.0277262975171,0.573786375079,0.818970170741,0.00614834222433,0.0,0.818968597302,-0.57369468844,-0.0120659848734,0.0,-0.00635453275959,0.011958827174,-0.999908298978,0.0,0.260011299502,-0.26642257328,0.304939697382,1.0,-0.00627250000001,-0.00824385714286,3.327
-0.669555190526,-0.515284195905,-0.124836233766,-2.63739506323,-0.0668949672739,2.11155283642,-0.917397956652,-0.0299813353723,0.00409649558599,0.000335366089588,0.00348159347015,8.61919055921e-05,0.000475407109979,-0.0217355674843,0.573765005505,0.818985196618,0.00614109755835,0.0,0.818983721726,-0.573673717929,-0.0120364366065,0.0,-0.0063347990968,0.0119357748503,-0.999908699632,0.0,0.259922233632,-0.266550322193,0.304950554073,1.0,-0.00595250000001,-0.00782328571429,3.343
-0.670006875944,-0.51519045365,-0.124796012146,-2.63730985408,-0.0668729230534,2.11158674306,-0.917856986082,-0.0256690394251,0.00528616525,0.00355580706391,0.00706396321216,0.000395426332552,0.00406306446285,-0.0240053104232,0.573744146999,0.818999875336,0.00613228224164,0.0,0.818998469904,-0.57365324867,-0.0120084755812,0.0,-0.00631725800109,0.0119123517017,-0.999909089932,0.0,0.259835182941,-0.266682328473,0.304958496874,1.0,-0.00561250000001,-0.00737642857144,3.36
-0.670431433708,-0.515113121956,-0.124778249475,-2.63725906453,-0.0668526278379,2.11161063363,-0.918310895766,-0.0258407180609,0.00174313515587,0.00178700158992,0.00351053911297,0.00451053970481,0.000215253553536,-0.0240362017273,0.573718829255,0.819017560155,0.00613905674825,0.0,0.819016238756,-0.573627899737,-0.0120075059448,0.0,-0.00631294553738,0.0119171488625,-0.999909060006,0.0,0.259741193253,-0.266802127165,0.304955478777,1.0,-0.00527250000001,-0.00692957142858,3.377
-0.670809653392,-0.515041372045,-0.124768647411,-2.63722697066,-0.0668326302636,2.1116200756,-0.91868094255,-0.0250853948952,0.00410921497272,0.000865125291404,0.00154869357105,0.00193509242673,-0.000213355924212,-0.017538308232,0.573729046105,0.819010296286,0.00615330271205,0.0,0.819008978653,-0.573637710619,-0.0120339828368,0.0,-0.00632631116929,0.011944085624,-0.999908654131,0.0,0.259651343249,-0.266904785021,0.304944603355,1.0,-0.00495250000001,-0.00650900000001,3.393
-0.671207386697,-0.514997904797,-0.124764363262,-2.63721025615,-0.0668171947951,2.11162454249,-0.919066076531,-0.0212602075229,0.00582720193622,-0.00116244390448,0.00223358437583,-3.6573332787e-05,0.00309297558638,-0.0188255308129,0.573752329063,0.818993852184,0.00617105191933,0.0,0.818992669988,-0.57366073127,-0.0120465267244,0.0,-0.006326062967,0.0119659994359,-0.999908393697,0.0,0.259545064729,-0.267018615117,0.304937473577,1.0,-0.00459250000001,-0.00603585714286,3.411
-0.671602619985,-0.514956402271,-0.124749861271,-2.63718272915,-0.066796706368,2.11163087909,-0.919437124929,-0.0242509643593,0.00248058777466,0.00206335757139,0.00253098230164,0.00014623871377,-0.000402101257517,-0.0156865828447,0.573763587603,0.818985899474,0.00617971711654,0.0,0.818984759407,-0.573671815985,-0.0120564632462,0.0,-0.00632906570974,0.0119788843725,-0.999908220416,0.0,0.259456852594,-0.267114627606,0.304934703573,1.0,-0.00425250000001,-0.00558900000001,3.428
-0.671907144109,-0.514911991164,-0.124732467512,-2.63714757028,-0.0667836468693,2.11163658887,-0.919717117954,-0.0147782142858,0.00306155701101,-0.000380041335917,0.00525767645227,-9.30059612062e-05,-0.000455376925316,-0.0201677458427,0.573778752276,0.818975282288,0.0061787813528,0.0,0.818974100732,-0.573686926055,-0.012061513378,0.0,-0.00633351718231,0.0119811326725,-0.999908165293,0.0,0.25938482408,-0.267204772484,0.304934144663,1.0,-0.00393250000001,-0.00516842857144,3.444
-0.672243626857,-0.514846030315,-0.124697928494,-2.63708594384,-0.066768121692,2.11163937643,-0.920035832128,-0.0130532702146,0.0026199291016,0.00372955907187,0.00504680184302,0.000246924078997,-0.000206658800945,-0.0109751564381,0.573778476872,0.818975505358,0.00617478766588,0.0,0.81897430035,-0.573686722131,-0.0120576580546,0.0,-0.00633265482604,0.01197564765,-0.999908236463,0.0,0.259320438665,-0.267291503901,0.304939862799,1.0,-0.00359250000001,-0.00472157142858,3.461
-0.6725234393,-0.51478339404,-0.124686724922,-2.63702497917,-0.0667547021627,2.11164548339,-0.92031646815,-0.00971277762345,0.000711653599545,0.000352953012965,0.00091978773101,-0.000127615089278,0.00032457454966,-0.0133091623886,0.573778656367,0.818975365152,0.00617670414656,0.0,0.818974223651,-0.573686966184,-0.012051254166,0.0,-0.00632630741927,0.0119735444339,-0.99990830183,0.0,0.259262623842,-0.267376051671,0.30494521108,1.0,-0.00325250000001,-0.00427471428572,3.478
-0.67276561333,-0.514738719518,-0.124665771212,-2.63699324349,-0.0667406955245,2.11166852843,-0.920557852946,-0.0166988427881,0.00414126389431,0.000700624691364,0.000610248775554,0.00123778821056,-0.000371664072075,-0.0191603834505,0.573772035832,0.818980013289,0.00617540538473,0.0,0.818978930676,-0.573680496203,-0.0120393640072,0.0,-0.00631741049896,0.01196560767,-0.999908453088,0.0,0.259213554982,-0.267443780341,0.304945590295,1.0,-0.00293250000001,-0.00385414285715,3.494
-0.673005016689,-0.514700272859,-0.124634175464,-2.63697892341,-0.0667286096966,2.11168357109,-0.92077221094,-0.0163865360653,0.00363757533045,0.00317359700529,-0.000849010237162,0.000120480913317,0.000384887897017,-0.0118389578128,0.573776073299,0.81897722107,0.00617057360142,0.0,0.818976032656,-0.57368447254,-0.0120470246331,0.0,-0.00632639829715,0.0119660767603,-0.99990839065,0.0,0.259162412338,-0.267503085722,0.30493992441,1.0,-0.00259250000001,-0.00340728571429,3.511
-0.673230505289,-0.514679976536,-0.124602130829,-2.63696353428,-0.0667161643064,2.11169789433,-0.920997991576,-0.0144229311396,0.0014642134918,0.00517132713129,-0.000367998301125,-0.000406501343165,0.00045362050091,-0.00554243987633,0.573759155659,0.818989117128,0.00616475664657,0.0,0.818987926096,-0.573667721929,-0.0120361383332,0.0,-0.00632106610556,0.0119549359979,-0.999908557633,0.0,0.259115639373,-0.267559137576,0.304941397712,1.0,-0.00223250000001,-0.00293414285715,3.529
-0.673422304207,-0.514650225996,-0.12458193721,-2.63694756329,-0.0667064723114,2.111707591,-0.921182563198,-0.0102315689567,0.00407244248221,-3.45945899306e-05,0.00541231164028,-0.000296359797415,0.000511429612015,-0.0148277630056,0.573755721926,0.818991535475,0.00616305755923,0.0,0.818990306268,-0.573664265896,-0.0120389025811,0.0,-0.00632435518341,0.0119551038124,-0.999908534829,0.0,0.25907416532,-0.267608591468,0.304938968383,1.0,-0.00191250000001,-0.00251357142858,3.545
-0.673609032267,-0.514641682889,-0.124548928855,-2.63692264764,-0.0666966275952,2.11171784033,-0.921340481201,-0.00764047207655,-0.000185171511933,0.00633702552511,-4.2176564548e-05,0.000775975331041,0.000307395546663,-0.00784493140157,0.573761224002,0.818987764372,0.0061519543149,0.0,0.818986575002,-0.573670162997,-0.0120117006982,0.0,-0.00630836472213,0.0119304457869,-0.999908930352,0.0,0.259039483489,-0.267656752021,0.304948783673,1.0,-0.00157250000001,-0.00206671428572,3.562
