nelsonifechukwu/NELSON_IML_WORK/CNN-GradCAM/train2dof/data_sample_2022-02-21-07-59-53/robot_state.csv
position_joint1,position_joint2,position_joint3,position_joint4,position_joint5,position_joint6,position_joint7,velocity_joint1,velocity_joint2,velocity_joint3,velocity_joint4,velocity_joint5,velocity_joint6,velocity_joint7,ee_T_00,ee_T_10,ee_T_20,ee_T_30,ee_T_01,ee_T_11,ee_T_21,ee_T_31,ee_T_02,ee_T_12,ee_T_22,ee_T_32,ee_T_03,ee_T_13,ee_T_23,ee_T_33,v_x,v_y,time
0.465088216673,0.547530836873,-0.12399730495,-1.35574303979,0.0794360619421,1.89410931714,0.159161967246,0.000260229510926,-0.000594433556054,-0.000416531027076,-0.00110424538533,0.0013385503144,-0.000352325353931,0.00180541660315,0.573780002213,0.818994737282,0.00220822697142,0.0,0.818955675349,-0.573721146618,-0.0116788114633,0.0,-0.00829813838103,0.00850967231555,-0.999929360693,0.0,0.66170791516,0.260899268106,0.303435487084,1.0,0.0,0.0,0.0
0.465082926959,0.547533540585,-0.123999553588,-1.35574531093,0.0794373799954,1.89411013095,0.15915175379,-0.000656174398374,0.000330769540765,-0.00102301868508,-0.00123118992183,0.000324952347685,7.95850635726e-05,-0.000776830637876,0.573778025605,0.818996130959,0.00220492803577,0.0,0.818957023816,-0.57371918006,-0.0116808593546,0.0,-0.00830172894692,0.00850812552753,-0.999929344052,0.0,0.661709307908,0.260894429778,0.303432638156,1.0,-0.0001,-0.000131428571429,0.006
0.465083227977,0.547530394429,-0.124000226185,-1.35574515001,0.0794366679125,1.89410919352,0.159156681223,-0.00013951870138,-0.00111590565341,-0.000232070277902,0.000420266813425,-0.000184126344206,-0.000144582944122,0.000233077916084,0.573782074514,0.818993290223,0.00220645333134,0.0,0.81895421195,-0.573723232107,-0.0116789798415,0.0,-0.00829927237677,0.00850833734268,-0.999929362642,0.0,0.661709356798,0.260894121283,0.303434883072,1.0,-0.00042,-0.000552,0.022
0.465082243877,0.547526175841,-0.1240002351,-1.35575744227,0.0794373799894,1.89411037678,0.159153275336,-0.00122883238816,-0.00170491043055,-0.0051828021472,-0.0014843996426,3.76396981558e-06,7.6962515761e-05,0.000260910648718,0.573780959168,0.81899408513,0.00220143577155,0.0,0.818954924464,-0.573722117871,-0.0116837521447,0.0,-0.00830607142308,0.00850695496354,-0.999929317949,0.0,0.661707105023,0.260892255883,0.303432124638,1.0,-0.00068,-0.000893714285714,0.035
0.465084985876,0.547447193372,-0.123994608601,-1.35582303428,0.0794359603288,1.89412039141,0.159153665496,0.000406582565785,-0.00689447321512,0.00170605919545,-0.00593267770834,-6.85410039687e-05,0.000127792767177,-0.00107420681702,0.573778230658,0.818995931202,0.00222566808688,0.0,0.818957017191,-0.573719229995,-0.0116788710082,0.0,-0.0082881988292,0.00852397255372,-0.999929321328,0.0,0.661694223987,0.260891029698,0.303457535694,1.0,-0.0011,-0.00144571428571,0.056
0.465086304525,0.547340450755,-0.123992686348,-1.35595279079,0.0794348982497,1.89414380796,0.15915716908,-0.000813659709227,-0.00405941338319,0.000841192769175,-0.00872928309983,-4.42501475362e-05,7.27061975471e-05,0.000791440300799,0.573785450745,0.818990856677,0.00223161246904,0.0,0.818951920441,-0.573726324897,-0.011687729759,0.0,-0.00829196863358,0.00853399691105,-0.99992920457,0.0,0.661671239444,0.260880430197,0.303473354419,1.0,-0.00136,-0.00178742857143,0.069
0.465068738081,0.547166870382,-0.12399519103,-1.35620035745,0.079425915397,1.89421177092,0.159142716449,-0.000439652191712,-0.0103711661724,0.000632873266729,-0.0148746874011,-0.00445663348669,0.00927446236832,-0.00101579117403,0.573801047558,0.818979933086,0.00223022990366,0.0,0.818940908932,-0.57374185296,-0.0116970398328,0.0,-0.0083002244672,0.00853836460382,-0.999929098788,0.0,0.661638278024,0.260843407137,0.303484438616,1.0,-0.00178,-0.00233942857143,0.09
0.465053079716,0.547020181918,-0.123998768101,-1.35636930138,0.0794217367516,1.89431913575,0.159141892193,-0.00221402806394,-0.0111769764149,-0.000659222242436,-0.0098744200088,-6.42612457752e-05,0.00993802645106,0.00162782543534,0.573824270682,0.818963457428,0.00230405625333,0.0,0.818925414688,-0.573764825499,-0.0116549173531,0.0,-0.00822312329804,0.00857488976595,-0.999929423264,0.0,0.661629968509,0.260819475405,0.303517365181,1.0,-0.00206,-0.00270742857143,0.104
0.465029062144,0.546783859773,-0.123993496054,-1.35664291126,0.0794201255822,1.8944574268,0.159122736993,-0.00152094428716,-0.00898253519527,0.000774897976791,-0.0171847703172,-3.78791041049e-05,0.0107648619397,4.7006781412e-05,0.573839574804,0.818952460035,0.00239947742752,0.0,0.818915548415,-0.573779673396,-0.0116171365843,0.0,-0.00813726787719,0.0086315082747,-0.999929638493,0.0,0.661606183591,0.260786402997,0.303566350139,1.0,-0.00246,-0.00323314285714,0.124
0.465003440546,0.546616795409,-0.123995527554,-1.35687319801,0.079411166517,1.89456312535,0.159107815732,-0.00278933943057,-0.0127086289672,0.000958270983651,-0.0147389395559,0.000256836772997,0.00260856465827,-0.00167247580858,0.573860364476,0.818937780654,0.0024372941373,0.0,0.818901353409,-0.573800321229,-0.0115979154625,0.0,-0.00809960693268,0.00865165403331,-0.999929770159,0.0,0.661586503468,0.260748864489,0.303584289611,1.0,-0.00272,-0.00357485714286,0.137
0.464960073776,0.546317931771,-0.123998141685,-1.35732278047,0.0793887949615,1.89472612864,0.159045146535,-0.00103503813686,-0.0119480134454,-0.000291106157446,-0.0193751470676,0.000197728777343,0.0133094356559,-0.00433073081098,0.573865563093,0.818934099811,0.00245001290105,0.0,0.818897802283,-0.573805437228,-0.0115955390276,0.0,-0.00809030735495,0.00866075746008,-0.999929766637,0.0,0.661536915969,0.260676662457,0.303596142535,1.0,-0.00312,-0.00410057142857,0.157
0.464933497959,0.546090317653,-0.123998141685,-1.35765814504,0.0793694297863,1.89484447699,0.158946309225,-0.00127542733767,-0.0133618966343,-0.00163163581465,-0.0308011094832,-0.00352134530739,0.0161075202895,-0.00178345708498,0.573819942538,0.818966034645,0.00246059854032,0.0,0.818929852838,-0.573759762406,-0.0115921558106,0.0,-0.00808194504581,0.00866703464891,-0.999929779872,0.0,0.661497576061,0.260627160066,0.303607932056,1.0,-0.00338,-0.00444228571429,0.17
0.464879114679,0.545719742391,-0.123993130378,-1.35827045824,0.0793136609167,1.89505704656,0.158913251552,-0.00307948554841,-0.018581559424,0.00137045513155,-0.0326243483083,-0.00260684624614,0.0067395031034,-0.00149511504761,0.573853288759,0.818942773154,0.0024257328196,0.0,0.818906257911,-0.573793352826,-0.0115963747738,0.0,-0.00810505399554,0.00864123195809,-0.999929816142,0.0,0.661425335132,0.260531667071,0.303597052902,1.0,-0.0038,-0.00499428571429,0.191
0.464843818673,0.545476338324,-0.124001094972,-1.35867647495,0.079273084478,1.89519514521,0.158848396626,-0.00281072144861,-0.0190990004464,0.000219848905617,-0.0337993836586,-0.00118289828017,0.0164311778746,-0.00575739650253,0.573852207325,0.818943654194,0.00238375865033,0.0,0.818906757087,-0.573792591198,-0.0115988096085,0.0,-0.00813114502208,0.0086082442976,-0.999929888848,0.0,0.661375492758,0.260451330687,0.303583470333,1.0,-0.00406,-0.005336,0.204
0.46476627617,0.545010977478,-0.124001345326,-1.35947359508,0.0792481465197,1.89544591842,0.158771760328,-0.00598778328189,-0.024505899758,-0.000269427283889,-0.0344973999822,-0.000208330136056,0.0169578799992,-0.00583430533338,0.573885126414,0.818920719075,0.00233761656799,0.0,0.818882958224,-0.573825391459,-0.0116562321942,0.0,-0.00820430426629,0.00860373830531,-0.999929330042,0.0,0.661280168322,0.26033455442,0.303560045521,1.0,-0.00446,-0.00586171428571,0.224
0.4647155426,0.544690890924,-0.124005074338,-1.35999429105,0.0792302523831,1.8956240814,0.158675183084,-0.00696969930174,-0.0279242819146,-0.000243994849805,-0.0346579954634,-0.000285213555625,0.0135569507604,-0.00642561953221,0.573874428323,0.818928250866,0.00232537140512,0.0,0.818890205733,-0.573814607934,-0.0116779098004,0.0,-0.00822919660304,0.00860604337207,-0.999929105657,0.0,0.66121953052,0.260250436679,0.303554324733,1.0,-0.00472,-0.00620342857143,0.237
0.464627190983,0.544159502179,-0.124002738594,-1.36090365697,0.0791809212101,1.89592838519,0.158588059827,-0.0041517262468,-0.0320124902999,0.00117362900256,-0.0477887915112,-0.00318403115802,0.0157550168405,-0.00334065544477,0.573911280519,0.81890259312,0.00226538627284,0.0,0.818863660298,-0.573851564387,-0.011723258747,0.0,-0.00830037133903,0.00858331819021,-0.999928712701,0.0,0.661110335384,0.260105071327,0.303523813012,1.0,-0.00514,-0.00675542857143,0.258
0.464574008508,0.543794109832,-0.124005569354,-1.36150195914,0.079143117222,1.89615045702,0.158494967271,-0.000770284409075,-0.0251999267389,5.6633072025e-05,-0.0466524850778,-0.00828761564964,0.0247365774272,-0.00415046347197,0.57390389971,0.818907797442,0.00225390504676,0.0,0.818868737657,-0.573844250441,-0.0117266203478,0.0,-0.00830979037754,0.00857577063862,-0.999928699229,0.0,0.661043204024,0.260011005002,0.303516899986,1.0,-0.0054,-0.00709714285714,0.271
0.464491454007,0.543184284749,-0.124016212222,-1.36247063567,0.0790870995001,1.89648487427,0.158386664529,-0.00414410786216,-0.033668836415,-0.00116763497909,-0.0480950495875,-0.0011645450621,0.0204665878772,-0.00535053364896,0.573929145473,0.818890164461,0.00223191111354,0.0,0.818850810901,-0.573869567695,-0.011739491576,0.0,-0.0083326887516,0.00856540350426,-0.999928597531,0.0,0.660930023091,0.259856923521,0.303516571642,1.0,-0.0058,-0.00762285714286,0.291
0.464422256985,0.542740676776,-0.124016933529,-1.36320096654,0.0790472435903,1.89674087036,0.158267933124,-0.00570677572392,-0.0292189124514,-0.00295797613164,-0.0555015054975,-0.00237048122869,0.0163549106836,-0.0118309230027,0.573919049671,0.818897305539,0.00220778312311,0.0,0.818857575974,-0.573859500787,-0.0117596993237,0.0,-0.00836318978655,0.00855714014818,-0.999928413642,0.0,0.660844925243,0.259740828395,0.303504935401,1.0,-0.00608,-0.00799085714286,0.305
0.464347153824,0.542047301376,-0.124025113433,-1.36426561629,0.0789870754307,1.89713607348,0.158143032162,-0.00247616146091,-0.036268352844,-0.00160451906779,-0.0564450507591,-0.00195607282595,0.016546103861,-0.00561620653151,0.573927118903,0.818891595211,0.00222808926679,0.0,0.818852126462,-0.573867488529,-0.0117493616288,0.0,-0.00834298612348,0.00856791786157,-0.999928490126,0.0,0.660721389037,0.259586272507,0.303523057916,1.0,-0.00648,-0.00851657142857,0.325
0.464283838186,0.541576770075,-0.124023283297,-1.3649877534,0.0789334375408,1.89739541515,0.158043691157,-0.0047290009861,-0.041791976411,-0.000446477384831,-0.0569979392699,-0.0111440418264,0.0229515170646,-0.000149609822188,0.573922046969,0.818895144947,0.00222990724885,0.0,0.818855762373,-0.573862474584,-0.0117408514645,0.0,-0.00833502664497,0.00856447079853,-0.999928586035,0.0,0.660637985915,0.259474881436,0.303534422967,1.0,-0.00674,-0.00885828571429,0.338
0.464174392658,0.540727305893,-0.124020488359,-1.36630374703,0.0788538159408,1.8978860005,0.157876792355,-0.00743301663798,-0.0372048261586,0.000944679759663,-0.0639279870346,-0.00300976867369,0.0191358826248,-0.0070955944033,0.573924776455,0.818893175812,0.00225044016348,0.0,0.818854040332,-0.573865105989,-0.0117323340537,0.0,-0.00831623932333,0.00857642434218,-0.999928640008,0.0,0.660486708323,0.259279554911,0.303550957536,1.0,-0.00718,-0.00943657142857,0.36
0.464120867359,0.540246242807,-0.124023704626,-1.36705760198,0.0788250010365,1.89816557846,0.157772064453,-0.00388794414393,-0.0367375139516,0.000343836376849,-0.0647245879081,-0.000538425564544,0.0217504555437,-0.0106468440935,0.573919186658,0.81889705504,0.00226436187679,0.0,0.818857961239,-0.573859320754,-0.0117416438603,0.0,-0.00831593251744,0.00859311088827,-0.9999284993,0.0,0.66039727025,0.259173475817,0.303556502323,1.0,-0.00742,-0.009752,0.372
0.463993424894,0.53938990871,-0.124026577574,-1.36838097096,0.0787457765155,1.89865684695,0.157607287543,-0.00389001998713,-0.0449737220294,-0.00122885727696,-0.066747194207,-0.00239378064495,0.0232587831468,-0.0136908310014,0.57394267504,0.818880537575,0.00228426144513,0.0,0.818841701352,-0.573882730467,-0.0117314406631,0.0,-0.00829590996345,0.00860378861388,-0.999928573799,0.0,0.660250067031,0.258962326876,0.303574373527,1.0,-0.00782,-0.0102777142857,0.392
0.463918870246,0.538817288239,-0.124029691084,-1.36926715449,0.078684289412,1.89899739888,0.157507706852,-0.00727211918394,-0.0427749183141,-0.000349304796433,-0.0668444337121,-0.00729030475362,0.0283690725516,-0.00168571424747,0.573956962691,0.81887047601,0.00230117318541,0.0,0.818831953658,-0.573897051175,-0.0117112434554,0.0,-0.00826951421142,0.00860618955393,-0.999928771781,0.0,0.660151557894,0.258826785586,0.303586702065,1.0,-0.00808,-0.0106194285714,0.405
0.463774024895,0.537871400234,-0.12403610359,-1.37075361767,0.0786146936631,1.89956152406,0.15732065814,-0.0065498262549,-0.0440767216326,0.000388380265427,-0.0762227853439,8.36065684293e-05,0.0231307070887,-0.00685357549444,0.573990450959,0.818846922755,0.00232942146603,0.0,0.818808626256,-0.573930283544,-0.0117136715195,0.0,-0.0082549372885,0.00863105216292,-0.999928677931,0.0,0.65998773405,0.258590437133,0.30359638445,1.0,-0.0085,-0.0111714285714,0.426
0.463697558886,0.537262171376,-0.124039260867,-1.3717244533,0.0785519071467,1.89992969845,0.157204152628,-0.00575985239427,-0.0447239426461,-0.000347760836207,-0.0783297739421,-0.0113190495064,0.0270127072307,-0.0152531632583,0.573996657222,0.818842568472,0.00233076347377,0.0,0.818804341506,-0.573936538572,-0.0117067042542,0.0,-0.00824839626669,0.00862821448022,-0.999928756399,0.0,0.65987628644,0.258445723398,0.30359647864,1.0,-0.00876,-0.0115131428571,0.439
0.463559515702,0.536237114053,-0.124045548095,-1.37334327451,0.0784416864555,1.90054007208,0.157005931879,-0.00456364793791,-0.0478793449777,1.9283460139e-05,-0.080022432095,-0.00996686716916,0.0304086586074,-0.00723313498703,0.574012893439,0.818831182003,0.00233247649228,0.0,0.818793147454,-0.573952944595,-0.0116852887526,0.0,-0.00822970549774,0.00861748808939,-0.999929002903,0.0,0.659684596178,0.258179996236,0.303602033149,1.0,-0.0092,-0.0120914285714,0.461
0.463472887682,0.535571074385,-0.12404899867,-1.37438859945,0.0783907941542,1.90091160966,0.156873423973,-0.00779569386785,-0.0493476942244,-0.00253563174523,-0.0831045304479,-0.00848957886586,0.0277465879289,-0.014669425552,0.574020007687,0.818826188995,0.00233450038816,0.0,0.818788023719,-0.573959886152,-0.0117033415481,0.0,-0.00824325168944,0.00862957931071,-0.999928787046,0.0,0.659567897031,0.258038368458,0.303607485571,1.0,-0.00944,-0.0124068571429,0.473
0.463317378238,0.534478126311,-0.124055249645,-1.37615658112,0.0782972137335,1.90155675465,0.156655859988,-0.00811986344126,-0.0488560417904,0.000351282683929,-0.0824293197743,-0.00446583237965,0.0354856840535,-0.0149679070909,0.574045523428,0.818808360967,0.00231342698186,0.0,0.818769801349,-0.57398535081,-0.0117292947294,0.0,-0.00827633073994,0.00862747938848,-0.999928531921,0.0,0.659361361114,0.257765297974,0.303593235538,1.0,-0.00986,-0.0129588571429,0.494
0.463219452861,0.533777014448,-0.12405817599,-1.37727750307,0.0782165257999,1.90196208276,0.156520159891,-0.00858046007174,-0.0529906894565,0.00078618910161,-0.0868416424832,-0.00255779863912,0.0287166683473,-0.0106278973294,0.574056321623,0.818800848799,0.00229270837659,0.0,0.818762120376,-0.573996329421,-0.0117282117182,0.0,-0.00828722307188,0.0086100026192,-0.999928592345,0.0,0.659230376846,0.257589644043,0.303589427184,1.0,-0.01012,-0.0133005714286,0.507
0.463062401205,0.532618800242,-0.124058837244,-1.37913354701,0.0781320585779,1.90266368621,0.156290540208,-0.0080850237677,-0.0593003118758,0.000431751539815,-0.0954570479037,-0.00168364817901,0.0339304888926,-0.0141064744712,0.574076377622,0.818786741788,0.00230890211266,0.0,0.81874797927,-0.574016067991,-0.0117493417285,0.0,-0.00829501802478,0.00863559473999,-0.99992830702,0.0,0.65901403546,0.257314547847,0.303583580231,1.0,-0.01054,-0.0138525714286,0.528
0.462966987901,0.531945988822,-0.124061727728,-1.38022936447,0.0780581983945,1.90307591368,0.156148297672,-0.0121429427021,-0.0576845933903,0.000185444759465,-0.0914743650076,-0.00561137660982,0.0342967573699,-0.0166663110414,0.574080108176,0.818784169718,0.0022934072282,0.0,0.818745278335,-0.574019931716,-0.0117487913669,0.0,-0.0083034227906,0.00862262977056,-0.999928349146,0.0,0.658887921687,0.25714477691,0.303572100396,1.0,-0.01078,-0.014168,0.54
0.462817718221,0.530773338902,-0.124064844143,-1.38210952462,0.0779411804747,1.90374270633,0.15591439083,-0.00456921269812,-0.0550074404578,0.00102791799149,-0.100426440936,-0.00116490444905,0.0395391480457,-0.00962508583707,0.574075673737,0.818787373168,0.0022594833763,0.0,0.818748008613,-0.574015592865,-0.0117704902637,0.0,-0.00834071069861,0.00860726535971,-0.999928171184,0.0,0.65864504056,0.256854498807,0.303565770798,1.0,-0.0112,-0.01472,0.561
0.462703375858,0.529924163886,-0.124065297984,-1.3834651148,0.0778575346352,1.9042231685,0.155737702446,-0.005543431839,-0.0593770268234,0.0016529464673,-0.0978323979714,-0.00452089728458,0.0336570556098,-0.0133539556989,0.57408417486,0.818781485928,0.00223279599647,0.0,0.818741750942,-0.574024170885,-0.0117874256987,0.0,-0.00836980820299,0.00859522334431,-0.999928031633,0.0,0.658494496471,0.256656927468,0.303556136013,1.0,-0.01146,-0.0150617142857,0.574
0.462539700643,0.528680391089,-0.124064952539,-1.38541517036,0.0777356379474,1.90495433604,0.15546958617,-0.00990132618147,-0.0600164757231,-0.00085030198584,-0.0967750843434,-0.00125924580445,0.0430352989661,-0.0136955174184,0.574071462953,0.818790348753,0.00225102495473,0.0,0.818750867412,-0.574011407822,-0.0117757252183,0.0,-0.0083498969164,0.00860330207789,-0.999928128625,0.0,0.658265843391,0.256364117525,0.303567247902,1.0,-0.01186,-0.0155874285714,0.594
0.462431128955,0.527845129685,-0.124062671934,-1.38672347538,0.0776526909591,1.90546797551,0.155287851561,-0.0129647818305,-0.064791057187,0.00102285934989,-0.102827595112,-0.00704373649737,0.0453888883174,-0.0048413278933,0.57405863181,0.818799257623,0.00228251213624,0.0,0.818760227858,-0.573998502403,-0.0117539533037,0.0,-0.00831412976404,0.00861645440208,-0.99992831341,0.0,0.658115983104,0.256171076955,0.303577014201,1.0,-0.01212,-0.0159291428571,0.607
0.462243768318,0.526428824543,-0.124065127259,-1.38889893339,0.0775174674246,1.90629003686,0.154994748754,-0.00998768351663,-0.0656223958219,0.000606045282067,-0.109188679556,-0.00598264391386,0.035404030866,-0.00746150962667,0.574054928718,0.818801711472,0.00233302516885,0.0,0.818763374205,-0.573994648389,-0.0117229510809,0.0,-0.00825978747353,0.00863997975283,-0.999928560779,0.0,0.657863481497,0.255840640438,0.30360960992,1.0,-0.01254,-0.0164811428571,0.628
0.462124441016,0.525530479388,-0.124071236713,-1.39030345833,0.0774246858531,1.90680316476,0.154798724,-0.00644528591342,-0.0678084103685,7.6343175241e-05,-0.108149727226,-0.00687713492021,0.0369601093107,-0.00727188171329,0.574047067899,0.818807221801,0.0023332948882,0.0,0.818768953189,-0.573986855704,-0.0117148484532,0.0,-0.00825308081683,0.00863547007807,-0.999928655112,0.0,0.65769699049,0.255623501028,0.303617737798,1.0,-0.0128,-0.0168228571429,0.641
0.46193667712,0.524149976121,-0.124087961071,-1.39249815887,0.0772886447863,1.90758034207,0.154511461837,-0.0107087720382,-0.0706123287591,-0.000981489070813,-0.110890395819,-0.00313821971931,0.0371229949042,-0.0192279641046,0.574058584331,0.81879925192,0.0022964562391,0.0,0.818760527458,-0.573998531361,-0.0117316483147,0.0,-0.00828786192232,0.00861506701176,-0.99992854343,0.0,0.657432083899,0.255278685514,0.30361185585,1.0,-0.0132,-0.0173485714286,0.661
0.46182244827,0.523248956397,-0.124092536607,-1.39395577274,0.077191260448,1.90811671545,0.154309123253,-0.00753223933053,-0.0645553023139,-0.00275077781798,-0.117104552445,-0.00396573652671,0.0452514634444,-0.0159355363526,0.574041612269,0.818811218311,0.00227223522726,0.0,0.818772247802,-0.573981723357,-0.011736029254,0.0,-0.0083055308272,0.00859757782917,-0.999928547354,0.0,0.657255527856,0.25506041631,0.303598122948,1.0,-0.01346,-0.0176902857143,0.674
0.461615169642,0.521723185317,-0.124099982956,-1.39636778422,0.0770516992468,1.909063136,0.153977236473,-0.0117968128223,-0.0690273128617,0.000258426971947,-0.114116006575,-0.00271073487787,0.0397262391246,-0.0227213047042,0.574036731013,0.81881450014,0.00232222071639,0.0,0.818776186661,-0.573976664498,-0.0117086152067,0.0,-0.00825444233034,0.00862272023475,-0.999928753901,0.0,0.656978686618,0.254695218927,0.303604564558,1.0,-0.01388,-0.0182422857143,0.695
0.461489584041,0.520769701668,-0.124100408192,-1.39791526946,0.0769556947392,1.90964244892,0.153778205678,-0.00769308266013,-0.0730965223563,0.00232293800329,-0.120010057559,-0.00765352596914,0.0456798174319,-0.0186152770335,0.574033696757,0.818816670956,0.00230678414464,0.0,0.818778157303,-0.573973688132,-0.0117167127539,0.0,-0.00826996555091,0.00861469826682,-0.99992869478,0.0,0.656791775804,0.254465109645,0.30358802156,1.0,-0.01414,-0.018584,0.708
0.461279590472,0.519146473716,-0.124114957784,-1.40044778944,0.0767896065263,1.9105522948,0.153441751068,-0.00757654007203,-0.0744056461076,-0.00020605628299,-0.12248026068,-0.0025934662621,0.0369645901332,-0.0125895899417,0.5740301907,0.818819154112,0.00229780886661,0.0,0.818780620154,-0.573970316033,-0.0117097939594,0.0,-0.00826948871661,0.00860334226938,-0.999928796494,0.0,0.656483777755,0.254074403574,0.303601648425,1.0,-0.01456,-0.019136,0.729
0.461162561803,0.518205641929,-0.124115894304,-1.4019165146,0.0766953475104,1.91108874042,0.153235720304,-0.0110385479187,-0.070472325502,0.000940661043718,-0.122794998894,-0.00283734003969,0.0517476467227,-0.0210285951375,0.574010422203,0.818832999796,0.0023022922411,0.0,0.818794536217,-0.573950546009,-0.0117057720034,0.0,-0.00826382961994,0.00860450510104,-0.999928833274,0.0,0.656303363064,0.253856256926,0.303609416914,1.0,-0.0148,-0.0194514285714,0.741
0.460939119706,0.516529628541,-0.124124628258,-1.40455144218,0.0765258524456,1.91204275751,0.152870362513,-0.0105421304894,-0.0783275796649,-0.000403399847,-0.126804665286,-0.010934554869,0.0487013736624,-0.0169323270682,0.573993972664,0.818844561701,0.00229129225875,0.0,0.818806000504,-0.573934186295,-0.0117059917047,0.0,-0.00827049592125,0.0085954580221,-0.999928855969,0.0,0.655981815981,0.253451219062,0.303614042418,1.0,-0.01522,-0.0200034285714,0.762
0.460794287091,0.515480241766,-0.124128054913,-1.4062144545,0.0764256833644,1.91268192035,0.152641326301,-0.0121760535921,-0.0851457333666,-0.0028104926786,-0.124055060681,-0.00102659439299,0.0506528685224,-0.01179908817,0.573988402102,0.818848410813,0.00231111713221,0.0,0.818810115027,-0.57392855148,-0.0116944528055,0.0,-0.00824972681991,0.00860501203729,-0.999928945363,0.0,0.655785561963,0.253197799514,0.303613910255,1.0,-0.01548,-0.0203451428571,0.775
0.460579392441,0.513838471153,-0.124128752433,-1.40884848631,0.0762601141079,1.91362391322,0.152287877189,-0.00698245282931,-0.0889117546158,0.000305662326166,-0.131108466384,-0.00958554747749,0.0535330842171,-0.025280813669,0.573969196601,0.818862001373,0.00226516273198,0.0,0.818823060518,-0.573909468881,-0.0117245040143,0.0,-0.00830091230008,0.0085844369074,-0.999928698607,0.0,0.65545475654,0.252802686449,0.303592680451,1.0,-0.01588,-0.0208708571429,0.795
0.46042149042,0.512683415032,-0.12413160532,-1.4107167563,0.0761563609917,1.9142614044,0.152018555703,-0.00877895822902,-0.0859716949264,0.000119745403257,-0.130197336631,-0.00373763165732,0.0461325757337,-0.013319763242,0.573949829798,0.818875735019,0.00220689228969,0.0,0.818835847364,-0.573890130681,-0.0117779403728,0.0,-0.0083783171838,0.00856719433543,-0.999928200914,0.0,0.655214197156,0.252517545092,0.303568105591,1.0,-0.01616,-0.0212388571429,0.809
0.460185398414,0.511011232091,-0.124135406568,-1.41341106567,0.0759923529166,1.91526718473,0.151643194977,-0.0121119952273,-0.0899843341146,-2.8741687814e-05,-0.130373884694,-0.0138456521187,0.0489997972991,-0.0183918616115,0.573935311265,0.818885955628,0.00219021890625,0.0,0.818845821131,-0.573875647568,-0.0117902182488,0.0,-0.00839809253391,0.00856043899425,-0.999928092878,0.0,0.654886487196,0.252104661646,0.303544106596,1.0,-0.01656,-0.0217645714286,0.829
0.460026344585,0.509882501851,-0.124135865652,-1.41520805277,0.0758765205924,1.91595468052,0.15138846813,-0.00931288721843,-0.0887713986809,-0.00345001097132,-0.139349676928,-0.0113799455638,0.0507361162352,-0.0212141065127,0.573919842523,0.818896767127,0.00220137427007,0.0,0.818856827926,-0.573860188964,-0.0117781909445,0.0,-0.00838200281194,0.00856251269881,-0.999928210126,0.0,0.654671188289,0.251829773239,0.303538522201,1.0,-0.01682,-0.0221062857143,0.842
0.459773885165,0.508031901375,-0.124142983253,-1.41813616872,0.0756841072906,1.91701039366,0.150980973795,-0.0178421869877,-0.0874392538387,-0.000285367722185,-0.143967275616,-0.0101078501501,0.0472918092534,-0.0176694880631,0.573897882552,0.818912230265,0.00217403467681,0.0,0.818871989327,-0.573838391984,-0.0117860884736,0.0,-0.0084043892455,0.00854443182604,-0.999928176884,0.0,0.654306500351,0.251377898664,0.303531337261,1.0,-0.01724,-0.0226582857143,0.863
0.459622896883,0.506944075082,-0.124141540538,-1.41982653083,0.0755830639383,1.91762073039,0.150742643598,-0.0146492192464,-0.0864430801842,0.00145886925842,-0.142833711063,-0.00778049803138,0.0474459899114,-0.0164178473468,0.573885518099,0.818920871298,0.00218301868883,0.0,0.818880666062,-0.573825911732,-0.0117908725884,0.0,-0.00840328075321,0.00855440752102,-0.999928100908,0.0,0.654095510507,0.251118820884,0.303540358989,1.0,-0.01748,-0.0229737142857,0.875
0.459345976053,0.504990831177,-0.124147931688,-1.42286125112,0.0753986780842,1.91877859373,0.150338136447,-0.0171729562474,-0.0904001288364,0.000888969315448,-0.149904187748,-0.00462884852253,0.0571345907576,-0.0167583030992,0.57389273011,0.818915648368,0.00224545900649,0.0,0.81887626522,-0.573832893913,-0.0117566586853,0.0,-0.00833935408846,0.00858597934152,-0.9999283655,0.0,0.653731566263,0.250648382727,0.303561736366,1.0,-0.0179,-0.0235257142857,0.896
0.459153677648,0.503618906953,-0.124151102656,-1.42490397873,0.0752674690862,1.91955970207,0.15004557476,-0.0173869722758,-0.0906611126071,0.00149328230666,-0.142433518287,-0.00665410751719,0.0572522473251,-0.0160883557804,0.57388249711,0.818922567237,0.00233565449983,0.0,0.818884426288,-0.573822398077,-0.0117003738718,0.0,-0.00824160801906,0.00862743697467,-0.999928819081,0.0,0.653489137121,0.250328339598,0.303615562155,1.0,-0.01818,-0.0238937142857,0.91
0.458888961497,0.501647555687,-0.124159745595,-1.42784467231,0.0750783679228,1.92064505521,0.149631263437,-0.0169607809474,-0.094463235248,-0.000141137581396,-0.146018583489,-0.010890298293,0.0570193435765,-0.0218530235912,0.573865520197,0.818934190324,0.0024297218585,0.0,0.818897334845,-0.573805150979,-0.0116426197613,0.0,-0.00814050919965,0.00867115774678,-0.999929269065,0.0,0.653128823445,0.249870579397,0.30368646327,1.0,-0.01858,-0.0244194285714,0.93
0.458712520204,0.500307661545,-0.124157540961,-1.4298398186,0.0749468300916,1.92133352664,0.149356455677,-0.0113287889235,-0.101734990549,-0.000141079682324,-0.152973820628,-0.00734354324965,0.0591161727562,-0.0205834881801,0.573849160137,0.818945572455,0.00245716677466,0.0,0.818909041796,-0.573788662346,-0.0116318153781,0.0,-0.00811608552651,0.00868727083144,-0.999929327743,0.0,0.652871545049,0.249563219153,0.303731305964,1.0,-0.01884,-0.0247611428571,0.943
0.458421764546,0.498356939504,-0.124157751948,-1.43290184077,0.0747580027145,1.92248162207,0.148910135218,-0.0129473978191,-0.0917419137169,0.000612581085058,-0.154105273023,-0.00918026147264,0.0571295464405,-0.0217016117365,0.573826847964,0.818961116594,0.00248695889687,0.0,0.818924937983,-0.573766211307,-0.0116201382555,0.0,-0.00808966416789,0.00870474756183,-0.999929389859,0.0,0.652495975768,0.24908325046,0.303733935612,1.0,-0.01924,-0.0252868571429,0.963
0.458206834542,0.496964327038,-0.124162183538,-1.43510940333,0.0746275375778,1.92327916096,0.148601418053,-0.0153373699724,-0.0955638420538,-0.000389500293288,-0.159761435524,-0.00799525173421,0.059302642388,-0.021264436445,0.573829917618,0.818959004451,0.0024741819769,0.0,0.818922562404,-0.573769220528,-0.0116389544928,0.0,-0.00811237330826,0.0087051113425,-0.999929202712,0.0,0.652219770869,0.248730079108,0.303723249358,1.0,-0.01952,-0.0256548571429,0.977
0.457878943433,0.494912076615,-0.12415473184,-1.43846219228,0.0744199674827,1.92443477944,0.14811401248,-0.0160336198451,-0.0904420615962,0.000417212314579,-0.162491077229,-0.016349497936,0.0602263991339,-0.0184195803095,0.573806527722,0.818975731723,0.00235934167206,0.0,0.818937576818,-0.57374601349,-0.0117262177263,0.0,-0.00824998370168,0.00866090057782,-0.999928460726,0.0,0.651804640449,0.248220006733,0.30366294974,1.0,-0.01992,-0.0261805714286,0.997
0.457684268099,0.49371024835,-0.124158160952,-1.44040242931,0.0742868164217,1.92512801177,0.147832054435,-0.0217088595,-0.0980690579987,0.00187761236322,-0.165976707537,-0.00814925714366,0.0639096883847,-0.0294048056491,0.573799058106,0.818981115288,0.00230664690846,0.0,0.818942321898,-0.5737387897,-0.0117482551557,0.0,-0.00829834607346,0.00863031467805,-0.999928324992,0.0,0.651539078268,0.247877847819,0.303630847162,1.0,-0.0204942857143,-0.0269353469388,1.01
0.457351228497,0.491610549494,-0.124157154132,-1.44379172258,0.0740703205451,1.92637895324,0.14735846496,-0.0158462981101,-0.106816702039,2.79020177218e-05,-0.175510804444,-0.0182688448129,0.0611553318457,-0.024892554794,0.573794527608,0.818984397755,0.0022678672751,0.0,0.818945073944,-0.573734379169,-0.0117717850845,0.0,-0.00833991546403,0.00861201040285,-0.999928136961,0.0,0.651114342777,0.247337436832,0.303587410471,1.0,-0.0216371428571,-0.0284373877551,1.03
0.457102078873,0.490087917874,-0.124158741303,-1.44627194281,0.073918897852,1.92722425494,0.147008471768,-0.0185156053387,-0.110329059707,0.00130937265857,-0.180215710363,-0.00856116240689,0.0625167951827,-0.0248533090839,0.573795577752,0.818983915194,0.00217451290465,0.0,0.818943199613,-0.573735609527,-0.0118420044702,0.0,-0.00845097840553,0.0085758574643,-0.999927515189,0.0,0.650789330312,0.246933539311,0.303539360823,1.0,-0.0224371428571,-0.0294888163265,1.044
0.456721816122,0.487754804337,-0.124165700707,-1.44993233255,0.0736858822095,1.92858933715,0.146476525248,-0.0187879592265,-0.120508705261,0.00111961042758,-0.186413844563,-0.00964166213524,0.0717566011763,-0.0312260967221,0.573795149874,0.818984145595,0.00220048797816,0.0,0.818943792782,-0.573735104813,-0.0118254247121,0.0,-0.00842250031256,0.00858761265395,-0.999927654582,0.0,0.650338140684,0.246334148795,0.303537346373,1.0,-0.02358,-0.0309908571429,1.064
0.456452059882,0.486158071283,-0.124176985774,-1.45235707297,0.0735300140526,1.92953488464,0.146121966151,-0.0145397420032,-0.127256010473,0.000407282724113,-0.186813206638,-0.0128451885817,0.0652358937535,-0.024550564978,0.57381172216,0.818972279413,0.00229346174421,0.0,0.818933263506,-0.57375144877,-0.0117614565206,0.0,-0.00831658997761,0.00862721983285,-0.999928200127,0.0,0.650053544538,0.245924858028,0.303574547876,1.0,-0.0243228571429,-0.0319671836735,1.077
0.456007778695,0.483496087471,-0.124192963305,-1.45644500608,0.0732657302535,1.93096007836,0.145506155542,-0.0235857772045,-0.123908221885,0.00163506184405,-0.198201750003,-0.0115917422989,0.074121035114,-0.0324911375741,0.573811582011,0.818972391154,0.00228861950956,0.0,0.81893326792,-0.57375128097,-0.0117693321869,0.0,-0.00832582004599,0.00862777188672,-0.999928118553,0.0,0.649533510265,0.245232065837,0.303600415152,1.0,-0.0255228571429,-0.0335443265306,1.098
0.455721354579,0.481770015092,-0.124211895043,-1.45910834027,0.0730944408936,1.93188372964,0.145107498313,-0.0237472422098,-0.132959000856,-0.000247083113461,-0.20895598162,-0.0118102440986,0.0719806006304,-0.0356517687599,0.573816866218,0.818968732141,0.00227304198257,0.0,0.818929395338,-0.573756612367,-0.0117788843931,0.0,-0.00834252576925,0.00862054939865,-0.999928041607,0.0,0.649193006994,0.24477760128,0.303610526893,1.0,-0.0262657142857,-0.0345206530612,1.111
0.455278527657,0.479044565293,-0.124235305577,-1.46328583084,0.0728444944484,1.93344201731,0.144485673586,-0.0158004935007,-0.134961929911,-0.00136327673882,-0.210341898328,-0.0128036669083,0.0844473727191,-0.0302021366284,0.573823361331,0.818963923106,0.00236422148093,0.0,0.818925724447,-0.573762714384,-0.0117367935285,0.0,-0.00825566728562,0.008671135049,-0.999928325119,0.0,0.648674860923,0.244083296209,0.303646816074,1.0,-0.0274085714286,-0.0360226938776,1.131
0.454939285844,0.477093335016,-0.124250787323,-1.46629759826,0.0726595865846,1.93452714102,0.144056800073,-0.0243584240953,-0.138515373321,0.000184392148677,-0.211399280111,-0.0103542892998,0.0768090791521,-0.0227617922139,0.573856929945,0.818940341666,0.0023848788841,0.0,0.818902352967,-0.573796140707,-0.0117333761263,0.0,-0.00824065941227,0.00868642937216,-0.999928316169,0.0,0.648296137314,0.243567434798,0.303659084197,1.0,-0.0282085714286,-0.037074122449,1.145
0.454450224373,0.474180162087,-0.124269371725,-1.47076592822,0.0723776559486,1.93615403203,0.14341716991,-0.0249066569828,-0.146237888791,-0.0015343271233,-0.227515804131,-0.0148406944316,0.0820192735491,-0.0366661429203,0.573881647432,0.818922865082,0.00243776283488,0.0,0.818885496061,-0.573820589383,-0.0117141982941,0.0,-0.008194344089,0.00871897991109,-0.999928413495,0.0,0.647700436878,0.242778108006,0.303686089399,1.0,-0.0294085714286,-0.0386512653061,1.166
0.454099838793,0.472107259868,-0.12427262354,-1.47398672717,0.0721706468941,1.9372544108,0.142933946283,-0.0225111803921,-0.147745239051,-0.00181723280212,-0.234116908277,-0.0168778380638,0.0803000594873,-0.0375591983625,0.573876796503,0.818926368437,0.00240258510103,0.0,0.818888448122,-0.573815768534,-0.0117439437749,0.0,-0.00823894263568,0.00870719365719,-0.99992814972,0.0,0.647303828431,0.242273768412,0.303685176776,1.0,-0.0301514285714,-0.0396275918367,1.179
0.453585243948,0.46904144099,-0.124267887462,-1.47863942527,0.0718718386948,1.93902895146,0.142216235193,-0.024790965767,-0.150591484327,0.000173541930952,-0.231777421507,-0.0216746501147,0.0947888047857,-0.0332735602814,0.573847524511,0.818946408121,0.00255854254872,0.0,0.818910551759,-0.573785977976,-0.0116578984461,0.0,-0.00807929377158,0.0087852427977,-0.999928769724,0.0,0.646722279887,0.241506198886,0.303741892587,1.0,-0.0312942857143,-0.0411296326531,1.199
0.453232331615,0.466986961712,-0.124272595109,-1.48177306112,0.0716584384101,1.94017512875,0.1417138163,-0.027926220551,-0.161825895038,-0.000613021854158,-0.243814071371,-0.0162229380924,0.0829490821483,-0.0355882528014,0.57380958464,0.818972829323,0.00261003967274,0.0,0.818937759855,-0.573747993432,-0.011616041364,0.0,-0.00801587156677,0.0088030253985,-0.999929123762,0.0,0.646289903451,0.240936965353,0.303770714541,1.0,-0.0320942857143,-0.0421810612245,1.213
0.452666499266,0.463762561545,-0.12428215097,-1.48681307527,0.0713090267392,1.9418772562,0.140961687449,-0.0305844539296,-0.164965789928,-0.00111087450247,-0.259270797531,-0.0160967011889,0.0887729158105,-0.0330044940668,0.573812935556,0.8189708303,0.00249820084067,0.0,0.81893422837,-0.573751648468,-0.0116842793829,0.0,-0.00813589377831,0.00875062130692,-0.999928614382,0.0,0.645644978576,0.240111694171,0.303740003153,1.0,-0.03318,-0.043608,1.232
0.452256434142,0.461463058871,-0.124283252505,-1.49042567437,0.0710711501716,1.94316625263,0.140425080988,-0.0323900856832,-0.165373286942,-0.000396022366783,-0.261497094234,-0.0123413445112,0.0960561079283,-0.0384645357315,0.573813671721,0.818970389594,0.0024734622184,0.0,0.818933401587,-0.573752404117,-0.0117051029865,0.0,-0.00816713510145,0.00874231726747,-0.999928432336,0.0,0.645169449533,0.239499664331,0.303716510708,1.0,-0.03398,-0.0446594285714,1.246
0.451630576464,0.458123452324,-0.124284895925,-1.49562776168,0.0707221077344,1.9450010193,0.139630769485,-0.0298943441464,-0.163051831897,-0.000517160913797,-0.267110694842,-0.0182465092591,0.0887379710867,-0.0386435808527,0.573822121102,0.818964562301,0.00244252559748,0.0,0.818927101172,-0.573760889218,-0.0117299561471,0.0,-0.00820515071767,0.00873132682896,-0.99992821714,0.0,0.644485853854,0.238594179892,0.303698046074,1.0,-0.0351228571429,-0.0461614693878,1.266
0.451199976417,0.455933876204,-0.124304508266,-1.49917547057,0.0704829026416,1.94622749589,0.139090842234,-0.034656160718,-0.158086566984,-0.00315663678414,-0.276876451693,-0.0149782582647,0.0950620111645,-0.0441039264474,0.57384449621,0.818949239442,0.00232040666573,0.0,0.818910161711,-0.573783688076,-0.0117971711267,0.0,-0.00833003320621,0.00867011324631,-0.999927717229,0.0,0.644014571595,0.237960922437,0.303622233365,1.0,-0.0358657142857,-0.0471377959184,1.279
0.450549504452,0.452355297623,-0.124347430082,-1.50464801341,0.0701159805766,1.94815528639,0.138213862033,-0.0302465932545,-0.188744917311,-0.00143549170651,-0.270074289682,-0.0194565012767,0.101532436392,-0.0445189550697,0.57383954851,0.81895266281,0.00233571046934,0.0,0.818913869106,-0.573778771437,-0.0117789360772,0.0,-0.00830636990534,0.00867213202346,-0.999927896573,0.0,0.643295044047,0.236991457943,0.303643778728,1.0,-0.0370085714286,-0.0486398367347,1.299
0.450083122787,0.449742364121,-0.124366703575,-1.50850543792,0.0698420849084,1.94963297536,0.137632104989,-0.0388049293996,-0.188272150903,-0.00152074411451,-0.277350234681,-0.0233062696009,0.106412700993,-0.0428933657463,0.573858797497,0.818938646795,0.00251400517592,0.0,0.818902514741,-0.573797733883,-0.0116438328232,0.0,-0.00809321004217,0.00874080935045,-0.999929046584,0.0,0.642811127539,0.236316471258,0.303728803846,1.0,-0.0378085714286,-0.0496912653061,1.313
0.449397157388,0.445982747348,-0.124370950222,-1.51423609023,0.0694436885485,1.95152452634,0.136784303399,-0.0362337877916,-0.185395247389,0.000560994949333,-0.286044630819,-0.0211447099032,0.101624406666,-0.0491633971096,0.573880566087,0.818923566677,0.00245656461935,0.0,0.818886585384,-0.573819593017,-0.0116868237668,0.0,-0.0081611476195,0.0087186567131,-0.999928687805,0.0,0.642058392272,0.235359793134,0.303753821466,1.0,-0.0388942857143,-0.0511182040816,1.332
0.448950312653,0.443513688161,-0.124367877068,-1.5180013614,0.0691817322584,1.95288631045,0.136190724575,-0.0365447698982,-0.196178035513,-3.59970384615e-05,-0.293116765283,-0.020847614776,0.100416137781,-0.0446514267039,0.573849242466,0.818945424133,0.00248719017054,0.0,0.818908827202,-0.573788149246,-0.0116721641508,0.0,-0.00813190174051,0.00873501271749,-0.999928783328,0.0,0.641511469943,0.234669160277,0.303757937292,1.0,-0.0396942857143,-0.0521696326531,1.346
0.448216919934,0.439695106266,-0.124376167673,-1.52392345274,0.0687808802211,1.95498428768,0.135211694359,-0.0352140545192,-0.190831502863,-0.00502996362921,-0.300796345954,-0.0178389461095,0.102307073699,-0.04887686947,0.573805749545,0.818975938165,0.00247414568252,0.0,0.818939104596,-0.573744636334,-0.0116868362662,0.0,-0.00815186682913,0.00873231661756,-0.999928644311,0.0,0.640712333377,0.23362693618,0.303732932149,1.0,-0.0408371428571,-0.0536716734694,1.366
0.447671998307,0.436979303841,-0.124385061992,-1.52818529,0.0685012819789,1.95645782379,0.134539840395,-0.0415075426369,-0.195778921451,-0.00436875295292,-0.306088553918,-0.0226243146188,0.105027796544,-0.0471259042753,0.573818378381,0.818967274895,0.00241209108725,0.0,0.818929453951,-0.573757296959,-0.0117414027596,0.0,-0.0082320282513,0.00871293287936,-0.999928156675,0.0,0.640129377468,0.232863648587,0.303687885749,1.0,-0.0416371428571,-0.0547231020408,1.38
0.446871363696,0.432863725794,-0.124398425778,-1.53429620187,0.0680664123411,1.95864932728,0.133564378334,-0.0434756449699,-0.206860937727,-0.00145342212644,-0.31285358159,-0.0246849546025,0.112612942808,-0.0476560860595,0.573829768042,0.818958844489,0.00256032114336,0.0,0.818923153881,-0.573768372708,-0.0116391330888,0.0,-0.00806309492877,0.00877575626671,-0.999928983779,0.0,0.639315706904,0.231760237377,0.303776914906,1.0,-0.04278,-0.0562251428571,1.4
0.446340914933,0.430210080991,-0.124411433319,-1.53839727476,0.0677682409614,1.96000814853,0.132919698967,-0.0426534828189,-0.213304911973,9.45121017982e-05,-0.324765717983,-0.0276299833098,0.102899618119,-0.0448279217732,0.573838835179,0.818952761756,0.0024722771385,0.0,0.818915920434,-0.57377774224,-0.0116860887686,0.0,-0.00815197402724,0.00873068676801,-0.999928657669,0.0,0.638740055146,0.23101316512,0.303751501508,1.0,-0.0435228571429,-0.0572014693878,1.413
0.44547143655,0.425814276334,-0.124434131142,-1.54514153651,0.0672754156729,1.96228590202,0.131811407574,-0.0386651065245,-0.213034830061,-0.000110650485387,-0.320752951823,-0.017526629386,0.112132736372,-0.0557696806424,0.573809517674,0.818973550381,0.00238916371763,0.0,0.81893570159,-0.573748807364,-0.0117204782589,0.0,-0.00822814027544,0.00868206059851,-0.999928457207,0.0,0.637796025725,0.229789866139,0.303731319195,1.0,-0.0447228571429,-0.0587786122449,1.434
0.444906606272,0.423045622829,-0.124441594653,-1.54931218863,0.0669755272875,1.96375603931,0.131111540515,-0.0470586049281,-0.207118099601,-0.0022007643972,-0.326289753376,-0.0281435060495,0.114903116051,-0.0503030906418,0.573796881683,0.818982268437,0.00243504777712,0.0,0.818945097969,-0.573736092885,-0.0116862797473,0.0,-0.00817393847303,0.00869988881768,-0.999928746794,0.0,0.637226423823,0.229026134733,0.303755570985,1.0,-0.0454657142857,-0.0597549387755,1.447
0.444013937288,0.418712126755,-0.124457452618,-1.55590048504,0.0665186240708,1.96605050358,0.130085703983,-0.0475210579237,-0.2252213242,0.0010563922675,-0.334671349027,-0.0239341655751,0.119001334228,-0.0456001669941,0.573848079467,0.818946325126,0.00245868977302,0.0,0.818909406367,-0.573787140135,-0.0116811335241,0.0,-0.00815561382034,0.00871680804681,-0.999928749072,0.0,0.636313663458,0.227818847369,0.30376084663,1.0,-0.0466085714286,-0.0612569795918,1.467
0.44338115096,0.415586058397,-0.124465686734,-1.56048625374,0.0662053794717,1.96772796083,0.129315565601,-0.0444073602515,-0.221733667797,-0.000155999280332,-0.331071633676,-0.0200176657897,0.117328224205,-0.0507421706075,0.573844849023,0.818948028842,0.00263859942149,0.0,0.818913505639,-0.573783349886,-0.0115794895122,0.0,-0.00796916912719,0.00880578465178,-0.999929472763,0.0,0.635694552001,0.226981106787,0.303842458637,1.0,-0.0474085714286,-0.0623084081633,1.481
0.442450534041,0.411089672533,-0.124487028189,-1.56734415297,0.0657172143491,1.96997812129,0.128135405179,-0.0417886898091,-0.227079548831,-0.00237931707811,-0.348551289844,-0.0262136469735,0.101258097054,-0.0654219118028,0.573800006927,0.818979773163,0.00253576458485,0.0,0.818943722194,-0.573738656255,-0.0116568048326,0.0,-0.00809197700776,0.00876549194429,-0.999928840498,0.0,0.634704075056,0.225713364466,0.303818077028,1.0,-0.0485514285714,-0.0638104489796,1.501
0.441838853225,0.408135476108,-0.124500042218,-1.57183825701,0.0653872050506,1.97146769171,0.127434853726,-0.0412425702253,-0.229522695645,0.00119673926295,-0.347036523101,-0.0329185731568,0.119177382313,-0.0557953597642,0.573825833222,0.818961845319,0.00248111666166,0.0,0.818925059387,-0.573764646469,-0.0116886471491,0.0,-0.00814913591043,0.008739264557,-0.999928605871,0.0,0.634054276754,0.224882660295,0.30380580575,1.0,-0.0492942857143,-0.0647867755102,1.514
0.440785087215,0.403344240803,-0.124513414292,-1.57917561012,0.064902164099,1.97400767127,0.12621201157,-0.0457805223928,-0.233078180387,-0.000627619173127,-0.351555599358,-0.0234163201192,0.122736378886,-0.0677577495011,0.573857260312,0.81893981892,0.00248287663061,0.0,0.818902683714,-0.57379566439,-0.0117335857487,0.0,-0.00818459432128,0.00876680649572,-0.999928075173,0.0,0.633014577713,0.223512628496,0.303769115653,1.0,-0.0504942857143,-0.0663639183673,1.535
0.440148201967,0.400518461492,-0.124527066728,-1.58335294163,0.0646084773142,1.97550511101,0.125475754484,-0.0550611669668,-0.243126624129,-0.00362071934843,-0.351865728035,-0.0249827522538,0.132810382335,-0.0546043612896,0.573877298002,0.8189253805,0.00261053885691,0.0,0.818889978797,-0.573815324816,-0.0116585820111,0.0,-0.00804969648899,0.0088285096284,-0.999928627355,0.0,0.632393765665,0.222638716772,0.303819330932,1.0,-0.0512371428571,-0.067340244898,1.548
0.439040355581,0.395457660786,-0.1245448764,-1.59085804617,0.0640296222562,1.9780367593,0.124207789896,-0.0589718226161,-0.243273926022,0.00140550133606,-0.370720782135,-0.0245170133855,0.125021885083,-0.0568553678317,0.573880776189,0.818922841096,0.00264233876747,0.0,0.818888084988,-0.573818948993,-0.0116131365932,0.0,-0.00799419267152,0.00882850555139,-0.999929072671,0.0,0.631364330661,0.221275459288,0.30386968648,1.0,-0.05238,-0.0688422857143,1.568
0.438359266879,0.392309936756,-0.124561945018,-1.59565672929,0.0636607608986,1.97956705993,0.123422801651,-0.0521792728822,-0.243190070861,-0.00347732675116,-0.372855898092,-0.0297225434511,0.115563188739,-0.0618207227189,0.573888556697,0.81891776371,0.00252342477892,0.0,0.818881436905,-0.573827113561,-0.011678310505,0.0,-0.0081157226183,0.00876860329205,-0.999928620774,0.0,0.630645089909,0.220368222734,0.303834791465,1.0,-0.0531228571429,-0.0698186122449,1.581
0.437289370703,0.387452709322,-0.124553112883,-1.60300762995,0.0631131736836,1.98207426084,0.122107526092,-0.0536100191194,-0.239074329439,0.000538739163276,-0.374982731718,-0.0288990470852,0.129703161366,-0.068409103378,0.573806477872,0.818975290879,0.00251908398581,0.0,0.818938858408,-0.573745007285,-0.0116858764074,0.0,-0.00812528860714,0.00876857616803,-0.999928543325,0.0,0.629566789759,0.218997775398,0.303813360756,1.0,-0.0542657142857,-0.0713206530612,1.601
0.436510542944,0.384000345879,-0.124555380836,-1.60817703268,0.0627338024938,1.98379519185,0.121168214613,-0.0616096195409,-0.255135401336,0.000199748486314,-0.369170393684,-0.033381498258,0.126647082116,-0.0663448075688,0.573763971411,0.819005077966,0.00251679911988,0.0,0.818968497415,-0.573702386641,-0.011701226654,0.0,-0.00813962709931,0.00877509041654,-0.999928369564,0.0,0.628802329282,0.218012829858,0.303815597395,1.0,-0.0550657142857,-0.0723720816326,1.615
0.435284633218,0.378708009827,-0.124575502701,-1.61601962153,0.0621579533612,1.98648864109,0.119816238687,-0.0610103702267,-0.248693683852,-0.00139160459893,-0.38019446202,-0.0331227058094,0.116765952698,-0.0673493361009,0.573804492458,0.818976357461,0.00262245206502,0.0,0.818941185967,-0.573742569966,-0.0116423467079,0.0,-0.00803034892081,0.00882823481887,-0.999928785347,0.0,0.627664404612,0.216489244884,0.303857062654,1.0,-0.0562657142857,-0.0739492244898,1.636
0.434496356471,0.375381630681,-0.124584637065,-1.62107882499,0.061756485799,1.98806085041,0.11890863771,-0.0598435602536,-0.256577108836,-0.000928124639449,-0.388584785456,-0.0273717772408,0.129950748071,-0.0730623247048,0.57378302555,0.818991872543,0.00246965590879,0.0,0.81895463716,-0.573721563949,-0.0117309946542,0.0,-0.0081908521275,0.00875375030089,-0.999928138316,0.0,0.626888590579,0.215496618077,0.303807770622,1.0,-0.0570085714286,-0.0749255510204,1.649
0.433257221149,0.370201236127,-0.12461835212,-1.62876391898,0.0611664238084,1.9905937739,0.117570980422,-0.0663870277342,-0.260065490312,0.000305117273284,-0.382835589367,-0.0280794971495,0.129632057905,-0.0667848896081,0.573836551377,0.818954369987,0.00246963240075,0.0,0.818917210141,-0.573775164212,-0.0117222340034,0.0,-0.00818311857723,0.00874923926062,-0.999928241117,0.0,0.625745760598,0.213967040796,0.3038246298,1.0,-0.0581514285714,-0.0764275918367,1.669
0.432443449048,0.366783226552,-0.124636506501,-1.63377821478,0.0607893459281,1.99229117264,0.116711569107,-0.0676146272963,-0.260712214849,-0.00105855344392,-0.378903335443,-0.0287917928821,0.130624358354,-0.0681658269503,0.573884109875,0.818920818986,0.00254314090147,0.0,0.818884669595,-0.573822512133,-0.0116777298132,0.0,-0.00810398058847,0.00878437180242,-0.999928577605,0.0,0.625004198115,0.212974274641,0.303860723227,1.0,-0.0588942857143,-0.0774039183673,1.682
0.431162909448,0.361480274247,-0.124669038645,-1.64148460659,0.0601853420008,1.99495850155,0.115233574132,-0.0639956701769,-0.264927637274,-0.00715044163331,-0.401802664572,-0.0366729867652,0.13607602301,-0.0773598943265,0.573844405149,0.818948029583,0.00273320723468,0.0,0.818914734688,-0.573782594543,-0.0115298920847,0.0,-0.00787426726958,0.00885479822452,-0.999929791767,0.0,0.623876908044,0.211430564624,0.303948267172,1.0,-0.0600371428571,-0.0789059591837,1.702
0.430230772375,0.357728258863,-0.124679054332,-1.64715421435,0.0597553285488,1.99665524502,0.114202612971,-0.0676614123394,-0.267847516992,-0.000369194648605,-0.412384559167,-0.0385031671905,0.112023796934,-0.0693130050165,0.573843059031,0.818949574591,0.00254652335205,0.0,0.818913454763,-0.573781438874,-0.0116773675456,0.0,-0.00810218334291,0.00878652771756,-0.999928573227,0.0,0.622977226672,0.210296327591,0.303887018683,1.0,-0.0608371428571,-0.0799573877551,1.716
0.428809495349,0.352069395637,-0.12470489013,-1.65564031488,0.0591122429549,1.9993968117,0.112672720989,-0.0673446357263,-0.266533342997,-0.00154029945494,-0.402593372739,-0.032920930226,0.123977685689,-0.0785590620203,0.573877980342,0.818925362326,0.00246201524065,0.0,0.818887908237,-0.57381640736,-0.0117503740004,0.0,-0.00821009261522,0.00875956405884,-0.999927929611,0.0,0.621669060635,0.208592463037,0.303834583334,1.0,-0.0620371428571,-0.0815345306122,1.737
0.427897561686,0.348508712042,-0.124706082544,-1.66085685861,0.0587452023778,2.00113416118,0.111654730615,-0.0675738760141,-0.279559330428,0.000438363256839,-0.393426643566,-0.0280079047675,0.145008246377,-0.0696498557715,0.57386300045,0.818935616234,0.00254166861072,0.0,0.818898891152,-0.573800808212,-0.0117467215081,0.0,-0.00816155424918,0.00882254831851,-0.999927773228,0.0,0.620874760007,0.207540641226,0.303856008354,1.0,-0.06278,-0.0825108571429,1.75
0.426471905786,0.342910164421,-0.124717784916,-1.66886445679,0.0580951152055,2.00381264768,0.110170722052,-0.0711809002131,-0.276421756909,0.000547045911035,-0.412793185488,-0.0444575019299,0.127546821911,-0.0739149070775,0.573898483922,0.818910121229,0.00273685995013,0.0,0.818876281017,-0.57383598863,-0.0116035098854,0.0,-0.00793187566487,0.00890055779234,-0.999928930184,0.0,0.619662460439,0.205897291531,0.303969902363,1.0,-0.0639228571429,-0.0840128979592,1.77
0.425602632994,0.339533669382,-0.124714012372,-1.67389340194,0.0576922529183,2.00532947122,0.109219215324,-0.0686891225597,-0.283147929014,0.000193841799711,-0.428741841214,-0.0336600697143,0.125940892248,-0.0861842119399,0.573867049015,0.818932623172,0.00259145928148,0.0,0.818896614246,-0.573804751408,-0.0117127853184,0.0,-0.0081051464058,0.00884388905022,-0.999928043525,0.0,0.618778228155,0.204795776214,0.30392087423,1.0,-0.0646657142857,-0.0849892244898,1.783
0.424094552994,0.333607124901,-0.124715689688,-1.68269637862,0.0569657836728,2.0081020327,0.107531397526,-0.067691365431,-0.288601417818,0.00375703114537,-0.41739238613,-0.0320718656333,0.134160944313,-0.0809010547053,0.573794245462,0.818983925197,0.00249820844769,0.0,0.818946700186,-0.573732291341,-0.0117604008711,0.0,-0.00819843425561,0.00879411922281,-0.999927721959,0.0,0.617440383852,0.203110454145,0.303880121575,1.0,-0.0658085714286,-0.0864912653061,1.803
0.423132382031,0.329857624658,-0.124711102828,-1.68801864949,0.0565513696788,2.00988116206,0.106481974106,-0.0725133557918,-0.286521593044,0.000794438353226,-0.408012045829,-0.0331876449688,0.140817514619,-0.0849029423766,0.573765453406,0.819003567519,0.0026660399386,0.0,0.818968554995,-0.573702935603,-0.0116702404174,0.0,-0.008028608172,0.00887955461944,-0.999928344913,0.0,0.61661452614,0.202027220292,0.30396042165,1.0,-0.0665514285714,-0.0874675918367,1.816
0.421489771742,0.32383327794,-0.124723551631,-1.69681666174,0.0558420876808,2.01277291308,0.10473603028,-0.0839600509232,-0.289485440572,-0.000889360643216,-0.435154625478,-0.0358071603984,0.135748362966,-0.0835337157137,0.573753168582,0.819011929938,0.00273990193637,0.0,0.818977976538,-0.573690510239,-0.0116197808899,0.0,-0.00794503639875,0.00891097701146,-0.999928732903,0.0,0.615238471989,0.200188831131,0.303969463184,1.0,-0.0677514285714,-0.0890447346939,1.837
0.420437016474,0.320031039906,-0.124753212484,-1.70245086917,0.055373276177,2.01441828533,0.10370238956,-0.0785037081671,-0.293157334327,-0.00444173526547,-0.431724359084,-0.0271894662241,0.134584206779,-0.0818339235096,0.573822215468,0.818964115271,0.00256706751768,0.0,0.818927735474,-0.573759952604,-0.0117314858599,0.0,-0.00813494202362,0.00883420008164,-0.999927887213,0.0,0.614311107501,0.198986794159,0.30391705479,1.0,-0.0684942857143,-0.0900210612245,1.85
0.418736106174,0.313822868971,-0.124788515404,-1.71149840463,0.0546327007115,2.01721956333,0.101849245179,-0.0833272362099,-0.29741063282,-0.000873903345162,-0.426905682855,-0.0302913867843,0.134325025823,-0.0880426873587,0.573773203943,0.818998618838,0.00251389715826,0.0,0.818961433523,-0.573711018169,-0.0117722102697,0.0,-0.00819933131585,0.00881353331222,-0.999927543673,0.0,0.612843466622,0.197074935082,0.303904254729,1.0,-0.0696942857143,-0.0915982040816,1.871
0.417738831715,0.310182716701,-0.12479673147,-1.71654274796,0.0541886631352,2.01895480964,0.100797515668,-0.0835810937402,-0.304153157243,-0.00148229169508,-0.418662079039,-0.0335452078422,0.145368008656,-0.0887247272441,0.573748318369,0.81901526995,0.00275711049812,0.0,0.818981820229,-0.57368591824,-0.0115755020864,0.0,-0.00789894957759,0.00889961957596,-0.999929199177,0.0,0.612067145014,0.195996070202,0.304021816229,1.0,-0.07038,-0.0924994285714,1.883
0.415918903969,0.303891880577,-0.124819593893,-1.72565372758,0.0534321437428,2.02177651477,0.0989257180802,-0.0893154387372,-0.300487146896,-0.00149675972665,-0.441328621775,-0.0402638002979,0.129770173803,-0.0948172345682,0.573757212185,0.819009109236,0.00273630329441,0.0,0.818975314666,-0.573694795998,-0.0115957713204,0.0,-0.00792739200665,0.00889429352022,-0.99992902148,0.0,0.610584836059,0.194022454514,0.3040174929,1.0,-0.07158,-0.0940765714286,1.904
0.414782008444,0.299961693467,-0.124863792078,-1.73144070224,0.0529520533063,2.0234271649,0.0977892125857,-0.0888180028726,-0.306267864619,-0.00254184817095,-0.446931795981,-0.0340134782259,0.125892098031,-0.0791362460223,0.573809118741,0.818973333392,0.00255369212121,0.0,0.818936871939,-0.573747005878,-0.0117268890363,0.0,-0.00813899289675,0.00882047832269,-0.999927975385,0.0,0.609606369169,0.192758157765,0.303956020173,1.0,-0.0723228571429,-0.0950528979592,1.917
0.412981510808,0.293849224455,-0.124908071038,-1.74021510331,0.0522637674249,2.02617953444,0.0959889027432,-0.0931368122319,-0.308058025883,-0.00484792900699,-0.42277314065,-0.0372157725695,0.148764200788,-0.093014744473,0.573879966661,0.818923450069,0.0026293904458,0.0,0.818887692005,-0.573817266861,-0.0117234395686,0.0,-0.00809196573451,0.00888119357284,-0.999927819641,0.0,0.608174168453,0.190835068939,0.303973596715,1.0,-0.0734657142857,-0.0965549387755,1.937
0.41170034916,0.289472856065,-0.124921563115,-1.74628911303,0.0517387774052,2.02822132096,0.0946619571358,-0.0910180246329,-0.313941948381,-0.000225618169015,-0.443061370768,-0.0395466427867,0.139981898034,-0.0980778585282,0.573859080863,0.818937211164,0.00288901076626,0.0,0.818905313239,-0.57379605703,-0.0115290843811,0.0,-0.00778404309092,0.00898206896531,-0.99992936306,0.0,0.607286188612,0.189595446212,0.304084712717,1.0,-0.0742085714286,-0.0975312653061,1.95
0.409849052138,0.283274225201,-0.124932502362,-1.75531796482,0.0509590103768,2.03075118917,0.0928037955231,-0.0912377753621,-0.308156141403,-0.000244827831025,-0.450588420873,-0.0382502607717,0.131912383375,-0.101316681615,0.573848524729,0.81894555355,0.00260727610136,0.0,0.818909493735,-0.573785892637,-0.0117361570827,0.0,-0.00811541166027,0.00887007035642,-0.999927728361,0.0,0.605564602056,0.187428891899,0.303992073747,1.0,-0.0754657142857,-0.0991835102041,1.972
0.408527151428,0.278892143642,-0.124936182728,-1.76168287222,0.0503893096097,2.03263586107,0.0914098252751,-0.0958656713621,-0.309518313136,0.00175574157616,-0.449611512587,-0.0332225872589,0.134634958225,-0.0983307357095,0.573788662137,0.818987782971,0.00251583964657,0.0,0.818950480839,-0.573726314491,-0.0117886765263,0.0,-0.00821153674166,0.00882472692399,-0.99992734479,0.0,0.604553010125,0.186134661891,0.303950216434,1.0,-0.0762085714286,-0.100159836735,1.985
0.406583754685,0.272490411139,-0.12495310037,-1.77056558304,0.0496387276766,2.03550590021,0.0894976816604,-0.102091631117,-0.320168748641,-0.00275721491146,-0.443121785647,-0.0392451338235,0.137148313837,-0.0966621258155,0.573821052845,0.818964100517,0.00281926919283,0.0,0.818931041494,-0.573757966828,-0.011597054826,0.0,-0.00788014513139,0.00896359384343,-0.999928776113,0.0,0.603093450001,0.184155826932,0.304074030354,1.0,-0.0773514285714,-0.101661877551,2.005
0.405177272238,0.268020286481,-0.124985712611,-1.77693714594,0.0490807635813,2.03737806184,0.0880872340832,-0.100257230222,-0.329391097539,-6.07164548173e-05,-0.456004792169,-0.039150988828,0.134038162175,-0.0979542155484,0.573826489669,0.818960433958,0.00277745674929,0.0,0.818926770652,-0.573763473038,-0.0116261867454,0.0,-0.00792793634891,0.00894611985518,-0.99992855483,0.0,0.602002488613,0.182707431809,0.304063989033,1.0,-0.0781514285714,-0.102713306122,2.019
0.40324676681,0.261882476729,-0.125042993229,-1.78574046205,0.0482880629376,2.03982968949,0.0861960684227,-0.103994514159,-0.314485420171,0.000104188520893,-0.455545825156,-0.0360610011895,0.132610239617,-0.0995676493714,0.573865646159,0.818933671304,0.00257080994583,0.0,0.818897105608,-0.573803109495,-0.0117587780412,0.0,-0.00815467753334,0.00885335803697,-0.999927557019,0.0,0.600454143718,0.180702934741,0.304005835443,1.0,-0.0792371428571,-0.104140244898,2.038
0.401790114865,0.257320113386,-0.125053715634,-1.79212998126,0.0477232877072,2.04175539901,0.0847774669248,-0.109450250855,-0.332114254804,-0.000246583833904,-0.446349335735,-0.0352952466214,0.137099914148,-0.0942900981447,0.573877781284,0.818924959735,0.00263616616553,0.0,0.818889290322,-0.573815058213,-0.0117199003938,0.0,-0.00808520278158,0.00888468973314,-0.999927843289,0.0,0.599357661848,0.179248560788,0.304036299229,1.0,-0.0800371428571,-0.105191673469,2.052
0.399686517386,0.250751727248,-0.125039489455,-1.8012336299,0.046899610967,2.04455777834,0.0827048848458,-0.10540010561,-0.327493114351,0.000473184390669,-0.466815213754,-0.050509650857,0.138187885476,-0.103529803544,0.573839425616,0.818951201171,0.00282676681498,0.0,0.818918301677,-0.573776383326,-0.0115855089292,0.0,-0.00786618586261,0.00896328543979,-0.999928888789,0.0,0.597795939311,0.177185565973,0.304116670329,1.0,-0.08118,-0.106693714286,2.072
0.398297637145,0.246491455328,-0.125051451684,-1.80735515626,0.0463872408694,2.04620209286,0.0812924224527,-0.106669058096,-0.329069242426,0.00041629653862,-0.467260317088,-0.0403406125824,0.116957010673,-0.111097403874,0.573811645058,0.818971218463,0.00266199654442,0.0,0.818935466143,-0.573748377049,-0.0117579346611,0.0,-0.00810224987235,0.00892701508405,-0.999927328334,0.0,0.596600007112,0.175689367412,0.30404647314,1.0,-0.08198,-0.107745142857,2.086
0.395997815511,0.239505392847,-0.125046714584,-1.81718995011,0.045518529758,2.04903441372,0.0790193057234,-0.111081810958,-0.339734685242,-0.000313393678065,-0.455117145828,-0.0408657082078,0.139390134957,-0.118004959258,0.573759656106,0.819007714063,0.0026397406781,0.0,0.818971302088,-0.573696069533,-0.0118141042801,0.0,-0.00816159082446,0.00894050040161,-0.999926725259,0.0,0.594927179048,0.173555003163,0.304027999404,1.0,-0.0831228571429,-0.109247183673,2.106
0.394541495443,0.235042322894,-0.125051141161,-1.82313413234,0.0449926610267,2.05088504738,0.0776508012344,-0.116813076039,-0.342031695126,-0.00195005553305,-0.466185538648,-0.0523358614741,0.145947890299,-0.1011145367,0.57379260989,0.818983621826,0.00293511793804,0.0,0.818951361417,-0.573728334292,-0.0116281110025,0.0,-0.00783942307148,0.00907601773297,-0.999928082088,0.0,0.59390540218,0.172170963373,0.304170153133,1.0,-0.0838657142857,-0.110223510204,2.119
0.392273566123,0.228311869142,-0.12505406431,-1.8326146914,0.0440799344383,2.05351385715,0.0754002417574,-0.114630955911,-0.338876363779,-0.000113815301438,-0.479610348202,-0.042845299623,0.128571560592,-0.113960013962,0.573705459864,0.819045167527,0.00279388137484,0.0,0.819011042937,-0.573641641499,-0.0117015206965,0.0,-0.00798154095053,0.00900161931999,-0.999927630308,0.0,0.592177495096,0.169975652326,0.304119771997,1.0,-0.0850085714286,-0.11172555102,2.139
0.390613822401,0.22355185602,-0.125081326176,-1.83931974636,0.043452429298,2.05531739087,0.0738090256599,-0.114393579796,-0.33328827435,0.000162229111624,-0.481258944917,-0.0407000955622,0.125997723571,-0.109316054566,0.573711600902,0.819041309894,0.00266055976263,0.0,0.81900520154,-0.573647979728,-0.0117992417477,0.0,-0.00813799836572,0.00894854644437,-0.999926845574,0.0,0.590946358945,0.168381613821,0.304072230319,1.0,-0.0858085714286,-0.112776979592,2.153
0.3880853866,0.216322959794,-0.125177123183,-1.84910842679,0.0425695411186,2.05829270542,0.0713957436192,-0.121856893048,-0.349119687076,-0.00524573509585,-0.461090887227,-0.0460079152582,0.139045635373,-0.113611079563,0.573784684965,0.818989025945,0.00297616914133,0.0,0.818957499624,-0.573720510002,-0.0115817578212,0.0,-0.0077779930296,0.00908296617649,-0.999928498719,0.0,0.589236003612,0.165994957717,0.304192434791,1.0,-0.0870085714286,-0.114354122449,2.174
0.386572076784,0.212189112813,-0.125193198688,-1.85482587945,0.0420348791434,2.05985974608,0.0700474463895,-0.129494171063,-0.352346477669,-0.00266411395502,-0.480046012554,-0.0487903798265,0.128011326178,-0.116839254318,0.573863451716,0.81893392716,0.0029510393149,0.0,0.818901956016,-0.57379921013,-0.0116103311428,0.0,-0.00781494051228,0.00907953138155,-0.999928241833,0.0,0.588190718839,0.164596118018,0.304186739899,1.0,-0.0876942857143,-0.115255346939,2.186
0.384059199488,0.205225033677,-0.125267247835,-1.86454917966,0.0410734235671,2.06235689796,0.0676495102873,-0.1240117129,-0.34892587621,-0.00451539014078,-0.488897915272,-0.0468467073725,0.126789687199,-0.115807349041,0.573871104653,0.81892944835,0.00269458192747,0.0,0.818893936744,-0.573807509181,-0.0117647639957,0.0,-0.00808849607346,0.00895820738589,-0.999927160723,0.0,0.58636100092,0.162219419104,0.304112233507,1.0,-0.0888371428571,-0.116757387755,2.206
0.382279165627,0.200320268312,-0.125272441523,-1.87123298242,0.0404520566199,2.06425143177,0.0659168382669,-0.126462252755,-0.355830061973,0.00170702569407,-0.471326970723,-0.0379787993259,0.138398876525,-0.121559008762,0.573825041049,0.818961435285,0.00278148923079,0.0,0.818927013626,-0.573761097329,-0.0117258878693,0.0,-0.00800729381139,0.00900661816246,-0.999927379401,0.0,0.585131555083,0.160604292215,0.30413901276,1.0,-0.0896371428571,-0.117808816327,2.22
0.379631074876,0.193276639472,-0.125320502425,-1.88074469687,0.0395411207216,2.06699594111,0.0635157788184,-0.132610827208,-0.348736906211,-0.00589462519161,-0.485532930921,-0.0519615715317,0.133315539814,-0.121554801356,0.573921845699,0.818892914788,0.00297590993286,0.0,0.818861399811,-0.573857670918,-0.011581378558,0.0,-0.00777630981972,0.00908383882311,-0.999928503883,0.0,0.583403530841,0.158224993989,0.304208447292,1.0,-0.09078,-0.119310857143,2.24
0.377880228972,0.188689828847,-0.125386934305,-1.88712600084,0.0389569918661,2.06858214458,0.0618158471667,-0.131365443179,-0.352505393451,-0.0067505189174,-0.491769025575,-0.0505512557688,0.117404501453,-0.136362174638,0.573925191692,0.818891144285,0.00281337056502,0.0,0.818856882544,-0.573860835616,-0.0117428343218,0.0,-0.00800177391055,0.00904343040354,-0.999927091333,0.0,0.582177994476,0.156621102571,0.304142463938,1.0,-0.0915228571428,-0.120287183673,2.253
0.375142685965,0.181495383924,-0.125436517682,-1.89685987802,0.0380175559167,2.07114522021,0.059273566784,-0.137376415585,-0.362799292339,0.00300574329511,-0.476893968594,-0.0407585681157,0.126261790946,-0.134561300772,0.573959069211,0.818867384551,0.002817852122,0.0,0.818832989002,-0.573894475735,-0.0117649370775,0.0,-0.00801692783855,0.0090601170453,-0.999926818896,0.0,0.580331038926,0.154179335952,0.304160207028,1.0,-0.0926657142857,-0.12178922449,2.273
0.373223815604,0.176403860891,-0.125423649338,-1.90352325293,0.0373335417869,2.07304877529,0.0575371923319,-0.13677283586,-0.358671964965,0.000653111132975,-0.482936434793,-0.0525779909329,0.136348374348,-0.125199030693,0.573963625072,0.818863347201,0.00305329440292,0.0,0.818832623791,-0.573898946712,-0.0115706559872,0.0,-0.00772265233417,0.00914144872326,-0.999928394714,0.0,0.57909151605,0.152519981065,0.30427526209,1.0,-0.0934657142857,-0.122840653061,2.287
0.370463058818,0.16919423351,-0.125420508222,-1.91338346682,0.0363412021935,2.07547672795,0.0548724013402,-0.138638782955,-0.365515875952,0.000148684152323,-0.491707508575,-0.0449846027899,0.124279714344,-0.137916664786,0.573839433135,0.818951102103,0.00285381227048,0.0,0.818917271472,-0.573774838777,-0.0117338728339,0.0,-0.00797217590295,0.00907056972989,-0.99992708193,0.0,0.577141861019,0.150093968154,0.304206092478,1.0,-0.0946085714286,-0.124342693878,2.307
0.368604776567,0.164517516416,-0.125425561545,-1.9198477729,0.035706254561,2.07711242314,0.0531235326293,-0.146677941517,-0.367634081312,-0.00112512339016,-0.49912121137,-0.0505131736881,0.13330767746,-0.135350667797,0.573803512454,0.818976711141,0.00272444574985,0.0,0.818940766996,-0.573738906304,-0.0118505040943,0.0,-0.00814232310869,0.00903119444418,-0.999926067318,0.0,0.575868462875,0.148483214542,0.304127250847,1.0,-0.0953514285714,-0.125319020408,2.32
0.365701220688,0.157056012479,-0.125420139394,-1.92948975908,0.0347171625041,2.07976651638,0.0504443230222,-0.150151188441,-0.371933525307,0.000618607074973,-0.488332557137,-0.05452622261,0.139959604289,-0.130714025399,0.573765318067,0.819002235005,0.00307339250524,0.0,0.818971560677,-0.57370035066,-0.0115860846185,0.0,-0.00772597158847,0.00916489103545,-0.999928154487,0.0,0.574029132416,0.146033543262,0.304302417084,1.0,-0.0964942857143,-0.126821061224,2.34
0.363585203045,0.151919246454,-0.125439632235,-1.93643445837,0.0340024537674,2.08142946728,0.0484925022029,-0.146268102742,-0.364137549242,-0.0015006992022,-0.496984859402,-0.0563932166619,0.115916547752,-0.14468209684,0.573751675335,0.819012276904,0.00294146776717,0.0,0.818979570279,-0.573686772175,-0.0116917834074,0.0,-0.00788838487665,0.00911735786301,-0.999927320944,0.0,0.572641795583,0.144236650592,0.304258020449,1.0,-0.0972942857143,-0.127872489796,2.354
0.360517475913,0.144529478224,-0.125475703006,-1.94643981369,0.0330059426286,2.08382938213,0.0457007477021,-0.153953095599,-0.369201006791,-0.0026276084211,-0.496197479847,-0.0502552998624,0.135384980868,-0.147880523379,0.573776278901,0.818995649124,0.00276683716965,0.0,0.818959916698,-0.573711139841,-0.0118713843292,0.0,-0.00813540344009,0.00907762223615,-0.999925703233,0.0,0.570628540535,0.141651101473,0.304174954154,1.0,-0.0984371428571,-0.129374530612,2.374
0.358488755677,0.139632916628,-0.125508699853,-1.95271923367,0.0323687828152,2.08553966235,0.0438896561246,-0.16232315894,-0.375675566107,-0.000847157589696,-0.488436175495,-0.0537580313728,0.135105204218,-0.145909194829,0.573827463475,0.818958907844,0.00301601160932,0.0,0.818926878936,-0.573761958885,-0.0116930916843,0.0,-0.00784583992285,0.00917988685671,-0.999927083578,0.0,0.56941959042,0.139982407173,0.304283276726,1.0,-0.09918,-0.130350857143,2.387
0.355126406422,0.131757923237,-0.125580967212,-1.963137967,0.0312502543825,2.08808985193,0.0407819768758,-0.16647415323,-0.378932915955,-0.00556351982703,-0.498863608759,-0.0557015444043,0.107339802663,-0.156204357693,0.573805167569,0.818974668926,0.00297795748542,0.0,0.818942291349,-0.573739965001,-0.0116928568683,0.0,-0.00786773183726,0.00914837315584,-0.999927200382,0.0,0.567332593777,0.137197414141,0.304278148769,1.0,-0.10038,-0.131928,2.408
0.353001224302,0.126842227671,-0.125670150991,-1.96970761085,0.0305409715154,2.08959143034,0.0388692521169,-0.167066217495,-0.377919887993,-0.00695733962357,-0.510906840597,-0.0505689426789,0.118914093762,-0.144082737758,0.57386156879,0.818935672266,0.00283045195634,0.0,0.818901193689,-0.573796663928,-0.0117885682264,0.0,-0.00803012976045,0.0090830416186,-0.999926504985,0.0,0.565987912529,0.135418123654,0.304227916539,1.0,-0.101122857143,-0.132904326531,2.421
0.34949232736,0.118777250501,-0.125747683046,-1.98003338905,0.0294527151946,2.09223334222,0.0357492037601,-0.168085308025,-0.384778712063,-0.000496995603893,-0.492074036426,-0.0472445221002,0.124515154378,-0.15776982578,0.573947659999,0.818874332906,0.00310763438261,0.0,0.818844030992,-0.573882473632,-0.0115804260765,0.0,-0.00769964501356,0.00919140327611,-0.999928114202,0.0,0.563935927368,0.132596935104,0.304353608024,1.0,-0.102322857143,-0.134481469388,2.442
0.347277610199,0.113850537034,-0.125754283873,-1.9864907401,0.0287707915263,2.09380623208,0.033752142637,-0.171241929565,-0.376189617158,-0.000748675738665,-0.49822172139,-0.051989872183,0.115710109255,-0.147140424664,0.573940695874,0.818879125415,0.00313089146039,0.0,0.81884907668,-0.573875378473,-0.0115752539334,0.0,-0.00768214020065,0.00920741415022,-0.999928101539,0.0,0.562618380741,0.130850182211,0.304348265204,1.0,-0.103065714286,-0.135457795918,2.455
0.34387045451,0.106194649506,-0.125753870541,-1.99662633385,0.0276371195874,2.09600528274,0.0306869631275,-0.172652761913,-0.383788546061,0.000515172328315,-0.512059714513,-0.0630788037712,0.116970536296,-0.154424066481,0.573885599351,0.81891868566,0.00287263573647,0.0,0.818884824731,-0.573820619454,-0.0117595669602,0.0,-0.00798190517762,0.00910117917053,-0.999926726179,0.0,0.560465691944,0.128148558897,0.304257943494,1.0,-0.104208571429,-0.136959836735,2.475
0.34165153172,0.101105793895,-0.125734876385,-2.00306882122,0.0269561117206,2.09755071081,0.0285996530463,-0.173852540743,-0.395617169848,0.00121519401996,-0.494607358291,-0.0413062555657,0.119021688604,-0.161203412105,0.573776559821,0.818994538905,0.00302515196864,0.0,0.818962734352,-0.573711154876,-0.0116746483589,0.0,-0.00782606049589,0.00917630297283,-0.999927271476,0.0,0.559125801461,0.12643589909,0.304331069671,1.0,-0.104951428571,-0.137936163265,2.488
0.337954423468,0.0929449107373,-0.125737638464,-2.01356472852,0.0258857619797,2.09998401718,0.0252290980066,-0.178223766693,-0.389022050686,-0.00170084017498,-0.510203496229,-0.0564155628017,0.110794002545,-0.149925410522,0.573725883357,0.819029650078,0.00312889134843,0.0,0.818998660382,-0.573659507748,-0.0116923206786,0.0,-0.00778158886299,0.0092709233267,-0.999926745745,0.0,0.556916299738,0.123598816363,0.304353286144,1.0,-0.106151428571,-0.139513306122,2.509
0.335578414247,0.0878772034387,-0.125776074865,-2.02016919998,0.0251760184737,2.10134538644,0.0231232242907,-0.185238301615,-0.388365816659,-0.000331287199797,-0.507562389967,-0.0600524311661,0.10439762343,-0.163611847275,0.573755576893,0.819009351198,0.00299458426839,0.0,0.818975990859,-0.573688930902,-0.011835702736,0.0,-0.00797574492917,0.0092434710351,-0.999925470091,0.0,0.555488325237,0.121764497033,0.304304533284,1.0,-0.106894285714,-0.140489632653,2.522
0.331655001011,0.0795636090333,-0.125851278374,-2.03065501821,0.0239711937847,2.1037670567,0.0195658335475,-0.187530174711,-0.398503931992,-0.00567013992885,-0.492924015605,-0.0586128303246,0.115290058467,-0.167474299758,0.573722114512,0.819032227581,0.00314521920006,0.0,0.819001489262,-0.573655731785,-0.01167942114,0.0,-0.00776169872806,0.00927686000992,-0.999926845275,0.0,0.55328412841,0.118781963168,0.304384467229,1.0,-0.108094285714,-0.14206677551,2.543
0.328999034451,0.0740186202615,-0.125883411484,-2.03766603287,0.0231904542179,2.10533234015,0.0172595296869,-0.192362502715,-0.391293258891,-0.00168263851909,-0.508524311952,-0.0536308079411,0.104578180586,-0.163994453457,0.573775035734,0.818994894851,0.00321208305075,0.0,0.818965099262,-0.573708515896,-0.0116383796144,0.0,-0.00768912212799,0.00930857481254,-0.999927111262,0.0,0.5517858688,0.11679402035,0.304414015429,1.0,-0.108894285714,-0.143118204082,2.557
0.325093444797,0.0660923116979,-0.126008743795,-2.04790026751,0.0220206647071,2.10738166363,0.0138006423842,-0.199146373276,-0.391892341019,-0.00666564403247,-0.508046350952,-0.0543322496665,0.109100181707,-0.177552199174,0.57384202648,0.818948806841,0.00298786222696,0.0,0.81891550945,-0.57377556731,-0.0118208985414,0.0,-0.00796650179183,0.00923031280372,-0.999925665325,0.0,0.549538385632,0.113837952234,0.304326958822,1.0,-0.110037142857,-0.144620244898,2.577
0.322503513626,0.0609154970822,-0.126079605328,-2.05440553042,0.0212480434726,2.10877207129,0.0115209462196,-0.203086412977,-0.404760180006,-0.00678373473948,-0.488918950742,-0.0645782549674,0.110320508342,-0.173346398523,0.573881389936,0.818921156338,0.0030061419082,0.0,0.818888369549,-0.573815177416,-0.0117782547802,0.0,-0.0079206446688,0.00922119340666,-0.999926113761,0.0,0.548130952248,0.111918090836,0.304346347632,1.0,-0.11078,-0.145596571429,2.59
0.318481938235,0.0528512223407,-0.126089058653,-2.0643593707,0.0201289471233,2.11099829586,0.00797276065632,-0.200030687962,-0.40389259392,-0.000869444721806,-0.511008553116,-0.0554655241839,0.100644427872,-0.18046428274,0.573878477169,0.818922214133,0.0032630571701,0.0,0.818893169574,-0.573811888699,-0.0116034526794,0.0,-0.007630091065,0.0093312466375,-0.999927352134,0.0,0.545976399425,0.109035128486,0.304447765614,1.0,-0.111922857143,-0.147098612245,2.61
0.31584313808,0.0476247291499,-0.126085896281,-2.07101695498,0.0193930911225,2.11225167848,0.00563981213098,-0.204776542369,-0.402811529551,0.00144499921701,-0.513937986069,-0.0609351753727,0.0996452724442,-0.188416735415,0.57385912032,0.818936253772,0.0031415257345,0.0,0.818904857821,-0.573792004326,-0.0117608039575,0.0,-0.00782891711739,0.00932183477248,-0.999925902981,0.0,0.544462287458,0.10714419586,0.30439206256,1.0,-0.112665714286,-0.148074938775,2.623
0.31171210779,0.0395030985679,-0.126096524315,-2.08113578782,0.0182256865399,2.11426006766,0.00195952347482,-0.210147942085,-0.414583994002,-0.00129599390428,-0.492723224994,-0.0523400127564,0.108832629476,-0.185061998534,0.573801537391,0.818976579373,0.00314722523777,0.0,0.818944990693,-0.57373409182,-0.0117915649217,0.0,-0.00785149625709,0.00934360231665,-0.999925522778,0.0,0.542183626914,0.104215374995,0.304398184255,1.0,-0.113808571429,-0.149576979592,2.643
0.308951173239,0.0341984685448,-0.126135729411,-2.08758627786,0.0174303561465,2.11566044882,-0.000498028071961,-0.210127311293,-0.408521379292,-0.00604924099337,-0.504397913323,-0.0581044891998,0.104038388641,-0.18604565037,0.573777552823,0.818992747861,0.00330843305484,0.0,0.818964009686,-0.573710487253,-0.011617855068,0.0,-0.00761700295734,0.00937573256223,-0.999927035791,0.0,0.540764787365,0.102273357561,0.304471646172,1.0,-0.114551428571,-0.150553306122,2.656
0.304416768347,0.025600949397,-0.126237963155,-2.09832220531,0.0161587511176,2.11757691691,-0.00448659324301,-0.216902193317,-0.410513565834,-0.00507607533653,-0.512933433333,-0.0671512620326,0.0951554050647,-0.194970978002,0.573812983738,0.818968617523,0.00313210918507,0.0,0.818936858511,-0.573745620712,-0.011795396865,0.0,-0.00786317732569,0.00933353122542,-0.999925525045,0.0,0.538285093662,0.09906770431,0.304413434328,1.0,-0.115751428571,-0.15213044898,2.677
0.30154270358,0.0202813343551,-0.126284922222,-2.10493056225,0.0153999089534,2.11879872122,-0.0070336052222,-0.219771209456,-0.421833181515,-0.00198116100834,-0.500414078422,-0.0609972000944,0.10044221143,-0.201342258915,0.573819147326,0.81896444688,0.00309318763565,0.0,0.818931699204,-0.573751352742,-0.0118745175579,0.0,-0.00795024018027,0.00934711490732,-0.999924709728,0.0,0.536760644359,0.097078223909,0.304385000564,1.0,-0.116494285714,-0.15310677551,2.69
0.296804051801,0.0115291216906,-0.126396984922,-2.11540529804,0.0140984466242,2.12084594871,-0.0111281194459,-0.230366443488,-0.409631868316,-0.00471423276998,-0.506918049989,-0.0554717060405,0.0896575893843,-0.19580949413,0.573910816225,0.818899380089,0.00330563322334,0.0,0.818870251308,-0.573843305968,-0.0116669884572,0.0,-0.00765732154511,0.00940287661122,-0.999926472966,0.0,0.534377506573,0.0938238693743,0.304504173718,1.0,-0.117694285714,-0.154683918367,2.711
0.293800427688,0.00619963261433,-0.126420645191,-2.12204772023,0.0133303092704,2.12196069753,-0.0137774023145,-0.226613825626,-0.414670247646,-0.00239934147706,-0.505265759108,-0.0541252314859,0.0852889855518,-0.200138526674,0.573904522638,0.818904306798,0.00317523297302,0.0,0.818872624713,-0.57383641872,-0.0118379030419,0.0,-0.00787219703081,0.00939411831888,-0.999924886706,0.0,0.532802125121,0.0918013993912,0.304433289369,1.0,-0.118437142857,-0.155660244898,2.724
0.289190241608,-0.00213843198567,-0.126413648972,-2.132157645,0.0121147938553,2.12377705194,-0.0178854016782,-0.225140494574,-0.423977047251,0.00152094611699,-0.495222541296,-0.0679443552582,0.0918514522717,-0.208569500252,0.57380070381,0.818976904069,0.00321400203423,0.0,0.818945511366,-0.573732218952,-0.0118464024379,0.0,-0.00785810476698,0.00942974814779,-0.999924662182,0.0,0.530415623089,0.0887485660236,0.304439984688,1.0,-0.11958,-0.157162285714,2.744
0.286142947286,-0.0076392575674,-0.126417859856,-2.13859573038,0.0112654794965,2.12502978292,-0.0205874410109,-0.240587863176,-0.420518299899,-0.000868871610455,-0.494387499645,-0.0721497784458,0.0957691461066,-0.194801269555,0.573724307031,0.819029627813,0.00341103907802,0.0,0.819001841904,-0.573656452633,-0.0116191312725,0.0,-0.0075597937338,0.00946000745977,-0.999926676201,0.0,0.528920411284,0.0867503674819,0.304542995575,1.0,-0.11998,-0.157688,2.757
0.281049972971,-0.0163694342414,-0.126482554734,-2.14923532133,0.00993739306541,2.12670068187,-0.0250058134195,-0.241728263116,-0.412004041066,-0.00794253097199,-0.504170099531,-0.0690072679701,0.0763282449307,-0.202754243772,0.573744750946,0.819016092816,0.00321673317256,0.0,0.818984988205,-0.573676567523,-0.0118123609364,0.0,-0.00782929999431,0.00941191747152,-0.999925056127,0.0,0.52621904946,0.083250817364,0.304463705407,1.0,-0.11998,-0.157688,2.779
0.277879883754,-0.0217440424405,-0.126563023606,-2.15574913493,0.00915400352898,2.12768783807,-0.0277950953543,-0.245232831336,-0.408254383466,-0.0100145543129,-0.493444568685,-0.0636769930265,0.0808606754454,-0.215694933274,0.573784982265,0.818988230693,0.00313353072963,0.0,0.818955314407,-0.573716226567,-0.0119428337889,0.0,-0.00798343659409,0.00941902166299,-0.99992377048,0.0,0.524749551163,0.0813334986338,0.304422270428,1.0,-0.11998,-0.157688,2.791
0.272385443441,-0.0309676319568,-0.126676287497,-2.1663899419,0.00776979380951,2.12959677142,-0.0324925851822,-0.249699700692,-0.410510663696,-0.0104097862741,-0.488869868034,-0.0679143616888,0.076741192608,-0.220085655682,0.573910405556,0.818898987506,0.00347009462217,0.0,0.818871806267,-0.573842136231,-0.0116152696407,0.0,-0.00752059083216,0.00950786981728,-0.999926517863,0.0,0.522224362446,0.0778149633478,0.30458720741,1.0,-0.11998,-0.157688,2.813
0.269111534537,-0.0363112896586,-0.126737201344,-2.17283938843,0.00698071977292,2.13049084669,-0.0353040566853,-0.248917379267,-0.411712595456,-0.000943940337518,-0.498155646176,-0.0626243244948,0.0637040633973,-0.213739143959,0.57397889426,0.81885154648,0.00333476708651,0.0,0.818821714881,-0.573909949635,-0.0117947382226,0.0,-0.00774443272753,0.00950069342537,-0.999924877471,0.0,0.520611492064,0.0757304510678,0.304522689306,1.0,-0.11998,-0.157688,2.826
0.264078241818,-0.0444884135985,-0.126724937217,-2.18259913357,0.00579156981372,2.13196049099,-0.0397821473647,-0.255086689923,-0.411936096835,0.000619327336454,-0.483208874309,-0.0622217850407,0.0810875829221,-0.218490911753,0.573873169558,0.818925842187,0.00328590341073,0.0,0.818894524789,-0.573803377979,-0.0119242438196,0.0,-0.0078797606454,0.00953399546632,-0.999923503225,0.0,0.518175297927,0.072619192634,0.304465753113,1.0,-0.11998,-0.157688,2.846
0.261073575668,-0.049493322448,-0.126722144367,-2.18823373438,0.00502524427753,2.13290255629,-0.0423528180247,-0.25434062431,-0.426958563357,7.66911935542e-05,-0.474014413615,-0.0664924815997,0.0792946916087,-0.21678236476,0.573868550568,0.81892823219,0.00349057190194,0.0,0.818900585091,-0.573799296919,-0.0117023712681,0.0,-0.00758066046301,0.00957423854438,-0.999925430991,0.0,0.51679389946,0.0707778705635,0.304578425786,1.0,-0.11998,-0.157688,2.858
0.255640765391,-0.058066735468,-0.126749334697,-2.19821780454,0.00370206318657,2.13427483062,-0.0471195088058,-0.261474618495,-0.405568711511,-0.000429921065231,-0.480097884782,-0.0582090739787,0.0531445568219,-0.216792755168,0.573809084168,0.81897006356,0.00345207471977,0.0,0.818941773355,-0.573739786112,-0.0117378272143,0.0,-0.00763248343731,0.00956250418454,-0.999925149054,0.0,0.514264374474,0.0674631067137,0.304581246128,1.0,-0.11998,-0.157688,2.879
0.252520379611,-0.0629351517675,-0.126776855123,-2.20397769327,0.00299040032735,2.13502137492,-0.0498173025972,-0.257308963,-0.405216928431,0.000957206263868,-0.469985137746,-0.0607009867523,0.0612166117591,-0.221975501805,0.573834061938,0.818952889363,0.00337361301491,0.0,0.818922808492,-0.573764074769,-0.0118729582156,0.0,-0.00778788542677,0.0095760208531,-0.999923821431,0.0,0.512780357415,0.0655724692682,0.304528714351,1.0,-0.11998,-0.157688,2.891
0.246982211137,-0.0714439395706,-0.126864128485,-2.21368700503,0.00167940049792,2.13641690123,-0.0546151580822,-0.267787431636,-0.403363128147,-0.00221716121184,-0.452345458919,-0.065805855102,0.0788374586229,-0.230948239211,0.573875153197,0.818923562518,0.00350059948947,0.0,0.818895715551,-0.573805448632,-0.0117414255194,0.0,-0.00760681340962,0.00960492321704,-0.999924938103,0.0,0.510317744535,0.0622398940269,0.304589107259,1.0,-0.11998,-0.157688,2.912
0.24350315803,-0.0766922469217,-0.126929590906,-2.2196455073,0.000897037961118,2.13722621814,-0.0576790932963,-0.273171662953,-0.39379656815,-0.00474271198125,-0.461687993819,-0.0594520134801,0.0623253424724,-0.2373654732,0.573882649373,0.818917949969,0.00358369472843,0.0,0.818891282355,-0.573812798417,-0.0116913197095,0.0,-0.0075180064131,0.00964428758374,-0.999925230853,0.0,0.508789396733,0.0601667482008,0.304624269969,1.0,-0.11998,-0.157688,2.925
0.237913868324,-0.0851312735666,-0.126915899659,-2.22943919866,-0.000375089135438,2.13833936679,-0.0625501812879,-0.265396102742,-0.403696134628,-0.00194641201785,-0.458123476542,-0.0581165768424,0.0619887764882,-0.234626623129,0.573823087155,0.818960313746,0.00343744927805,0.0,0.818930663812,-0.573752379565,-0.0118962899123,0.0,-0.00777049422216,0.00964158405262,-0.999923326699,0.0,0.506190171789,0.0569100316913,0.304550364713,1.0,-0.11998,-0.157688,2.946
0.23444405274,-0.0903412767974,-0.126912085397,-2.23541637446,-0.00116856650231,2.13903986178,-0.0656515540614,-0.271363015408,-0.407276669654,0.00031763082855,-0.457867602581,-0.0596734702331,0.0591033017595,-0.2404820035,0.573720694826,0.819032206022,0.0033995188423,0.0,0.819001706602,-0.57364970058,-0.011957111216,0.0,-0.00784327721825,0.00964443957375,-0.999922730909,0.0,0.50460111456,0.0549065518892,0.304526100155,1.0,-0.11998,-0.157688,2.959
0.228922661809,-0.0983611578556,-0.126961960981,-2.24424459481,-0.0024217767604,2.14016230206,-0.0704149541634,-0.279459596574,-0.39621651095,-0.003222243588,-0.445904744844,-0.0647589597544,0.0502823307425,-0.236392260647,0.573746208483,0.81901348003,0.00359926126622,0.0,0.818986713826,-0.573675940321,-0.0117228398983,0.0,-0.00753649941058,0.00967386835289,-0.999924805897,0.0,0.502288496844,0.051738603187,0.304644499765,1.0,-0.11998,-0.157688,2.979
0.225310801899,-0.103519592505,-0.12704342992,-2.25012589228,-0.00322202409295,2.14073673426,-0.0735060251417,-0.279104401663,-0.400031083283,-0.0103986938706,-0.452592355162,-0.060532252428,0.0437158459317,-0.22866174754,0.573826170333,0.818957862379,0.00350610755674,0.0,0.818929281008,-0.573755438341,-0.0118438415815,0.0,-0.00768810692575,0.00966774653141,-0.999923710934,0.0,0.500691976161,0.049654645367,0.304604767287,1.0,-0.11998,-0.157688,2.992
0.219367163474,-0.111838925189,-0.127180705221,-2.25956852211,-0.00452502007091,2.14168574405,-0.078666251959,-0.279628469499,-0.392498223445,-0.00874966464357,-0.450676510282,-0.0717254560462,0.0443654033495,-0.245573959478,0.573900899977,0.818905957197,0.00339664148588,0.0,0.818875225837,-0.573829651471,-0.0119850951397,0.0,-0.00786572364705,0.00965986843325,-0.999922405656,0.0,0.49812140535,0.0462616210776,0.304544105117,1.0,-0.11998,-0.157688,3.013
0.215680570381,-0.117013629176,-0.127205035469,-2.26513899399,-0.00530643438318,2.14235545541,-0.081802465441,-0.285985455897,-0.397845771392,0.00224931682085,-0.42120735521,-0.0548981229804,0.0557496090433,-0.250579778761,0.573960677605,0.818863235508,0.0035901251327,0.0,0.818835867125,-0.573889789953,-0.0117931589612,0.0,-0.00759679440738,0.00970871965756,-0.999924011852,0.0,0.496628614842,0.0442178159264,0.304639933866,1.0,-0.11998,-0.157688,3.026
0.209770230342,-0.125197167886,-0.127193179031,-2.27421650281,-0.00652881594638,2.14324388835,-0.0870431004677,-0.280258370992,-0.386983231946,0.000484294488455,-0.43760639931,-0.0615092803307,0.0299486023938,-0.241879201695,0.573845981837,0.818943482014,0.00362067644402,0.0,0.81891615646,-0.573774552853,-0.0118253155718,0.0,-0.00760695956017,0.00975112800161,-0.99992352191,0.0,0.494119249396,0.0409903399658,0.304638280621,1.0,-0.11998,-0.157688,3.047
0.206314963493,-0.129906486671,-0.127200383654,-2.27945687641,-0.00727829378307,2.14365302959,-0.0900469563713,-0.284464064845,-0.396511808853,-0.00138413239703,-0.433021129195,-0.0604928069112,0.0404021893926,-0.255895474966,0.573820281761,0.8189618665,0.00353445336973,0.0,0.818933040526,-0.573748678405,-0.011911173922,0.0,-0.0077270580474,0.0097295411445,-0.999922811322,0.0,0.492640108795,0.0391074913795,0.30461118395,1.0,-0.11998,-0.157688,3.059
0.200191295399,-0.138130186223,-0.127231471387,-2.28845716821,-0.00856142898799,2.14445664387,-0.0954392794929,-0.292503952178,-0.390788208275,-0.00121130867544,-0.419843029666,-0.0595272459527,0.0389697347583,-0.256285834832,0.573750545533,0.819010621515,0.00355812411504,0.0,0.818982168483,-0.573678949622,-0.0118919034896,0.0,-0.00769852258353,0.00973721378961,-0.999922956741,0.0,0.49011310485,0.035802934594,0.304622874437,1.0,-0.11998,-0.157688,3.08
0.196351799844,-0.14322203101,-0.127319154622,-2.29379287999,-0.00929687723561,2.14502791927,-0.0987713276854,-0.288146569776,-0.386425890806,-0.00216542525093,-0.412218302305,-0.0626521119137,0.0404358321809,-0.252275438716,0.573832895493,0.818951774899,0.00381383560193,0.0,0.818927446764,-0.57376146753,-0.011677423343,0.0,-0.00737515665572,0.00982433344953,-0.999924541921,0.0,0.488638295337,0.0337315570403,0.304732477428,1.0,-0.11998,-0.157688,3.093
0.190062399432,-0.151281921911,-0.127439541398,-2.30268225535,-0.0105631562904,2.14560563184,-0.104199390592,-0.298626030031,-0.381983233804,-0.000922242844767,-0.428117553625,-0.062347991862,0.0142309496488,-0.259592772996,0.57393688087,0.818879568707,0.00366819184283,0.0,0.81885231558,-0.573864572254,-0.0118779157251,0.0,-0.00762168390431,0.00982107037303,-0.99992272527,0.0,0.486065628197,0.0303625306755,0.304659990424,1.0,-0.11998,-0.157688,3.114
0.186213506491,-0.156305606207,-0.127432494006,-2.30813440389,-0.0113771013608,2.1459611915,-0.107629518337,-0.296386378278,-0.382575635315,-0.00154736397736,-0.417109787804,-0.0626390903318,0.0314717861397,-0.262686254412,0.573824286293,0.81895874213,0.00360749916101,0.0,0.818930592168,-0.573752072455,-0.0119160172067,0.0,-0.00768906438114,0.00979218002309,-0.999922492746,0.0,0.48447541149,0.0283533149675,0.304644764492,1.0,-0.11998,-0.157688,3.127
0.180217836998,-0.163970799575,-0.127425980276,-2.31626602419,-0.0125283330202,2.14654039606,-0.112882693872,-0.299978867057,-0.376910411758,-0.00135690999366,-0.397571370797,-0.0506250078282,0.0315347667505,-0.26039445092,0.573790202145,0.818982084904,0.003727657413,0.0,0.818955699784,-0.573717830777,-0.011838891061,0.0,-0.00755736166182,0.00984601554656,-0.999922968164,0.0,0.481994598888,0.0251099439618,0.304696900145,1.0,-0.11998,-0.157688,3.148
0.176225735868,-0.168943832339,-0.127432249206,-2.32144133449,-0.0132572642373,2.14694154114,-0.116410912289,-0.306450098361,-0.37580141156,0.00165326199285,-0.400431803416,-0.0611523045709,0.0278965593472,-0.26897924107,0.573748354807,0.819010721404,0.00387433646101,0.0,0.818986731948,-0.573676148499,-0.0117113807144,0.0,-0.00736927382997,0.0098926060374,-0.99992391218,0.0,0.480603751323,0.0232321265718,0.304763544297,1.0,-0.11998,-0.157688,3.16
0.169717737076,-0.17687252418,-0.127530922417,-2.33007147012,-0.0145049766784,2.14730421988,-0.122047972297,-0.313807837015,-0.381150438435,-0.0117330796139,-0.398044613898,-0.0656678383164,0.0184823197814,-0.270063614669,0.573828506615,0.818955452504,0.0036822154075,0.0,0.818927560064,-0.573755106228,-0.0119781612498,0.0,-0.00769703876609,0.00988906845649,-0.999921477877,0.0,0.477999159657,0.0198899280711,0.304661540315,1.0,-0.11998,-0.157688,3.181
0.165593078723,-0.181793443003,-0.127646366983,-2.33526980603,-0.0152944304895,2.14759550021,-0.125654449509,-0.317444947451,-0.379532767919,-0.00697891594103,-0.407911898782,-0.0579151820956,0.0301803519194,-0.279186300031,0.573895517248,0.818908415043,0.00369999395831,0.0,0.818880798821,-0.573822099332,-0.0119658907707,0.0,-0.00767597813128,0.00989721563346,-0.999921559165,0.0,0.476442476982,0.0177686937727,0.304664652206,1.0,-0.11998,-0.157688,3.194
0.159022248473,-0.189712371695,-0.127670222346,-2.34344969293,-0.0164537840944,2.14804501479,-0.131473878538,-0.316630754778,-0.380793373873,-0.00219456768171,-0.381111962007,-0.0543947709181,0.0197401974935,-0.278506235226,0.573852388089,0.818937798682,0.00388142702305,0.0,0.818912864487,-0.573778754848,-0.0118493782301,0.0,-0.007476967314,0.00997853663422,-0.999922258861,0.0,0.473974446563,0.0145069889581,0.304737494585,1.0,-0.11998,-0.157688,3.215
0.15493107395,-0.19460066559,-0.127670141422,-2.34846284254,-0.0172506618828,2.14830355314,-0.135104107447,-0.312314552224,-0.382384223659,-0.00205574689546,-0.385683114921,-0.0564618681907,0.0120389356564,-0.280451967386,0.573771813204,0.818993936763,0.00394776137739,0.0,0.818970625541,-0.573698995457,-0.0117185328875,0.0,-0.0073327218237,0.00995705617185,-0.999923541189,0.0,0.472448691497,0.0124914587928,0.304787252729,1.0,-0.11998,-0.157688,3.228
0.148485584566,-0.202003481153,-0.127712564431,-2.356348499,-0.018449610261,2.14850319158,-0.140740460683,-0.322342187323,-0.378498101945,-0.0076664383152,-0.39187816508,-0.0581715022148,0.0128121527083,-0.279175731633,0.573767627125,0.818997707486,0.00376989357257,0.0,0.81897113986,-0.573694156219,-0.0119178059331,0.0,-0.00759803611108,0.00992567636708,-0.999921872346,0.0,0.469979102582,0.00932965803503,0.304698159536,1.0,-0.11998,-0.157688,3.248
0.144273105077,-0.206818136119,-0.127776329989,-2.36135935507,-0.0191547075059,2.1486482361,-0.144462342003,-0.3254742267,-0.363152432878,-0.00507752302781,-0.387073829558,-0.0586827008125,0.0126085760266,-0.285847398086,0.573797141333,0.818976937129,0.00378998031551,0.0,0.81895007236,-0.573722863609,-0.0119833908377,0.0,-0.00763986945621,0.00998003220633,-0.999921012556,0.0,0.468406164933,0.00727545302857,0.304685034097,1.0,-0.11998,-0.157688,3.261
0.137344154839,-0.214602059441,-0.127924706116,-2.36919700347,-0.0203090740435,2.14890388484,-0.15050636678,-0.331591136967,-0.372906357551,0.000580518129048,-0.362423051519,-0.0581626531527,0.0154011729085,-0.290774890403,0.573948991911,0.81886958304,0.0039884279593,0.0,0.818845669476,-0.573874476848,-0.0118575420986,0.0,-0.00742106642407,0.0100717252084,-0.999921741,0.0,0.465942107665,0.00390643297345,0.304768363791,1.0,-0.11998,-0.157688,3.282
0.133127918418,-0.219370019173,-0.1279148187,-2.37398961316,-0.0210499360859,2.14903805789,-0.154261266372,-0.321903421208,-0.366635987442,0.000824555811937,-0.3740294692,-0.0545550942109,0.0104581796754,-0.295865917451,0.573876794684,0.818919813624,0.00406328407739,0.0,0.8188973734,-0.573802724183,-0.0117589310962,0.0,-0.00729823870269,0.0100757843348,-0.999922604146,0.0,0.46441861243,0.00191532894835,0.3048128303,1.0,-0.11998,-0.157688,3.295
0.12617635901,-0.226963153848,-0.127935710065,-2.38195199096,-0.022309340815,2.14909064043,-0.160452544524,-0.340132884206,-0.365490651182,-0.00183751611546,-0.371000521169,-0.0485637758606,0.000382139973036,-0.297609413428,0.573777068784,0.818990702858,0.00385368276289,0.0,0.818964596309,-0.573702468031,-0.0119672498327,0.0,-0.00759034517731,0.0100227562477,-0.999920962385,0.0,0.461703613762,-0.00151895450071,0.304707501564,1.0,-0.11998,-0.157688,3.317
0.121767695683,-0.231692512168,-0.127961143616,-2.38672715254,-0.0230316700518,2.14910903412,-0.164359618102,-0.338060021717,-0.354543537202,-0.00468324048314,-0.372054597536,-0.0574634313036,3.06166779637e-05,-0.310255288618,0.573755068405,0.819006074106,0.00386250681287,0.0,0.818979896772,-0.573680193578,-0.0119879556763,0.0,-0.00760251123078,0.010041659093,-0.999920680307,0.0,0.46025675543,-0.0034149890373,0.30471040793,1.0,-0.11998,-0.157688,3.329
0.114568866352,-0.239317668178,-0.128127552478,-2.3942736401,-0.0242070436526,2.14915851938,-0.170649798991,-0.349355157615,-0.364179719171,-0.00286546751298,-0.350869764927,-0.0708277263277,0.00206002882117,-0.299609745595,0.57391566491,0.818892918876,0.00399297975677,0.0,0.818868763834,-0.57384073135,-0.011895779132,0.0,-0.00745017831086,0.010097094788,-0.999921268661,0.0,0.45776844385,-0.00679895478168,0.304772856873,1.0,-0.11998,-0.157688,3.35
0.110093120841,-0.243994445351,-0.128178419532,-2.39882521142,-0.0249453180454,2.14923126055,-0.174628590815,-0.340452430603,-0.351898316022,-0.00183730127287,-0.349518708564,-0.0571363609726,0.00628065950106,-0.315078953596,0.573914858848,0.81889285013,0.00412088601049,0.0,0.818871254477,-0.573840729646,-0.0117231604894,0.0,-0.00723541937492,0.0101027656041,-0.999922788436,0.0,0.456266088191,-0.00886398191713,0.304841025056,1.0,-0.11998,-0.157688,3.363
0.10294313426,-0.251458661078,-0.128167313501,-2.40641090863,-0.0260742694366,2.14920080941,-0.181065962139,-0.344771073175,-0.34986485149,-0.000179578277675,-0.359856151704,-0.0470738350754,0.000841210093887,-0.306978236017,0.573784494605,0.818984415961,0.00407762986799,0.0,0.818961513427,-0.57370949575,-0.0118406466173,0.0,-0.00735807174472,0.0101335964661,-0.999921581427,0.0,0.453705447745,-0.0120791857975,0.304778858848,1.0,-0.11998,-0.157688,3.384
0.0990730736735,-0.255341053253,-0.128194842235,-2.4103286424,-0.0266740310322,2.14917121501,-0.18451674965,-0.353014698915,-0.353908238727,-0.00494258988772,-0.354103863763,-0.0623555099987,-0.00160358281159,-0.308749134771,0.573775473854,0.818990813084,0.00406209165614,0.0,0.818967397261,-0.573700102462,-0.0118887156412,0.0,-0.00740646908764,0.0101483694692,-0.999921074292,0.0,0.452369066571,-0.0138211665233,0.304750364078,1.0,-0.11998,-0.157688,3.395
0.0916848216254,-0.262715702663,-0.128271054954,-2.41757906432,-0.027822698218,2.14908831822,-0.191043724014,-0.35442411792,-0.350493132181,-0.0112741460672,-0.335081277733,-0.0606010962611,-0.00944065765814,-0.321487331538,0.573826009676,0.818955111108,0.00412110557835,0.0,0.818932647662,-0.573750681886,-0.0118414750103,0.0,-0.00733329053563,0.0101700500614,-0.999921393376,0.0,0.449873507202,-0.0171329411452,0.304766681612,1.0,-0.11998,-0.157688,3.416
0.0866576852753,-0.267655822117,-0.128397500874,-2.4222386628,-0.0285720556801,2.14903802756,-0.195524741248,-0.361051066307,-0.35139969769,-0.00816012299713,-0.335754540198,-0.0501263442009,-0.00403057226944,-0.32446319437,0.573904799716,0.818898975264,0.00430070633719,0.0,0.818879651375,-0.573830016329,-0.0116608672791,0.0,-0.00708133421545,0.0102141852611,-0.99992275958,0.0,0.448256469054,-0.0193996735603,0.304856292398,1.0,-0.11998,-0.157688,3.43
0.0795711410165,-0.274604520138,-0.128400540869,-2.4290255397,-0.0296505085737,2.14885666844,-0.201886380501,-0.354420140702,-0.3462836666,0.00301472440433,-0.34209866726,-0.0554154302466,-0.0136479005375,-0.322087586505,0.573821075156,0.818957582627,0.00431259378067,0.0,0.81893844295,-0.573746311318,-0.0116509145212,0.0,-0.0070674060873,0.0102174858512,-0.999922824399,0.0,0.445860893864,-0.0224869654229,0.304857040196,1.0,-0.11998,-0.157688,3.45
0.0749084555705,-0.279066299123,-0.128418553988,-2.43349981915,-0.0303753094466,2.14868060531,-0.206125082672,-0.35611012329,-0.340682892073,-0.00262594875913,-0.345175068258,-0.0597948274647,-0.0138116012675,-0.328506131009,0.573725803323,0.819024873712,0.00420781941416,0.0,0.819003737069,-0.573650479656,-0.0117793360797,0.0,-0.00723389089467,0.0102045253488,-0.999921766182,0.0,0.444254801596,-0.0245074053452,0.304791351392,1.0,-0.11998,-0.157688,3.463
0.0672070740955,-0.286272993666,-0.128478100017,-2.44042697599,-0.0315000503975,2.14845444199,-0.212970152783,-0.36540005745,-0.339230221585,-0.00143422144276,-0.324918504204,-0.0454845683843,-0.00760986533593,-0.33232304534,0.573760582059,0.819000195361,0.00426865021707,0.0,0.818980176207,-0.573685520785,-0.0117107268013,0.0,-0.00714236222786,0.0102152900088,-0.999922314238,0.0,0.441754741973,-0.0278315990011,0.304811775512,1.0,-0.11998,-0.157688,3.484
0.0627437663507,-0.290397273041,-0.128610401826,-2.44432190118,-0.0320964316812,2.14829241132,-0.216980823303,-0.377624763916,-0.348205305138,-0.0141120134232,-0.321224457372,-0.0544636919131,-0.0149712792087,-0.332937050462,0.57384770244,0.818938579458,0.00437771409634,0.0,0.818919921011,-0.573772204021,-0.0116776609764,0.0,-0.00705161219113,0.0102863942481,-0.999922229405,0.0,0.440326533119,-0.0297777771203,0.304842950301,1.0,-0.11998,-0.157688,3.496
0.0549672390204,-0.297498673835,-0.128680468299,-2.4509561159,-0.0331473505013,2.14803360247,-0.223955849864,-0.364759094977,-0.339997613159,-0.00106808092985,-0.313276309583,-0.052478824893,-0.0146412484154,-0.333112168907,0.573879210448,0.818915497057,0.00456151251447,0.0,0.818899964165,-0.573804265672,-0.0115004473155,0.0,-0.00680061012387,0.0103354890501,-0.999923461755,0.0,0.437879649803,-0.0330791431808,0.304920792273,1.0,-0.11998,-0.157688,3.517
0.0501549771817,-0.301884145364,-0.128675627731,-2.45516894515,-0.033834523559,2.14776040373,-0.228335092386,-0.378137811432,-0.330364316462,0.00233842564074,-0.322510384837,-0.063725260282,-0.0198756745646,-0.338634876626,0.57378722929,0.818980195611,0.00451681320891,0.0,0.818963793468,-0.573711989139,-0.0115587805681,0.0,-0.00687519484888,0.0103315860712,-0.999922992047,0.0,0.436293053524,-0.035081872898,0.304899421733,1.0,-0.11998,-0.157688,3.53
0.0421974936829,-0.308833153667,-0.128726203384,-2.46188438078,-0.0349771943379,2.14729325565,-0.235463046831,-0.378019919561,-0.326128372382,-0.003233304994,-0.310763059598,-0.0501329817151,-0.0223271550391,-0.342087252946,0.57377522842,0.818989314071,0.00438606764862,0.0,0.818970571757,-0.573699434672,-0.0117007758335,0.0,-0.00706666189864,0.0103058740765,-0.999921922577,0.0,0.433724629774,-0.0383964647615,0.30483090604,1.0,-0.11998,-0.157688,3.551
0.0372380306033,-0.313117117341,-0.128843788827,-2.46587157737,-0.0355969643947,2.14705223916,-0.239892097803,-0.382073071865,-0.329126589478,-0.00866278637993,-0.305016479932,-0.0473378871445,-0.0177711746088,-0.345397760518,0.573891071135,0.818907586183,0.00448894915971,0.0,0.818890137475,-0.573814874711,-0.0116695847556,0.0,-0.00698062008287,0.0103732264064,-0.999921830503,0.0,0.43218805109,-0.0404747881562,0.304852656008,1.0,-0.11998,-0.157688,3.564
0.0295563580012,-0.319686614224,-0.128927192408,-2.47195609348,-0.0366156465488,2.14661820718,-0.246829183296,-0.379423686622,-0.32495840516,-0.0020240193463,-0.296596542169,-0.0508383969318,-0.0186771144757,-0.349865940437,0.573903262086,0.818898666762,0.00455699938239,0.0,0.818882401259,-0.573827305766,-0.0116009899196,0.0,-0.00688523706247,0.0103896925889,-0.999922320882,0.0,0.429810342242,-0.0436353815268,0.304884133105,1.0,-0.11998,-0.157688,3.584
