nelsonifechukwu/NELSON_IML_WORK/CNN-GradCAM/train2dof/data_sample_2022-02-22-07-43-38/robot_state.csv
position_joint1,position_joint2,position_joint3,position_joint4,position_joint5,position_joint6,position_joint7,velocity_joint1,velocity_joint2,velocity_joint3,velocity_joint4,velocity_joint5,velocity_joint6,velocity_joint7,ee_T_00,ee_T_10,ee_T_20,ee_T_30,ee_T_01,ee_T_11,ee_T_21,ee_T_31,ee_T_02,ee_T_12,ee_T_22,ee_T_32,ee_T_03,ee_T_13,ee_T_23,ee_T_33,v_x,v_y,time
0.46508330639,0.547655684113,-0.124024356232,-1.35582304536,0.0795192375336,1.89415057798,0.159132744226,-0.000398244690693,-0.000660348580034,-0.000348115029771,0.000228169822206,-8.74492238782e-05,0.000105818514558,0.00123976095209,0.573805924821,0.818976846152,0.00210547093032,0.0,0.81893580829,-0.573746809071,-0.0118104988593,0.0,-0.00846468085075,0.00850134343592,-0.99992803558,0.0,0.661697322085,0.260885485704,0.303313593767,1.0,0.0,0.0,0.0
0.46508471523,0.547662793116,-0.124021518037,-1.35582025832,0.0795198478831,1.89414546001,0.159135011066,0.000535317824394,0.00111832070807,-0.000584323002531,0.00111638481508,4.87656886251e-05,-0.000130071181553,-0.000400623766726,0.573804631776,0.818977770322,0.00209837349712,0.0,0.818936616332,-0.573745520296,-0.0118170754549,0.0,-0.00847415286758,0.00849929115927,-0.999927972798,0.0,0.661695697691,0.260888047546,0.303309346622,1.0,-8e-05,-0.000105142857143,0.005
0.465085039539,0.547658863883,-0.124019672588,-1.35582093255,0.0795195929699,1.89415142522,0.159136393895,9.4464919935e-05,-0.00088641442334,0.000406114406228,0.000719157868041,-0.000171604574858,0.00048893934909,0.000857581441367,0.573804212109,0.818978043729,0.00210640861229,0.0,0.81893699468,-0.573745069388,-0.0118127473117,0.0,-0.00846600212575,0.00850338381903,-0.999928007044,0.0,0.661696343576,0.260889667302,0.303312266019,1.0,-0.0004,-0.000525714285714,0.021
0.46508501616,0.547646145786,-0.124024701628,-1.35583058977,0.0795185254547,1.89414898914,0.159127097908,0.000165527110641,-0.0031941058302,-0.000647064849315,-0.00188242320198,-0.000272985144606,5.39882942685e-05,-0.00173948380723,0.573800337239,0.818980759746,0.00210595619155,0.0,0.818939726105,-0.573741218164,-0.0118104397873,0.0,-0.00846441204535,0.00850164920269,-0.999928035255,0.0,0.661695201049,0.260885423533,0.303316631907,1.0,-0.00072,-0.000946285714286,0.037
0.465086095433,0.547598649936,-0.124019413002,-1.35586685063,0.0795198478831,1.89415455401,0.159136452233,0.00114272097412,-0.00385017876102,0.000395680252174,-0.00402840432647,-0.00142677177224,-0.000812851034966,0.00174494402152,0.573805701719,0.818976953732,0.00212434251849,0.0,0.818936092958,-0.573746442985,-0.0118085441061,0.0,-0.00845225424842,0.00851567465239,-0.999928018751,0.0,0.661687684686,0.260886112798,0.303333329805,1.0,-0.00106,-0.00139314285714,0.054
0.465080424114,0.547491020314,-0.124024623687,-1.35599554603,0.0795163015205,1.89419047381,0.159131359483,-0.00126463610956,-0.00960751724429,-0.00126228793403,-0.0100389320026,-6.66503593496e-05,0.00247542689964,0.000154108811964,0.573815961825,0.818969726773,0.00213903853151,0.0,0.818929031525,-0.57375661837,-0.0118038596818,0.0,-0.00843987871786,0.00852512798468,-0.999928042731,0.0,0.661671065049,0.260867347607,0.303351603897,1.0,-0.00136,-0.00178742857143,0.069
0.465071838449,0.547363496733,-0.124019755875,-1.35618012313,0.0795177020192,1.89423375538,0.159130572601,-0.000556675888526,-0.00716807818944,-0.000113041609295,-0.012288162083,0.000263727998506,0.00233601147,0.000511902938801,0.573829472493,0.818960267237,0.0021363724263,0.0,0.818919368526,-0.573769967452,-0.0118253627721,0.0,-0.00845887877812,0.00853542277316,-0.999927794357,0.0,0.661641788723,0.260847411139,0.303357683416,1.0,-0.00168,-0.002208,0.085
0.465047016732,0.54717390422,-0.124022159353,-1.35641821697,0.0795100528535,1.89435714533,0.15911426839,-0.00549949462501,-0.0106006864046,-0.000630310588246,-0.0141380456462,-0.000136050860145,0.000696912022212,-0.000790515648122,0.573849609781,0.818945981696,0.00220257123658,0.0,0.818905945925,-0.573789845737,-0.0117903163111,0.0,-0.00839198072745,0.00856973209016,-0.999928064588,0.0,0.661624271859,0.260810975193,0.303389436198,1.0,-0.00206,-0.00270742857143,0.104
0.4650384532,0.546976257825,-0.124024075771,-1.35664820142,0.079509593701,1.89448574639,0.159105041011,0.000738215053277,-0.0103810209284,-0.00141126038125,-0.0141992516322,-5.14919314048e-05,0.0049803240185,-0.00241617896272,0.573863360046,0.818936104532,0.00229076237924,0.0,0.818897167812,-0.573803208992,-0.0117495872855,0.0,-0.00830787438954,0.00861872240042,-0.999928345856,0.0,0.661605101796,0.260788167336,0.303431196847,1.0,-0.0024,-0.00315428571429,0.121
0.465012707368,0.546775469966,-0.124019731542,-1.35693663103,0.0795039222342,1.89460618924,0.159079116386,0.00109942876788,-0.0113588265037,-0.000386287046129,-0.0215195145133,-0.000142049591764,0.0102250224253,-0.000915577805153,0.573874886617,0.818927928329,0.00232585788587,0.0,0.818889342321,-0.573814492715,-0.0117439297045,0.0,-0.00828298053346,0.00864433299228,-0.999928331302,0.0,0.661574302144,0.260749309384,0.30344642727,1.0,-0.00272,-0.00357485714286,0.137
0.464971516921,0.546501082684,-0.124020102552,-1.35732991188,0.0794971039348,1.89474682305,0.158977417743,-0.00434044493503,-0.0104692349049,-0.00136593293227,-0.0238541583509,0.000316692472059,0.00570223489475,-0.00680689515321,0.573845728223,0.8189482778,0.0023548650767,0.0,0.818909911844,-0.573785065375,-0.0117474226048,0.0,-0.00826950431241,0.00866979755224,-0.999928222378,0.0,0.661530571024,0.260687207278,0.303465769187,1.0,-0.00308,-0.004048,0.155
0.464942313455,0.546241701628,-0.124017309736,-1.35771422394,0.0794849494782,1.89488175264,0.158918943105,0.000647739272331,-0.0187000507141,0.00154030679689,-0.0303341536786,-0.000163089356488,0.00582266237503,-0.000544025542652,0.573838014788,0.818953636783,0.00237075620633,0.0,0.818915355672,-0.573777165823,-0.0117537706827,0.0,-0.0082656666093,0.00868637633643,-0.999928110227,0.0,0.661483784962,0.260634481931,0.30347812667,1.0,-0.00338,-0.00444228571429,0.17
0.464903672211,0.545973097439,-0.124017555691,-1.35817253211,0.0794686531197,1.89503904,0.158897196769,-0.00121236351255,-0.021891630854,0.000847058746796,-0.028166614697,-7.08993799029e-05,0.0123707131908,-0.00302725436334,0.573873310197,0.818928968412,0.00234849746787,0.0,0.818890280247,-0.573812417064,-0.0117798914179,0.0,-0.00829945710866,0.00868349421557,-0.999927855368,0.0,0.661428076187,0.260565934701,0.303463812906,1.0,-0.0037,-0.00486285714286,0.186
0.464834561476,0.545599047167,-0.124020103577,-1.35880050521,0.079413729184,1.89524675423,0.158805067581,-0.00330188145108,-0.0233491282625,0.00340244997742,-0.0310668511283,-0.00448898804213,0.0145525209092,-0.0135821016584,0.57387666608,0.818926756698,0.00229917255833,0.0,0.818887547147,-0.573816084994,-0.0117912098986,0.0,-0.00833699559665,0.00864963053461,-0.999927836594,0.0,0.661356829398,0.260454313648,0.30344776359,1.0,-0.00408,-0.00536228571429,0.205
0.464778745982,0.545246476832,-0.124023347314,-1.3594179368,0.0793314151348,1.8954385797,0.158735787577,-0.00297540695183,-0.0260155880276,-0.000329846478617,-0.0469532219043,-0.00633274410977,0.0113152035773,-0.00283442398873,0.573885502491,0.818920822105,0.00220546033315,0.0,0.818880721637,-0.573825618384,-0.0118012845922,0.0,-0.0083989297461,0.00857876025512,-0.999927928829,0.0,0.661279485091,0.260335668307,0.30341576464,1.0,-0.00442,-0.00580914285714,0.222
0.464712796105,0.544811355686,-0.124025798042,-1.36015304523,0.0793190591397,1.89567128611,0.158642660504,-1.31731228132e-05,-0.0286785070051,-0.000322509470991,-0.0413551646514,-0.000572582648581,0.0106199597799,-0.00452855604536,0.573897400027,0.818912575852,0.00217123363941,0.0,0.818871723598,-0.573837336789,-0.0118557200936,0.0,-0.00846302629071,0.00858209400169,-0.999927359786,0.0,0.661189766316,0.260233749644,0.303398460883,1.0,-0.00476,-0.006256,0.239
0.464637500687,0.544385982989,-0.124034284042,-1.36088051418,0.079289761292,1.8959173187,0.158573534273,-0.00355476435237,-0.0223256358505,-0.00131939684833,-0.0437407452221,-0.000530114825354,0.012310665285,-0.000292005040612,0.573941112822,0.818882051778,0.00212865914222,0.0,0.818840517349,-0.573881085381,-0.0118934390086,0.0,-0.00851789051492,0.00856933095934,-0.99992700339,0.0,0.66110593592,0.260110230423,0.303374856552,1.0,-0.0051,-0.00670285714286,0.256
0.464578969719,0.54392704649,-0.124034438709,-1.36161821699,0.0792607711349,1.89618657355,0.158471249441,-0.00183677418983,-0.0291388992884,-0.000554803346557,-0.0437820165409,-0.00284598833603,0.0193455277379,0.000376275098546,0.57393881695,0.818883660993,0.00212862803899,0.0,0.818841973385,-0.573878636265,-0.0119113543285,0.0,-0.00853260356286,0.00857956377882,-0.999926790201,0.0,0.661018890131,0.260003482118,0.303371831787,1.0,-0.00542,-0.00712342857143,0.272
0.464499444475,0.543413780189,-0.124034575463,-1.36245249264,0.0792137888011,1.89645868734,0.158369085062,-0.00643032030818,-0.0283072774561,-0.000223971723768,-0.0460160393988,-0.00231520521337,0.0148435711494,-0.00457091580353,0.573954134053,0.818873026552,0.00208932756646,0.0,0.818830736565,-0.57389402177,-0.0119425095336,0.0,-0.00858051152795,0.0085654232589,-0.999926501472,0.0,0.660917966866,0.259869400911,0.303361446681,1.0,-0.00576,-0.00757028571429,0.289
0.464422261969,0.542882161254,-0.124035016677,-1.36330703895,0.079162422168,1.89676849811,0.158245537471,-0.0016690314014,-0.026319532567,0.000920660478146,-0.0470509414146,-0.00311711852116,0.0130020572012,-0.0071677709179,0.573950344905,0.818875711734,0.00207779118893,0.0,0.818833251919,-0.573890261322,-0.0119507494597,0.0,-0.0085939198008,0.00856066610968,-0.999926427063,0.0,0.660819963245,0.259736386126,0.303357613331,1.0,-0.0061,-0.00801714285714,0.306
0.464351138075,0.542329889541,-0.124036793523,-1.36416382649,0.0791154933451,1.89707187685,0.158135300329,-0.00726874721175,-0.0339659356687,0.00103790328587,-0.0559444487877,-0.00372878059802,0.0170622040946,-0.00661804536109,0.573954601666,0.818872724197,0.00207934924177,0.0,0.818830223718,-0.573894450358,-0.0119570679983,0.0,-0.00859815539614,0.0085656131195,-0.999926348286,0.0,0.660719061889,0.259606897155,0.303366746692,1.0,-0.00642,-0.00843771428571,0.322
0.464264963935,0.541676502053,-0.124039273879,-1.36517490226,0.0790527189811,1.89744332657,0.158001048491,-0.00400873273338,-0.0414719412886,0.00085598037534,-0.0557156700809,-0.00902234970243,0.0197384991541,-0.00766603528022,0.573956369212,0.81887145968,0.00208941704403,0.0,0.818829106184,-0.573896191724,-0.0119500163464,0.0,-0.00858658416261,0.00856982848054,-0.999926411598,0.0,0.660603634373,0.25945213276,0.303379779629,1.0,-0.00678,-0.00891085714286,0.34
0.464192635521,0.541145917687,-0.124042391247,-1.36599664664,0.0790000597534,1.89774219193,0.157906257353,-0.00618132976062,-0.0315872932835,0.00106265705338,-0.0643010521949,-0.00148298882826,0.0241205730985,-0.00674212457665,0.573971667502,0.818860726512,0.00209341410384,0.0,0.818818455125,-0.573911501574,-0.0119445723639,0.0,-0.0085796719573,0.00857013722145,-0.999926468285,0.0,0.660510010223,0.259323727696,0.303389752747,1.0,-0.00706,-0.00927885714286,0.354
0.464103837061,0.540446420911,-0.124045005114,-1.36705316014,0.0789420854103,1.89812972003,0.157766832265,-0.00658382164831,-0.0415083736149,-0.00073287745468,-0.0638790020392,-0.0100848375304,0.0205205096767,-0.00772059380617,0.573975077811,0.818858261504,0.00212238548879,0.0,0.818816316637,-0.573914741306,-0.0119355026223,0.0,-0.00855558133014,0.00858869027364,-0.999926515514,0.0,0.660388627192,0.259164249664,0.303414981567,1.0,-0.0074,-0.00972571428571,0.371
0.463996623941,0.539631333446,-0.124048183827,-1.36829523453,0.0788678915216,1.89860080613,0.157613026008,-0.00468490940794,-0.0479255832126,-0.000991593294447,-0.0705734927472,-0.00527738848292,0.0226949581336,-0.00391064012492,0.573988148005,0.818849003796,0.00215912771891,0.0,0.818807554461,-0.573927677132,-0.011914574286,0.0,-0.00851721811125,0.00860690022549,-0.999926686445,0.0,0.66024966622,0.258974829261,0.303440707059,1.0,-0.00778,-0.0102251428571,0.39
0.463892603145,0.53892676617,-0.124051368429,-1.36939222639,0.0788095814196,1.89901119949,0.157478736082,-0.00826247356127,-0.046563801088,-0.00015546671714,-0.0718622816759,-0.00191124605273,0.0299292607412,-0.0192244256629,0.574010705175,0.818833143037,0.00217740902007,0.0,0.818791873907,-0.57395009889,-0.0119120992782,0.0,-0.00850446130701,0.00862068329349,-0.999926676291,0.0,0.660127274627,0.258801746336,0.303452023808,1.0,-0.0081,-0.0106457142857,0.406
0.463789936267,0.538148761236,-0.124059851146,-1.37058735699,0.0787423937876,1.89947253498,0.157333438568,-0.00843543963061,-0.0381848343101,-0.000298499097671,-0.0717253747889,-0.00153270304855,0.0239570485159,-0.00707803311485,0.574029898497,0.818819587827,0.00221475131347,0.0,0.81877882085,-0.573969155908,-0.011891067838,0.0,-0.00846560331309,0.00863938626795,-0.999926844607,0.0,0.659995399605,0.258617829299,0.303472966582,1.0,-0.00844,-0.0110925714286,0.423
0.463694339979,0.537426594136,-0.124063453246,-1.37169338374,0.0786679589824,1.89988441098,0.157190609114,-0.00460963984622,-0.0528119016511,0.000105386588834,-0.0698199372081,-0.00500597405952,0.0271436312756,-0.00669607435178,0.574034810868,0.818816093335,0.00223340721374,0.0,0.818775649421,-0.573974075441,-0.0118719643325,0.0,-0.0084392000951,0.00864374666099,-0.99992703011,0.0,0.659870040537,0.258446744996,0.303492284933,1.0,-0.00874,-0.0114868571429,0.438
0.463567719648,0.536554229942,-0.12406993403,-1.37306317885,0.0785953634905,1.90040171229,0.157022778175,-0.0107916802648,-0.043876877342,-0.000486121932187,-0.0753601237196,-0.0075045498901,0.0225538308993,-0.0141007958926,0.574061719475,0.818797174044,0.00225320042698,0.0,0.818756930689,-0.574000843859,-0.0118687235575,0.0,-0.00842490056734,0.00865837001966,-0.999927024177,0.0,0.659716842866,0.258231634409,0.303501234491,1.0,-0.0091,-0.01196,0.456
0.463452380596,0.535646328193,-0.124076235028,-1.37451114112,0.0785143917313,1.90093001648,0.156840775219,-0.00758113797561,-0.0498442407731,0.000472961793181,-0.0810849864454,-0.00134192422022,0.0209301907135,-0.0108171804257,0.574069486651,0.818791752309,0.0022444930111,0.0,0.818751338941,-0.574008586321,-0.0118800132282,0.0,-0.00843906106633,0.00865780144291,-0.99992690969,0.0,0.659545801178,0.258014671905,0.303498828144,1.0,-0.00946,-0.0124331428571,0.474
0.463339858719,0.534797685674,-0.124076931263,-1.37585595974,0.0784362597365,1.90140533592,0.156689717763,-0.00789131432945,-0.0464013470009,-0.000195438373917,-0.0831966348571,-0.00680419974634,0.0341039685668,-0.0157453237854,0.574091178832,0.81877658761,0.00222819877394,0.0,0.81873589023,-0.57403026703,-0.0118971208224,0.0,-0.00846219337563,0.00865450505049,-0.999926742729,0.0,0.659384069433,0.257811176445,0.303498738304,1.0,-0.00978,-0.0128537142857,0.49
0.463205264823,0.533838049575,-0.124080422081,-1.37743332494,0.0783506924936,1.90196808553,0.156508133112,-0.00616493882084,-0.0610322026772,-0.000619731691969,-0.0882770895329,-0.00312968099329,0.0295724065126,-0.0094070402308,0.574118627582,0.818757458335,0.00218467060239,0.0,0.818716068038,-0.574057759502,-0.0119346383333,0.0,-0.00851761102705,0.00864068946617,-0.999926391685,0.0,0.659195019303,0.257570100836,0.303473782164,1.0,-0.01014,-0.0133268571429,0.508
0.463100487332,0.53308636446,-0.124083048075,-1.37864992272,0.0782815881244,1.90243287708,0.156342266674,-0.00856621220218,-0.0540670998594,0.000180851273612,-0.0803910373381,-0.00695613649687,0.0340687425454,-0.0110134220542,0.574118640549,0.818757449064,0.00218473749122,0.0,0.818716033718,-0.574057745902,-0.0119376464846,0.0,-0.00852003554103,0.00864247137897,-0.99992635563,0.0,0.659055763473,0.257385307707,0.30346518576,1.0,-0.01042,-0.0136948571429,0.522
0.462968936505,0.532136594191,-0.124085820412,-1.38019297172,0.0781993319681,1.90302163519,0.156150859846,-0.00843251090895,-0.0501152700128,-0.00102391155907,-0.0894266770923,-0.00106580154382,0.0413412518523,-0.0148503487149,0.574134013366,0.818746671427,0.00218394695595,0.0,0.818705161269,-0.574073034295,-0.0119481005881,0.0,-0.00852888673813,0.00864798608804,-0.999926232493,0.0,0.65887775302,0.25715292714,0.303451482671,1.0,-0.01076,-0.0141417142857,0.539
0.462838319186,0.531144621398,-0.124083315205,-1.38179495174,0.0780939110192,1.90359454306,0.155946308203,-0.00841696517829,-0.0655033570019,-0.000753772912387,-0.100243959985,-0.00508172624475,0.0363363088925,-0.00889478022935,0.574130624317,0.818749143845,0.00214769064737,0.0,0.818707168626,-0.574069802048,-0.0119658396557,0.0,-0.0085642615173,0.00862845084544,-0.9999260989,0.0,0.658683345867,0.256913021369,0.30343767722,1.0,-0.0111,-0.0145885714286,0.556
0.462704231493,0.530110934775,-0.124086527724,-1.38343992782,0.0779971474536,1.90417843781,0.15572654703,-0.0111765351848,-0.0591162493845,-0.000685678980267,-0.0993991605622,-0.0118855503432,0.0383320206485,-0.00721644259603,0.57412611039,0.818752367586,0.00212528607556,0.0,0.818710028173,-0.574065309027,-0.0119857265789,0.0,-0.00859345445663,0.00862147759392,-0.999925908588,0.0,0.658483456612,0.25666511802,0.303433723402,1.0,-0.01144,-0.0150354285714,0.573
0.462552905664,0.52895427078,-0.124089398447,-1.38528289871,0.0778768380415,1.90485782393,0.155488130292,-0.0096283777066,-0.0632927775956,-0.000162675600993,-0.0939001937209,-0.00682513415879,0.0385763414019,-0.014222514951,0.574124521058,0.818753514256,0.00211284509622,0.0,0.818711072071,-0.574063831282,-0.0119851985409,0.0,-0.00860018105372,0.00861097183383,-0.999925941283,0.0,0.658264719074,0.256386874855,0.303430141467,1.0,-0.01182,-0.0155348571429,0.592
0.462421865292,0.527918235959,-0.124084355048,-1.38690418694,0.0777807841528,1.90548180103,0.155245197335,-0.0121942234614,-0.0619473092175,0.00119968992773,-0.100671287093,-0.0110666264357,0.0401789718855,-0.015254899944,0.574091507348,0.818776574013,0.00214707692448,0.0,0.818734544178,-0.57403064559,-0.0119712570515,0.0,-0.00856946187084,0.00863064921934,-0.999926035373,0.0,0.658074755836,0.256151490846,0.303441812338,1.0,-0.01214,-0.0159554285714,0.608
0.462268408841,0.526693486572,-0.124092233565,-1.38876155223,0.0776631871996,1.90619112569,0.155002080486,-0.00850184491527,-0.06892920451,-0.00124603051494,-0.104824952182,-0.00336581615034,0.0401757417151,-0.0100918320846,0.574092464779,0.818775742643,0.00220727065246,0.0,0.818734595353,-0.574031456029,-0.0119288206632,0.0,-0.00850014986515,0.00865558154772,-0.999926411473,0.0,0.657860852876,0.255870637513,0.30348144666,1.0,-0.0125,-0.0164285714286,0.626
0.462123235338,0.525600729621,-0.124098199656,-1.39049209235,0.0775508592387,1.90681421047,0.154763720964,-0.0093722716587,-0.0672792082246,-0.00155307138686,-0.108771367935,-0.00984864053835,0.0423491873365,-0.0181825961613,0.574083338053,0.81878219014,0.00218928767745,0.0,0.818740849419,-0.574022444918,-0.0119331942578,0.0,-0.00851415058832,0.00864327365562,-0.999926398822,0.0,0.657652579607,0.255604728709,0.303480751552,1.0,-0.01282,-0.0168491428571,0.642
0.461968915051,0.524427061863,-0.124100745348,-1.39234999204,0.0774367772486,1.90748053398,0.154503821383,-0.00819710088366,-0.0679156842014,-0.000635790163335,-0.114955956959,-0.0136988986577,0.0369670547309,-0.0197144531081,0.574076046349,0.818787334171,0.0021774551371,0.0,0.818745792598,-0.574015154996,-0.0119446992455,0.0,-0.00853044044213,0.00864011429875,-0.999926287289,0.0,0.657441127819,0.255340266552,0.303481223696,1.0,-0.01314,-0.0172697142857,0.658
0.461830647716,0.523373840501,-0.124107164574,-1.39402912358,0.0773316759271,1.90808888351,0.154290569621,-0.0113103623384,-0.0691946105964,0.000210126932542,-0.113668100837,-0.00758136322663,0.0381867247558,-0.0216776014078,0.574072706869,0.818789737165,0.00215416850671,0.0,0.818747912272,-0.574011931667,-0.0119543027796,0.0,-0.0085517066521,0.00862652601034,-0.99992622296,0.0,0.657222965902,0.255067605227,0.303473890651,1.0,-0.01346,-0.0176902857143,0.674
0.461665537359,0.522145675064,-0.124108883514,-1.39596636557,0.0772128052147,1.90885165317,0.154025736498,-0.0141214029954,-0.0714560427488,-0.00105988379552,-0.110443472481,-0.010410965491,0.0433780042729,-0.0181413323985,0.574064315918,0.818795508765,0.00219611417272,0.0,0.818754285773,-0.574003426739,-0.0119261276705,0.0,-0.00850464645368,0.00864460864916,-0.999926468162,0.0,0.657000337173,0.254776780937,0.303481134627,1.0,-0.0138,-0.0181371428571,0.691
0.46148529747,0.520831393618,-0.124111734682,-1.39809793301,0.0770745523972,1.90966119908,0.153733459732,-0.00715930846419,-0.069809195449,0.000541737302392,-0.118440435575,-0.0139411697759,0.0405248843674,-0.0150382842207,0.574051360527,0.818804631121,0.00218138343481,0.0,0.818763294697,-0.573990612337,-0.0119243912833,0.0,-0.00851181707143,0.00863141590923,-0.999926521115,0.0,0.656747956653,0.254453539309,0.303460139586,1.0,-0.01416,-0.0186102857143,0.709
0.461307828822,0.519525277757,-0.12411741767,-1.40014218963,0.0769523083068,1.910412194,0.153461444837,-0.0119864547566,-0.0776439067682,0.00119195990003,-0.121856435781,-0.0067130373548,0.0406600559923,-0.0142561264697,0.574053883739,0.818802834144,0.00219186318711,0.0,0.818761603206,-0.573993061281,-0.0119226514492,0.0,-0.00850435027153,0.00863902411394,-0.999926518945,0.0,0.656502580986,0.254139400032,0.303469564828,1.0,-0.0145,-0.0190571428571,0.726
0.461135868685,0.518178451437,-0.124121885117,-1.40224588016,0.07681340814,1.91115328302,0.153183409315,-0.0150446210137,-0.0831527805786,0.000993562343433,-0.125436021984,-0.00255417637708,0.044474241513,-0.00910698146412,0.574044134601,0.818809720509,0.00217256345555,0.0,0.818768267577,-0.573983421499,-0.011929071832,0.0,-0.00852078861867,0.00862680582586,-0.999926484489,0.0,0.65624072489,0.253819806333,0.303477952878,1.0,-0.01484,-0.019504,0.743
0.460952333607,0.516810491322,-0.124127452969,-1.40436586897,0.0766750907092,1.91191726086,0.152891449163,-0.0060840596448,-0.0818231224341,0.000999605790503,-0.121694376729,-0.00762088183375,0.0361869562455,-0.019287441856,0.574034043325,0.818816782775,0.00217721186577,0.0,0.818775436067,-0.573973358883,-0.0119212200568,0.0,-0.00851179732458,0.00862599982263,-0.999926568021,0.0,0.655982523973,0.253492004882,0.303495009778,1.0,-0.01518,-0.0199508571429,0.76
0.460761593853,0.515450813671,-0.124136550681,-1.40654455343,0.0765404034013,1.91275465096,0.152586805572,-0.0105805334467,-0.0861688641648,-0.00142891375164,-0.127032483759,-0.00345752946221,0.0556116985601,-0.0180791057987,0.574026234325,0.818822231061,0.00218703648406,0.0,0.81878107526,-0.573965575,-0.0119086696205,0.0,-0.00849596334811,0.00862675895396,-0.999926696132,0.0,0.655726488668,0.253155904195,0.303484452534,1.0,-0.01552,-0.0203977142857,0.777
0.46058874252,0.514146818451,-0.12413981074,-1.40865006814,0.0764225516214,1.91351109591,0.152305885092,-0.0135072497906,-0.0824281215797,0.000174140871897,-0.131642156335,-0.0141115148348,0.0462067201132,-0.0169489108582,0.574019172864,0.818827271162,0.00215315739584,0.0,0.818785517421,-0.573958493611,-0.0119444956019,0.0,-0.00854482027799,0.00861950953041,-0.999926342338,0.0,0.655462611625,0.252840214953,0.303462103714,1.0,-0.01584,-0.0208182857143,0.793
0.460388456607,0.512728577914,-0.124137661047,-1.41091498268,0.0762841351094,1.91429331411,0.151982097719,-0.0116407091673,-0.079466200967,-8.32457837416e-05,-0.137261618016,-0.0103490719673,0.0458339615229,-0.0257341497543,0.573985498464,0.818851044853,0.00208825234245,0.0,0.818808279523,-0.573924926582,-0.0119969551447,0.0,-0.00862538524834,0.00859612208849,-0.999925851958,0.0,0.655155232945,0.252477474025,0.303438224545,1.0,-0.0162,-0.0212914285714,0.811
0.46020491497,0.511383336491,-0.124142376862,-1.4130896491,0.0761473350046,1.91510647811,0.15167755325,-0.0113734188095,-0.0902913277313,5.50418306241e-05,-0.136471277197,-0.00606074807248,0.055622799007,-0.0232864869373,0.573979042162,0.818855588525,0.00208115397988,0.0,0.818812777797,-0.573918547864,-0.0119950921052,0.0,-0.00862800145098,0.00858917231668,-0.999925889109,0.0,0.654909501432,0.252160533601,0.30342332464,1.0,-0.0165,-0.0216857142857,0.826
0.46001706121,0.510005280846,-0.124143362975,-1.41527269435,0.0760137133157,1.91593946771,0.151370637012,-0.0103426639518,-0.0828223063257,-0.000109431331904,-0.136531969113,-0.00151445039353,0.0511909187851,-0.018271781838,0.573960319117,0.818868656986,0.0021027570877,0.0,0.818826128641,-0.573899737469,-0.011983709325,0.0,-0.00860647792145,0.00860013165315,-0.999925980397,0.0,0.654646105522,0.251830913958,0.303421234902,1.0,-0.01682,-0.0221062857143,0.842
0.459802741755,0.508408194409,-0.124146551702,-1.41778981353,0.0758496856736,1.91683547976,0.151028253084,-0.0110463955505,-0.0862276384577,0.000897026130555,-0.138220063491,-0.0118717934806,0.0507960310396,-0.0166685303797,0.57394403863,0.818880134177,0.00207684222143,0.0,0.818837270586,-0.57388357019,-0.0119966273001,0.0,-0.00863210033909,0.00858615384865,-0.999925879656,0.0,0.65432912038,0.251445464365,0.303418426501,1.0,-0.01718,-0.0225794285714,0.86
0.459591496854,0.50688058391,-0.124145000882,-1.42017744881,0.0756980396129,1.91770720002,0.150694086611,-0.0127310814546,-0.0879492426931,0.00135323719311,-0.137394590729,-0.00975793420171,0.0566305494094,-0.0149148898228,0.573924946699,0.818893495999,0.00208438676207,0.0,0.818850709909,-0.573864428197,-0.011994991984,0.0,-0.00862663159232,0.008591192122,-0.999925883576,0.0,0.654032876802,0.251079648027,0.303425828933,1.0,-0.01752,-0.0230262857143,0.877
0.459381831428,0.505372053084,-0.124152865525,-1.42249711368,0.075554169062,1.91858298578,0.150372429857,-0.0113988410516,-0.0908674179228,0.000691383350102,-0.152985974009,-0.006557358699,0.0552636247409,-0.0237433627326,0.573919921231,0.818896884703,0.00213615068263,0.0,0.81885481555,-0.573859229979,-0.0119633656928,0.0,-0.00857107813038,0.008615377042,-0.999926153222,0.0,0.653753587844,0.250718737879,0.303452338182,1.0,-0.01784,-0.0234468571429,0.893
0.459158515849,0.503716933875,-0.124161292073,-1.42497952228,0.0753944899313,1.91953265932,0.15003679982,-0.0173776455415,-0.0971241296719,-0.000366206354537,-0.145358312315,-0.00480947737857,0.0498523936316,-0.0122430043554,0.573905618402,0.818906655934,0.00223090450391,0.0,0.818865941963,-0.573844666128,-0.0119002164012,0.0,-0.00846513674787,0.00865657943683,-0.99992669986,0.0,0.653438663623,0.250314923737,0.303506583564,1.0,-0.0182,-0.02392,0.911
0.458928414642,0.502029920301,-0.124164862981,-1.42747476007,0.0752323338756,1.92045287645,0.149688046139,-0.0114239068851,-0.103652211802,-0.000294704384823,-0.150934963846,-0.0169197121794,0.04996396959,-0.0201069293451,0.57390796066,0.818904750376,0.00232581256541,0.0,0.818865339168,-0.573846703562,-0.0118433112412,0.0,-0.00836404499564,0.00870166543116,-0.999927159232,0.0,0.653152473221,0.249943782938,0.303579614955,1.0,-0.01852,-0.0243405714286,0.927
0.458696801274,0.500325746253,-0.124160732195,-1.4300622531,0.0750660406095,1.92136800571,0.149317750655,-0.0111474313897,-0.101185024018,0.00110946386096,-0.152522199439,-0.0108227238168,0.0586968722483,-0.0149557124586,0.573878291628,0.818925465313,0.0023527773444,0.0,0.818886348469,-0.573816875047,-0.0118359242578,0.0,-0.00834283706225,0.00871920511294,-0.999927183615,0.0,0.652822616901,0.249545798748,0.303616425486,1.0,-0.01886,-0.0247874285714,0.944
0.45847853807,0.498835128284,-0.124169960367,-1.43237141531,0.0749254468062,1.92221961782,0.148984743996,-0.018334393169,-0.10448382191,-0.00238562030534,-0.159680912346,-0.00674065472226,0.062403679855,-0.0265083940125,0.573870589962,0.818930784115,0.0023798542574,0.0,0.818892004531,-0.573809054567,-0.0118237351338,0.0,-0.00831739889851,0.00873430564254,-0.999927263745,0.0,0.652538829048,0.249178767746,0.30363113258,1.0,-0.01916,-0.0251817142857,0.959
0.458215153344,0.497169474983,-0.124165726615,-1.435022748,0.0747562678836,1.92320042865,0.148590907074,-0.0182021594845,-0.103279344739,-0.000355799772825,-0.16148282247,-0.0179887124011,0.0523623064537,-0.0248338161452,0.573849563933,0.818945539206,0.00237248601299,0.0,0.818906637406,-0.573788031792,-0.0118304981023,0.0,-0.00832738989564,0.00873193883716,-0.999927201261,0.0,0.652211487281,0.248756190688,0.303615313264,1.0,-0.0195,-0.0256285714286,0.976
0.457939646155,0.495400509568,-0.124163223674,-1.43787273866,0.0745779094444,1.9241733562,0.148174656967,-0.0136101652376,-0.0953848646566,-0.000405593674009,-0.159467840017,-0.0133834001449,0.0579589172879,-0.0183699599792,0.573827925786,0.818960958694,0.0022818027924,0.0,0.818920694766,-0.573766561844,-0.0118985333356,0.0,-0.00843537453171,0.00869649366642,-0.999926605034,0.0,0.651839757475,0.248300779821,0.303575680099,1.0,-0.01986,-0.0261017142857,0.994
0.457636792156,0.493556875524,-0.124182985896,-1.44087839587,0.0743887076231,1.92524979072,0.147760207468,-0.0175354308895,-0.113599665682,-0.00104911613184,-0.174748452253,-0.0151315637969,0.0640915813969,-0.027002627041,0.573850822319,0.81894513483,0.00220153648919,0.0,0.818903815379,-0.573789768194,-0.0119411044361,0.0,-0.00851605423108,0.00865542587452,-0.999926277494,0.0,0.651463818456,0.247802387007,0.303522954335,1.0,-0.0252662857143,-0.0332071183673,1.012
0.457375467303,0.491423460069,-0.124248968999,-1.44411772731,0.0742128024213,1.92647815919,0.147286973263,-0.0199948858766,-0.1481381847,-0.00227283478837,-0.233510831823,-0.0167123744367,0.0889057063261,-0.0350543107847,0.573840264736,0.818952250545,0.00230408235672,0.0,0.818912347413,-0.573778884116,-0.0118788172476,0.0,-0.00840631216276,0.00870355269586,-0.999926788363,0.0,0.6510668497,0.247292428959,0.303574173513,1.0,-0.0324748571429,-0.0426812408163,1.027
0.45691995162,0.4882895697,-0.124262712231,-1.44916298673,0.0739382861416,1.92833083046,0.146540807221,-0.0287302860287,-0.190560892967,-0.000891110141185,-0.301312149052,-0.01519197346,0.1081524993,-0.0424987488476,0.573790312312,0.818987345138,0.00227000047895,0.0,0.818946575136,-0.573728637871,-0.0119458805486,0.0,-0.00848132400482,0.00871360741254,-0.999926067361,0.0,0.650419920506,0.246512594247,0.303513008567,1.0,-0.0411251428571,-0.0540501877551,1.045
0.45637808081,0.484776628634,-0.124341208449,-1.45466147651,0.0736057828292,1.93041102456,0.145705612024,-0.0368312045064,-0.232022332484,-0.00625927242456,-0.353513804828,-0.0284359345955,0.134218791935,-0.0604803158491,0.573789539514,0.818987703089,0.00233525913578,0.0,0.818948013325,-0.573727842775,-0.0118853185149,0.0,-0.00839428814074,0.00873229539121,-0.999926638781,0.0,0.64975179427,0.245596409353,0.303518438226,1.0,-0.0488142857143,-0.0641559183673,1.061
0.455691874543,0.480378799179,-0.124450291834,-1.46160318594,0.0731955380901,1.93282351484,0.14465154316,-0.0439598921235,-0.273528742103,-0.00566362733941,-0.44157699436,-0.0217526833491,0.154689647706,-0.0646262478772,0.573796405207,0.818983219957,0.00221758904931,0.0,0.818941880246,-0.573735059057,-0.0119593348436,0.0,-0.00852235005623,0.00867846697495,-0.999926024144,0.0,0.648859078673,0.244420395281,0.303477294265,1.0,-0.056984,-0.0748932571429,1.078
0.454973536154,0.475878167671,-0.124547672017,-1.46854754325,0.0727743860085,1.93530209672,0.143650975382,-0.0549275063763,-0.309452862709,-0.00303436997669,-0.470699650153,-0.0302736852743,0.177009076799,-0.0696258833799,0.573858898695,0.818939377357,0.00223774536298,0.0,0.818898343033,-0.573797506104,-0.0119445664175,0.0,-0.00849802668948,0.00868714895412,-0.999926155766,0.0,0.64797893186,0.243235058629,0.30350659695,1.0,-0.0641925714286,-0.0843673795918,1.093
0.453993477116,0.469842798689,-0.124631904174,-1.47786321526,0.0722287321418,1.93867568477,0.142260372641,-0.0526429531958,-0.357910109429,-0.0018093417721,-0.538184438488,-0.0299699781846,0.197119742122,-0.0792028428731,0.573883783968,0.818921696125,0.00232486875335,0.0,0.818881525614,-0.573821757672,-0.0119324905849,0.0,-0.00843787760968,0.00875182342035,-0.999926101174,0.0,0.6467871804,0.241669512257,0.303539842985,1.0,-0.0728428571429,-0.0957363265306,1.111
0.452916973017,0.463432692966,-0.124674190118,-1.48759264805,0.0716047147997,1.94228235811,0.140663876796,-0.0682498897078,-0.387062023141,-0.00688335426121,-0.605516799157,-0.0370500228092,0.212962283983,-0.096474906538,0.573777363072,0.818995570737,0.00255727219105,0.0,0.818958530653,-0.573714564326,-0.011801298768,0.0,-0.00819822496024,0.0088657886579,-0.999927090792,0.0,0.645469173634,0.239920378491,0.30364979768,1.0,-0.0814931428571,-0.107105273469,1.129
0.451619294954,0.455993306877,-0.12475942275,-1.49920904784,0.0708482772285,1.94619920779,0.138930988448,-0.0721487585089,-0.426059130245,-0.00804081383063,-0.679642878771,-0.034094029031,0.224339971378,-0.108531782114,0.573817416245,0.818968197543,0.00232618323945,0.0,0.818927810371,-0.573755150756,-0.0119588997411,0.0,-0.00845946182117,0.00876736989641,-0.999925782611,0.0,0.64398041771,0.238012960624,0.303577301056,1.0,-0.0896628571428,-0.117842612245,1.146
0.450273548396,0.448176015098,-0.124885271559,-1.51083932545,0.0700394033196,1.95048869166,0.137076866822,-0.0824183531234,-0.46778709475,-0.00216625067481,-0.695346683376,-0.0401930709109,0.259137577655,-0.110595845779,0.573801875135,0.818978018459,0.00267586870096,0.0,0.818943103021,-0.573739284633,-0.011669369493,0.0,-0.00802186055545,0.00888746142513,-0.999928328823,0.0,0.642489914242,0.235966278656,0.303781557813,1.0,-0.0978325714286,-0.12857995102,1.163
0.448962892456,0.440900085855,-0.124917277829,-1.5219368823,0.069332710504,1.95440277238,0.135355026246,-0.08878547577,-0.4964205842,-0.00201402043002,-0.781602303662,-0.053834770345,0.263827766982,-0.123246333551,0.573792577402,0.818984243102,0.00276307263099,0.0,0.818950050333,-0.573729228392,-0.0116762343945,0.0,-0.00797755005183,0.00896272765806,-0.999928011513,0.0,0.640988113783,0.234048656629,0.303820259533,1.0,-0.105041142857,-0.138054073469,1.178
0.447336608288,0.432030025686,-0.124973390788,-1.53529284254,0.0684215143536,1.95909362524,0.133158011937,-0.094812483171,-0.540732217503,-0.00477958872153,-0.783753353117,-0.0516641644846,0.296112236318,-0.128859513444,0.573700689138,0.81904807711,0.00291780155597,0.0,0.819015917809,-0.5736368595,-0.01159425287,0.0,-0.00782264260761,0.0090415308584,-0.999928525937,0.0,0.639168783457,0.231695543085,0.303925447351,1.0,-0.113210857143,-0.148791412245,1.195
0.445665001585,0.423267386774,-0.125023751031,-1.54861580097,0.067478388038,1.96373627973,0.130964041604,-0.104046786718,-0.564623152573,-0.00487798075167,-0.826499794758,-0.0620535179777,0.299442712553,-0.147233224766,0.573618858526,0.819105261071,0.00295352842487,0.0,0.819073691666,-0.573555070216,-0.0115592366455,0.0,-0.00777437002792,0.00904992779958,-0.999928826456,0.0,0.637324356871,0.229318064282,0.30395037759,1.0,-0.1209,-0.158897142857,1.211
0.44370682991,0.413356801609,-0.125148314439,-1.56357243334,0.0664011163604,1.96891490455,0.128531124274,-0.110566325395,-0.606689318431,-0.0128780250814,-0.898308314007,-0.0607788780225,0.330614910938,-0.141813329301,0.573646615551,0.819085614522,0.00301055654301,0.0,0.819055222428,-0.573583158032,-0.0114738980791,0.0,-0.00767144802884,0.00904794906027,-0.999929639276,0.0,0.635244947622,0.226561394196,0.304004428247,1.0,-0.129069714286,-0.169634481633,1.228
0.441549489093,0.403011803553,-0.12521748489,-1.5794589465,0.0653428945877,1.97423285409,0.125877019513,-0.132211200541,-0.620783100845,-0.00662526735487,-0.959745956438,-0.0632455992761,0.304122444323,-0.162942682775,0.573643300975,0.819088563037,0.00283479278339,0.0,0.819054985957,-0.573579367415,-0.0116784483743,0.0,-0.0079398577128,0.00902128852683,-0.999927784899,0.0,0.632950281771,0.223631874233,0.303896677942,1.0,-0.137239428571,-0.180371820408,1.245
0.439169416198,0.391970418343,-0.125351826393,-1.59581481552,0.0641698194692,1.97989600517,0.123059219408,-0.142113625777,-0.65095542489,-0.0130661241447,-0.983877989153,-0.0760036219817,0.331028779955,-0.175163167631,0.573700542442,0.819047551619,0.00308912461663,0.0,0.819017623806,-0.573636179461,-0.0115070590838,0.0,-0.00765294226882,0.00913182935747,-0.999929018564,0.0,0.630640589554,0.220494108944,0.30403604613,1.0,-0.145409142857,-0.191109159184,1.262
0.436788970415,0.381224755051,-0.125477511742,-1.61199266226,0.0629315654867,1.98521853944,0.120177323113,-0.152596150583,-0.70058988058,-0.0118254302718,-1.01174307207,-0.0778487780213,0.344541945228,-0.180024293701,0.573648041853,0.819084898236,0.00293265437557,0.0,0.819053197554,-0.57358447886,-0.0115521464931,0.0,-0.00778021349625,0.00902903999561,-0.999928969835,0.0,0.628254482991,0.217360961333,0.304003284438,1.0,-0.153098285714,-0.201214889796,1.278
0.434032524165,0.369290227673,-0.125592922778,-1.62982255525,0.0616251969034,1.99115227972,0.117016572154,-0.165418673938,-0.707979863273,-0.00535966040328,-1.07341765439,-0.0781529221947,0.356292673159,-0.194994722496,0.573689752509,0.819055671527,0.00293627436648,0.0,0.819023820943,-0.573625944041,-0.0115760076098,0.0,-0.00779722165166,0.00904608975692,-0.999928683254,0.0,0.625606232464,0.213869045427,0.303999439243,1.0,-0.161268,-0.211952228571,1.295
0.431039341179,0.356850303434,-0.125772135393,-1.64816202355,0.0601637721693,1.99723692522,0.113705116869,-0.18249768401,-0.745908230351,-0.00823431706904,-1.10154925463,-0.092102331358,0.353959413329,-0.20322488184,0.57379184521,0.818983928523,0.00299834837421,0.0,0.818953703861,-0.573728790128,-0.0114391089088,0.0,-0.00764835482234,0.00901934956528,-0.999930074556,0.0,0.622872315852,0.210146043748,0.304065176532,1.0,-0.169437714286,-0.222689567347,1.312
0.427798132473,0.343957994877,-0.125931752786,-1.66710562506,0.0587769300817,2.00337372191,0.110111614783,-0.197042546169,-0.771379654613,-0.00984813142737,-1.11080498059,-0.0846506882811,0.378883099406,-0.215035559457,0.573871406738,0.818927927845,0.00306666355432,0.0,0.818898037034,-0.573807481475,-0.0114771967913,0.0,-0.00763946957858,0.00909789499557,-0.999929430916,0.0,0.619973713086,0.206255737801,0.304106017591,1.0,-0.177607428571,-0.233426906122,1.329
0.424409996779,0.330696916807,-0.126026469879,-1.68668441572,0.0572524283496,2.00961498017,0.106372320951,-0.204124483429,-0.806728505498,-0.00954907099146,-1.15474543946,-0.0885655672793,0.364024183327,-0.225103164869,0.573847626459,0.818944935581,0.00297338097213,0.0,0.818913387427,-0.573783469077,-0.0115819431637,0.0,-0.00777904661979,0.00908138692312,-0.999928504867,0.0,0.616882741848,0.202259250946,0.304051822536,1.0,-0.185777142857,-0.244164244898,1.346
0.420578536747,0.31607210882,-0.126099046954,-1.70793521418,0.0554351403766,2.01639133589,0.102195532467,-0.222785916531,-0.796560614771,-0.00824707600754,-1.20104391406,-0.0980439443924,0.372758781396,-0.234170119147,0.573733123963,0.819025071379,0.00299696881434,0.0,0.818994473967,-0.573669662617,-0.0114854997751,0.0,-0.00768779019833,0.00904428669441,-0.999929546898,0.0,0.613485085114,0.197855850185,0.304089263328,1.0,-0.194427428571,-0.255533191837,1.364
0.416709623083,0.301793372117,-0.126184749961,-1.72846421308,0.0537339052849,2.02282289437,0.0979336347454,-0.236694465681,-0.86221046264,-0.00507297041113,-1.21340852988,-0.0989503063735,0.380099494468,-0.248862775522,0.573567418183,0.819140741042,0.00310001035841,0.0,0.819111448892,-0.573503631096,-0.0114353099993,0.0,-0.00758940722949,0.00909835038012,-0.999929807996,0.0,0.610136578105,0.193527661752,0.304158843817,1.0,-0.202597142857,-0.266270530612,1.381
0.412504450677,0.287085670266,-0.12634303554,-1.74948682274,0.052028575296,2.02924551806,0.0936094106694,-0.252736788698,-0.870024884949,-0.00972926380179,-1.24097618278,-0.105618220858,0.384266771474,-0.25540610432,0.573660204659,0.819075486757,0.00317229979286,0.0,0.819046624582,-0.573595579566,-0.0114666806334,0.0,-0.00757260567918,0.00917641647088,-0.999929222007,0.0,0.606652022259,0.188940552133,0.304215731939,1.0,-0.210766857143,-0.277007869388,1.398
0.408303755648,0.272951433806,-0.126496397368,-1.76972320614,0.0502962046211,2.03529098262,0.0892561093267,-0.269093766321,-0.912656612522,-0.0152429202066,-1.26037427911,-0.10962347378,0.394398791241,-0.281764008072,0.573649765893,0.81908315704,0.00307812373807,0.0,0.819052802827,-0.573585105865,-0.0115490004994,0.0,-0.00769417399624,0.00914640340451,-0.999928568944,0.0,0.603221249718,0.184450004882,0.304189327145,1.0,-0.218456,-0.2871136,1.414
0.403792494949,0.258477382848,-0.126676441204,-1.79030764479,0.0484813025662,2.04138526272,0.0847606049506,-0.290788629581,-0.904368994651,-0.0113788803823,-1.29169103717,-0.118170034901,0.370473577275,-0.29152371925,0.573741696456,0.819019049122,0.00300163686513,0.0,0.818987664746,-0.573677224102,-0.011592861656,0.0,-0.00777295347899,0.00910978707151,-0.999928293916,0.0,0.599690972312,0.17975730382,0.304163283355,1.0,-0.226145142857,-0.297219330612,1.43
0.398377844155,0.241699569756,-0.12685749893,-1.8138923947,0.0463493661887,2.04823358807,0.0793968724136,-0.299745777827,-0.924744749705,-0.0100188442856,-1.3393624458,-0.112981097858,0.375687697737,-0.298711538651,0.57378726631,0.818987250926,0.00296694163181,0.0,0.818955362917,-0.573722839005,-0.0116174203048,0.0,-0.00781246735633,0.00909589572329,-0.999928112433,0.0,0.59556249587,0.174292142755,0.304171260945,1.0,-0.234795428571,-0.308588277551,1.448
0.393087921765,0.225405833661,-0.126984153485,-1.83638174426,0.0443440294079,2.05478850891,0.0740742653553,-0.315834456018,-0.955822474578,-0.00740373691296,-1.35072685017,-0.124338514008,0.380022985803,-0.325980670442,0.573689285303,0.819055025797,0.00319617688448,0.0,0.819025771872,-0.573623733629,-0.011547472774,0.0,-0.00762475949324,0.00924259059115,-0.999928216204,0.0,0.591296303289,0.168780630099,0.304264420175,1.0,-0.243445714286,-0.31995722449,1.466
0.38741096442,0.208796218833,-0.127155820058,-1.85922945575,0.0421612803383,2.0611476426,0.0685122140949,-0.345377196687,-0.975355012041,-0.0103013679094,-1.33687451947,-0.1204499467,0.363149887452,-0.331616647944,0.573645495865,0.819085427063,0.00326422244983,0.0,0.819057280227,-0.573580017128,-0.0114840132254,0.0,-0.00753424016588,0.00926151593588,-0.999928727234,0.0,0.587373130865,0.163649280093,0.304341838787,1.0,-0.251134857143,-0.330062955102,1.482
0.380953470658,0.190860680343,-0.127359878225,-1.88379089395,0.0398074720645,2.067800019,0.0622747119515,-0.36285582727,-1.00276960556,-0.00994318844366,-1.36051522496,-0.128908083,0.363662778016,-0.352838122323,0.573633439539,0.819093994986,0.00323285044349,0.0,0.819065108609,-0.573567650247,-0.0115431949656,0.0,-0.00760084958667,0.00926965610059,-0.999928147699,0.0,0.58279154119,0.157637906755,0.304344946292,1.0,-0.259785142857,-0.341431902041,1.5
0.374735629797,0.174527578447,-0.127652365559,-1.90584521781,0.0376652846126,2.07373536857,0.0564433655993,-0.387149359113,-1.04623475638,-0.0141327836193,-1.38325658186,-0.134208802504,0.375743241116,-0.372761037945,0.573806231893,0.818972451585,0.00335837549451,0.0,0.818945224479,-0.573740079801,-0.0114798533877,0.0,-0.00747499296531,0.0093377167683,-0.999928463204,0.0,0.578653331477,0.152003009861,0.304404198548,1.0,-0.267474285714,-0.351537632653,1.516
0.368279892232,0.157924203982,-0.127844379892,-1.92810400058,0.0353657163276,2.07944393037,0.0503866891705,-0.409092133397,-1.06488794334,-0.0157472419666,-1.39062068181,-0.14609967238,0.37772508634,-0.376510428992,0.573780450904,0.818990542607,0.00335144479123,0.0,0.818963415857,-0.573714560137,-0.0114574812381,0.0,-0.00746093974806,0.00931896884431,-0.99992874306,0.0,0.574063125368,0.145965357891,0.30444006914,1.0,-0.275644,-0.362274971429,1.533
0.360654196129,0.139004050686,-0.128055411568,-1.95337603122,0.0327435918106,2.08577766328,0.0432752845119,-0.43872561777,-1.08211235399,-0.0196951357866,-1.39943868908,-0.143236338536,0.360263007652,-0.40154320835,0.573779786698,0.818991437109,0.00324487586593,0.0,0.818962544313,-0.573713742388,-0.0115602642075,0.0,-0.00760627396441,0.00929065660024,-0.99992791155,0.0,0.569317906237,0.139782550496,0.304392398817,1.0,-0.283813714286,-0.373012310204,1.55
0.352998341838,0.120715940957,-0.128319457693,-1.97742731252,0.0302196528957,2.09161990167,0.0361265510245,-0.459682577946,-1.10142882384,-0.017481618908,-1.40316291486,-0.14589758307,0.343547719134,-0.422937311072,0.573754284045,0.819009202065,0.00327037828101,0.0,0.818980263929,-0.57368770312,-0.0115971326358,0.0,-0.00762212929157,0.00933245947895,-0.999927401537,0.0,0.564452085401,0.133395793618,0.304406406439,1.0,-0.291983428571,-0.38374964898,1.567
0.345774312849,0.104286828967,-0.128634899295,-1.99887674682,0.0278208094337,2.09668241391,0.029572897751,-0.48808446296,-1.09319085683,-0.0191092139484,-1.4294544734,-0.156747982369,0.322000608885,-0.445636680175,0.573866106663,0.818931090201,0.00321061148415,0.0,0.818901737364,-0.573800139168,-0.0115797985783,0.0,-0.00764095486965,0.00927460781336,-0.999927796123,0.0,0.560046321043,0.127497098108,0.3043919225,1.0,-0.299192,-0.393223771429,1.582
0.336824587307,0.0842927709204,-0.128873448775,-2.02468484778,0.0250304283088,2.10248514751,0.0212736123659,-0.508899465858,-1.10024288997,-0.0182894705139,-1.44816935412,-0.150857804178,0.306625387295,-0.468837214477,0.573736250313,0.819022090621,0.00320578435409,0.0,0.818991593376,-0.573669007966,-0.0117211850851,0.0,-0.00776099980613,0.00935055924338,-0.999926164236,0.0,0.554569135795,0.120458590457,0.304370566245,1.0,-0.307842285714,-0.404592718367,1.6
0.327825861458,0.0650897171698,-0.12916397091,-2.04903577511,0.0221813521421,2.10782739007,0.0130645554926,-0.547287920134,-1.10929179039,-0.0134560795602,-1.43532523716,-0.175543709213,0.308585347446,-0.494177770631,0.573651692514,0.819080831729,0.0033277125094,0.0,0.819052334392,-0.57358457132,-0.0116086162647,0.0,-0.00759981683212,0.00938505375834,-0.999927079116,0.0,0.549635471751,0.113995159076,0.30444513372,1.0,-0.30998,-0.407402285714,1.616
0.318895041281,0.0471460961141,-0.129481988062,-2.07151403645,0.0195389839435,2.11240881885,0.00519156352095,-0.564834971172,-1.11513447651,-0.0228225360005,-1.41546639173,-0.163082760514,0.277601714866,-0.499339916419,0.573836326676,0.818951700627,0.00327553478247,0.0,0.818922271784,-0.573769036033,-0.0116684603545,0.0,-0.00767665281577,0.00937837537597,-0.999926554841,0.0,0.544376393354,0.106950683092,0.304452972177,1.0,-0.30998,-0.407402285714,1.633
0.308656683344,0.0270867741718,-0.129691588871,-2.09626893088,0.0165988761153,2.11726066592,-0.00387501923419,-0.578903428132,-1.11485744051,-0.0139870137929,-1.36004137848,-0.172792132347,0.257444553837,-0.507471779457,0.573848882721,0.818942439001,0.00338944011639,0.0,0.818914053586,-0.573780682117,-0.0116725562736,0.0,-0.00761450304487,0.00947412592747,-0.999926127412,0.0,0.538782459331,0.0996516089825,0.304523501949,1.0,-0.30998,-0.407402285714,1.651
0.299258687105,0.00946999002916,-0.129926979597,-2.11772249987,0.0138927247675,2.12129492129,-0.0121805953635,-0.588943886585,-1.09157335123,-0.0189987437541,-1.32779082967,-0.169412463345,0.239212183624,-0.520281249925,0.573846335642,0.818943852727,0.00347793778741,0.0,0.818917075177,-0.57377843321,-0.0115706727526,0.0,-0.00748030964737,0.00948811347612,-0.999927007671,0.0,0.533847840672,0.0931176623336,0.304595506615,1.0,-0.30998,-0.407402285714,1.667
0.290165184704,-0.0069167508155,-0.130136661109,-2.13739263723,0.011468523817,2.12479919765,-0.0202077790058,-0.607136550668,-1.10291540894,-0.0135992538571,-1.28444610423,-0.169714615588,0.25430767643,-0.548342947683,0.573873073214,0.818924323774,0.00365987327441,0.0,0.818899700519,-0.573804357908,-0.0115146096571,0.0,-0.00732968381182,0.00960517848857,-0.999927005477,0.0,0.529231768083,0.0869908013933,0.304685664084,1.0,-0.30998,-0.407402285714,1.682
0.278447995435,-0.0274198490226,-0.130342492802,-2.16181686022,0.00827848561239,2.12884991556,-0.0305480527329,-0.631877405632,-1.09871849378,-0.0159296636207,-1.25211171911,-0.162614010106,0.213014664243,-0.544371516091,0.573768458911,0.818997395681,0.00371056980852,0.0,0.81897359293,-0.573699827269,-0.0114677450646,0.0,-0.00726343992772,0.00961887429392,-0.99992735721,0.0,0.523341918511,0.0793131682147,0.304737659568,1.0,-0.30998,-0.407402285714,1.701
0.26814129918,-0.0443716633762,-0.130644938333,-2.18205319203,0.00566034456158,2.13196189128,-0.0395230343237,-0.6447116338,-1.05336398347,-0.0156369579642,-1.26862053513,-0.149208186729,0.173258963963,-0.562792260153,0.573908461191,0.81889980626,0.00359616203785,0.0,0.818873517574,-0.573838845616,-0.0116571170936,0.0,-0.00748253751907,0.00963510549645,-0.999925585418,0.0,0.518350985367,0.0727068401464,0.304641867907,1.0,-0.30998,-0.407402285714,1.717
0.257062165406,-0.0624113530871,-0.130822759681,-2.20286956284,0.0028800394997,2.13503776726,-0.0492796111411,-0.656981123479,-1.06059281282,-0.0122997878784,-1.23489196429,-0.15827896732,0.168778001343,-0.577585461963,0.573818414611,0.818961891947,0.00382014314483,0.0,0.81893883201,-0.573748557687,-0.0115121187681,0.0,-0.00723632426884,0.0097345167251,-0.999926434692,0.0,0.513120323706,0.0658648748573,0.304748205556,1.0,-0.30998,-0.407402285714,1.734
0.247626619165,-0.0770403437087,-0.131058213892,-2.21967490359,0.000545691956635,2.13726725562,-0.0574998358463,-0.686064451193,-1.04648464499,-0.017173150721,-1.19346851029,-0.162044528013,0.165935774171,-0.592713165467,0.573860240211,0.818932504341,0.00383730894304,0.0,0.818909686838,-0.573790354654,-0.0115022002657,0.0,-0.00721785377577,0.0097432524601,-0.999926483107,0.0,0.508488781864,0.0597235428402,0.304773516814,1.0,-0.30998,-0.407402285714,1.749
0.235226263552,-0.0956199932143,-0.131304487155,-2.24094240507,-0.0024015895202,2.1397828769,-0.068407309336,-0.68768767736,-1.03844097091,-0.0169430547473,-1.15523663797,-0.155451805041,0.150110405171,-0.605659537378,0.573806539806,0.818970599901,0.0037360773162,0.0,0.818945557369,-0.573735752801,-0.0116707722241,0.0,-0.00741464095299,0.00975659719162,-0.999924913136,0.0,0.503180774127,0.0528242128989,0.304708339759,1.0,-0.30998,-0.407402285714,1.766
0.222528967223,-0.114008113629,-0.131563867419,-2.26176204179,-0.00541620287613,2.14194191069,-0.0795341043979,-0.713366622525,-1.00297478588,-0.020723820381,-1.15694576341,-0.168400796684,0.109247511227,-0.617884444905,0.573744457468,0.819015025174,0.00352604098718,0.0,0.818986382122,-0.573673263267,-0.0118760184062,0.0,-0.00770399040004,0.00970176607768,-0.999923259189,0.0,0.497528630976,0.0455279915322,0.304614606711,1.0,-0.30998,-0.407402285714,1.784
0.210097997503,-0.131287374201,-0.131869694272,-2.28076208149,-0.0081714664161,2.14377028056,-0.0903939418163,-0.727582215858,-1.01263006577,-0.0132727171112,-1.10709557331,-0.161097554498,0.10170589682,-0.637368304772,0.5738113234,0.818967700489,0.00363560115366,0.0,0.818940369815,-0.573739592394,-0.0118447333734,0.0,-0.00761471233651,0.00977417086866,-0.999923237924,0.0,0.492282848016,0.0385759287616,0.304666614798,1.0,-0.30998,-0.407402285714,1.801
0.198165091583,-0.147382631904,-0.132111754562,-2.29827949841,-0.0107529959657,2.14529826349,-0.100951459241,-0.75159503627,-0.982691816038,-0.0191579641559,-1.08365181072,-0.160083874211,0.0881502564049,-0.653348730738,0.573725617117,0.819027269444,0.00374099884283,0.0,0.819001309,-0.573653537687,-0.0117992142792,0.0,-0.00751798577652,0.00983358377003,-0.999923387325,0.0,0.487335167691,0.0320905743398,0.304696440252,1.0,-0.30998,-0.407402285714,1.817
0.183528957262,-0.166214289114,-0.132506815497,-2.31852925258,-0.0138091003261,2.14664547883,-0.11370394804,-0.759304336724,-0.990770517616,-0.0148723967801,-1.02875832911,-0.152821540218,0.0693147939856,-0.681192888298,0.573882832615,0.818917098824,0.00374520833407,0.0,0.81889049913,-0.573809809298,-0.0118911769,0.0,-0.0075889969203,0.00989124824171,-0.999922282147,0.0,0.481440327685,0.0242986299999,0.304698215915,1.0,-0.30998,-0.407402285714,1.836
0.172578017453,-0.179941388432,-0.132715897781,-2.33310095193,-0.0160546724814,2.14745219439,-0.123452428486,-0.790579415185,-0.976760838943,-0.0192411987546,-1.02145634243,-0.162762503274,0.055191525934,-0.702395136593,0.573759229299,0.819003687313,0.00374884821497,0.0,0.818976824419,-0.573685807019,-0.011929073327,0.0,-0.0076194407253,0.00991482661582,-0.999921817112,0.0,0.477092596129,0.0186476830741,0.304699114894,1.0,-0.30998,-0.407402285714,1.85
0.159633275003,-0.195565745047,-0.133088823828,-2.34934876922,-0.0186445734359,2.14825475265,-0.134800302798,-0.804531934121,-0.978859939707,-0.00961719725865,-1.00802254727,-0.156720849258,0.0491432244854,-0.710847358068,0.573875042631,0.818921878413,0.00389093853596,0.0,0.818897449121,-0.573801883635,-0.0117946200294,0.0,-0.00742638750958,0.00995510938067,-0.999922869308,0.0,0.472161302094,0.0120570682454,0.304767726902,1.0,-0.30998,-0.407402285714,1.866
0.14403679644,-0.213719327787,-0.133393365719,-2.36817519933,-0.0215118554245,2.1487328573,-0.148708020978,-0.833086571333,-0.942502815941,-0.0244288416621,-0.955723270363,-0.141932637255,0.0215489616606,-0.730829504978,0.573795232602,0.818977730863,0.00390567471697,0.0,0.818951815079,-0.573719794404,-0.0120112026606,0.0,-0.0075962908564,0.0100907245007,-0.999920233641,0.0,0.466237247234,0.00440126825842,0.304734682058,1.0,-0.30998,-0.407402285714,1.885
0.129665546149,-0.229760201842,-0.133708950564,-2.38448434285,-0.0242660457512,2.14902325086,-0.161447905883,-0.85817317119,-0.940067374602,-0.0120571178121,-0.955930491762,-0.15488830695,0.00500376730339,-0.770306359625,0.573748951751,0.819010160988,0.00390428803515,0.0,0.818984768635,-0.573674246191,-0.0119396357945,0.0,-0.00753903868853,0.0100480994116,-0.999921096184,0.0,0.460983825779,-0.00251427273901,0.304752490006,1.0,-0.30998,-0.407402285714,1.902
0.116694098418,-0.243804896644,-0.134010782634,-2.39844886072,-0.0265482871729,2.14913600698,-0.172997440293,-0.878987241747,-0.93324818377,-0.0301914074416,-0.904654829102,-0.148659216111,0.00852456203403,-0.773597094052,0.573763427359,0.818999068752,0.00409898891161,0.0,0.818976693544,-0.573688704547,-0.011797991693,0.0,-0.00731114133315,0.0101264275005,-0.999921998297,0.0,0.456377873522,-0.00860809414846,0.304830035589,1.0,-0.30998,-0.407402285714,1.917
0.101646456625,-0.259440974526,-0.134347438765,-2.41402840399,-0.0291452891022,2.14905388472,-0.186489850951,-0.884004316264,-0.937405703382,-0.0159029797754,-0.914991878407,-0.154731907832,-0.00169417352961,-0.807914396729,0.573703695587,0.819040653074,0.00415032328594,0.0,0.819018744111,-0.573628531116,-0.0118047441847,0.0,-0.00728796185209,0.0101718137685,-0.999921706843,0.0,0.451091534078,-0.0155163507714,0.304808903146,1.0,-0.30998,-0.407402285714,1.934
0.0871186576463,-0.273961181251,-0.1347646995,-2.42805053067,-0.0315647065774,2.14884263745,-0.199454617215,-0.916905948729,-0.900338860628,-0.0267765709522,-0.85575524598,-0.152058553027,-0.0174303598465,-0.814820741962,0.573810193236,0.818964802566,0.00438875801445,0.0,0.818947079643,-0.573735828113,-0.011559722519,0.0,-0.0069491519494,0.0102274440816,-0.999923551415,0.0,0.446205735582,-0.0220819642943,0.30490676301,1.0,-0.30998,-0.407402285714,1.95
0.0714126263993,-0.289032513493,-0.135081016589,-2.4427097828,-0.0340049965967,2.14826474602,-0.213619885947,-0.932455744649,-0.894424045161,-0.0258817094222,-0.853451456505,-0.141076867748,-0.0349007462792,-0.84018963834,0.573765178024,0.818996187502,0.00441726670758,0.0,0.818977780935,-0.573689185904,-0.0116986842485,0.0,-0.00704717533688,0.0103301398237,-0.999921809709,0.0,0.4409100585,-0.028946507095,0.304860260456,1.0,-0.30998,-0.407402285714,1.967
0.0542694810646,-0.304693383396,-0.135526640065,-2.45746874477,-0.0367120204693,2.14755318118,-0.22905085809,-0.956549459775,-0.844804093596,-0.0156773127819,-0.795077463267,-0.140393599335,-0.0448544815403,-0.853503009818,0.573810174708,0.818963923863,0.00455211094827,0.0,0.818948490122,-0.573735602892,-0.0114706321567,0.0,-0.00678245638422,0.0103101083314,-0.999923847076,0.0,0.435409216467,-0.0363420759027,0.304936822984,1.0,-0.30998,-0.407402285714,1.985
0.0368625122483,-0.320011412335,-0.135923157543,-2.47196427723,-0.0392811626563,2.14649447839,-0.244832920537,-0.98485864879,-0.856943117065,-0.0346506301,-0.782674582046,-0.147064551391,-0.0507119117162,-0.889703853081,0.573789874387,0.818978332032,0.00451869602144,0.0,0.818961459796,-0.57371388664,-0.0116297268681,0.0,-0.00693218912157,0.0103738571378,-0.999922160892,0.0,0.429792988239,-0.0436268428655,0.304878104957,1.0,-0.30998,-0.407402285714,2.003
0.0210262743015,-0.333368048438,-0.136261945918,-2.48424950596,-0.041482348044,2.14553413149,-0.25931177265,-0.990360230657,-0.818718372345,-0.0215136127699,-0.770373612878,-0.141623918993,-0.0607648655179,-0.920922367312,0.57372636884,0.81902190112,0.00468252971709,0.0,0.819007595333,-0.573650583806,-0.0115027556787,0.0,-0.00673500258788,0.0104346625505,-0.999922875805,0.0,0.424886934097,-0.0501087743887,0.304922630552,1.0,-0.30998,-0.407402285714,2.019
0.00579423826414,-0.34564263673,-0.136659837759,-2.49552835634,-0.0436052008442,2.14435899805,-0.273111624154,-1.02495366155,-0.794785356141,-0.0228516176541,-0.750406578856,-0.146430042874,-0.0812269646975,-0.920581172803,0.573824564035,0.818953294958,0.00464943972305,0.0,0.818937997402,-0.573747992534,-0.0115993265067,0.0,-0.0068318314884,0.0104637827919,-0.999921914615,0.0,0.420196794284,-0.0562555478999,0.304891234357,1.0,-0.30998,-0.407402285714,2.034
-0.0116738978408,-0.359254039405,-0.137016492912,-2.50762181946,-0.0458969760572,2.14300720768,-0.289227950646,-1.04299182361,-0.806745877666,-0.0206330152203,-0.718183577006,-0.124399744129,-0.0853766526599,-0.948208671645,0.573698846217,0.819040421405,0.00481340366182,0.0,0.819028253845,-0.573623405698,-0.0113866035676,0.0,-0.0065651339821,0.0104749966014,-0.999923583811,0.0,0.415002680046,-0.0631354820819,0.304984811814,1.0,-0.30998,-0.407402285714,2.051
-0.0306262057164,-0.373196808182,-0.137496666877,-2.52017844677,-0.0482908074597,2.14132646114,-0.306699623205,-1.04948733786,-0.780025008812,-0.0208476754184,-0.695061514269,-0.13071077107,-0.104230174207,-0.980296380918,0.573690335994,0.819046604637,0.00477542894623,0.0,0.819032774599,-0.57361315352,-0.0115763181848,0.0,-0.00674242505876,0.0105526578601,-0.999921587484,0.0,0.409372265149,-0.0704638935802,0.304915309914,1.0,-0.30998,-0.407402285714,2.069
-0.0500601345454,-0.386807657418,-0.137975817135,-2.53191876018,-0.0506382383334,2.13960337331,-0.324524133992,-1.09035195386,-0.737063249266,-0.0229181504297,-0.641868269614,-0.124249951726,-0.093592739719,-0.999733230494,0.573819745543,0.818955019194,0.0049318418628,0.0,0.81894426726,-0.573743787173,-0.0113622490529,0.0,-0.00647568194002,0.0105589897742,-0.999923283696,0.0,0.403848550836,-0.0778470159282,0.3050145533,1.0,-0.30998,-0.407402285714,2.087
-0.0675730528193,-0.398414205362,-0.13834993444,-2.54207148324,-0.0526031260628,2.1379425822,-0.340862404065,-1.11207491701,-0.706473000039,-0.0363550229259,-0.628436529404,-0.117236900582,-0.104026907074,-1.03275748622,0.573738748331,0.819011657167,0.00494984753053,0.0,0.819000333755,-0.573661446425,-0.0114780266294,0.0,-0.00656122724075,0.0106395202549,-0.999921872401,0.0,0.398878321078,-0.0843257900636,0.304973269985,1.0,-0.30998,-0.407402285714,2.103
-0.0842324120299,-0.409001370738,-0.138651725095,-2.551171551,-0.0543665178534,2.13621442237,-0.356430962066,-1.10810408653,-0.694798932452,-0.0122150473091,-0.596602711792,-0.121130901335,-0.121345031096,-1.04177999296,0.57365855887,0.819067765133,0.00495992502067,0.0,0.819055548916,-0.573579588755,-0.0116279857893,0.0,-0.00667932517751,0.0107331543273,-0.999920089814,0.0,0.394214195983,-0.0903590928125,0.30495393104,1.0,-0.30998,-0.407402285714,2.118
-0.104699145957,-0.421305999472,-0.139071750334,-2.56143962885,-0.0565501510115,2.1343533254,-0.375536749635,-1.13871387195,-0.660240535384,-0.00992115577497,-0.567875408277,-0.123558979221,-0.104478147988,-1.06962049099,0.573634603154,0.819083789282,0.0050828240628,0.0,0.819074742409,-0.573557874397,-0.011343631078,0.0,-0.00637621332402,0.0106705175622,-0.999922738995,0.0,0.38870558342,-0.0977091105561,0.305037705977,1.0,-0.30998,-0.407402285714,2.136
-0.125517492697,-0.433025041878,-0.139516049913,-2.57139374231,-0.0586113621897,2.13212771434,-0.395050668332,-1.16864516027,-0.63501432533,-0.0202912454235,-0.537121341418,-0.116392496476,-0.117551851921,-1.0878952187,0.573638882677,0.819081295539,0.0050010479569,0.0,0.819069312286,-0.573559303817,-0.0116590555731,0.0,-0.00668144539761,0.0107845001579,-0.999919523184,0.0,0.383048782726,-0.105009197511,0.304954222751,1.0,-0.30998,-0.407402285714,2.154
-0.143056488581,-0.442451018445,-0.139837377496,-2.57906391435,-0.0601768177703,2.13041560439,-0.411680863147,-1.18687255768,-0.622660586243,-0.0235736996944,-0.495460200883,-0.103014442514,-0.10900807491,-1.11108936658,0.573547161408,0.819144567901,0.00515532934477,0.0,0.819135000514,-0.573467807753,-0.0115443191807,0.0,-0.00650017607791,0.0108443309889,-0.999920070904,0.0,0.378452825587,-0.111057707082,0.305015913828,1.0,-0.30998,-0.407402285714,2.169
-0.162246495732,-0.451998124648,-0.140264622165,-2.58679841656,-0.061924582495,2.12861587894,-0.429719086277,-1.20200435909,-0.579178509132,-0.0279730315162,-0.477135076608,-0.0972206149427,-0.121733845318,-1.13826544321,0.573626739875,0.819088510834,0.00520784236015,0.0,0.81908013712,-0.573548084102,-0.0114486287063,0.0,-0.00639061526927,0.0108330883658,-0.999920898988,0.0,0.373208134808,-0.118038170523,0.305047263486,1.0,-0.30998,-0.407402285714,2.186
-0.184038216379,-0.462207601612,-0.140666742792,-2.59512851845,-0.0638158435634,2.12639662694,-0.450448051482,-1.21611021413,-0.555799770998,-0.0199199203849,-0.444684635243,-0.109539497815,-0.104045894218,-1.17566448556,0.573541712019,0.819148423447,0.00514896493151,0.0,0.819138476813,-0.573461884548,-0.0115917935051,0.0,-0.00654279021049,0.0108663015934,-0.999919554457,0.0,0.367901546181,-0.124932467727,0.305019756794,1.0,-0.30998,-0.407402285714,2.203
-0.204961372081,-0.471178390047,-0.14108663781,-2.60236338933,-0.0653451511871,2.12453273813,-0.470347427675,-1.24003878222,-0.520705410661,-0.00921744531197,-0.406829842695,-0.0921362618044,-0.110229452591,-1.16712316243,0.573631257099,0.819084782647,0.00529590560251,0.0,0.819076235842,-0.573550108765,-0.0116249523086,0.0,-0.006484479147,0.0110063983401,-0.999918402034,0.0,0.362661778143,-0.131849736303,0.305004250794,1.0,-0.304163428571,-0.39975764898,2.22
-0.22710702136,-0.479875903953,-0.141350428453,-2.60915749237,-0.0667878612592,2.12261274124,-0.491299191974,-1.23952639073,-0.461975219519,-0.0295972517024,-0.366909460743,-0.0745735299954,-0.110543974018,-1.15114849091,0.573799705645,0.81896574352,0.00545487335831,0.0,0.81895960259,-0.573718632504,-0.011525924925,0.0,-0.00630989667745,0.0110811065926,-0.999918693835,0.0,0.357273500952,-0.139037644216,0.305059435087,1.0,-0.295513142857,-0.388388702041,2.238
-0.247681573409,-0.487365592599,-0.14134826439,-2.61516915309,-0.0680327057278,2.12080325432,-0.51099724037,-1.20665218723,-0.424081061076,0.00587703552697,-0.339412000998,-0.068794671248,-0.0995656383358,-1.15400320787,0.573641081102,0.819077062761,0.00542422633958,0.0,0.819069478385,-0.573558314102,-0.0116960165671,0.0,-0.00646895332853,0.011152348544,-0.999916885428,0.0,0.352254701765,-0.145513497401,0.305007754944,1.0,-0.287343428571,-0.377651363265,2.255
-0.26579681577,-0.493288778404,-0.141387692451,-2.61987471904,-0.0689970026534,2.11934787791,-0.528154293109,-1.20308233317,-0.383020136518,-0.00188029493702,-0.299834896364,-0.0482380798145,-0.0833886078911,-1.12724843109,0.573771311049,0.818985598426,0.00546068570449,0.0,0.818977685447,-0.573687013723,-0.0118113473452,0.0,-0.00654072482827,0.0112494085767,-0.999915331278,0.0,0.347934589734,-0.15118848475,0.304973790737,1.0,-0.280134857143,-0.368177240816,2.27
-0.283631541677,-0.498735429739,-0.141327286471,-2.62408094004,-0.0698416309866,2.11805921643,-0.54514474512,-1.172273806,-0.343691484635,0.0109816531711,-0.274275032702,-0.0671755059056,-0.092407108608,-1.12111574647,0.573813950943,0.818955203769,0.00553812460217,0.0,0.818948636781,-0.573729965669,-0.0117389824698,0.0,-0.00643643666405,0.0112716485185,-0.999915757563,0.0,0.343762377518,-0.156706556137,0.304994801055,1.0,-0.272926285714,-0.358703118367,2.285
-0.304567728876,-0.504505197972,-0.14120194315,-2.62853584184,-0.0706663993707,2.11657374405,-0.565133316316,-1.16693825875,-0.298116204173,-0.00827311534981,-0.23398475211,-0.0434936266348,-0.0748208402276,-1.08839476699,0.573887437643,0.818902998308,0.00564226721038,0.0,0.818897409865,-0.573802415678,-0.0117714391436,0.0,-0.0064022435169,0.0113761380777,-0.99991479375,0.0,0.338907311939,-0.163100254998,0.304999026159,1.0,-0.264276,-0.347334171429,2.303
-0.323940955849,-0.509377569291,-0.140953699458,-2.63216415001,-0.0713134425138,2.11538303716,-0.583699089458,-1.12896799886,-0.280547832056,0.0229006571841,-0.205947847155,-0.0338053767839,-0.0647452857163,-1.06666426166,0.573880927036,0.818906751228,0.00575858303847,0.0,0.818903668682,-0.573797312848,-0.0115832675729,0.0,-0.00618147555604,0.0113633598894,-0.999916328206,0.0,0.334507381057,-0.16894567998,0.30506479278,1.0,-0.256106285714,-0.336596832653,2.32
-0.344029602886,-0.513829247217,-0.140719382542,-2.6356069742,-0.0719115418102,2.11409260068,-0.603008993371,-1.09659887321,-0.228145674227,0.0153238863515,-0.180859336701,-0.020325922977,-0.0687078601872,-1.06788459899,0.573893226663,0.818897704419,0.00581901950922,0.0,0.81889446636,-0.57380767958,-0.01171950176,0.0,-0.00625819549583,0.0114911267955,-0.999914390833,0.0,0.329909193474,-0.174938390672,0.305043436358,1.0,-0.247456,-0.325227885714,2.338
-0.36357729792,-0.517580036112,-0.140425421805,-2.63861827745,-0.0724044553858,2.1130235257,-0.621796797277,-1.06266538517,-0.194677720141,0.02736531715,-0.157970510456,-0.0255895950042,-0.0503080839656,-1.03575478931,0.573918831142,0.818879504912,0.00585479256435,0.0,0.818875532443,-0.573830954283,-0.0119014778105,0.0,-0.00638633800962,0.0116250524306,-0.999912032552,0.0,0.325467796281,-0.180705860651,0.30497473805,1.0,-0.238805714286,-0.313858938776,2.356
-0.379418726048,-0.520236981578,-0.140137165652,-2.64069390613,-0.07268888501,2.11228678672,-0.637069622904,-1.05616004504,-0.172733457439,0.0136938260773,-0.131835012841,-0.0153949417173,-0.0536779077689,-1.01754618364,0.573935746176,0.818867091506,0.0059323361121,0.0,0.818863767605,-0.573846902431,-0.0119419250834,0.0,-0.00637471949102,0.0117118982733,-0.999911093243,0.0,0.32192942265,-0.185353994132,0.304953596747,1.0,-0.231597142857,-0.304384816327,2.371
-0.397903604959,-0.52294513245,-0.139761962454,-2.64275368714,-0.0730057700939,2.11148443604,-0.654979884366,-1.00297490944,-0.144868956058,0.0259495037196,-0.109998090046,-0.0154250959025,-0.0428514289106,-0.992871027041,0.573882818746,0.81890386714,0.00597608840989,0.0,0.818900981397,-0.573793568653,-0.0119528297999,0.0,-0.00635929988733,0.0117535746141,-0.999910702407,0.0,0.317827893019,-0.190755368689,0.304952982855,1.0,-0.222946857143,-0.293015869388,2.389
-0.414957324403,-0.52509851765,-0.139421301341,-2.64433107006,-0.0732675025976,2.11083662075,-0.671379018615,-0.990110992667,-0.108504979497,0.0284847285984,-0.0824281256363,-0.0159927563027,-0.0367621494803,-0.957400797313,0.573971959495,0.81884113522,0.00601098047446,0.0,0.818839039219,-0.573883175913,-0.011894332987,0.0,-0.00629008966446,0.0117492652977,-0.999911190825,0.0,0.314063712294,-0.195729828131,0.304978687931,1.0,-0.214777142857,-0.282278530612,2.406
-0.430399073733,-0.526691011823,-0.13903975591,-2.64554589817,-0.0733745782546,2.11034472486,-0.686345786141,-0.963235467675,-0.0929149849244,0.0212503303431,-0.0729841354119,-0.0170655206203,-0.0283311188225,-0.929290200474,0.573973414321,0.818839649273,0.00607415282771,0.0,0.818838313151,-0.573884264372,-0.0118918006639,0.0,-0.00625173752295,0.0117995536627,-0.999910839181,0.0,0.310676568906,-0.20018759945,0.304977257318,1.0,-0.207088,-0.2721728,2.422
-0.445421965063,-0.527986314192,-0.138671912553,-2.64652699288,-0.0734727306084,2.10994558727,-0.700891011123,-0.915548368933,-0.0712937330731,0.0369260810175,-0.0564286215271,0.00744819219708,-0.0319141929262,-0.894672431398,0.574004680234,0.818817419352,0.00611618650757,0.0,0.818816768119,-0.573915619502,-0.01186207572,0.0,-0.00620281868424,0.0118171505667,-0.99991093603,0.0,0.307383453871,-0.204517193095,0.304980311024,1.0,-0.199398857143,-0.262067069388,2.438
-0.46081293602,-0.528979649499,-0.13827440347,-2.64728855709,-0.0734961215354,2.10959213474,-0.715773298464,-0.907375644208,-0.0518438247588,0.0165910081613,-0.0390736351887,-0.000410067225589,-0.0218761575547,-0.87535822275,0.57408557021,0.818760265972,0.00617509866737,0.0,0.81876028445,-0.57399607436,-0.0118680296928,0.0,-0.00617270759773,0.011869418658,-0.999910503286,0.0,0.304023447849,-0.208937544304,0.304977158129,1.0,-0.191229142857,-0.251329730612,2.455
-0.475560269789,-0.52965537279,-0.137771065405,-2.64779253423,-0.0734929849194,2.10932044059,-0.730133678015,-0.845647888902,-0.0335419406495,0.0328881869158,-0.0191144344866,0.00067529204874,-0.0138238893383,-0.834469496574,0.574018806065,0.81880715821,0.00616399617064,0.0,0.818807159432,-0.573929612674,-0.0118483019594,0.0,-0.00616389319633,0.0118485004602,-0.999910805751,0.0,0.300833114655,-0.21314179311,0.304984680942,1.0,-0.183059428572,-0.240592391837,2.472
-0.489015908077,-0.530021571172,-0.137385558262,-2.64808410311,-0.0734981659286,2.10913433006,-0.743104922759,-0.847454214014,-0.0128149801531,0.020144186701,-0.0111319784991,0.00203218149987,-0.014143444843,-0.802922942796,0.574124280618,0.818733271827,0.00615523432687,0.0,0.818733129137,-0.574035042192,-0.0118566643737,0.0,-0.00617424429243,0.011846921255,-0.9999107606,0.0,0.297906638413,-0.216995565453,0.304979914206,1.0,-0.175370285714,-0.230486661225,2.488
-0.503308628573,-0.530210331138,-0.136792141534,-2.64824463847,-0.0734612449642,2.10898834931,-0.757173556385,-0.77864579827,-0.0117654224598,0.026477783094,-0.00844634095029,-0.00217251153919,-0.00594145669882,-0.772817414929,0.573895805289,0.818894056771,0.00607250840474,0.0,0.818892916662,-0.573807088691,-0.0118559229619,0.0,-0.00622441632157,0.0117770253189,-0.999911275222,0.0,0.294823995789,-0.221032799386,0.304978807947,1.0,-0.16672,-0.219117714286,2.506
-0.517194662732,-0.530210493318,-0.136304126072,-2.64827324715,-0.073426049321,2.10888566304,-0.770544213418,-0.756448444111,0.00658863274736,0.0297914149307,0.00285067179164,0.00278449586547,-0.00234367620244,-0.736252102092,0.573987299805,0.818830360266,0.0060139563655,0.0,0.818828378246,-0.573898642094,-0.0118820235414,0.0,-0.00627808109786,0.0117447548693,-0.999911319283,0.0,0.291795136862,-0.224965752726,0.304969779742,1.0,-0.158069714286,-0.207748767347,2.524
-0.528008097623,-0.530065791985,-0.135771013169,-2.64820503358,-0.073277054869,2.10888162651,-0.781152982696,-0.711168245508,0.00756621107829,0.0284476301381,0.00273349683185,0.0111536802071,0.0017805336007,-0.702278983119,0.57384668142,0.818929135395,0.00598367151571,0.0,0.818926818617,-0.573758281078,-0.0118763439324,0.0,-0.00629282414121,0.0117156151929,-0.999911568452,0.0,0.28947122815,-0.227977887195,0.30496156715,1.0,-0.150861142857,-0.198274644898,2.539
-0.540594048383,-0.529774273405,-0.135285324741,-2.64803125053,-0.0731037481449,2.10887374845,-0.793281557316,-0.692656183539,0.0192751361329,0.0214351497926,0.0147577021671,0.014594993145,-0.000448850122725,-0.660266930557,0.573962888651,0.818847562658,0.00600153984835,0.0,0.818845253834,-0.573873976349,-0.0119103503074,0.0,-0.00630875524569,0.0117506577244,-0.99991105687,0.0,0.286721578795,-0.231505100848,0.304946174987,1.0,-0.142210857143,-0.186905697959,2.557
-0.550388709419,-0.529396981285,-0.134746719844,-2.64778191092,-0.0728859700055,2.10892171505,-0.802869200139,-0.641063490063,0.0294127224849,0.0347355491602,0.0164702708851,0.0194826453325,0.00398000538602,-0.626479645511,0.573859860482,0.818919840722,0.00599181948969,0.0,0.818917387552,-0.573770974558,-0.0119133547157,0.0,-0.00631827208457,0.0117436273394,-0.999911079374,0.0,0.284624025543,-0.234211972447,0.304939908167,1.0,-0.135002285714,-0.17743157551,2.572
-0.56097215287,-0.528840305759,-0.13420102297,-2.64741064471,-0.072626521973,2.10899280773,-0.813190017043,-0.611816793869,0.0338842510351,0.0288791402194,0.0242317746742,0.0191474628298,0.00243893880678,-0.582461269474,0.573822029281,0.81894624546,0.00600605196361,0.0,0.81894374299,-0.573732658447,-0.0119469389112,0.0,-0.0063381546353,0.0117742620964,-0.999910593277,0.0,0.282348618061,-0.23714569135,0.304925636204,1.0,-0.126832571429,-0.166694236735,2.589
-0.57108095182,-0.528192500403,-0.1336997626,-2.64693809245,-0.0723565279364,2.10909662336,-0.822875961434,-0.569114998626,0.0434283811815,0.0373434081744,0.0319004449443,0.0148388628343,0.0120304891277,-0.570464131238,0.573956603209,0.818851734721,0.00603333061076,0.0,0.818849589767,-0.573867099084,-0.0119435685538,0.0,-0.00631780353093,0.0117957074368,-0.999910469314,0.0,0.280177164606,-0.239960585177,0.30492561765,1.0,-0.118662857143,-0.155956897959,2.606
-0.580269849383,-0.527400749067,-0.133103144139,-2.64642425409,-0.0720184198269,2.10922472215,-0.831985739819,-0.537409048009,0.0455556703463,0.0307220384702,0.032216177521,0.0176869758289,0.00833291666355,-0.52169001802,0.573773896026,0.818979603996,0.00605568983556,0.0,0.818977225432,-0.573683359555,-0.0120189057576,0.0,-0.00636931281751,0.0118558347036,-0.999909431418,0.0,0.278236568912,-0.242481608472,0.304896084448,1.0,-0.110493142857,-0.145219559184,2.623
-0.589602769315,-0.526596994658,-0.132552979001,-2.64584812569,-0.0717093537224,2.1093448894,-0.840851609456,-0.503800101372,0.040300011257,0.0291322193791,0.0382596964229,0.0217614899187,0.0053657986786,-0.476007297607,0.573932183088,0.81886857478,0.00607069640652,0.0,0.818866153994,-0.573841107514,-0.0120562046983,0.0,-0.0063889550164,0.0118907606347,-0.999908891382,0.0,0.276239691495,-0.245054356965,0.304888329552,1.0,-0.101842857143,-0.133850612245,2.641
-0.597683060392,-0.525739452678,-0.132010683171,-2.64522949264,-0.0713755046302,2.10950103679,-0.848709595687,-0.457057103375,0.0535928246646,0.0344649876723,0.0332100788484,0.0169875787208,0.00815005626679,-0.441688583291,0.573908191327,0.81888522363,0.00609305749714,0.0,0.818882947436,-0.573816751302,-0.0120748177989,0.0,-0.00639171447534,0.0119195672143,-0.999908530768,0.0,0.27454449978,-0.247280503404,0.304882822905,1.0,-0.0936731428572,-0.12311327347,2.658
-0.604135188017,-0.524974530446,-0.131458240261,-2.644702982,-0.0710462858254,2.10962926809,-0.855072404242,-0.424956668603,0.0421133353143,0.0340499058041,0.0361277292958,0.0162505384498,0.00706645399558,-0.407633456346,0.573760820306,0.818988420462,0.00610205970786,0.0,0.818985882346,-0.573668666033,-0.0121298405255,0.0,-0.00643376234962,0.0119573582203,-0.999907809894,0.0,0.273214745695,-0.249023499372,0.304866953893,1.0,-0.0864645714287,-0.113639151021,2.673
-0.611103778172,-0.524201937309,-0.130887800743,-2.64412741263,-0.0707254648311,2.1097813021,-0.861683689257,-0.39209233313,0.0431509648235,0.034511150042,0.0346416746043,0.0224476559546,0.0166564186584,-0.379426592828,0.573818753588,0.818947904639,0.0060921605659,0.0,0.818945320701,-0.573726785383,-0.0121195848405,0.0,-0.00643019671396,0.0119438214112,-0.999907994618,0.0,0.271762922241,-0.250911883344,0.304872786809,1.0,-0.0782948571429,-0.102901812245,2.69
-0.618120877543,-0.523309849896,-0.130272510988,-2.64344569484,-0.0703151002412,2.10995851384,-0.868373882894,-0.354896368458,0.0411641911225,0.0317048431376,0.0333100343852,0.0215110629155,0.00601907962828,-0.342510228676,0.573863611933,0.818916236473,0.00612367880116,0.0,0.81891420554,-0.573771760965,-0.012092856754,0.0,-0.0063895657908,0.0119546481799,-0.999908125698,0.0,0.270329532404,-0.252813708158,0.304886078897,1.0,-0.0691640000001,-0.090901257143,2.709
-0.623040619028,-0.522639941843,-0.129782759988,-2.64295561423,-0.0699973801332,2.11009515248,-0.873088108478,-0.307965172949,0.0432188812922,0.0373213652488,0.029868574582,0.0181366153108,0.0101887612759,-0.306108263918,0.573847699675,0.818927258957,0.00614076672027,0.0,0.818925433859,-0.573755745663,-0.012092352916,0.0,-0.00637958006602,0.0119682293807,-0.999908026992,0.0,0.269335608252,-0.254130176345,0.304886901347,1.0,-0.0619554285715,-0.081427134694,2.724
-0.627990900758,-0.522018491394,-0.129166558863,-2.64248438938,-0.0696276006581,2.11022102426,-0.877856479058,-0.278111044213,0.0325280444183,0.0355660063888,0.0325269667632,0.023544199369,0.00853370654862,-0.265736701055,0.573743725095,0.819000091824,0.00614283384503,0.0,0.818998424205,-0.5736520293,-0.0120696864583,0.0,-0.00636134769244,0.0119561083007,-0.999908288159,0.0,0.268354099708,-0.255412143651,0.304898963739,1.0,-0.0537857142858,-0.0706897959185,2.741
-0.632742105177,-0.5214106682,-0.128558081552,-2.64200305662,-0.0692644420338,2.11036755883,-0.882247709331,-0.249081111666,0.035035327744,0.0348045162118,0.0237904833416,0.0198738592232,0.00406029659469,-0.228632941418,0.573788355835,0.818968879517,0.00613546993452,0.0,0.8189675332,-0.573697467921,-0.012005905477,0.0,-0.00631268092885,0.0119138288194,-0.99990910124,0.0,0.267421479386,-0.256645097745,0.304921990869,1.0,-0.0451354285715,-0.0593208489797,2.759
-0.636527420205,-0.52084404324,-0.128031579124,-2.64160249711,-0.0689044638831,2.11047080608,-0.885715147258,-0.209455035465,0.032186709822,0.028298340205,0.022639402329,0.0124956631985,0.00514546884864,-0.189432694548,0.573850943561,0.818924769541,0.00616954681233,0.0,0.818923690547,-0.573759563722,-0.0120290896905,0.0,-0.00631120452541,0.0119555226945,-0.999908612911,0.0,0.266689675416,-0.257609640563,0.304917582508,1.0,-0.0369657142858,-0.0485835102042,2.776
-0.639523677614,-0.520408143983,-0.127548222923,-2.64129889481,-0.0685927698088,2.1105455652,-0.888458304396,-0.179725092648,0.0263357781963,0.0287021546603,0.0180196749125,0.0124495317487,0.00216779031598,-0.153319642988,0.573865071361,0.818914724505,0.00618876089867,0.0,0.818913721678,-0.573773275558,-0.0120536967509,0.0,-0.0063201258236,0.011985487524,-0.999908197835,0.0,0.26612083784,-0.258350085368,0.304913528717,1.0,-0.0292765714287,-0.038477779592,2.792
-0.642175381261,-0.520063702707,-0.127017468226,-2.641064276,-0.0682670588601,2.11061367966,-0.89078292994,-0.138143165205,0.0181749475961,0.0302154446262,0.0119616519182,0.0228580601424,0.000648534193589,-0.11630335569,0.573913242742,0.818880901558,0.0061972389389,0.0,0.818879919936,-0.573821230374,-0.0120672780324,0.0,-0.00632567803055,0.0120005962414,-0.99990798151,0.0,0.265613047187,-0.258998135504,0.304911740492,1.0,-0.0206262857144,-0.0271088326532,2.81
-0.64409347642,-0.519772673703,-0.126539479367,-2.64089174645,-0.0679910038356,2.11064107176,-0.892387616277,-0.107884673921,0.0155132623764,0.0243300810169,0.01364064541,0.0189434969934,0.000166248710647,-0.10469987552,0.573953370884,0.818852777334,0.00619709649418,0.0,0.818851397742,-0.573860600936,-0.0121303755707,0.0,-0.006376844982,0.0120370028247,-0.999907218901,0.0,0.265304401745,-0.259388204796,0.304897534119,1.0,-0.0197068965517,-0.0259004926108,2.825
-0.645795646264,-0.519510316006,-0.126163796288,-2.6407114094,-0.0677797174708,2.11070624982,-0.894039482116,-0.0957469941566,0.0173249659709,0.0249428003629,0.00643971153694,0.0180923834434,0.00119389803604,-0.0944602260823,0.573827996225,0.81894072786,0.00618562063186,0.0,0.818939218234,-0.573735341637,-0.0121268914731,0.0,-0.00638241904455,0.0120246286704,-0.999907332223,0.0,0.265008876968,-0.259786575356,0.304897593949,1.0,-0.0193668965517,-0.025453635468,2.842
-0.647467815983,-0.519263891486,-0.125899537874,-2.64050602989,-0.0676397280561,2.11076983198,-0.895647463492,-0.0915800359495,0.0125748692262,0.00644281491006,0.0110551028153,0.00205068430518,0.00308291481943,-0.0908754228973,0.573763618991,0.81898599098,0.00616465748901,0.0,0.818984462677,-0.573671550681,-0.0120891990406,0.0,-0.00636451857198,0.0119853320482,-0.99990791812,0.0,0.26469585581,-0.260214731681,0.304912014424,1.0,-0.0190068965517,-0.0249804926108,2.86
-0.648853863153,-0.519024924783,-0.125743806705,-2.64032475641,-0.0675743040259,2.11082484453,-0.897032195742,-0.0839534940283,0.0103126237978,0.00523161550128,0.00857525237729,0.00162381659897,0.0010425373784,-0.0874217238243,0.57369171659,0.819036575405,0.00613590787102,0.0,0.819034736295,-0.573599909485,-0.0120826935104,0.0,-0.00637673448688,0.0119574930849,-0.999908173592,0.0,0.264419701211,-0.260590871325,0.304914840183,1.0,-0.0186868965517,-0.0245599211823,2.876
-0.650463894113,-0.518745814072,-0.125648688121,-2.64011613149,-0.0675410764663,2.11087200566,-0.898622611953,-0.0858496654235,0.0191570708801,0.00121565077199,0.00828087353157,0.00029967883795,0.000716153013011,-0.0846769580938,0.573665507679,0.819055119592,0.00611091407677,0.0,0.819052882402,-0.573573680041,-0.0120977805532,0.0,-0.00640381291557,0.0119454711988,-0.99990814423,0.0,0.264072595112,-0.261047605285,0.304913159571,1.0,-0.0183068965517,-0.0240604926108,2.895
-0.651791938389,-0.518545444924,-0.125625844008,-2.63994035595,-0.0675012511109,2.11091847789,-0.899994793441,-0.0851569792144,0.0128914067491,0.0021728647,0.0125910916012,0.000301687409987,0.0092730261568,-0.08227399184,0.573639247894,0.819073394785,0.00612651058412,0.0,0.819071539821,-0.573547692619,-0.012066641941,0.0,-0.00636974200622,0.011940179751,-0.999908425054,0.0,0.263777368231,-0.261437393458,0.304923761966,1.0,-0.0179868965517,-0.0236399211823,2.911
-0.653023941832,-0.518350136398,-0.125616619314,-2.63976617556,-0.0674762351727,2.11097889723,-0.901180553765,-0.0806845599867,0.0143437097024,-0.0011004146693,0.00957104866019,0.00199071673556,0.00483483137876,-0.0742893328073,0.573690245643,0.819037631781,0.00613242873059,0.0,0.819036146523,-0.573599204033,-0.0120204293955,0.0,-0.00632774961524,0.011918913365,-0.999908945399,0.0,0.263504358577,-0.261807652998,0.304936349192,1.0,-0.0176868965517,-0.023245635468,2.926
-0.654287128009,-0.518126664656,-0.12562715771,-2.63958525391,-0.0674422062329,2.11101882496,-0.902471788719,-0.0745856442151,0.0102605133475,3.63761885701e-06,0.0102747644602,-0.000186101406527,0.00487274860142,-0.0782493190836,0.573698725677,0.819031488807,0.00615949679917,0.0,0.819030367316,-0.573607588454,-0.0120141076749,0.0,-0.00630691981838,0.0119375230235,-0.999908855,0.0,0.26321682481,-0.262187603369,0.304939400447,1.0,-0.0173668965517,-0.0228250640394,2.942
-0.655649676411,-0.517889972047,-0.125640391358,-2.63940906825,-0.0674180133008,2.11104156059,-0.903732714108,-0.0808955640345,0.0190534326296,-0.00133960180388,0.0100330901667,0.000635968795311,0.00378605037653,-0.072598231749,0.573810978996,0.818952674707,0.00618254592667,0.0,0.818951654049,-0.573719341386,-0.01204377644,0.0,-0.00631635836142,0.0119742879049,-0.999908355824,0.0,0.262897104081,-0.262591072579,0.304933876247,1.0,-0.0170268965517,-0.0223782068966,2.959
-0.657029655112,-0.517670098228,-0.125629770617,-2.63921559308,-0.067388410403,2.11107571084,-0.905073290211,-0.0725893976047,0.0107690178066,0.000196934477238,0.00812061642499,0.000840674649324,0.000675325075592,-0.0768664584066,0.573858356735,0.818919385577,0.00619461325851,0.0,0.818918615874,-0.573766835047,-0.0120277377759,0.0,-0.00629560519556,0.0119753325131,-0.999908474195,0.0,0.262584032575,-0.262999382905,0.304943931114,1.0,-0.0166668965517,-0.0219050640394,2.977
-0.658175070462,-0.517449461345,-0.125618011831,-2.63903171151,-0.0673635520296,2.11115447623,-0.906311934863,-0.0738067018987,0.0133807667873,0.00190558741152,0.0118676165558,0.000346408469308,0.0112641129039,-0.0769832985097,0.573793805391,0.818964598137,0.00619699875231,0.0,0.818964157178,-0.573702854742,-0.0119787570218,0.0,-0.00625506248489,0.0119486864849,-0.999909047406,0.0,0.262336748108,-0.263349859133,0.304953162219,1.0,-0.0163468965517,-0.0214844926108,2.993
-0.659307837325,-0.517238097155,-0.125567407808,-2.63886550925,-0.0673390900075,2.11120028199,-0.907456128954,-0.0732385705365,0.0144498552942,0.00253499938763,0.0102394965847,0.00547698993964,0.00109563189366,-0.0661559626425,0.573767653068,0.818983011712,0.00618495922552,0.0,0.818982465001,-0.573676855886,-0.011972215397,0.0,-0.00625699352697,0.0119348728661,-0.999909200299,0.0,0.262091901187,-0.263679322587,0.304955872125,1.0,-0.0160268965517,-0.0210639211823,3.009
-0.660507461981,-0.517025310821,-0.125515543536,-2.63870713127,-0.0673142284011,2.11120388375,-0.908673902132,-0.0725282024903,0.00871562439652,0.000541564196286,0.00907657639745,0.00140610501637,0.000194728553901,-0.0798494972282,0.573734937647,0.819005968,0.00618001661287,0.0,0.819005082118,-0.573643645322,-0.0120162617985,0.0,-0.00629638409299,0.0119558444143,-0.999908702498,0.0,0.261820895513,-0.264017710267,0.304950917517,1.0,-0.0156868965517,-0.0206170640394,3.026
-0.661660586744,-0.51679559256,-0.125474236897,-2.63852511269,-0.0672898264339,2.11122683153,-0.909871166792,-0.067536443527,0.0120685852922,0.000151752500947,0.0155916469635,0.00200685676781,0.000273415410505,-0.0603142774712,0.573689385357,0.819037918436,0.00617447929221,0.0,0.81903684517,-0.573597907867,-0.0120346684824,0.0,-0.00631530300784,0.011961517901,-0.999908515334,0.0,0.261567389765,-0.264354582381,0.304951844623,1.0,-0.0153468965517,-0.0201702068966,3.043
-0.662786798098,-0.516562804999,-0.125468516258,-2.63834681624,-0.0672589197935,2.11132151822,-0.910969912458,-0.0672269995633,0.0145782667868,-0.000505839114276,0.0114142453371,0.000529749476182,0.00975180747134,-0.0649199200169,0.573730307884,0.819009191493,0.00618263425444,0.0,0.819008515943,-0.573639340553,-0.0119876888748,0.0,-0.00627154588328,0.0119415604463,-0.999909029285,0.0,0.261323600947,-0.264700424304,0.304955215821,1.0,-0.0150068965517,-0.0197233497537,3.06
-0.664036452646,-0.516309846919,-0.125450351363,-2.63816342168,-0.0672349538242,2.11135690315,-0.912286750115,-0.0647169672849,0.0149541932399,0.00110444011586,0.00661567960758,0.000214435778234,2.97342813863e-05,-0.0719193744279,0.573682284938,0.819042781849,0.0061890509192,0.0,0.81904201017,-0.573590958665,-0.0120143503899,0.0,-0.00629040442527,0.0119617429903,-0.999908669588,0.0,0.261040222878,-0.265068806367,0.30494867487,1.0,-0.0146268965517,-0.0192239211823,3.079
-0.66502999627,-0.516128331835,-0.125448593714,-2.63802174456,-0.0672083830312,2.11136346819,-0.913249549359,-0.0682261350023,0.0124851854147,-0.000838277196602,0.00415593540955,0.000284051187768,0.000518162384982,-0.0649207630928,0.573732568634,0.819007405347,0.00620939423182,0.0,0.819006743383,-0.573640848691,-0.0120365239196,0.0,-0.00629616126842,0.0119915124078,-0.999908276785,0.0,0.260792780538,-0.265380289491,0.304948117192,1.0,-0.0143068965517,-0.0188033497537,3.095
-0.666065722673,-0.515946743956,-0.125437348743,-2.63787077827,-0.0671850184011,2.11140340098,-0.914248966287,-0.0624433689365,0.0125515787433,0.000281046385721,0.00589959017822,0.00118660060161,0.00594963900089,-0.060620920706,0.573764520151,0.81898498234,0.00621458121442,0.0,0.81898445561,-0.57367289997,-0.0120254817402,0.0,-0.00628367310343,0.0119896710113,-0.999908377423,0.0,0.260574485647,-0.265666753125,0.304951939106,1.0,-0.0140068965517,-0.0184090640394,3.11
-0.667136144716,-0.51574868431,-0.125429167658,-2.63770887142,-0.0671641130296,2.11146782024,-0.91533716812,-0.0686426306,0.0122150647689,0.000415791313073,0.00969967559278,0.000284890186968,0.0058758550617,-0.0682416774332,0.573761451043,0.818987110829,0.00621743462311,0.0,0.818986833096,-0.573670224173,-0.0119911640171,0.0,-0.00625397206815,0.0119722952619,-0.999908771828,0.0,0.260335841427,-0.265989659789,0.304958092448,1.0,-0.0136668965517,-0.0179622068966,3.127
-0.668218386496,-0.515538462579,-0.125385188867,-2.63752440636,-0.0671420795356,2.11151572232,-0.916419582838,-0.0560473214968,0.0162497499057,0.00476008242008,0.0073440524409,0.000699756846144,0.00255135720728,-0.0585623146971,0.573748952152,0.818995979518,0.00620260747096,0.0,0.818995692243,-0.573658141733,-0.0119640884457,0.0,-0.00624048420858,0.0119445219776,-0.999909188252,0.0,0.260103989896,-0.266310918162,0.304969427953,1.0,-0.0133068965517,-0.0174890640394,3.145
-0.669279338413,-0.515331500906,-0.125343952288,-2.6373537998,-0.0671158821307,2.11153745844,-0.91743661097,-0.0558260718826,0.0154368066323,0.00903107938188,0.00502382668812,0.000263638173745,0.00100991905611,-0.0547648169206,0.573775651035,0.818977314482,0.00619738214275,0.0,0.818976910551,-0.573684763846,-0.0119732458753,0.0,-0.00625059338483,0.0119456998196,-0.999909111039,0.0,0.259870089743,-0.266619310626,0.30497336287,1.0,-0.0129468965517,-0.0170159211823,3.163
-0.67014845557,-0.515164290771,-0.125307867689,-2.63721028162,-0.0670997736007,2.11158198971,-0.918346282259,-0.0555126863147,0.0141854748807,0.00573076243915,0.011136985825,0.000264823485977,0.00351792477487,-0.0649149808879,0.573731050358,0.819008660388,0.00618408973713,0.0,0.819008247835,-0.573640542286,-0.0119484360875,0.0,-0.00623854815478,0.0119202387882,-0.999909490116,0.0,0.259683291681,-0.266876686621,0.304981475751,1.0,-0.0126468965517,-0.016621635468,3.178
-0.671163312321,-0.514961021226,-0.125292793588,-2.63704676967,-0.0670780639813,2.11163605112,-0.919385538528,-0.0537760000732,0.0078411631585,0.000444694331891,0.00793383050775,0.000675825530316,0.00454709934071,-0.0595215896033,0.573718086884,0.819017735314,0.00618489492134,0.0,0.819017455189,-0.573627811446,-0.0119284924545,0.0,-0.00622193892968,0.0119093580616,-0.999909723258,0.0,0.259458295539,-0.267181682953,0.304985665404,1.0,-0.0122868965517,-0.0161484926108,3.196
-0.672168868917,-0.514770711656,-0.125281680114,-2.63688186552,-0.0670587494905,2.11166355179,-0.920333334594,-0.056287990351,0.00738971447166,-0.000202458444739,0.0112751118647,0.00339717521879,0.000117064022729,-0.0534588512251,0.573774224218,0.818978392217,0.00618705139439,0.0,0.818978188766,-0.573684021165,-0.0119212871086,0.0,-0.00621398366469,0.0119074166619,-0.999909795849,0.0,0.259230809987,-0.267481944578,0.304992900889,1.0,-0.0119268965517,-0.0156753497537,3.214
-0.672927379841,-0.514611674059,-0.125270694951,-2.63675723985,-0.0670447644898,2.11168952582,-0.921093746325,-0.0552895458352,0.0125811563771,0.000714125872578,0.0104587220717,0.000218771522104,0.000672354685595,-0.0582809111318,0.573777308149,0.818976227069,0.00618765302832,0.0,0.818976003321,-0.573687048088,-0.0119257596037,0.0,-0.00621725690622,0.0119104989041,-0.999909738793,0.0,0.25906004423,-0.267708357138,0.304993245238,1.0,-0.0116468965517,-0.0153073497537,3.228
-0.673872812378,-0.514421491178,-0.125252358024,-2.63659556443,-0.0670216631867,2.11173537893,-0.922061058999,-0.0527801099969,0.0118498338022,-0.000686540269398,0.0118184937384,0.00026713509363,0.00352339853684,-0.0552756454462,0.573764528288,0.818985179966,0.00618772776649,0.0,0.818985096341,-0.573674537443,-0.0119031072365,0.0,-0.00619884590495,0.0118974665928,-0.99991000825,0.0,0.258852172736,-0.267992603566,0.305000778878,1.0,-0.0112868965517,-0.0148342068966,3.246
-0.674624289692,-0.514273271572,-0.125233099227,-2.63647522797,-0.0670080865171,2.11176556891,-0.922778572328,-0.0477492615894,0.00671328724132,0.00433699482756,0.00359418339898,0.000297327270961,0.00704954841591,-0.0419081864133,0.573790666835,0.818966903744,0.00618288980963,0.0,0.818966800762,-0.573700773751,-0.0118974093562,0.0,-0.00619657513853,0.0118904328627,-0.999910105991,0.0,0.258684614992,-0.268214901482,0.305003709845,1.0,-0.0109868965517,-0.0144399211823,3.261
-0.675436795441,-0.514096268354,-0.125219564586,-2.63633210353,-0.0669852904842,2.11180263954,-0.923572834595,-0.0407635610015,0.00882553369925,0.00309726562222,0.00746494487979,0.000257271818381,0.0068157400136,-0.0487709557113,0.573813114157,0.818951148676,0.00618651798486,0.0,0.818951140181,-0.573723292467,-0.0118895155099,0.0,-0.00618770204931,0.011889044779,-0.999910177445,0.0,0.258505573,-0.268459660186,0.305006805147,1.0,-0.0106468965517,-0.0139930640394,3.278
-0.676198905341,-0.513918810862,-0.125201218709,-2.63621309188,-0.0669684238815,2.11182513315,-0.92432990936,-0.0447143310293,0.0135981432196,0.00178003357156,0.0101103880991,0.000209022001168,-0.000667495642328,-0.0503212612829,0.573817694233,0.818947924121,0.0061885591041,0.0,0.81894774345,-0.573727481874,-0.0119212810713,0.0,-0.00621248156452,0.0119089778149,-0.999909786591,0.0,0.258332744813,-0.268682393858,0.304997635579,1.0,-0.0103268965517,-0.0135724926108,3.294
-0.676987250922,-0.513743324293,-0.125189846254,-2.63610058297,-0.0669443422214,2.11187393745,-0.925155400932,-0.0447604156996,0.0120900465486,0.00108453874069,0.00960701195856,0.00281549728943,0.00369718247459,-0.0458117546938,0.573801108538,0.818959448873,0.00620127762285,0.0,0.81895936826,-0.573710721873,-0.0119292769329,0.0,-0.0062119742006,0.0119238563037,-0.999909612429,0.0,0.258144344824,-0.268927887385,0.304989081966,1.0,-0.00996689655173,-0.0130993497537,3.312
-0.677802825523,-0.513563049646,-0.125169146078,-2.63597415582,-0.0669250082197,2.11190486239,-0.925920131394,-0.0455232290932,0.00999603128749,0.00219633781075,0.00554528016143,-5.20651647703e-05,0.00543942949295,-0.0521936986197,0.573837251935,0.8189341399,0.00619916926114,0.0,0.818933917807,-0.573746647631,-0.0119486191064,0.0,-0.00622849944712,0.0119335024795,-0.999909394552,0.0,0.25797047228,-0.269153381972,0.304982231581,1.0,-0.00962689655173,-0.0126524926108,3.329
-0.678612636435,-0.513377892817,-0.125152504643,-2.63583951344,-0.0668964126281,2.111926643,-0.926725253765,-0.0423994792933,0.00739587671921,0.000550117403184,0.00497258366786,0.00381456887876,2.10507478336e-05,-0.0420200718431,0.57384851475,0.818926161807,0.00621051750746,0.0,0.818925932691,-0.573757564125,-0.0119716864926,0.0,-0.00624071602582,0.0119561185474,-0.99990904821,0.0,0.257788111925,-0.269391160656,0.304977192608,1.0,-0.00924689655173,-0.0121530640394,3.348
-0.679179819677,-0.513243786095,-0.125136205068,-2.6357596839,-0.0668805870812,2.11195531931,-0.927302355691,-0.0389983822011,0.0112632004159,-0.000243831228915,0.00338852499095,7.01434017357e-05,-3.28568823785e-05,-0.0462745891949,0.573839836394,0.818932218179,0.00621378280532,0.0,0.818931889266,-0.573748601356,-0.0119937519588,0.0,-0.00625704116964,0.0119713880403,-0.99990876349,0.0,0.257659675737,-0.269555104501,0.304966699159,1.0,-0.00896689655173,-0.0117850640394,3.362
-0.679909047435,-0.513074068188,-0.125083417188,-2.63565117806,-0.0668571676926,2.11198193287,-0.928083304153,-0.0387543563765,0.0132721759423,0.00390932726837,0.0103491160443,0.000682847859666,0.000374062202454,-0.0400856874999,0.573775688858,0.81897722478,0.00620572871011,0.0,0.818976600758,-0.573684138747,-0.0120242779975,0.0,-0.00628760274988,0.0119818156824,-0.999908446881,0.0,0.257501670504,-0.269758802979,0.304956740491,1.0,-0.00858689655173,-0.011285635468,3.381
-0.680435583768,-0.512952254204,-0.125045014813,-2.63557632617,-0.0668341836699,2.11201315057,-0.928624983221,-0.0322316247453,0.00834835096162,-0.000249510019914,0.00546672765875,0.000666791265247,0.00289536317539,-0.0383058466894,0.573749764944,0.81899540324,0.00620351514429,0.0,0.818994672352,-0.573658081328,-0.0120365812087,0.0,-0.00629932936714,0.0119868622765,-0.999908312588,0.0,0.257389199745,-0.269906000201,0.304949261298,1.0,-0.00830689655173,-0.010917635468,3.395
-0.681073684074,-0.512810929293,-0.125015484381,-2.63550292672,-0.0668141973848,2.11203240579,-0.929247556627,-0.0400138078004,0.00746992292356,0.00337986497169,0.00429879409322,9.88868087382e-06,4.10859111967e-06,-0.0364066635919,0.573754027582,0.818992387183,0.00620745287043,0.0,0.818991422379,-0.573661783941,-0.0120811678438,0.0,-0.00633352794504,0.0120157007035,-0.999907750425,0.0,0.257241642166,-0.27008157605,0.304932670116,1.0,-0.00796689655173,-0.0104707783251,3.412
-0.681673617266,-0.512678379479,-0.125002586763,-2.63541481526,-0.0667863033834,2.11204413869,-0.929841513837,-0.03683070943,0.010929614609,0.00047811851704,0.00497439763794,0.000201910232579,-0.000404742632611,-0.0378439629648,0.573766320775,0.818983651293,0.00622374166974,0.0,0.818982709592,-0.573673643195,-0.0121086495219,0.0,-0.00634651162973,0.012044904004,-0.999907316744,0.0,0.257103541197,-0.270252974997,0.304924973652,1.0,-0.00762689655173,-0.0100239211823,3.429
-0.68227864112,-0.512538115349,-0.124998929249,-2.63531388489,-0.066767078341,2.11206562831,-0.930388486706,-0.0375858984104,0.00573926691498,-0.00184914079497,0.00826428430868,8.94024128075e-05,-0.000632322703583,-0.0358418487386,0.573824746652,0.81894264128,0.00623356437266,0.0,0.818941736104,-0.573731838636,-0.0121225865373,0.0,-0.00635143097398,0.0120613983973,-0.99990708668,0.0,0.256965225554,-0.270433101512,0.304920849573,1.0,-0.00728689655173,-0.00957706403942,3.446
-0.682889367539,-0.512421856893,-0.124997718877,-2.63521835898,-0.0667422963227,2.11208810189,-0.930997491094,-0.0318516007646,0.00542886675436,-0.000457543974822,0.00345416543221,0.00125583584753,0.000192561901878,-0.0361990105762,0.573840792358,0.818931279296,0.00624913736625,0.0,0.818930607157,-0.573747867891,-0.0121157605628,0.0,-0.00633666805781,0.0120703598908,-0.999907072207,0.0,0.256824679253,-0.27061374157,0.304923177216,1.0,-0.00692689655173,-0.00910392118227,3.464
-0.683414537606,-0.512330344135,-0.124985259022,-2.63513045042,-0.0667225081769,2.11210961603,-0.931533366006,-0.0293602974812,0.000438599834204,0.000619498986875,0.00632904721966,-0.000248219761554,0.000936052722995,-0.0326179969389,0.573836051327,0.818934565506,0.00625384032059,0.0,0.818934086427,-0.573743358111,-0.0120941313667,0.0,-0.00631632447812,0.0120617638236,-0.999907304653,0.0,0.256707974508,-0.270768727996,0.304931377306,1.0,-0.00658689655173,-0.00865706403942,3.481
-0.68386805602,-0.51222799639,-0.124958723542,-2.6350579702,-0.0666979314979,2.11213427419,-0.931996263892,-0.0279874257761,0.0028187907575,0.00528323091164,0.00399602309731,0.00212346609919,0.00676276640845,-0.0207522817032,0.573818896515,0.818946568258,0.00625613639813,0.0,0.818946134989,-0.573726227119,-0.0120909554354,0.0,-0.00631265846699,0.0120616896539,-0.999907328699,0.0,0.256604903109,-0.270905762681,0.304930213565,1.0,-0.00624689655173,-0.00821020689656,3.498
-0.684302795586,-0.512156361441,-0.124926390997,-2.63498888747,-0.0666800897616,2.11216143972,-0.932436401815,-0.0293396223585,0.00179780045673,0.00116344240377,0.0028979134053,-3.47272506215e-05,0.000352776854188,-0.028304812682,0.573807425871,0.818954643094,0.00625119764357,0.0,0.818954289356,-0.573715055938,-0.0120686965638,0.0,-0.0062974301263,0.0120447847321,-0.999907628501,0.0,0.256520180799,-0.271021857152,0.304937108165,1.0,-0.00594689655173,-0.00781592118227,3.513
-0.684759835214,-0.512063010147,-0.124876459629,-2.63490756817,-0.0666591197853,2.11218948686,-0.932882782654,-0.0267955650784,0.00276989909813,0.00574677217615,0.00285556102205,-0.000214033225102,0.00096129853643,-0.0257093716102,0.573793703282,0.818964359685,0.00623783138623,0.0,0.818963956998,-0.573701634411,-0.0120506727609,0.0,-0.00629053855234,0.0120233907132,-0.999907929362,0.0,0.256429858181,-0.27115033099,0.304943063925,1.0,-0.00560689655173,-0.00736906403942,3.53
-0.685235458521,-0.51197684535,-0.124833610779,-2.6348270827,-0.0666388602362,2.11221657903,-0.933360067056,-0.0248202041087,0.00589012908383,0.000520164635663,0.000798086642023,0.00239581275185,0.00074691689451,-0.0263372549523,0.573774554151,0.81897785486,0.00622745204077,0.0,0.818977474756,-0.573682836138,-0.0120268975343,0.0,-0.00627730125212,0.0120011017755,-0.999908280316,0.0,0.256332579818,-0.271284883595,0.304951050069,1.0,-0.00522689655173,-0.00686963546799,3.549
-0.685632191959,-0.511901594608,-0.124817320341,-2.63477282157,-0.0666222340192,2.11223561381,-0.933743073803,-0.0237476594336,0.00885380512463,0.000262395070126,0.00112599424872,0.000832713558708,-0.000102500581301,-0.0223772186858,0.573792627322,0.818965169996,0.0062304145805,0.0,0.818964823122,-0.573700882378,-0.0120275911539,0.0,-0.00627590472221,0.0120040646189,-0.999908253518,0.0,0.256237071593,-0.271404163828,0.30494974919,1.0,-0.00486689655173,-0.00639649261084,3.567
