nelsonifechukwu/NELSON_IML_WORK/CNN-GradCAM/train2dof/data_sample_2022-02-22-14-27-55/robot_state.csv
position_joint1,position_joint2,position_joint3,position_joint4,position_joint5,position_joint6,position_joint7,velocity_joint1,velocity_joint2,velocity_joint3,velocity_joint4,velocity_joint5,velocity_joint6,velocity_joint7,ee_T_00,ee_T_10,ee_T_20,ee_T_30,ee_T_01,ee_T_11,ee_T_21,ee_T_31,ee_T_02,ee_T_12,ee_T_22,ee_T_32,ee_T_03,ee_T_13,ee_T_23,ee_T_33,v_x,v_y,time
0.465090486121,0.547741948874,-0.124005567341,-1.35583581101,0.0794653143115,1.89411164098,0.159158975193,-0.00209841882423,-0.000394547244086,6.45006681008e-06,-0.00032296259192,-0.000111464238571,0.000400143948113,-0.000584591605307,0.57379469771,0.818985068302,0.00196205983538,0.0,0.81894249203,-0.573736481955,-0.0118486675554,0.0,-0.00857834165951,0.0084056786247,-0.99992787571,0.0,0.661681170647,0.260887050038,0.303242301756,1.0,0.0,0.0,0.0
0.465084723872,0.547745910746,-0.124008073862,-1.35584092529,0.0794653157916,1.89410894626,0.159163581224,-9.10528976836e-05,-0.000202840093819,3.96716909582e-05,-0.00116766105994,-6.34563974792e-05,-0.000317711309802,0.00120276810701,0.573805207994,0.818977729738,0.00195150569752,0.0,0.818935020846,-0.573747038543,-0.0118538726081,0.0,-0.00858855241881,0.0084001319251,-0.999927834672,0.0,0.661681433173,0.260880942273,0.303236909916,1.0,-0.00012,-0.000157714285714,0.007
0.465082244743,0.547737698957,-0.124001910284,-1.35584411014,0.0794646016369,1.89410931712,0.159162517719,0.000655628383339,-0.00178745684921,0.00150248060561,-0.000559398820318,9.37803968886e-05,-5.18266309391e-05,0.000374033650649,0.573802033702,0.818979939317,0.00195755377124,0.0,0.818937281407,-0.573743812862,-0.0118538274545,0.0,-0.00858507781413,0.00840502588697,-0.999927823385,0.0,0.661680266303,0.260882509323,0.303241038137,1.0,-0.00046,-0.000604571428571,0.024
0.465081839312,0.547731457453,-0.124009149875,-1.35585142284,0.0794630129171,1.89411087421,0.15916275298,-5.71520373697e-05,-0.00178188319402,-0.000778098763756,-0.00139535401059,0.000412411844429,8.56182318392e-06,0.00119731887689,0.573807594875,0.818976047585,0.00195561932143,0.0,0.818933410644,-0.573749426404,-0.0118495372973,0.0,-0.00858261699953,0.00840103824381,-0.99992787802,0.0,0.661680923177,0.260877113555,0.303242351204,1.0,-0.0008,-0.00105142857143,0.041
0.465083910057,0.547671120336,-0.124007346823,-1.35591284534,0.0794619432354,1.8941222661,0.159160619059,0.000958177854484,-0.00558073445163,-0.000247064803608,-0.00524182148412,3.11732208017e-05,0.00336762478391,-0.000160995464958,0.573805934161,0.818977183248,0.00196726763055,0.0,0.818934649907,-0.573747671533,-0.0118488604595,0.0,-0.00857539624448,0.0084101719949,-0.999927863191,0.0,0.66166981662,0.260873631007,0.303256787433,1.0,-0.00112,-0.001472,0.057
0.465081491964,0.547530794738,-0.123998922082,-1.35608843459,0.0794590034397,1.89414857107,0.159157703674,0.000439771252001,-0.00956322594152,0.00174293999189,-0.0138429639151,-0.000145954640147,0.00644300819123,0.000596640025278,0.573808380412,0.818975467494,0.00196802267648,0.0,0.818932781078,-0.573749954678,-0.0118674548176,0.0,-0.00859016682306,0.00842148545185,-0.99992764119,0.0,0.66163737521,0.2608592144,0.30327461867,1.0,-0.00146,-0.00191885714286,0.074
0.465071548384,0.547396216943,-0.124009478477,-1.3562834262,0.079458433992,1.89419891188,0.159154645237,-0.00298254539431,-0.00836383296373,-0.00118097914995,-0.0132434649104,-0.00100684350152,0.00265765237949,0.000657002514912,0.573837236305,0.818955240541,0.00197157825425,0.0,0.818912535348,-0.57377872871,-0.0118733664485,0.0,-0.00859267144718,0.00842809220218,-0.999927564006,0.0,0.661613406124,0.260823386249,0.303285537212,1.0,-0.0018,-0.00236571428571,0.091
0.465049880223,0.547213735931,-0.124004531331,-1.35648572666,0.0794520617454,1.8943225555,0.159139163038,-0.000102695733606,-0.0106208287875,0.0004576672122,-0.0101544766685,-0.000192747267625,0.00291427646703,-0.00117221220873,0.573843492247,0.818950649504,0.00205596297123,0.0,0.818909019251,-0.573784619875,-0.0118311066945,0.0,-0.00850957641559,0.00847301333485,-0.999927894978,0.0,0.661599284395,0.260802764294,0.303325392454,1.0,-0.00212,-0.00278628571429,0.107
0.465032857964,0.547017297831,-0.124004534283,-1.35672201092,0.07945147722,1.89445422781,0.159130068166,3.47395858311e-05,-0.00621878125369,5.13517627563e-05,-0.0200017869044,0.000498926808017,0.00731830555985,0.00108201030503,0.57386328122,0.818936565535,0.00214079393989,0.0,0.818895976197,-0.573804009046,-0.0117934843453,0.0,-0.00842988172149,0.00852109922419,-0.999928161401,0.0,0.661581023683,0.260774894979,0.303363501083,1.0,-0.00246,-0.00323314285714,0.124
0.465002795638,0.546794979519,-0.124006583129,-1.35704375214,0.0794425434579,1.89458470986,0.159110743527,-0.00141520505428,-0.00812809270109,-0.000471917254251,-0.0212094753929,-0.000891126956061,0.00659482950716,-0.000264445483927,0.573889196317,0.818918322706,0.00217209299885,0.0,0.818878072912,-0.573829730996,-0.0117850936009,0.0,-0.0084047793614,0.0085421816877,-0.99992819283,0.0,0.661547925776,0.260725964739,0.303379203182,1.0,-0.0028,-0.00368,0.141
0.464967589147,0.546534647199,-0.124007318343,-1.35740415706,0.0794298983196,1.89471253852,0.159042424176,-0.00371750540377,-0.0173969269482,-0.000513596065326,-0.019164541427,-0.00225345658043,0.00837785046051,-0.00193695818181,0.573879316306,0.818925167292,0.00220172504928,0.0,0.818885215795,-0.573819649171,-0.0117796637807,0.0,-0.00838343144391,0.00856323035758,-0.999928192003,0.0,0.661507657835,0.260669519312,0.303403129964,1.0,-0.00312,-0.00410057142857,0.157
0.464929564874,0.546243041171,-0.124004534283,-1.3578502339,0.0794101295405,1.8948705554,0.158938902232,-0.000368036070348,-0.0233643820836,0.000565808730579,-0.0307727141306,-0.000424054510288,0.00500563521486,-0.000530097228443,0.573843385281,0.818950322822,0.00221016296071,0.0,0.818910387268,-0.573783594237,-0.0117860727018,0.0,-0.00838421421864,0.00857345032996,-0.999928097866,0.0,0.661454872105,0.260604381442,0.303410901623,1.0,-0.00346,-0.00454742857143,0.174
0.464877368063,0.545938851985,-0.124004534295,-1.35835367491,0.0793740524126,1.89505175029,0.158918968286,-0.00657207614538,-0.0229284680696,0.000172181514478,-0.0331582575322,-0.00540584809344,0.00725161584367,-0.00663160882841,0.573888381459,0.818918844563,0.0021905588276,0.0,0.81887869743,-0.573828704847,-0.0117916619201,0.0,-0.00839957033789,0.00856106456044,-0.999928075109,0.0,0.661399078782,0.260520544595,0.303402335529,1.0,-0.0038,-0.00499428571429,0.191
0.464820660507,0.545602680331,-0.124010248198,-1.35893257232,0.0793222198883,1.8952408062,0.158841979805,-0.00369983389028,-0.0200875814661,-0.00162450053871,-0.0346176741577,-0.00177669163544,0.00967688320391,-0.00307152925536,0.573894250395,0.818914881172,0.00213393066523,0.0,0.818874136777,-0.573834934776,-0.0118051958781,0.0,-0.00844308917125,0.00852251875556,-0.99992803787,0.0,0.66133168241,0.260419859537,0.30338131892,1.0,-0.00414,-0.00544114285714,0.208
0.464757001102,0.545214691628,-0.124005146002,-1.359603776,0.0793000201585,1.89545689012,0.158735097636,-0.000620455619588,-0.0188014234046,0.000398524451532,-0.0447376877415,-0.00187094235716,0.0155321621521,-0.00644130700717,0.573886733315,0.818920266961,0.00208820159504,0.0,0.81887868457,-0.57382735571,-0.0118580224367,0.0,-0.00851267159531,0.00851530948112,-0.999927509336,0.0,0.661247435281,0.260317200281,0.30335506957,1.0,-0.00448,-0.005888,0.225
0.464694994668,0.544827677716,-0.12400770622,-1.36025441594,0.0792724415038,1.89568750668,0.158684859443,-0.00253093842858,-0.0254309948627,0.000152282547795,-0.0402450975119,-0.00269920905998,0.0174944066072,-0.00851213781114,0.573926132251,0.818892720908,0.00206234424826,0.0,0.818850728551,-0.573866780841,-0.0118806186786,0.0,-0.00854560583043,0.00850751341315,-0.999927294775,0.0,0.661168319119,0.260204435234,0.303340295528,1.0,-0.00482,-0.00633485714286,0.242
0.464620817942,0.544359408183,-0.124016216481,-1.36102931238,0.0792352187428,1.89595870897,0.158566527951,-0.00334571297831,-0.0281640071699,-0.00131604907073,-0.0455296781427,-0.000166679238733,0.016628489166,-0.00768576450244,0.573930196094,0.818889934862,0.00203752159493,0.0,0.818847507077,-0.573870833975,-0.0119068454149,0.0,-0.00858128686569,0.00850228129775,-0.999927033702,0.0,0.661083897538,0.260086321789,0.303325745609,1.0,-0.00516,-0.00678171428571,0.259
0.464549802169,0.543905453037,-0.124015948009,-1.36178035209,0.079198806295,1.89622785944,0.158484817233,-0.00605009216715,-0.0358382201793,-0.000882629858708,-0.047206617971,-0.000167773518675,0.00799463036252,-0.00733418250626,0.573953407625,0.818873715066,0.0020178082957,0.0,0.81883092872,-0.573894023226,-0.0119292572419,0.0,-0.00861071285761,0.00849924532195,-0.999926806548,0.0,0.660997169769,0.259968711042,0.303312812458,1.0,-0.00548,-0.00720228571429,0.275
0.464465364033,0.543357518913,-0.124016907204,-1.36268387823,0.0791444531222,1.89653495891,0.158376163881,-0.00173930606988,-0.0300891740201,-0.000269837117578,-0.0516983489003,-0.00098620284685,0.0152316037215,-0.00443226358348,0.573969952506,0.818862219975,0.00197616259031,0.0,0.818818846241,-0.573910695701,-0.0119564753053,0.0,-0.00865673173348,0.00848094001969,-0.99992656463,0.0,0.660890038959,0.259824328338,0.303297047282,1.0,-0.00584,-0.00767542857143,0.293
0.464387528502,0.542844249351,-0.124017319474,-1.36350708813,0.0790968097528,1.89683135901,0.158259575012,-0.00757144285028,-0.0320577259673,0.00114721916868,-0.0500901142543,-0.0035212518889,0.0207851259905,-0.0102721524296,0.573971578124,0.81886110645,0.00196538816193,0.0,0.818817554548,-0.57391232951,-0.0119665075258,0.0,-0.00867111404029,0.00847789276339,-0.999926465854,0.0,0.660796014665,0.25969407735,0.303293986535,1.0,-0.00616,-0.008096,0.309
0.464318207085,0.542249353643,-0.124020499575,-1.3644281219,0.0790389589023,1.89717111547,0.158138736833,-0.0052651736156,-0.0313649512055,0.000809957807093,-0.0550450351842,-0.0080272587889,0.029404040326,-0.00349256987845,0.573967370689,0.81886403296,0.00197479371973,0.0,0.818820630112,-0.573908108908,-0.0119584753994,0.0,-0.00865918198055,0.00848093980477,-0.999926543416,0.0,0.660689111978,0.259558609354,0.303305867869,1.0,-0.0065,-0.00854285714286,0.326
0.464231944501,0.541626626406,-0.124023703166,-1.3653780704,0.0789849529623,1.89752036164,0.158000749574,-0.00681843675803,-0.0352091195351,0.000441381193482,-0.0539541783165,-0.00353779344271,0.0173096583536,-0.00397617015311,0.573965559015,0.818865254051,0.00199491179295,0.0,0.818822087259,-0.573906187509,-0.011950910288,0.0,-0.00864145934245,0.00849305225994,-0.999926593928,0.0,0.660582204376,0.259410142183,0.303324416348,1.0,-0.00684,-0.00898971428571,0.343
0.464154280312,0.540958855382,-0.124026793626,-1.36641039055,0.0789214786345,1.89790194993,0.157883369086,-0.0064249668328,-0.0446577475696,0.000260700026713,-0.0603124051749,-0.0112883893752,0.0197896443199,-0.00379407836055,0.573975498845,0.818858255753,0.00200763850424,0.0,0.818815271848,-0.573916089782,-0.0119423355758,0.0,-0.00862703013624,0.00849865671259,-0.999926670904,0.0,0.660462026892,0.259258903955,0.3033383042,1.0,-0.00718,-0.00943657142857,0.36
0.464067634926,0.540300462539,-0.124029039243,-1.36741481059,0.0788607487859,1.89826958018,0.15774507182,-0.0038694977887,-0.0420699708476,-0.00317352761864,-0.0615989267445,-0.00348207413004,0.0244386735428,-0.00752219954298,0.573974146267,0.818859159225,0.0020257520572,0.0,0.818816408607,-0.573914659472,-0.0119331278387,0.0,-0.00860910797884,0.00850818969674,-0.999926744301,0.0,0.660347061685,0.259104918812,0.303357505927,1.0,-0.0075,-0.00985714285714,0.376
0.463969271677,0.539556816681,-0.124032166308,-1.36856409436,0.0787961364173,1.89869768919,0.157618708738,-0.00626469080367,-0.0495392899163,-0.000791727558319,-0.0678868103115,-0.00198121765013,0.0268702073726,-0.0129312567145,0.57399974691,0.818841163266,0.00204616474247,0.0,0.818798646072,-0.5739401404,-0.0119264130777,0.0,-0.008591627294,0.00852131907072,-0.99992678285,0.0,0.660216183846,0.258930091453,0.303373178409,1.0,-0.00784,-0.010304,0.393
0.463873882073,0.538849461208,-0.124038472307,-1.36965647876,0.0787421419284,1.89911973697,0.157474244353,-0.00473852323605,-0.0417655868014,-0.00176464748279,-0.0703658852528,-0.00563220106597,0.0281374780265,-0.0184998218555,0.574010044294,0.818833854817,0.00208186350824,0.0,0.818791740387,-0.573950227974,-0.0119150570144,0.0,-0.00856173087016,0.00854413955093,-0.999926844546,0.0,0.660095448135,0.258762974277,0.303389769671,1.0,-0.00816,-0.0107245714286,0.409
0.463765836988,0.538071989833,-0.124040716427,-1.37086218182,0.0786646635897,1.89958105407,0.157326213882,-0.00754317900843,-0.0441731996877,0.000477076532981,-0.0723164851018,-0.000505743751954,0.0249275227384,-0.0105810587823,0.574022868276,0.818824807627,0.00210428433503,0.0,0.818783039844,-0.573963013703,-0.0118970360062,0.0,-0.00853397114586,0.00855228771482,-0.999927012192,0.0,0.659952401749,0.258567085082,0.303401833421,1.0,-0.00852,-0.0111977142857,0.427
0.463662205662,0.53726465982,-0.124042378106,-1.37212999068,0.0785949012778,1.90005090746,0.157173990631,-0.00834108434318,-0.0436028533921,-0.000220187907663,-0.073810486842,-0.00552620796517,0.0331052401211,-0.00281456220522,0.574037378529,0.818814603791,0.00211649999179,0.0,0.818772938028,-0.573977415419,-0.0118974553468,0.0,-0.00852715116495,0.00856268185319,-0.99992698142,0.0,0.659813850356,0.258387556011,0.303412497057,1.0,-0.00884,-0.0116182857143,0.443
0.463543892423,0.536420289626,-0.124042715714,-1.37344495404,0.0785208466837,1.90054750432,0.15700511832,-0.00704710254219,-0.0463761391714,-0.00377763232561,-0.0799589093059,-0.00515614629349,0.0263559116395,-0.0116753083836,0.574048815667,0.818806522624,0.00214071043678,0.0,0.818765125696,-0.573988706645,-0.0118903527376,0.0,-0.00850731855516,0.00857854712033,-0.999927014367,0.0,0.659664935253,0.258186006726,0.303425751229,1.0,-0.00918,-0.0120651428571,0.46
0.463418566343,0.535558964253,-0.124043683311,-1.37481668443,0.078441291836,1.9010394137,0.156835459658,-0.00509021320865,-0.053347641743,-1.46707544698e-05,-0.0813444883446,-0.00121706315948,0.0330506192078,-0.00516423711722,0.574067170932,0.8187936916,0.00212620682767,0.0,0.818752041752,-0.574007053743,-0.011905598708,0.0,-0.0085279355892,0.00857561465704,-0.999926863899,0.0,0.65950429255,0.257971766962,0.303423403396,1.0,-0.00952,-0.012512,0.477
0.463303679591,0.534708883934,-0.12404895047,-1.3761721368,0.0783622392828,1.90153270079,0.156677220773,-0.00883669510162,-0.0503053896596,-0.000119778755003,-0.0877911103304,-0.00521327047055,0.0315124471945,-0.00773541565802,0.574088516649,0.818778753324,0.00211543332129,0.0,0.818736934862,-0.574028412153,-0.0119147150481,0.0,-0.00854136115055,0.00857224952401,-0.999926778163,0.0,0.659345345177,0.257763893034,0.303420966447,1.0,-0.00984,-0.0129325714286,0.493
0.463169332607,0.533811029182,-0.124051519257,-1.37764703351,0.0782828005994,1.90207392444,0.156493140913,-0.0166766078394,-0.0526973432723,0.000728217177965,-0.0880338284055,-0.00587018409556,0.0355398259071,-0.0125854402364,0.574109140846,0.818764362577,0.00208803066425,0.0,0.818722082224,-0.574049041034,-0.0119414181802,0.0,-0.00857874081148,0.00856535905483,-0.999926517215,0.0,0.659173517947,0.257534407257,0.30339930421,1.0,-0.01018,-0.0133794285714,0.51
0.463045477302,0.532881495462,-0.124058582423,-1.37913775798,0.0781957443508,1.90264144567,0.15630403265,-0.00390097499788,-0.0538794385881,-0.00110335178873,-0.0892544209065,-0.00298070877345,0.0358135281083,-0.00707092812491,0.574118978809,0.818757455265,0.00209153555997,0.0,0.818715228543,-0.574058871286,-0.011938750025,0.0,-0.00857444113123,0.00856679992401,-0.999926541751,0.0,0.659002456507,0.257308336293,0.303394673221,1.0,-0.01052,-0.0138262857143,0.527
0.462906164172,0.531912137853,-0.124058450704,-1.38068505199,0.0781078271027,1.90321888506,0.156105876676,-0.00930101377858,-0.0605434167916,-0.000625245500462,-0.093485987896,-0.00741194831382,0.0369791201244,-0.0114634198615,0.574131617366,0.818748589159,0.00209298650835,0.0,0.818706314326,-0.574071435326,-0.011945916727,0.0,-0.00857934387644,0.00857223480366,-0.99992645312,0.0,0.65882322055,0.257070626818,0.303391620156,1.0,-0.01086,-0.0142731428571,0.544
0.462774953999,0.530898220782,-0.124064114292,-1.38230953956,0.0780147255725,1.90378918967,0.155908253395,-0.00676476847871,-0.0606743246875,-0.00218123655857,-0.0991515816417,-0.00140744101468,0.0342716596606,-0.0092521325525,0.574144543991,0.818739607665,0.00206018118194,0.0,0.81869681716,-0.574084408729,-0.0119733089695,0.0,-0.00862047036319,0.00856123862514,-0.999926193618,0.0,0.658624808621,0.256825028639,0.303382578755,1.0,-0.0112,-0.01472,0.561
0.46263780856,0.529869059921,-0.124058899317,-1.38395190872,0.0779044865593,1.90437609998,0.155689882563,-0.00520304669569,-0.061974300049,0.000650674366523,-0.0970801679184,-0.00811664697739,0.0282477210908,-0.00948352284023,0.574133843058,0.818747179702,0.00203295039888,0.0,0.818704049543,-0.574073838486,-0.0119855800564,0.0,-0.00864626269667,0.00854587639774,-0.999926102339,0.0,0.658425461548,0.256578317386,0.303376590753,1.0,-0.01154,-0.0151668571429,0.578
0.462503957124,0.528880719815,-0.124064835505,-1.38551140474,0.0778032857004,1.9049605191,0.155478141934,-0.00893843574922,-0.060648899357,-0.00158837967346,-0.100176733643,-0.00249268566778,0.03472647553,-0.0123178354286,0.5741316745,0.818748687407,0.002038162446,0.0,0.81870570294,-0.574071725207,-0.0119738545698,0.0,-0.00863369250593,0.00854338887914,-0.999926232209,0.0,0.658244674074,0.256337897166,0.303381218112,1.0,-0.01186,-0.0155874285714,0.594
0.462368163887,0.527783910132,-0.124068036531,-1.38723379689,0.0777050797851,1.90562776255,0.155228621502,-0.00801364868568,-0.0634862601471,-0.000931202165668,-0.100150957421,-0.00401094266293,0.0364517761592,-0.0123910553461,0.574107877569,0.81876528242,0.00207463668163,0.0,0.818722749288,-0.574047755291,-0.0119574806887,0.0,-0.00859959509187,0.0085636009829,-0.999926353139,0.0,0.658044406364,0.256085983059,0.303391562209,1.0,-0.0122,-0.0160342857143,0.611
0.462226865297,0.526604520753,-0.124065256511,-1.38901024266,0.0775947158,1.90630287143,0.154989298209,-0.00868570230399,-0.0654043960945,0.000691614628821,-0.103678854433,-0.00794462974271,0.039192134373,-0.0143310519202,0.574091921415,0.818776301481,0.0021402803047,0.0,0.818734641146,-0.574031548899,-0.0119212062131,0.0,-0.00853237698865,0.00859635531414,-0.999926647919,0.0,0.657835410843,0.255827209314,0.303434448899,1.0,-0.01254,-0.0164811428571,0.628
0.462077494373,0.525515505484,-0.124069026111,-1.39074525348,0.0774841178291,1.90692860909,0.154757574245,-0.0118081427076,-0.0675385688448,-0.000210016818832,-0.116070933801,-0.0077386635551,0.0385270895893,-0.0141480278532,0.574090775856,0.818777160366,0.00211887765295,0.0,0.818735235403,-0.574030505092,-0.0119306510707,0.0,-0.00855240885601,0.00858424179688,-0.999926580853,0.0,0.657626914905,0.25555971244,0.303429144936,1.0,-0.01286,-0.0169017142857,0.644
0.461912050422,0.524262567217,-0.124079433664,-1.3927206128,0.0773648048797,1.90763862165,0.154478855017,-0.00984592971313,-0.0707436160134,-0.00460008687952,-0.110094384659,-0.00693313857352,0.0421474689944,-0.0120039173278,0.574079336305,0.818785213182,0.00210646692163,0.0,0.818743109119,-0.574019100421,-0.011939033603,0.0,-0.00856651685841,0.00857877293158,-0.999926507021,0.0,0.65738861065,0.255255750326,0.303431957515,1.0,-0.01322,-0.0173748571429,0.662
0.461764704372,0.523143699057,-0.124082531679,-1.39452035844,0.0772474097126,1.90830689106,0.154243358555,-0.0101876107609,-0.0705363915537,-0.00416509204654,-0.114583440686,-0.0012842315714,0.0424886584363,-0.00946603355125,0.574074270868,0.81878880937,0.00208903807753,0.0,0.818746536804,-0.574014165929,-0.0119412179266,0.0,-0.00857836331897,0.00856570358206,-0.999926517503,0.0,0.65717273097,0.254984537022,0.30341992668,1.0,-0.01354,-0.0177954285714,0.678
0.461607119983,0.521898725503,-0.124081237635,-1.39647974732,0.0771297409848,1.90907654206,0.153980293497,-0.00784683989063,-0.074287552465,0.00039972841239,-0.113378603611,-0.00863379345429,0.0503821509016,-0.00968274351278,0.574060428626,0.818798397131,0.0021344888706,0.0,0.818756730842,-0.57400015358,-0.0119158001182,0.0,-0.00853160535764,0.00858818180211,-0.999926724737,0.0,0.656943857293,0.254698688054,0.303428881434,1.0,-0.01388,-0.0182422857143,0.695
0.461436222839,0.520655423254,-0.124091848821,-1.39849249862,0.0769933456494,1.909829737,0.153707091492,-0.0122812931503,-0.0741113700853,-0.00380689860693,-0.119434297796,-0.0141547582529,0.0376835344352,-0.0176809647092,0.574054856646,0.818802371287,0.00210837286805,0.0,0.818760514655,-0.573994839056,-0.0119118126377,0.0,-0.00854338977577,0.0085644512429,-0.999926827656,0.0,0.656705492373,0.254386750375,0.303409872075,1.0,-0.01422,-0.0186891428571,0.712
0.46127153774,0.519325322257,-0.124098201861,-1.40055787132,0.076874968673,1.91057181216,0.153440230664,-0.0104967129349,-0.0806464411692,-0.000706876071611,-0.123346172825,-0.00414408961694,0.0396219260491,-0.00966889721535,0.574053578577,0.818803244237,0.00211732145784,0.0,0.818761406387,-0.573993426604,-0.0119185790587,0.0,-0.00854380709591,0.00857564916261,-0.999926728116,0.0,0.656450519532,0.254078471041,0.303425280953,1.0,-0.01456,-0.019136,0.729
0.461093463868,0.51798541052,-0.124099667277,-1.40265894913,0.0767324698746,1.91133077659,0.153134412574,-0.00960981918942,-0.0812314472748,-0.000317839615864,-0.122169976664,-0.00795953354345,0.0454963569124,-0.0161373879488,0.574022989052,0.818824685753,0.00211871253601,0.0,0.818782939569,-0.57396290907,-0.0119089791315,0.0,-0.00853546801852,0.00857095849345,-0.999926839552,0.0,0.656210526339,0.253779423683,0.303436208259,1.0,-0.01488,-0.0195565714286,0.745
0.460927206476,0.516715184278,-0.124103191387,-1.40466691328,0.0766076896145,1.91205789367,0.152858921389,-0.0110636935164,-0.0760802722894,-0.000372197580705,-0.12613164546,-0.00152082926088,0.048511108533,-0.0263521760235,0.574008403057,0.818834968532,0.0020962897361,0.0,0.818792909579,-0.573948395605,-0.0119229738801,0.0,-0.00855995061675,0.00856047918472,-0.999926720036,0.0,0.655946274797,0.253453902005,0.303430016181,1.0,-0.01522,-0.0200034285714,0.762
0.460737204011,0.515337517578,-0.124114559697,-1.40683606511,0.0764689482822,1.9128900632,0.152575067643,-0.00959353022216,-0.0873335720062,-0.00133043484244,-0.129650465043,-0.00979610543711,0.0486932181212,-0.0172495216288,0.574016840221,0.818828986464,0.00212249171284,0.0,0.818787387324,-0.573956843968,-0.0118954832645,0.0,-0.00852231194106,0.00856624208729,-0.999926992183,0.0,0.655692368989,0.25311734497,0.303436167522,1.0,-0.01556,-0.0204502857143,0.779
0.460550060301,0.513959652994,-0.124112781189,-1.40909009732,0.0763368858351,1.91367879422,0.152271323432,-0.0157820779347,-0.0852069457945,0.000438690658755,-0.133075536176,-0.01654530382,0.0416891220999,-0.0191308431144,0.574002911191,0.818838932166,0.0020513445272,0.0,0.818796232598,-0.573943035013,-0.011952779812,0.0,-0.00861021232712,0.00854072801501,-0.9999264574,0.0,0.655404693834,0.252778519933,0.303397521776,1.0,-0.0159,-0.0208971428571,0.796
0.460369265924,0.5126386156,-0.124117654919,-1.41123365752,0.0762084146355,1.91442168649,0.151969045862,-0.0145729062265,-0.0822086316192,-0.000678296196971,-0.135053973926,-0.00885365361078,0.0461048529797,-0.0162546921316,0.573984447415,0.818852039866,0.00198439776393,0.0,0.818808346511,-0.573924735667,-0.0120015154921,0.0,-0.00868873776517,0.00851368860464,-0.999926008734,0.0,0.655131504049,0.252449885388,0.303367442689,1.0,-0.01622,-0.0213177142857,0.812
0.460171478414,0.511193520899,-0.124121523844,-1.41353144667,0.0760622535674,1.91529187274,0.151639464452,-0.00736411278333,-0.0920264257672,-0.00256887314534,-0.130046509045,-0.0125299055449,0.0493010999117,-0.0166632597211,0.573960125668,0.81886906608,0.00199340441141,0.0,0.818825543295,-0.573900430833,-0.0119904978395,0.0,-0.00867479913392,0.00851448202714,-0.999926122999,0.0,0.654854471099,0.252099811385,0.303361388719,1.0,-0.01656,-0.0217645714286,0.829
0.460016825657,0.510078813521,-0.124124552979,-1.41532891345,0.0759576847332,1.91596444411,0.151389510576,-0.012452733865,-0.0846648656133,-0.000313022183558,-0.140260621071,-0.0159056496923,0.0459460694218,-0.0237479437947,0.573949938668,0.818876225601,0.00198543444509,0.0,0.818832536367,-0.573890217609,-0.0120017674039,0.0,-0.00868870787104,0.0085143159148,-0.999926003652,0.0,0.654634532177,0.251826863844,0.303344648973,1.0,-0.01682,-0.0221062857143,0.842
0.459767735805,0.50820604491,-0.124130195467,-1.41824757008,0.0757686914466,1.91702396696,0.150972361998,-0.0129764214489,-0.091016535889,-0.000352364576203,-0.142437993111,-0.0142306443106,0.0512170058691,-0.0169756196796,0.573916761554,0.818899465467,0.00199077009801,0.0,0.81885588133,-0.573857056796,-0.0119946187036,0.0,-0.0086801364952,0.00851423045091,-0.999926078823,0.0,0.65427204506,0.251380263672,0.303357825038,1.0,-0.01724,-0.0226582857143,0.863
0.45954562907,0.50667860541,-0.124131604919,-1.42064799521,0.0756230297571,1.91790144192,0.150639259956,-0.0159826891745,-0.0864698034638,0.00060785237283,-0.136321181427,-0.0045675283657,0.0556234605507,-0.0218724693521,0.573911818066,0.818902919884,0.00199494130898,0.0,0.818859321812,-0.573852029182,-0.0120002744241,0.0,-0.00868242581068,0.00852083965195,-0.999926002649,0.0,0.653976765451,0.251005456646,0.303359576093,1.0,-0.01758,-0.0231051428571,0.88
0.459323645239,0.505061550718,-0.124142297452,-1.42311320024,0.0754690416854,1.91884479057,0.150305760282,-0.0153002019556,-0.0978023069772,-0.00367731078876,-0.145602267508,-0.0117215130191,0.0515006751194,-0.0219740694975,0.573913910916,0.818901264205,0.00207104823923,0.0,0.818858743754,-0.573853886928,-0.0119507797215,0.0,-0.00859819508196,0.00855477939389,-0.99992644069,0.0,0.65368298773,0.250621958952,0.303398502937,1.0,-0.01792,-0.023552,0.897
0.459125834916,0.503594856594,-0.124143954202,-1.4253003541,0.0753252693138,1.91967212045,0.150002183283,-0.0129171198231,-0.0921869133497,-0.00133398840318,-0.142889045842,-0.00968844755987,0.0450651027935,-0.0223339775993,0.573902030501,0.818909368586,0.00215692596269,0.0,0.818868058627,-0.573841749111,-0.01189522758,0.0,-0.00850354285917,0.0085930984809,-0.999926921538,0.0,0.653419212224,0.250284451296,0.3034537535,1.0,-0.01822,-0.0239462857143,0.912
0.458879127207,0.501813046309,-0.12415537202,-1.42794937987,0.0751595544459,1.92064801271,0.14963813797,-0.0139294803971,-0.0931821766459,-0.000455790681687,-0.148564058502,-0.0083603312622,0.0538120711672,-0.0188537617758,0.573904930425,0.818907093748,0.00224711895189,0.0,0.818866999081,-0.573844332434,-0.0118434307316,0.0,-0.0084093348713,0.00863726113674,-0.999927337764,0.0,0.653096973353,0.249865284842,0.303521795157,1.0,-0.01858,-0.0244194285714,0.93
0.458647844879,0.500093819244,-0.1241507743,-1.43054664355,0.0749908133307,1.92156133621,0.149273500911,-0.00584955186472,-0.0947036089549,-0.00586550552203,-0.149872961614,-0.0075891085453,0.0553777320272,-0.0245269662429,0.573878914974,0.818925243981,0.00227653704001,0.0,0.818885481891,-0.57381815374,-0.0118338873007,0.0,-0.00838491219927,0.00865560818236,-0.999927384211,0.0,0.652764521421,0.24946635569,0.303564185984,1.0,-0.01892,-0.0248662857143,0.947
0.458395892037,0.498426270397,-0.124151501156,-1.43316765388,0.0748223078087,1.92253995304,0.148894723363,-0.0139642928155,-0.090685473397,-0.000696977088886,-0.157841822347,-0.0124269165968,0.055317071562,-0.0197949388022,0.573863375612,0.818936087745,0.00229286317261,0.0,0.81889656508,-0.573802580958,-0.0118220424491,0.0,-0.00836600745773,0.00866202173345,-0.99992748702,0.0,0.652443200682,0.249051815416,0.303564530614,1.0,-0.01926,-0.0253131428571,0.964
0.458131740378,0.496742543856,-0.124151138327,-1.4358387261,0.0746693870978,1.9234987204,0.14850324619,-0.0163844224104,-0.0955439216602,0.000775177456163,-0.156646622764,-0.000220089191358,0.0551250214535,-0.0239510414217,0.573852970243,0.818943427314,0.00227558847969,0.0,0.818903475599,-0.573792033042,-0.0118552675999,0.0,-0.00840324072825,0.00866683470369,-0.999927133106,0.0,0.65210696282,0.248625549414,0.303549989212,1.0,-0.0196,-0.02576,0.981
0.457866232209,0.495076119537,-0.124153636403,-1.43856258194,0.0744934745386,1.92444076877,0.14811077839,-0.0214018590819,-0.0943009829882,-0.00114991659948,-0.159040502454,-0.0166797210328,0.0559247012226,-0.0242783136865,0.573840361252,0.818952540484,0.00217327726286,0.0,0.818911167339,-0.573779742204,-0.011918655355,0.0,-0.00851399453527,0.0086192924629,-0.999926607154,0.0,0.651755048023,0.248185670463,0.303496334895,1.0,-0.01994,-0.0262068571429,0.998
0.457558977034,0.493063312167,-0.124199187028,-1.44165301314,0.0743075198626,1.92555447574,0.147673745679,-0.0212104994351,-0.151696156347,0.000712636750817,-0.212141851007,-0.0069384180128,0.0798646831781,-0.0263668170347,0.573871869891,0.818930394968,0.00219819172174,0.0,0.818889414382,-0.573811215485,-0.0118980207653,0.0,-0.00848246709475,0.00862818147555,-0.999926798439,0.0,0.65137676402,0.247664517194,0.303524677234,1.0,-0.032148,-0.0422516571429,1.015
0.457194388382,0.489914250102,-0.124271410225,-1.44652301556,0.0740459104597,1.92744247993,0.146933366867,-0.0223606328702,-0.205018990799,-0.00649163912475,-0.328430733099,-0.019525638422,0.136343984215,-0.0471583376512,0.573790375892,0.818987096233,0.00234257089077,0.0,0.818948005012,-0.573729175118,-0.0118214046403,0.0,-0.00833773712223,0.00870161950288,-0.999927379342,0.0,0.650772166148,0.246934587502,0.303563262139,1.0,-0.0469234285714,-0.0616707918367,1.032
0.456616874761,0.485834779208,-0.12431569465,-1.45297078404,0.0737101248493,1.92990583388,0.145961833579,-0.0440864383907,-0.279036965094,-0.00522353873207,-0.444994817068,-0.0224361922686,0.167086100861,-0.0625984229645,0.573730866931,0.81902848985,0.00244377706021,0.0,0.818990330941,-0.573668883152,-0.0118151271078,0.0,-0.00827516617826,0.00878030194975,-0.999927211312,0.0,0.649967161308,0.245935203153,0.303543951106,1.0,-0.0608297142857,-0.0799476244898,1.048
0.455835249564,0.480650795644,-0.124465539058,-1.46122663775,0.0732089811968,1.9328123172,0.14469729827,-0.0576960747456,-0.347758161878,-0.00235330012223,-0.548938440869,-0.0342201450272,0.187667587994,-0.0787253543257,0.573713462471,0.819041150626,0.00228110979049,0.0,0.819000988939,-0.573652230441,-0.0118846761485,0.0,-0.00842563732794,0.00868679712557,-0.999926771414,0.0,0.648910049642,0.244546593712,0.303467584741,1.0,-0.074736,-0.0982244571429,1.064
0.454786084306,0.473870760109,-0.124639763454,-1.47193909331,0.0725725772776,1.93652945984,0.14313531864,-0.0618022352012,-0.418926998561,-0.0133053453441,-0.667823253941,-0.0458366041828,0.243820353982,-0.093009377989,0.573766425063,0.819004566453,0.00208722349585,0.0,0.818961704204,-0.573705801927,-0.0120052814723,0.0,-0.0086350943702,0.00859774907676,-0.999925754172,0.0,0.647514307973,0.242735366869,0.303390766394,1.0,-0.0895114285714,-0.117643591837,1.081
0.453519561849,0.465844737206,-0.124779713929,-1.48412250622,0.071858798755,1.94103994788,0.141228167752,-0.0732628477167,-0.496517993966,-0.00518193170101,-0.758483122642,-0.0505147022141,0.289653457299,-0.121691727926,0.57373236231,0.819027596078,0.00239169453347,0.0,0.818988635109,-0.573670446485,-0.0118566982289,0.0,-0.00833907913007,0.00876151081185,-0.999926845168,0.0,0.645971756858,0.240689334155,0.303529350725,1.0,-0.104286857143,-0.137062726531,1.098
0.452092905394,0.457353937666,-0.124880909209,-1.49736229741,0.0710178223069,1.94570539972,0.139163387354,-0.0937783870309,-0.554448642492,-0.00326445841279,-0.865179353891,-0.054456764028,0.301250478653,-0.126923245777,0.573673221295,0.819069257864,0.00230930560299,0.0,0.819028986932,-0.573611390117,-0.0119263822872,0.0,-0.00844405166598,0.00873340251866,-0.999926210113,0.0,0.64421633886,0.238439205763,0.303482454046,1.0,-0.118193142857,-0.155339559184,1.114
0.450181294227,0.446416890681,-0.125079679577,-1.51395638323,0.0698753272847,1.95159495237,0.136562394359,-0.118429178998,-0.635226883352,-0.00810445694908,-0.951793554134,-0.0645113175625,0.33551309078,-0.141148943746,0.573697208626,0.819052084436,0.00243776494566,0.0,0.819014316003,-0.573635749116,-0.0117611402447,0.0,-0.00823475585655,0.00874406606854,-0.99992786245,0.0,0.642037915779,0.235497015956,0.303606116358,1.0,-0.133837714286,-0.175900995918,1.132
0.448266732027,0.435783706214,-0.125207581825,-1.5303491176,0.0688250449443,1.95719471538,0.133969829095,-0.125260713837,-0.702633053166,-0.0113746773693,-1.03821125973,-0.0653245799718,0.352807986653,-0.17118410817,0.573676366508,0.819067067038,0.00230501723337,0.0,0.81902691477,-0.573614732542,-0.0119079131263,0.0,-0.00843134996472,0.00871932736221,-0.999926440129,0.0,0.639776366322,0.232619005897,0.303563312292,1.0,-0.147744,-0.194177828571,1.148
0.445925887554,0.423278567006,-0.125365288649,-1.54907410292,0.0675479794391,1.96374691477,0.130852437826,-0.146795442758,-0.761706164047,-0.00861229098694,-1.13848032328,-0.0750442615434,0.384130445213,-0.195604854525,0.573611332435,0.81911187754,0.00255309133253,0.0,0.819075159184,-0.573548977134,-0.0117559064722,0.0,-0.00816523690645,0.00883466495978,-0.999927636182,0.0,0.637216968645,0.229240573159,0.303736958014,1.0,-0.162519428571,-0.213596963265,1.165
0.443278424566,0.40980863063,-0.125528745463,-1.56916011959,0.0661068933905,1.97085555584,0.127516713288,-0.159442487832,-0.799449790011,-0.00271573501387,-1.22176801902,-0.0794601873828,0.435286426919,-0.192431998238,0.573603997847,0.819115861039,0.00289943962939,0.0,0.819084419041,-0.573541344336,-0.0114798833545,0.0,-0.00774055506533,0.00895996531841,-0.999929898957,0.0,0.634452063273,0.22554344319,0.30392484658,1.0,-0.177294857143,-0.233016097959,1.182
0.4402657113,0.395376199281,-0.125713016916,-1.59061950247,0.0646915856606,1.97819246578,0.12386187272,-0.182684872419,-0.881629771137,-0.00787752583465,-1.29093012769,-0.0878733526749,0.443331480393,-0.220147453774,0.573684594852,0.819058380663,0.00317830090736,0.0,0.8190298939,-0.573620310082,-0.0114245201385,0.0,-0.00753435607219,0.00915737096975,-0.999929685546,0.0,0.631403643328,0.221494441861,0.304081801864,1.0,-0.192070285714,-0.252435232653,1.199
0.43693794945,0.380155029362,-0.125886512821,-1.61342324271,0.0629530487453,1.98582928279,0.119823488403,-0.203666169031,-0.928903409019,-0.0165595303208,-1.36055510433,-0.108204282752,0.465439443615,-0.249012667314,0.573613641812,0.819108245301,0.0031335775524,0.0,0.819079704799,-0.573550132451,-0.0113767153695,0.0,-0.00752164235832,0.00909266397351,-0.999930371755,0.0,0.628070608748,0.217104028929,0.304100582868,1.0,-0.206845714286,-0.271854367347,1.216
0.43324312989,0.364016430876,-0.126060885472,-1.63742102147,0.0611679114193,1.99376718256,0.115529068575,-0.221986397834,-0.963255899892,-0.0143914737596,-1.42232099754,-0.106337072602,0.46931006952,-0.249011611604,0.573623422361,0.81910132464,0.00315217281827,0.0,0.819072901082,-0.573559708582,-0.0113837738009,0.0,-0.00751664959546,0.00911203405691,-0.999930232973,0.0,0.624480834743,0.212401135745,0.304128064276,1.0,-0.221621142857,-0.291273502041,1.233
0.429363984044,0.34809360888,-0.126258130917,-1.66115251611,0.0593647155939,2.00144614541,0.111105735525,-0.25096977981,-0.995350935034,-0.010060746161,-1.46972422816,-0.10731183076,0.465602392087,-0.286071985804,0.573633108833,0.819095132768,0.00299446616024,0.0,0.81906437288,-0.573569515224,-0.0115026599723,0.0,-0.00770438662665,0.00905114140995,-0.999929357138,0.0,0.620844697567,0.207613850711,0.304052265806,1.0,-0.235527428571,-0.309550334694,1.249
0.424866078737,0.330276971397,-0.126468938056,-1.68721819512,0.0573562364951,2.0098791118,0.106104488851,-0.272396050805,-1.0409425878,-0.00732132633798,-1.51744566524,-0.116950611554,0.490232457217,-0.30134427071,0.573653749889,0.819080263777,0.00310541949063,0.0,0.819050721804,-0.573589552026,-0.0114755313585,0.0,-0.00761829175338,0.00912665338746,-0.999929330417,0.0,0.616786852761,0.20225602591,0.304105782815,1.0,-0.250302857143,-0.328969469388,1.266
0.420018254682,0.311681927725,-0.126631079611,-1.71424934536,0.0551060175119,2.01843047246,0.100735804366,-0.29256803751,-1.09157277681,-0.00614815607339,-1.55939102884,-0.130019066687,0.489214842645,-0.334510649783,0.573512331944,0.819179290202,0.00310523969507,0.0,0.81915005745,-0.573448526459,-0.0114331877419,0.0,-0.00758528153185,0.00910090665866,-0.999929816038,0.0,0.612440677121,0.19663942037,0.304131858058,1.0,-0.265078285714,-0.348388604082,1.283
0.414996089463,0.293401445635,-0.126831987332,-1.74057295801,0.0528806063968,2.0265193492,0.0953061871284,-0.329431915077,-1.1427760077,-0.0110966055857,-1.61495614845,-0.130576130623,0.491132789831,-0.341900941786,0.573426766192,0.819239251447,0.00308862495949,0.0,0.819209716524,-0.573362917192,-0.0114521806563,0.0,-0.00761131943292,0.00909739365013,-0.999929650148,0.0,0.607830532593,0.190647267641,0.30416642191,1.0,-0.279853714286,-0.367807738775,1.3
0.40880536801,0.272088572641,-0.12708075771,-1.7708861116,0.0503911949494,2.03577006737,0.0888210969902,-0.357737471769,-1.19559337609,-0.0118531516326,-1.67414114205,-0.13798078544,0.523331610923,-0.373382255954,0.57341487874,0.819246952452,0.00324879029636,0.0,0.819218941294,-0.573349888486,-0.0114445838734,0.0,-0.00751339156234,0.00922414281443,-0.999929229564,0.0,0.603009342183,0.18433843458,0.304240558512,1.0,-0.294629142857,-0.387226873469,1.317
0.402329459999,0.251177695501,-0.127436193032,-1.80027819353,0.0477682557464,2.04462120828,0.0823098182374,-0.393448759004,-1.25941581213,-0.0225287172239,-1.73158294266,-0.157055088475,0.541077179451,-0.392322223738,0.573554582636,0.819148371414,0.00343994890104,0.0,0.819123544745,-0.573489938508,-0.0112541447725,0.0,-0.00724617778972,0.00927278797541,-0.999930751758,0.0,0.597999884908,0.177580062449,0.30434609992,1.0,-0.309404571429,-0.406646008163,1.334
0.39579640222,0.230911170585,-0.127713322007,-1.82850657992,0.0452031996383,2.0528574644,0.0757336980818,-0.411529370998,-1.2895552351,-0.0132133894667,-1.77152295636,-0.163547665467,0.53775005228,-0.420783026762,0.573539751649,0.819158129582,0.00358593344531,0.0,0.819135342728,-0.573474948269,-0.0111588934535,0.0,-0.00708459169285,0.0093376135797,-0.999931306407,0.0,0.593024468327,0.171010962218,0.304423383024,1.0,-0.323310857143,-0.424922840816,1.35
0.388384762408,0.208730478942,-0.127946772175,-1.85916706049,0.0423591849635,2.06142776387,0.0682867584106,-0.446310438654,-1.30887023785,-0.0119450190537,-1.80190484144,-0.171562338879,0.50145719186,-0.449591689443,0.573373738543,0.819274252145,0.00360591499401,0.0,0.819251221771,-0.573308247796,-0.0112176440461,0.0,-0.00712316327274,0.00938623348287,-0.999930577173,0.0,0.587413543455,0.163810722546,0.304446845843,1.0,-0.338086285714,-0.44434197551,1.367
0.380246528872,0.185873795191,-0.128299455688,-1.89045278319,0.0393255606431,2.0698321202,0.0603224614885,-0.49116125074,-1.35245471333,-0.0280477922763,-1.86326677727,-0.175272512018,0.473464738656,-0.485070490613,0.573326237028,0.819307937269,0.00350382146709,0.0,0.819283276337,-0.573260608662,-0.0113108165681,0.0,-0.00725857871453,0.00935559035609,-0.999929890524,0.0,0.581546867089,0.156153575718,0.304434818118,1.0,-0.352861714286,-0.463761110204,1.384
0.371854444249,0.16381752784,-0.128754368275,-1.92030100548,0.0363793567879,2.07762215631,0.0523723471928,-0.535573283662,-1.40342134136,-0.0246379669788,-1.90665695848,-0.203296383836,0.473139139433,-0.52370570196,0.57349631675,0.819189168879,0.00343906484415,0.0,0.81916325223,-0.573430307903,-0.0114015382784,0.0,-0.00736809451241,0.00935607588377,-0.999929084999,0.0,0.575838625487,0.148532376324,0.304414599463,1.0,-0.366768,-0.482037942857,1.4
0.36181075626,0.138342593124,-0.129169617278,-1.95405954348,0.0328409653836,2.08617850282,0.0428713141349,-0.578939073083,-1.43259287766,-0.0322046746491,-1.87085198477,-0.198284202127,0.474345320242,-0.541173030884,0.573457257884,0.819216037844,0.00355015778587,0.0,0.819191869031,-0.573391351225,-0.0113042892392,0.0,-0.00722516437809,0.00939096790664,-0.999929800897,0.0,0.569191139155,0.139788743106,0.304508016387,1.0,-0.382412571429,-0.502599379592,1.418
0.352080570883,0.115100240739,-0.129650997514,-1.98453434261,0.029620038944,2.09360440126,0.0338003262206,-0.626583428939,-1.47956312711,-0.036744703285,-1.92433722267,-0.198193359117,0.473993220795,-0.576939487788,0.573540701651,0.819157182524,0.00364976297629,0.0,0.819134071034,-0.573474222656,-0.0112887785542,0.0,-0.00715437679279,0.00946440139686,-0.999929617523,0.0,0.563033688214,0.131613539793,0.304546066626,1.0,-0.396318857143,-0.520876212245,1.434
0.341015995352,0.0898037118389,-0.130145736408,-2.01718568128,0.0259055617696,2.10111834799,0.0235459018746,-0.655863703578,-1.49957032439,-0.0133564425766,-1.92946010898,-0.214837156171,0.426233180448,-0.607698758696,0.573485520552,0.819195820697,0.00364855739881,0.0,0.819173144076,-0.573419648854,-0.0112255616138,0.0,-0.00710391542896,0.00942667877409,-0.99993033363,0.0,0.556217972383,0.122652730669,0.304594153464,1.0,-0.40998,-0.538830857143,1.451
0.329222246086,0.0644482595656,-0.13062290437,-2.04968910736,0.0222156479987,2.10817268483,0.0126900368015,-0.70826334513,-1.46511602876,-0.0311359273427,-1.9043527938,-0.223802875394,0.396291317099,-0.643688579006,0.57342134768,0.819241238176,0.00353533577568,0.0,0.819216200335,-0.573354609127,-0.0114042186149,0.0,-0.00731594597137,0.00943580841703,-0.999928718687,0.0,0.549206491303,0.113513584234,0.304512286218,1.0,-0.40998,-0.538830857143,1.468
0.316624191009,0.0392564821116,-0.131172707898,-2.08118588941,0.0184067877033,2.11444510107,0.00161473365015,-0.746785277064,-1.47307473461,-0.0286107144942,-1.82565652293,-0.214245562003,0.355754034538,-0.652028744358,0.573728280406,0.819026758832,0.00343154203339,0.0,0.81900008339,-0.57366142447,-0.0114969728228,0.0,-0.00744792849216,0.00940675276816,-0.999928018091,0.0,0.542226179014,0.104152677231,0.304540375861,1.0,-0.40998,-0.538830857143,1.485
0.302883976691,0.0128299912246,-0.131598225512,-2.11338031226,0.0144412813743,2.12067867944,-0.0105626771316,-0.773427239779,-1.47439185105,-0.0236092194867,-1.75454086235,-0.230981815337,0.359508057264,-0.688527082612,0.573790306301,0.818982079092,0.00371287250403,0.0,0.818959252718,-0.573722923553,-0.0113356198844,0.0,-0.00715364720277,0.0095451438705,-0.999928855249,0.0,0.535310930592,0.0949811057117,0.30470227133,1.0,-0.40998,-0.538830857143,1.502
0.29012912954,-0.0102409148582,-0.132045543107,-2.14117532942,0.0109066662871,2.12566821377,-0.0218124629971,-0.793010274683,-1.44586459504,-0.0182012886252,-1.72159407647,-0.221648777208,0.333252181872,-0.710023195582,0.573909917965,0.818897294702,0.00392093003431,0.0,0.818877327727,-0.573842228601,-0.0112145312187,0.0,-0.00693368754227,0.00964707713659,-0.99992942645,0.0,0.528393539176,0.0857384449102,0.304800784371,1.0,-0.40998,-0.538830857143,1.519
0.277058313794,-0.0330518263226,-0.132367146022,-2.16823254059,0.00730539483211,2.1300872367,-0.0333467639342,-0.825368477211,-1.42485917753,-0.0332394106056,-1.67609070945,-0.239027001863,0.285637664685,-0.727701422552,0.573834090129,0.818950073355,0.00399515442223,0.0,0.818931283404,-0.573766545767,-0.0111467898022,0.0,-0.00683650999756,0.00966835106814,-0.999929890102,0.0,0.521836755904,0.0771705247939,0.304868979246,1.0,-0.40998,-0.538830857143,1.535
0.262497791292,-0.056961265263,-0.132875776034,-2.19622004374,0.00352903062665,2.13422910874,-0.0460732583082,-0.864427428811,-1.38997395241,-0.0132359426851,-1.60918648864,-0.23564782498,0.229957386875,-0.771475339464,0.573991673697,0.818839451469,0.00403213907552,0.0,0.818820776913,-0.573923509571,-0.01118424598,0.0,-0.00684409420408,0.00972145048759,-0.99992932339,0.0,0.514865975957,0.067905399091,0.304892884752,1.0,-0.40998,-0.538830857143,1.552
0.247517472669,-0.0805468984208,-0.133335271257,-2.2234106446,-0.000242551165969,2.13779173888,-0.0592511825854,-0.900545597586,-1.39665082678,-0.035794929915,-1.61128711317,-0.218948184383,0.188111789293,-0.785488437323,0.574002951031,0.81883167283,0.00400632995903,0.0,0.818812015766,-0.573933930357,-0.0112904084747,0.0,-0.00694570908498,0.00976134682856,-0.999928234042,0.0,0.507858298527,0.0587324735298,0.30488511154,1.0,-0.40998,-0.538830857143,1.569
0.232027573587,-0.103748669386,-0.133753481513,-2.24975757959,-0.00401336432757,2.1408803291,-0.0729152056364,-0.914948512501,-1.38947554621,-0.0171130506641,-1.55534019987,-0.220592762937,0.16437924878,-0.811079089762,0.57392472172,0.818886693706,0.00396781683889,0.0,0.818865991239,-0.573855047133,-0.0113850855532,0.0,-0.00704627900986,0.00978348068906,-0.999927314087,0.0,0.50086109364,0.0496080163205,0.304852250348,1.0,-0.40998,-0.538830857143,1.586
0.216891301665,-0.12520535527,-0.134219349896,-2.27376808532,-0.00758070489779,2.14331606893,-0.0861440811439,-0.96496000888,-1.36292432603,-0.0378820813471,-1.5036153333,-0.223417132723,0.15149579035,-0.841278861339,0.573993097317,0.818839211843,0.00387508476968,0.0,0.818816813166,-0.573922988576,-0.0114968066184,0.0,-0.00719017427126,0.00977226034831,-0.999926399452,0.0,0.494292721141,0.0409645229825,0.304793665397,1.0,-0.40998,-0.538830857143,1.602
0.200416319375,-0.147729723483,-0.134563109108,-2.29850475692,-0.0112981106568,2.14542338209,-0.100799361631,-0.971681124132,-1.34437904716,-0.0221240652044,-1.45541291438,-0.227126798663,0.131056077595,-0.875533102564,0.573743829924,0.819014119148,0.0038258544555,0.0,0.818990399037,-0.573672981248,-0.0116096413705,0.0,-0.00731381168292,0.00979448674535,-0.999925285303,0.0,0.487300362819,0.0319464116778,0.304749107375,1.0,-0.40998,-0.538830857143,1.619
0.183236771875,-0.169964436868,-0.135092013935,-2.32245139786,-0.014996164374,2.14698461737,-0.115903584031,-1.01219479117,-1.33240382794,-0.022428335684,-1.39491370453,-0.223166651255,0.0995401377998,-0.898913318844,0.573803773578,0.818972353065,0.00377640634413,0.0,0.818946976237,-0.573731726084,-0.0117687509224,0.0,-0.00747178136024,0.00984581980865,-0.99992361324,0.0,0.480302867997,0.0227837883393,0.304712965201,1.0,-0.40998,-0.538830857143,1.636
0.165476574544,-0.191791168784,-0.135636345991,-2.3456056895,-0.0186926929253,2.14804728745,-0.131657309477,-1.0675232421,-1.2949833827,-0.0409285418009,-1.32667149859,-0.208570347526,0.0622430261419,-0.943069278897,0.573767396212,0.81899841632,0.00364911088915,0.0,0.818970082848,-0.573694114268,-0.0119922289868,0.0,-0.00772829190253,0.00986945266532,-0.999921430618,0.0,0.473293668522,0.0136232607307,0.304641839825,1.0,-0.40998,-0.538830857143,1.653
0.148255933186,-0.212138180895,-0.136137906902,-2.36677438315,-0.0220668072621,2.14869212751,-0.146994103989,-1.08183920125,-1.25899606453,-0.0299137323675,-1.2913928667,-0.213052725743,0.0280431178748,-0.962068955861,0.573722579799,0.81902982509,0.00364608597979,0.0,0.818999953134,-0.573647411185,-0.0121848803619,0.0,-0.00788836452375,0.00997707733201,-0.999919112545,0.0,0.466673407819,0.00504563291119,0.304595908769,1.0,-0.40998,-0.538830857143,1.669
0.129268675005,-0.233456627806,-0.136795876392,-2.38836437892,-0.0258218358866,2.14905590084,-0.163780232537,-1.12331253372,-1.24533489182,-0.0287918620317,-1.27056862364,-0.222113851206,0.0155609202074,-1.01125622044,0.573823014064,0.818959210928,0.00370219767537,0.0,0.818930790382,-0.573748527403,-0.0120720656036,0.0,-0.00776254830973,0.0099592644858,-0.999920274769,0.0,0.459706663542,-0.00418857862789,0.304641980667,1.0,-0.40998,-0.538830857143,1.686
0.109678409378,-0.254324623369,-0.137489029977,-2.40900944384,-0.0292754681627,2.14902986347,-0.181242428521,-1.16540784545,-1.21662770221,-0.0367349602476,-1.20924426476,-0.210209979004,-0.00827855204924,-1.03607735343,0.573994664366,0.818837528568,0.00399674717794,0.0,0.818812754833,-0.573918801939,-0.011984498508,0.0,-0.00751969356479,0.0101518212198,-0.999920194183,0.0,0.45279014121,-0.0133930990407,0.304732351519,1.0,-0.40998,-0.538830857143,1.703
0.0895107867706,-0.274837297796,-0.138154077721,-2.42888539587,-0.0328336984405,2.14879224781,-0.199330993321,-1.20293223437,-1.2127684147,-0.0516058878053,-1.15681832873,-0.201630281056,-0.0234925835654,-1.06320611461,0.574025054949,0.818814688336,0.0042999253056,0.0,0.818795545531,-0.573950531362,-0.0116356808152,0.0,-0.00705965786663,0.0102001283898,-0.999923056346,0.0,0.445898704442,-0.022577915499,0.304854639277,1.0,-0.40998,-0.538830857143,1.72
0.0687982278663,-0.294684804691,-0.138710440797,-2.44796929232,-0.036229938033,2.14796555056,-0.218075462747,-1.24178846897,-1.1668734836,-0.0237273050717,-1.08660640062,-0.19706050647,-0.0520984394673,-1.11082683648,0.573926850806,0.818883123568,0.00437570103048,0.0,0.81886452235,-0.573851467842,-0.0116676387294,0.0,-0.00704356559867,0.0102796754022,-0.999922355214,0.0,0.438952390203,-0.0316606975216,0.304860678238,1.0,-0.40998,-0.538830857143,1.737
0.0461202088662,-0.315233089619,-0.139452373404,-2.46736327584,-0.0398406587229,2.1467621379,-0.238603283412,-1.25767424397,-1.12341073356,-0.0403978762316,-1.05714990829,-0.183210972111,-0.0821825814375,-1.14186692124,0.573966872842,0.81885466382,0.00445144039789,0.0,0.818836865702,-0.573890984417,-0.0116650020617,0.0,-0.00699743455194,0.0103405273455,-0.999922051664,0.0,0.431573926766,-0.0413682420319,0.304864743452,1.0,-0.40998,-0.538830857143,1.755
0.0267211354666,-0.331885026584,-0.140024637081,-2.48273089262,-0.0427988860061,2.14554149684,-0.256289921626,-1.29757222946,-1.09017332881,-0.025444071599,-1.01856170993,-0.202848306435,-0.0809972875104,-1.20197403439,0.5739131902,0.818891761773,0.00454747353162,0.0,0.818875781153,-0.573837877233,-0.0115452412382,0.0,-0.00684492216543,0.0103499814403,-0.999923009499,0.0,0.425468858623,-0.0494230520566,0.304905589013,1.0,-0.40998,-0.538830857143,1.77
0.00406536516715,-0.350188361411,-0.140737388964,-2.49950109451,-0.0460454891963,2.14373671204,-0.277019694479,-1.3403537667,-1.06568545119,-0.0327707465539,-0.95827355139,-0.18210313103,-0.11583946471,-1.22490277111,0.573924726262,0.818883791502,0.00452675403746,0.0,0.818866387939,-0.573847742008,-0.0117198377448,0.0,-0.00699965235021,0.0104333122708,-0.999921072316,0.0,0.418461296554,-0.0585879564265,0.304861346425,1.0,-0.40998,-0.538830857143,1.787
-0.019241515385,-0.367999745124,-0.141497752311,-2.51534448818,-0.0491908594208,2.14180513792,-0.298419177628,-1.39275930075,-1.02252999965,-0.0631137323842,-0.925727378214,-0.196397916318,-0.120180816713,-1.27979345757,0.574002144253,0.818828580448,0.00469479881062,0.0,0.818813536732,-0.573924892775,-0.011634277738,0.0,-0.00683214876082,0.010522467777,-0.99992129661,0.0,0.411507553138,-0.0677784059837,0.304914246969,1.0,-0.40998,-0.538830857143,1.804
-0.0416458955886,-0.384146082432,-0.14215241646,-2.52950326952,-0.0521042665755,2.13972693423,-0.319177174531,-1.41842436948,-1.00638387513,-0.0530747898324,-0.839122099845,-0.173801748344,-0.127506374559,-1.30556478169,0.573928325321,0.818880018169,0.00474764557775,0.0,0.81886560036,-0.573850832436,-0.0116231476171,0.0,-0.00679365376387,0.0105587405816,-0.999921176526,0.0,0.404950563854,-0.0763593099934,0.304939455247,1.0,-0.40998,-0.538830857143,1.82
-0.0676137458335,-0.40152160796,-0.142949420804,-2.54458336744,-0.0551870484586,2.13730099855,-0.343272681815,-1.45784235877,-0.954994415619,-0.044110986653,-0.850010207382,-0.184569514579,-0.143648142109,-1.3536296668,0.57400043353,0.818828691693,0.00488086760412,0.0,0.81881539914,-0.573921570633,-0.0116670387935,0.0,-0.00675220091063,0.0106936207663,-0.999920023931,0.0,0.397562050083,-0.0860596929805,0.304926746575,1.0,-0.40998,-0.538830857143,1.838
-0.0912142754506,-0.416322936558,-0.143596949661,-2.55699214095,-0.0579030927482,2.13498087628,-0.365337094709,-1.49672170176,-0.93286435294,-0.0402950741837,-0.756592476472,-0.16464234296,-0.131770267516,-1.39576381928,0.573943336731,0.818867987782,0.0050011708282,0.0,0.818857193295,-0.57386563459,-0.011483785379,0.0,-0.00653382995087,0.0106864925544,-0.999921550894,0.0,0.391057378699,-0.0946616519803,0.305017326873,1.0,-0.40998,-0.538830857143,1.854
-0.116854448817,-0.431185627421,-0.144306774447,-2.56951665556,-0.0605720529646,2.13238718262,-0.389465894387,-1.52566799358,-0.851934018972,-0.0343795830907,-0.719821190143,-0.154965336328,-0.159379253719,-1.43010407726,0.573906090749,0.818893600674,0.00508101151272,0.0,0.818882764115,-0.573826394528,-0.0116204336945,0.0,-0.0066004073509,0.0108299989375,-0.999919569638,0.0,0.38407522364,-0.1037674797,0.304985841559,1.0,-0.40998,-0.538830857143,1.871
-0.143077678092,-0.445247590177,-0.144997440866,-2.5809983772,-0.0632084753069,2.12971846525,-0.414183811404,-1.57024763399,-0.810288513294,-0.0408572338692,-0.648928682798,-0.138680020356,-0.144637989097,-1.47972571883,0.573893799231,0.818901769083,0.00515234885774,0.0,0.818892090149,-0.573814272733,-0.0115616607635,0.0,-0.0065114985066,0.0108545921308,-0.999919885899,0.0,0.377142472363,-0.112895965166,0.305039984836,1.0,-0.40998,-0.538830857143,1.888
-0.169863980452,-0.458356886392,-0.14567498022,-2.59171541584,-0.0656824635368,2.12710203016,-0.439661894024,-1.59443331637,-0.744674614945,-0.0345208549578,-0.608665286307,-0.12910052248,-0.169927615575,-1.5053376188,0.573804560346,0.818964000289,0.00519996701521,0.0,0.818954391646,-0.573723990174,-0.0116290327861,0.0,-0.00654053931093,0.0109315383346,-0.999918858116,0.0,0.370181638206,-0.12200581096,0.305017089954,1.0,-0.404274857143,-0.531332669388,1.905
-0.200008479139,-0.471446703633,-0.146123784816,-2.60237611122,-0.068033029355,2.12427590375,-0.468258807686,-1.59741177686,-0.666768603951,-0.0294824264791,-0.52662649657,-0.10664354686,-0.148742046903,-1.49496219243,0.57378440692,0.818977883341,0.00523716288693,0.0,0.818967310583,-0.573701308981,-0.0118363496028,0.0,-0.00668927012977,0.0110807913811,-0.999916231355,0.0,0.362583764947,-0.131943409132,0.304947021727,1.0,-0.387761142857,-0.509628930612,1.924
-0.22202389801,-0.480153835856,-0.146274577694,-2.60915024564,-0.0695293193841,2.12236552433,-0.489002616479,-1.58613268374,-0.607782576889,-0.00921989371279,-0.472538096353,-0.0992905928378,-0.135768694929,-1.47926208561,0.573899213514,0.818896693293,0.00535213443513,0.0,0.818888432781,-0.57381708205,-0.0116806637801,0.0,-0.00649423581487,0.0110865381866,-0.999917453379,0.0,0.357234068557,-0.139053167495,0.305016412281,1.0,-0.375593142857,-0.493636702041,1.938
-0.248383454299,-0.489550324547,-0.14629521505,-2.61664989956,-0.0710685833531,2.12009292505,-0.513982636868,-1.55418341302,-0.524336334019,0.00284238039724,-0.427195785299,-0.0990848078215,-0.131775234276,-1.44987109367,0.573943550342,0.818865340356,0.00539465333037,0.0,0.818856276105,-0.57385895764,-0.0118761408323,0.0,-0.00662931760268,0.011233896458,-0.99991492224,0.0,0.350852272754,-0.147350176839,0.304965272485,1.0,-0.360817714286,-0.474217567347,1.955
-0.274182039142,-0.497749953444,-0.146128857754,-2.62302960261,-0.0722166159469,2.11814474935,-0.538530516644,-1.51333510956,-0.460616346742,0.0144319999879,-0.350867605967,-0.0736434988401,-0.115238067875,-1.42411244332,0.573976718065,0.818840787522,0.00558916014333,0.0,0.81883409629,-0.573891142004,-0.0118501807363,0.0,-0.00649596689642,0.0113785418147,-0.999914161916,0.0,0.344792459103,-0.155312277693,0.304981675114,1.0,-0.346042285714,-0.454798432653,1.972
-0.29920630407,-0.504705830829,-0.145817488066,-2.62842088356,-0.0731592126301,2.11637495297,-0.562372119587,-1.46283505919,-0.392142708977,0.023400576586,-0.297878385695,-0.0602577390543,-0.102912942935,-1.39731654131,0.573994649872,0.8188273827,0.00571018041149,0.0,0.818821879288,-0.573907940003,-0.0118807955404,0.0,-0.00645132704777,0.0114953550532,-0.999913114821,0.0,0.339015256474,-0.162907442707,0.304983704913,1.0,-0.331266857143,-0.435379297959,1.989
-0.322159207715,-0.510341815395,-0.145509855203,-2.63263703523,-0.0738893073467,2.11504055931,-0.584271169893,-1.40603577344,-0.330019846629,0.0245372964455,-0.250560766471,-0.0413287259179,-0.0871202217711,-1.35952728845,0.574056826915,0.818782557213,0.005884757961,0.0,0.81878062272,-0.573971855236,-0.01163392266,0.0,-0.00614808587121,0.0114970798691,-0.999915005485,0.0,0.33351972901,-0.170251820954,0.305054866871,1.0,-0.316491428572,-0.415960163265,2.006
-0.345825581014,-0.515344210582,-0.144978704045,-2.63653899968,-0.0745014207148,2.11359941664,-0.606880510147,-1.36737957525,-0.273392701186,0.0232648718461,-0.214048167464,-0.0283855508278,-0.076989966738,-1.29825690075,0.574058536427,0.818781246225,0.0059003802624,0.0,0.818778542869,-0.573971701231,-0.0117868920706,0.0,-0.00626435548985,0.0115976940563,-0.999913121898,0.0,0.328488743716,-0.176811053018,0.305020719192,1.0,-0.302585142857,-0.397683330612,2.022
-0.368569974737,-0.519406125633,-0.144313951142,-2.6398126741,-0.074927192416,2.1124112839,-0.628706081886,-1.32277922834,-0.217700379622,0.0411151726326,-0.179997336685,-0.0222255596077,-0.0596513852266,-1.27437751687,0.573958629482,0.81885135601,0.00589027203305,0.0,0.818847221327,-0.573869469043,-0.0119919775936,0.0,-0.00643952381044,0.0117063572952,-0.999910742883,0.0,0.323402844136,-0.183412094122,0.304945330318,1.0,-0.287809714286,-0.378264195918,2.039
-0.391613732167,-0.522840050315,-0.143582587638,-2.64249157746,-0.075196521322,2.11138744842,-0.650840004801,-1.25078893258,-0.170471047434,0.0518962448743,-0.131867437261,-0.0206332489143,-0.0546269394762,-1.2141228356,0.573907433517,0.818886946939,0.00593066502891,0.0,0.818882771571,-0.573817086053,-0.0120708359319,0.0,-0.00648165785003,0.0117842887703,-0.999909555235,0.0,0.318332521828,-0.190061967351,0.304921074645,1.0,-0.272165142857,-0.357702759184,2.057
-0.41131051218,-0.525250574497,-0.142945528475,-2.64432546085,-0.0752988787735,2.11065690576,-0.669737541048,-1.21741000639,-0.13258161916,0.0279623513304,-0.101096322429,-0.0100229955985,-0.0424113802746,-1.16578890435,0.573955712907,0.81885249257,0.00601514206301,0.0,0.818849326667,-0.573864830122,-0.0120699572071,0.0,-0.00643175989743,0.0118533441353,-0.999909061214,0.0,0.31404182613,-0.195722957679,0.304925562291,1.0,-0.258258857143,-0.339425926531,2.073
-0.430042697045,-0.527089028841,-0.142159478919,-2.64577898385,-0.0753632595036,2.11009999123,-0.687784352861,-1.15104249358,-0.102253423946,0.0481035262992,-0.0789223188399,-0.00394131628701,-0.029910327473,-1.11182306673,0.573849867853,0.818926913413,0.00598218632833,0.0,0.818923352389,-0.573759210287,-0.0120689031737,0.0,-0.00645133932903,0.0118249182403,-0.999909271649,0.0,0.309745586665,-0.201368237716,0.304912879558,1.0,-0.243483428572,-0.320006791837,2.09
-0.449061045151,-0.528509440392,-0.141399585993,-2.64690185572,-0.0753250463015,2.1096221621,-0.706017678947,-1.09216307506,-0.0738590529066,0.045784758398,-0.0603683581491,0.0172587747361,-0.0181627315841,-1.04433348413,0.573900828842,0.818891041257,0.00600400743259,0.0,0.818887547211,-0.573809668632,-0.0120994259157,0.0,-0.00646307840563,0.0118607058368,-0.999908771976,0.0,0.30589432002,-0.206429626681,0.304899206935,1.0,-0.229577142857,-0.301729959184,2.106
-0.467072627178,-0.529499935778,-0.140609142166,-2.64767229375,-0.0753254208453,2.10925399689,-0.723222369659,-1.03773711822,-0.0525304969703,0.0589505954474,-0.036468413423,0.00664856329005,-0.0193954909186,-0.99323557867,0.573957354495,0.818852044986,0.00591866067361,0.0,0.818847593423,-0.573866830223,-0.0120924280187,0.0,-0.00650551162326,0.0117872459849,-0.999909365468,0.0,0.302019337672,-0.211513904377,0.304900254068,1.0,-0.214801714286,-0.28231082449,2.123
-0.485900930916,-0.530080950405,-0.139641172994,-2.64811964493,-0.0751142441425,2.10900057443,-0.741264964824,-0.97485811932,-0.0183016637286,0.0449916063379,-0.0130817610528,0.0126896179532,-0.00851923068115,-0.916541219231,0.573981195127,0.818835540321,0.00589002961978,0.0,0.818831004703,-0.573891309705,-0.0120539323128,0.0,-0.0064900763197,0.011741895414,-0.999909999351,0.0,0.298025600725,-0.216781255735,0.304913175333,1.0,-0.198288,-0.260607085714,2.142
-0.499724979092,-0.530284111465,-0.138795656383,-2.64825866674,-0.0748736719671,2.10887615303,-0.754623485263,-0.897605118782,-0.0063204045682,0.058314771829,-0.00376938163568,0.0131387934368,-0.00860126048129,-0.870751423527,0.573860235101,0.818920599114,0.00585062542239,0.0,0.818915972481,-0.573771298886,-0.0119947276266,0.0,-0.00646593307549,0.0116746925972,-0.999910942666,0.0,0.295120506509,-0.220605362285,0.304936038462,1.0,-0.185250857143,-0.243472555102,2.157
-0.513634907672,-0.530317901414,-0.137936394932,-2.64828315326,-0.0745248036116,2.10881797553,-0.767911624195,-0.862243230914,0.0024192908086,0.0494619719653,0.00508940494884,0.0179269621748,-0.00155662313608,-0.810685850312,0.573910570476,0.818885134167,0.00587716234673,0.0,0.818881247112,-0.573822233479,-0.0119287214333,0.0,-0.00639592936848,0.0116589418256,-0.999911576672,0.0,0.292194746228,-0.224431865688,0.30495517298,1.0,-0.171344571429,-0.225195722449,2.173
-0.527219514982,-0.530118939538,-0.136906037485,-2.64821358228,-0.0740667759646,2.10881191556,-0.781004465482,-0.774018621265,0.0147282836104,0.0606070140131,0.00842993144,0.0384384643192,0.00179457703884,-0.748353025368,0.573786293726,0.818972162796,0.00588494668969,0.0,0.818968248804,-0.573697717343,-0.0119450185225,0.0,-0.00640658051795,0.0116736971461,-0.99991133633,0.0,0.289361819681,-0.228097453378,0.304941024133,1.0,-0.156569142857,-0.205776587755,2.19
-0.54123849205,-0.529740172736,-0.135854454367,-2.64800360648,-0.0735280800825,2.10880765086,-0.79428970075,-0.716873315063,0.0184966283972,0.0551190913972,0.0120339895016,0.0301575652062,-0.00194544724581,-0.669166317028,0.57388755756,0.818900840644,0.00593560202885,0.0,0.818897185581,-0.573798025341,-0.0119988526277,0.0,-0.00642015738814,0.0117468661878,-0.999910392342,0.0,0.286424007505,-0.231868263943,0.304925628491,1.0,-0.140055428572,-0.18407284898,2.209
-0.551175838644,-0.529265496231,-0.134913247816,-2.64775221376,-0.0730669061576,2.10886500893,-0.803818013523,-0.64776907617,0.0284320596282,0.0595517114548,0.0210360911072,0.0315701130928,0.00849634447247,-0.6173357676,0.573770154389,0.818983186073,0.00592433652932,0.0,0.818978904671,-0.573679819022,-0.0120733529366,0.0,-0.00648932568627,0.0117794630113,-0.999909562362,0.0,0.284387266958,-0.234492630706,0.304896147158,1.0,-0.127018285714,-0.166938318367,2.224
-0.561522855796,-0.528696026432,-0.133939122978,-2.64744829328,-0.0725389039595,2.10895650208,-0.813597127646,-0.593059921981,0.0272017935663,0.0501913088049,0.0167636191489,0.023007863904,0.00719669650226,-0.545872102706,0.573790951119,0.818968430009,0.00594995497809,0.0,0.818963928504,-0.573699496659,-0.0121539394585,0.0,-0.00654033246238,0.0118468470736,-0.999908433941,0.0,0.282257840793,-0.237215201702,0.304859471094,1.0,-0.112242857143,-0.147519183674,2.241
-0.570361494521,-0.528141819725,-0.133095114148,-2.64707667169,-0.0720502303937,2.10905061231,-0.821774073034,-0.520762171675,0.0307735258891,0.0578233015836,0.0289571168453,0.0347765410251,0.0081899950677,-0.49958998361,0.573966666715,0.818845024917,0.00598644886327,0.0,0.818840913305,-0.573874858864,-0.0121635505403,0.0,-0.00652471596978,0.0118836506108,-0.999908099242,0.0,0.2804523387,-0.23954663758,0.304855744635,1.0,-0.0983365714287,-0.129242351021,2.257
-0.579283308236,-0.527446301947,-0.131980529627,-2.64663844951,-0.0714136251732,2.10919597297,-0.830195998263,-0.450748393315,0.0353450935161,0.0575686320954,0.0246216539642,0.0329018764962,0.00223041398152,-0.416788131239,0.573885529478,0.818901758121,0.00600470681476,0.0,0.818897706073,-0.573793332136,-0.0121862991041,0.0,-0.00653404683023,0.0119110106738,-0.99990771277,0.0,0.278695763963,-0.241830206831,0.304841651221,1.0,-0.081822857143,-0.107538612245,2.276
-0.585543330791,-0.526966912868,-0.131144106253,-2.64629538777,-0.0709407338762,2.10928357638,-0.835856703065,-0.391016122249,0.0320604298503,0.0562450730507,0.022196466189,0.0257606213636,-0.000767759307722,-0.355157346684,0.574006345582,0.81881704943,0.00600846872711,0.0,0.818813143269,-0.573914282745,-0.0121728949942,0.0,-0.00651915345615,0.011907361389,-0.999907853446,0.0,0.277471918758,-0.243416467251,0.304850983002,1.0,-0.0687857142858,-0.0904040816328,2.291
-0.591518130177,-0.52644579901,-0.13017583163,-2.64590106959,-0.0703502046091,2.10941089275,-0.84120010245,-0.334484132674,0.0305303481336,0.0581580251319,0.019613754781,0.0347926656902,0.00429406226114,-0.301683128462,0.574112789717,0.818742223954,0.00603508904526,0.0,0.81873907724,-0.57402134437,-0.0121064656234,0.0,-0.00644792880418,0.011891868944,-0.999908499647,0.0,0.27636378353,-0.244892299897,0.304874854791,1.0,-0.0540102857144,-0.0709849469389,2.308
-0.596278932027,-0.525964710896,-0.129147548299,-2.64559879202,-0.069728133631,2.10951345598,-0.84549383792,-0.25324634466,0.0247504869593,0.0658218018773,0.00894857105005,0.0375915178217,0.00540820786511,-0.215601022523,0.574050716794,0.818785585153,0.00605697897099,0.0,0.818782599715,-0.573958959962,-0.0121207913684,0.0,-0.00644799604634,0.0119175274108,-0.99990819373,0.0,0.275536446415,-0.245986562211,0.304870644928,1.0,-0.039234857143,-0.0515658122451,2.325
-0.599900381278,-0.525649579421,-0.128029496166,-2.64540543969,-0.0691494610059,2.1095497287,-0.848605857898,-0.198997699569,0.0111571908656,0.069288074667,0.0101024911847,0.0353334659307,-0.00140674738635,-0.166141534402,0.573935114815,0.818867037778,0.0060004435754,0.0,0.818863159911,-0.573843345298,-0.0121526663338,0.0,-0.00650822857084,0.0118886130273,-0.999908147702,0.0,0.274967728648,-0.246716212682,0.304873909326,1.0,-0.0244594285716,-0.0321466775512,2.342
-0.602398997777,-0.525432377324,-0.127108748022,-2.6452623872,-0.0686528522993,2.10959377427,-0.850593550725,-0.143002305323,0.0129912359255,0.0531316123177,0.00783295303437,0.0232354041326,0.000143901999069,-0.117979389745,0.573922142669,0.818876384163,0.00596561101464,0.0,0.818872164172,-0.573830732874,-0.0121414848727,0.0,-0.00651924980613,0.0118535680334,-0.999908491967,0.0,0.27461872702,-0.2471797115,0.304885756733,1.0,-0.0197630769231,-0.0259743296703,2.358
-0.604424101825,-0.525227857339,-0.126489858209,-2.64508424311,-0.0682962399403,2.10964692553,-0.852344555813,-0.108919392868,0.0145573734575,0.0360266736518,0.0114361659134,0.0180402151737,0.00148819055212,-0.0975000084717,0.573870453577,0.818912675736,0.00595641942088,0.0,0.81890871397,-0.573779782476,-0.0120841345175,0.0,-0.00647830261945,0.0118127189559,-0.999909241514,0.0,0.274322318455,-0.247605758204,0.304911462785,1.0,-0.0194230769231,-0.0255274725275,2.375
-0.606172893171,-0.525035245257,-0.126119832976,-2.64490153323,-0.0681023732446,2.10970799864,-0.854008589726,-0.098254060084,0.0139989039988,0.0193573150842,0.00933553886671,0.0105718397666,0.0012341538879,-0.0864717099429,0.573770391398,0.818982967076,0.0059316520009,0.0,0.818979163107,-0.573680721195,-0.0120128026197,0.0,-0.0064355302385,0.0117507160901,-0.999910248283,0.0,0.274031226653,-0.248031358619,0.304938135743,1.0,-0.0190830769231,-0.0250806153846,2.392
-0.607784312111,-0.524844748822,-0.1259288714,-2.64473920671,-0.0679521643043,2.10975472288,-0.855481617409,-0.0968795796986,0.0130631528899,0.00722325927664,0.00702101423447,0.00524210124041,0.00589418250604,-0.088500054719,0.573821241288,0.818947132019,0.00596027742244,0.0,0.818943893546,-0.573731796899,-0.0119779527314,0.0,-0.00638983238532,0.0117545628151,-0.999910496142,0.0,0.273725662618,-0.248457039573,0.304950751472,1.0,-0.0187430769231,-0.0246337582418,2.409
-0.609325812969,-0.524679048013,-0.125789554703,-2.64460574777,-0.0678947506574,2.10975934046,-0.856970204174,-0.0899000709146,0.0141102321357,0.0116808266316,0.00716758939944,0.00524499816748,0.000155043853259,-0.0864073087268,0.573797606479,0.818963823318,0.00594220463987,0.0,0.818960265482,-0.573708086274,-0.0119942572364,0.0,-0.00641389539933,0.0117489317865,-0.999910408261,0.0,0.273404988374,-0.248872238217,0.30495442622,1.0,-0.0184030769231,-0.0241869010989,2.426
-0.610679546116,-0.524542662968,-0.125729487206,-2.64447033163,-0.0678589746065,2.10977801713,-0.85826934309,-0.0820097126018,0.00568905180068,0.00524084456842,0.0076463651726,0.00101247015525,-0.000222353369777,-0.0794594415376,0.573822098882,0.818946663682,0.00594203498501,0.0,0.818943275982,-0.573732890398,-0.0119677942951,0.0,-0.00639196736801,0.01173380035,-0.999910726356,0.0,0.273115629352,-0.249258672716,0.30496902469,1.0,-0.0180830769231,-0.0237663296703,2.442
-0.612051573817,-0.524376869184,-0.125664664153,-2.6443254809,-0.0678173050935,2.10982438353,-0.859663395446,-0.0827502824702,0.00968914810996,0.00143065527773,0.0086657009856,0.00252943793165,0.00391166464145,-0.0845743441511,0.573774883035,0.818979716295,0.0059459900005,0.0,0.818976564334,-0.573686007064,-0.0119373058514,0.0,-0.00636540265176,0.0117191783613,-0.999911067299,0.0,0.272812566899,-0.249677901721,0.304977619924,1.0,-0.0177230769231,-0.0232931868132,2.46
-0.613415988923,-0.524214441954,-0.125660184087,-2.64417372672,-0.0677835322565,2.10986986605,-0.861041142989,-0.0841247652227,0.0122292165086,0.000760372702429,0.0108461943124,0.00432877675369,0.00103668313113,-0.0752512569466,0.573791742392,0.818967762323,0.00596552938016,0.0,0.818965146403,-0.573703306599,-0.0118891494662,0.0,-0.00631450777707,0.0117076818391,-0.999911524675,0.0,0.272531557103,-0.250062259876,0.304993024596,1.0,-0.0174030769231,-0.0228726153846,2.476
-0.614771065926,-0.524046348972,-0.125672611975,-2.64403128185,-0.0677621321403,2.1098731926,-0.862347190946,-0.0807783759019,0.00904198909075,0.000592091874193,0.00825514412781,0.000447976600944,-0.000657835121359,-0.0809646371668,0.573857299641,0.818921649761,0.00598983329214,0.0,0.818919235305,-0.573768542109,-0.0119034883641,0.0,-0.00631136792697,0.0117363193487,-0.99991120878,0.0,0.27222227609,-0.250464981737,0.304996117901,1.0,-0.0170630769231,-0.0224257582418,2.493
-0.616096313043,-0.523881181099,-0.125675354943,-2.64391289594,-0.0677372493859,2.10988894865,-0.86367231778,-0.0775694292758,0.00588690134993,-0.00429619916803,0.00751933603376,0.00188871914312,0.000111692503467,-0.0700317479615,0.57387628664,0.818908165307,0.00601426038401,0.0,0.818905897812,-0.573787110112,-0.0119260093142,0.0,-0.00631552291509,0.0117693938364,-0.999910793791,0.0,0.271918589962,-0.250852424064,0.304990634339,1.0,-0.0167230769231,-0.0219789010989,2.51
-0.617366537369,-0.523709652121,-0.125655630152,-2.64380460769,-0.0677161199128,2.10991027776,-0.864856679451,-0.073217496321,0.00543323686521,0.000836330812495,0.00575145523159,4.87747321465e-05,0.00280579878188,-0.0669439156248,0.57394754934,0.818858153862,0.00602340123595,0.0,0.81885578386,-0.573857908743,-0.0119604645564,0.0,-0.00633746950512,0.0117972033944,-0.999910327216,0.0,0.271630927367,-0.251218056265,0.304979227291,1.0,-0.0163830769231,-0.021532043956,2.527
-0.618513457793,-0.523539736629,-0.125598305453,-2.64371531104,-0.0676908361443,2.10993981547,-0.866065920461,-0.0738553820858,0.0134366846862,0.00669424927764,-0.000574149329093,0.00117559366362,0.00116544073543,-0.0884109590409,0.573871732473,0.818911320562,0.00601918802623,0.0,0.818908617888,-0.57378160884,-0.0120036580677,0.0,-0.00637635485478,0.0118179525309,-0.999909834984,0.0,0.271378910799,-0.25153746445,0.304961370157,1.0,-0.0160630769231,-0.0211114725275,2.543
-0.619711661562,-0.523370473296,-0.125491564104,-2.64361943365,-0.0676649448512,2.10997715414,-0.867325031723,-0.0640930666019,0.00616704486109,0.00905089451202,0.00431032363715,0.000711612496071,0.000319376480123,-0.0711916786306,0.573762653392,0.818987962723,0.00599010758472,0.0,0.81898472441,-0.57367238366,-0.0120318041111,0.0,-0.00641766700033,0.0118094338296,-0.999909671332,0.0,0.271126876394,-0.251862129093,0.304948575681,1.0,-0.0157230769231,-0.0206646153846,2.56
-0.620854826228,-0.523189214987,-0.125401387012,-2.64352364778,-0.0676388339232,2.10999669881,-0.868498029275,-0.0695094609515,0.015583390723,0.00769958351178,-0.000123386145232,0.00575712785514,0.000785961355094,-0.071580371269,0.573690881811,0.819038385036,0.00597016469756,0.0,0.819034526048,-0.57360004992,-0.01209027603,0.0,-0.006478038108,0.0118260798192,-0.999909085296,0.0,0.270881692601,-0.252172673903,0.304929414293,1.0,-0.0153830769231,-0.0202177582418,2.577
-0.621988850258,-0.523019720121,-0.125350773455,-2.64341421432,-0.0676067523915,2.11003158312,-0.869672758966,-0.0635652184769,0.0117620839028,-0.000755139287724,0.00492195646332,0.00269260033883,0.00532867187492,-0.0623474870014,0.573641309834,0.819073090437,0.00597219183656,0.0,0.819069137562,-0.573550260017,-0.0121076021072,0.0,-0.00649178388198,0.0118372866531,-0.99990886354,0.0,0.27063663413,-0.252494395917,0.304921136696,1.0,-0.0150430769231,-0.0197709010989,2.594
-0.62304451573,-0.52285387915,-0.125353833749,-2.64331941685,-0.0675801346906,2.110058456,-0.870743976109,-0.0681460067231,0.0107778232965,-0.00177021400413,0.00711485863597,0.00355774529125,-0.000173025947644,-0.0667155526136,0.573647303603,0.81906870709,0.00599758591363,0.0,0.819064816554,-0.573555651787,-0.0121444426859,0.0,-0.00650730895709,0.0118792671193,-0.999908264764,0.0,0.270394547981,-0.252802532248,0.304905579002,1.0,-0.0147230769231,-0.0193503296703,2.61
-0.624176336178,-0.522704038383,-0.125347784912,-2.64321109651,-0.0675555770466,2.1100657013,-0.871813262396,-0.0696929861857,0.00569397528411,0.00064201001666,0.00384552769926,0.00464989924277,-0.00191139453292,-0.0747442890039,0.573710491245,0.81902430967,0.00601658600207,0.0,0.819020475225,-0.573618392072,-0.0121716203051,0.0,-0.00651775401662,0.0119109227133,-0.999907820153,0.0,0.27013495802,-0.253130175369,0.304900573318,1.0,-0.0143830769231,-0.0189034725275,2.627
-0.625290376308,-0.522571869714,-0.125355899761,-2.6431035837,-0.0675270139969,2.11010032053,-0.872943498831,-0.0604811996319,0.0124706059226,0.0043181007465,0.0059141061945,0.0013055217526,0.00210317902558,-0.064800897193,0.573720788469,0.819016892403,0.00604431450393,0.0,0.819013504949,-0.573628720384,-0.0121538785172,0.0,-0.00648716431736,0.0119235375378,-0.999907868732,0.0,0.269881473362,-0.253459312871,0.30490368533,1.0,-0.0140430769231,-0.0184566153846,2.644
-0.626311189044,-0.52245957841,-0.125350050466,-2.6429856451,-0.0675053849314,2.11011978337,-0.873935857425,-0.0627468425447,0.0061908209827,-0.00027414154572,0.0104181049939,0.00134435125339,0.00318141405796,-0.0593021475709,0.573757651191,0.818990973818,0.00605717799416,0.0,0.818987968519,-0.573665913735,-0.0121191476851,0.0,-0.00645080021372,0.0119144390005,-0.999908212447,0.0,0.269639718135,-0.25378094538,0.3049183601,1.0,-0.0137030769231,-0.0180097582418,2.661
-0.627367737862,-0.522301026667,-0.125326968405,-2.64284408375,-0.0674710388867,2.11016353622,-0.875031952881,-0.0610385866231,0.00967949515058,0.00282668658318,0.0094252839836,6.15213548451e-05,0.00379872777416,-0.0668329513879,0.573728466938,0.819011329669,0.00606918444478,0.0,0.819008663136,-0.57363702069,-0.0120882217099,0.0,-0.00641900523874,0.0119063007812,-0.999908514002,0.0,0.269430413667,-0.254076568519,0.304928271657,1.0,-0.0133630769231,-0.0175629010989,2.678
-0.628350498733,-0.522143624635,-0.125267977761,-2.64272750098,-0.0674456318377,2.11018983555,-0.876071175383,-0.0529192338509,0.00645561068271,0.00200493040557,0.00630065384621,0.000486085389158,0.000884011123684,-0.0661100799686,0.573657468839,0.81906113123,0.00605959200486,0.0,0.819058290783,-0.573565988524,-0.0120962808453,0.0,-0.00643214143314,0.0119025100826,-0.999908474717,0.0,0.269223365334,-0.254355829319,0.304927099466,1.0,-0.0130230769231,-0.017116043956,2.695
-0.629266466202,-0.5219996684,-0.125203323796,-2.64263721973,-0.0674198700292,2.11021390535,-0.877007457834,-0.0553049241393,0.00968493573111,0.00134214330818,0.00336953167106,0.00126572690919,0.00112541795938,-0.0633502137912,0.573610917639,0.819093807207,0.00604955045107,0.0,0.819090690186,-0.57351922178,-0.0121198350095,0.0,-0.00645787266789,0.0119074293906,-0.999908250294,0.0,0.269028050857,-0.254608958059,0.304918850038,1.0,-0.0127030769231,-0.0166954725275,2.711
-0.630217086762,-0.52186268192,-0.125148079244,-2.64255189448,-0.067396724709,2.1102432885,-0.877922220322,-0.0558314378786,0.00776906564968,0.00786865279717,0.0100392358537,0.000450666083283,0.00383414029645,-0.0532726863408,0.573615651016,0.819090549708,0.00604178699612,0.0,0.819087234242,-0.57352380919,-0.0121363048377,0.0,-0.0064757485868,0.011910554316,-0.999908097465,0.0,0.268821292535,-0.254873204691,0.304911130915,1.0,-0.0123630769231,-0.0162486153846,2.728
-0.631095372272,-0.521732059835,-0.125132837317,-2.64247403734,-0.0673785175624,2.11025961398,-0.878806215611,-0.051418251788,0.0047317229947,0.000844472475408,0.00266436232274,0.000464735033796,0.00213115464194,-0.0483694841238,0.573603804666,0.819098775355,0.00605131276019,0.0,0.81909538171,-0.573511551014,-0.0121656654392,0.0,-0.00649450893524,0.0119351041051,-0.999907683061,0.0,0.268607265932,-0.25514080725,0.304901592481,1.0,-0.0120230769231,-0.0158017582418,2.745
-0.632008770263,-0.521589958573,-0.125130425245,-2.64236519791,-0.0673563462829,2.11027270842,-0.879781326496,-0.0502639904289,0.00970009114294,0.00244625039097,0.00414181630571,0.000747648141827,0.000705584563153,-0.0595650305708,0.573575133274,0.81911872448,0.00606865690521,0.0,0.819115437127,-0.57348258742,-0.0121807014105,0.0,-0.00649729663156,0.0119577082115,-0.999907394888,0.0,0.268413747791,-0.255392990663,0.304898720468,1.0,-0.0117030769231,-0.0153811868132,2.761
-0.632976635913,-0.521433793402,-0.125126573949,-2.64225170482,-0.067338228835,2.11028533203,-0.880706064893,-0.0527861489414,0.00838405262663,-0.000817619474902,0.00280832607264,0.0027294267316,0.0013776125779,-0.0492140981095,0.573621487147,0.819086173594,0.00608083977203,0.0,0.819082879569,-0.573528571521,-0.0122049558592,0.0,-0.00650950057354,0.0119819673712,-0.999907025108,0.0,0.268193870713,-0.255677744777,0.304894086237,1.0,-0.0113430769231,-0.014908043956,2.779
-0.633800890994,-0.521317977426,-0.125119126146,-2.64216851642,-0.0673294388832,2.11030196586,-0.881493524538,-0.047588683455,0.00551380624591,0.00147563390062,0.00251863365689,8.84808994172e-05,0.00255433449867,-0.05225174305,0.573654519383,0.819063013398,0.00608435501722,0.0,0.819059690266,-0.5735614427,-0.0122164696448,0.0,-0.0065164324603,0.0119917138362,-0.999906863116,0.0,0.268004878636,-0.255917555085,0.304890924962,1.0,-0.0110230769231,-0.0144874725275,2.795
-0.634643989107,-0.521183778242,-0.125106831063,-2.64208306269,-0.0673209134933,2.11033943728,-0.882344008056,-0.0512910773515,0.00749552252763,-0.00012905601194,0.00698757430814,-0.000154991980339,0.00120942639573,-0.0477263166652,0.573647998075,0.819067582297,0.00608414626697,0.0,0.819064212835,-0.573554843516,-0.0122230779073,0.0,-0.00652206087959,0.0119952815911,-0.999906783626,0.0,0.267815316287,-0.256164368797,0.304883924467,1.0,-0.0106830769231,-0.0140406153846,2.812
-0.635458682511,-0.521060886473,-0.125100552019,-2.64199805536,-0.0673112775525,2.11037693762,-0.883167460823,-0.0467614110746,0.00234012630199,-0.00118932707603,0.00713838003988,-0.000256318419599,0.00490145018223,-0.0446837946565,0.573645009364,0.819069651766,0.0060873383363,0.0,0.819066348107,-0.57355188525,-0.012218806253,0.0,-0.00651677447181,0.0119954221573,-0.999906816407,0.0,0.267631779281,-0.256404736513,0.304880733105,1.0,-0.0103430769231,-0.0135937582418,2.829
-0.636206150867,-0.520946504696,-0.125088955702,-2.64189400635,-0.0673073909338,2.1104098477,-0.883868305951,-0.0469676695589,0.00686285806849,-0.00123868646161,0.00587188733984,-4.60409298289e-05,0.000181669818765,-0.0396717405545,0.573682005757,0.819043800008,0.00607921371178,0.0,0.819040570844,-0.573589243144,-0.0121930456307,0.0,-0.0064997919763,0.0119742840845,-0.999907180305,0.0,0.267469808993,-0.256630743523,0.304889047929,1.0,-0.0100230769231,-0.0131731868132,2.845
-0.636984944073,-0.520816251537,-0.125064097083,-2.64176486672,-0.0672936743828,2.1104266637,-0.884597874784,-0.0480776942066,0.00939047079834,-0.000373761924052,0.00564699325821,0.000616217886261,0.00327781572651,-0.0391562008371,0.573717173936,0.819019221176,0.0060717852109,0.0,0.819016033648,-0.573624692618,-0.0121735593754,0.0,-0.00648757809931,0.0119572997373,-0.999907462875,0.0,0.267306225033,-0.256864960282,0.304901871028,1.0,-0.00968307692308,-0.0127263296703,2.862
-0.637734544541,-0.520718700438,-0.125047405194,-2.64164993512,-0.0672867155305,2.11046212958,-0.88537252243,-0.0424436258227,0.00295019136455,0.000229890387692,0.00426425536881,0.000514695920833,0.0016776699297,-0.0439469716843,0.573693583586,0.819035815079,0.00606239808372,0.0,0.81903287819,-0.573601837425,-0.0121170725402,0.0,-0.00644703782975,0.0119170195589,-0.999908205961,0.0,0.267148013482,-0.257093293637,0.304921651447,1.0,-0.00934307692308,-0.0122794725275,2.879
-0.638465937003,-0.52063545713,-0.1250368635,-2.64156882194,-0.0672791394358,2.11049627314,-0.886095584067,-0.0425328387761,0.00350615898035,-0.000195809311292,0.00396278446969,0.000126566177902,0.000513070423338,-0.0380756603064,0.573700312993,0.819031117647,0.00606020623524,0.0,0.819028385964,-0.573609007606,-0.0120812367051,0.0,-0.00641884349928,0.0118947192207,-0.999908652879,0.0,0.266985279253,-0.257309436729,0.304931066141,1.0,-0.00900307692308,-0.0118326153846,2.896
-0.639176420425,-0.520578115837,-0.125020474139,-2.64149063049,-0.0672636238016,2.11050902156,-0.886784357688,-0.040519840101,-7.40841316359e-05,-0.000496128417256,0.00836807322771,0.000192022914749,0.000559851459235,-0.0389422902327,0.573716991392,0.819019412596,0.00606320715164,0.0,0.819016961229,-0.573626117453,-0.0120433175035,0.0,-0.00638581979656,0.0118755540224,-0.999909092129,0.0,0.266826203205,-0.257514525859,0.304946994643,1.0,-0.00866307692308,-0.0113857582418,2.913
-0.639850314617,-0.520519597511,-0.125015775735,-2.64143384524,-0.0672559057697,2.11052439275,-0.887425238042,-0.0363990301028,0.00119527806605,-0.0012761086755,0.00675769861171,-0.000123232410057,-0.000669753797369,-0.0381386466768,0.573746899176,0.818998429931,0.00606748364501,0.0,0.818996143682,-0.573656204577,-0.0120259089313,0.0,-0.00636867351077,0.011869302187,-0.999909275716,0.0,0.266668618148,-0.257708036795,0.304952704674,1.0,-0.00832307692308,-0.0109389010989,2.93
-0.64045636043,-0.520436465199,-0.125004506494,-2.64138796705,-0.0672476673434,2.11054594882,-0.888024231561,-0.0378707955062,0.00163827174039,0.000486209835053,0.00417469150911,-0.000326376235452,0.000701747905568,-0.031796326202,0.573750718453,0.818995735702,0.0060699982218,0.0,0.818993402435,-0.573659863793,-0.0120380373447,0.0,-0.0063771096775,0.0118783497668,-0.999909114509,0.0,0.266527756342,-0.257879542743,0.304945087568,1.0,-0.00800307692308,-0.0105183296703,2.946
-0.641066440911,-0.520322185097,-0.124999744511,-2.64134457337,-0.0672368296143,2.11056114869,-0.888637453838,-0.0345115229141,0.012462834663,-0.000548805839163,0.00104042314349,0.000707730468476,0.00281957195036,-0.0376670036784,0.57375194943,0.818994798641,0.00608006796831,0.0,0.818992255075,-0.573660416012,-0.0120896703574,0.0,-0.00641360630173,0.0119162299363,-0.999908430367,0.0,0.266382280888,-0.258051174988,0.304924188238,1.0,-0.00766307692308,-0.0100714725275,2.963
-0.641667376017,-0.520194758286,-0.124977747901,-2.64129300215,-0.0672300476032,2.11057555931,-0.889252556357,-0.0333382232701,0.00548063464734,-0.000959476314645,0.000635931110983,-0.000329531546103,-0.00029410820177,-0.0333115647973,0.573730647572,0.819009739841,0.00607758036908,0.0,0.819006790323,-0.573638437343,-0.0121477367518,0.0,-0.00646290544194,0.0119473384874,-0.999907741722,0.0,0.266243887328,-0.258218666459,0.304902502818,1.0,-0.00732307692308,-0.00962461538462,2.98
-0.642216313071,-0.520085179939,-0.124967566303,-2.64124328056,-0.0672197544941,2.11059065848,-0.889774027612,-0.0367768166051,0.00347532534915,0.0002062541826,0.00402352642745,0.00359077865267,0.000571588021183,-0.030046434909,0.573753141239,0.81899394566,0.00608249880814,0.0,0.818990788888,-0.573660403078,-0.0121891983915,0.0,-0.00649371599125,0.0119753319259,-0.999907207234,0.0,0.266116668447,-0.25837440888,0.30488632107,1.0,-0.00700307692308,-0.00920404395605,2.996
-0.642762016643,-0.519969728909,-0.124949111493,-2.64118918145,-0.0672147840414,2.11060692713,-0.890282381798,-0.0356921343192,0.00799409786552,-0.000195714087419,0.00153718158673,0.000165131295989,0.00172611316594,-0.0332966454915,0.573775823471,0.818978087324,0.00607813996743,0.0,0.818974604011,-0.573682604022,-0.012231709976,0.0,-0.00653070501301,0.0119963327034,-0.999906714596,0.0,0.265992576675,-0.25852913377,0.304870256396,1.0,-0.00666307692308,-0.00875718681319,3.013
-0.643297991404,-0.519909816108,-0.124934859809,-2.64113087874,-0.0672095161231,2.1106171032,-0.890779475297,-0.0316998889576,0.000765659010843,-0.000513603447922,0.00204612333146,-3.62371107709e-05,7.48277158043e-05,-0.0329126976076,0.573802793307,0.818959220114,0.00607429706351,0.0,0.81895576628,-0.573709732021,-0.0122206040322,0.0,-0.00652341860302,0.0119870281233,-0.999906873747,0.0,0.26587128329,-0.258683265679,0.304875911797,1.0,-0.00632307692308,-0.00831032967034,3.03
-0.643819955233,-0.519855191408,-0.12491572797,-2.64106347945,-0.0671988674603,2.11063224363,-0.891262530438,-0.0315638480085,0.00534443131549,0.00329947675948,0.0062778554234,0.000511869301193,-8.95896311657e-05,-0.0340809590577,0.573829010671,0.818940878978,0.00607043259455,0.0,0.818937581206,-0.57373634114,-0.0121899895623,0.0,-0.00650017812952,0.0119665054288,-0.999907270917,0.0,0.265758074769,-0.258835099112,0.304888186672,1.0,-0.00598307692308,-0.00786347252748,3.047
-0.644301231451,-0.519813688634,-0.124903209752,-2.64098385638,-0.0671888272636,2.1106484798,-0.891717001844,-0.0252232281425,0.0023597455292,0.00363896035901,0.00545631027046,0.00343147233636,-3.52424824012e-05,-0.0211478072928,0.573850244043,0.818926028154,0.00606668983493,0.0,0.818923055835,-0.573758277074,-0.012133219403,0.0,-0.00645551995593,0.0119310328032,-0.999907984126,0.0,0.265657127659,-0.258981081137,0.304910779953,1.0,-0.00564307692308,-0.00741661538462,3.064
-0.644760829882,-0.51977669837,-0.124898190259,-2.6409065235,-0.0671810115591,2.11066588667,-0.892175153862,-0.0264527030694,0.00515547060363,0.000743558077343,0.00436162834303,0.00110164375581,0.0009365865447,-0.0310162325401,0.573854948607,0.818922745263,0.00606482908803,0.0,0.818920138035,-0.573763709944,-0.012073092926,0.0,-0.00640727492496,0.011895043811,-0.999908723215,0.0,0.265559655946,-0.259122794112,0.304933914994,1.0,-0.00530307692308,-0.00696975824176,3.081
-0.6451907249,-0.519739743875,-0.124889210903,-2.64083687154,-0.0671729096769,2.11067541071,-0.89257551683,-0.0232078851185,0.0014122328333,0.00157034418813,0.00395109194259,-0.000126137216324,0.000464532778152,-0.0266218177574,0.573879616557,0.818905476576,0.00606242815927,0.0,0.818903126913,-0.573788920053,-0.0120287512711,0.0,-0.00637197886622,0.0118678250359,-0.999909272191,0.0,0.265467668624,-0.259252628391,0.304952994434,1.0,-0.00496307692308,-0.00652290109891,3.098
-0.645586580783,-0.519714867941,-0.124882954654,-2.64079519278,-0.0671648427045,2.1106964987,-0.892938735707,-0.0241104038806,0.00011580258832,0.00110643713694,0.00426821977355,0.00134448269166,0.00288525529314,-0.0317368399123,0.573907381427,0.818886012936,0.00606318918927,0.0,0.818883930164,-0.573817155389,-0.0119886614044,0.0,-0.00633830719677,0.0118456575317,-0.999909749057,0.0,0.265379507294,-0.259368671176,0.304964730824,1.0,-0.00464307692308,-0.00610232967034,3.114
-0.645972930019,-0.519690729859,-0.124869077986,-2.64075128736,-0.0671560843657,2.11070106773,-0.893264738839,-0.0209298585507,0.00277694657941,0.00188690486284,0.00489909739872,0.00152663462959,0.00022577880026,-0.0135611818789,0.573952838005,0.818854164208,0.00606171648393,0.0,0.818852235491,-0.573862932643,-0.0119623522589,0.0,-0.00631694918349,0.0118297038805,-0.999910073086,0.0,0.265293382849,-0.259478696792,0.304976520982,1.0,-0.00430307692308,-0.00565547252748,3.131
-0.646313355129,-0.519652240113,-0.124862073351,-2.64071834245,-0.0671459183273,2.11071445256,-0.893605226572,-0.0199838203468,0.00574167038545,-0.00109009082535,0.000368975389955,-4.13781627031e-05,0.00519458866177,-0.0153748252149,0.573953855932,0.818853418132,0.00606611693329,0.0,0.818851606189,-0.573864043878,-0.011952116381,0.0,-0.00630602636911,0.0118274405925,-0.999910168805,0.0,0.265216320769,-0.259576065021,0.304978639603,1.0,-0.00396307692308,-0.00520861538462,3.148
-0.64661869433,-0.519607692638,-0.124840685921,-2.64069971003,-0.0671278536728,2.11072172232,-0.893902167304,-0.0105385727249,0.00385177263418,0.00276037542179,0.000605637267268,-0.000410150290688,0.00148690773362,-0.0156778467365,0.573954344473,0.818853028667,0.00607246278202,0.0,0.81885119192,-0.573864304908,-0.0119679549486,0.0,-0.00631534811316,0.0118417311142,-0.999909940836,0.0,0.265147753918,-0.25965553893,0.304971846717,1.0,-0.00362307692308,-0.00476175824176,3.165
-0.646893501277,-0.519556140691,-0.124807878246,-2.6406769021,-0.0671089032118,2.11073290582,-0.894162297394,-0.0210777705928,0.00602044636928,-0.00162737158829,0.00522265476272,0.00063970222003,8.27556061059e-07,-0.00863540955973,0.57395247892,0.818854334607,0.00607268788235,0.0,0.818852404433,-0.573862258248,-0.0119831220143,0.0,-0.00632766684891,0.01185060582,-0.999909757815,0.0,0.265091078283,-0.259725806297,0.304964976237,1.0,-0.00330307692308,-0.00434118681319,3.181
-0.647152558799,-0.519498678273,-0.124743122938,-2.64065933493,-0.0670842253558,2.11074578511,-0.894423850572,-0.018616119064,0.00350238051573,0.00090456559767,-0.000401504929506,-7.80577027579e-05,-0.000435877749648,-0.0144636786501,0.573916126715,0.818879887316,0.0060627178434,0.0,0.818877678895,-0.573825677636,-0.012007730616,0.0,-0.00635406825443,0.0118562828313,-0.999909523094,0.0,0.265044852475,-0.259783106367,0.304954449038,1.0,-0.00296307692308,-0.00389432967034,3.198
-0.647380646641,-0.519442916959,-0.124691353043,-2.64064041574,-0.0670589428762,2.11075852038,-0.894653820827,-0.00990620269922,0.00459496149403,0.000353389357936,0.000894984643701,-0.000222913950109,0.000207884035427,-0.014533472613,0.573889793382,0.818898369314,0.0060590996481,0.0,0.818895977415,-0.573799110869,-0.0120293574823,0.0,-0.00637423795922,0.0118655262568,-0.999909285074,0.0,0.265004222402,-0.259835326695,0.30494484296,1.0,-0.00262307692308,-0.00344747252748,3.215
-0.647582428872,-0.519417178866,-0.124654630231,-2.64061605275,-0.0670339106043,2.1107656332,-0.894853853654,-0.0153359150589,0.00504429239496,0.0023188096895,0.0031202203795,-0.000457851638959,-0.000451791520799,-0.0106516403642,0.573877105459,0.818907245952,0.00606112686581,0.0,0.818904929114,-0.573786507681,-0.0120211304526,0.0,-0.00636652059045,0.0118623666022,-0.99990937173,0.0,0.264968162167,-0.259885004013,0.304947926507,1.0,-0.00228307692308,-0.00300061538462,3.232
-0.647772089533,-0.519392467442,-0.124626283462,-2.64060453584,-0.0670112258591,2.11077162722,-0.895055688175,-0.013330724962,0.000882933248361,0.00155943107081,0.00137226541905,0.000259358416199,0.000473078249616,-0.0133636181211,0.57385735631,0.818921039935,0.00606727797885,0.0,0.818918764646,-0.573766664892,-0.0120257253633,0.0,-0.00636704025488,0.011869887284,-0.999909279172,0.0,0.264930101133,-0.259930111204,0.304945256368,1.0,-0.00194307692308,-0.00255375824176,3.249
-0.647935106271,-0.519394906461,-0.124607143188,-2.64059555387,-0.0669902714257,2.11077441483,-0.895207980026,-0.0122584100396,0.000229138587105,0.00133971156326,0.00121857292603,0.000404147240428,-0.00025823738902,-0.00848330266205,0.573861903285,0.818917791497,0.00607565875282,0.0,0.818915721456,-0.573771355088,-0.0120091687771,0.0,-0.0063486052473,0.0118672854042,-0.999909427273,0.0,0.264896319308,-0.259969708098,0.304950937129,1.0,-0.00162307692308,-0.00213318681319,3.265
-0.648101722384,-0.519386392272,-0.124598620555,-2.64057998557,-0.0669734749214,2.11078130266,-0.895350922983,-0.0145908752706,-0.000315865624288,-0.00139076041624,-0.000140621019733,-0.000544018527546,0.00204612935599,-0.00762935119592,0.573883163034,0.818902826251,0.00608467308083,0.0,0.818900966666,-0.573792746952,-0.0119932164206,0.0,-0.00633005941459,0.0118656780932,-0.999909563926,0.0,0.264860838918,-0.260015073477,0.304955676049,1.0,-0.00128307692308,-0.00168632967034,3.282
-0.648242889408,-0.51938740584,-0.124574469604,-2.64056648302,-0.0669563004364,2.11078123327,-0.895446797471,-0.00803931682944,-0.00107044426203,0.000533630852514,0.00186286272483,-0.000495844519729,-0.000287043971621,-0.00437557029081,0.573911068764,0.818883256519,0.00608639834089,0.0,0.818881521534,-0.573820831297,-0.01197723511,0.0,-0.00631557672978,0.0118581352427,-0.999909744987,0.0,0.264834033987,-0.260048895214,0.304962757868,1.0,-0.000943076923082,-0.00123947252748,3.299
-0.648361219804,-0.519390193135,-0.124566989696,-2.64055725666,-0.0669352511013,2.11078125303,-0.895509471786,-0.00773512566215,-0.00116730704573,0.00131149590894,0.000259370666522,0.000522612877706,-6.82822414063e-05,-0.0040553444825,0.573960726537,0.818848351993,0.00609981417454,0.0,0.818846870366,-0.573870571341,-0.0119631576902,0.0,-0.00629562932425,0.0118614247954,-0.999909831761,0.0,0.264808955649,-0.260078868998,0.304968167512,1.0,-0.000583076923082,-0.000766329670336,3.317
-0.648387295605,-0.519376675903,-0.124559857808,-2.64055147752,-0.0669208620833,2.11077969921,-0.895556852439,-0.000731379077414,0.0011164857969,0.000121072818674,0.000665122343531,-0.000438071602038,0.000528354741797,-0.000600094514179,0.573944692202,0.818859523399,0.00610885702179,0.0,0.818858097734,-0.573854386626,-0.0119710328086,0.0,-0.0062971210601,0.0118732263773,-0.999909682302,0.0,0.264805791258,-0.260083785515,0.304965861816,1.0,-0.000263076923082,-0.000345758241765,3.333
-0.648390877324,-0.519377071177,-0.12453968997,-2.6405456444,-0.0669064786676,2.11078242582,-0.895585714995,0.000301342003561,0.00101061161411,0.00017521830852,-0.000932479087447,0.000163501005081,-0.000330344345704,-0.0030956331672,0.573916087881,0.818879561507,0.00611021429317,0.0,0.818878211615,-0.573825892301,-0.0119610521601,0.0,-0.00628858305381,0.0118683901189,-0.999909793451,0.0,0.264812312319,-0.260080742317,0.304969374147,1.0,0.0,0.0,3.349
-0.648382750465,-0.51938446981,-0.124491085502,-2.64051966952,-0.0668926361715,2.11078968981,-0.895598247525,-0.000140177465097,0.000142050852584,0.00482605305639,0.000756103486686,0.000451278096512,0.000852362118619,0.00013128984239,0.573871762911,0.818910752303,0.00609314340137,0.0,0.818909450781,-0.573782156932,-0.0119203485,0.0,-0.00626568522835,0.0118307119024,-0.999910383707,0.0,0.264833524248,-0.260074338941,0.304985672748,1.0,0.0,0.0,3.368
-0.648379979246,-0.519389759417,-0.124449070775,-2.64048715245,-0.0668830532591,2.11079586632,-0.895602336785,0.000487274262573,-0.00155284114909,0.00227129858068,0.00349616578724,-3.48888337868e-05,0.000595323518315,-0.000348208091246,0.57384190526,0.818931810603,0.00607488692906,0.0,0.81893056322,-0.573752929159,-0.0118766917128,0.0,-0.00624083663392,0.0117904809783,-0.999911014299,0.0,0.264852817034,-0.260072712471,0.305003917584,1.0,0.0,0.0,3.383
-0.648363678839,-0.51938446992,-0.124416023207,-2.6404437533,-0.0668721433929,2.11080221767,-0.89560472251,0.00231899153106,-0.000479152021992,1.48056475377e-05,0.000109746180971,6.52523448238e-09,0.000421293283584,-0.00142055284712,0.573809838568,0.818954382467,0.00606098192075,0.0,0.81895324368,-0.573721470433,-0.0118324101923,0.0,-0.00621300834198,0.0117534404764,-0.999911623677,0.0,0.26487609465,-0.260071958239,0.305023018196,1.0,0.0,0.0,3.402
-0.648368928924,-0.519395296486,-0.124405465549,-2.64038732348,-0.0668666384652,2.11081472465,-0.895607171048,0.00128413999608,-0.0018128275463,0.000183337602311,0.000537530571021,-7.70430170514e-05,0.000275572696905,-0.000329678539925,0.573809530594,0.818954675771,0.00605049853866,0.0,0.818953904374,-0.573722157201,-0.0117531165282,0.0,-0.00615408314705,0.0116993549285,-0.99991262236,0.0,0.264892730437,-0.260086849102,0.30505396896,1.0,0.0,0.0,3.418
-0.64837051459,-0.519406436904,-0.124390515466,-2.64029516975,-0.0668618403971,2.11083420533,-0.895607329685,0.000570083707674,-0.000790646158323,0.000851316170365,0.00343461579315,-0.000563722664372,-0.000862921700373,0.000209268073442,0.573806320075,0.818957067088,0.0060312694062,0.0,0.818956814555,-0.57372048239,-0.0116314608393,0.0,-0.00606552104186,0.0116137785232,-0.999914161117,0.0,0.264920544787,-0.260109996852,0.30510197232,1.0,0.0,0.0,3.436
-0.648365755771,-0.519428846183,-0.124392579242,-2.64016271345,-0.066855863465,2.11085604896,-0.895613219477,0.000962491127831,-0.00192769790271,-0.000516832090452,0.0108805044849,0.000205816424699,0.00203658247978,0.0058603737771,0.573807589681,0.818956296892,0.0060150400155,0.0,0.818956909834,-0.573723877972,-0.0114559408687,0.0,-0.00593105701864,0.0114997858075,-0.99991628524,0.0,0.264956310452,-0.26014589275,0.305172253114,1.0,0.0,0.0,3.452
-0.648376772023,-0.519485982157,-0.12439187976,-2.63991699066,-0.0668560750483,2.11099789912,-0.895613608486,-0.000929807934574,-0.00815634051787,-0.00173844295552,0.0138358831305,0.000329751297432,0.0154969131264,0.000742082345519,0.573826670068,0.818943320848,0.00596128000777,0.0,0.81894586658,-0.573748271255,-0.0110152505456,0.0,-0.00560069959366,0.0112030258554,-0.999921559111,0.0,0.265033851297,-0.260232317429,0.305317158275,1.0,0.0,0.0,3.468
-0.648382366017,-0.519667887215,-0.124386562773,-2.63961386414,-0.0668536982847,2.11111828066,-0.895622156515,0.000722490895956,-0.0129670160102,0.000194492820592,0.0219727578762,0.00015515827216,0.00515584920153,-0.00229206872336,0.573834549491,0.81893826557,0.00589693970507,0.0,0.818943332964,-0.573763109611,-0.0104143335635,0.0,-0.00514534886713,0.0108055719058,-0.999928379936,0.0,0.265126526274,-0.260329736417,0.305532478782,1.0,0.0,0.0,3.484
-0.648374066601,-0.51986397326,-0.124380906667,-2.63937140986,-0.0668508090658,2.11113527205,-0.895621225668,0.000520227026802,-0.014330737521,1.27290603015e-05,0.0111267379087,-0.000172584560508,-0.000225531236222,-0.0013195506896,0.573836007675,0.818937563441,0.0058523825557,0.0,0.818944405984,-0.573769611269,-0.00996192714973,0.0,-0.00480036950518,0.0105094908003,-0.9999332513,0.0,0.26519284689,-0.260393551871,0.305716653045,1.0,0.0,0.0,3.501
-0.648381412671,-0.520024425797,-0.124378429133,-2.63922098908,-0.0668534106476,2.11112741096,-0.895616668506,-0.000528656198485,-0.00577186853197,9.02907452982e-05,0.00471230657607,-5.01134168228e-05,-8.23892514182e-05,3.27334795737e-05,0.573849105637,0.818928601459,0.00582207630963,0.0,0.818936538884,-0.573785982665,-0.0096611738062,0.0,-0.00457127378828,0.0103121655114,-0.999936379325,0.0,0.265228014258,-0.260435164945,0.305843642538,1.0,0.0,0.0,3.518
-0.648395925332,-0.520075219094,-0.12438880921,-2.63910424891,-0.0668496064743,2.11113026864,-0.895612779719,-0.000897081506327,0.00214936995084,-0.000370101261531,0.0035007392247,-9.72668244608e-05,0.000154612772865,0.00153306920753,0.573878314624,0.818908209186,0.00581135377546,0.0,0.818916801966,-0.573816978242,-0.00949177753313,0.0,-0.00443832653026,0.010206337046,-0.999938064053,0.0,0.265250656325,-0.2604719367,0.305915510768,1.0,0.0,0.0,3.534
-0.648389591627,-0.520071911121,-0.124457508485,-2.63904675665,-0.0667973275194,2.11116939509,-0.895612871998,-0.00245702134495,0.0266807944061,-0.00268251030897,0.0100569670571,0.0283878616889,-0.0249229947937,0.00162810284907,0.573946625473,0.818859863162,0.00587728783402,0.0,0.818869564806,-0.573886005371,-0.00939337933531,0.0,-0.00431905123478,0.0102042269652,-0.99993860789,0.0,0.265261318625,-0.260500121115,0.305942237312,1.0,0.0,0.0,3.551
-0.648455315847,-0.519939747628,-0.124363404409,-2.6390671928,-0.0667227201895,2.11112106739,-0.895628593829,-0.00740526211906,0.00325093471136,0.00221590707903,-0.00228144459646,0.0206502060645,-0.0105153679256,-0.00118448155323,0.573934851248,0.818867984958,0.00589547582318,0.0,0.818877012463,-0.573872141458,-0.0095890885434,0.0,-0.00446903432032,0.010331380647,-0.999936643146,0.0,0.265258659411,-0.26046771328,0.305885343864,1.0,0.0,0.0,3.568
