nelsonifechukwu/NELSON_IML_WORK/CNN-GradCAM/train2dof/data_sample_2022-02-22-07-31-59/robot_state.csv
position_joint1,position_joint2,position_joint3,position_joint4,position_joint5,position_joint6,position_joint7,velocity_joint1,velocity_joint2,velocity_joint3,velocity_joint4,velocity_joint5,velocity_joint6,velocity_joint7,ee_T_00,ee_T_10,ee_T_20,ee_T_30,ee_T_01,ee_T_11,ee_T_21,ee_T_31,ee_T_02,ee_T_12,ee_T_22,ee_T_32,ee_T_03,ee_T_13,ee_T_23,ee_T_33,v_x,v_y,time
0.46506626972,0.547650699746,-0.124037620296,-1.3558294885,0.0795240313176,1.89414943333,0.15913492619,-0.000341512262752,-0.00038151581258,-0.00041066480888,-0.000672592813097,-0.00130877380481,-0.000125778649942,-0.00160150135679,0.573832537085,0.818958206386,0.00210296833535,0.0,0.818917152976,-0.573773445007,-0.0118100494285,0.0,-0.00846547249736,0.00849931110672,-0.999928046154,0.0,0.661702969764,0.260866535429,0.303314406582,1.0,0.0,0.0,0.0
0.465063764054,0.547645435674,-0.124039673009,-1.35582737183,0.0795240357054,1.89415092951,0.159127906658,-0.000878316206508,-0.00336812250525,-0.000564204202064,0.0021646185776,-0.000208196179935,0.000324340643656,-0.0015937131368,0.573830160597,0.818959853121,0.00211013439401,0.0,0.818918907173,-0.573771054938,-0.011804528404,0.0,-0.00845686363144,0.00850198707138,-0.999928096252,0.0,0.661705018241,0.260864113756,0.303319341264,1.0,-0.00034,-0.000446857142857,0.018
0.465065955782,0.547638622225,-0.124029610402,-1.35584162799,0.0795245275776,1.89414981488,0.159125209971,0.000911186617193,0.000864716194822,0.00280637275397,-0.00165334799431,-7.80428268841e-05,0.000147384447148,-0.00138159503061,0.573820016498,0.818966970729,0.00210628172971,0.0,0.818925902913,-0.573760855147,-0.0118149710499,0.0,-0.00846773207363,0.00850471929225,-0.999927981038,0.0,0.661698796739,0.260869787313,0.303316953088,1.0,-0.0007,-0.00092,0.036
0.465068370585,0.547592425988,-0.12403827705,-1.35587762788,0.079524646037,1.89415660145,0.159127024906,0.00162391145439,-0.00664882053411,-0.000892798770191,-0.004208101647,-9.91164180202e-05,-9.4633657453e-05,-0.000303277685123,0.573827541435,0.818961661009,0.00212070487232,0.0,0.818920796635,-0.573768338333,-0.0118054930774,0.0,-0.00845161562879,0.00851117025788,-0.9999280625,0.0,0.661694473528,0.260863185656,0.303333420449,1.0,-0.00102,-0.00134057142857,0.052
0.465062676084,0.547461497465,-0.124036131436,-1.35602862978,0.0795205796875,1.89418891377,0.15912929932,-0.000740242225202,-0.00897819274177,0.00427360572841,-0.0114259941469,-0.000149051647419,0.00496732353236,-0.000253555173765,0.573839728072,0.818953082058,0.00213606533891,0.0,0.818912333027,-0.573780378079,-0.011807431927,0.0,-0.00844426296828,0.00852498790884,-0.999928006911,0.0,0.661670980494,0.260845990725,0.303357023106,1.0,-0.00138,-0.00181371428571,0.07
0.465058542405,0.547343861666,-0.124037487768,-1.35619246593,0.0795185162499,1.89423324794,0.159125331543,-0.000950014908435,-0.00911256681808,-0.000467041489607,-0.00705837285801,-0.00027515290192,0.00210476013447,0.000504726238792,0.573849310773,0.818946359166,0.00213921359097,0.0,0.818905567037,-0.573789862382,-0.0118157947345,0.0,-0.00844920567987,0.00853246385971,-0.999927901393,0.0,0.661646870945,0.260827242337,0.30336626125,1.0,-0.00166,-0.00218171428571,0.084
0.465031566367,0.547183489283,-0.124037189307,-1.35640365281,0.0795150838045,1.89431694774,0.159117318619,-0.00331916138471,-0.00645089335597,0.000440743176371,-0.0150424006827,0.000118853596521,0.000925938993753,0.000420616255682,0.573875545063,0.818927887875,0.00217258839157,0.0,0.81888745528,-0.573815887221,-0.0118072036986,0.0,-0.00842274481508,0.00855513555043,-0.999927930916,0.0,0.661626536072,0.260791735877,0.303386592537,1.0,-0.002,-0.00262857142857,0.101
0.46501972584,0.54699580213,-0.124035385512,-1.35661487613,0.0795129695431,1.8944401664,0.1590951944,-0.00311948824323,-0.0099109535359,-1.7720657494e-05,-0.0155696124301,0.000332839818018,0.00997370909397,0.00110817334673,0.573888297588,0.818918693532,0.00226763683377,0.0,0.818879456393,-0.573828231035,-0.0117619753781,0.0,-0.00833102787514,0.00860714695801,-0.999928252924,0.0,0.661610837186,0.260768329348,0.303427943131,1.0,-0.00234,-0.00307542857143,0.118
0.464991775091,0.546788153065,-0.124040683093,-1.35688956768,0.0795107430853,1.89457653736,0.159081348879,-0.00101274729156,-0.014668740627,-0.00114576616899,-0.0203494690694,0.000127757382008,0.0034898779136,1.97739663639e-05,0.573907555779,0.818905027949,0.00232798631157,0.0,0.818866524694,-0.573847207391,-0.0117364477554,0.0,-0.00827528695832,0.00864211249276,-0.999928414196,0.0,0.661588734432,0.260727845224,0.303457975563,1.0,-0.00266,-0.003496,0.134
0.464957890097,0.546509423802,-0.124040684104,-1.35730083801,0.0794995459617,1.89472367455,0.158980756203,-0.000346310319734,-0.015247681282,0.00293590249799,-0.0242447800397,3.10268804813e-05,0.0128050615027,-0.00537809419064,0.573857542581,0.818939999514,0.00235476520598,0.0,0.818901650727,-0.573796897996,-0.0117453474688,0.0,-0.00826773705926,0.00866864424773,-0.999928246991,0.0,0.661535304927,0.26067071349,0.303473168544,1.0,-0.00306,-0.00402171428571,0.154
0.464915444735,0.546240987323,-0.124037525304,-1.35770682937,0.0794874512672,1.8948697629,0.158930886574,-0.00113712628136,-0.0173032806235,0.000434562338924,-0.0271782633571,-0.00156483212067,0.0126905477332,0.00115988598817,0.573878670643,0.818925179748,0.00235971544708,0.0,0.818886848421,-0.573817955788,-0.0117486168997,0.0,-0.00826735028438,0.00867478761046,-0.999928196912,0.0,0.661490189982,0.260603047217,0.303480567466,1.0,-0.00338,-0.00444228571429,0.17
0.464873187071,0.545941509251,-0.124032918952,-1.35823431773,0.0794655288896,1.89504092244,0.158891169556,0.000182138516313,-0.0163964372226,0.00120928293969,-0.0342227636204,-0.00134544417286,0.00816742434975,-0.00146768010553,0.5739065855,0.81890572629,0.00232152314205,0.0,0.818866729129,-0.57384583412,-0.0117892107512,0.0,-0.00832221603716,0.00866709061823,-0.999927808524,0.0,0.661426741453,0.260529574013,0.303457433843,1.0,-0.00372,-0.00488914285714,0.187
0.464810741146,0.545603583288,-0.124038587748,-1.35879370152,0.0794226983755,1.89522433795,0.158817736896,-0.00881568174525,-0.0170917854266,0.000513775565902,-0.0332392349812,0.000132453987565,0.0152036509209,-0.0078166208112,0.573921345159,0.818895490871,0.00228287162566,0.0,0.818856060737,-0.573860812034,-0.0118011485378,0.0,-0.0083540176006,0.00864244070358,-0.999927756695,0.0,0.661363742725,0.260428532993,0.303446469473,1.0,-0.00406,-0.005336,0.204
0.464760354706,0.545266884856,-0.12403861697,-1.35939986225,0.0793789221005,1.89541966429,0.15872010146,-0.00285616658394,-0.0220928053335,-0.00175591004029,-0.0417217698283,-0.00370779092602,0.0128274973715,-0.00549420499941,0.573904827722,0.818907252026,0.00221544510328,0.0,0.818866956148,-0.573844569926,-0.0118348889906,0.0,-0.00842051739992,0.00860642041577,-0.99992750958,0.0,0.66128789656,0.260333819902,0.303413194829,1.0,-0.00438,-0.00575657142857,0.22
0.464699905131,0.544899006041,-0.124038599773,-1.36001629923,0.0793515592518,1.89559863053,0.158679379611,-0.00317737651374,-0.0226335113212,0.000258203749804,-0.0386112347519,-0.00178447492672,0.0101834885866,-0.000678716247941,0.573947843455,0.818877246582,0.0021621574475,0.0,0.8188360974,-0.57388762903,-0.0118819923796,0.0,-0.00848922123637,0.00859026185764,-0.999927067602,0.0,0.661208870009,0.260233221534,0.303395681384,1.0,-0.00468,-0.00615085714286,0.235
0.464635345397,0.544480932229,-0.124049910404,-1.36074409613,0.0793169785038,1.8958446519,0.158575481054,-0.00257530545268,-0.0230231629511,-0.00105356992013,-0.0469212441126,-0.000392822928466,0.00638289441619,-0.011918250829,0.573954906363,0.818872433041,0.00210968441616,0.0,0.818830527877,-0.573894830115,-0.0119179480375,0.0,-0.00854870671581,0.00856800371466,-0.99992675178,0.0,0.661122933987,0.260114171847,0.303366847057,1.0,-0.00502,-0.00659771428571,0.252
0.464572851451,0.544039821265,-0.124040309062,-1.36145833626,0.0792780381009,1.89610313467,0.15846668579,-0.00538467447035,-0.0259108930231,-0.00395607656429,-0.0513241792595,-0.000472030613539,0.0216274068888,-0.00588495429988,0.573951010782,0.818875175305,0.00210508738702,0.0,0.818833118873,-0.573890862289,-0.0119309898687,0.0,-0.00856206585085,0.00857168399685,-0.999926605938,0.0,0.66103435562,0.259998879794,0.303363350938,1.0,-0.00536,-0.00704457142857,0.269
0.464504357404,0.543504657112,-0.124053457464,-1.36233420662,0.0792358558264,1.89640467022,0.158405094322,-0.00596894466815,-0.0300666618194,-0.000438679199,-0.0484335752693,5.2260002247e-05,0.0156331190367,-0.00777163249804,0.573992073094,0.818846482392,0.00207007276223,0.0,0.818803888454,-0.573931982928,-0.0119590186071,0.0,-0.00860468502086,0.00855953030702,-0.999926344206,0.0,0.660933849324,0.25987445818,0.303349427612,1.0,-0.0057,-0.00749142857143,0.286
0.464415530597,0.542930284812,-0.124048862744,-1.36324526617,0.0791747085771,1.8967283042,0.158266110453,-0.00239048647217,-0.0330992709059,0.000233270177661,-0.0567266283113,-0.00352333865976,0.0207351911009,-0.00985210904726,0.573982140221,0.818853478278,0.00205687150038,0.0,0.818810714856,-0.573922108804,-0.0119654989483,0.0,-0.00861767232097,0.00855233577769,-0.999926293922,0.0,0.660829142161,0.259729873479,0.303349963991,1.0,-0.00606,-0.00796457142857,0.304
0.464350852563,0.542352483487,-0.1240645983,-1.36414529612,0.0791249980182,1.89704630901,0.158129362668,-0.0026814776569,-0.0360547727612,-0.00217657736879,-0.0506161407004,-0.00520455695415,0.0153813865584,-0.0071977166592,0.573970860033,0.818861396031,0.00205251641884,0.0,0.818818581604,-0.57391085391,-0.0119669998367,0.0,-0.00862151873297,0.00854951237571,-0.999926284909,0.0,0.660723550117,0.259592296907,0.3033583019,1.0,-0.0064,-0.00841142857143,0.321
0.464260802224,0.541732403971,-0.124053096233,-1.36509065414,0.079073631739,1.89738790577,0.15801888283,-0.00731480912958,-0.0386056832391,0.00117962810631,-0.0617126966422,-0.00154245043997,0.0162190895094,-0.00317017389473,0.573984818987,0.818851560838,0.00207262789532,0.0,0.818808882145,-0.57392460165,-0.0119713425258,0.0,-0.00861338620779,0.00856861997527,-0.999926191441,0.0,0.6606136183,0.259450259274,0.303376031625,1.0,-0.00674,-0.00885828571429,0.338
0.464174231515,0.541087234481,-0.124062400034,-1.3660899149,0.079005923938,1.89775951609,0.157876206756,-0.00947431060205,-0.0395828343149,-0.00076752784442,-0.0645111457564,-0.00741077826995,0.0181117790085,-0.00960310727806,0.573982796451,0.818852957228,0.00208103794416,0.0,0.818810494771,-0.573922650573,-0.0119545687123,0.0,-0.00859484460701,0.00856585740786,-0.999926374656,0.0,0.660502508164,0.259291792985,0.303389020075,1.0,-0.00708,-0.00930514285714,0.355
0.464082648528,0.540374810919,-0.124060618621,-1.36714977461,0.0789505543753,1.89814248532,0.157762879631,-0.0111403702471,-0.0475094856759,-0.000433440031874,-0.0604972147666,-0.00221249191331,0.0217783359243,-0.00520280575533,0.574007597488,0.818835479573,0.00211714897999,0.0,0.818793385299,-0.573947196976,-0.011947977911,0.0,-0.0085684614695,0.00859190309682,-0.999926377624,0.0,0.660379333489,0.259132910575,0.30342124442,1.0,-0.00742,-0.009752,0.372
0.463983150072,0.539695351865,-0.124066543826,-1.36819256342,0.0788809525777,1.89853505235,0.157632101626,-0.00794681562641,-0.0450156538393,-0.000178242805312,-0.0669168889077,-0.00345367478939,0.0330925354766,-0.00588881813855,0.574025310335,0.818823012116,0.00213654507431,0.0,0.818781262206,-0.573964920176,-0.0119273621682,0.0,-0.00854026112061,0.00859613634503,-0.999926582495,0.0,0.660265560981,0.258964284428,0.303439252427,1.0,-0.00774,-0.0101725714286,0.388
0.46389404763,0.539020562763,-0.12406489033,-1.36922196329,0.0788265286592,1.89890818938,0.157505762653,-0.00492014055545,-0.0424928706037,0.000329709278524,-0.0675696638078,-0.00112024935732,0.0229728291968,-0.0143798556288,0.574035972113,0.81881548326,0.00215731232603,0.0,0.818773908109,-0.573975399403,-0.0119279160373,0.0,-0.00852868233397,0.00861356975986,-0.999926531298,0.0,0.660145419803,0.258809592914,0.303458320529,1.0,-0.00804,-0.0105668571429,0.403
0.463784984826,0.538251133659,-0.124069855462,-1.37041686167,0.0787631124518,1.89937784216,0.157357626103,-0.00102909712336,-0.0391026885557,0.0004476069764,-0.0688597893333,-0.00119243036448,0.0351704002115,-0.00918626064055,0.574056703448,0.818800843475,0.00219700983834,0.0,0.818759761145,-0.573995942765,-0.0119104206593,0.0,-0.00849135123334,0.00863624634531,-0.999926653412,0.0,0.660015705014,0.258624580826,0.303473949198,1.0,-0.00838,-0.0110137142857,0.42
0.463666706102,0.537404957808,-0.124079027965,-1.37173692717,0.0786842350357,1.89987950373,0.157194354474,-0.00785836963143,-0.0466588778829,-2.74022794759e-05,-0.0791253666317,-0.0133220652692,0.0294342671568,-0.00734166192202,0.574078106973,0.818785781076,0.0022178149943,0.0,0.818745013846,-0.574017305108,-0.0118946475356,0.0,-0.00846626708867,0.00864444814096,-0.999926795239,0.0,0.65986933671,0.258416882921,0.303486953094,1.0,-0.00874,-0.0114868571429,0.438
0.463548556366,0.536523297997,-0.1240875469,-1.37310267379,0.0786081076472,1.90039240962,0.157029994281,-0.00501949094997,-0.0497343965947,-0.00131426301977,-0.0749290061836,-0.00107363454425,0.0267204495998,-0.00791351656305,0.574101143931,0.818769559787,0.00224307898634,0.0,0.818729105609,-0.574040222255,-0.0118836763329,0.0,-0.00844253742493,0.00865907294314,-0.999926869335,0.0,0.659714904633,0.258205915306,0.303504060723,1.0,-0.0091,-0.01196,0.456
0.463449075767,0.535719170715,-0.124096815543,-1.37439311487,0.0785300935255,1.90085660031,0.156864615351,-0.00731924731172,-0.0477470996601,-0.000895764966493,-0.0817714027317,-0.00208133186349,0.0248159688007,-0.015818086011,0.574103724255,0.818767809434,0.00222147086317,0.0,0.818727082015,-0.574042896604,-0.011893903278,0.0,-0.00846328850805,0.00864727901232,-0.999926795977,0.0,0.659561321661,0.258011159871,0.303497919811,1.0,-0.00942,-0.0123805714286,0.472
0.463308610899,0.534718924319,-0.124095391939,-1.3759804638,0.0784449672048,1.90143016105,0.156669736937,-0.00970862135615,-0.0506593617076,-0.000394205166303,-0.0891660298654,-0.00178415738087,0.0293633288047,-0.0161665134064,0.574122457731,0.818754689032,0.00221576573321,0.0,0.818713744702,-0.574061504991,-0.0119138417302,0.0,-0.00848269128756,0.00865424857707,-0.999926571269,0.0,0.659373945933,0.257769195411,0.303497822084,1.0,-0.0098,-0.01288,0.491
0.463203490641,0.533923215903,-0.124092912872,-1.37727961916,0.0783690811106,1.90189382477,0.156518638882,-0.00508381550293,-0.0504513967058,0.00203559559343,-0.0865031625492,-0.00271877958499,0.0284300002688,-0.010828014647,0.574133875156,0.818746770677,0.00218307255825,0.0,0.818705318893,-0.574072970414,-0.0119403666916,0.0,-0.00852305781661,0.00864282851565,-0.999926326786,0.0,0.659216011732,0.257576740765,0.303480854503,1.0,-0.0101,-0.0132742857143,0.506
0.463082990357,0.533055177815,-0.124098588392,-1.37867754408,0.0782923277121,1.90241295482,0.156347640579,-0.0110804013795,-0.0520721432654,-0.000632156464407,-0.0850736524213,-0.00232925164496,0.0353039609275,-0.0152943241177,0.574152510457,0.818733722891,0.00217546259367,0.0,0.818692112235,-0.574091573941,-0.0119514432039,0.0,-0.008536299194,0.00864315159245,-0.999926211041,0.0,0.659053630452,0.257362266828,0.303472818365,1.0,-0.01042,-0.0136948571429,0.522
0.462975151307,0.53227715803,-0.124098299141,-1.3799477243,0.0782259410395,1.90289528911,0.156188635363,-0.0118277191094,-0.0513861378761,-0.000420281758483,-0.0908431821446,-0.00935799733886,0.0351899273475,-0.0105026293732,0.574162170124,0.818726960675,0.00217098193194,0.0,0.818685192951,-0.574101150924,-0.0119653772146,0.0,-0.00855017831194,0.00864758420255,-0.999926054135,0.0,0.65890578233,0.257172776567,0.303458591193,1.0,-0.0107,-0.0140628571429,0.536
0.462832281806,0.531172676878,-0.124098614828,-1.38172173583,0.0781130303191,1.90354108104,0.155958934856,-0.0100446804049,-0.0603226714402,0.00011757766143,-0.0943685494139,-0.00947322316358,0.0326401913269,-0.0140299760024,0.574157680544,0.818730173188,0.00214669145267,0.0,0.818688095427,-0.574096768821,-0.0119770337547,0.0,-0.00857371536419,0.00863434289509,-0.999925967023,0.0,0.65869300953,0.256907940284,0.303448631246,1.0,-0.01108,-0.0145622857143,0.555
0.462697620199,0.53020810685,-0.12410156446,-1.38326322957,0.0780243303051,1.90407865401,0.155758667135,-0.00903706352637,-0.0656878105612,-0.000924713411128,-0.0960547060717,-0.00444321538377,0.0366584023985,-0.00944657731641,0.574165930637,0.818724468979,0.00211539401747,0.0,0.818681882952,-0.574105047682,-0.012004817917,0.0,-0.00861434564383,0.00862475826216,-0.999925700537,0.0,0.658505890086,0.256669351148,0.303441228443,1.0,-0.0114,-0.0149828571429,0.571
0.46253891984,0.529028854946,-0.124099055699,-1.38511480503,0.0778952584385,1.90476775309,0.15551593793,-0.00460643412532,-0.068757124403,0.000953513970291,-0.0982146052568,-0.00235999616526,0.0341673118184,-0.00911668321066,0.57416117727,0.818727790285,0.00212010208754,0.0,0.818685386075,-0.574100395875,-0.011988368744,0.0,-0.00859822474563,0.00861911845241,-0.999925887918,0.0,0.658288872481,0.256387903271,0.303450122773,1.0,-0.01178,-0.0154822857143,0.59
0.462406670133,0.528013448402,-0.124101811118,-1.38672816172,0.0778048328953,1.90538340749,0.155294354007,-0.00694792600595,-0.0617402383712,-0.00114822603466,-0.102211181667,-0.00280682353476,0.0394817842852,-0.0104286902742,0.574153273646,0.818733289051,0.00213697510804,0.0,0.818691053948,-0.574092371934,-0.0119855568936,0.0,-0.00858631862132,0.00863123530843,-0.999925885708,0.0,0.658100377124,0.256148200781,0.303450613822,1.0,-0.0121,-0.0159028571429,0.606
0.462260612416,0.526858249198,-0.124101846524,-1.38848789092,0.0776872015448,1.90605391696,0.155047409395,-0.00656888375674,-0.0694971533804,7.38859714664e-05,-0.104307605598,-0.00909714611506,0.039929630894,-0.0157472631262,0.574134216958,0.818746521102,0.00218677923858,0.0,0.818705042932,-0.574073221306,-0.0119472239171,0.0,-0.00852654077953,0.00864980377442,-0.999926236778,0.0,0.657896154976,0.255884825052,0.303484178165,1.0,-0.01244,-0.0163497142857,0.623
0.462102532691,0.525701682079,-0.124108027904,-1.39029311664,0.077575794246,1.90672111466,0.154803152367,-0.0148972310817,-0.0697423394036,-0.00130047522624,-0.106052864408,-0.00633155061454,0.0423677216249,-0.0121776939548,0.574135407061,0.818745651913,0.00219971217004,0.0,0.818704363281,-0.574074379931,-0.0119381218217,0.0,-0.00851165080917,0.00865517902225,-0.999926317124,0.0,0.657684212142,0.255605400243,0.303496693101,1.0,-0.01278,-0.0167965714286,0.64
0.461958621913,0.524606983999,-0.124114163505,-1.39202016547,0.0774687456901,1.90734344226,0.154557997657,-0.0038428002633,-0.0681791609492,0.000371699847027,-0.108884253585,-0.00281760305481,0.0390279846347,-0.0139015706743,0.574120879637,0.81875586843,0.00218869301156,0.0,0.818714432687,-0.574059895607,-0.0119440724801,0.0,-0.00852300264848,0.00864942248417,-0.99992627024,0.0,0.657475613736,0.255341495673,0.303498725904,1.0,-0.0131,-0.0172171428571,0.656
0.461794027907,0.523269352822,-0.124123742244,-1.39414848861,0.0773334751765,1.90811006369,0.154274327733,-0.00786264746507,-0.0741859746675,-0.000823234352724,-0.118088318041,-0.00663935110638,0.0469628693926,-0.0146007108663,0.574107869567,0.818765061097,0.00216234348106,0.0,0.818723313906,-0.574047027265,-0.0119537716405,0.0,-0.00854620826134,0.00863328160786,-0.999926211664,0.0,0.657214860673,0.255022820047,0.303492878557,1.0,-0.01348,-0.0177165714286,0.675
0.461650074527,0.522191750286,-0.124124181811,-1.39586689344,0.0772292143465,1.90877729289,0.154034050629,-0.00874035191454,-0.0679728801787,0.000187496801081,-0.112141956897,-0.00490188738008,0.0461674655383,-0.0243733152505,0.574093512588,0.81877507416,0.00218257640777,0.0,0.818733606832,-0.574032605752,-0.0119413349,0.0,-0.0085245614699,0.00864255794825,-0.999926316307,0.0,0.657014233211,0.254766535435,0.303490148263,1.0,-0.01378,-0.0181108571429,0.69
0.461486999368,0.520941453064,-0.124122256317,-1.39786176501,0.0771126101251,1.90955129995,0.153758484655,-0.00667112345326,-0.0729999751602,0.00144878442415,-0.117409595068,-0.0082223966549,0.0393834445892,-0.0170794898384,0.574075523523,0.818787618851,0.00220803307955,0.0,0.818746449041,-0.574014480776,-0.0119320971715,0.0,-0.00850257417015,0.00865791086531,-0.999926370695,0.0,0.656778731911,0.254473793286,0.30348605885,1.0,-0.01412,-0.0185577142857,0.707
0.461317294285,0.519650082371,-0.124130158113,-1.39991126847,0.0769736470063,1.91030574167,0.153496957113,-0.011921090486,-0.0787036140876,-0.000587429461074,-0.123529064494,-0.0144870577392,0.0460583406466,-0.01722646043,0.574077595842,0.818786203234,0.00219413944951,0.0,0.818744976663,-0.574016735494,-0.0119246577651,0.0,-0.00850443622909,0.00864228590421,-0.999926490028,0.0,0.656531933138,0.25416019164,0.303483023048,1.0,-0.01446,-0.0190045714286,0.724
0.461139407763,0.518299432368,-0.12413343746,-1.40198457,0.0768385439552,1.91104102359,0.153209190793,-0.0117691257594,-0.074835468498,-0.000206489277,-0.120607860307,-0.0110753509247,0.0466287353857,-0.0216367620858,0.574063354567,0.818796169815,0.00220094081162,0.0,0.818755050889,-0.574002487879,-0.0119187857611,0.0,-0.00849587420039,0.00864433597284,-0.999926545091,0.0,0.656277320791,0.253841263994,0.303508032567,1.0,-0.0148,-0.0194514285714,0.741
0.460959181174,0.51701021,-0.124139743107,-1.4039985803,0.0767095249492,1.91175868395,0.152927958506,-0.0141440755867,-0.0825741205135,-0.000689924928808,-0.126847692061,-0.0128275917049,0.046335411662,-0.0195016466784,0.574056814076,0.818800782472,0.00219083029997,0.0,0.818759544728,-0.573996002184,-0.011922428235,0.0,-0.00850472947657,0.00863808069746,-0.99992652387,0.0,0.656031820265,0.253525104272,0.303516359691,1.0,-0.01512,-0.019872,0.757
0.460774376813,0.515585963649,-0.124153271112,-1.40628920035,0.0765664025977,1.91263198234,0.152612568341,-0.00891218017549,-0.0807894200996,-0.00114213233415,-0.130768351856,-0.00772434240922,0.0443485608428,-0.0174804836542,0.574042162588,0.818811059392,0.00218894700316,0.0,0.818769883611,-0.573981447997,-0.0119130998233,0.0,-0.00849832653558,0.00863103164278,-0.999926639179,0.0,0.655758179013,0.253178950218,0.303501114444,1.0,-0.01548,-0.0203451428571,0.775
0.460617597832,0.514438895974,-0.124154426147,-1.4081073251,0.0764564145513,1.91330560202,0.152375901915,-0.00675466087452,-0.0864433661371,-0.00294233686136,-0.130182217964,-0.0113341520822,0.0348114040185,-0.0195340093771,0.574043743037,0.81880994744,0.00219042339394,0.0,0.818768756872,-0.573982987735,-0.0119163527146,0.0,-0.00850012602962,0.00863412418855,-0.999926597185,0.0,0.655537054091,0.252902705627,0.303498311049,1.0,-0.01576,-0.0207131428571,0.789
0.460413973796,0.512955668962,-0.124157273967,-1.41052630098,0.0763110947231,1.9141453708,0.152035952703,-0.0140414493071,-0.0842655939603,-0.000190796282295,-0.135065367312,-0.016893591375,0.0402153029876,-0.0210140436681,0.574021795879,0.818825545208,0.00210980360001,0.0,0.818783157478,-0.573961225902,-0.0119749359981,0.0,-0.00859460350952,0.00860151152617,-0.999926070662,0.0,0.655228517852,0.252533562796,0.303459247985,1.0,-0.01612,-0.0211862857143,0.807
0.460199995073,0.511449374502,-0.124156704799,-1.41296144797,0.0761620942739,1.91503459982,0.151693417019,-0.00969673824626,-0.0829634089679,-0.00013851751355,-0.1391362324,-0.0186977723924,0.050285495116,-0.0240119831331,0.574003446014,0.818838497811,0.00207493795335,0.0,0.818795581968,-0.573942950837,-0.0120012930746,0.0,-0.00863639105855,0.00858789895418,-0.99992582762,0.0,0.654927650439,0.252160812409,0.30343231437,1.0,-0.01648,-0.0216594285714,0.825
0.460011692554,0.510073090626,-0.124159880638,-1.41514808614,0.0760257739222,1.91587175801,0.1513961914,-0.0108644715853,-0.0846077169381,0.000541914444105,-0.135350590633,-0.00555767205026,0.052840823319,-0.0113914050103,0.573994078936,0.818845017328,0.00209328573186,0.0,0.818802378435,-0.573933545521,-0.0119873806856,0.0,-0.00861456590044,0.00859483834875,-0.999925956263,0.0,0.654664978059,0.251829016808,0.303427726073,1.0,-0.0168,-0.02208,0.841
0.459787657959,0.508473472578,-0.124162384545,-1.41765448346,0.0758635556225,1.91677064919,0.151032962937,-0.0122053081425,-0.0882415711483,-0.000426509921314,-0.136450958259,-0.00610904842317,0.0527789481718,-0.0184616724429,0.57396820987,0.818863178901,0.00208211437251,0.0,0.818820394544,-0.573907726692,-0.0119928988728,0.0,-0.00862576784176,0.00858858576607,-0.999925913417,0.0,0.654353439151,0.251439389083,0.303432031052,1.0,-0.01716,-0.0225531428571,0.859
0.459586800262,0.507040313894,-0.124162156035,-1.41990341349,0.0757150059476,1.91758445539,0.15072531642,-0.0182462526113,-0.0845522062567,0.00157787619209,-0.140633324222,-0.0137028049912,0.0503287630418,-0.0173478429821,0.573956861141,0.818871151986,0.00207482403652,0.0,0.81882829842,-0.57389643571,-0.0119935686121,0.0,-0.00863061939267,0.00858288087687,-0.999925920538,0.0,0.65407392454,0.251091401594,0.303434451998,1.0,-0.01748,-0.0229737142857,0.875
0.45937726681,0.505548766664,-0.12417101935,-1.4222135158,0.0755777254498,1.91846077611,0.150405453773,-0.0168544151925,-0.0996792029066,-0.00121595447095,-0.146821168149,-0.00962785468591,0.0548788724302,-0.024690313571,0.573955385826,0.818872061675,0.00212334411156,0.0,0.818829837501,-0.573894755039,-0.0119688870664,0.0,-0.00858257642042,0.00860843044688,-0.999926114424,0.0,0.653796525483,0.250731981466,0.303453804233,1.0,-0.0178,-0.0233942857143,0.891
0.459142930688,0.503803030049,-0.124174080224,-1.42484617803,0.0754072391953,1.91946316822,0.150042251414,-0.0107463275116,-0.0999365725476,0.000179789414976,-0.148713792348,-0.013606212924,0.0617985730947,-0.019284839225,0.573941576976,0.818881495206,0.00221583587238,0.0,0.818840578588,-0.573880674061,-0.0119090595141,0.0,-0.00848064635606,0.00864968725889,-0.999926628082,0.0,0.653479262703,0.250328115687,0.303507310227,1.0,-0.01816,-0.0238674285714,0.909
0.458904073626,0.502129178049,-0.124177411641,-1.42734058435,0.0752521496982,1.92039156861,0.149712164881,-0.0137843235356,-0.100691749274,-0.000392384275149,-0.153489263737,-0.0116195105097,0.0517980924882,-0.0194192277653,0.573955247667,0.81887166167,0.00230700907561,0.0,0.818831947094,-0.573893996933,-0.0118604217702,0.0,-0.00838834612537,0.00869657148384,-0.999926999982,0.0,0.653177754985,0.249934180064,0.30356931105,1.0,-0.0185,-0.0243142857143,0.926
0.458690245228,0.500516420209,-0.124175318539,-1.42977288914,0.0750918354912,1.9212444244,0.149357278194,-0.0140972356045,-0.100883689526,0.000757761314508,-0.15316244193,-0.0136799616499,0.0570399407565,-0.0186501110626,0.573918728074,0.818897182783,0.00233334464772,0.0,0.818857791235,-0.573857358822,-0.0118488970393,0.0,-0.00836418244427,0.00871114907893,-0.999927075508,0.0,0.652866206502,0.249560577666,0.303610887125,1.0,-0.01882,-0.0247348571429,0.942
0.458429169739,0.498736305561,-0.124175346094,-1.4325314919,0.0749160434831,1.92226291613,0.148971609334,-0.0107030203781,-0.0993829254847,0.000343526868067,-0.159164226922,-0.0116513091271,0.0597176488693,-0.0199710588205,0.573909641203,0.818903462959,0.0023641044084,0.0,0.818864474101,-0.573848156743,-0.0118327071996,0.0,-0.00833336838799,0.00872695387739,-0.999927194973,0.0,0.652525431196,0.24912716371,0.30362777777,1.0,-0.01918,-0.025208,0.96
0.458186304531,0.497168374468,-0.124177680674,-1.43502815983,0.0747616747279,1.92318581053,0.148589785663,-0.0162787282584,-0.105757765583,0.000571752408142,-0.15855007843,-0.0172536879942,0.0559647280447,-0.0226039520292,0.57388259619,0.818922435088,0.00235754133299,0.0,0.818883319099,-0.573821096769,-0.0118408405856,0.0,-0.00834408370195,0.00872597161002,-0.999927114187,0.0,0.65221685576,0.248729640362,0.303612621549,1.0,-0.0195,-0.0256285714286,0.976
0.457919057728,0.495494099729,-0.124173769881,-1.43772518223,0.0745938948672,1.92410800857,0.148195015752,-0.0140159804726,-0.101568562666,0.00105844070651,-0.156817537555,-0.00420320073053,0.0545373776899,-0.0301062356505,0.573865974236,0.818934319159,0.00227407553336,0.0,0.818893931015,-0.573804611958,-0.0119056266039,0.0,-0.00844521378461,0.00869462806143,-0.999926538205,0.0,0.65186662341,0.248295586911,0.303575393613,1.0,-0.01984,-0.0260754285714,0.993
0.457673437949,0.494003932085,-0.12418722633,-1.44016633402,0.0744459406816,1.92497153742,0.147861556886,-0.0166680690118,-0.0988845729324,-0.00810634091355,-0.165560547697,-0.0109648203525,0.0609426249145,-0.0204185189942,0.573886667607,0.818920026607,0.0021976502915,0.0,0.818878554119,-0.573825520792,-0.0119554251978,0.0,-0.00852963351992,0.00866083456766,-0.999926114919,0.0,0.6515581489,0.247892642028,0.303526656581,1.0,-0.023116,-0.0303810285714,1.008
0.457383535767,0.491769836556,-0.124263776842,-1.44359703328,0.0742486877433,1.92625139624,0.147365623931,-0.0129863193451,-0.135946308063,-0.00922612179237,-0.220305643388,-0.00872319193957,0.0894418839592,-0.0363707090808,0.573892258766,0.818915940258,0.00225942923034,0.0,0.81887544781,-0.573831040499,-0.0119031439107,0.0,-0.00845130637533,0.00868148041352,-0.999926600965,0.0,0.651138507931,0.247336621982,0.303561875248,1.0,-0.030732,-0.0403906285714,1.025
0.4569563092,0.48879791948,-0.124279223105,-1.44837018899,0.0739885700576,1.9280011982,0.146661369481,-0.0259828489546,-0.178266918287,-0.000303532770554,-0.286311972057,-0.0108542474373,0.10503378011,-0.0431163590385,0.573845174893,0.818949014556,0.00223018184528,0.0,0.818907751416,-0.573783681825,-0.011963613292,0.0,-0.00851811136571,0.00869174230503,-0.999925944955,0.0,0.650526220693,0.246599633756,0.303508999787,1.0,-0.038796,-0.0509890285714,1.043
0.45637034094,0.485016760689,-0.124342965033,-1.45427101094,0.0736384108028,1.9302305217,0.145775429449,-0.0345075472731,-0.222090664875,-0.00144073769407,-0.346051539691,-0.0229228650882,0.132005867771,-0.0493183433245,0.573843824591,0.818949723342,0.00231571109563,0.0,0.818909672429,-0.57378208758,-0.0119084539346,0.0,-0.00842387369419,0.00873011904742,-0.999926408979,0.0,0.649805612605,0.245626511064,0.303521994641,1.0,-0.04686,-0.0615874285714,1.061
0.455845715557,0.481598504894,-0.124433620381,-1.45964341681,0.0733096188206,1.93210186723,0.144944055962,-0.0415412255817,-0.25685633761,-0.00876310601102,-0.402347971127,-0.0238276437727,0.136811250792,-0.0634100733918,0.573837181494,0.818954612067,0.00223145935853,0.0,0.818913535901,-0.573775858104,-0.0119428755225,0.0,-0.00850047914277,0.00868080543467,-0.999926190012,0.0,0.649066691021,0.244640508742,0.303501363756,1.0,-0.05358,-0.0704194285714,1.076
0.454985256739,0.47619802434,-0.124534330028,-1.46802232325,0.0728042943519,1.9350978739,0.143718794598,-0.0494510133076,-0.300414557417,-0.000995220400896,-0.462056268557,-0.0349675082174,0.17028000347,-0.0726509696711,0.573877665603,0.818926217306,0.002241078223,0.0,0.818885195732,-0.573816225735,-0.0119466394691,0.0,-0.00849761282782,0.00869126268336,-0.999926123536,0.0,0.648052121446,0.243299444582,0.303517057446,1.0,-0.061644,-0.0810178285714,1.094
0.454148251163,0.471097377226,-0.12459987964,-1.47593687108,0.0723324538635,1.93795891325,0.142560865751,-0.0569625765664,-0.332383850286,-0.00376891375587,-0.513943795991,-0.0349592467454,0.178798480335,-0.0750139142737,0.573915441699,0.818899626081,0.00228365598283,0.0,0.818858963097,-0.573853623149,-0.0119484164655,0.0,-0.0084742326713,0.00872754091575,-0.999926005968,0.0,0.647039678324,0.241967934464,0.303527042246,1.0,-0.068812,-0.0904386285714,1.11
0.453220301728,0.465389693482,-0.124652067292,-1.48452318316,0.0717938347776,1.94118514061,0.141163290425,-0.0611747702941,-0.364650034101,-0.0067534635297,-0.556448124495,-0.0388651575532,0.20124539763,-0.0866257400514,0.573830623065,0.818958208442,0.0025721116908,0.0,0.81892146154,-0.573767871068,-0.0117820567123,0.0,-0.00817337437068,0.00886743313485,-0.999927279646,0.0,0.645959894583,0.240529389376,0.3036604455,1.0,-0.07598,-0.0998594285714,1.126
0.452225651034,0.459605854962,-0.124687791549,-1.49350709654,0.0712232711472,1.94427786991,0.139811797878,-0.0693351102181,-0.394704777827,-0.00406324312597,-0.617368411695,-0.0339013652297,0.206087951043,-0.0886954592282,0.573828943924,0.818959659085,0.00248330585341,0.0,0.818921367771,-0.573766108666,-0.0118740412495,0.0,-0.00829968383211,0.00884747111758,-0.999926416044,0.0,0.644756238129,0.239000395481,0.303637814909,1.0,-0.0827,-0.108691428571,1.141
0.450758427246,0.451088399125,-0.124815656808,-1.50645390766,0.0703340504089,1.94879860174,0.137753262569,-0.0729694921974,-0.447119064453,-0.00608389058998,-0.652358449121,-0.0409456805338,0.240433358839,-0.112361911895,0.57378872103,0.818987741615,0.00251587046174,0.0,0.818950302697,-0.573726225872,-0.0118053530745,0.0,-0.0082251769488,0.00883432140618,-0.999927147961,0.0,0.643042140754,0.236730319911,0.303723340285,1.0,-0.09166,-0.120467428571,1.161
0.449458658996,0.443738518583,-0.124869150102,-1.51750776148,0.0696067509462,1.95287603082,0.136080183915,-0.0847280351325,-0.463689032623,-0.00173330785162,-0.70291226643,-0.0451976928481,0.247461819821,-0.110808467051,0.573822298801,0.818963239264,0.00281585423456,0.0,0.818929912387,-0.573758969983,-0.0116271176057,0.0,-0.00790671250116,0.00897805947001,-0.999928436612,0.0,0.641598082924,0.234818690274,0.30385287045,1.0,-0.098828,-0.129888228571,1.177
0.447846995359,0.434925919217,-0.124915592457,-1.53099545614,0.0687011619184,1.95749450033,0.133887878271,-0.0990395766037,-0.50687949512,-0.00439087010247,-0.761639748686,-0.0434566325955,0.266532540715,-0.124685346418,0.573726893056,0.819030268329,0.00276018970098,0.0,0.818995857387,-0.573663359636,-0.0116996707611,0.0,-0.00799911879352,0.00897317244759,-0.999927745527,0.0,0.639733555447,0.232458954384,0.303856343575,1.0,-0.106892,-0.140486628571,1.195
0.446277578366,0.426578395591,-0.124954503675,-1.54359813307,0.0678109431221,1.96199767728,0.131829663291,-0.10099083195,-0.519203060794,-0.000769804902108,-0.791513369958,-0.053291765739,0.277746547404,-0.127226506279,0.573652876455,0.819081502871,0.00293528378573,0.0,0.819049666885,-0.573589107803,-0.0115726179329,0.0,-0.00779542056684,0.00904298287768,-0.999928725399,0.0,0.638018660543,0.230228577511,0.303935263802,1.0,-0.11406,-0.149907428571,1.211
0.444541383277,0.417801872296,-0.125045361063,-1.55696602764,0.0668668607831,1.96650426784,0.129627767365,-0.104389871569,-0.556677647854,-0.00680627669911,-0.839013819929,-0.0546430520614,0.300401079365,-0.134067156064,0.573639706746,0.819091089427,0.00283213112056,0.0,0.81905788346,-0.573576243972,-0.0116285335793,0.0,-0.00790053721718,0.00899044100747,-0.999928374176,0.0,0.636139031817,0.227776866997,0.303926059338,1.0,-0.121228,-0.159328228571,1.227
0.442557007013,0.407948672721,-0.125137800081,-1.57181809115,0.0658424885378,1.97171624658,0.127154994561,-0.121363555418,-0.582627001331,-0.00667165000469,-0.908055383577,-0.0512646113213,0.304041710022,-0.136787742124,0.573642076625,0.81908892682,0.00297401872504,0.0,0.819057575217,-0.573578163731,-0.0115553222287,0.0,-0.00775915367194,0.00906468612825,-0.999928810966,0.0,0.633936861941,0.224880083038,0.303971937205,1.0,-0.129292,-0.169926628571,1.245
0.440196384965,0.396922856913,-0.125267484155,-1.58835390718,0.0647195492279,1.97731308439,0.124360203291,-0.130773623301,-0.631022243186,-0.0116032446603,-0.920912743806,-0.0620771698597,0.319593256228,-0.1641939008,0.573725044844,0.819030503947,0.00305833670297,0.0,0.818999886509,-0.573660429714,-0.0115604575603,0.0,-0.00771406915398,0.00913747736961,-0.999928497266,0.0,0.631710112812,0.221903626707,0.304031772096,1.0,-0.136908,-0.179936228571,1.262
0.437971079062,0.386794609063,-0.125390547164,-1.60373006076,0.0635243800353,1.98249648289,0.121710659516,-0.138562607852,-0.639840384412,-0.0122220722371,-0.990430298752,-0.076623412054,0.327661309541,-0.173385358249,0.573725150977,0.819030936103,0.00291954531758,0.0,0.818999142468,-0.573661709464,-0.0115496593874,0.0,-0.00778484686444,0.0090176088042,-0.999929036927,0.0,0.629480770455,0.21894451154,0.303968491284,1.0,-0.144076,-0.189357028571,1.278
0.435258898863,0.374747289964,-0.125512323945,-1.6215604058,0.0622114945416,1.9884252674,0.118488014214,-0.15159590222,-0.680843787276,-0.00795303250396,-1.00766604824,-0.0712883127347,0.330507799307,-0.185618039557,0.573686488987,0.819057766776,0.00298896953745,0.0,0.819026897482,-0.573622860836,-0.0115109351751,0.0,-0.00771372811417,0.00905188870939,-0.999929278354,0.0,0.62699776068,0.215669624578,0.304047406127,1.0,-0.151692,-0.199366628571,1.295
0.432627459274,0.363738926699,-0.125662279771,-1.63796306698,0.0609631177714,1.99386649691,0.115593563885,-0.165396785791,-0.703424635845,-0.0128862687908,-1.03010527114,-0.0777415555266,0.355619256233,-0.180396071498,0.573827083611,0.818959259731,0.00299264361642,0.0,0.818928641212,-0.573763664621,-0.0114841048495,0.0,-0.00768809185759,0.00904082602804,-0.999929575874,0.0,0.624418753227,0.212171310273,0.30405369439,1.0,-0.159308,-0.209376228571,1.312
0.429632821868,0.351568580436,-0.125798147086,-1.65608612349,0.0595772737539,1.99974802303,0.112223084615,-0.184750221278,-0.714958363546,-0.0103757783445,-1.09512422502,-0.0791406461687,0.346444332403,-0.200450705682,0.573853837834,0.818940883203,0.00288955414647,0.0,0.818908810806,-0.573790603566,-0.0115520450887,0.0,-0.00780259321412,0.00899563995279,-0.999929096487,0.0,0.62165653738,0.208502807785,0.304009133628,1.0,-0.166924,-0.219385828571,1.329
0.427024386556,0.341128498738,-0.125913505703,-1.67119726142,0.0584528283892,2.00470479432,0.109382524829,-0.188683293215,-0.768284225361,-0.00665041885447,-1.1025783773,-0.0836259930301,0.361128801059,-0.200627032055,0.573951569755,0.818871514452,0.00312814567795,0.0,0.818842373576,-0.573887392987,-0.0114531353053,0.0,-0.00758358889224,0.0091351790994,-0.999929516357,0.0,0.619176689062,0.205165667396,0.304142295292,1.0,-0.173644,-0.228217828571,1.344
0.423499370124,0.327468870538,-0.126009914799,-1.6912940067,0.0568117360817,2.01112825456,0.105459652799,-0.201472815708,-0.785537494905,-0.00574481075459,-1.11210774715,-0.0996285847586,0.371656947422,-0.226318860171,0.573844429692,0.818946936497,0.00303852181325,0.0,0.818916765817,-0.573780694495,-0.0114800779086,0.0,-0.00765827692331,0.00907624996238,-0.999929483754,0.0,0.616174924726,0.201267558667,0.304103539499,1.0,-0.18126,-0.238227428571,1.361
0.419961757923,0.314055684607,-0.126043654819,-1.71089370084,0.055179758198,2.01724081028,0.101639937439,-0.210109932696,-0.789900836291,-0.00506350686391,-1.16215789011,-0.0950011813886,0.360523019333,-0.227400938304,0.573751203744,0.819012683628,0.00292013034155,0.0,0.818980828526,-0.573687677017,-0.011558488136,0.0,-0.00779145560441,0.00902340097647,-0.999928933202,0.0,0.61298978255,0.197227342414,0.304067931783,1.0,-0.188876,-0.248237028571,1.378
0.416394118894,0.301050313172,-0.126139728649,-1.72957346287,0.053599937617,2.02313194234,0.0977292748248,-0.230730912317,-0.833817967223,-0.00625233177708,-1.18628307592,-0.103002095193,0.367380716252,-0.24294603102,0.573611667515,0.81910999805,0.00303527377238,0.0,0.819079967578,-0.573548188212,-0.0114555406746,0.0,-0.00764261927089,0.00905733811355,-0.999929775033,0.0,0.609957752856,0.1932505962,0.304138526222,1.0,-0.196044,-0.257657828571,1.394
0.412088618908,0.285975758304,-0.126299048683,-1.75110535944,0.0518714552352,2.02969635866,0.0932857446169,-0.247771503497,-0.841202296808,-0.010695954715,-1.21234615776,-0.104866540717,0.371906928898,-0.24749920387,0.573695017492,0.819051307983,0.00311908596887,0.0,0.819021669448,-0.573630444546,-0.0115049973761,0.0,-0.00763412745896,0.00915513493303,-0.999928949277,0.0,0.606378788044,0.188559946994,0.304198616766,1.0,-0.204108,-0.268256228571,1.412
0.408014593713,0.272289391331,-0.126458190411,-1.77065492478,0.050184231417,2.03555435811,0.0890656584857,-0.267445898073,-0.880840728257,-0.0167386336766,-1.22061243696,-0.107405339413,0.383528182649,-0.264582497349,0.573687259977,0.81905696391,0.00306014906091,0.0,0.819026478075,-0.573622772154,-0.011545145277,0.0,-0.00770090871731,0.00912982164509,-0.999928668637,0.0,0.603069346535,0.18420778346,0.304191684283,1.0,-0.211276,-0.277677028571,1.428
0.403348596075,0.257424169454,-0.126641910109,-1.79179770165,0.0483210871861,2.04178915847,0.0844314076609,-0.283429704067,-0.893016663629,-0.012137587836,-1.25448187835,-0.112108935818,0.362756440303,-0.273405677633,0.573791187653,0.818984518707,0.00296276740679,0.0,0.818952663092,-0.573726874327,-0.0116084533714,0.0,-0.00780747463175,0.00908736946474,-0.999928228953,0.0,0.599438484313,0.179370871314,0.304158470468,1.0,-0.218892,-0.287686628571,1.445
0.398120680118,0.241216037571,-0.126799753935,-1.81460697502,0.0462692308697,2.0483925278,0.0792400213694,-0.292571472746,-0.915431882713,-0.00840063643645,-1.28256279485,-0.117944317928,0.362443026889,-0.296235467085,0.573802605265,0.818976690557,0.00291503290453,0.0,0.818943938604,-0.573738129175,-0.0116675385476,0.0,-0.00788312835621,0.00908228740584,-0.999927681556,0.0,0.595207881589,0.173812734524,0.304157960866,1.0,-0.227404,-0.298873828571,1.464
0.39333095514,0.226412629465,-0.126929268109,-1.83500847714,0.0444369494125,2.05436863814,0.0744291714198,-0.303160785352,-0.931958495176,-0.0136226979106,-1.29893027077,-0.130455286335,0.376182623357,-0.30287294364,0.573739637591,0.819019792866,0.00318654219049,0.0,0.818990607157,-0.573674343127,-0.011527372944,0.0,-0.00761325568171,0.0092236364822,-0.999928478876,0.0,0.591799713633,0.169390249507,0.30427422382,1.0,-0.234124,-0.307705828571,1.479
0.387517003295,0.209428918999,-0.127081009889,-1.85838426081,0.0422054362035,2.06087131357,0.0687399166429,-0.326188278352,-0.940783967656,-0.00852911701398,-1.30762431034,-0.120443214468,0.346080818656,-0.319721299391,0.573681902046,0.819060169845,0.00320317633002,0.0,0.819031270663,-0.573616650266,-0.0115092621729,0.0,-0.00758952907547,0.00922633462978,-0.999928634352,0.0,0.587527760492,0.163820998367,0.304325557787,1.0,-0.242188,-0.318304228571,1.497
0.381634708129,0.193110466768,-0.127266448518,-1.88074248513,0.0400606433392,2.06697758629,0.0630860183344,-0.355161321843,-0.957033931121,-0.00974853108154,-1.31757620163,-0.120871698952,0.35283521943,-0.336042165972,0.573696817241,0.819049725334,0.00320253320613,0.0,0.819020658318,-0.573631371666,-0.0115307237032,0.0,-0.00760730903044,0.00923825820888,-0.999928389153,0.0,0.583376512521,0.1583431558,0.304334520449,1.0,-0.249804,-0.328313828571,1.514
0.375290894198,0.176393118913,-0.127564032239,-1.90332066715,0.0378656166256,2.07305272897,0.0571325486815,-0.378110845118,-0.999126345429,-0.0189492984461,-1.32685043127,-0.132196929657,0.370834695529,-0.349560646308,0.573872465457,0.818926184479,0.00332335179515,0.0,0.818898749901,-0.573806714642,-0.0114646649935,0.0,-0.00748189683399,0.00930092326759,-0.999928754485,0.0,0.579148686607,0.152578905922,0.304402686299,1.0,-0.25742,-0.338323428571,1.531
0.368307368,0.158395292511,-0.127749412072,-1.92752249513,0.0353855244408,2.07927317622,0.0505620743514,-0.394711773419,-1.03359056089,-0.0127433927483,-1.34086236304,-0.138162827531,0.362751225234,-0.374428700641,0.573843652412,0.8189466289,0.0032601381018,0.0,0.81891832105,-0.573778026838,-0.0115024461272,0.0,-0.00754943922284,0.00927057100527,-0.999928528686,0.0,0.574451698051,0.146426680156,0.304406221168,1.0,-0.265484,-0.348921828571,1.549
0.362246117058,0.143292243606,-0.127893121845,-1.94790927033,0.0332569644104,2.08433565292,0.044909697058,-0.415327047383,-1.00140517894,-0.00483113568072,-1.36352122678,-0.137499696736,0.314809430066,-0.385473306881,0.573799423242,0.818978532174,0.00302202339018,0.0,0.81894666626,-0.573734001488,-0.011679052161,0.0,-0.00783120619877,0.00917648605055,-0.999927229509,0.0,0.570387666768,0.141207549307,0.304287941609,1.0,-0.272204,-0.357753828571,1.564
0.355383322585,0.126683281289,-0.1281090807,-1.96973032531,0.0309817374118,2.08976946295,0.0384433710658,-0.441711819578,-1.0057114303,-0.00928756518521,-1.37399533741,-0.152799206565,0.338454219875,-0.40719106646,0.573724987155,0.819030151527,0.00316178813664,0.0,0.819000033327,-0.573659035082,-0.0116191126912,0.0,-0.00770276359859,0.00925585807277,-0.999927495634,0.0,0.566016790683,0.135456124709,0.304346766781,1.0,-0.279372,-0.367174628571,1.58
0.347145854403,0.107649070594,-0.128453933648,-1.99444674497,0.0282595578574,2.09568556908,0.0309640242794,-0.459831643274,-1.0641980056,-0.0181813488228,-1.3955561208,-0.162666054714,0.319264752494,-0.424762582737,0.573858478527,0.818936257246,0.0032557783438,0.0,0.818907890554,-0.573792861285,-0.0115050435796,0.0,-0.00755390039295,0.00926862782943,-0.999928513008,0.0,0.560977691521,0.128700069721,0.304422369321,1.0,-0.287436,-0.377773028571,1.598
0.340538890409,0.0926877389231,-0.128587707916,-2.01370378826,0.0261467547819,2.10012222844,0.0248466411359,-0.470749961361,-1.07312487659,-0.00558452140484,-1.38044973594,-0.143886307234,0.298861399186,-0.44234711106,0.573730722304,0.819025423374,0.00334081609254,0.0,0.818997953649,-0.57366461358,-0.011489558139,0.0,-0.00749387652675,0.00932821363037,-0.99992841056,0.0,0.55693308644,0.123483210298,0.304465622564,1.0,-0.293708,-0.386016228571,1.612
0.331534142106,0.0730992907328,-0.128863302642,-2.03864532767,0.0233737761328,2.10560027615,0.0165786059718,-0.507287271034,-1.09329426912,-0.0193753068429,-1.39273845779,-0.163802889968,0.304206765408,-0.463660602867,0.57366139378,0.81907364383,0.00342318134139,0.0,0.819046731006,-0.573594409086,-0.0115175168679,0.0,-0.00747032065697,0.0094110814591,-0.999927810322,0.0,0.551591425904,0.116519843849,0.304518055816,1.0,-0.29998,-0.394259428571,1.63
0.321998779336,0.0535101992647,-0.129207497899,-2.0633804742,0.0204756215918,2.11082446479,0.00806199505623,-0.541117988807,-1.0931874744,-0.0195412914081,-1.36746749367,-0.167037430424,0.29120357098,-0.479789809713,0.573761579675,0.819003472543,0.00342177620284,0.0,0.818976542301,-0.573694586582,-0.0115191748226,0.0,-0.00747133354281,0.00941179559214,-0.999927796033,0.0,0.546197288518,0.109350984922,0.304528448928,1.0,-0.29998,-0.394259428571,1.648
0.312733598059,0.0351812295816,-0.129407492626,-2.0862562756,0.017828711136,2.11535322345,-0.000156682957316,-0.549307822908,-1.10140323571,-0.015034631102,-1.33936521665,-0.158853503841,0.279469445362,-0.49461212595,0.57380030641,0.818976335576,0.00342301486146,0.0,0.818948441877,-0.573732073929,-0.0116491970989,0.0,-0.0075766692113,0.00948776822106,-0.999926285452,0.0,0.541059516265,0.10266612818,0.304524428362,1.0,-0.29998,-0.394259428571,1.665
0.303753933468,0.018150643188,-0.129590015443,-2.10721518559,0.0152382593876,2.11932574127,-0.00809029927343,-0.564095279029,-1.06328821326,-0.0101830979695,-1.28185211341,-0.151106007432,0.24121452158,-0.487172563752,0.573787458478,0.818985390388,0.00341023851501,0.0,0.818957280005,-0.573719205283,-0.0116616429801,0.0,-0.00759434211258,0.00948432674832,-0.999926184033,0.0,0.536267228246,0.0963660155158,0.304544099332,1.0,-0.29998,-0.394259428571,1.681
0.293271565304,-0.000974706109192,-0.129879404322,-2.13036744468,0.0123430927794,2.123472696,-0.0172700471153,-0.582489777053,-1.05995258276,-0.00151228423725,-1.27588936981,-0.152920581038,0.215397936072,-0.515364058565,0.57389624218,0.818908890627,0.0034754804529,0.0,0.818881510488,-0.573827618097,-0.0116483213659,0.0,-0.00754473251688,0.00953111804611,-0.99992611467,0.0,0.530869632392,0.0891860701543,0.304608701067,1.0,-0.29998,-0.394259428571,1.699
0.283853613457,-0.0177200397759,-0.130033526721,-2.15044013931,0.00978124324312,2.12704168687,-0.0256467293691,-0.592676651113,-1.01981794828,-0.0159987130114,-1.26166796995,-0.171483393932,0.20080571847,-0.527287576759,0.573771023616,0.818995963628,0.00362917646817,0.0,0.818970910514,-0.573702371399,-0.0115318552453,0.0,-0.00736261750626,0.00958901896319,-0.999926918619,0.0,0.526102788321,0.0829549767218,0.304657746423,1.0,-0.29998,-0.394259428571,1.715
0.274077957855,-0.0343749973198,-0.130268896174,-2.1700792342,0.00716252617935,2.13019643247,-0.034153450301,-0.613999725934,-1.0257206297,-0.0167841057308,-1.2287912685,-0.163822095086,0.193797103386,-0.54079829467,0.573830052929,0.818954262543,0.00370582238888,0.0,0.818930662656,-0.573761776348,-0.011434188431,0.0,-0.00723795747075,0.00959627729526,-0.999927759107,0.0,0.521332291032,0.0766141144317,0.304734014173,1.0,-0.29998,-0.394259428571,1.731
0.262772065788,-0.0529542273384,-0.130512134388,-2.19176852492,0.00437944133654,2.13345047252,-0.0440605632077,-0.620181017178,-1.0386810833,-0.00379328170249,-1.18619567835,-0.156678918718,0.187442240435,-0.564248892348,0.573878327386,0.818919707439,0.00386329214664,0.0,0.818897547181,-0.573808800154,-0.0114461778272,0.0,-0.00715684735773,0.00973254123095,-0.999927025926,0.0,0.515938258474,0.0695085320416,0.304793802152,1.0,-0.29998,-0.394259428571,1.749
0.252555198792,-0.0690530625529,-0.130702632037,-2.21070998668,0.00179213611162,2.13601103035,-0.0530462433917,-0.646788038706,-1.01289926329,-0.0141135834651,-1.1657426455,-0.160812399019,0.151731052955,-0.568901843992,0.573799652758,0.818975883856,0.00363415174191,0.0,0.81894991614,-0.573729709665,-0.0116619896776,0.0,-0.00746601122378,0.00966802003107,-0.999925391249,0.0,0.511087759087,0.0632396123794,0.304668466204,1.0,-0.29998,-0.394259428571,1.765
0.24124189541,-0.0862001766145,-0.131025084908,-2.23031267248,-0.000931189853089,2.13853076731,-0.0628923960389,-0.663596587112,-0.989782287736,-0.0162919634235,-1.1552997102,-0.158581122638,0.144021179435,-0.579515746922,0.57391548965,0.818894517322,0.00367792618271,0.0,0.818869034285,-0.57384528286,-0.011655167498,0.0,-0.00743393529822,0.00970100779744,-0.999925310738,0.0,0.506004358859,0.0564420593854,0.304686793953,1.0,-0.29998,-0.394259428571,1.782
0.229199337825,-0.104235245126,-0.131204441007,-2.25058298402,-0.00379084684814,2.1408331894,-0.0735237280969,-0.683654073657,-1.00101916374,-0.0151535942343,-1.11928019294,-0.162857375022,0.118282660776,-0.596067888432,0.573757294003,0.819005115086,0.00373308761667,0.0,0.81898022481,-0.573686775011,-0.0116457051274,0.0,-0.00739641147634,0.0097393207083,-0.999925216568,0.0,0.500589046692,0.0494614483911,0.304734300209,1.0,-0.29998,-0.394259428571,1.8
0.217980101975,-0.119956631824,-0.131527326836,-2.2682106621,-0.00636168770677,2.14263622484,-0.0832414036235,-0.711791711695,-0.985247342635,-0.0243448007195,-1.07154514881,-0.15247215863,0.12100903181,-0.624286459245,0.573905413436,0.818901686583,0.00365390771516,0.0,0.81887538096,-0.573834621642,-0.0117338980368,0.0,-0.00751231477664,0.00972642994021,-0.999924477992,0.0,0.49578703993,0.0430562728842,0.304691801286,1.0,-0.29998,-0.394259428571,1.816
0.206651109577,-0.135569977227,-0.131697317895,-2.28555666752,-0.00882655231786,2.14415197084,-0.0932125392279,-0.71425168886,-0.973699941443,-0.00734077952973,-1.0821679354,-0.149633181402,0.0856769775037,-0.63602847429,0.573827196239,0.818956907069,0.00356091580578,0.0,0.818928050231,-0.573755022965,-0.0119486010781,0.0,-0.00774244511885,0.00977275424928,-0.999922270888,0.0,0.490924787012,0.0368185261645,0.304622093512,1.0,-0.29998,-0.394259428571,1.832
0.193488526757,-0.153029589023,-0.132071327608,-2.30443380121,-0.0116327728998,2.14574651472,-0.104791071037,-0.740762429553,-0.959065119915,-0.0308731399918,-1.05054438827,-0.154319106186,0.0762149650539,-0.642388728508,0.573887472859,0.818913942409,0.00372428841634,0.0,0.818887389979,-0.573814937999,-0.0118577554415,0.0,-0.00757357474475,0.00985497986377,-0.999922757186,0.0,0.485566021055,0.0296726202192,0.304677175422,1.0,-0.29998,-0.394259428571,1.85
0.181533671528,-0.1684235486,-0.132282769397,-2.32081253711,-0.0140707669962,2.14678227526,-0.115253975347,-0.748389873445,-0.982673097776,-0.00687684776396,-0.997257068598,-0.133633848696,0.0704500347725,-0.668277419418,0.573908509996,0.81889874841,0.00382216018755,0.0,0.818873116459,-0.573835170068,-0.0118643851814,0.0,-0.00752258506752,0.00993912720485,-0.999922309214,0.0,0.480767800193,0.023404060465,0.304733932807,1.0,-0.29998,-0.394259428571,1.866
0.169338755952,-0.183557018697,-0.132557128353,-2.33696634846,-0.0165582881304,2.14760576191,-0.126065871137,-0.777344845448,-0.939528312594,-0.0227982693344,-1.01077109515,-0.14940034745,0.0467687548752,-0.675892803592,0.573842641256,0.818945338658,0.00372857459112,0.0,0.818917545223,-0.573768416707,-0.0120251825872,0.0,-0.00770877730442,0.00995414933698,-0.999920741691,0.0,0.475915627395,0.0171184659035,0.304674460048,1.0,-0.29998,-0.394259428571,1.882
0.155233173361,-0.200444750692,-0.132850668853,-2.35444386505,-0.0193466875752,2.1484019722,-0.138539298035,-0.785442529303,-0.926891435562,-0.0151597082416,-0.966159649933,-0.15076821547,0.0321631949186,-0.704427942644,0.57380078719,0.8189739451,0.00388339655,0.0,0.818948971107,-0.573727067643,-0.0118567060453,0.0,-0.00748246767135,0.00998388309197,-0.999922164349,0.0,0.470572349848,0.0100357195792,0.304759022039,1.0,-0.29998,-0.394259428571,1.9
0.141592204141,-0.216178282831,-0.133188150451,-2.37056476032,-0.0218709506184,2.14879166653,-0.150662518466,-0.811346367215,-0.920512802793,-0.0317739018031,-0.924447941829,-0.156235168631,0.0246153502618,-0.709713207327,0.573814559374,0.818963829118,0.00398057119634,0.0,0.818939558852,-0.573739747332,-0.0118931988775,0.0,-0.00745643134021,0.0100845320515,-0.999921348829,0.0,0.465481027151,0.00333872591137,0.304797437352,1.0,-0.29998,-0.394259428571,1.917
0.127671160781,-0.231711747355,-0.133424713144,-2.38636729261,-0.0244961010705,2.14902663267,-0.163018064673,-0.815598084081,-0.914244139574,-0.00797360659096,-0.915231348022,-0.152542065477,0.0057461641907,-0.736081129706,0.573718470363,0.819031246753,0.00395986213151,0.0,0.819006891446,-0.573643994241,-0.0118754594209,0.0,-0.00745496473671,0.0100565184079,-0.999921641899,0.0,0.460367068808,-0.00330292524363,0.304796711953,1.0,-0.29998,-0.394259428571,1.934
0.114140847913,-0.246167106699,-0.133799246445,-2.40074136524,-0.0268544980568,2.1491332414,-0.175015064574,-0.852166526872,-0.905654360015,-0.0295413344399,-0.903562800956,-0.14664854026,0.00378269544453,-0.751413061258,0.573834399391,0.81894905267,0.00415669425214,0.0,0.818927692025,-0.573759845169,-0.0117397703523,0.0,-0.00722946874771,0.0101409113434,-0.999922445342,0.0,0.455609669063,-0.0096664077956,0.30486439774,1.0,-0.29998,-0.394259428571,1.95
0.100449370215,-0.260334956492,-0.1340582219,-2.41488734263,-0.0291924851101,2.14903842263,-0.187336222084,-0.860164419398,-0.906994984118,-0.0176991761338,-0.88969305096,-0.147747331139,-0.00847341770978,-0.77307017229,0.573716260304,0.819031726409,0.00417500884485,0.0,0.81901022607,-0.573641134649,-0.011783256468,0.0,-0.00725604377808,0.0101798167659,-0.999921857527,0.0,0.450794928846,-0.0159135771774,0.304823740109,1.0,-0.29998,-0.394259428571,1.966
0.0854139637825,-0.275204523651,-0.13449992006,-2.42925539708,-0.0316727508233,2.14876804952,-0.200686828478,-0.89386228969,-0.87338562607,-0.0312654071342,-0.861520022962,-0.148307157072,-0.0340828610253,-0.793992210194,0.573903185304,0.818899669975,0.00438307133781,0.0,0.818881740514,-0.573828627192,-0.0115822522946,0.0,-0.00696970496134,0.0102365056552,-0.999923315642,0.0,0.445766276221,-0.0227026101176,0.304910301864,1.0,-0.29998,-0.394259428571,1.983
0.0693407940554,-0.290607559431,-0.134777287629,-2.4442458961,-0.0341683619687,2.14816860801,-0.215254032772,-0.901783815013,-0.867390077889,-0.0110347190439,-0.820796083072,-0.135376857124,-0.039144587051,-0.828175421516,0.573762516964,0.818998198162,0.0043900382469,0.0,0.818979310161,-0.573686425062,-0.0117269829481,0.0,-0.00708600898422,0.0103240525177,-0.999921598135,0.0,0.440339214853,-0.0296917708133,0.304852167005,1.0,-0.29998,-0.394259428571,2.001
0.0545586820322,-0.304096623125,-0.135161733037,-2.45692332946,-0.0364800402577,2.14759473851,-0.228560457914,-0.920953122842,-0.812624123401,-0.0122744410168,-0.810521773719,-0.143144826719,-0.0407817450121,-0.831549533184,0.573812980127,0.818961936375,0.0045560408405,0.0,0.818946518474,-0.573738343673,-0.011474309522,0.0,-0.00678317801639,0.0103154601307,-0.999923786985,0.0,0.435617980842,-0.0360636397113,0.304935325856,1.0,-0.29998,-0.394259428571,2.017
0.0396434647179,-0.317317667338,-0.135456765531,-2.46948699884,-0.0386963462785,2.14667107945,-0.242106316271,-0.952118289607,-0.800950464547,-0.0275324899298,-0.772899049846,-0.133596417036,-0.069758200761,-0.865465592675,0.573733898769,0.819017759062,0.0044800275265,0.0,0.819000305615,-0.573657919952,-0.0116549208774,0.0,-0.00697571821102,0.0103561664965,-0.999922041547,0.0,0.430767206493,-0.0423010869782,0.304868124548,1.0,-0.29998,-0.394259428571,2.033
0.024346656868,-0.330316706393,-0.135796909256,-2.48137282404,-0.0408241586909,2.14579349572,-0.256007104411,-0.951629071145,-0.772335248055,-0.0147200971951,-0.74434939734,-0.122286151734,-0.0599164930007,-0.876916911802,0.573755507724,0.819001331568,0.00470989883762,0.0,0.818987813647,-0.573680317069,-0.0114281147896,0.0,-0.00665779315465,0.0104144940663,-0.999923603134,0.0,0.426053884909,-0.0486002976429,0.30496023359,1.0,-0.29998,-0.394259428571,2.049
0.00772465039398,-0.34385725482,-0.136230471714,-2.49383529969,-0.0431451318837,2.14455264442,-0.271132356099,-0.991648323382,-0.803597722103,-0.0330100812686,-0.732781772376,-0.134422073808,-0.0793386983893,-0.897588842048,0.573805240769,0.81896655792,0.00469782674869,0.0,0.818952375376,-0.573729283406,-0.011509262825,0.0,-0.00673055016981,0.0104515729265,-0.999922729173,0.0,0.420912728971,-0.0553308660912,0.304932021171,1.0,-0.29998,-0.394259428571,2.066
-0.0091421112456,-0.357055516346,-0.136553334798,-2.50559736376,-0.0454012357882,2.14325491229,-0.286675149645,-0.992280265229,-0.765138257691,-0.0192807314759,-0.681954794555,-0.134359908166,-0.0665205279557,-0.916474129017,0.573664026652,0.819064832666,0.00480950274354,0.0,0.819053169075,-0.573589488609,-0.0113027292106,0.0,-0.00649911291848,0.0104234082978,-0.999924554199,0.0,0.415886960723,-0.0619918925451,0.305016785195,1.0,-0.29998,-0.394259428571,2.083
-0.0274725355106,-0.370616782617,-0.13699234913,-2.5178299695,-0.0476920142255,2.14167787593,-0.30352112761,-1.01388485868,-0.735654327108,-0.0170044178137,-0.67044993944,-0.13912904618,-0.0914466339741,-0.941477119011,0.573691736895,0.819045469627,0.00480172920351,0.0,0.819032688641,-0.573615594042,-0.0114608948349,0.0,-0.00663277494438,0.0105079961554,-0.999922791176,0.0,0.410445104435,-0.0690962740985,0.304956503369,1.0,-0.29998,-0.394259428571,2.101
-0.0461546774127,-0.383841954769,-0.137437426331,-2.5293123056,-0.0499318190833,2.13999677467,-0.320712172739,-1.04973311693,-0.732099645488,-0.0233144479651,-0.617675997633,-0.122614909402,-0.0882586577289,-0.97059341077,0.573762977538,0.818994767404,0.00493593694328,0.0,0.818984221093,-0.573687267147,-0.0113363140075,0.0,-0.0064528219148,0.0105470148148,-0.999923557862,0.0,0.405092089676,-0.0762094359955,0.305030925278,1.0,-0.29998,-0.394259428571,2.119
-0.0630147334915,-0.395206810531,-0.137730039458,-2.53925194561,-0.0518972293749,2.13844429191,-0.336403825317,-1.06484313175,-0.700909849071,-0.013150281938,-0.607623715502,-0.122150307607,-0.101864456459,-0.995345880853,0.573629415181,0.819088402797,0.00492233111864,0.0,0.819077605312,-0.573553638929,-0.0113510637506,0.0,-0.00647442840524,0.0105432782369,-0.999923457601,0.0,0.400294295529,-0.0824601524137,0.305010481909,1.0,-0.29998,-0.394259428571,2.135
-0.0791401378678,-0.405541893125,-0.138086087797,-2.54825506382,-0.0535605951303,2.13677692444,-0.351374220077,-1.07701100482,-0.678476361983,-0.0103248537814,-0.584174710867,-0.106926905755,-0.128345107707,-1.00250976692,0.573697076848,0.819040853479,0.00494886344937,0.0,0.819028562697,-0.573618244905,-0.0116219404533,0.0,-0.00668021427669,0.0107209401946,-0.999920214906,0.0,0.395739560167,-0.0883419036716,0.304948875055,1.0,-0.29998,-0.394259428571,2.15
-0.0977370045031,-0.416945278524,-0.138511017912,-2.55772630393,-0.0555255573485,2.13509536798,-0.368741470307,-1.10696533502,-0.659062396485,-0.0278993089103,-0.559114381793,-0.108692244716,-0.107523030874,-1.01639891436,0.573708905671,0.819031337078,0.00514852797511,0.0,0.819023242131,-0.573632168638,-0.0113053462993,0.0,-0.00630619304178,0.0107029479929,-0.99992283644,0.0,0.390728507095,-0.0950765027945,0.305063960201,1.0,-0.29998,-0.394259428571,2.167
-0.116624252123,-0.427850209973,-0.138820948739,-2.56703843837,-0.0575128385632,2.13309949045,-0.386491355233,-1.12376802812,-0.630497476667,-0.0257568371435,-0.536559796821,-0.112508148091,-0.123734985639,-1.0607141886,0.573546621993,0.819146024492,0.00498094967324,0.0,0.819134668506,-0.573468556747,-0.0115306623725,0.0,-0.00658900508062,0.0106936468984,-0.999921112352,0.0,0.385567044561,-0.101727241992,0.30498911737,1.0,-0.29998,-0.394259428571,2.184
-0.134682205514,-0.437695405156,-0.139201527286,-2.57530621291,-0.0591836475606,2.13128461584,-0.403443244604,-1.12776372463,-0.603805798422,-0.0265969046891,-0.496087310902,-0.0970092057924,-0.116336195124,-1.06843325294,0.573591439967,0.819114382327,0.00502350112175,0.0,0.819102531048,-0.573511540681,-0.0116748977764,0.0,-0.0066821694654,0.0108115920672,-0.999919225782,0.0,0.380747248007,-0.108006618707,0.304949415231,1.0,-0.29998,-0.394259428571,2.2
-0.155401516468,-0.448405420353,-0.13964491453,-2.58378909709,-0.0610428081409,2.12936249018,-0.422978004009,-1.15540185937,-0.582441549401,-0.0225585782531,-0.470044125171,-0.114128459481,-0.110056535413,-1.09049059522,0.573641080227,0.819078190246,0.00525130853006,0.0,0.81907130544,-0.573563892341,-0.0112873783059,0.0,-0.00623340444735,0.0107763074946,-0.99992250493,0.0,0.375447790745,-0.115157442701,0.305107220146,1.0,-0.29998,-0.394259428571,2.218
-0.175254665977,-0.457880462705,-0.140059545806,-2.59165441851,-0.0627496755735,2.12731973394,-0.441766792135,-1.18329255686,-0.552652424597,-0.0332062825082,-0.445224887303,-0.0993688350037,-0.120767488838,-1.11295147437,0.573662655741,0.819063460589,0.00519151593974,0.0,0.819054054091,-0.573582658056,-0.011581785518,0.0,-0.00650857912445,0.0108963798049,-0.999919450408,0.0,0.370279483338,-0.121849374157,0.305023584747,1.0,-0.29998,-0.394259428571,2.235
-0.194056761257,-0.466343318386,-0.140332700913,-2.59855977165,-0.0642960002738,2.12555701864,-0.459785321268,-1.18556835346,-0.524974266247,-0.0118957102213,-0.423620479096,-0.0971583978396,-0.104957433075,-1.13464371267,0.57346331438,0.819203240595,0.00515989914542,0.0,0.819193054376,-0.573382833934,-0.011645270017,0.0,-0.0065813720525,0.0109052986428,-0.999918876711,0.0,0.365494291761,-0.128072073541,0.304987314905,1.0,-0.29998,-0.394259428571,2.251
-0.214415937286,-0.474790937038,-0.140674543269,-2.60516735282,-0.0657031479974,2.12377467581,-0.479062553805,-1.19574437361,-0.482436226525,-0.0201284025168,-0.375396944666,-0.0704284444008,-0.104093446555,-1.13284475069,0.573627609218,0.819086962018,0.0053536432474,0.0,0.819079852727,-0.573547466384,-0.0114998070856,0.0,-0.00634889576495,0.0109818796028,-0.999919541685,0.0,0.36049018112,-0.134762536436,0.305054949106,1.0,-0.292364,-0.384249828572,2.268
-0.23701986386,-0.483368601065,-0.140839099103,-2.611971149,-0.0671801881036,2.1218047734,-0.500558701757,-1.17670336448,-0.438467030626,-0.000955188053724,-0.349880584282,-0.0722782543714,-0.0969245391091,-1.13653941204,0.573637898542,0.819079580219,0.00538047634432,0.0,0.819072518998,-0.573557155358,-0.0115388500362,0.0,-0.00636534829002,0.0110263342902,-0.999918947862,0.0,0.354976524535,-0.142011877942,0.305049112742,1.0,-0.283852,-0.373062628572,2.287
-0.25706791943,-0.490266417075,-0.140942768508,-2.61753440697,-0.0682794409532,2.12003865531,-0.519606019923,-1.17853460856,-0.396400964334,0.000589080812712,-0.308363367943,-0.0676012749168,-0.0924467315661,-1.11244983099,0.573745521585,0.819003979931,0.00541333715153,0.0,0.818995329987,-0.573661189516,-0.0118421283567,0.0,-0.00659345576988,0.0112280821328,-0.999915224663,0.0,0.350108956096,-0.148319006255,0.304971585106,1.0,-0.276236,-0.363053028572,2.304
-0.274526092034,-0.495874582072,-0.140893097096,-2.62188979957,-0.0691273989852,2.11877055998,-0.536244501534,-1.16853251357,-0.364733678289,0.00483494167386,-0.285033601538,-0.0572546574767,-0.0858195285498,-1.11330800345,0.573767590269,0.818987835359,0.00551586740041,0.0,0.818980969216,-0.573683672517,-0.0117457588326,0.0,-0.00645539481993,0.0112569429019,-0.999915801012,0.0,0.345999510211,-0.153741295516,0.304991923421,1.0,-0.269516,-0.354221028572,2.319
-0.295067287562,-0.501868506945,-0.140802099188,-2.62650551329,-0.0700396468695,2.11724040359,-0.555872355497,-1.12466690847,-0.31619966019,0.00472538137215,-0.248921481534,-0.0408807297313,-0.0816457673373,-1.08454604619,0.573792054532,0.818970214895,0.00558678547807,0.0,0.818964088444,-0.573707568705,-0.0117556093368,0.0,-0.00642243644309,0.0113208698718,-0.99991529152,0.0,0.34120049645,-0.160053914407,0.305006946719,1.0,-0.261452,-0.343622628572,2.337
-0.314213215759,-0.50689702167,-0.140665372276,-2.63029469399,-0.0707910123407,2.11601387278,-0.57412109772,-1.108921811,-0.285421387721,0.0128924704905,-0.211159150315,-0.0463926849698,-0.06452292553,-1.07353335642,0.573885875913,0.818903861366,0.00567575266956,0.0,0.818899672409,-0.57380247056,-0.0116102630574,0.0,-0.00625104869718,0.0113110557589,-0.999916488717,0.0,0.336817309872,-0.165893949216,0.305055453015,1.0,-0.253836,-0.333613028572,2.354
-0.330785545801,-0.510841737367,-0.140543067778,-2.63327962653,-0.071281789223,2.11499964584,-0.589980650602,-1.10999833617,-0.249016087182,0.00388536189634,-0.193536186691,-0.0330110297195,-0.0666395531113,-1.05504732764,0.573997246271,0.818824779312,0.00582142245911,0.0,0.818822536801,-0.573913453416,-0.0115649520707,0.0,-0.00612879465802,0.0114051821327,-0.999916176335,0.0,0.333039719745,-0.170894200141,0.305078585268,1.0,-0.247116,-0.324781028572,2.369
-0.351114825352,-0.515195432127,-0.140185187276,-2.63671561026,-0.0718542253564,2.11371522077,-0.609654796527,-1.06172965491,-0.218936172568,0.0188666553564,-0.17593785062,-0.0321359048898,-0.0605782562922,-1.02755468342,0.573832649604,0.818940115968,0.00582439760535,0.0,0.818936625402,-0.573746504307,-0.011768571307,0.0,-0.00629614860557,0.0115232248329,-0.999913783184,0.0,0.328385267445,-0.176893256312,0.305026019833,1.0,-0.238604,-0.313593828572,2.388
-0.369014834879,-0.518415089074,-0.139945579951,-2.63932022753,-0.0722798581722,2.11279201147,-0.626829323812,-1.0334149097,-0.175719511139,0.0140106540343,-0.145684915175,-0.0185111166755,-0.0522594957947,-0.998538762096,0.573921985439,0.818877196949,0.00586837696544,0.0,0.818873102995,-0.573833512259,-0.011945220856,0.0,-0.00641432110174,0.0116613054417,-0.999911431298,0.0,0.324337258915,-0.182182590783,0.304956229155,1.0,-0.230988,-0.303584228572,2.405
-0.38440839405,-0.520904460834,-0.139715232721,-2.64123889729,-0.0725742308217,2.11209670286,-0.641637767451,-1.02658618352,-0.156742535605,0.0131707054979,-0.122036544447,-0.0160723599537,-0.0421129373373,-0.981940620553,0.573998674425,0.818822892493,0.00594469420943,0.0,0.818819603026,-0.573909536055,-0.0119603104693,0.0,-0.00638178218696,0.0117330604056,-0.999910800097,0.0,0.320900131984,-0.186715301747,0.304946202174,1.0,-0.224268,-0.294752228572,2.42
-0.402253129915,-0.523436732213,-0.139293565246,-2.64317735148,-0.0728644511553,2.11132860832,-0.659025890244,-0.985971677189,-0.126391338784,0.0210825607008,-0.0999386146914,-0.0131857705213,-0.0387475066772,-0.957756692236,0.573853163385,0.818924709769,0.00596770501528,0.0,0.818921466,-0.573763494488,-0.011992990348,0.0,-0.00639742802671,0.0117695237892,-0.999910271587,0.0,0.316722277602,-0.192196926633,0.304938442815,1.0,-0.215756,-0.283565028572,2.439
-0.416944551701,-0.525227940533,-0.139049292355,-2.64449310298,-0.0730737480877,2.110785631,-0.673126026594,-0.969109823663,-0.105834514125,0.02354835171,-0.0873448542281,-0.0108626922943,-0.0334587498945,-0.927930855999,0.573979020261,0.818836119062,0.00602007641991,0.0,0.81883376775,-0.573889502026,-0.0119518683887,0.0,-0.00633188477655,0.0117897905551,-0.999910450027,0.0,0.313696560452,-0.196197814093,0.304958044665,1.0,-0.209484,-0.275321828572,2.453
-0.43294643529,-0.526885668262,-0.138699247488,-2.64570713526,-0.0732294340456,2.11030931105,-0.68862569609,-0.938836939572,-0.0903711721452,0.0150257705099,-0.063774083937,-0.0101967127721,-0.0280944090909,-0.903921796929,0.574004209368,0.818818036713,0.00607760505661,0.0,0.818816916446,-0.57391536255,-0.0118642686862,0.0,-0.00622676616767,0.0117868129314,-0.999911145264,0.0,0.310186562913,-0.200839544432,0.304981224882,1.0,-0.201868,-0.265312228572,2.47
-0.447530766819,-0.528114732624,-0.138339639919,-2.64662260051,-0.0733182978532,2.1099185573,-0.702785139404,-0.889897387138,-0.070196916281,0.0252140844729,-0.0498124489367,-0.00063564246429,-0.0229365041863,-0.869742352886,0.574005950925,0.818816506612,0.00611912605963,0.0,0.818816088157,-0.573917249667,-0.0118300976379,0.0,-0.00617492610869,0.0118012125172,-0.999911296901,0.0,0.30699122164,-0.205041539211,0.30499033146,1.0,-0.1947,-0.255891428572,2.486
-0.462606398714,-0.529070291233,-0.137985457465,-2.64734669196,-0.0733440785184,2.10957341948,-0.717335265272,-0.880634206627,-0.0460095791865,0.0232970987787,-0.035417231612,-0.00124735194551,-0.022530771268,-0.847244074001,0.574132430047,0.818727301382,0.00618915508158,0.0,0.818727706807,-0.574043262315,-0.0118330891243,0.0,-0.00613534847621,0.0118612213262,-0.999910830488,0.0,0.303692593288,-0.209379348495,0.30498994084,1.0,-0.187084,-0.245881828572,2.503
-0.476988851716,-0.529707386896,-0.137493927895,-2.64781744538,-0.0733481839842,2.10932160699,-0.731380724051,-0.829697353672,-0.0269041670591,0.0238745768526,-0.0248355704461,-0.00133464528174,-0.0125413582955,-0.815869051809,0.574032100746,0.818797797698,0.00616933543079,0.0,0.818798158768,-0.573943443421,-0.0118002480443,0.0,-0.00612128534395,0.0118253893412,-0.999911341086,0.0,0.300402114749,-0.213719675728,0.305000219681,1.0,-0.17902,-0.235283428572,2.521
-0.491774979264,-0.530073680636,-0.137079970331,-2.64812377857,-0.0733574766721,2.10910185698,-0.745704114502,-0.805160920147,-0.0131130688124,0.0209220972935,-0.0145045357821,-0.0026429262063,-0.0118903363976,-0.783185695212,0.574097225657,0.818752226995,0.00615736834907,0.0,0.818752161985,-0.574008080319,-0.0118476949494,0.0,-0.00616606615456,0.0118433154693,-0.99991085378,0.0,0.297357609036,-0.21771422752,0.304986205915,1.0,-0.171404,-0.225273828572,2.538
-0.504958414584,-0.530210203869,-0.136526684129,-2.6482509933,-0.073322019532,2.10897648702,-0.758676163018,-0.770995322372,-0.00113605975417,0.0338173834642,-0.00243573808614,-0.00197301230143,-0.00496032029289,-0.745813513629,0.573888044559,0.818899475453,0.00607522142734,0.0,0.818898375371,-0.573799327954,-0.0118544909764,0.0,-0.00622179825909,0.0117783663726,-0.99991127572,0.0,0.294514513929,-0.221436187167,0.304981874791,1.0,-0.163788,-0.215264228572,2.555
-0.516379102913,-0.530215600784,-0.136160100491,-2.64828183778,-0.0732949372324,2.10889764807,-0.769649695233,-0.756270463997,0.004609318441,0.0249697429595,-0.00045414829739,0.000940457407883,-0.00081400753739,-0.727032894439,0.574005687778,0.818817253135,0.00604344833236,0.0,0.818815669006,-0.573916937536,-0.0118741694466,0.0,-0.00625445786812,0.0117645374931,-0.999911234768,0.0,0.292015407208,-0.224678023153,0.304972604664,1.0,-0.157068,-0.206432228572,2.57
-0.528499555837,-0.530062496581,-0.135604654399,-2.6482168877,-0.0731876227788,2.1088833557,-0.781566661092,-0.703901580161,0.00834623149028,0.0254013124897,0.00778148629389,0.00220864905108,0.000787149816565,-0.685558599017,0.573830518326,0.818940479518,0.00598114929061,0.0,0.818938102983,-0.573742080945,-0.0118808642785,0.0,-0.00629820490881,0.0117160191304,-0.999911529842,0.0,0.289394823728,-0.228068096683,0.30495949084,1.0,-0.149452,-0.196422628572,2.587
-0.540278791973,-0.529803280894,-0.135184766919,-2.64805379091,-0.0730333580718,2.10888018367,-0.792943671365,-0.688598723349,0.0150183981433,0.0226380967224,0.0145865276299,0.01120207932,0.000370768484413,-0.661129691033,0.573939140801,0.818864146826,0.00600987527083,0.0,0.818862026125,-0.573850349025,-0.0118956292274,0.0,-0.00629225640196,0.0117488520609,-0.999911182048,0.0,0.286815555182,-0.231379206693,0.304949708709,1.0,-0.141836,-0.186413028572,2.604
-0.550655625824,-0.529389208627,-0.134646678111,-2.64776575943,-0.0728219948634,2.1089153413,-0.803110604515,-0.636540608651,0.0299595683686,0.0385278575199,0.0168100347169,0.0223913185513,0.00167762868772,-0.615457384198,0.573855331007,0.818922946288,0.00600116814769,0.0,0.818920579212,-0.573766342794,-0.0119170349035,0.0,-0.0063159866359,0.0117533603932,-0.999910979454,0.0,0.284451256858,-0.234434431029,0.304943362582,1.0,-0.13422,-0.176403428572,2.621
-0.561825670715,-0.528795769471,-0.134125510853,-2.64737117537,-0.0725750569152,2.10898630752,-0.813998546315,-0.615592708303,0.0334584862512,0.0210867495228,0.0232006507126,0.0214509746967,0.00162499177603,-0.59508275726,0.573829711648,0.818940783032,0.00601687785995,0.0,0.81893838457,-0.573740226898,-0.0119507831413,0.0,-0.00633498080301,0.0117853935841,-0.999910482251,0.0,0.282172781837,-0.237371435264,0.304928721874,1.0,-0.126604,-0.166393828572,2.638
-0.571844224818,-0.528124088011,-0.133640852712,-2.64688909274,-0.0723217678963,2.10910463246,-0.823645782861,-0.560811801842,0.0421336071527,0.0285265733173,0.0351639397999,0.0165446275527,0.0135168102533,-0.560430956808,0.573927266893,0.818872278838,0.00603574090797,0.0,0.81887012905,-0.573837691485,-0.0119483254456,0.0,-0.00632073855072,0.0118001848933,-0.999910397936,0.0,0.280020290366,-0.240168860212,0.304925097545,1.0,-0.118988,-0.156384228572,2.655
-0.581055164435,-0.527319864329,-0.133097096931,-2.64636804093,-0.0720122435429,2.10921659939,-0.832761914806,-0.53907947752,0.0476642109591,0.0322742943332,0.033576600665,0.015325349394,0.00795108652972,-0.514243379469,0.573782967392,0.818973213589,0.00606041711682,0.0,0.818970713181,-0.573692067892,-0.0120469535531,0.0,-0.00638944205383,0.0118758695333,-0.999909065242,0.0,0.278058208239,-0.242709349249,0.304891522323,1.0,-0.111372,-0.146374628572,2.672
-0.589422454347,-0.526581958948,-0.132632742147,-2.64585235294,-0.0717485826865,2.10933238351,-0.840741979231,-0.518465954312,0.0468211749962,0.0276375403979,0.0358306370017,0.0162638247616,0.00255125335283,-0.484936562597,0.573913811844,0.818881405111,0.00607682810951,0.0,0.818878831223,-0.573822280483,-0.0120911991648,0.0,-0.00641436229403,0.0119157215169,-0.999908431576,0.0,0.276260871661,-0.245023924205,0.30487780278,1.0,-0.104204,-0.136953828572,2.688
-0.597196147608,-0.525760568202,-0.132163954752,-2.64526418332,-0.0714678655711,2.10948265628,-0.84831278646,-0.4672728064,0.0514764012583,0.0303395320427,0.0323332105049,0.0209396842557,0.00864869483789,-0.461669096966,0.573901578589,0.818889869246,0.00609155484541,0.0,0.818887318949,-0.573809672686,-0.0121146728148,0.0,-0.00642531345249,0.0119411567724,-0.999908057834,0.0,0.274614651962,-0.247180537896,0.304869310635,1.0,-0.0970360000001,-0.127533028572,2.704
-0.604706880094,-0.52488768003,-0.131583366082,-2.64464322116,-0.071128333532,2.10962646023,-0.855757505538,-0.430517936434,0.0469922071593,0.0294474357261,0.0372643065231,0.0178140965506,0.00494611786883,-0.425194798616,0.573724848925,0.819013660623,0.00609658419943,0.0,0.819010851327,-0.573632356019,-0.0121611034652,0.0,-0.00646303634178,0.0119705263335,-0.999907463549,0.0,0.273051122648,-0.249229464503,0.304858875944,1.0,-0.0894200000001,-0.117523428572,2.721
-0.611863171438,-0.524080697253,-0.131057434842,-2.64402752989,-0.0708287299373,2.10977334982,-0.862568658056,-0.408735575657,0.0447671095998,0.0280620252744,0.038965995191,0.0169118738984,0.0108637372619,-0.388487208301,0.573797416402,0.818962875212,0.00608940514069,0.0,0.818960054937,-0.573705093221,-0.0121507748884,0.0,-0.00645763512428,0.0119592930603,-0.999907632863,0.0,0.27154746294,-0.251188819377,0.304868769691,1.0,-0.0818040000001,-0.107513828572,2.738
-0.618795190765,-0.523191425229,-0.130533023919,-2.64333997743,-0.0704650084267,2.10995392626,-0.869207639568,-0.372837660865,0.045884877178,0.0274119632759,0.0397952125464,0.0223913160971,0.00774493493542,-0.357453889232,0.57385926397,0.818919271475,0.0061252644507,0.0,0.818917115379,-0.573767134326,-0.0121153047043,0.0,-0.00640710442785,0.0119687941716,-0.999907844243,0.0,0.270112436065,-0.253093493271,0.304883743918,1.0,-0.0737400000001,-0.0969154285715,2.756
-0.62461618552,-0.522382584544,-0.129990767092,-2.64274783805,-0.0701198391328,2.11010773704,-0.874832584021,-0.324334601473,0.0438189746101,0.0309116048224,0.0344297163123,0.0246509371503,0.00413481727206,-0.310801194751,0.573815781031,0.818949645059,0.0061380126502,0.0,0.818947553364,-0.573723413929,-0.0121283160379,0.0,-0.00641108197515,0.0119863603568,-0.999907608329,0.0,0.26892479284,-0.254662908053,0.304882721805,1.0,-0.0661240000001,-0.0869058285715,2.773
-0.630215694009,-0.521692164156,-0.129399067849,-2.64219900849,-0.0697526575598,2.11025757869,-0.880209374445,-0.307020514094,0.0342109151133,0.031713094098,0.0291181403133,0.023154571796,0.00698865626802,-0.294347526886,0.57376551323,0.818984800043,0.00614654596822,0.0,0.81898317552,-0.573673786757,-0.0120702735596,0.0,-0.00635938071441,0.0119596546997,-0.99990825826,0.0,0.267789451437,-0.256144707811,0.30490613268,1.0,-0.0580600000001,-0.0763074285715,2.791
-0.63448228431,-0.521105511222,-0.128948013047,-2.64174734066,-0.0694633647376,2.11038373858,-0.884211308944,-0.26640637088,0.0382891367586,0.0294292490125,0.0346373438546,0.0230640600391,0.00777190999632,-0.255293952865,0.573810574127,0.818953160509,0.00615571386114,0.0,0.818951832672,-0.573719132417,-0.0120415847519,0.0,-0.00632996494574,0.0119510519027,-0.999908547769,0.0,0.266928215381,-0.257278522453,0.304917802263,1.0,-0.0513400000001,-0.0674754285715,2.806
-0.638901412981,-0.520413084651,-0.128433891933,-2.64124416079,-0.0690951430108,2.11053417225,-0.888366726707,-0.235963769865,0.0376936187834,0.0336929264628,0.0246760166272,0.0195686691774,0.00849987461602,-0.220207867137,0.573846576813,0.818927631287,0.00619579665997,0.0,0.818926816568,-0.573754937629,-0.0120369245769,0.0,-0.00630262255056,0.0119814826793,-0.999908356312,0.0,0.266056886704,-0.258442855722,0.304917486016,1.0,-0.0432760000001,-0.0568770285715,2.824
-0.642561075761,-0.519884222829,-0.127952884141,-2.64086897745,-0.0687854824954,2.11062528438,-0.89172436311,-0.199231514849,0.0294333999927,0.0273740311083,0.0262757088789,0.0259886127904,0.00542017022393,-0.178840336294,0.57390538342,0.818886289976,0.00621304047864,0.0,0.818885519801,-0.573813314145,-0.0120637005308,0.0,-0.00631379518317,0.0120114228176,-0.999907926617,0.0,0.265330085522,-0.259377742939,0.304913076478,1.0,-0.0356600000001,-0.0468674285715,2.841
-0.645631795901,-0.51943451026,-0.127425539827,-2.64055595653,-0.0684680371803,2.11071243201,-0.894461293254,-0.163687147372,0.0289551049938,0.0301208872294,0.0190926418184,0.01264692646,0.00196606938812,-0.146554472921,0.573957173754,0.818849985994,0.00621369746223,0.0,0.818849122092,-0.573864895972,-0.012080700367,0.0,-0.00632658028479,0.0120221168145,-0.999907717287,0.0,0.264750990899,-0.260128619718,0.304910194414,1.0,-0.0280440000001,-0.0368578285715,2.858
-0.64780657234,-0.519101210776,-0.126910004774,-2.64035024718,-0.0681932169478,2.11080155649,-0.896442752574,-0.128171836826,0.0224106942754,0.0335958076911,0.0126568016625,0.0139896990267,0.00711262747507,-0.120061002922,0.573878367437,0.818905422509,0.00618670136489,0.0,0.818904141879,-0.573786102724,-0.0120938676911,0.0,-0.00635401290088,0.0120069555899,-0.999907725511,0.0,0.264375388099,-0.260623010082,0.304901145555,1.0,-0.0213240000001,-0.0280258285715,2.873
-0.64966676282,-0.5188078406,-0.126436269134,-2.64016820621,-0.0679364809152,2.11081997819,-0.898089680682,-0.112366259299,0.0145506425739,0.0268465689687,0.0120848070946,0.0139406759831,0.000170873302438,-0.0960422563618,0.573836471847,0.818934896936,0.00617130944177,0.0,0.818932979178,-0.573743463641,-0.0121638992754,0.0,-0.00642081676577,0.0120342095665,-0.999906971129,0.0,0.264054581997,-0.26102940529,0.304888913397,1.0,-0.01972,-0.0259177142857,2.889
-0.651552246739,-0.51853280745,-0.126045886574,-2.63997042764,-0.0677178777478,2.11089601421,-0.899946827239,-0.09428989734,0.0139199451547,0.0124587916496,0.0152146399998,0.000656036367456,0.000963308068848,-0.0840531170048,0.573686511283,0.819040053399,0.00615829527708,0.0,0.819038092313,-0.573593830763,-0.0121436218901,0.0,-0.0064138760294,0.0120107417361,-0.999907297842,0.0,0.263718047938,-0.26147654836,0.304893417779,1.0,-0.01934,-0.0254182857143,2.908
-0.653237321036,-0.518249124261,-0.125841358497,-2.6397390854,-0.0675874830898,2.11097493012,-0.901535239366,-0.089308043413,0.0154116667194,0.00953337733772,0.0139306370385,0.00930908384574,0.000751297739287,-0.0889960449488,0.573688281563,0.819038841913,0.0061545053959,0.0,0.819037099511,-0.573596120247,-0.0121023701617,0.0,-0.0063822337023,0.0119839869182,-0.999907821327,0.0,0.263392579422,-0.261928746396,0.304905707856,1.0,-0.01898,-0.0249451428571,2.926
-0.654572301662,-0.517995674529,-0.125750289388,-2.63954570541,-0.0675420220205,2.11101444118,-0.9028616122,-0.0869524839626,0.0121890860406,0.00555287467405,0.0128278763498,0.00205353564325,0.000193372150003,-0.0924828321734,0.573660291875,0.819058548278,0.00614092167744,0.0,0.819056559501,-0.573568066614,-0.012114957691,0.0,-0.00640074631931,0.0119798629959,-0.99990775241,0.0,0.263111469034,-0.262306853111,0.304905750952,1.0,-0.01868,-0.0245508571429,2.941
-0.655968412124,-0.51776711046,-0.125734101294,-2.63937984604,-0.0675017837571,2.1110364278,-0.904131741264,-0.0887281764043,0.0104392670852,0.000908027480933,0.00260364706069,0.00509381731313,0.00473277468412,-0.0823194716722,0.573777952283,0.818975950234,0.00616452058445,0.0,0.818974056001,-0.573685197348,-0.0121464744705,0.0,-0.00641129970082,0.012018193063,-0.999907224832,0.0,0.262788368995,-0.262708373602,0.304899167245,1.0,-0.01836,-0.0241302857143,2.957
-0.65746648311,-0.517529221184,-0.125713899974,-2.63916587586,-0.0674629616696,2.11109107778,-0.905631832227,-0.0815524904428,0.0125907235865,-0.000947072882909,0.0115703134389,0.00174598326634,0.00261479172422,-0.0779190560452,0.573789571053,0.81896771669,0.0061768981504,0.0,0.818966229765,-0.573697220582,-0.0121062174636,0.0,-0.00637105463577,0.0120053234551,-0.99990763667,0.0,0.262454469615,-0.263152435889,0.304913866777,1.0,-0.018,-0.0236571428571,2.975
-0.65873448109,-0.517296784904,-0.125707442144,-2.63896574657,-0.0674253247806,2.11117951436,-0.906930312079,-0.0799481292152,0.0209313757957,0.000443898389377,0.0134838298563,0.00050648872876,0.00164093384798,-0.0800577058201,0.573786429258,0.818969816472,0.00619033184517,0.0,0.818968899713,-0.573694767923,-0.012041655309,0.0,-0.00631051274407,0.0119792583,-0.999908333198,0.0,0.262179616111,-0.263540173465,0.304926827535,1.0,-0.01768,-0.0232365714286,2.991
-0.66000187464,-0.51707550542,-0.125707517084,-2.63879652876,-0.067398356439,2.11118661367,-0.908186649952,-0.0781658035465,0.0158651212674,0.000565487740854,0.0149443374033,0.00302409413981,-0.000458286676906,-0.0774551173503,0.573815962431,0.818948963169,0.00621159273042,0.0,0.818948073211,-0.573723726903,-0.0120783059428,0.0,-0.00632789982906,0.0120179280296,-0.999907759291,0.0,0.261882435246,-0.2639106019,0.304922742149,1.0,-0.01736,-0.022816,3.007
-0.661329716622,-0.51684531693,-0.125695796326,-2.63861652849,-0.0673723707177,2.11120280527,-0.909525554479,-0.0734552301176,0.0172946849581,-0.00151893328749,0.0104055579145,0.00398088080818,0.00161903049949,-0.0825568214663,0.573819120013,0.818946649599,0.00622491117118,0.0,0.818945757123,-0.573726490327,-0.0121040525381,0.0,-0.00634129892348,0.0120436332454,-0.999907365122,0.0,0.261574954719,-0.264297995165,0.304921309547,1.0,-0.01702,-0.0223691428571,3.024
-0.66257906805,-0.51660612303,-0.125671721284,-2.63842089923,-0.0673441804379,2.11127234352,-0.910748833647,-0.0710932732886,0.0127176017388,0.00165037527095,0.0112769177555,-0.000155065907173,0.0132795178852,-0.0726504941968,0.573845575867,0.818928119032,0.00622397120829,0.0,0.818927425736,-0.573753346718,-0.0120712637735,0.0,-0.00631459460125,0.0120242535351,-0.999907767358,0.0,0.261302306989,-0.264673135479,0.304928483584,1.0,-0.01668,-0.0219222857143,3.041
-0.663816564081,-0.516358227432,-0.125622374997,-2.63822873339,-0.0673098591149,2.11135930818,-0.912034580712,-0.0731613450731,0.0121598624237,0.000629263633225,0.0148499821205,0.00039254933608,0.0049550378634,-0.073475176343,0.573795692655,0.818963137549,0.00621524955077,0.0,0.818962575474,-0.573703978878,-0.0120329337215,0.0,-0.00628893683899,0.0119947332545,-0.999908283618,0.0,0.261040193164,-0.26504027026,0.304932945193,1.0,-0.01634,-0.0214754285714,3.058
-0.665178995364,-0.516106160045,-0.125545707921,-2.63802825241,-0.067282043929,2.11136327285,-0.913424988274,-0.0737211392211,0.0108971583321,0.00383954791722,0.00939008336364,0.0051970217185,-0.000229286824703,-0.0743204440153,0.573740683752,0.819001805057,0.00619822741966,0.0,0.819000775217,-0.573648588186,-0.0120737056162,0.0,-0.0063329042129,0.0120037602869,-0.99990789779,0.0,0.260738735784,-0.265424727305,0.304933186276,1.0,-0.01596,-0.020976,3.077
-0.666151782765,-0.515917129756,-0.125505896624,-2.63788404489,-0.0672623765225,2.11139507555,-0.914396085557,-0.070833907737,0.0140736819011,0.00194808989253,0.0131828239574,0.000122058223922,0.00383410095911,-0.0718798465206,0.573729733591,0.819009540465,0.00618969474316,0.0,0.819008355212,-0.573637594116,-0.0120818711542,0.0,-0.00634464829536,0.0120013714931,-0.999907852015,0.0,0.260524373927,-0.265706524966,0.304932606403,1.0,-0.01568,-0.020608,3.091
-0.667462450588,-0.515654373974,-0.125489821935,-2.63767880625,-0.0672282992871,2.11148439112,-0.915754582373,-0.0657004656838,0.01947678578,0.00196534964093,0.0158774219217,0.00153241831207,0.00551151744171,-0.0662414190696,0.573704365628,0.819027260186,0.00619635642499,0.0,0.819026404531,-0.573612662769,-0.012041955499,0.0,-0.00630850276945,0.0119837326884,-0.999908292267,0.0,0.260236931395,-0.266102636379,0.304936880869,1.0,-0.0153,-0.0201085714286,3.11
-0.668622641717,-0.5154320977,-0.125482065048,-2.6374955387,-0.0672007288197,2.11151585149,-0.916858374715,-0.0710190287348,0.0117606788055,0.00222428561273,0.0105952865764,-9.42628861083e-05,-0.000249257121121,-0.0603421050437,0.573766324849,0.818983772717,0.00620736625462,0.0,0.818983051553,-0.573674544048,-0.0120426609232,0.0,-0.00630185720088,0.0119936319712,-0.999908215482,0.0,0.25997350082,-0.26644844829,0.304940962103,1.0,-0.01496,-0.0196617142857,3.127
-0.66971281229,-0.515232451028,-0.125481033644,-2.63732610539,-0.0671774263582,2.11154740448,-0.917908257889,-0.0667991269696,0.00641763050205,0.0017440304889,0.00971746858395,0.000122172456257,0.00194814754294,-0.0720003875248,0.573813421583,0.818950694603,0.00621803195995,0.0,0.818950196018,-0.573721743978,-0.0120284591674,0.0,-0.00628341582519,0.0119945807365,-0.999908320157,0.0,0.259710442786,-0.26679325072,0.304949884556,1.0,-0.01462,-0.0192148571429,3.144
-0.670762233179,-0.515048192739,-0.12546315031,-2.63716592023,-0.0671505820271,2.11159810369,-0.919015233334,-0.0650061569646,0.0123456004625,0.00253359272746,0.00833995782336,0.00200893806022,0.00158748870436,-0.060565303069,0.573777143867,0.818976074942,0.00622292128596,0.0,0.818975799141,-0.573685757197,-0.0120016378736,0.0,-0.00625917347716,0.0119829181423,-0.999908612034,0.0,0.259489941462,-0.267086349191,0.304956433423,1.0,-0.01432,-0.0188205714286,3.159
-0.671788480108,-0.514850764447,-0.125439053911,-2.63699472255,-0.0671281496466,2.11162423784,-0.920021235774,-0.0684247063109,0.0128212050661,0.00522771834924,0.0053008317291,0.000890823659395,-0.000464524833127,-0.056033919514,0.573794996492,0.818963576942,0.00622161908225,0.0,0.818963320674,-0.573703681427,-0.0119963414887,0.0,-0.00625532139823,0.0119789491779,-0.999908683696,0.0,0.259261260589,-0.267390228993,0.304964096291,1.0,-0.014,-0.0184,3.175
-0.672890227423,-0.514639155494,-0.125407170767,-2.63681011983,-0.0671014536709,2.11166313934,-0.921136735934,-0.0656714121429,0.0132695917728,-0.000114129915652,0.00769958814832,9.15047390953e-05,0.00174565314757,-0.0598605939948,0.573781959223,0.818972736596,0.00621827012871,0.0,0.818972550568,-0.573690879264,-0.0119784542403,0.0,-0.00624278278463,0.0119658438695,-0.999908918974,0.0,0.259018831171,-0.267716483058,0.304973873088,1.0,-0.01364,-0.0179268571429,3.193
-0.673793763751,-0.514449907437,-0.125360957624,-2.63666271769,-0.0670837262036,2.1117264423,-0.922084132046,-0.0574178001564,0.0115551471817,0.0050584374987,0.0107412074417,0.00457035443454,0.00459316821727,-0.0613760610609,0.57372839588,0.81901040023,0.00619991759777,0.0,0.819010146561,-0.573637732432,-0.0119531862127,0.0,-0.00623339716426,0.0119359075751,-0.999909335325,0.0,0.258827471234,-0.267983194975,0.304977414084,1.0,-0.01334,-0.0175325714286,3.208
-0.674850097381,-0.514235007582,-0.125319356803,-2.63647770393,-0.0670558051156,2.11176016611,-0.923117419902,-0.0564559583819,0.0129024304953,0.000393918915959,0.00708099597556,0.000593913198368,0.00148703840653,-0.0523421998023,0.573739130229,0.819002935562,0.00619264775034,0.0,0.819002653366,-0.573648621248,-0.0119440370696,0.0,-0.00622991752379,0.0119247859677,-0.999909489708,0.0,0.258598025217,-0.268294423618,0.304985922626,1.0,-0.01298,-0.0170594285714,3.226
-0.675858175941,-0.514015520143,-0.125315688764,-2.63630452751,-0.0670316312027,2.11180140129,-0.924117634966,-0.0576047509969,0.0152720106234,0.000819559972179,0.0142860064798,0.00442058991524,0.000624023579732,-0.0622532563718,0.573762271452,0.81898665507,0.00620173979954,0.0,0.818986489617,-0.573671716819,-0.0119431171524,0.0,-0.00622361067351,0.0119318808592,-0.999909444345,0.0,0.258370709061,-0.268599386985,0.304987088783,1.0,-0.01262,-0.0165862857143,3.244
-0.676767530257,-0.513828821102,-0.125306831822,-2.63615930996,-0.0670108572525,2.11184133639,-0.925059012115,-0.056901523427,0.0141768528834,0.00265341626301,0.0141954506586,0.00106417432792,0.000663178175409,-0.0563712007658,0.573746157793,0.818997899221,0.00620760747391,0.0,0.818997826573,-0.573655613786,-0.0119391683511,0.0,-0.00621724462364,0.0119342987703,-0.999909455092,0.0,0.258164728468,-0.268870943344,0.304987670391,1.0,-0.0123,-0.0161657142857,3.26
-0.67782995545,-0.513600772758,-0.125299926048,-2.63597820411,-0.0669879621425,2.1118757858,-0.926070897237,-0.0542681583465,0.0142432796583,-0.00119345853992,0.0134661210602,-7.05704523942e-05,0.00286465596774,-0.050156182622,0.573801804934,0.818958862141,0.00621431219985,0.0,0.818958833911,-0.573711138985,-0.0119458890554,0.0,-0.0062180912954,0.0119440685346,-0.999909333174,0.0,0.257923269576,-0.269189958992,0.304988742515,1.0,-0.01192,-0.0156662857143,3.279
-0.678735654933,-0.513413690982,-0.125289621499,-2.63581876888,-0.0669689157365,2.11191771582,-0.926954941927,-0.0515820589744,0.0103523158299,0.000793962804161,0.0115183064097,0.00021499775431,0.000942102295427,-0.0506593412748,0.573828529223,0.818940135107,0.0062145845462,0.0,0.818940230492,-0.5737380873,-0.0119269847507,0.0,-0.00620206206116,0.0119336471779,-0.999909557156,0.0,0.257721301484,-0.269464128673,0.304995820101,1.0,-0.01158,-0.0152194285714,3.296
-0.679547833463,-0.513239926372,-0.125279175523,-2.6356790531,-0.0669509298098,2.11195607603,-0.927785508178,-0.0546664164888,0.0106083900537,0.00103802208173,0.0109450825056,-0.000341907627259,0.000508515176164,-0.0516033593162,0.573820937359,0.818945441595,0.00621630445231,0.0,0.818945611299,-0.573730589951,-0.0119181705812,0.0,-0.00619396670191,0.0119299407525,-0.999909651564,0.0,0.257539567899,-0.269708664653,0.304998553175,1.0,-0.01126,-0.0147988571429,3.312
-0.680294931468,-0.51306785359,-0.125254795858,-2.63556165658,-0.0669330944291,2.11198655893,-0.928570288899,-0.0515881342438,0.0121368743721,0.00276511501384,0.00241003095937,6.25211783374e-05,-0.000330746577449,-0.0531939463992,0.573786536261,0.818969551029,0.00621548023772,0.0,0.818969583054,-0.573695955282,-0.0119381667896,0.0,-0.00621131881045,0.0119404785215,-0.999909418143,0.0,0.257372187885,-0.2699263759,0.304991420846,1.0,-0.01096,-0.0144045714286,3.327
-0.681127674742,-0.512879592123,-0.125223914121,-2.63541711001,-0.0669141377955,2.11200845838,-0.929397749721,-0.0487735154512,0.00412572202076,0.00128740053152,0.00782241928924,0.000354809723661,0.00286784188715,-0.0521056135646,0.57378449929,0.818971015948,0.00621050021209,0.0,0.818970877496,-0.573693736592,-0.0119559737885,0.0,-0.00622879085095,0.0119466012512,-0.999909236323,0.0,0.257187423987,-0.270170145399,0.304990043886,1.0,-0.01062,-0.0139577142857,3.344
-0.681891451651,-0.512698885851,-0.125203590395,-2.63528096784,-0.0668936999792,2.11204163037,-0.930107924275,-0.0486445077298,0.00790789812338,-0.000160473757655,0.00882374818893,8.96132596134e-05,0.000863600210412,-0.0445463196068,0.573829743624,0.818939319627,0.006209911664,0.0,0.818939131988,-0.57373889414,-0.0119635425605,0.0,-0.00623466759066,0.0119508063182,-0.999909149447,0.0,0.257018860176,-0.270397726685,0.304988348158,1.0,-0.0103,-0.0135371428571,3.36
-0.682693092547,-0.512522208846,-0.125189729695,-2.63514068424,-0.0668680190031,2.11209221961,-0.930892421678,-0.0477280769426,0.0103683291083,0.00131027475148,0.0042297718563,0.00363671775175,0.00123372602886,-0.046021112161,0.573852119719,0.818923607367,0.00621424914133,0.0,0.818923592723,-0.573761471007,-0.0119444786669,0.0,-0.00621623851131,0.0119435895859,-0.999909350415,0.0,0.256842552271,-0.270639494213,0.30499135134,1.0,-0.00996000000001,-0.0130902857143,3.377
-0.683532181013,-0.512327360687,-0.125179861636,-2.63498416236,-0.0668472007093,2.11212867129,-0.931762643018,-0.0466702626116,0.007772939161,0.000469191040016,0.00884853108226,0.000296513399645,0.000843568303773,-0.0495846397086,0.573836565441,0.818934478994,0.00621789185767,0.0,0.818934524654,-0.573745929679,-0.0119414993867,0.0,-0.00621193503317,0.0119447452805,-0.999909363354,0.0,0.256655553396,-0.270894003659,0.30499369252,1.0,-0.00958000000001,-0.0125908571429,3.396
-0.684159573884,-0.512179753227,-0.125164969533,-2.63488131697,-0.0668271449376,2.11215329886,-0.932398735299,-0.0413923640805,0.0173558937854,0.000636206838621,0.00390126141387,0.000117738734524,0.000516343964431,-0.0464111529144,0.573832803773,0.818937071179,0.0062236375819,0.0,0.818937085488,-0.573741940795,-0.0119575200895,0.0,-0.00622181436479,0.011958615142,-0.999909136147,0.0,0.256514118399,-0.271078012818,0.304988237082,1.0,-0.00928000000001,-0.0121965714286,3.411
-0.684815366164,-0.512043228644,-0.125137557443,-2.63477215378,-0.0668039046211,2.11218852388,-0.933029882314,-0.0372538560297,0.0075102290988,0.000164174536347,0.0039986144635,0.00138601616763,0.00190157011487,-0.0375533214297,0.573849019457,0.818925718013,0.00622239075797,0.0,0.818925791493,-0.573758303214,-0.0119458956283,0.0,-0.00621277240662,0.011951046864,-0.999909282854,0.0,0.256371260453,-0.271269667701,0.304990946875,1.0,-0.00896000000001,-0.011776,3.427
-0.685494752246,-0.511878741025,-0.125085736064,-2.63467024878,-0.0667839997692,2.11222827773,-0.933710654521,-0.040129941206,0.00946664955554,0.00470462409612,0.00190171620435,0.0033272978998,0.000431593038238,-0.0401034405465,0.57382490645,0.818942710402,0.00620972768125,0.0,0.81894250598,-0.57373403119,-0.0119657951863,0.0,-0.00623668872238,0.0119519113634,-0.999909123635,0.0,0.256225598587,-0.271460671651,0.30498096001,1.0,-0.00862000000001,-0.0113291428571,3.444
-0.686102471285,-0.511726460251,-0.125068706444,-2.63458524536,-0.0667590777696,2.11224207024,-0.934325030817,-0.0402968840198,0.00986383800713,0.00285669900253,0.00667755457098,0.00203888681956,-7.36922210672e-05,-0.0340344182705,0.573817414179,0.818947841031,0.00622541222154,0.0,0.818947487071,-0.573725796568,-0.0120195954092,0.0,-0.00627186287746,0.0119955698039,-0.999908380824,0.0,0.256075848024,-0.271642300897,0.304962989258,1.0,-0.00828000000001,-0.0108822857143,3.461
-0.686752220581,-0.511576952574,-0.125052374452,-2.63450252931,-0.0667350968022,2.11226027525,-0.935000298343,-0.0345761040107,0.00395261789117,-0.00024203675361,0.00182936334208,1.40008161599e-05,3.37776710502e-05,-0.0376417613262,0.573804783946,0.818956600416,0.00623726346983,0.0,0.818956148257,-0.573712634783,-0.0120576458389,0.0,-0.00629641301158,0.0120270116896,-0.999907848841,0.0,0.255931562199,-0.271814546739,0.30494894091,1.0,-0.00794000000001,-0.0104354285714,3.478
-0.687431694842,-0.511416689253,-0.125039247047,-2.63443128538,-0.0667114981717,2.11228131389,-0.935645727272,-0.0430515520632,0.00973786465894,0.00010301160391,0.00376703785523,0.000323233822803,-0.000486467178282,-0.0312653726418,0.573837408483,0.818933610021,0.00625443085929,0.0,0.818932972925,-0.573744396194,-0.0121202554802,0.0,-0.00633736193171,0.0120772481769,-0.999906984634,0.0,0.255767456686,-0.272002406582,0.304924069969,1.0,-0.00756000000001,-0.00993600000001,3.497
-0.687929276992,-0.511312489892,-0.125021546938,-2.63437980304,-0.0666930346034,2.1122955078,-0.93614713346,-0.0226077271595,0.00810017577298,0.00238550125904,0.00485702290354,0.000954986229607,0.000210166616047,-0.0331209825095,0.573832149469,0.818937226531,0.0062633967554,0.0,0.818936471361,-0.573738650097,-0.012155828248,0.0,-0.00636142994939,0.0121049621478,-0.999906496679,0.0,0.255643040019,-0.272146800144,0.304910417258,1.0,-0.00724000000001,-0.00951542857144,3.513
-0.688432508791,-0.511200289896,-0.124999802896,-2.63430921429,-0.0666725398442,2.11230935233,-0.936648946829,-0.030958977377,0.00461282308993,0.00158707677586,0.0013122915096,8.56777783277e-06,0.000854672887668,-0.0244991662296,0.573830585538,0.818938271905,0.0062699929935,0.0,0.818937449767,-0.573736765118,-0.0121788596334,0.0,-0.00637653153253,0.012123567643,-0.999906175075,0.0,0.255534233374,-0.27227871956,0.304902707331,1.0,-0.00694000000001,-0.00912114285715,3.528
-0.68895271991,-0.511083327666,-0.124973527904,-2.63421457147,-0.0666486127094,2.11233236077,-0.93716772227,-0.0257600685216,0.00532645914164,0.00428563146097,0.00462887575961,-0.000183842628908,0.000584972648595,-0.0347538496935,0.573828131711,0.818939978486,0.00627166609657,0.0,0.818939203335,-0.573734351948,-0.0121746267777,0.0,-0.00637214099128,0.0121224899703,-0.99990621613,0.0,0.255422612785,-0.272430120766,0.304904958475,1.0,-0.00660000000001,-0.00867428571429,3.545
-0.689485617902,-0.510966745086,-0.124929888188,-2.63411540277,-0.0666272442951,2.11236437461,-0.93771886764,-0.0315765261617,0.00427100301369,0.00622888630504,0.00650184972833,-3.77189807127e-05,0.00366961228998,-0.0303244656153,0.573796286465,0.818962373933,0.00626088030464,0.0,0.818961573794,-0.573702783332,-0.0121574646593,0.0,-0.00636474420251,0.012103561493,-0.999906492543,0.0,0.255313564609,-0.272583812067,0.304910574013,1.0,-0.00624000000001,-0.00820114285715,3.563
-0.689981647935,-0.510863542913,-0.124900930963,-2.63403251057,-0.0666032760501,2.11239569245,-0.938235813139,-0.0252675759917,0.00732191775077,-0.00012066750028,0.00887625012411,-1.06310907028e-05,1.81187215219e-05,-0.0279904525353,0.573773017928,0.818978674596,0.0062610985921,0.0,0.818977966793,-0.573679689144,-0.0121429432707,0.0,-0.00635306880776,0.0120952278724,-0.999906667634,0.0,0.255207966222,-0.272726723509,0.304913348933,1.0,-0.00588000000001,-0.00772800000001,3.581
-0.690346063335,-0.51079281396,-0.124886522387,-2.63397051801,-0.0665831356293,2.11241874113,-0.938596693076,-0.0274216500002,0.0073184495723,-0.00100133975562,-0.000821085997307,0.000137824498435,0.00291831843507,-0.0259849553836,0.573777400387,0.818975567649,0.00626588378367,0.0,0.818975028134,-0.573684250742,-0.0121256193607,0.0,-0.00633606914429,0.0120892414582,-0.999906847896,0.0,0.255129357624,-0.27283328701,0.304917612186,1.0,-0.00560000000001,-0.00736000000001,3.595
