nelsonifechukwu/NELSON_IML_WORK/CNN-GradCAM/train2dof/data_sample_2022-02-21-14-44-56/robot_state.csv
position_joint1,position_joint2,position_joint3,position_joint4,position_joint5,position_joint6,position_joint7,velocity_joint1,velocity_joint2,velocity_joint3,velocity_joint4,velocity_joint5,velocity_joint6,velocity_joint7,ee_T_00,ee_T_10,ee_T_20,ee_T_30,ee_T_01,ee_T_11,ee_T_21,ee_T_31,ee_T_02,ee_T_12,ee_T_22,ee_T_32,ee_T_03,ee_T_13,ee_T_23,ee_T_33,v_x,v_y,time
0.465072521552,0.547855853406,-0.123977940111,-1.35583520361,0.0794728679073,1.89409824407,0.159166823851,-0.00104603958627,0.0011593106453,-0.00104571329509,-0.000310730428634,-9.19252042336e-05,0.000337702951734,-0.000193442230103,0.573798604248,0.818982564095,0.00186235681028,0.0,0.818938460083,-0.57374057815,-0.0119287251083,0.0,-0.00870107572516,0.0083700025844,-0.999927114513,0.0,0.661673520166,0.260890013486,0.303159835866,1.0,0.0,0.0,0.0
0.465075566355,0.547850564655,-0.123972650434,-1.35583520397,0.0794728969835,1.89409436895,0.159161449322,0.000722438541804,0.00126998752594,0.000192761143166,0.000465300595115,-0.000147432725859,6.218537509e-05,-0.00165019701653,0.57378798493,0.818989997532,0.001865259839,0.0,0.818945897944,-0.57372991574,-0.0119309231493,0.0,-0.00870131887767,0.00837352846229,-0.999927082877,0.0,0.66167087683,0.260894900842,0.303163070645,1.0,-0.00012,-0.000157714285714,0.007
0.46507267722,0.547846689529,-0.123977843197,-1.35583591923,0.0794754587647,1.89409709991,0.159161335888,-0.00022361908961,-0.00160470489037,-0.000565377253008,0.000531625060607,-0.000243694101729,-0.000233709657315,-0.00143456655966,0.573794616983,0.818985339264,0.0018704256318,0.0,0.818941313399,-0.573736531376,-0.0119274756169,0.0,-0.00869546356511,0.00837585138779,-0.999927114357,0.0,0.661673163701,0.26089055208,0.303165889209,1.0,-0.00034,-0.000446857142857,0.018
0.465069458897,0.547839246077,-0.123973269351,-1.35584472791,0.0794767022105,1.89409638842,0.159162149093,-0.000729019720036,-0.00336959533627,0.00160705792188,-0.000373558690598,3.18366504805e-05,-0.000125224630506,-0.000874689981898,0.573795515114,0.818984708808,0.00187095579284,0.0,0.818940644781,-0.57373738375,-0.0119323809183,0.0,-0.00869916771598,0.00837910972271,-0.99992705484,0.0,0.661670918433,0.260890274621,0.303166758966,1.0,-0.00068,-0.000893714285714,0.035
0.465071559871,0.547800671036,-0.123975775042,-1.35588404623,0.0794734634492,1.89410034234,0.159166276857,0.000422020839315,-0.00219059653694,-0.00017886660226,-0.000188865740231,-3.34529932319e-05,0.000353591373622,0.00201103006611,0.57380017322,0.818981439911,0.0018732844646,0.0,0.818937413869,-0.573742038829,-0.0119302953305,0.0,-0.00869607582668,0.00837986960052,-0.999927075366,0.0,0.661663923878,0.260885798896,0.303175793176,1.0,-0.00102,-0.00134057142857,0.052
0.465076849147,0.547694589586,-0.1239711072,-1.35602636964,0.0794695052827,1.89412615483,0.159159045289,0.000519891986945,-0.00751630871791,0.0068896691283,-0.0111623845679,-5.97686602235e-05,-0.000980015313349,-0.00123562538077,0.573793368036,0.818986216531,0.00186944688096,0.0,0.818942037192,-0.573735151209,-0.0119441570493,0.0,-0.00870970029129,0.0083846081685,-0.999926917063,0.0,0.661637016684,0.260877608948,0.303185283703,1.0,-0.00134,-0.00176114285714,0.068
0.465068320155,0.547556566951,-0.123973243024,-1.35621527864,0.0794675084485,1.89416447292,0.159161227168,-0.000644162775425,-0.0061226884161,-6.21301593745e-05,-0.0119567849318,-3.17035490385e-05,0.000680980989105,0.00116378010725,0.573813433716,0.818972168483,0.00186478922564,0.0,0.818927811577,-0.573755121777,-0.011960207391,0.0,-0.00872531260254,0.00839021696824,-0.999926733906,0.0,0.661607819756,0.260852395037,0.303196540551,1.0,-0.00168,-0.002208,0.085
0.465048812342,0.54738376191,-0.123978619457,-1.3564246659,0.0794632772157,1.89428740011,0.15915251764,-0.000203843917605,-0.00925730176716,-0.000457704290562,-0.00983309166408,-0.0025544395264,0.0100316907472,0.000264011307149,0.573836894332,0.818955554315,0.00194053105686,0.0,0.818912198423,-0.573778274043,-0.0119184903192,0.0,-0.00864744577558,0.00842855629962,-0.999927087902,0.0,0.661595461871,0.260821472356,0.303230134176,1.0,-0.00202,-0.00265485714286,0.102
0.465029417693,0.547203141522,-0.123974062822,-1.35664358902,0.079462243499,1.89440573192,0.159144488609,0.000292696304459,-0.0101411087663,-0.000606876047657,-0.0143669030815,0.0001191218046,0.00794785179592,0.000579851469967,0.573853810759,0.818943520764,0.00201508744791,0.0,0.818901038393,-0.573794784937,-0.0118903742104,0.0,-0.00858146347,0.00847365689967,-0.999927275167,0.0,0.661579027017,0.260797431817,0.303264291006,1.0,-0.00232,-0.00304914285714,0.117
0.465003018598,0.546974911927,-0.123973135409,-1.3569582377,0.0794562109892,1.89454482664,0.159122724486,0.00119099223634,-0.0150329437567,0.000935425374975,-0.0181015797157,-0.000246123481833,0.00537153381826,-0.00148254288883,0.573874464174,0.818928917454,0.00206746890411,0.0,0.818887042979,-0.573815149364,-0.0118714827656,0.0,-0.00853571989087,0.00850592807389,-0.999927392701,0.0,0.661546317957,0.260752744956,0.303287926276,1.0,-0.0027,-0.00354857142857,0.136
0.464956903653,0.546730419727,-0.123973981097,-1.35733413433,0.0794492737506,1.89468211331,0.159090977404,-0.00273976787767,-0.0174532762547,-0.000284022064675,-0.0218449592532,-0.000168514178843,0.0183401365416,-0.0042488243859,0.57390600072,0.818906783274,0.00208075638522,0.0,0.818864941478,-0.573846488342,-0.0118811757233,0.0,-0.00853570498712,0.00852270058724,-0.999927250011,0.0,0.661506517797,0.26068853828,0.303294109136,1.0,-0.00304,-0.00399542857143,0.153
0.464921863304,0.546466946004,-0.12397316061,-1.35772967806,0.0794334868545,1.89483291847,0.158960022218,-0.000278388786909,-0.0129967538758,3.57488472443e-05,-0.031606851031,-0.00102200967998,0.0142984982619,-0.0119702746334,0.573844837568,0.818949589356,0.002102234827,0.0,0.818907946848,-0.573785165637,-0.0118787703521,0.0,-0.0085220470193,0.00853827223737,-0.999927233663,0.0,0.66146260826,0.260630027,0.303305471631,1.0,-0.00336,-0.004416,0.169
0.464881969013,0.546194804132,-0.123970225999,-1.35819376296,0.0794232718431,1.89498723916,0.158934015239,-0.000386092336218,-0.017016938982,0.00141251494225,-0.0326827509088,-0.000240103654982,0.0112939771157,0.00112487459561,0.573876327184,0.818927579442,0.00208029529771,0.0,0.818885493997,-0.573816583187,-0.0119089664578,0.0,-0.00855903792322,0.00853796195613,-0.999926920367,0.0,0.661403345716,0.260556354124,0.303289481426,1.0,-0.0037,-0.00486285714286,0.186
0.464822778254,0.545852888641,-0.123976465687,-1.35878878976,0.0793654878643,1.8951828448,0.158870057066,-0.0019179671395,-0.0196602471147,-0.000771897563882,-0.0348451090146,-0.00403802754027,0.0100512668951,-0.00633785523591,0.573895602957,0.818914229641,0.0020170025265,0.0,0.818871463834,-0.573836259681,-0.011925589921,0.0,-0.00860877184315,0.00849587300166,-0.999926851919,0.0,0.661335795449,0.260457648116,0.303266552378,1.0,-0.00404,-0.00530971428571,0.203
0.464753159082,0.545470363723,-0.123976477692,-1.35946870066,0.0792846375233,1.8954055885,0.158757994382,-0.00384803277129,-0.0272694989023,-0.00137704883891,-0.0389082337038,-0.000176943022456,0.0113516498223,-0.0023011456269,0.573875588367,0.818928457966,0.00193305733316,0.0,0.818884903527,-0.573816896012,-0.011934468055,0.0,-0.00866442137915,0.00843201368707,-0.999926911803,0.0,0.661252029329,0.260333070935,0.303233912342,1.0,-0.00442,-0.00580914285714,0.222
0.464705323491,0.545109360589,-0.123977384313,-1.36007905995,0.0792706596309,1.89560817665,0.158693398121,-0.00364858194741,-0.0244980150671,0.000904864907896,-0.0401654971604,9.71373163897e-05,0.0114695598565,-0.00501812554056,0.573894384025,0.818915355892,0.00190335751812,0.0,0.818871178362,-0.573835585881,-0.0119775008481,0.0,-0.00871651291307,0.00843258743853,-0.999926454231,0.0,0.661179825124,0.260249549844,0.303215602492,1.0,-0.0047,-0.00617714285714,0.236
0.464639655287,0.544700540745,-0.123980270678,-1.36075863604,0.0792507669531,1.89584138672,0.158629010394,-0.00263478277208,-0.0267613932423,0.00064578036245,-0.0411884670476,-0.00237770236498,0.01437666907,-0.0103248191142,0.573929990414,0.81889045177,0.00188175565903,0.0,0.818845781332,-0.573871076673,-0.0120133531398,0.0,-0.00875790365061,0.00843585375156,-0.999926065014,0.0,0.661099708383,0.260141766446,0.303201831289,1.0,-0.00502,-0.00659771428571,0.252
0.464580259296,0.544274223627,-0.123989093167,-1.3614850075,0.0792170109666,1.8961085048,0.158530400673,-0.000963642528637,-0.0293726175678,0.00092030999143,-0.0417525463663,-0.00527082354476,0.0177869109522,-0.00197741513512,0.573932206529,0.818888953861,0.00185753973212,0.0,0.818843880071,-0.573873313596,-0.0120360671875,0.0,-0.00879037922859,0.00842908392646,-0.999925837139,0.0,0.661010556429,0.260023617603,0.303182795694,1.0,-0.00536,-0.00704457142857,0.269
0.464501081492,0.543729268075,-0.123985752566,-1.36236238854,0.079176477173,1.89641016315,0.158406032591,-0.00327842231885,-0.0257105390273,0.000893581225724,-0.0478065112926,-0.000190441841686,0.0196743033943,-0.0135677789986,0.573934223812,0.818887585178,0.00183752021684,0.0,0.818842100181,-0.573875274907,-0.0120636114966,0.0,-0.0088244041645,0.00842852068928,-0.999925542193,0.0,0.660911122558,0.259895944373,0.303175281274,1.0,-0.0057,-0.00749142857143,0.286
0.464424177159,0.543172618374,-0.123994538668,-1.36321890696,0.079122401698,1.89671076607,0.158309813883,-0.00321001549476,-0.0306552666191,-0.00145823117736,-0.0514958950752,-0.00375792864971,0.0144662649916,-0.0015878996505,0.573957688307,0.818871144625,0.00183505706672,0.0,0.818825666645,-0.573898784744,-0.012060655612,0.0,-0.00882315571847,0.00842506004902,-0.999925582374,0.0,0.660813497699,0.259757320197,0.303187725537,1.0,-0.00604,-0.00793828571429,0.303
0.464354204716,0.542596018833,-0.123994833668,-1.36411976142,0.079074426562,1.89704084711,0.15818614605,-0.00714148331967,-0.0348941152695,2.94776383831e-05,-0.0546224471779,-0.00693377155939,0.0202764268136,-0.00726831904448,0.573951202904,0.818875671718,0.00184332683961,0.0,0.818830229272,-0.573892194533,-0.0120644761707,0.0,-0.00882160498622,0.00843395472904,-0.999925521073,0.0,0.660707840092,0.259626188558,0.303195402084,1.0,-0.00638,-0.00838514285714,0.32
0.464278747695,0.541997419656,-0.123993475921,-1.365047835,0.0790183852765,1.89738747426,0.158055804596,-0.00265259436103,-0.0356750364657,-0.000392304211355,-0.0515154333538,-0.00156533081134,0.0184178316535,-0.0117268907947,0.573941922734,0.818882142975,0.00185799507617,0.0,0.818836880083,-0.573882839616,-0.0120580724795,0.0,-0.00880803832391,0.00844219073307,-0.999925571168,0.0,0.660601140359,0.259489274741,0.30320697275,1.0,-0.00672,-0.008832,0.337
0.464198958544,0.541329368785,-0.123995882135,-1.36604597016,0.078945515172,1.89776493277,0.15793432438,-0.00909193745448,-0.0354924775926,-0.0010445076408,-0.0632869700864,-0.00294287241973,0.0236222278099,-0.0103481792031,0.573939991534,0.818883426772,0.00188848543096,0.0,0.818838651402,-0.573880861716,-0.0120318920586,0.0,-0.00876912018581,0.0084521116191,-0.99992582942,0.0,0.660481023748,0.259331116601,0.303234375936,1.0,-0.00708,-0.00930514285714,0.355
0.464117925737,0.540673393722,-0.123995902693,-1.36704138403,0.078902104302,1.89812815501,0.157805650053,-0.00352548744338,-0.0464974822704,-0.000617688939607,-0.0645094072616,-0.00242167809746,0.0196735855036,-0.0153657170198,0.573949918527,0.818876394378,0.00192058707115,0.0,0.818831914221,-0.573890528995,-0.0120292927424,0.0,-0.00874846557261,0.00847701278609,-0.999925799549,0.0,0.660372343997,0.259193844849,0.303258395221,1.0,-0.00738,-0.00969942857143,0.37
0.464016850329,0.539940289758,-0.123996334091,-1.36815098368,0.0788295764801,1.89854143497,0.157658907817,-0.00701305837153,-0.0487027464581,-0.000143193832965,-0.0628549865618,-0.000340170929062,0.0267400564045,-0.0054197194286,0.57395624698,0.818871896758,0.00194683159933,0.0,0.818827808115,-0.573896791511,-0.0120100063071,0.0,-0.00871754407606,0.00848750140819,-0.999925980633,0.0,0.660240123447,0.259011701845,0.303282447954,1.0,-0.00774,-0.0101725714286,0.388
0.463920473474,0.539235062071,-0.124005100584,-1.36924413091,0.0787709622654,1.89895813502,0.157527712335,-0.0019591397444,-0.0475043730638,-0.00128310139612,-0.0679952016712,-0.00234372323807,0.0240354251615,-0.00276300325071,0.573977331735,0.818857051704,0.00197444426745,0.0,0.81881330774,-0.573917740739,-0.0119975345194,0.0,-0.00869126448488,0.00850317780495,-0.999926076212,0.0,0.660127141105,0.258850654897,0.303298572857,1.0,-0.00804,-0.0105668571429,0.403
0.463804432591,0.538471309027,-0.124005224874,-1.37044290322,0.0786979398249,1.89941853209,0.157378968308,-0.00532388316895,-0.0484758731008,-0.00179410250455,-0.0736920610126,-0.00117615384946,0.0239643651627,-0.0063619311847,0.573997416432,0.818842924753,0.00199434538002,0.0,0.818799458874,-0.573937756788,-0.0119851733968,0.0,-0.00866951123915,0.00851259137695,-0.999926184957,0.0,0.6599957652,0.258661140909,0.303307414339,1.0,-0.00838,-0.0110137142857,0.42
0.46369446609,0.537683665871,-0.124011371399,-1.37168203761,0.0786284723122,1.89989613988,0.157229476138,-0.00933467190012,-0.0505434077303,0.00158800746043,-0.0762277850948,-0.00816811173795,0.0356667918119,-0.00857410614987,0.574019247439,0.818827566801,0.00201651117059,0.0,0.81878438633,-0.573959488171,-0.0119742032136,0.0,-0.00864757845512,0.00852467510512,-0.999926271933,0.0,0.659858452303,0.258469419418,0.30331548555,1.0,-0.00872,-0.0114605714286,0.437
0.463573380562,0.536799239313,-0.124019798237,-1.37305385327,0.0785513622571,1.90040378681,0.15706742678,-0.00829238866867,-0.0519049374481,-0.00112940509195,-0.0720271571177,-0.00650563364711,0.0317032828882,-0.0117705351754,0.574046498365,0.818808418273,0.00203439946014,0.0,0.818765448473,-0.57398663849,-0.0119677116721,0.0,-0.00863171114433,0.00853588330739,-0.999926313415,0.0,0.659702449684,0.258255380308,0.303331260634,1.0,-0.00908,-0.0119337142857,0.455
0.463471131809,0.536057808178,-0.124021189069,-1.37424647963,0.0784852660612,1.90084849647,0.156918824455,-0.00704374890477,-0.0533469795291,0.00124323750139,-0.0837459011012,-0.00488492000072,0.0303369674874,-0.00602750055107,0.574057446069,0.818800752446,0.00203059307709,0.0,0.818757674404,-0.573997542826,-0.0119765744241,0.0,-0.00864103908021,0.00853796977437,-0.999926215036,0.0,0.659564310467,0.258074766993,0.30332555691,1.0,-0.00938,-0.012328,0.47
0.463348210397,0.53509950715,-0.124029817432,-1.3757394685,0.0783901791678,1.90138052493,0.156732619147,-0.00836586332736,-0.0625527846553,-0.00124989367706,-0.0849475857687,-0.00267379322417,0.0259686516512,-0.0128616142654,0.574077496685,0.818786702823,0.00202730901615,0.0,0.818743639046,-0.574017661098,-0.0119718490785,0.0,-0.00863884597846,0.00853277979348,-0.999926278287,0.0,0.659380320884,0.257825702613,0.30334070428,1.0,-0.00976,-0.0128274285714,0.489
0.463237106563,0.534257342385,-0.124038237175,-1.3771299292,0.0783253376235,1.90188843498,0.156565904712,-0.00529717153657,-0.0522085155863,-8.13622626859e-05,-0.0871829258418,-0.0027136027529,0.0313247076696,-0.0147301870911,0.574087265496,0.818779929386,0.00199642965347,0.0,0.818736281579,-0.574027380479,-0.0120089378333,0.0,-0.00868683923542,0.00852889188073,-0.999925895668,0.0,0.659222203631,0.257636595037,0.303314206739,1.0,-0.01006,-0.0132217142857,0.504
0.463105746574,0.533346958166,-0.124039314252,-1.37861035461,0.0782288327075,1.90243928509,0.15639157882,-0.00534517745327,-0.0519161787162,5.29889552689e-05,-0.0861755099663,-0.0106524516412,0.0270022418748,-0.00887834248757,0.574107990258,0.818765451917,0.00197412520704,0.0,0.818721564448,-0.574048248003,-0.0120148147749,0.0,-0.00870423971604,0.00851422396689,-0.999925869353,0.0,0.659050930896,0.257407367289,0.303299417546,1.0,-0.0104,-0.0136685714286,0.521
0.462989915614,0.532439994171,-0.124037206812,-1.38007177465,0.0781521394813,1.90299486766,0.156199442852,-0.00288806765666,-0.0552147936534,-0.000671871581168,-0.0958792191411,-0.00518082949648,0.0294499256255,-0.0148676969665,0.574103422786,0.818768639853,0.00198021236423,0.0,0.818724711871,-0.574043537711,-0.0120253850738,0.0,-0.00870944775345,0.00852522766558,-0.999925730249,0.0,0.658878747255,0.257195966882,0.30329141831,1.0,-0.01072,-0.0140891428571,0.537
0.462849681298,0.531395206496,-0.124039420572,-1.38174899099,0.0780444822771,1.90360222694,0.155981136497,-0.00878340947087,-0.0568853547549,-0.000368861485228,-0.0968576099463,-0.00971934527085,0.0354860681109,-0.0107853098542,0.574108316486,0.818765277839,0.00195131953902,0.0,0.818720998711,-0.574048580235,-0.0120374707363,0.0,-0.00873587905365,0.00850856215713,-0.999925641629,0.0,0.658667728947,0.256925601605,0.303280725834,1.0,-0.0111,-0.0145885714286,0.556
0.462725197378,0.530436377246,-0.124040376762,-1.38329434489,0.0779605467973,1.90413787242,0.15579058804,-0.00421986723563,-0.0589972855228,-0.000480421738411,-0.0999899073725,-0.0119442583328,0.0304929239475,-0.00303658469881,0.574111385381,0.818763209121,0.00191610734493,0.0,0.81871830334,-0.574051639654,-0.01207483695,0.0,-0.00878665685808,0.00850121719886,-0.999925259191,0.0,0.658486865109,0.256710104933,0.303268805029,1.0,-0.0114,-0.0149828571429,0.571
0.462582374986,0.529318281636,-0.12404274732,-1.38503718415,0.077848024528,1.90478966083,0.15554596071,-0.00547309704939,-0.0640649487854,-0.000291055093446,-0.0991797854435,-0.0067126327393,0.0417379614298,-0.0121437396619,0.574094063484,0.818775312294,0.0019342058547,0.0,0.818730703873,-0.574034300137,-0.0120583458061,0.0,-0.00876294406281,0.00850638223777,-0.999925423355,0.0,0.658282362001,0.256448520604,0.303283396561,1.0,-0.01176,-0.015456,0.589
0.462449949466,0.528220975338,-0.124043572942,-1.3867389476,0.077736481198,1.90544794254,0.155312806213,-0.00878096163232,-0.0632880836812,-0.000597016577173,-0.0993818970173,-0.0105465543282,0.0410559715229,-0.0166069599306,0.574074482736,0.818788946683,0.00197381900281,0.0,0.818744955063,-0.574014648033,-0.0120261923646,0.0,-0.00871408013169,0.00852014855102,-0.99992573318,0.0,0.658084635715,0.256199899923,0.303303131213,1.0,-0.0121,-0.0159028571429,0.606
0.46231638026,0.527216693229,-0.124041067413,-1.38828691827,0.0776467320142,1.90603916011,0.155092566807,-0.00879992822735,-0.0679295118575,0.000221853276167,-0.107150992535,-0.00419259260411,0.0418469787113,-0.0159581990003,0.574061383989,0.818798026392,0.00201650441507,0.0,0.818754548325,-0.574001326326,-0.0120089081264,0.0,-0.00867556109566,0.00854503709924,-0.999925855742,0.0,0.657904965635,0.255968492994,0.303324423703,1.0,-0.0124,-0.0162971428571,0.621
0.462171055281,0.52604542212,-0.124044599088,-1.39009978825,0.0775302203038,1.90671350765,0.154857305909,-0.00952307752024,-0.0723189175252,-0.000484528347012,-0.113662056848,-0.000958257234398,0.0349697735322,-0.0171266756592,0.574056618021,0.818801310745,0.0020395413329,0.0,0.818758191519,-0.573996521221,-0.0119901771203,0.0,-0.0086470495947,0.00855309637402,-0.999926033802,0.0,0.657689541225,0.255697949632,0.303344269178,1.0,-0.01274,-0.016744,0.638
0.461992247218,0.524815682852,-0.124046373238,-1.39204509115,0.0774060401017,1.90740727366,0.154583494207,-0.0111220259603,-0.0630053008165,0.00111507825694,-0.112954125758,-0.00610946387224,0.0458398457699,-0.0176785948279,0.574051111555,0.818805225642,0.00201759371802,0.0,0.81876181434,-0.573991102336,-0.0120021964271,0.0,-0.00866954722706,0.00854196735258,-0.999925934129,0.0,0.657456396706,0.255391593037,0.303343533469,1.0,-0.0131,-0.0172171428571,0.656
0.461841655232,0.523692126477,-0.124057441075,-1.3938458365,0.0772893531897,1.90804840323,0.154342869521,-0.0091451734295,-0.0694523995893,0.0013277543964,-0.114277012425,-0.00339845583303,0.039309990015,-0.0134141900535,0.574050273754,0.818805904581,0.00198008284606,0.0,0.818762055962,-0.573990475229,-0.0120156965762,0.0,-0.00870214215361,0.00851899462796,-0.999925846977,0.0,0.657237802639,0.255111825829,0.303332366845,1.0,-0.01342,-0.0176377142857,0.672
0.46168444262,0.522477964213,-0.124059199412,-1.39578961893,0.0771836529911,1.90880538165,0.1540878934,-0.00474149082739,-0.0691453478829,0.000282819225859,-0.114382546008,-0.0106407616695,0.0480140001326,-0.0142858831337,0.574047459313,0.818807812634,0.00200681997138,0.0,0.818764229491,-0.573987465453,-0.0120113658396,0.0,-0.00868327786086,0.00853837084078,-0.999925845705,0.0,0.657009442418,0.254826940995,0.30332629721,1.0,-0.01376,-0.0180845714286,0.689
0.46149317952,0.521076784664,-0.124063434681,-1.39802806687,0.0770357066027,1.90966293026,0.153777745513,-0.00479339207333,-0.0769029620629,-0.00353880430324,-0.121767185347,-0.0122751859202,0.0373705570509,-0.0154420410668,0.574032939734,0.818817974195,0.00201398528999,0.0,0.818774615013,-0.573973045755,-0.0119924750399,0.0,-0.00866384765266,0.0085332400236,-0.999926058046,0.0,0.656747432735,0.254485803511,0.303319764798,1.0,-0.01414,-0.018584,0.708
0.461353554999,0.520016562357,-0.124073677714,-1.39970555318,0.0769253473994,1.91028035173,0.153554322697,-0.0104883241402,-0.0773512061772,-0.000533859517872,-0.121700440829,-0.00918371693282,0.051488596794,-0.00997831487253,0.574031114772,0.818819272007,0.00200648058021,0.0,0.818775906774,-0.573971343084,-0.0119857709964,0.0,-0.00866268471177,0.00852322754152,-0.999926153516,0.0,0.656546373267,0.254227036323,0.303319757351,1.0,-0.01442,-0.018952,0.722
0.461184886315,0.518652206214,-0.124078003565,-1.40178519401,0.0767938694851,1.91101306612,0.153275021741,-0.0108310239955,-0.088394458606,-0.00273449785863,-0.121102339514,-0.00235579733071,0.0409225990235,-0.011033440479,0.574018262996,0.818828249103,0.00201968296475,0.0,0.818785038816,-0.573958420352,-0.0119807687323,0.0,-0.00865114440129,0.00853103050056,-0.999926186885,0.0,0.656287898543,0.253913392362,0.30335130345,1.0,-0.01476,-0.0193988571429,0.739
0.460990915284,0.517235462681,-0.124078456503,-1.40404773832,0.0766462091073,1.91182074645,0.152965521367,-0.0132670080701,-0.0777716759014,0.000783897879895,-0.126852274488,-0.0147664948752,0.0476747936979,-0.0162430839695,0.574003762649,0.818838506719,0.00198173649102,0.0,0.81879480618,-0.573944086769,-0.011999897377,0.0,-0.00868873939354,0.00851078565084,-0.999926033432,0.0,0.656008089514,0.25356691122,0.303338563914,1.0,-0.01512,-0.019872,0.757
0.460828358115,0.516031836521,-0.124087109201,-1.40593818275,0.0765267396061,1.91254696171,0.152704444315,-0.00658291368897,-0.0811425728863,-0.000906376029944,-0.129485724596,-0.00784820544122,0.0461712139738,-0.0164879777214,0.573997026218,0.818843161958,0.00200920608132,0.0,0.81879990627,-0.573937320142,-0.0119755142051,0.0,-0.00865307616237,0.00851921131344,-0.999926270938,0.0,0.655786205299,0.253276637898,0.303346223739,1.0,-0.01542,-0.0202662857143,0.772
0.460627103488,0.514550495375,-0.124090648645,-1.4082880608,0.0763865219627,1.91341466976,0.152389360182,-0.0116482207524,-0.0861197646022,0.0027586421696,-0.12663609623,-0.00568698916661,0.0537373945129,-0.0199822158004,0.57399232518,0.818846459366,0.00200836225823,0.0,0.818803135058,-0.573932566525,-0.0119825708192,0.0,-0.00865938790404,0.00852252108444,-0.999926188094,0.0,0.655499846622,0.252919414583,0.303341678037,1.0,-0.01578,-0.0207394285714,0.79
0.460440729966,0.513158683838,-0.124100696366,-1.41056950368,0.0762542880145,1.91420098239,0.15206213246,-0.0130687670724,-0.0795222720842,-0.00295034945713,-0.132791328538,-0.0106833290162,0.0526707790262,-0.0189281006016,0.573968037034,0.818863690334,0.00192250279304,0.0,0.818819089694,-0.573908495982,-0.0120450609909,0.0,-0.00876009106574,0.00848782541677,-0.999925606045,0.0,0.655207457285,0.252570982936,0.303299700374,1.0,-0.01612,-0.0211862857143,0.807
0.460259187402,0.511802393092,-0.124097208695,-1.41271535084,0.0761198937464,1.91497310818,0.151771159697,-0.00793834420185,-0.0814812086444,-0.000242090701734,-0.132123262682,-0.00819684323079,0.0512889141526,-0.0179032833028,0.573951836668,0.818875082179,0.00190679677878,0.0,0.818830214688,-0.573892306168,-0.0120601549131,0.0,-0.00878163341844,0.00848345421138,-0.999925454181,0.0,0.654938578446,0.252247979972,0.30329520641,1.0,-0.01644,-0.0216068571429,0.823
0.460052214741,0.510337254936,-0.124097585896,-1.41503749091,0.0759691594159,1.91587116903,0.151426129936,-0.0127817889384,-0.0870236372076,0.000824508863518,-0.137729484297,-0.00933945442526,0.0532113535122,-0.0221121866046,0.573919756301,0.818897501686,0.00193441490866,0.0,0.818853086744,-0.573860199039,-0.012034998564,0.0,-0.00874551491063,0.00849128854557,-0.999925704234,0.0,0.654663024463,0.251892487414,0.303293622444,1.0,-0.01678,-0.0220537142857,0.84
0.459794474009,0.508492907228,-0.124099288929,-1.4179585004,0.0757877526344,1.91691776965,0.151026523585,-0.0142429495467,-0.0861506281005,0.00165328501632,-0.135956424118,-0.0148095122062,0.049017782058,-0.0185183223479,0.573907471396,0.81890617483,0.00190735482217,0.0,0.818861328742,-0.573847957644,-0.0120578895393,0.0,-0.00877991757059,0.00848213530734,-0.999925480437,0.0,0.654297665761,0.251442216699,0.303284730674,1.0,-0.0172,-0.0226057142857,0.861
0.45965000371,0.507398076131,-0.124106799489,-1.419652956,0.0756859963025,1.91753863656,0.150790685572,-0.0131686781165,-0.0938119217025,0.000316550340208,-0.143086790624,-0.00320233224869,0.0545600437943,-0.0185404722227,0.573898333573,0.818912537174,0.00192511874092,0.0,0.818867901294,-0.573838722644,-0.0120510383897,0.0,-0.00876420748222,0.00849265230267,-0.999925528989,0.0,0.654088478539,0.25118235918,0.30329802373,1.0,-0.01744,-0.0229211428571,0.873
0.459392471933,0.50554283166,-0.124112850058,-1.42253885415,0.0754986570594,1.91862854405,0.150405277011,-0.0125650375285,-0.0958601292014,0.00111567312637,-0.150929291518,-0.0128098306825,0.0513006233967,-0.0129932251312,0.573896450923,0.818913757118,0.00196695754643,0.0,0.818869773465,-0.573836763131,-0.012017083072,0.0,-0.00871240983728,0.00850740719986,-0.99992585622,0.0,0.653739417569,0.250736113729,0.303316055434,1.0,-0.01784,-0.0234468571429,0.893
0.459213866217,0.504201589874,-0.124115679439,-1.42457745578,0.0753784331556,1.91941021379,0.150118242392,-0.0143955028025,-0.0932708998912,-0.000479520550528,-0.14567507889,-0.00467625813886,0.0599879186262,-0.0170380863339,0.573882366548,0.818923448154,0.00204017896728,0.0,0.818880398425,-0.573822349391,-0.0119812901995,0.0,-0.00864122556568,0.0085466782896,-0.999926139028,0.0,0.65349333303,0.250427081251,0.303350705061,1.0,-0.01812,-0.0238148571429,0.907
0.458933800006,0.502201450393,-0.124122257734,-1.42752086527,0.0751852718255,1.92050309621,0.149708575845,-0.0145441677146,-0.0994696037061,-0.000544042433205,-0.152964337153,-0.00825871244667,0.0559939752242,-0.0197334098562,0.573879407182,0.818925210652,0.00216154406393,0.0,0.818883859079,-0.573819007144,-0.011904590777,0.0,-0.00850879826187,0.00860201865802,-0.999926800134,0.0,0.653138444494,0.249960399583,0.303441230501,1.0,-0.01852,-0.0243405714286,0.927
0.458743792314,0.500796977667,-0.124125320833,-1.42963905856,0.0750492711989,1.9212445438,0.149407739368,-0.0095278336845,-0.102237505492,-0.0010687963197,-0.14609228882,-0.0169963221809,0.0500556971577,-0.0155417578445,0.573861908847,0.818937412583,0.00218420414021,0.0,0.818896327895,-0.573801391147,-0.0118959900546,0.0,-0.00848893537952,0.0086154581844,-0.999926853253,0.0,0.652868747137,0.249630200425,0.30347754961,1.0,-0.0188,-0.0247085714286,0.941
0.458494618214,0.499093489424,-0.124120604844,-1.43226549957,0.0748836383994,1.92220386658,0.149041697737,-0.0171719126821,-0.105026192517,0.0010658929119,-0.161463373703,-0.0093716587286,0.0578286715849,-0.0197146554024,0.573851670741,0.818944504688,0.00221475284316,0.0,0.818903768597,-0.573790981994,-0.0118858597555,0.0,-0.00846321726467,0.00863455617062,-0.999926906525,0.0,0.652541557229,0.249219627954,0.303498747999,1.0,-0.01914,-0.0251554285714,0.958
0.458249974865,0.497515844883,-0.124125731136,-1.43475386382,0.0747338154799,1.92312475004,0.148674533489,-0.0183132958758,-0.096813541439,-0.000372379514331,-0.155028625559,-0.00700459758103,0.053593507876,-0.0181822465012,0.573840926432,0.818952009484,0.00222355896634,0.0,0.818911330273,-0.573780144922,-0.0118880337097,0.0,-0.00846005799174,0.00864290431118,-0.999926861137,0.0,0.652235810881,0.24882099249,0.303494350709,1.0,-0.01946,-0.025576,0.974
0.457968410512,0.49574366253,-0.124123544233,-1.43761472846,0.0745572162812,1.92410734628,0.1482616388,-0.0169907479371,-0.100121228822,-0.000259307420502,-0.159536258907,-0.00900859935459,0.0529269458414,-0.0256785397551,0.573828321904,0.818961075927,0.00213541529921,0.0,0.818919055284,-0.573767703599,-0.0119561741729,0.0,-0.0085665738652,0.00860968940467,-0.99992624081,0.0,0.651865083844,0.248361113983,0.303452806187,1.0,-0.01982,-0.0260491428571,0.992
0.457688810045,0.494049596667,-0.124124452711,-1.44036413671,0.074380025813,1.92508517812,0.147876088183,-0.0219689980178,-0.105141172128,-0.00233289280688,-0.166041280752,-0.0111557260367,0.0599676682726,-0.0168248868472,0.573832485333,0.818958339625,0.00206485758319,0.0,0.818915340245,-0.573772101705,-0.0119994882697,0.0,-0.00864248970916,0.00857680485688,-0.999925870147,0.0,0.651517215882,0.247912587775,0.303408907501,1.0,-0.0218085714286,-0.0286626938776,1.009
0.457452592336,0.492303325538,-0.124177985519,-1.44309906537,0.074215961954,1.92610610626,0.14747990109,-0.0156304671085,-0.122838428755,-0.00373563675752,-0.191349048211,-0.0101211734017,0.0713314418992,-0.0258918353783,0.57383308047,0.818957879061,0.00208206258817,0.0,0.818915263979,-0.573772783716,-0.0119720503715,0.0,-0.00861013990505,0.00857515647657,-0.999926163365,0.0,0.651181928116,0.247468914291,0.303412834596,1.0,-0.0252371428571,-0.0331688163265,1.024
0.457089378059,0.489930739545,-0.124190486546,-1.44693955508,0.0739883662291,1.92748440832,0.146933957094,-0.0242480575531,-0.135458997114,-0.000493511548715,-0.22874241299,-0.0172440849162,0.0773968261442,-0.0307633320538,0.573822750845,0.818965301911,0.00200792908302,0.0,0.818921520555,-0.57376257141,-0.0120333587339,0.0,-0.00870299627431,0.00854951595311,-0.999925579047,0.0,0.650689297812,0.246858097136,0.303355274088,1.0,-0.0293514285714,-0.0385761632653,1.042
0.456696137278,0.487438239151,-0.124204323942,-1.45084193581,0.0737549107284,1.92892696352,0.146371138528,-0.0264375844932,-0.164547526264,-0.0044694315787,-0.25189298305,-0.0157168267379,0.088787710929,-0.0386519072483,0.573825413005,0.818963375322,0.00203277440764,0.0,0.818919835145,-0.5737650453,-0.012030099764,0.0,-0.00868604344139,0.00856802120934,-0.999925568061,0.0,0.650172192105,0.246178735164,0.303352519003,1.0,-0.0332371428571,-0.0436831020408,1.059
0.45622936363,0.484464043354,-0.124251202936,-1.4554213099,0.0734683486716,1.93064936437,0.14566804565,-0.028337912004,-0.182712924558,-0.00074780936327,-0.278374754898,-0.0101888417728,0.105350878738,-0.0488869498559,0.573813645236,0.818971387773,0.00212448847897,0.0,0.818929219474,-0.573753068619,-0.0119623009327,0.0,-0.00857801556517,0.00860410285113,-0.999926190808,0.0,0.649644991701,0.245461233115,0.303391926062,1.0,-0.0368942857143,-0.0484896326531,1.075
0.45569191555,0.48115449205,-0.124304041303,-1.46056451587,0.0731531165231,1.93242186762,0.144904149268,-0.0355409859067,-0.206573458927,-0.00564622066682,-0.313883676035,-0.0169857237568,0.114127531549,-0.0349519601136,0.573832438986,0.818958359633,0.00206979612957,0.0,0.818915362255,-0.573771972601,-0.0120041585512,0.0,-0.00864348140152,0.00858352868616,-0.99992580388,0.0,0.648983461096,0.244585522501,0.303394816666,1.0,-0.04078,-0.0535965714286,1.092
0.455109034265,0.47751370958,-0.124362305522,-1.46617822344,0.0728041719624,1.93445041493,0.144071428568,-0.0359248711768,-0.224186332402,-0.00456425058278,-0.341500713704,-0.0283431197149,0.116675148699,-0.0604915271213,0.573848274114,0.818947166404,0.00210804092052,0.0,0.818904730405,-0.573787707995,-0.0119772941295,0.0,-0.00859936868486,0.00859959981539,-0.999926046136,0.0,0.648275092373,0.243638192198,0.303422850323,1.0,-0.0446657142857,-0.0587035102041,1.109
0.454444607007,0.473587136634,-0.124391787853,-1.47221952118,0.0724501449955,1.93667413961,0.143201884202,-0.0426895524459,-0.232107346219,-0.00291809095837,-0.371550977952,-0.0226032094328,0.130577854263,-0.0489385152217,0.573897555598,0.818912366525,0.00220874013484,0.0,0.818871031603,-0.573836355031,-0.0119506546906,0.0,-0.00851924754792,0.00866729169971,-0.999926147511,0.0,0.647515436591,0.242621114286,0.303457950929,1.0,-0.0485514285714,-0.0638104489796,1.126
0.453730998528,0.469306722044,-0.12442412948,-1.47871788816,0.0720567048918,1.93901590898,0.142210052217,-0.0428711622755,-0.260538718546,-0.00296610327973,-0.392974716329,-0.0193805691699,0.151038252447,-0.0556446432428,0.573896773569,0.818912605093,0.00232064825549,0.0,0.818872538143,-0.573834926895,-0.0119159494453,0.0,-0.00842661441879,0.00873900832076,-0.999926308236,0.0,0.646683011791,0.241523944179,0.303526316968,1.0,-0.0524371428571,-0.0689173877551,1.143
0.452968661051,0.464714401324,-0.1244297157,-1.48566411987,0.0715978220075,1.94154273421,0.141095110585,-0.0481796595632,-0.274990216558,-0.00110146361251,-0.432517527637,-0.028949279584,0.146928056935,-0.0679966815057,0.57381340501,0.818970617799,0.00245973849501,0.0,0.818932375869,-0.573751041275,-0.0118428582236,0.0,-0.00828783495965,0.00881011991421,-0.999926844113,0.0,0.645728840359,0.24029068731,0.303608429636,1.0,-0.0565514285714,-0.0743247346939,1.161
0.452177429884,0.460169397791,-0.124445905596,-1.49275677517,0.0711354137959,1.94397112331,0.140043326297,-0.0492241437997,-0.285306807059,0.00105408226998,-0.455514065257,-0.0293183193014,0.160407389291,-0.0696186044711,0.57381757047,0.818968002964,0.00235644716477,0.0,0.818928153921,-0.573755333063,-0.0119265836845,0.0,-0.00841562832129,0.00877361311952,-0.999926097726,0.0,0.644831162968,0.239158918614,0.303573383479,1.0,-0.05998,-0.0788308571429,1.176
0.451241579888,0.454757309507,-0.124476343161,-1.50113234282,0.0705630141573,1.94692507117,0.138751047484,-0.0507240978923,-0.310487727721,-0.00207499176274,-0.467468103676,-0.0268070207943,0.172158692028,-0.0772987125111,0.573776853662,0.818996615097,0.00232670637968,0.0,0.818956450929,-0.573714815403,-0.0119326849552,0.0,-0.00843812512631,0.00875233813805,-0.99992609458,0.0,0.643715327525,0.237730394345,0.303565579002,1.0,-0.0640942857143,-0.0842382040816,1.194
0.450327599736,0.449563980444,-0.124516058704,-1.50882977036,0.0700308611415,1.949850417,0.137500564818,-0.0609080807503,-0.319068314199,-0.00407698681585,-0.492358071408,-0.0280689604942,0.185688702105,-0.0746700978809,0.573735089829,0.819024875107,0.00265472333296,0.0,0.81898954258,-0.573672424527,-0.0116972382377,0.0,-0.00805754264856,0.00888547775221,-0.999928059558,0.0,0.642742592477,0.236393125326,0.30372049536,1.0,-0.0677514285714,-0.0890447346939,1.21
0.449358250038,0.444205833472,-0.124547499264,-1.51706504172,0.0694815925477,1.95266267399,0.136282200107,-0.0575607707432,-0.341680156487,8.59450560216e-05,-0.532222638946,-0.045394051074,0.179827149836,-0.0863337072148,0.573772752094,0.818998689976,0.00259261881323,0.0,0.818962342339,-0.573710076588,-0.0117548608567,0.0,-0.00813996082406,0.00886804677769,-0.999927546767,0.0,0.641615677544,0.234956845869,0.303716485802,1.0,-0.0714085714286,-0.0938512653061,1.226
0.448260856734,0.438273264368,-0.124578927333,-1.52633128028,0.0688415776328,1.95573403916,0.134794235739,-0.0659222435845,-0.35365395414,0.00112193168261,-0.552589875419,-0.0347142834983,0.177502077383,-0.0927012634684,0.573708425551,0.819044466183,0.00235621890843,0.0,0.819004738008,-0.573646332111,-0.0119109897773,0.0,-0.00840415573544,0.00876335836348,-0.999926284141,0.0,0.640313758269,0.233331087262,0.303630219697,1.0,-0.0752942857143,-0.0989582040816,1.243
0.447071744962,0.431968905733,-0.124611623674,-1.53572839329,0.0682126033348,1.9592147719,0.133251197709,-0.0696153537589,-0.377537675855,-0.00345148918218,-0.560549502972,-0.0391683054342,0.211730373377,-0.0969160960566,0.573679672175,0.819063637922,0.00267164147431,0.0,0.819028236138,-0.573616634915,-0.0117239694107,0.0,-0.00807033442315,0.00891412435692,-0.999927701431,0.0,0.639075926687,0.231666134215,0.30376088202,1.0,-0.07918,-0.104065142857,1.26
0.445857043471,0.425916466539,-0.124663053213,-1.54508255873,0.0675446682568,1.96240200037,0.131734472781,-0.076974515456,-0.388886436764,-0.0036066574116,-0.590903883645,-0.046280688468,0.196200837614,-0.0932330714244,0.573685097005,0.819060243028,0.00254453663086,0.0,0.819023250798,-0.573622587974,-0.0117808369787,0.0,-0.00818976918985,0.00884269551737,-0.99992736457,0.0,0.637779438832,0.229954424213,0.303707182806,1.0,-0.0828371428571,-0.108871673469,1.276
0.444399940991,0.418750185815,-0.124788922443,-1.55605454079,0.0667441482688,1.96602414751,0.129958477371,-0.0825119989803,-0.406931452923,-0.00717145578634,-0.607683725621,-0.04216109937,0.207903096409,-0.0965655459926,0.573754429419,0.819012283458,0.00234118941835,0.0,0.818972903834,-0.573692956478,-0.0118541711345,0.0,-0.00836574895687,0.00871892175815,-0.999926994659,0.0,0.636238993035,0.227882875798,0.30366975539,1.0,-0.0869514285714,-0.114279020408,1.294
0.442942683519,0.411654596152,-0.12483940475,-1.56662190476,0.0660257860567,1.96986465271,0.128168645976,-0.0896167586399,-0.420335436658,-0.00201889982585,-0.633805183747,-0.0471064209967,0.223713090125,-0.117145525914,0.573757550022,0.819009190561,0.00263940729834,0.0,0.818973841956,-0.57369513729,-0.0116825743274,0.0,-0.0080540756771,0.00886474143341,-0.99992827154,0.0,0.634805199927,0.225932622133,0.303780424427,1.0,-0.0908371428571,-0.119385959184,1.311
0.44148391317,0.404849093339,-0.124882104079,-1.57706542918,0.0652936379721,1.97330119536,0.126478355425,-0.0919311593435,-0.42887077681,-0.0077622608331,-0.663263341083,-0.0483447401236,0.213514002615,-0.106238549006,0.573817357406,0.818967847468,0.00246009228355,0.0,0.818929760355,-0.573755151556,-0.0118245747881,0.0,-0.00827261521394,0.00879995846807,-0.999927059624,0.0,0.633294093876,0.223974461985,0.303707916782,1.0,-0.0944942857143,-0.124192489796,1.327
0.439847573507,0.397257460285,-0.124994576625,-1.58828116968,0.0645032259778,1.97723593736,0.124540391588,-0.095376419397,-0.448251650305,-0.00390033536888,-0.659671441237,-0.0504121182833,0.239092136771,-0.116741877041,0.573878609178,0.818924188605,0.00269483708125,0.0,0.818889475633,-0.573815894328,-0.0116658910839,0.0,-0.00800729420563,0.00890175046072,-0.99992831847,0.0,0.63173544994,0.221811684659,0.303828896862,1.0,-0.09838,-0.129299428571,1.344
0.438117358287,0.389553073675,-0.12501533168,-1.59996867684,0.0636044640781,1.98116761815,0.12255698634,-0.10124279824,-0.456501222987,-0.00455613192303,-0.692206794087,-0.0548468102441,0.230153302364,-0.121732712954,0.573883894105,0.818920773697,0.00260564692769,0.0,0.818885082331,-0.573821689506,-0.0116892039568,0.0,-0.008077510743,0.00884214152324,-0.999928282605,0.0,0.630035932043,0.219581838517,0.303785281623,1.0,-0.102265714286,-0.134406367347,1.361
0.436421207708,0.381976120127,-0.125066753268,-1.61131330511,0.0627511661407,1.98481810543,0.120505988726,-0.105159927329,-0.492443336524,-0.00789270921218,-0.699661320773,-0.0597987656485,0.242146658344,-0.127979560588,0.573817785463,0.818967479098,0.00248277428361,0.0,0.818930017672,-0.573755847157,-0.0117728887669,0.0,-0.00821726498055,0.00878888056186,-0.999927613447,0.0,0.62834062882,0.217389443478,0.303780597119,1.0,-0.105922857143,-0.139212897959,1.377
0.434409725556,0.373274064344,-0.125117687626,-1.62430925607,0.0618117832204,1.9892437896,0.118188510847,-0.116129673589,-0.492898387507,-0.00315144936534,-0.739891533734,-0.0521874314316,0.249821166498,-0.135166034615,0.573819948466,0.818965666863,0.0025787871156,0.0,0.818929296806,-0.573757488498,-0.0117430032919,0.0,-0.00813767477855,0.00885038426029,-0.999927721862,0.0,0.626430741281,0.214869245749,0.303793324114,1.0,-0.110037142857,-0.144620244898,1.395
0.432369667498,0.364783397819,-0.125231627149,-1.63692115319,0.0608264052236,1.9933158451,0.116015765718,-0.116937289194,-0.51578870475,-0.00584584582776,-0.729315834502,-0.057796741429,0.246851642307,-0.136401062984,0.573966446987,0.818863288273,0.00248591093631,0.0,0.818825956443,-0.573904573307,-0.0117618320679,0.0,-0.00820481479616,0.00878659453129,-0.999927735774,0.0,0.62453880231,0.21231591372,0.303799673785,1.0,-0.113922857143,-0.149727183673,1.412
0.430528382036,0.357118593944,-0.125289137422,-1.64828152506,0.0599478330124,1.99705872768,0.11388391491,-0.128018545979,-0.503080706115,0.00461610394389,-0.757894285797,-0.0611799194945,0.235224027431,-0.137978977726,0.573916353069,0.818898374643,0.00249370966061,0.0,0.818861210208,-0.573854527759,-0.0117493101347,0.0,-0.0081906220877,0.00878529247828,-0.999927863571,0.0,0.622815955329,0.21005497781,0.303806132234,1.0,-0.117351428571,-0.154233306122,1.427
0.428140014761,0.347698090572,-0.125333106021,-1.66225884602,0.0589175547539,2.00151945586,0.111255885584,-0.138623797515,-0.533712712185,-2.06697937564e-05,-0.75100268721,-0.063471757696,0.264193373914,-0.15087486601,0.573932814968,0.818887061819,0.00241884037499,0.0,0.818848165833,-0.573870464693,-0.0118793083381,0.0,-0.0083398714198,0.00879875728221,-0.999926511507,0.0,0.62065186566,0.207223107967,0.303774083386,1.0,-0.121465714286,-0.159640653061,1.445
0.425842603986,0.338532401367,-0.125387826348,-1.67553646411,0.0578655763588,2.00594766764,0.108757126095,-0.138107200736,-0.532592885776,0.000310139676879,-0.793896870796,-0.0635295746335,0.252300589248,-0.14707232489,0.573940508692,0.818880973875,0.00264386232272,0.0,0.81884534575,-0.573877685556,-0.0117238503123,0.0,-0.00808333999997,0.00889387820456,-0.999927776664,0.0,0.61861829766,0.20452295862,0.303879935264,1.0,-0.125351428571,-0.164747591837,1.462
0.423756584533,0.330303672501,-0.125384378328,-1.68767674374,0.0568816789639,2.00970425265,0.106411917501,-0.14332633621,-0.558689338963,-0.000502768313698,-0.764897998366,-0.0676850429366,0.257180124503,-0.161073329212,0.57382254318,0.818964119409,0.00249137728461,0.0,0.81892612732,-0.573759885021,-0.0118464861502,0.0,-0.00827255402599,0.00883820492463,-0.999926722807,0.0,0.616654325727,0.202083782395,0.303833139093,1.0,-0.12878,-0.169253714286,1.477
0.42110076293,0.320186519688,-0.125387577865,-1.70230391446,0.0556873381102,2.01443688125,0.103535877025,-0.153825604354,-0.553036386472,0.000321202823679,-0.796893684018,-0.0631102829421,0.265183078434,-0.160482931096,0.573742428896,0.819019778507,0.00264094697151,0.0,0.818983827406,-0.573679328326,-0.0117586393329,0.0,-0.0081156577488,0.00890949468547,-0.999927375865,0.0,0.614329481928,0.199080365823,0.303901997185,1.0,-0.132894285714,-0.174661061224,1.495
0.418457411838,0.310414777917,-0.12543036783,-1.71644478889,0.0545519445405,2.01887014053,0.100658201285,-0.159550650393,-0.585860369741,-0.000645161012379,-0.814223332247,-0.0744355660284,0.2702536906,-0.16671696851,0.573666955542,0.819072526952,0.0026770531374,0.0,0.819036747587,-0.57360340595,-0.0117764886623,0.0,-0.00811038767981,0.00894855958015,-0.999927069787,0.0,0.612036554761,0.196117369452,0.303926029257,1.0,-0.13678,-0.179768,1.512
0.415840206278,0.301061054054,-0.125493264503,-1.72995158187,0.0533857586814,2.02308268089,0.0978765132952,-0.16960459528,-0.58695885721,-0.00321971758382,-0.877055529083,-0.0724414443205,0.265163553482,-0.174378820682,0.573615145813,0.819108844975,0.00266673552484,0.0,0.819073260639,-0.57355200327,-0.0117405345955,0.0,-0.00808741993731,0.00891897194334,-0.999927520162,0.0,0.609832727802,0.193220330923,0.303936903106,1.0,-0.140437142857,-0.184574530612,1.528
0.412708652829,0.29024976595,-0.125603798705,-1.74535867931,0.0521745113189,2.02780085377,0.0947386784261,-0.18225073123,-0.614652442911,-0.00584226741862,-0.865932683781,-0.0750277093296,0.273949072824,-0.185422981106,0.573758392543,0.819008151863,0.00277508007531,0.0,0.818973372907,-0.573694172465,-0.0117625613723,0.0,-0.00804174121177,0.00902175869132,-0.999926966467,0.0,0.607292696443,0.189837492366,0.304004137065,1.0,-0.144551428571,-0.189981877551,1.546
0.409660712256,0.279975195929,-0.125709331127,-1.76022127724,0.0508923248211,2.03229211829,0.0915725861538,-0.179458130604,-0.606351018065,-0.00298718871819,-0.903391246197,-0.0834672794414,0.265949764696,-0.195727024748,0.573743376794,0.819019103265,0.00264442304583,0.0,0.818982583449,-0.573679590055,-0.0118322805157,0.0,-0.00817396962294,0.00895460139988,-0.999926497966,0.0,0.604791984833,0.186557751916,0.30393678822,1.0,-0.148437142857,-0.195088816327,1.563
0.406621773885,0.270003360623,-0.125796332809,-1.77425895187,0.0496749115206,2.03653726719,0.088504328243,-0.19058998328,-0.63675707464,-0.00336683796155,-0.890998415095,-0.0738797234478,0.268821608431,-0.191509865885,0.573766113539,0.819002807853,0.0027558271517,0.0,0.818967857322,-0.573702049596,-0.0117623919315,0.0,-0.00805256337053,0.00900596915487,-0.999927021708,0.0,0.602426139721,0.183392787668,0.304014891675,1.0,-0.152094285714,-0.199895346939,1.579
0.403225601601,0.259387790409,-0.125960709734,-1.78946614768,0.0483316394046,2.04101355732,0.0851888392115,-0.204122524024,-0.618906303945,-0.00977599216147,-0.910534027429,-0.0775082292462,0.246431818573,-0.198781153651,0.573909582178,0.818902771264,0.00260568623911,0.0,0.818865855124,-0.573846036485,-0.0118399587595,0.0,-0.00820067020747,0.00892894518489,-0.999926508773,0.0,0.599821823888,0.179871054735,0.303943395628,1.0,-0.15598,-0.205002285714,1.596
0.39970823165,0.24845956953,-0.126072650818,-1.80470304901,0.0469207390197,2.04554215416,0.0817578620778,-0.210710798624,-0.640858845703,-0.00343480937996,-0.895380847279,-0.0831290754662,0.265679673868,-0.214571656506,0.573970961183,0.818859398922,0.00271429845543,0.0,0.818824497848,-0.573907675906,-0.0117118812572,0.0,-0.00803278198421,0.00894498603095,-0.999927728208,0.0,0.597196543493,0.176326290599,0.304024660003,1.0,-0.159865714286,-0.21010922449,1.613
0.396320709561,0.238063458865,-0.12608921108,-1.8193047119,0.0456519420837,2.04973890208,0.078346456578,-0.217411031935,-0.653979479837,-0.000124544179597,-0.889105763713,-0.0857906352831,0.267752253629,-0.216399717473,0.573881977306,0.818921776333,0.00271058522118,0.0,0.818886085952,-0.57381789349,-0.0118046705627,0.0,-0.00811187566321,0.00899432137491,-0.999926647138,0.0,0.594590539533,0.17300027986,0.304011030513,1.0,-0.163522857143,-0.214915755102,1.629
0.392611412522,0.226800095187,-0.12610614545,-1.83487970115,0.0442208610893,2.05429139134,0.0746969536189,-0.219409822597,-0.660079986026,-0.000815605966917,-0.916462554911,-0.08982794674,0.259725208998,-0.227115082701,0.57378255939,0.818990896557,0.00286928525984,0.0,0.818957315588,-0.573717973803,-0.0117195853824,0.0,-0.00795222631905,0.00907449056181,-0.999927205209,0.0,0.591632508761,0.169204780523,0.304074714263,1.0,-0.167637142857,-0.220323102041,1.647
0.388462229871,0.214592748046,-0.126179307982,-1.85161737088,0.0426457864425,2.0589843713,0.0706239782105,-0.232533102058,-0.684356669583,-0.0063509381826,-0.935982052342,-0.0872726837193,0.268723277561,-0.223038603012,0.573736764275,0.819022643945,0.00296326274681,0.0,0.818990338089,-0.57367192554,-0.0116659703779,0.0,-0.00785490448849,0.00912025524878,-0.999927558086,0.0,0.58875678709,0.16545819762,0.304155171508,1.0,-0.171522857143,-0.225430040816,1.664
0.384836537497,0.204425391872,-0.126283104378,-1.86574929854,0.0413247975884,2.06283661752,0.0671438072759,-0.242094408284,-0.685800775326,-0.0115175531631,-0.965906839268,-0.0987586967536,0.250618995615,-0.244263097101,0.573762227585,0.819005222301,0.00284586382524,0.0,0.818970960755,-0.573697299388,-0.0117779886038,0.0,-0.00801372407275,0.00908861979301,-0.999926585914,0.0,0.586140383306,0.162040652768,0.304095582378,1.0,-0.174951428571,-0.229936163265,1.679
0.380570754585,0.192608783821,-0.126402775798,-1.88171684602,0.0397775495839,2.06722524562,0.0630594418198,-0.258018995541,-0.698906818848,-0.00619378511086,-0.959882567295,-0.0934732266163,0.255872650507,-0.248331065703,0.573762943895,0.819004228598,0.00298406643523,0.0,0.818971986972,-0.573697792035,-0.0116822459614,0.0,-0.00785600776923,0.00914688275768,-0.999927306197,0.0,0.583001561616,0.15787243204,0.304186062063,1.0,-0.179065714286,-0.235343510204,1.697
0.375743825116,0.180003489422,-0.126598824605,-1.8988435113,0.0381931937832,2.07173569747,0.0585488984494,-0.2754800799,-0.711387883256,-0.0103621215134,-0.936301073943,-0.0866143222032,0.257943364124,-0.247964696425,0.573921093694,0.818893383204,0.00299199901008,0.0,0.818860464949,-0.573854986621,-0.0117788019511,0.0,-0.00792876208118,0.00921030992572,-0.999926149735,0.0,0.579953159083,0.153747016095,0.30419819067,1.0,-0.182951428571,-0.24045044898,1.714
0.371383273004,0.168682845593,-0.12667973062,-1.91420676728,0.0366255206636,2.07575838799,0.0544649346875,-0.275708990648,-0.700756471078,0.00129120013564,-0.955946552799,-0.0970249214292,0.239577347709,-0.261427041183,0.573899269488,0.818908945596,0.00291791133359,0.0,0.818875106277,-0.573833477957,-0.0118087592923,0.0,-0.00799605736083,0.00916661977066,-0.999926015337,0.0,0.576996023419,0.149887329362,0.304168086678,1.0,-0.186608571429,-0.245256979592,1.73
0.366618747389,0.156350908479,-0.12670929988,-1.93058043043,0.0349622222405,2.08004000859,0.0499344983256,-0.281870569152,-0.718952358792,0.00209462440607,-0.953307465159,-0.0970477684099,0.255919301841,-0.263160652838,0.573758268867,0.819007167078,0.00307507426679,0.0,0.818975493397,-0.573692088707,-0.0117164615774,0.0,-0.00783187101345,0.00924100509478,-0.999926630119,0.0,0.573805602981,0.145782204634,0.304251657612,1.0,-0.190494285714,-0.250363918367,1.747
0.361312803195,0.143323938126,-0.126820250993,-1.94818063526,0.0331031812081,2.08435873732,0.0450530669269,-0.301850218818,-0.72147380728,-0.00830011423343,-0.976615621979,-0.0951122447614,0.240269677911,-0.276427090505,0.573754135707,0.81901103309,0.0028046990833,0.0,0.818975500231,-0.57368852957,-0.011888984905,0.0,-0.00812834261219,0.00911850965289,-0.999925388631,0.0,0.570290036711,0.14124158515,0.304135423737,1.0,-0.194608571429,-0.255771265306,1.765
0.356705863467,0.132154484959,-0.126956314225,-1.96273919119,0.0316237395453,2.08805939952,0.040755860438,-0.308595392459,-0.753218137009,-0.0117543455849,-0.97202454962,-0.103486728552,0.237983214115,-0.286599901898,0.573753985642,0.819010291597,0.00304189400018,0.0,0.81897794296,-0.573687633863,-0.0117632733082,0.0,-0.00788929682425,0.00924064694683,-0.999926181995,0.0,0.567404549653,0.137393827784,0.30424236621,1.0,-0.198037142857,-0.260277387755,1.78
0.351215404439,0.119433586958,-0.127163610477,-1.97936677528,0.0298082215915,2.09208387527,0.0358258176873,-0.330631551178,-0.754230730032,-0.0157652407583,-0.969287279618,-0.112010476431,0.245647713172,-0.290207377202,0.573887969233,0.818916326186,0.00306535114585,0.0,0.818884706712,-0.573822017663,-0.0116994042406,0.0,-0.00782201775801,0.00922449411501,-0.999926859699,0.0,0.564051852233,0.132860507448,0.304281918975,1.0,-0.201922857143,-0.265384326531,1.797
0.345180526356,0.105818119411,-0.127306212799,-1.99716250465,0.0278778966655,2.09624455232,0.0303331848392,-0.335141127301,-0.779995359128,-0.00647733072867,-0.992095413377,-0.105655637275,0.221363472938,-0.304592826068,0.573894752725,0.818911779417,0.0030095229235,0.0,0.818879192274,-0.573828707957,-0.0117570951385,0.0,-0.00790122517297,0.00921194826656,-0.999926352613,0.0,0.560375846204,0.128017330122,0.304258816661,1.0,-0.206037142857,-0.270791673469,1.815
0.340087485531,0.0942925213551,-0.127384326061,-2.01191574207,0.0262530154211,2.0996818708,0.0256175619921,-0.346723902859,-0.785614989997,-0.00271757427011,-1.00216332467,-0.102651456327,0.223764590013,-0.316287978973,0.573767103344,0.819000790146,0.00312470187189,0.0,0.818969789038,-0.573700787457,-0.011689226466,0.0,-0.0077809915956,0.00926610844388,-0.999926795023,0.0,0.557074099901,0.123744629429,0.304317752215,1.0,-0.209694285714,-0.275598204082,1.831
0.333635263984,0.0803899906772,-0.127520329392,-2.02978738506,0.024349041841,2.10354350498,0.0197420721385,-0.366599819167,-0.80568998857,-0.00688527350394,-0.977417214103,-0.110781225374,0.224256152656,-0.338174833285,0.573757379553,0.819007731223,0.0030907129341,0.0,0.818975122057,-0.573689803144,-0.0118535277849,0.0,-0.00793517318007,0.00933244572129,-0.999924966427,0.0,0.553454544923,0.119051375945,0.304308385947,1.0,-0.21358,-0.280705142857,1.848
0.327281890337,0.0670687675529,-0.127700288163,-2.04672229901,0.0223995348355,2.10726962837,0.0140627927335,-0.376074751789,-0.775529572159,-0.014453486188,-1.00614167496,-0.111694556763,0.209718687736,-0.337903941434,0.573797521071,0.818979461886,0.00312933268987,0.0,0.818947563819,-0.573730047794,-0.01180960943,0.0,-0.00787658703103,0.00933926380826,-0.999925365979,0.0,0.549812888484,0.114230881824,0.304321064292,1.0,-0.217465714286,-0.285812081633,1.865
0.320976689485,0.0543370059971,-0.127914559521,-2.06260439956,0.0205242744702,2.11058514439,0.00850119123582,-0.398018021242,-0.783230777519,-0.00805364965179,-0.996745550268,-0.111685834912,0.212661887377,-0.346651740768,0.573916136284,0.818896026289,0.0032114703449,0.0,0.818865540436,-0.573848774894,-0.0117284755892,0.0,-0.00776165316724,0.00936110402447,-0.999926060502,0.0,0.546352194693,0.109542872961,0.304401160856,1.0,-0.21998,-0.289116571429,1.881
0.313858262228,0.0402201381506,-0.127993803394,-2.08047418899,0.0184987802512,2.11413441517,0.00214686020269,-0.400239372302,-0.815919155118,-0.00386859878573,-0.963807941183,-0.109091806952,0.188641916022,-0.363191076861,0.573863428226,0.81893348868,0.00307469755213,0.0,0.818899917986,-0.57379501355,-0.0119563225514,0.0,-0.0080273413664,0.00937934640307,-0.999923791922,0.0,0.542327591515,0.104417617949,0.304302345655,1.0,-0.21998,-0.289116571429,1.899
0.307311629747,0.0276046251006,-0.128106875762,-2.09598504189,0.0165817031436,2.11722748718,-0.00362776718855,-0.418527824735,-0.763700308512,-0.00626303552008,-0.95470282119,-0.123657850603,0.181266403033,-0.360510489947,0.573847936877,0.818943984015,0.00316911484484,0.0,0.818912260189,-0.573779907671,-0.0118353101762,0.0,-0.00787423324809,0.00938707605762,-0.99992493681,0.0,0.538833150347,0.0997914490961,0.304365805722,1.0,-0.21998,-0.289116571429,1.915
0.300214956475,0.0142455996368,-0.128260939408,-2.11220903665,0.0145856722335,2.12028949512,-0.00991554966033,-0.417702135665,-0.774378289835,-0.0104992170074,-0.930270341372,-0.127392052408,0.181506901294,-0.369329155033,0.573838444347,0.818950157326,0.00329036572834,0.0,0.81892030119,-0.573770347068,-0.0117420622347,0.0,-0.00772839822415,0.00943277562964,-0.999925644538,0.0,0.535112486536,0.0948626072117,0.304453451674,1.0,-0.21998,-0.289116571429,1.932
0.292900808233,0.00110650206543,-0.128422583734,-2.1282945594,0.0126704101313,2.12312155472,-0.0162909050502,-0.428032330891,-0.767159036229,-0.00566433606406,-0.947705901269,-0.116976184806,0.157421213303,-0.380816962422,0.573948793507,0.818873052895,0.00323304432797,0.0,0.818841396585,-0.57387960541,-0.0119043116218,0.0,-0.00789289375978,0.00947999834492,-0.999923913035,0.0,0.531340102922,0.0898939825141,0.304412062495,1.0,-0.21998,-0.289116571429,1.949
0.28557103332,-0.0119946853002,-0.128469229172,-2.14390831041,0.0106932943247,2.12596202241,-0.022794732088,-0.435199560305,-0.746549982722,-0.00419785766987,-0.930958353841,-0.114406486641,0.165994572734,-0.369717696656,0.573818651465,0.818963355025,0.00345329677756,0.0,0.818935254955,-0.573749566481,-0.0117145232986,0.0,-0.00761258433995,0.00955022231011,-0.999925418126,0.0,0.527658843972,0.0850678166439,0.304513247746,1.0,-0.21998,-0.289116571429,1.966
0.278468932729,-0.0241881112751,-0.128584821224,-2.15859164828,0.00878250146649,2.12821020233,-0.0290409537572,-0.443667752302,-0.754523537445,-0.00978122265498,-0.898677377797,-0.118835852427,0.138063203586,-0.400924792282,0.573772503617,0.818996536147,0.00324573161931,0.0,0.81896505638,-0.573703307781,-0.0118952919697,0.0,-0.00788026767308,0.00948351482039,-0.999923979274,0.0,0.52407441799,0.0804258779893,0.304456366651,1.0,-0.21998,-0.289116571429,1.982
0.270218742361,-0.0378551071345,-0.12882213228,-2.17465012175,0.00671230687699,2.1308311252,-0.0361027598952,-0.460185570206,-0.755983731244,-0.0119830612603,-0.876817812239,-0.104702675427,0.135464891226,-0.396937272866,0.574002210079,0.81883488161,0.00341267987862,0.0,0.818805865798,-0.573932751285,-0.0117855011817,0.0,-0.00769187880534,0.00955941007615,-0.999924723506,0.0,0.52017983363,0.075125718687,0.304528204052,1.0,-0.21998,-0.289116571429,2.0
0.262381952051,-0.0507014706065,-0.128906320868,-2.18968661911,0.00481695001666,2.13309599863,-0.0429701823517,-0.463299885745,-0.770638203658,0.00100654142281,-0.875446813805,-0.115157061673,0.149909268743,-0.397506137975,0.573980501732,0.818849683881,0.00351080337427,0.0,0.818821395503,-0.573910023379,-0.0118133074469,0.0,-0.0076585852734,0.00965551495234,-0.999924055668,0.0,0.516430056886,0.0702533971111,0.304552053082,1.0,-0.21998,-0.289116571429,2.017
0.255351303373,-0.0618546242573,-0.128990930691,-2.20276206697,0.00305336493659,2.1349629142,-0.0491759925762,-0.471667826197,-0.742186526071,-0.00710544109616,-0.901772721154,-0.110840017796,0.114576350761,-0.418688178787,0.573885609607,0.818916448526,0.00345026372585,0.0,0.818887205433,-0.573815145985,-0.0118604349726,0.0,-0.00773304058717,0.00963209522259,-0.999923708502,0.0,0.513116874791,0.065942932395,0.304512703085,1.0,-0.21998,-0.289116571429,2.032
0.246236677484,-0.0760128164926,-0.129198866292,-2.21897320341,0.000853607177053,2.13710695354,-0.0571387730246,-0.481958975339,-0.745103226833,-0.0161764984908,-0.864238518859,-0.110200716581,0.11485986109,-0.423215895794,0.573925108312,0.818888475742,0.00351869963926,0.0,0.818860114498,-0.573854389281,-0.01183214641,0.0,-0.00767013477973,0.00967227492065,-0.999923805162,0.0,0.50895061782,0.060422535763,0.304562550451,1.0,-0.21998,-0.289116571429,2.051
0.238381236465,-0.0877410311155,-0.129313055591,-2.23257066871,-0.000943734344274,2.13875144532,-0.0639936440267,-0.483239243321,-0.74531994301,-0.00606254789852,-0.836598647277,-0.111592427987,0.0869119323526,-0.422643975075,0.573936826392,0.818880770766,0.00339845292309,0.0,0.818849575716,-0.573864968094,-0.0120464785129,0.0,-0.00791452891061,0.00969692607694,-0.99992166186,0.0,0.505371623641,0.0557920913302,0.304468426224,1.0,-0.21998,-0.289116571429,2.067
0.230465092996,-0.099538065404,-0.129374759472,-2.24568411491,-0.0027983862121,2.14030829988,-0.0709609652005,-0.50784710206,-0.728973873756,-0.00788176855888,-0.802192805675,-0.123156446341,0.0944407609362,-0.437638811674,0.573829389081,0.81895537654,0.00355954551553,0.0,0.81892705853,-0.573757924154,-0.0118770441959,0.0,-0.00768459970805,0.0097305924978,-0.999923128294,0.0,0.501675981411,0.0509393878901,0.304579634576,1.0,-0.21998,-0.289116571429,2.084
0.221829498998,-0.111830880279,-0.129551849553,-2.25963946828,-0.00476075287499,2.14173515811,-0.0784435841731,-0.518603737207,-0.718443362366,-0.0160495723316,-0.794472714458,-0.122563372946,0.0697779208839,-0.444809919977,0.573890808777,0.81891300229,0.00340311356122,0.0,0.818881629488,-0.573818647131,-0.0120741041988,0.0,-0.00793502367346,0.00971615166828,-0.999921312802,0.0,0.49810303859,0.0462904361053,0.304495026095,1.0,-0.21998,-0.289116571429,2.1
0.212978487547,-0.12418155611,-0.129718276972,-2.27314873741,-0.00664628411893,2.14314396696,-0.0861437459968,-0.515717831473,-0.720675360695,-0.00682554609239,-0.796135530864,-0.105601391131,0.0804771239152,-0.457407836197,0.573967685275,0.818858174588,0.00362395787253,0.0,0.818829994877,-0.573895080041,-0.0119425079374,0.0,-0.00769959689744,0.00982220815138,-0.999922117184,0.0,0.494415901937,0.0413473206123,0.304593696842,1.0,-0.21998,-0.289116571429,2.117
0.204604198068,-0.135616901041,-0.129804946296,-2.28583218822,-0.00848308485952,2.14421147348,-0.0935194255793,-0.525778225842,-0.703382584951,-0.00635383596851,-0.781432122479,-0.125492549506,0.0582098858287,-0.462086876027,0.57386792923,0.818928598261,0.00350680097174,0.0,0.818898182376,-0.573794882907,-0.012080817503,0.0,-0.00788129422998,0.00980469543636,-0.999920873444,0.0,0.490845806635,0.036767229254,0.304542275194,1.0,-0.21998,-0.289116571429,2.133
0.195493158132,-0.147744071621,-0.129974179996,-2.29883026359,-0.0103771565243,2.14541947112,-0.101489939403,-0.544711133249,-0.712006090579,-0.0111669158867,-0.755359414049,-0.108513437855,0.0592428467194,-0.464796823471,0.573927143136,0.818885934411,0.00376930984079,0.0,0.818859880999,-0.573854333419,-0.0118510002631,0.0,-0.00754172783964,0.00988833771311,-0.999922668569,0.0,0.486974479575,0.0315538032122,0.304653968196,1.0,-0.21998,-0.289116571429,2.151
0.186218706348,-0.159705115239,-0.130130329291,-2.31186245432,-0.0123469624435,2.1462471747,-0.109629958529,-0.538686348023,-0.696155026958,-0.00653754780589,-0.746605692966,-0.115503639798,0.0505914615774,-0.48896699735,0.573867984319,0.81892817139,0.00359632848928,0.0,0.818899077604,-0.573794791776,-0.0120243308169,0.0,-0.00778365855097,0.00984559812959,-0.999921236327,0.0,0.483392842138,0.0269317515543,0.30458901009,1.0,-0.21998,-0.289116571429,2.167
0.177384478581,-0.170963623796,-0.130235600288,-2.32368815156,-0.0140043375252,2.1470480143,-0.117437890657,-0.560714083711,-0.690292863012,-0.00573772690577,-0.74623576252,-0.0963459872855,0.0492953384285,-0.493518524446,0.573845930828,0.818942457572,0.00385301955626,0.0,0.818916717495,-0.573771817949,-0.0119187933915,0.0,-0.00755019728064,0.00999504565115,-0.999921543714,0.0,0.47992752327,0.0223727952539,0.304688944515,1.0,-0.21998,-0.289116571429,2.183
0.167161014812,-0.18340958763,-0.130456132879,-2.33702426841,-0.0160824869795,2.1477080332,-0.126363859057,-0.579364127055,-0.680405333034,-0.0164359900438,-0.736722095933,-0.105552244774,0.0357574389668,-0.50681251889,0.5739051579,0.818901678741,0.00369556387455,0.0,0.818873215921,-0.573830740802,-0.0120699651284,0.0,-0.00776363602419,0.00995340515132,-0.999920324667,0.0,0.475913365667,0.0171155113746,0.30461223085,1.0,-0.21998,-0.289116571429,2.201
0.157372413543,-0.195237087431,-0.130580381036,-2.34912123566,-0.0179276830246,2.14832539927,-0.135024552275,-0.570657693822,-0.695544525924,-0.00351288681219,-0.713078534756,-0.10468364727,0.0310210796652,-0.510377409889,0.573856935029,0.818934201828,0.00396712702716,0.0,0.818910362876,-0.573782983389,-0.0118174637365,0.0,-0.00740159775524,0.0100304480702,-0.999922300212,0.0,0.472243799076,0.0122284925703,0.304754233392,1.0,-0.21998,-0.289116571429,2.218
0.148017282947,-0.206071452898,-0.130755650593,-2.36053459547,-0.0196522299217,2.14865096124,-0.143320039468,-0.590045289998,-0.694175206403,-0.0113516348853,-0.720169855056,-0.11118169464,0.0177906192512,-0.517766668021,0.57384718223,0.818941527227,0.00386436682869,0.0,0.81891504558,-0.573771852827,-0.0120314557598,0.0,-0.00763594085488,0.010068998983,-0.999920150645,0.0,0.46867153304,0.00760964886389,0.304673236576,1.0,-0.21998,-0.289116571429,2.234
0.137794489834,-0.217613161131,-0.130979603865,-2.37220258895,-0.0214327501215,2.14896168257,-0.152258470559,-0.603672635288,-0.686349122958,-0.00834710648128,-0.673918790803,-0.112112099376,0.0172282601198,-0.52708375281,0.574013029129,0.818824289527,0.00407089340691,0.0,0.818800712148,-0.573937211639,-0.0119255098026,0.0,-0.00742860290413,0.0101788444006,-0.999920600341,0.0,0.464981731915,0.00263925603829,0.304763619242,1.0,-0.21998,-0.289116571429,2.251
0.127656449101,-0.228934534664,-0.131064258439,-2.38380794938,-0.0233031449666,2.14913846504,-0.161366188183,-0.602754634083,-0.673209732476,-0.00807750682125,-0.674912793466,-0.105794440364,0.000585198073696,-0.551071137172,0.573805387607,0.818970132628,0.00400573569798,0.0,0.818945538674,-0.573729606669,-0.0119703808916,0.0,-0.00750531976065,0.0101493438326,-0.999920327324,0.0,0.461226795132,-0.00215868649445,0.304728920438,1.0,-0.21998,-0.289116571429,2.268
0.117736643114,-0.239505976082,-0.131258003866,-2.39447560944,-0.0250491228378,2.14916690098,-0.170134656681,-0.626400214121,-0.662148630369,-0.0175048365653,-0.646360134298,-0.108769234996,-4.54820502351e-05,-0.545068682301,0.573847915381,0.818940426982,0.00398672417061,0.0,0.818915408352,-0.573771958268,-0.0120016986062,0.0,-0.00754135084097,0.0101521350384,-0.999920027893,0.0,0.457702723387,-0.00682388759464,0.304722316815,1.0,-0.21998,-0.289116571429,2.284
0.10644446065,-0.251322718983,-0.131418969933,-2.40614131841,-0.0268748990669,2.14922286097,-0.180200408445,-0.625951310506,-0.641432990165,-0.00550407621263,-0.661287341741,-0.0939595525362,0.00143397741999,-0.566855068753,0.573849658571,0.818938115503,0.00420466834546,0.0,0.818916425844,-0.573773605374,-0.0118526013998,0.0,-0.00729415977334,0.0102450804893,-0.999920913652,0.0,0.453803002649,-0.0120057343897,0.304792284141,1.0,-0.21998,-0.289116571429,2.302
0.0943847497154,-0.26361659838,-0.13163291058,-2.41843857712,-0.0288610557039,2.14906485342,-0.191005335026,-0.644515376067,-0.65033533747,-0.0115618535352,-0.637492885778,-0.108488166687,-0.0117324114018,-0.56571059965,0.573811003159,0.818965358416,0.00417387929536,0.0,0.818942482042,-0.573733966621,-0.0119705285059,0.0,-0.00740889448814,0.0102871861004,-0.999919637813,0.0,0.449575608265,-0.0174614885651,0.304725470476,1.0,-0.21998,-0.289116571429,2.321
0.0851497717115,-0.272615627384,-0.13183122717,-2.42700864369,-0.0303470122283,2.14894548677,-0.199147886903,-0.658389703698,-0.63715314982,-0.0122692267668,-0.614581404727,-0.102842608262,-0.00843503309735,-0.578706072074,0.573943467495,0.818871487102,0.00437385787614,0.0,0.818852723668,-0.573867885996,-0.0116881677487,0.0,-0.00706122668333,0.0102900910773,-0.999922123519,0.0,0.446582618724,-0.0216025829256,0.30483961623,1.0,-0.21998,-0.289116571429,2.335
0.0741429543404,-0.283344399909,-0.131925161551,-2.43749947717,-0.0320678222045,2.1485662948,-0.20921499811,-0.655743305028,-0.624920716411,-0.00379848679189,-0.612529195092,-0.0989694186627,-0.0235266121528,-0.601923294747,0.573696305043,0.81904483524,0.00434215937965,0.0,0.819025113883,-0.573620072703,-0.0117737811771,0.0,-0.00715264259582,0.0103111108589,-0.999921257248,0.0,0.442823452118,-0.0263839688101,0.304800103102,1.0,-0.21998,-0.289116571429,2.352
0.0619530762953,-0.294582361609,-0.132203455823,-2.44823032639,-0.0338063208662,2.14808744124,-0.220084114342,-0.686271725014,-0.631932814179,-0.0126398156231,-0.581001166413,-0.0930413224865,-0.0234598694913,-0.61145611711,0.573876805244,0.818917578651,0.00448984186512,0.0,0.818899426414,-0.573799548845,-0.0117708990914,0.0,-0.00706326293562,0.0104319757413,-0.99992063895,0.0,0.43888105848,-0.0316655798288,0.304825651451,1.0,-0.21998,-0.289116571429,2.37
0.0511263842437,-0.304448497517,-0.13231812749,-2.45752199601,-0.0354793846612,2.14763684769,-0.229864317102,-0.67327540012,-0.617213782818,-0.0113705443511,-0.583938212589,-0.100117640765,-0.0392298048948,-0.624010635626,0.57376753735,0.818993865999,0.00453954180444,0.0,0.818977482334,-0.573691817902,-0.0115900130876,0.0,-0.00688798425042,0.0103679554004,-0.999922527586,0.0,0.435408407583,-0.0362459324543,0.304872502553,1.0,-0.21998,-0.289116571429,2.386
0.0401054761746,-0.314159614795,-0.132524396678,-2.46679811498,-0.0370338465051,2.1469190729,-0.239816429291,-0.699784800829,-0.598173207941,-0.0145274562975,-0.570470209806,-0.105316909632,-0.0439449445091,-0.637462489962,0.573792239021,0.818976949672,0.00446869630524,0.0,0.818958270527,-0.573714695239,-0.0118129802815,0.0,-0.00711093872619,0.0104380731681,-0.999920237408,0.0,0.431824808781,-0.040852800297,0.304804053602,1.0,-0.21998,-0.289116571429,2.402
0.0267205227153,-0.325587641427,-0.132738176502,-2.47722774144,-0.0388647196206,2.14619756432,-0.251915392821,-0.690739246333,-0.59897329907,-0.00812670360118,-0.535493121443,-0.0926900518729,-0.0320145768202,-0.645619053786,0.573823767356,0.818953629047,0.00468875123082,0.0,0.818939154084,-0.573747562021,-0.0115387990814,0.0,-0.0067597119404,0.0104612405377,-0.999922431362,0.0,0.42772739811,-0.0463667990617,0.304915791219,1.0,-0.21998,-0.289116571429,2.421
0.0161455559485,-0.334364485185,-0.132906055761,-2.48544204564,-0.0402499858579,2.14546857828,-0.261653398349,-0.716104321003,-0.586292758309,-0.0155434335525,-0.551518644819,-0.0968633226896,-0.0530076430699,-0.659929097766,0.573721548056,0.819025244869,0.00468833288755,0.0,0.819009921702,-0.573644061822,-0.0116612774216,0.0,-0.00686157838157,0.0105303200271,-0.999921012432,0.0,0.424412664373,-0.0506367335441,0.304865860042,1.0,-0.21998,-0.289116571429,2.436
0.00369395362733,-0.344224339909,-0.13315793416,-2.49450785839,-0.0419099107404,2.14448593127,-0.272798335609,-0.729715825957,-0.568160332758,-0.00435346489404,-0.527496358976,-0.095843404594,-0.0645470197597,-0.656880949434,0.573904481606,0.81889739633,0.00463110971025,0.0,0.818880761859,-0.5738262827,-0.0117661395738,0.0,-0.00697794293908,0.0105451699076,-0.999920050656,0.0,0.420627408548,-0.0556365240508,0.304838211305,1.0,-0.21998,-0.289116571429,2.453
-0.00866905081322,-0.353976323061,-0.133316140671,-2.50312785396,-0.0434269113329,2.14356687082,-0.284241671621,-0.739943561698,-0.563805666579,-0.0135898065041,-0.497313457225,-0.0892765549063,-0.047876861036,-0.673918344971,0.573768625153,0.8189914312,0.00483190565381,0.0,0.818978397589,-0.5736913647,-0.0115476946928,0.0,-0.00668556917283,0.0105831350154,-0.999921647139,0.0,0.416965177096,-0.0604856448218,0.304943535304,1.0,-0.21998,-0.289116571429,2.47
-0.020679321781,-0.362878410457,-0.133591982812,-2.51120267538,-0.0449551544009,2.14255471438,-0.295150380206,-0.757734640095,-0.547807142933,-0.0137092117413,-0.511240155985,-0.0896015275244,-0.0720377938681,-0.694228395427,0.573880761405,0.818913198642,0.0047740632494,0.0,0.818898898813,-0.573802845632,-0.0116462341441,0.0,-0.00679801466023,0.0105932288084,-0.999920782112,0.0,0.413412037683,-0.0651854307266,0.304902401381,1.0,-0.21998,-0.289116571429,2.486
-0.0333873738114,-0.372188625314,-0.133718853208,-2.51960164824,-0.0464070477305,2.14140676344,-0.306959241209,-0.750232105905,-0.536985856774,-0.0102333895855,-0.490338765973,-0.0914926357769,-0.0703547785425,-0.697972467419,0.573726194049,0.819021579335,0.00475959521254,0.0,0.819005973199,-0.573646619874,-0.011811785321,0.0,-0.00694391505458,0.0106750730744,-0.999918909141,0.0,0.409643550828,-0.0699967037893,0.304848989652,1.0,-0.21998,-0.289116571429,2.503
-0.0472693756748,-0.38188672944,-0.133989002695,-2.5279687003,-0.0480331826861,2.14022452544,-0.319602129862,-0.775811095667,-0.532503950427,-0.0123338917654,-0.451951258737,-0.0949220708591,-0.0560592048974,-0.711915629805,0.573872541836,0.818918345913,0.00487804832966,0.0,0.818905404649,-0.573794324385,-0.0116085503396,0.0,-0.00670758753878,0.0106566936061,-0.999920718433,0.0,0.405737272787,-0.0752729633976,0.304935009735,1.0,-0.21998,-0.289116571429,2.521
-0.0588165959722,-0.389725431561,-0.134121163599,-2.53485367629,-0.0492944188063,2.13919929134,-0.330387697101,-0.774333954867,-0.525554025747,-0.0113986483223,-0.461380639035,-0.0856074400341,-0.0697688476118,-0.729422586011,0.573742069231,0.819009588635,0.00490699705875,0.0,0.81899689925,-0.573663588893,-0.0116151925579,0.0,-0.00669811749489,0.0106831456721,-0.99992049965,0.0,0.402459174416,-0.0795459352905,0.304923435884,1.0,-0.21998,-0.289116571429,2.536
-0.0730849365373,-0.398979406588,-0.134387804334,-2.54294264372,-0.0508952277698,2.13775504832,-0.343499304093,-0.796334921367,-0.510816845765,-0.0128546591303,-0.44454366939,-0.0879969869641,-0.0838122433875,-0.731811781503,0.57382674658,0.818950824971,0.00481228531318,0.0,0.818936035306,-0.573747182771,-0.0117765547272,0.0,-0.00688351659709,0.0106988619264,-0.999919072502,0.0,0.398435943867,-0.0848056443083,0.304879834047,1.0,-0.21998,-0.289116571429,2.554
-0.0864586684074,-0.407516603947,-0.134531014066,-2.55026253563,-0.0521924385954,2.13646996567,-0.35610693195,-0.792765081824,-0.497971112347,-0.0147146078064,-0.421757176038,-0.0820237676949,-0.0685138719914,-0.750482118622,0.57365975549,0.819067220082,0.00491129507937,0.0,0.8190533563,-0.573579324714,-0.011794265414,0.0,-0.00684341062729,0.0107887158483,-0.99991838234,0.0,0.394720137221,-0.0896070659056,0.304886692478,1.0,-0.21998,-0.289116571429,2.571
-0.0995271105704,-0.415330710064,-0.134794914197,-2.55675287327,-0.0534442013073,2.13531555061,-0.368128140658,-0.822523880908,-0.486307980409,-0.00915442654401,-0.401130921453,-0.0843449878655,-0.0734725896492,-0.757275401539,0.573864349659,0.818922784366,0.00509198761332,0.0,0.818912225414,-0.573784849292,-0.011595718648,0.0,-0.00657441943459,0.0108244688535,-0.999919800726,0.0,0.39125683256,-0.0943264197475,0.30496664531,1.0,-0.21998,-0.289116571429,2.587
-0.113306174056,-0.423432120622,-0.13492366733,-2.56367020794,-0.0548339037467,2.1338635136,-0.381131224192,-0.814442929145,-0.471236619069,-0.00817831434382,-0.407083005167,-0.078654158883,-0.0945343467214,-0.775339963893,0.573660186668,0.819066454247,0.00498805186456,0.0,0.819053834751,-0.573579893896,-0.0117332007012,0.0,-0.00674935478209,0.0108165613644,-0.999918720802,0.0,0.387483076756,-0.0991574794524,0.304925180381,1.0,-0.21998,-0.289116571429,2.604
-0.127416302823,-0.431280858328,-0.135196244169,-2.57029709,-0.0561441992714,2.13244747704,-0.394240451601,-0.835204789508,-0.448877873295,-0.00637026198669,-0.383531239623,-0.0834843790021,-0.079619621911,-0.776735607177,0.573790625063,0.818975005272,0.00500062303067,0.0,0.818961773691,-0.573709027787,-0.0118453185048,0.0,-0.00683224874961,0.0108922615255,-0.999917336091,0.0,0.383706030393,-0.104099480717,0.304895168802,1.0,-0.21998,-0.289116571429,2.621
-0.140690821024,-0.438387491638,-0.135342264961,-2.57623653398,-0.0573276719032,2.1311537777,-0.406836457916,-0.838675224583,-0.444391457484,-0.0100835710142,-0.358209622928,-0.0782967420718,-0.0881395788851,-0.789195045433,0.573646664993,0.819075827615,0.00500392449734,0.0,0.819062389889,-0.573564684728,-0.0118785858869,0.0,-0.00685952025652,0.0109128476426,-0.999916924918,0.0,0.380209476055,-0.108659534763,0.304880259997,1.0,-0.21998,-0.289116571429,2.637
-0.156054251358,-0.446229562193,-0.135568813526,-2.58243654302,-0.0586125292197,2.12974063835,-0.421203214174,-0.836749341659,-0.426236498656,-0.00410112299082,-0.347675154724,-0.0721806721411,-0.0797106372162,-0.798983262959,0.573759235142,0.818995911634,0.0051752988543,0.0,0.818986321384,-0.573679314289,-0.0115843275125,0.0,-0.00651868047856,0.0108853234401,-0.999919505029,0.0,0.376324884096,-0.11393529337,0.305005751133,1.0,-0.21998,-0.289116571429,2.655
-0.170511540437,-0.45329194671,-0.135793093406,-2.58837023645,-0.0597288264088,2.12825764,-0.434961188099,-0.859466114808,-0.407227771195,-0.0135757921147,-0.350137135131,-0.0706137267892,-0.097653327828,-0.806556014769,0.5737114609,0.819029288174,0.00518957084064,0.0,0.819018045249,-0.573628459022,-0.0118566208578,0.0,-0.00673416387057,0.0110528442408,-0.999916239328,0.0,0.372536734876,-0.118782210478,0.304925239214,1.0,-0.21998,-0.289116571429,2.672
-0.185218435169,-0.460145914781,-0.135979214287,-2.59394031768,-0.0609288839612,2.12681424069,-0.448899659973,-0.861237303911,-0.38894966776,-0.00775595319289,-0.32094101612,-0.0735183916056,-0.0741800644306,-0.818507213838,0.573668608094,0.819059446373,0.00516703942989,0.0,0.819047630647,-0.573585236884,-0.011903850732,0.0,-0.00678635451323,0.0110611298439,-0.999915794854,0.0,0.368781061088,-0.123681538178,0.304917994039,1.0,-0.21998,-0.289116571429,2.689
-0.199256092719,-0.466253994162,-0.136225429557,-2.59893133486,-0.0619667567829,2.12557592335,-0.462210639715,-0.891974936475,-0.375809738647,-0.0181661709893,-0.309219233494,-0.0563008639218,-0.0824621740162,-0.827048097505,0.573733284962,0.819013781656,0.0052239913265,0.0,0.819002317731,-0.573649057323,-0.0119461075285,0.0,-0.00678741968194,0.0111325548552,-0.999914994965,0.0,0.365257369477,-0.128336210387,0.304889239977,1.0,-0.21998,-0.289116571429,2.705
-0.214231322561,-0.472576736221,-0.136382843636,-2.60385783529,-0.0630044496037,2.12423255381,-0.476457478653,-0.87309611087,-0.37572523178,-0.0179745821748,-0.282397921644,-0.0600717526775,-0.0801734312337,-0.84211459098,0.573739309578,0.819008786921,0.00534401460695,0.0,0.818999798931,-0.573656177172,-0.0117756801853,0.0,-0.00657888521746,0.0111331318552,-0.999916382326,0.0,0.361357175559,-0.13351935386,0.30496835565,1.0,-0.21998,-0.289116571429,2.723
-0.228541927679,-0.478259680057,-0.136619441936,-2.60826926436,-0.0640395811319,2.12298033436,-0.490089347899,-0.894915264287,-0.344928542904,-0.0137856768264,-0.279138353887,-0.0694059945702,-0.0820722873057,-0.855738875122,0.573775734405,0.818983094677,0.00537067426196,0.0,0.818974934217,-0.573693324341,-0.011695025993,0.0,-0.00649703369679,0.0111089836107,-0.999917186089,0.0,0.358065660205,-0.137905528142,0.305001510688,1.0,-0.21998,-0.289116571429,2.738
-0.244615356046,-0.48432363705,-0.136757774037,-2.61313602736,-0.0650333090173,2.12155391119,-0.505566519283,-0.897015405794,-0.325127276153,-0.00687093577083,-0.261850285136,-0.0586394668901,-0.07230019462,-0.863146043549,0.573671497939,0.819055894256,0.00540383544486,0.0,0.819047285738,-0.573587494246,-0.0118185054386,0.0,-0.00658057080501,0.0112061522252,-0.999915555555,0.0,0.354100030705,-0.143018674225,0.304964850044,1.0,-0.218837142857,-0.287614530612,2.756
-0.25914662246,-0.489278702772,-0.136905467745,-2.61714350687,-0.065902102291,2.12031242181,-0.519410448828,-0.898628636395,-0.294482735273,-0.00251416300283,-0.242437909951,-0.0593914124988,-0.0766048239684,-0.864830168948,0.573747171115,0.819002980495,0.00538966417259,0.0,0.818992950478,-0.57366111565,-0.0120090948713,0.0,-0.00674377356896,0.0113044988195,-0.999913361159,0.0,0.350570960504,-0.147625663399,0.304905161917,1.0,-0.21518,-0.282808,2.772
-0.274374627198,-0.494201498274,-0.136977026817,-2.62101260669,-0.0666406680575,2.11918822688,-0.534052517008,-0.903807176464,-0.280339352781,-0.00724653581918,-0.22475517127,-0.0442017322128,-0.0680744058067,-0.864554517183,0.573746521965,0.819002624813,0.00551144118326,0.0,0.81899406891,-0.573659805805,-0.0119953822233,0.0,-0.00666268552495,0.0113963658859,-0.999912861937,0.0,0.346959715115,-0.152393964703,0.304900773634,1.0,-0.211294285714,-0.277701061225,2.789
-0.289561610499,-0.498811074124,-0.137002540932,-2.62456673806,-0.0674426162976,2.11801550046,-0.548528302108,-0.878636784052,-0.257976627879,0.00196899770804,-0.201858028705,-0.0454018732195,-0.0637925919211,-0.842125335847,0.5738033169,0.818962846212,0.00550971326278,0.0,0.818954263724,-0.573716589586,-0.0119973190384,0.0,-0.0066644729556,0.011396524045,-0.999912848222,0.0,0.343373934647,-0.157112768745,0.304911824914,1.0,-0.207408571429,-0.272594122449,2.806
-0.304620048104,-0.503059078726,-0.137022052529,-2.62779513685,-0.0680412822129,2.11693812414,-0.56292269477,-0.892986383762,-0.243431084654,-0.00439948656739,-0.181501421858,-0.0341545765408,-0.0662100061196,-0.836563094826,0.573921803213,0.818878902491,0.00564391295881,0.0,0.818872037151,-0.573834478816,-0.0119718250437,0.0,-0.00656492949663,0.0114927551901,-0.999912405303,0.0,0.339865568117,-0.161747401127,0.304938177066,1.0,-0.203522857143,-0.267487183674,2.823
-0.31854630106,-0.506696935738,-0.136955665918,-2.6305243405,-0.0686022432314,2.11605582519,-0.576378109803,-0.862467658875,-0.220958045345,0.00710449339384,-0.166807873334,-0.0334013001943,-0.0532518926948,-0.846908913338,0.573863997087,0.818918974951,0.00570720721889,0.0,0.818913639991,-0.573777693158,-0.0118471925836,0.0,-0.00642734636051,0.0114726080113,-0.999913530504,0.0,0.336669779406,-0.166000136097,0.30497804923,1.0,-0.199865714286,-0.262680653061,2.839
-0.333322709591,-0.510257915177,-0.136934099712,-2.63322961218,-0.0691374989457,2.11515594232,-0.590510886882,-0.860973563538,-0.210319576112,0.000661903303412,-0.154270735175,-0.0316151132243,-0.0557018429886,-0.837005644873,0.573991914047,0.818828696493,0.00579614607334,0.0,0.818824720917,-0.573905624786,-0.0117964891033,0.0,-0.00633298489167,0.0115173387948,-0.999913618374,0.0,0.333274092862,-0.170490477013,0.304993704997,1.0,-0.19598,-0.257573714286,2.856
-0.347675050522,-0.513423425043,-0.136761893563,-2.63569236471,-0.0696249570195,2.11425225703,-0.604480799631,-0.841169405077,-0.178175439072,0.00544936513398,-0.143012478002,-0.0318199021252,-0.0511410160333,-0.810797499777,0.57383283043,0.818940296097,0.00578109429896,0.0,0.818935595047,-0.573745669595,-0.0118804329061,0.0,-0.00641261088492,0.0115519487518,-0.999912711641,0.0,0.329979133475,-0.174770064459,0.304973092575,1.0,-0.192094285714,-0.25246677551,2.873
-0.36207472633,-0.516234872023,-0.136689622546,-2.63794776695,-0.0700869000412,2.11344613977,-0.618278177929,-0.836689574498,-0.151961624202,0.00811952533572,-0.126772249197,-0.0207514239574,-0.0462049390975,-0.807226601123,0.573948160475,0.818859405129,0.0057905631168,0.0,0.818853889565,-0.573859258102,-0.0120252374593,0.0,-0.00652413614808,0.0116437122275,-0.999910925839,0.0,0.326677955737,-0.179074395793,0.304918935446,1.0,-0.188208571429,-0.247359836735,2.89
-0.375995716903,-0.518713012094,-0.136497287563,-2.63990681567,-0.0704288085967,2.11275444426,-0.6318283102,-0.821667085774,-0.141553363734,0.0129108511327,-0.107574022951,-0.0250100728415,-0.0397970159294,-0.794896269051,0.57385667263,0.818923326591,0.00581819083234,0.0,0.818917681827,-0.573766802065,-0.0120927309242,0.0,-0.00656486108222,0.0117043390248,-0.999909951469,0.0,0.323533319577,-0.183182505509,0.304887369823,1.0,-0.184322857143,-0.242252897959,2.907
-0.38991412524,-0.520942265637,-0.136381516999,-2.64158060985,-0.0707689040172,2.11210551428,-0.645258506545,-0.809574806546,-0.127113978376,0.0192667781603,-0.0929207892566,-0.0192469904711,-0.0369057067739,-0.793330223714,0.57393216474,0.818870085502,0.00586517245595,0.0,0.818865030582,-0.573842041087,-0.0120880301507,0.0,-0.00653296952949,0.0117407199796,-0.999909733828,0.0,0.32040924386,-0.187314394817,0.304893843845,1.0,-0.180437142857,-0.237145959184,2.924
-0.40258913739,-0.522805183349,-0.136204023171,-2.64295260159,-0.07100609088,2.11155208521,-0.657694712321,-0.793391414817,-0.11528204728,0.00873345575148,-0.0850559428032,-0.0154205870376,-0.0344190413896,-0.776605473259,0.573820950021,0.818947625944,0.00592031916641,0.0,0.818943396726,-0.573730810923,-0.0120588746303,0.0,-0.00647904197539,0.01176826776,-0.999909760873,0.0,0.317580662644,-0.191037102075,0.304911441017,1.0,-0.17678,-0.232339428571,2.94
-0.416114222779,-0.52455420636,-0.136067525603,-2.64421141159,-0.0712627760476,2.11100379202,-0.670693643367,-0.785818274927,-0.0963164363639,0.0154338486439,-0.0671499832185,-0.0166875244364,-0.0277575209076,-0.767562925262,0.573972187884,0.818841257485,0.00597239286809,0.0,0.818837891337,-0.573882137913,-0.0120227449918,0.0,-0.00641739359463,0.0117913698501,-0.999909886268,0.0,0.314565341481,-0.195020978411,0.30493708418,1.0,-0.172894285714,-0.227232489796,2.957
-0.429142233111,-0.525983001508,-0.135891490021,-2.64527789591,-0.0714563323207,2.11058729221,-0.68345049675,-0.777478097918,-0.0815453540776,0.017527188454,-0.0627442689436,-0.0190581830079,-0.0269262711914,-0.73995890984,0.573925229871,0.818873803105,0.00602262468771,0.0,0.818871277887,-0.57383532722,-0.0119830875276,0.0,-0.00635676403567,0.0118093780052,-0.999910061027,0.0,0.311679341224,-0.198835352622,0.304944382156,1.0,-0.169008571429,-0.22212555102,2.974
-0.441374787365,-0.527136553035,-0.135753661868,-2.64615757581,-0.0716309363393,2.11019845795,-0.69527720728,-0.755951800731,-0.0660799829325,0.0127610894119,-0.0508398052948,-0.00495259084546,-0.0256327646546,-0.732490497784,0.574034716493,0.818796766955,0.00606181366636,0.0,0.818794533525,-0.573944221735,-0.0120120401238,0.0,-0.00635639907124,0.0118589362615,-0.999909476814,0.0,0.308952523708,-0.20240820791,0.304936730825,1.0,-0.165351428571,-0.217319020408,2.99
-0.453824315768,-0.52810905351,-0.135530513512,-2.64692211274,-0.0717352614273,2.10988324404,-0.70754861199,-0.729672772377,-0.0534457492626,0.012304005162,-0.0403101864797,-0.00879326231822,-0.0123981689873,-0.713093996533,0.573934382805,0.818866765627,0.00610665924699,0.0,0.818864954027,-0.573843416572,-0.0120277688539,0.0,-0.00634499613382,0.0119039085244,-0.999909014854,0.0,0.30619980938,-0.206011104891,0.304923417976,1.0,-0.161465714286,-0.212212081633,3.007
-0.46633634172,-0.528847530255,-0.135366721801,-2.64751161323,-0.071866979327,2.10959194549,-0.719626448477,-0.722746243118,-0.041032809972,0.0189730390398,-0.0278175996672,-0.010744054641,-0.0146959947614,-0.699913661418,0.574084230727,0.818761551469,0.00612901024806,0.0,0.818759683475,-0.573992484707,-0.0120811885523,0.0,-0.00637372957567,0.0119540364793,-0.999908234081,0.0,0.303425304531,-0.209651207246,0.304904417875,1.0,-0.15758,-0.207105142857,3.024
-0.478237015662,-0.52935119659,-0.135126099828,-2.6479323974,-0.0719081403179,2.10938496569,-0.731454693127,-0.696207508877,-0.0244099804556,0.0122595944849,-0.0218802192461,-0.00491341810074,-0.0102672321897,-0.682827683838,0.573932383588,0.818867720563,0.0061662136045,0.0,0.818866036306,-0.573839940697,-0.0121195687469,0.0,-0.00638602693562,0.0120053470124,-0.999907540877,0.0,0.300656872947,-0.213288693158,0.304885739103,1.0,-0.153465714286,-0.201697795918,3.042
-0.490158746733,-0.52972618994,-0.134978846038,-2.64821367552,-0.071942161071,2.109179268,-0.7429713053,-0.698742350081,-0.0154614357823,0.0106855218747,-0.0185554522503,-0.0027758760484,-0.017902103707,-0.676796705209,0.574129220185,0.818729191467,0.00623670354222,0.0,0.818728193149,-0.574035977402,-0.0121486333318,0.0,-0.00636647110587,0.0120812830056,-0.999906750976,0.0,0.298173230298,-0.216542374627,0.304880675262,1.0,-0.149808571429,-0.196891265306,3.058
-0.501527488595,-0.529903553109,-0.134688104692,-2.64835451918,-0.0719566523558,2.10906184325,-0.754305437499,-0.664464628856,-0.00801636045441,0.00990956543696,-0.00563096235426,-0.00146951312402,-0.00137057886917,-0.655813064291,0.573938305331,0.818863069431,0.00623234285895,0.0,0.818862037646,-0.573845168186,-0.0121422054627,0.0,-0.00636652637412,0.0120725382328,-0.999906856243,0.0,0.295691184751,-0.219806488102,0.304878769382,1.0,-0.145922857143,-0.191784326531,3.075
-0.512194869847,-0.530010942577,-0.134521217446,-2.64843152872,-0.0719641362831,2.1089760117,-0.764667615639,-0.67044913577,0.00132401469594,0.00771710299816,-0.00320765106631,-3.90399439253e-05,-0.00512367678461,-0.648068674487,0.574062898151,0.818775382246,0.00627768231811,0.0,0.818775026765,-0.573969690555,-0.0121242224992,0.0,-0.00632393728906,0.0121003087822,-0.999906790828,0.0,0.293327685617,-0.222882755205,0.304879872845,1.0,-0.142265714286,-0.186977795918,3.091
-0.523119191526,-0.529977233732,-0.134254053386,-2.64839082891,-0.0719655549649,2.10891499817,-0.775452784861,-0.622762003175,0.00568301194071,0.0176483473485,0.00489562741452,0.00035314419073,-0.000704347103771,-0.629435897396,0.573990142547,0.818826465108,0.00626763096707,0.0,0.818826146281,-0.573897316977,-0.0120978772644,0.0,-0.00630920695167,0.0120763949146,-0.999907172988,0.0,0.290924478547,-0.226011705623,0.304887676165,1.0,-0.13838,-0.181870857143,3.108
-0.533744017821,-0.52980910829,-0.134043326059,-2.64827116417,-0.0719679488288,2.10891060991,-0.785920212756,-0.630680184608,0.0116801279903,0.00981432502075,0.00982096561029,0.000322803890524,-0.00200528321503,-0.619548678581,0.573976395642,0.818836097948,0.00626808147097,0.0,0.818835920584,-0.573883830822,-0.0120760417332,0.0,-0.00629126941142,0.012064125441,-0.999907434119,0.0,0.288572263631,-0.22906505995,0.304885709759,1.0,-0.134494285714,-0.176763918367,3.125
-0.543628662637,-0.529591377229,-0.133850551812,-2.64808515761,-0.0719665885729,2.10891835392,-0.795528997518,-0.605088336218,0.0135816478242,0.019202737462,0.0180241353355,-0.000678023081121,0.000670049181884,-0.592196513047,0.574077474592,0.818765266358,0.0062640778884,0.0,0.818765323723,-0.573985456515,-0.0120327585771,0.0,-0.00625663563458,0.0120367771617,-0.999907981019,0.0,0.286374146735,-0.231902128168,0.30489636097,1.0,-0.130837142857,-0.171957387755,3.141
-0.554080441704,-0.529138532714,-0.133524976943,-2.64776214432,-0.0719398683588,2.10894071674,-0.806045088907,-0.570058329371,0.0243036729391,0.013551798729,0.02069730036,-0.000569248864103,0.000306140927008,-0.576812913754,0.573825229258,0.818942529517,0.00620375013307,0.0,0.818941634042,-0.573733209762,-0.0120644498408,0.0,-0.00632091529064,0.0120036260739,-0.999907975261,0.0,0.284073988689,-0.234876220176,0.30488806424,1.0,-0.126722857143,-0.166550040816,3.159
-0.563384674901,-0.528666072543,-0.133315606786,-2.64741805726,-0.0719107156447,2.1089895008,-0.815121523119,-0.571349007827,0.0305760142491,0.0111137843126,0.0224322761558,-0.00198969143674,0.00288857634581,-0.568753002633,0.573896226371,0.818892919073,0.00618509091214,0.0,0.818891692935,-0.573804107607,-0.0120825592132,0.0,-0.00634541378151,0.0119992857288,-0.999907872189,0.0,0.282002190047,-0.237538719577,0.304881416025,1.0,-0.123065714286,-0.161743510204,3.175
-0.572356884606,-0.528055542392,-0.133090091165,-2.64694705787,-0.071854151887,2.10911377549,-0.823946633931,-0.539040310077,0.043212652101,0.0188231621097,0.0254454117877,0.00462754333906,0.0123148480755,-0.562684501392,0.573882568759,0.818902624873,0.00616726461139,0.0,0.818901490736,-0.573791143852,-0.0120340604001,0.0,-0.00631612343865,0.0119567498835,-0.999908567178,0.0,0.279916091235,-0.240273426407,0.304888313181,1.0,-0.11918,-0.156636571429,3.192
-0.581973823121,-0.527238477026,-0.132803932493,-2.64636379554,-0.0717621574826,2.10922820467,-0.833550427848,-0.539615090786,0.0448029157954,0.0162835634904,0.0398797099513,-0.000750092711618,0.00425056386146,-0.52900095567,0.573789583135,0.818968045252,0.00613205050248,0.0,0.818966099748,-0.573697666925,-0.0120938550325,0.0,-0.00638666071183,0.011961499817,-0.999908062317,0.0,0.277916203083,-0.242872251105,0.3048722733,1.0,-0.115294285714,-0.151529632653,3.209
-0.591493895357,-0.52634776794,-0.132561700405,-2.64570416257,-0.0716349894417,2.10937122158,-0.842814255654,-0.527093116217,0.0577758023114,0.00832372563133,0.0441514215003,0.0091281288572,0.00584597599311,-0.516586622263,0.573919837895,0.818876696023,0.00614192820293,0.0,0.818874711081,-0.573827535422,-0.0121208104246,0.0,-0.00640116491248,0.0119860740058,-0.999907675297,0.0,0.275813465581,-0.245605265175,0.304864650809,1.0,-0.11118,-0.146122285714,3.227
-0.598999809017,-0.525506924973,-0.132302028337,-2.64508923875,-0.0714793087947,2.1095144831,-0.850305027846,-0.487450970557,0.0606061482415,0.0211693511631,0.0434805364249,0.0185324909811,0.0108270153389,-0.486928933239,0.573849789512,0.818925708489,0.00615223169287,0.0,0.818923638207,-0.573757044864,-0.0121521667201,0.0,-0.00642195910815,0.0120119575429,-0.999907231356,0.0,0.274180133613,-0.247751208609,0.304855193395,1.0,-0.107751428571,-0.141616163265,3.242
-0.60766712485,-0.52447790601,-0.131980220532,-2.64434868035,-0.0713115245766,2.10968772048,-0.859005297498,-0.486282554692,0.0571063962549,0.0185647033852,0.0369337025192,0.0118275183644,0.0167862554128,-0.482713368512,0.573708519423,0.819024768885,0.00614081385079,0.0,0.819022175863,-0.573615160202,-0.0122094362104,0.0,-0.0064774914614,0.0120343519914,-0.999906603877,0.0,0.272284225515,-0.250219779566,0.304837765587,1.0,-0.103637142857,-0.136208816327,3.26
-0.615273371612,-0.523582730458,-0.131736502724,-2.64362702315,-0.0711389131445,2.1098484768,-0.866405667,-0.471312369005,0.0597135717173,0.0171446445863,0.0463388864821,0.0045032801258,0.0185201097541,-0.460054618199,0.573818268831,0.818947727856,0.00616119280981,0.0,0.818945630256,-0.573725220786,-0.0121726176324,0.0,-0.006434029722,0.0120307839356,-0.999906927418,0.0,0.270614854309,-0.252399528846,0.304857470123,1.0,-0.0999800000001,-0.131402285714,3.276
-0.622987104532,-0.522513091419,-0.13150680243,-2.64278394899,-0.0709518958686,2.1100507033,-0.874008637215,-0.435005451898,0.0659397557714,0.0150047813076,0.0482706959182,0.0130178874576,0.0174907469966,-0.439043688334,0.573872770951,0.818909345864,0.0061865110019,0.0,0.818907725362,-0.573779872112,-0.0121467115822,0.0,-0.00639748331609,0.0120370804372,-0.999907086134,0.0,0.268930260286,-0.254632204956,0.304871254442,1.0,-0.0960942857143,-0.126295346939,3.293
-0.630228856298,-0.52145745376,-0.13118801097,-2.6419577241,-0.0707446905176,2.11025305315,-0.881320227564,-0.427678222745,0.0565310610253,0.0201383292495,0.04742859047,0.0155085731674,0.00951592693422,-0.431717057864,0.573723728487,0.819013795663,0.00618326661167,0.0,0.819012259892,-0.573631115397,-0.0121247060224,0.0,-0.00638351027981,0.0120206341416,-0.999907373286,0.0,0.267366019115,-0.256701861563,0.304884396163,1.0,-0.0922085714286,-0.121188408163,3.31
-0.639042178389,-0.520144361536,-0.130866977939,-2.64090739511,-0.0704947111783,2.11050609597,-0.889916613339,-0.399025578755,0.0652817641899,0.013632273799,0.0556515602756,0.0171393720171,0.0192147902786,-0.403032313152,0.573838023386,0.818933581799,0.00620148527241,0.0,0.818932579225,-0.573745863838,-0.0120773057022,0.0,-0.00633255661383,0.0120092467764,-0.999907834112,0.0,0.265437292604,-0.25923466152,0.304908735474,1.0,-0.0874085714286,-0.114879836735,3.331
-0.644226347801,-0.519285365141,-0.13070549486,-2.64025143341,-0.0703443054823,2.11068094744,-0.895029515177,-0.389884608686,0.0638607417832,0.0100394755888,0.0471322249503,0.0111059520004,0.0179188736783,-0.39399676803,0.573882011822,0.81890258714,0.00622383997628,0.0,0.818901894052,-0.573789779059,-0.0120716306575,0.0,-0.00631443538401,0.0120246375441,-0.999907763745,0.0,0.264297023332,-0.26073545546,0.30490979696,1.0,-0.0844371428572,-0.110974530612,3.344
-0.650302946533,-0.518225326817,-0.130449003727,-2.63946849848,-0.0701178229055,2.11088799087,-0.901085302136,-0.368570759573,0.0673639862632,0.0187339881448,0.0457254425906,0.0143356479667,0.0124971572864,-0.372085717327,0.573856690535,0.818920055827,0.00626001557286,0.0,0.818919626912,-0.573763907327,-0.0120983555906,0.0,-0.006315936642,0.012069404291,-0.999907214908,0.0,0.262971492289,-0.262471677425,0.304899415678,1.0,-0.0807800000001,-0.106168,3.36
-0.656805467867,-0.517076765954,-0.130098019504,-2.63861353639,-0.069897586078,2.11111460311,-0.90755801419,-0.363331612665,0.0648944443,0.0189230260916,0.0529459015575,0.00773448500361,0.0161536977681,-0.35746180608,0.573772635869,0.818979099682,0.00624047372205,0.0,0.818978267889,-0.573679676312,-0.0121232261733,0.0,-0.00634875814501,0.0120670201239,-0.999907035827,0.0,0.261559994923,-0.264312855233,0.304892748067,1.0,-0.0766657142858,-0.100760653061,3.378
-0.662407081738,-0.516059018275,-0.129833018133,-2.63782418023,-0.0696917173168,2.11132960909,-0.913041272899,-0.339081713648,0.0640792142784,0.0133743345624,0.0532158946944,0.0182807601543,0.0106822639988,-0.336654348784,0.573811924043,0.818951532808,0.00624576976609,0.0,0.818950918,-0.573719213821,-0.0120997727447,0.0,-0.00632593110973,0.0120582049205,-0.999907286847,0.0,0.260341490722,-0.265915516205,0.304900995673,1.0,-0.0730085714286,-0.0959541224491,3.394
-0.667981435935,-0.514952521647,-0.129596302958,-2.63698852038,-0.0694620856413,2.11155594045,-0.918548925723,-0.322412360382,0.0623440001815,0.0144654031176,0.0495440029013,0.0102054952984,0.0144782620792,-0.315878119742,0.573841548436,0.818930503225,0.0062813276841,0.0,0.818930289053,-0.573748552233,-0.0121048496085,0.0,-0.0063092493891,0.0120904679179,-0.999907002655,0.0,0.259126725998,-0.267521548748,0.304897464051,1.0,-0.0691228571429,-0.0908471836735,3.411
-0.67336943344,-0.513880006867,-0.129402720827,-2.63619463985,-0.0692503936071,2.1117693395,-0.923843234466,-0.308612100992,0.0627272503017,0.00621928850401,0.0470060182593,0.0150475072013,0.0128578027002,-0.301432469004,0.57391391021,0.818879434983,0.00632783768361,0.0,0.818879622035,-0.573820292811,-0.0121319032339,0.0,-0.00630364575769,0.0121446391758,-0.999906381513,0.0,0.257930574748,-0.269072818119,0.304884959929,1.0,-0.0652371428572,-0.085740244898,3.428
-0.678034802888,-0.512911487705,-0.129077472573,-2.63547996852,-0.0690430812865,2.111964041,-0.928446609765,-0.286664760485,0.0652064976349,0.0216546281816,0.0440440783041,0.0115259320286,0.0160798125254,-0.27981802599,0.573860321675,0.818917140567,0.00630832736334,0.0,0.81891690357,-0.573766479959,-0.0121605272398,0.0,-0.00633907945625,0.0121446738073,-0.999906157082,0.0,0.256932239538,-0.270383818764,0.304876173424,1.0,-0.0615800000001,-0.0809337142858,3.444
-0.683031011545,-0.511879872202,-0.12875646467,-2.63467627506,-0.0688238753017,2.11218097475,-0.933426568651,-0.273818020068,0.0573177144303,0.0210185141294,0.0459050846131,0.0175146204268,0.0209246166768,-0.267801324383,0.57378159001,0.818972437571,0.00629129283262,0.0,0.818972120216,-0.573688115324,-0.0121391740508,0.0,-0.00633253095523,0.0121178613247,-0.999906523875,0.0,0.255859369209,-0.271801337572,0.304885945472,1.0,-0.0574657142858,-0.075526367347,3.462
-0.687237987516,-0.510959581008,-0.128521597116,-2.63397944614,-0.0686206254995,2.11237147257,-0.937480917748,-0.257804315652,0.0572220024137,0.0107272259413,0.0420975430793,0.0116744395683,0.0137570343883,-0.250237041472,0.573863265372,0.818915083862,0.00630753359554,0.0,0.818914950083,-0.57376964439,-0.0121427595108,0.0,-0.00632493938973,0.0121338507973,-0.999906378021,0.0,0.254948248206,-0.273002973385,0.304883725153,1.0,-0.0538085714286,-0.0707198367348,3.478
-0.691134323819,-0.51010381184,-0.128292965013,-2.63335491186,-0.0684312871715,2.1125539144,-0.941313590222,-0.235477177233,0.0473152844888,0.017338589567,0.033239474172,0.0070906356787,0.0135113039074,-0.229736702168,0.573866705494,0.81891255612,0.00632270955112,0.0,0.818912473833,-0.57377273276,-0.0121638087249,0.0,-0.0063334192954,0.0121583846456,-0.999906026326,0.0,0.254098522354,-0.274106036573,0.304871469265,1.0,-0.0501514285715,-0.0659133061225,3.494
-0.695283339397,-0.509206201493,-0.128053103105,-2.63268095307,-0.0682166309404,2.11274075445,-0.945297622818,-0.219755456842,0.0509916563495,0.0106905981616,0.0373800752157,0.014973887669,0.00321015505971,-0.206780102019,0.573958278468,0.818848171915,0.00634923866017,0.0,0.818848383963,-0.57386406266,-0.0121699864153,0.0,-0.00632189295212,0.0121843628549,-0.999905783047,0.0,0.253190153775,-0.275278837189,0.30486655728,1.0,-0.0460371428572,-0.0605059591838,3.512
-0.698868410287,-0.508416631724,-0.127771319325,-2.63205835371,-0.0680126206843,2.11292216064,-0.948829710634,-0.206070774094,0.0479235463028,0.0210209403155,0.0372459014573,0.0198435405333,0.0143133362325,-0.204195989614,0.573920595671,0.818874631949,0.00634302108002,0.0,0.818875014931,-0.573826903225,-0.012130208503,0.0,-0.00629344504822,0.0121561520148,-0.99990630587,0.0,0.252431573914,-0.276285958503,0.30487868383,1.0,-0.0421514285715,-0.0553990204082,3.529
-0.701727185642,-0.507737633707,-0.127499900105,-2.63154615409,-0.0678267944557,2.1130634905,-0.951598673003,-0.184184346656,0.0498633301211,0.0142294446628,0.0353983494973,0.0136647088871,0.013743933396,-0.182918541776,0.573906896213,0.81888428598,0.00633620985156,0.0,0.818884555471,-0.573813190431,-0.0121348341203,0.0,-0.00630134550434,0.012153123359,-0.999906292928,0.0,0.251838873791,-0.277078422039,0.304877853255,1.0,-0.0387228571429,-0.0508928979593,3.544
-0.704886622089,-0.507017550485,-0.127160372247,-2.63098407678,-0.0676123789883,2.11323515213,-0.954716403204,-0.171417119459,0.035210424083,0.0172302984025,0.0327650270693,0.0154295919895,0.014761625803,-0.163166289452,0.573819736689,0.818945538621,0.0063135932658,0.0,0.818945751241,-0.573726611801,-0.0120986915653,0.0,-0.00628601403313,0.0121131916048,-0.999906873972,0.0,0.251193342974,-0.277945426949,0.304888463349,1.0,-0.0346085714286,-0.0454855510205,3.562
-0.707608990438,-0.506374018904,-0.126899529726,-2.63048959093,-0.0674194037026,2.11336571128,-0.957312375643,-0.15985637472,0.0342693263026,0.0179927019678,0.0258252057013,0.0094815118695,0.00828985132029,-0.137640339045,0.573845322753,0.81892757277,0.00631846609156,0.0,0.818927865713,-0.573752202691,-0.0120957664888,0.0,-0.00628044377178,0.0121157002404,-0.999906878581,0.0,0.250627291904,-0.278696885897,0.30489126981,1.0,-0.0307228571429,-0.040378612245,3.579
