nelsonifechukwu/NELSON_IML_WORK/CNN-GradCAM/train2dof/data_sample_2022-02-21-16-39-02/robot_state.csv
position_joint1,position_joint2,position_joint3,position_joint4,position_joint5,position_joint6,position_joint7,velocity_joint1,velocity_joint2,velocity_joint3,velocity_joint4,velocity_joint5,velocity_joint6,velocity_joint7,ee_T_00,ee_T_10,ee_T_20,ee_T_30,ee_T_01,ee_T_11,ee_T_21,ee_T_31,ee_T_02,ee_T_12,ee_T_22,ee_T_32,ee_T_03,ee_T_13,ee_T_23,ee_T_33,v_x,v_y,time
0.46507756731,0.547833944543,-0.123898313205,-1.3558601478,0.0795211703115,1.89409872382,0.159167341848,9.66578550456e-05,-0.00229932034276,0.000227877420807,-1.964030329e-05,3.45627772162e-05,3.60332270554e-05,0.000626756323974,0.57375338818,0.819014137021,0.00190782951242,0.0,0.818969740565,-0.573694320171,-0.0120057462375,0.0,-0.00873853318267,0.00845095492927,-0.999926106969,0.0,0.661646158218,0.260944621692,0.30316098046,1.0,0.0,0.0,0.0
0.465070094981,0.547841740908,-0.12390155448,-1.35586050287,0.0795218823883,1.89409954198,0.159164898926,-0.00543632251852,-0.000447423246604,-0.00082552356054,0.000952646850901,0.000279185607822,-0.00180037660651,-0.00148397186886,0.573759999279,0.819009521607,0.00190095909555,0.0,0.818965045912,-0.573700970027,-0.0120082248923,0.0,-0.0087444368048,0.00844682078598,-0.99992609029,0.0,0.661648686541,0.260937826475,0.30315546811,1.0,-0.0001,-0.000131428571429,0.006
0.465074779151,0.547840303976,-0.123896780945,-1.35586572381,0.0795218823883,1.89409711366,0.159162619215,0.00189033603439,-0.000622984817817,0.00106130950126,0.000126424440097,8.49333807957e-05,0.0017438676117,-0.00116787692302,0.573751225419,0.819015676892,0.00189716561563,0.0,0.818971117177,-0.573692180253,-0.012014093704,0.0,-0.00875151050258,0.00844698745935,-0.999926026997,0.0,0.661644723415,0.260942921062,0.303153632507,1.0,-0.00044,-0.000578285714286,0.023
0.465067008973,0.547831185743,-0.123906535125,-1.35587811683,0.0795226112133,1.89409721831,0.159160530773,-0.000207777590342,-0.00253930802419,-0.00206556059307,-0.00431457704764,0.00440667695941,-5.88072179804e-05,-0.00175885425334,0.573763548006,0.819007053753,0.00189308806305,0.0,0.81896247201,-0.573704548972,-0.0120127777316,0.0,-0.00875264497948,0.00844302460691,-0.999926050536,0.0,0.661646371286,0.260930908464,0.303154526913,1.0,-0.00076,-0.000998857142857,0.039
0.46506861992,0.547769365865,-0.123899731279,-1.3559286251,0.0795208177831,1.89411038619,0.15916753615,0.00026319157633,-0.00570821906929,0.000269943622953,-0.00522640841922,-5.82651425394e-05,0.00446970025213,0.00165033906946,0.573765476931,0.819005646356,0.00191719062595,0.0,0.818961328139,-0.573706324765,-0.0120059501793,0.0,-0.00873320474006,0.00845886757136,-0.999926086616,0.0,0.661637175949,0.26093133842,0.303175196779,1.0,-0.0011,-0.00144571428571,0.056
0.465074031305,0.547629205884,-0.123899661561,-1.35611092009,0.0795177025224,1.89413741242,0.159164380446,0.00230011273058,-0.0144525236711,-0.000176635305797,-0.010542088462,-6.61907120445e-05,0.00287919688636,0.00139603537249,0.573767471651,0.819004264098,0.00191069760693,0.0,0.818959733219,-0.573708223353,-0.0120240061572,0.0,-0.00875169788212,0.00846393097125,-0.999925882082,0.0,0.661603222726,0.260916489746,0.303190062617,1.0,-0.00146,-0.00191885714286,0.074
0.465054410551,0.547495114883,-0.123904377001,-1.35629891459,0.0795134027056,1.89419145413,0.159161936636,-0.00186697526215,-0.0111823415493,-0.00126508280737,-0.0161409724685,-0.000359824800929,0.00828156782585,0.00180830350121,0.573794090969,0.818985606624,0.00191421356824,0.0,0.818941061768,-0.573734766265,-0.012029224067,0.0,-0.00875367903099,0.00847008885605,-0.999925812597,0.0,0.661580882587,0.260883199714,0.303200414661,1.0,-0.00176,-0.00231314285714,0.089
0.465036360185,0.547312659863,-0.123900532618,-1.35651665652,0.0795127974397,1.89433154748,0.159147972486,-0.000753727219954,-0.0167975954672,-0.00213887875169,-0.0113083975336,7.3261377164e-07,0.0141781585675,-0.00152467870719,0.57380712904,0.818976242762,0.00200981456958,0.0,0.818932900008,-0.573747350576,-0.0119845689326,0.0,-0.00866211822373,0.00852289845816,-0.999926161229,0.0,0.661567586188,0.260859471361,0.303238057999,1.0,-0.00212,-0.00278628571429,0.107
0.465013773917,0.547108029403,-0.12389998125,-1.35675548247,0.0795096762949,1.89444797457,0.159131627656,-0.00142631289386,-0.00799917117848,-0.000221026260999,-0.0175559277436,-0.00202024351794,0.010962497028,-0.00152494826314,0.573819339662,0.818967499714,0.00208488451792,0.0,0.818925060483,-0.573759171471,-0.011954303327,0.0,-0.00859412975652,0.00856713956512,-0.999926369816,0.0,0.661545011975,0.260825470415,0.303275982633,1.0,-0.00248,-0.00325942857143,0.125
0.464980677368,0.546887541658,-0.123896959672,-1.35708435775,0.0795031513721,1.89457997395,0.159102307363,-0.00233747258621,-0.0139914282301,0.000483547146657,-0.0247439005153,-6.60737891899e-05,0.00425626172664,-0.00118786133474,0.573842213845,0.818951397629,0.00211396146226,0.0,0.818909234067,-0.573781819391,-0.0119514433055,0.0,-0.00857486363746,0.00858955062243,-0.999926342954,0.0,0.661512399428,0.260778227286,0.303290399468,1.0,-0.0028,-0.00368,0.141
0.464943411144,0.546615136608,-0.123900065404,-1.35746552006,0.0794968668456,1.89472464298,0.158990742409,-0.00373795210425,-0.0209409723627,-0.000589374981832,-0.0208296456708,0.000264134535998,0.00979216237078,-0.0141300745157,0.573803174582,0.818978646313,0.00215421076418,0.0,0.818936874415,-0.573742486017,-0.0119458094347,0.0,-0.00854756516781,0.00861887194662,-0.999926324374,0.0,0.661471773387,0.260718922899,0.303314556018,1.0,-0.00314,-0.00412685714286,0.158
0.464907618773,0.546352757983,-0.123905441134,-1.35787847006,0.0794820499198,1.89487770464,0.158944163254,0.000143552492704,-0.0196572520385,-0.00127126444782,-0.0247982005502,-0.000214436597845,0.00715556930034,-0.0002905740258,0.573817274869,0.818968751176,0.00216022222852,0.0,0.818926992152,-0.573756493841,-0.0119504895566,0.0,-0.00854780054801,0.00862662773202,-0.999926255481,0.0,0.661425844608,0.260654556584,0.303317254895,1.0,-0.00346,-0.00454742857143,0.174
0.464863233153,0.546044254327,-0.12390086038,-1.3583815379,0.0794668644612,1.89505038195,0.15891753336,-0.000824354268013,-0.0262674796884,0.000298323832364,-0.0267584819287,-6.97009840923e-06,0.0101047288551,-0.00275455142161,0.573852645099,0.818943993052,0.00215054821435,0.0,0.818901926869,-0.573791716958,-0.0119769203566,0.0,-0.00857462531709,0.00863424173923,-0.999925960094,0.0,0.661364293233,0.260581448733,0.303311079445,1.0,-0.0038,-0.00499428571429,0.191
0.464810329829,0.545734906962,-0.123901098479,-1.35893431697,0.0794243572033,1.89522755121,0.158816047739,-0.00461558225125,-0.0216374435496,0.00102627643811,-0.0333192672865,-0.0051135638859,0.00850836587903,-0.00687907285716,0.573832522572,0.818958252387,0.00208896822904,0.0,0.818915412377,-0.573771883247,-0.0120050101107,0.0,-0.00863317708072,0.00859971908527,-0.999925753786,0.0,0.661297045333,0.260489903392,0.30328232002,1.0,-0.00412,-0.00541485714286,0.207
0.464748234014,0.545355873717,-0.123900241543,-1.35959916914,0.0793372588364,1.89544610766,0.158746079276,-0.00183067084738,-0.0222067228711,9.95931778118e-05,-0.0400439173242,-0.00394423326969,0.0131765342448,-0.00456839603224,0.573839341966,0.818953683298,0.00200527462659,0.0,0.818910124414,-0.573779424389,-0.0120052980661,0.0,-0.0086813648925,0.00853141629249,-0.999925921676,0.0,0.661218717363,0.260376119199,0.303253005722,1.0,-0.00446,-0.00586171428571,0.224
0.464685507399,0.544908386105,-0.123903341882,-1.36034168143,0.0793228749701,1.89569036453,0.158654996693,-0.00722130817957,-0.025801437128,-0.00393896568603,-0.041303773723,0.000150800779234,0.0136064591216,-0.00479306544493,0.57385439535,0.818943199105,0.00197900938372,0.0,0.818899028187,-0.573794324418,-0.0120499709764,0.0,-0.0087328655629,0.00853570200845,-0.999925436645,0.0,0.661132046869,0.26027097366,0.303238898961,1.0,-0.0048,-0.00630857142857,0.241
0.464617190659,0.544496476545,-0.123906363269,-1.36102311665,0.0792985155616,1.8959378111,0.158564345231,-0.00718061434081,-0.0271551890202,-0.00180008955073,-0.0456368946396,-0.00473349160733,0.0164026505299,-0.00121144490847,0.573871101276,0.818931521363,0.00196706341327,0.0,0.818886992379,-0.57381088281,-0.0120793783883,0.0,-0.00876363005396,0.00854297329943,-0.999925105393,0.0,0.661049711964,0.260155292782,0.303226392619,1.0,-0.00514,-0.00675542857143,0.258
0.464546946404,0.544021191138,-0.12390956613,-1.36182314991,0.079264805549,1.89622037413,0.158494373864,-0.00770470046243,-0.0262334160309,0.000370821095099,-0.0490140819506,-0.00449617096228,0.0143383216467,-0.00404349861196,0.573909150611,0.818904928077,0.00193714156086,0.0,0.818859860444,-0.573848915011,-0.0121119195505,0.0,-0.00880705358851,0.00853755330402,-0.999924770166,0.0,0.660955391603,0.26003199734,0.303206539458,1.0,-0.00548,-0.00720228571429,0.275
0.464477029587,0.54352933913,-0.123909027274,-1.36261063241,0.0792281736812,1.89648961786,0.158368145262,-0.00711293123575,-0.0352611717562,0.000229749175484,-0.052244231655,-0.00053902452305,0.0169613941888,-0.00679730211254,0.573896621368,0.818913745967,0.00192134058372,0.0,0.818868323945,-0.573836314327,-0.0121366923266,0.0,-0.00883653930843,0.00853869606066,-0.999924500271,0.0,0.660860853883,0.25991142683,0.303203041574,1.0,-0.0058,-0.00762285714286,0.291
0.464390830679,0.542953499032,-0.123909741506,-1.36354547219,0.079170786557,1.89682331716,0.158254986791,-0.00339612639656,-0.033208406054,0.000759384185416,-0.0532848572227,-0.000536915306081,0.0204656461947,-0.0038606748998,0.573911708567,0.818903225986,0.00189845759116,0.0,0.818857487824,-0.57385148554,-0.0121504765017,0.0,-0.00886080229346,0.00852803113385,-0.999924376574,0.0,0.660752996906,0.25976400446,0.303194368479,1.0,-0.00616,-0.008096,0.309
0.464312885345,0.542386013054,-0.123912585804,-1.36441406425,0.0791254948817,1.89713327376,0.158141486374,-0.00270609828284,-0.039966100068,0.000197871216921,-0.0468149774236,0.000201989540735,0.0234215326118,-0.0156037382607,0.573917744372,0.818898967848,0.00191051118172,0.0,0.818853336873,-0.573857417995,-0.0121500372339,0.0,-0.00885346239294,0.00853771479706,-0.999924358954,0.0,0.660646703305,0.259622010533,0.303209726522,1.0,-0.0065,-0.00854285714286,0.326
0.46423498761,0.541806961018,-0.123915722983,-1.36531040952,0.0790653790779,1.89747194074,0.158018070898,-0.00806823594705,-0.0431234407163,-0.000762476372802,-0.0597286807225,-0.00541538903831,0.0236800592988,-0.00238835285296,0.573919378391,0.818897792563,0.0019233678709,0.0,0.818852381993,-0.57385904489,-0.0121375452208,0.0,-0.00883583705636,0.00854109121334,-0.999924486021,0.0,0.660553350092,0.259490104914,0.303221538518,1.0,-0.0068,-0.00893714285714,0.341
0.464139314087,0.541120659698,-0.123916124436,-1.36637842913,0.0790043695484,1.89787305906,0.15787544447,-0.00710765440245,-0.0394808094903,-0.00037778430806,-0.0646575329379,-0.00238210180698,0.0306722170242,-0.00520164342295,0.573924200016,0.818894371398,0.00194114152107,0.0,0.818849163258,-0.5738637579,-0.0121318630386,0.0,-0.00882093341926,0.00855243656032,-0.999924520633,0.0,0.660433252854,0.259326268958,0.303233180922,1.0,-0.00716,-0.00941028571429,0.359
0.464050961971,0.540360853753,-0.123917166542,-1.36750291146,0.0789349410767,1.89828625721,0.15773941222,-0.00430392851297,-0.039135456687,-3.36937453713e-05,-0.0632535551618,-0.00528850900951,0.0345115940315,-0.0142044496687,0.573929537318,0.818890532749,0.00198203673724,0.0,0.818845873408,-0.573868927913,-0.0121093385377,0.0,-0.00877896241109,0.00857305472526,-0.999924713442,0.0,0.660302979239,0.25916063599,0.303270839676,1.0,-0.00752,-0.00988342857143,0.377
0.46396281638,0.539757705541,-0.123919323063,-1.36844039313,0.0788746693674,1.89864899628,0.157628368842,-0.00687197478612,-0.0467352994759,-0.000829346222366,-0.0629342982867,-0.00101578450796,0.0220825403729,-0.0100476992447,0.573941802892,0.818881888815,0.00200149074221,0.0,0.818837506509,-0.573881129122,-0.0120968786841,0.0,-0.00875746570685,0.00858196527937,-0.999924825508,0.0,0.660191660909,0.259003195316,0.303280035143,1.0,-0.00782,-0.0102777142857,0.392
0.463859541853,0.538966629189,-0.123925187966,-1.36967673625,0.078814477545,1.89911156243,0.157479110539,-0.00333104106059,-0.0394096810092,-0.00056382906187,-0.064218966859,-0.00305822627995,0.0228992828017,-0.00682612382768,0.573966905105,0.81886424152,0.00202304346162,0.0,0.818820074684,-0.57390606934,-0.0120936251996,0.0,-0.00874216861898,0.00859801476408,-0.999924821489,0.0,0.660059773128,0.25882639542,0.303293109639,1.0,-0.00816,-0.0107245714286,0.409
0.463743223945,0.53814012877,-0.123922262471,-1.37096071466,0.0787396711244,1.89961632193,0.157313542566,-0.00237444711501,-0.0457896100004,0.000754317883737,-0.0744576558741,-0.00460718696343,0.0404830725771,-0.015198064452,0.573975561012,0.818858072289,0.00206390627147,0.0,0.818814433857,-0.573914542055,-0.0120734512835,0.0,-0.00870210476376,0.00861998818051,-0.999924981774,0.0,0.659918554808,0.258631913048,0.303309418183,1.0,-0.00852,-0.0111977142857,0.427
0.463650473229,0.537431031681,-0.123931340873,-1.37207152279,0.0786749508043,1.90003168466,0.157187247598,-0.00522086931041,-0.049067291099,-0.000818508232768,-0.0736329295281,-0.00436648090727,0.0313002543162,-0.00336457542287,0.573992037989,0.818846484472,0.00207896471671,0.0,0.818803067138,-0.573930976534,-0.0120630975268,0.0,-0.00868480996115,0.00862655070824,-0.999925075543,0.0,0.659784116598,0.258448068142,0.30332404258,1.0,-0.00884,-0.0116182857143,0.443
0.463535416491,0.536531712697,-0.123928647615,-1.373458761,0.0786004970225,1.9005532642,0.157017071137,-0.00622753045573,-0.0478838214161,0.000668838524345,-0.0781403447089,-0.000506953696802,0.0229734273761,-0.0111266069833,0.574007809866,0.818835355344,0.00210759406047,0.0,0.818792212486,-0.573946525102,-0.0120600993992,0.0,-0.00866575633239,0.00864843935598,-0.999925051773,0.0,0.659631612759,0.258256756789,0.303337494532,1.0,-0.00918,-0.0120651428571,0.46
0.463423543784,0.535675028632,-0.123940476164,-1.37482493082,0.078514413099,1.90104895576,0.156837512731,-0.00490286458058,-0.0508760199098,-0.000887328679342,-0.0832215965828,-0.0041671218461,0.0333345877992,-0.00584452621042,0.574012645526,0.818832009351,0.00209048794261,0.0,0.818788700765,-0.57395149065,-0.0120622046821,0.0,-0.00867724769014,0.00863569219081,-0.999925062289,0.0,0.659472276958,0.258044896458,0.303335218787,1.0,-0.00952,-0.012512,0.477
0.46332101015,0.534917638839,-0.123932799881,-1.37601240325,0.0784489347338,1.90147736384,0.156695873133,-0.0108762221664,-0.0563535341796,-5.59007647268e-05,-0.0920429834756,-0.00143447291625,0.0308906707447,-0.0110347631057,0.574022742834,0.818824921334,0.00209423340618,0.0,0.818781537428,-0.573961446973,-0.0120746948871,0.0,-0.00868521907234,0.00864603558901,-0.999924903699,0.0,0.659330109637,0.25786920931,0.303341324782,1.0,-0.0098,-0.01288,0.491
0.463193769486,0.533916771308,-0.123938382478,-1.37766789708,0.0783613250362,1.90207833403,0.156490387825,-0.0104469230103,-0.0558800037585,-0.000296994827561,-0.0859265809665,-0.00865581498769,0.0302943640705,-0.00849419213836,0.574029817848,0.81882006774,0.00205226434784,0.0,0.818775999497,-0.573968567688,-0.0121116825348,0.0,-0.00873952174826,0.00863297792352,-0.999924543379,0.0,0.659130252344,0.257625311122,0.303311696633,1.0,-0.01018,-0.0133794285714,0.51
0.463061352095,0.532985319727,-0.123933398933,-1.37915722786,0.0782839021749,1.90265470668,0.156310218588,-0.00671021068342,-0.0539069914043,0.00191371720538,-0.0890410956047,-0.00275718674694,0.0367493542533,-0.0135042867599,0.574048086457,0.818807205913,0.00207385650321,0.0,0.818763298554,-0.573986619897,-0.0121147852568,0.0,-0.0087294756514,0.00865263347582,-0.999924461241,0.0,0.658960269567,0.257402944382,0.303309504341,1.0,-0.01052,-0.0138262857143,0.527
0.462938177573,0.532090708944,-0.123938763929,-1.38060911354,0.0781906704404,1.90318474797,0.156126307717,-0.00549524964467,-0.0519923474922,-0.000661967033281,-0.0908086728052,-0.00519677759356,0.0320332046423,-0.014242822711,0.574056312438,0.81880151086,0.00204520518619,0.0,0.818757268687,-0.573995009115,-0.0121248251605,0.0,-0.00875405613354,0.00863502528373,-0.999924398562,0.0,0.658789262121,0.257178961481,0.30329526283,1.0,-0.01084,-0.0142468571429,0.543
0.462790509845,0.53101113737,-0.123934226256,-1.38232612372,0.0780903628225,1.90379830448,0.155905594575,-0.00757722545251,-0.0573464044498,0.001396451517,-0.0947734376408,-0.0059004452563,0.0381409459945,-0.0147835946379,0.574059744939,0.818799147678,0.00202778316069,0.0,0.818754562934,-0.573998404723,-0.0121467670959,0.0,-0.00878198732625,0.00863339295591,-0.999924167737,0.0,0.658581953762,0.256920108129,0.303291910516,1.0,-0.0112,-0.01472,0.561
0.462646306092,0.529979102078,-0.123944471113,-1.38396959987,0.0779947335275,1.90438630847,0.155690170678,-0.00426904366113,-0.0600974949214,-0.00130034881655,-0.095279030547,-0.0104385082126,0.0417940183434,-0.00969539538188,0.574072174654,0.818790483465,0.0020073304301,0.0,0.818745590585,-0.574010883532,-0.0121618413719,0.0,-0.00880594000462,0.00862543372898,-0.999924025771,0.0,0.658387193077,0.256662100806,0.303288079761,1.0,-0.01154,-0.0151668571429,0.578
0.462519897046,0.529038703182,-0.123947584468,-1.38543009892,0.0778959619762,1.9049360732,0.155480563969,-0.00900041329576,-0.0625707202693,0.000105954530447,-0.0990774255074,-0.00613707230251,0.0326310084842,-0.0174887176794,0.574058917888,0.818799732707,0.00202568839939,0.0,0.818755186765,-0.573997652084,-0.0121402820445,0.0,-0.00877788830948,0.0086279461718,-0.999924250742,0.0,0.658218722143,0.256437397598,0.30330298683,1.0,-0.01184,-0.0155611428571,0.593
0.462387094947,0.527946979928,-0.12394201204,-1.38713696992,0.0777853576719,1.90560206832,0.155252483882,-0.00377455648567,-0.0571345140101,0.0018994402651,-0.101356109543,-0.00978956877835,0.0370876680859,-0.00984282751532,0.574039811223,0.818813031348,0.00206439524051,0.0,0.818769060533,-0.573978446525,-0.012112610765,0.0,-0.00873321330625,0.00864355016369,-0.999924507163,0.0,0.658019667669,0.256192262903,0.303316765487,1.0,-0.01218,-0.016008,0.61
0.462230181415,0.526708855714,-0.123950137059,-1.38902191621,0.077674199935,1.90631391482,0.154993867714,-0.00267967049503,-0.0695454432271,-0.00102257842811,-0.106705794966,-0.00796535938697,0.0419459254662,-0.0174042249643,0.574034216866,0.81881681287,0.00211937019362,0.0,0.818773578722,-0.573972633602,-0.0120826141251,0.0,-0.00867715415958,0.00867128520419,-0.999924755073,0.0,0.65780068016,0.255907134831,0.303352947344,1.0,-0.01254,-0.0164811428571,0.628
0.462087363436,0.525606421752,-0.123948325966,-1.390756075,0.0775639436638,1.90694695389,0.154757630534,-0.00993592867773,-0.0655856076614,0.000290339130691,-0.111391276974,-0.00698476269032,0.0424411126594,-0.0166624297865,0.574020118966,0.818826699864,0.00211790291462,0.0,0.81878344449,-0.573958541742,-0.0120834718441,0.0,-0.00867884799934,0.00867042672161,-0.999924747817,0.0,0.657591249537,0.255648030718,0.303357966675,1.0,-0.01286,-0.0169017142857,0.644
0.461935865418,0.524430855406,-0.123956647119,-1.39261740446,0.0774442990155,1.90761176749,0.154505101366,-0.00443496086254,-0.0673069935385,-0.00107708134424,-0.109801013633,-0.0108111955419,0.0404777564206,-0.0123323569959,0.574010937849,0.818833196006,0.00209457617647,0.0,0.818789669843,-0.573949495979,-0.0120912995603,0.0,-0.0086987439998,0.00865572218585,-0.999924702328,0.0,0.657364697597,0.255363872144,0.303356690815,1.0,-0.0132,-0.0173485714286,0.661
0.461769330365,0.523242189688,-0.123957258923,-1.39452754206,0.0773370838663,1.90831955696,0.154238740507,-0.0126550893841,-0.070028191529,-0.000668622093037,-0.117468272724,-0.00735872261323,0.0453366731961,-0.016831128228,0.574003302144,0.818838569743,0.00208631959036,0.0,0.818794824442,-0.573941786357,-0.0121081890047,0.0,-0.00871739401101,0.00865857485878,-0.999924515213,0.0,0.657136382926,0.255073624316,0.303344607776,1.0,-0.01354,-0.0177954285714,0.678
0.461622644249,0.522080810444,-0.123954935305,-1.39635723712,0.0772166538359,1.90903433511,0.153999212245,-0.0106223812867,-0.0714498604486,0.000684894336176,-0.112493171293,-0.00931434581721,0.0417960755434,-0.0171701031156,0.573991274051,0.818846917699,0.00211886513348,0.0,0.818803701509,-0.573929722981,-0.0120796678648,0.0,-0.00867548614881,0.00866872546194,-0.999924791741,0.0,0.656922083318,0.254805694129,0.303351785489,1.0,-0.01386,-0.018216,0.694
0.461455344699,0.520835307804,-0.123965394766,-1.39838011274,0.0770910381636,1.90979523463,0.153713331521,-0.0117583733919,-0.0788057339248,-0.00170630819689,-0.117815728253,-0.00794683748116,0.0444445501834,-0.0141279859225,0.57397583132,0.818857794395,0.00209869466369,0.0,0.818814365259,-0.573914419228,-0.0120839376432,0.0,-0.0086907227204,0.00865449611916,-0.999924782689,0.0,0.656681452771,0.254497289622,0.303330254307,1.0,-0.0142,-0.0186628571429,0.711
0.461281432925,0.51951268828,-0.12396362843,-1.40043791194,0.0769654951139,1.910528154,0.153451105016,-0.00970901866257,-0.0812007278509,-0.000747368042843,-0.126060784159,-0.00853285533099,0.0387338427928,-0.0112170998584,0.573977700794,0.818856486401,0.00209775389936,0.0,0.818812967684,-0.573916215563,-0.0120933191419,0.0,-0.00869892532363,0.00865913032694,-0.999924671243,0.0,0.656427199499,0.254186735676,0.303343015805,1.0,-0.01454,-0.0191097142857,0.728
0.461120261512,0.518263810041,-0.12396673693,-1.40242010801,0.07684213641,1.91123634552,0.153170139497,-0.00751199117274,-0.0759065975063,-9.23952708275e-05,-0.130882540697,-0.0090081720859,0.0462887535072,-0.0273392475324,0.573953581628,0.81887345159,0.00207444428922,0.0,0.818829591056,-0.573892163406,-0.0121091904429,0.0,-0.00872555524694,0.00864889611241,-0.999924527793,0.0,0.656180975885,0.253888433483,0.303337655399,1.0,-0.01486,-0.0195302857143,0.744
0.460924497477,0.516817929698,-0.123969959535,-1.40467859962,0.0766928238918,1.91204970267,0.152866621947,-0.00880917276005,-0.0777045961914,0.000239677827361,-0.126002555312,-0.0135673328091,0.0482308216874,-0.013942061515,0.573946617584,0.818878348176,0.00206832148577,0.0,0.818834460547,-0.573885279282,-0.0121061697239,0.0,-0.00872666902814,0.00864207445967,-0.999924577054,0.0,0.655904980063,0.25354017557,0.303347705344,1.0,-0.01522,-0.0200034285714,0.762
0.460733874197,0.515451248371,-0.123973210811,-1.40685665372,0.0765482763627,1.91288545134,0.152570228426,-0.00963366702271,-0.0821381997738,-0.000772682383607,-0.129903224692,-0.0164423965601,0.053384274834,-0.0186522440471,0.573938381387,0.818884093092,0.00207926720305,0.0,0.81884047697,-0.573877124155,-0.0120857994907,0.0,-0.0087037926474,0.00863925867827,-0.999924800774,0.0,0.655648034411,0.253206079514,0.303342024425,1.0,-0.01556,-0.0204502857143,0.779
0.460563871542,0.514143901865,-0.123978197005,-1.40896713341,0.076431042094,1.91362993476,0.152282664883,-0.0138025568555,-0.0795164544661,-0.00133871110751,-0.131203319167,-0.00704959847158,0.0433944595137,-0.0199089561309,0.573924993261,0.818893588623,0.00203458186224,0.0,0.818849203954,-0.573863749727,-0.0121295026873,0.0,-0.00876536796769,0.00862760659448,-0.999924363504,0.0,0.655380213718,0.252890039113,0.303318701433,1.0,-0.01588,-0.0208708571429,0.795
0.460369648644,0.512726666195,-0.123978893051,-1.41124407016,0.0762932584366,1.91441665316,0.151963238113,-0.0113044863508,-0.086924566846,0.000143607058538,-0.135859925356,-0.00910094994175,0.0501877751723,-0.0161023268841,0.573904895376,0.818907822022,0.00197408123061,0.0,0.818862498643,-0.573843778358,-0.0121767506744,0.0,-0.00883899231994,0.00860496358307,-0.999923910513,0.0,0.65508957114,0.252541972134,0.303296247282,1.0,-0.01622,-0.0213177142857,0.812
0.460148468977,0.511113419151,-0.123980615185,-1.41380103548,0.076136697565,1.91539354068,0.15159531744,-0.0113807931273,-0.0856953235563,-0.00037401826231,-0.136458820402,-0.00953777558053,0.0466572896144,-0.0198524310865,0.573877631195,0.818926867012,0.001999450042,0.0,0.81888188583,-0.573816414486,-0.0121625008521,0.0,-0.00881305114233,0.00861726650849,-0.999924033538,0.0,0.654782467462,0.252154843953,0.303293801009,1.0,-0.0166,-0.0218171428571,0.831
0.459985679007,0.509892496336,-0.123982908456,-1.41572067971,0.076012536181,1.91612811696,0.151321297203,-0.00761834535801,-0.0937480636759,-0.00170125510148,-0.133642944601,-0.00824829571824,0.0495437169226,-0.0226723402261,0.573854814863,0.818942794829,0.00202414381276,0.0,0.818898213239,-0.573793566796,-0.0121410855588,0.0,-0.00878158291445,0.00862495421429,-0.999924244114,0.0,0.654551421694,0.251864966276,0.3032985268,1.0,-0.01688,-0.0221851428571,0.845
0.459771298254,0.508312274459,-0.123993170311,-1.41824140057,0.0758543505358,1.91701919938,0.150969845557,-0.00755934928254,-0.0882071593464,-0.00201253069654,-0.135862521591,-0.00715275057524,0.0541566593238,-0.0209082067887,0.573837874472,0.818954777557,0.00197814034635,0.0,0.818909558779,-0.573776798022,-0.0121682987132,0.0,-0.00883044534541,0.00860271433668,-0.999924005383,0.0,0.654233274536,0.251475339045,0.303282027751,1.0,-0.01724,-0.0226582857143,0.863
0.459567320908,0.506855458774,-0.123992378797,-1.42050481635,0.0757068259515,1.91784378466,0.150664582508,-0.0148487249408,-0.0860996211791,-0.00108864900442,-0.137487757141,-0.00631678042009,0.0494239022018,-0.0194251232884,0.573831512931,0.818959208616,0.00198904265828,0.0,0.818914152987,-0.573770408703,-0.0121603879505,0.0,-0.00881777764302,0.00860703471134,-0.999924079994,0.0,0.653953484031,0.251125155793,0.303294962433,1.0,-0.01756,-0.0230788571429,0.879
0.459346702557,0.505250036765,-0.123990285483,-1.42296179337,0.0755557237878,1.91879053114,0.150332200208,-0.0171391791946,-0.0967559004889,0.00183256374635,-0.140103241607,-0.00790474573929,0.0568331995343,-0.0219949941764,0.573824687188,0.818963793424,0.00206889709804,0.0,0.818919805527,-0.573763255253,-0.0121171753393,0.0,-0.0087366389551,0.00864756165024,-0.999924442554,0.0,0.653658769121,0.250751546219,0.303329663141,1.0,-0.0179,-0.0235257142857,0.896
0.459122724463,0.50358953044,-0.12399375644,-1.42544399597,0.0753976771064,1.91972638615,0.14997269852,-0.0124157540004,-0.0948120053729,-0.000473201482635,-0.137720143144,-0.00933205104893,0.0515057689302,-0.017558469918,0.573801065671,0.818980100974,0.00216290182872,0.0,0.818937415585,-0.573739306705,-0.0120608539613,0.0,-0.00863682388497,0.00869197943719,-0.999924924565,0.0,0.653358684873,0.250368492761,0.303389388378,1.0,-0.01824,-0.0239725714286,0.913
0.458885852839,0.501900657887,-0.12400663762,-1.42795994758,0.0752373645427,1.92065434131,0.149634437186,-0.0176765623368,-0.101366624528,-0.000308749649723,-0.143946395425,-0.0210151586386,0.0543972410061,-0.0179452647876,0.573812643629,0.818971770318,0.0022441779958,0.0,0.818930235994,-0.573750634008,-0.0120093901841,0.0,-0.00854791756551,0.0087291332085,-0.999925364884,0.0,0.653054025203,0.249967107518,0.303451807815,1.0,-0.01858,-0.0244194285714,0.93
0.458663895292,0.500275984425,-0.124006214614,-1.43040179508,0.0750785737735,1.92151154697,0.149286823877,-0.0122953466938,-0.0984999092704,-0.000112457516315,-0.145189172334,-0.0171294802743,0.0480981804597,-0.0150842881868,0.573790656423,0.818987084723,0.00227696296119,0.0,0.818945955301,-0.573728491127,-0.0119953184977,0.0,-0.00851781639704,0.00874767970217,-0.999925459674,0.0,0.652743472693,0.249586823049,0.303497514778,1.0,-0.0189,-0.02484,0.946
0.458389165867,0.498518054969,-0.124009183348,-1.43318475601,0.0749153160568,1.92255030341,0.148891205692,-0.0194891758423,-0.08945204004,-0.00118191021829,-0.153308756295,-0.00457683905575,0.053960067087,-0.0259292461777,0.573791507212,0.818986449646,0.00229094936768,0.0,0.818945405283,-0.573729184264,-0.0119997162899,0.0,-0.00851338443816,0.00876166644373,-0.999925374959,0.0,0.652403425582,0.249142991599,0.303489220116,1.0,-0.01926,-0.0253131428571,0.964
0.458149727617,0.496919915371,-0.124006306178,-1.4356977712,0.0747682714008,1.92344985578,0.148515988383,-0.0183589244948,-0.0956973416322,0.000629792455768,-0.156649141431,-0.00476432958182,0.0521338451659,-0.02190318406,0.573765828346,0.819004459757,0.00228386119962,0.0,0.818963143074,-0.573703353028,-0.0120241387325,0.0,-0.00853772879628,0.00876960690847,-0.999925097786,0.0,0.652084356996,0.248748888603,0.303485067722,1.0,-0.01958,-0.0257337142857,0.98
0.457895594725,0.495349496068,-0.12401198056,-1.43826039261,0.0746000623306,1.92432300495,0.148145779091,-0.0175898858794,-0.0926788347298,-0.000109107607961,-0.161905329223,-0.00839170063815,0.0579135115799,-0.0197691424027,0.573758249505,0.81901006009,0.00217703857973,0.0,0.818967271436,-0.573696145906,-0.0120866617068,0.0,-0.00865030543325,0.00871791305552,-0.99992458226,0.0,0.651752814159,0.248329011818,0.303435476476,1.0,-0.0199,-0.0261542857143,0.996
0.457597006613,0.493466581915,-0.124040437732,-1.44126758977,0.0744050433547,1.92541544692,0.147721727002,-0.013177372313,-0.11410736956,-0.00140722683434,-0.178771895101,-0.0193920527979,0.0676671577469,-0.0251854488134,0.573774320419,0.818998905088,0.00213766072546,0.0,0.818955715673,-0.573712497658,-0.0120934982126,0.0,-0.00867832620552,0.00868975549243,-0.999924584558,0.0,0.651381774967,0.247828814992,0.30341093597,1.0,-0.0246228571429,-0.0323614693878,1.014
0.45729217994,0.491157511105,-0.124091205663,-1.44485887088,0.0742063978387,1.92676924225,0.147192079037,-0.0192056116975,-0.144249748755,-0.00114410485747,-0.227945258954,-0.00723831787298,0.0889885029186,-0.0339469020618,0.573753539707,0.819013301501,0.00219875860799,0.0,0.818970909849,-0.573691458838,-0.0120625776333,0.0,-0.00861816842503,0.00872183387513,-0.999924825568,0.0,0.650937185407,0.247264972638,0.303427318164,1.0,-0.0306942857143,-0.0403410612245,1.031
0.45690222493,0.488575658621,-0.124102687919,-1.44902019734,0.0739732675485,1.92826266017,0.146592180138,-0.0241515518805,-0.172985395324,-0.00405010987714,-0.26967777366,-0.0157686377919,0.10370360317,-0.0476380694177,0.573734435961,0.819026849761,0.0021361799067,0.0,0.818983286523,-0.573672270067,-0.0121346550627,0.0,-0.00871330889081,0.00871173284644,-0.999924089098,0.0,0.650400287917,0.246609105873,0.303371841221,1.0,-0.0364085714286,-0.0478512653061,1.047
0.456380248175,0.485245655657,-0.124154197738,-1.454164235,0.0736669961619,1.93021903296,0.145830932784,-0.0313794670786,-0.209264766182,-0.00339869575141,-0.309492043588,-0.0210615357541,0.113180159587,-0.0479734041537,0.573747972531,0.819017060175,0.00225079092298,0.0,0.818975118774,-0.573685439953,-0.0120630724449,0.0,-0.00858878151025,0.00876467386835,-0.999924703827,0.0,0.649777328506,0.245757128632,0.303407597539,1.0,-0.04248,-0.0558308571429,1.064
0.45574092042,0.481188808021,-0.1242494715,-1.46053197816,0.0732869182532,1.93243715005,0.144859275714,-0.0415238231634,-0.238441037812,-0.00644343322791,-0.372418006278,-0.0141033055868,0.135695135098,-0.0572529139206,0.57375395601,0.819013098492,0.00216549370693,0.0,0.8189699604,-0.573691702649,-0.0121153281471,0.0,-0.00868045379886,0.00872485972877,-0.999924260404,0.0,0.648962523804,0.244674811177,0.303386453708,1.0,-0.0489085714286,-0.0642798367347,1.082
0.455084494725,0.477070799882,-0.12432364737,-1.46691153949,0.0728911914222,1.93472707416,0.143922732085,-0.0402216301981,-0.2695707551,-0.004690425601,-0.407357989096,-0.0288683494978,0.153436658739,-0.0587506698458,0.573781024599,0.818994101573,0.00217814143598,0.0,0.818951203802,-0.573718788866,-0.0121005782329,0.0,-0.00866082827954,0.00872704175037,-0.999924411541,0.0,0.648153906224,0.243596300297,0.303403604138,1.0,-0.0546228571429,-0.0717900408163,1.098
0.454232488188,0.471933056619,-0.124384086687,-1.47483627733,0.072417753006,1.93758804537,0.142769756501,-0.049411649637,-0.297446884729,-0.00285213432507,-0.453813602356,-0.0306352539291,0.15779445137,-0.0625510310546,0.573831631703,0.818958465079,0.00224451206285,0.0,0.818916242742,-0.573768912002,-0.0120900742539,0.0,-0.00861360324792,0.00877590338514,-0.999924391821,0.0,0.647144168426,0.242257017532,0.303435237799,1.0,-0.0610514285714,-0.0802390204082,1.116
0.453389206159,0.466851234517,-0.124426929029,-1.4824482319,0.0719476381004,1.94045181427,0.141537426654,-0.0508931580999,-0.327566378461,-0.00144259841526,-0.490242712307,-0.0293198565642,0.186005101252,-0.0829360997993,0.573779018017,0.818994506734,0.00252652416225,0.0,0.818956084191,-0.573715279521,-0.0119355398449,0.0,-0.00832579634928,0.00891764635856,-0.99992557558,0.0,0.646194324982,0.240971890645,0.303570174968,1.0,-0.0667657142857,-0.0877492244898,1.132
0.452520913472,0.461773135038,-0.124460602095,-1.49034399327,0.0714308342186,1.94317742278,0.14031519173,-0.0591818048416,-0.343683216619,-0.00416461657451,-0.545254980601,-0.0350393934165,0.191685283306,-0.0836350798304,0.573742748032,0.819020176497,0.00244058864339,0.0,0.818980442587,-0.573679153558,-0.012000430568,0.0,-0.00842864221219,0.00888412542592,-0.999925012341,0.0,0.645141447138,0.23962812514,0.303549669547,1.0,-0.0721228571429,-0.0947900408163,1.147
0.451299419796,0.454791574075,-0.124543661681,-1.50115968746,0.0707180542948,1.9468670249,0.138698491467,-0.0682996697312,-0.376401855672,-0.00594914052014,-0.577696586603,-0.0473568975568,0.20103201886,-0.0896245245832,0.573784275578,0.818991488914,0.0023006709412,0.0,0.818949762261,-0.573721080799,-0.0120894681649,0.0,-0.008581393332,0.00882105048599,-0.999924271511,0.0,0.643689053399,0.237744665351,0.303526448241,1.0,-0.0789085714286,-0.103708408163,1.166
0.450127032885,0.447940722186,-0.124607754126,-1.51126808049,0.0700158873399,1.95068803651,0.137084816994,-0.0703783418623,-0.404690462392,-0.00215331827619,-0.617079871143,-0.0386327663495,0.222354397024,-0.0969018899627,0.573737152937,0.819023156779,0.00273768149751,0.0,0.818987969299,-0.573673156849,-0.0117712427038,0.0,-0.0080705413543,0.00899590068461,-0.9999269674,0.0,0.642402381089,0.235998177891,0.303748177146,1.0,-0.08498,-0.111688,1.183
0.448976198122,0.441673075304,-0.124628131127,-1.52090828218,0.0693949477004,1.9540253,0.135603093951,-0.0790293490912,-0.426135967116,0.000768647585659,-0.65112880866,-0.0444976753961,0.229955520756,-0.103538241645,0.573742262126,0.819019656132,0.00271411510653,0.0,0.818983723469,-0.573677864153,-0.0118370509032,0.0,-0.00813790628291,0.00901440601324,-0.999926254764,0.0,0.641086023776,0.234323273292,0.303740718522,1.0,-0.0903371428571,-0.118728816327,1.198
0.447509046297,0.433627557104,-0.12466794298,-1.53315442156,0.0685542318404,1.95824931073,0.133595472414,-0.082875343454,-0.461960067587,-0.0037074135856,-0.683740500118,-0.0474820274369,0.251485718384,-0.113547306631,0.573634051055,0.819095440871,0.00271682091611,0.0,0.819059422092,-0.573569522829,-0.0118495765632,0.0,-0.00814780533317,0.00902273209224,-0.999926099056,0.0,0.639395834846,0.232180793029,0.303773301099,1.0,-0.0967657142857,-0.127177795918,1.216
0.44598114437,0.425680989153,-0.124698473082,-1.54532137526,0.0676873529837,1.96253674592,0.13162207489,-0.0864122096081,-0.478261657932,-0.00124763253955,-0.718197642281,-0.0590823630221,0.255049633929,-0.123693836919,0.573574010367,0.819137417879,0.00273718165123,0.0,0.819101859364,-0.57350963148,-0.0118149688125,0.0,-0.00810843911784,0.00901896326705,-0.999926453054,0.0,0.637722921342,0.230018374248,0.30376617889,1.0,-0.102837142857,-0.135157387755,1.233
0.444502612737,0.418293620959,-0.124793161896,-1.55660988946,0.0668753523101,1.96631255312,0.129773047237,-0.102674324424,-0.506641474441,-0.0121342377039,-0.735423519581,-0.0576667064219,0.26293522056,-0.123232797816,0.573588818165,0.819127517219,0.00259328206693,0.0,0.819090185295,-0.573525084648,-0.0118740277195,0.0,-0.00823918915823,0.00893511344383,-0.999926137027,0.0,0.636135188786,0.227925633839,0.303739991562,1.0,-0.108194285714,-0.142198204082,1.248
0.442608806643,0.40897648658,-0.124873468619,-1.57064081003,0.0659146400397,1.97125310346,0.127434997421,-0.114937819587,-0.513156151679,-0.00172996560341,-0.775551067971,-0.0499080894428,0.270529486705,-0.132496327953,0.573595878917,0.819122005993,0.00276656634938,0.0,0.819086954698,-0.573531529584,-0.0117852500505,0.0,-0.0080669999472,0.00902620304944,-0.9999267229,0.0,0.634185320815,0.225343083255,0.303800000311,1.0,-0.114622857143,-0.150647183673,1.266
0.440619648356,0.399787423222,-0.124982084237,-1.58458025462,0.0649678010378,1.97589792951,0.125106166923,-0.123156982171,-0.557466033209,-0.00860160074643,-0.787208900745,-0.0562019865486,0.28731943361,-0.133985731986,0.573694056093,0.819053554738,0.00267420562861,0.0,0.819016792703,-0.573629472677,-0.0118940425494,0.0,-0.00820801269538,0.00901393437664,-0.999925685996,0.0,0.632187644767,0.222684983393,0.303771512672,1.0,-0.120694285714,-0.15862677551,1.283
0.438655538477,0.39075572163,-0.12508838087,-1.59804970413,0.0639353711085,1.98057181817,0.122796895319,-0.127256315154,-0.556046502964,-0.00575952441489,-0.872968382161,-0.0622694986947,0.290603976668,-0.146825486856,0.573724147176,0.819032048201,0.00280247540304,0.0,0.818997769387,-0.573659996369,-0.0117306950514,0.0,-0.00800030119583,0.00902557788835,-0.999927264417,0.0,0.630279921337,0.220093771363,0.303841472556,1.0,-0.126408571429,-0.166136979592,1.299
0.436430999991,0.380786514118,-0.125178666744,-1.61295911482,0.0628143957228,1.98547676923,0.120122244832,-0.130264365875,-0.599629130669,-0.0101014948232,-0.880415148756,-0.0602723227211,0.301746092733,-0.157478265503,0.573669741531,0.819070396288,0.00273138750955,0.0,0.819035224572,-0.573605885598,-0.0117616248421,0.0,-0.00806701408407,0.00898456384611,-0.999927097791,0.0,0.628078636647,0.217207764495,0.303852677655,1.0,-0.13248,-0.174116571429,1.316
0.43403589547,0.370500205356,-0.125260067384,-1.62831315746,0.0616808253831,1.99063569888,0.117395989798,-0.149441297557,-0.605057226759,-0.00440235752701,-0.920630520209,-0.0764277819464,0.301614839875,-0.160547713425,0.573702454414,0.819047325501,0.00277836107043,0.0,0.819012716447,-0.573638372764,-0.0117445516064,0.0,-0.00802572357906,0.00901356466918,-0.999927169054,0.0,0.625810339969,0.214200061454,0.303860409629,1.0,-0.138551428571,-0.182096163265,1.333
0.431790569779,0.361077913185,-0.125383662625,-1.64218580194,0.0605925518497,1.99523518886,0.114942507051,-0.154350342002,-0.638398911374,-0.00831718802681,-0.94141002109,-0.0787980768945,0.311417071309,-0.164910512062,0.573806154004,0.818974459128,0.00284250310772,0.0,0.818941199461,-0.573742420309,-0.0116487709228,0.0,-0.00790933353244,0.00901215285848,-0.999928109188,0.0,0.623744538477,0.21140246528,0.303924422423,1.0,-0.143908571429,-0.189136979592,1.348
0.428911732728,0.349565529918,-0.125480362003,-1.65951002523,0.0593078961296,2.00072031261,0.111686044473,-0.16850001355,-0.644131029279,-0.00485791885405,-0.970689839113,-0.0696782474904,0.301431553431,-0.183271614986,0.573797900692,0.818981170217,0.00256103361222,0.0,0.818943358385,-0.573734198742,-0.0118992374583,0.0,-0.00827605819062,0.00892527077987,-0.999925920457,0.0,0.621055923801,0.20790639546,0.303783333745,1.0,-0.150337142857,-0.197585959184,1.366
0.426014972031,0.338150763714,-0.125585608895,-1.67603250474,0.0580311143548,2.00618145544,0.108546459562,-0.170603042551,-0.661926421013,0.000330339913556,-0.983704754673,-0.0786600612489,0.3134012584,-0.188846007875,0.573856149685,0.818939495289,0.0028230171537,0.0,0.818905304607,-0.573791707119,-0.0117441827544,0.0,-0.00799810525391,0.00905142948684,-0.999927048307,0.0,0.618533546605,0.204500746959,0.303919656367,1.0,-0.156408571429,-0.20556555102,1.383
0.423209265303,0.327156779495,-0.125627583685,-1.69209671746,0.0566885775627,2.0112904327,0.105405569724,-0.181859530703,-0.712090450797,-0.00677906470185,-1.00138836491,-0.0948818226167,0.334783594505,-0.199913673612,0.573726741039,0.819030270124,0.00279108187887,0.0,0.818995924244,-0.573662721306,-0.0117262593012,0.0,-0.00800317578292,0.00901372675865,-0.999927348315,0.0,0.615978754486,0.201223000205,0.303933801541,1.0,-0.162122857143,-0.213075755102,1.399
0.419844995258,0.314487985677,-0.12565795407,-1.71062750894,0.055193037635,2.0170748124,0.101797080602,-0.1893862575,-0.700354870813,-0.00428189355425,-1.03462573804,-0.087558748228,0.322799818009,-0.200175362895,0.573670908192,0.819069690574,0.00269777275968,0.0,0.819033625513,-0.573606668978,-0.0118345461762,0.0,-0.00814601446433,0.00899887471334,-0.999926328637,0.0,0.612969221544,0.197399770009,0.303893063828,1.0,-0.168551428571,-0.221524734694,1.417
0.416475575585,0.302129540115,-0.125761972197,-1.72834454153,0.0536769581147,2.02267571434,0.0980904403783,-0.200071474914,-0.717712188768,-0.00649561615692,-1.05908784255,-0.0926164512488,0.319643121764,-0.219841782068,0.573532481878,0.819166201635,0.00282369117389,0.0,0.819132366352,-0.573468471652,-0.0116972354365,0.0,-0.00796283536949,0.00902189500355,-0.999927596711,0.0,0.610100206811,0.19362673637,0.303979239117,1.0,-0.174622857143,-0.229504326531,1.434
0.413282886798,0.290920848312,-0.125851440234,-1.74431185867,0.0524120948412,2.02753499771,0.0948530006015,-0.218624832392,-0.757809016408,-0.0118151672825,-1.06178762093,-0.0884522857049,0.342373127001,-0.221671238135,0.57364328184,0.8190882191,0.00293622750076,0.0,0.819055178681,-0.573578104282,-0.0117268693776,0.0,-0.00792133726081,0.00913214799793,-0.999926925475,0.0,0.60728107364,0.189925129696,0.3040558517,1.0,-0.180337142857,-0.237014530612,1.45
0.409289873907,0.277334652712,-0.12597984073,-1.76390784131,0.0507382789588,2.03337684133,0.0906517100533,-0.222841034259,-0.772361462583,-0.00847140696384,-1.09727298786,-0.102791679733,0.317257808845,-0.23324218359,0.573562902671,0.819145224466,0.00272851895048,0.0,0.819109080546,-0.573498032682,-0.0118771873223,0.0,-0.00816449821683,0.00904744287625,-0.999925739616,0.0,0.604128046626,0.185859501083,0.30397593964,1.0,-0.186408571429,-0.244994122449,1.467
0.405223621668,0.264047610669,-0.126142780858,-1.78258506525,0.0490753874399,2.03907527817,0.0865607695388,-0.247735905735,-0.794966579534,-0.0115851538535,-1.0983902676,-0.0983703027277,0.32849880457,-0.246148930107,0.573617973818,0.819106053849,0.00290509253587,0.0,0.819072880552,-0.573553219832,-0.011707573028,0.0,-0.00792367132045,0.00909533194357,-0.999927242538,0.0,0.600984344309,0.181613955509,0.304081572691,1.0,-0.19248,-0.252973714286,1.484
0.401149082876,0.251336776497,-0.126316675318,-1.80047067732,0.0475126588983,2.04432720228,0.0826060194535,-0.254527314903,-0.778209367501,-0.011873804099,-1.12000088565,-0.10205290705,0.327594840058,-0.26043736229,0.573783875898,0.8189897609,0.00292953950972,0.0,0.818956782908,-0.573718875063,-0.0117126865802,0.0,-0.00791199060015,0.00911989254162,-0.999927111326,0.0,0.59790170086,0.177457023962,0.304112324309,1.0,-0.198194285714,-0.260483918367,1.5
0.396679624603,0.237608761625,-0.126446850753,-1.81979329672,0.0457642768834,2.04985750436,0.0781320222175,-0.260137737352,-0.814142062649,-0.0110845143635,-1.11839114973,-0.0931065722948,0.335857954042,-0.263863383063,0.573752654016,0.819011987509,0.00282899771808,0.0,0.818977409013,-0.573687677163,-0.0117982837085,0.0,-0.00804012945712,0.00908635675238,-0.999926394511,0.0,0.594474650103,0.172983570718,0.30408002185,1.0,-0.204265714286,-0.268463510204,1.517
0.3917268778,0.222791288169,-0.126530769578,-1.84051382912,0.0438557714327,2.05581315611,0.0732201454374,-0.284371005515,-0.798586603165,-0.00457260778566,-1.17363790647,-0.113271527256,0.325704285835,-0.283684668664,0.573662299671,0.819075300133,0.0028223305289,0.0,0.819040433481,-0.573597131599,-0.0118256435823,0.0,-0.00806736719243,0.0090957038328,-0.999926090148,0.0,0.59074480115,0.168170004477,0.30404814598,1.0,-0.210694285714,-0.276912489796,1.535
0.387024857254,0.209195646006,-0.126671837568,-1.85905527912,0.0421011853575,2.06105967346,0.0686722985688,-0.298922880181,-0.856941180908,-0.0122209916313,-1.18260139626,-0.102337861646,0.321248994811,-0.287118826601,0.573678121177,0.819063536808,0.00301377768493,0.0,0.819031489375,-0.573612656238,-0.0116913180331,0.0,-0.00784734236059,0.00917560884812,-0.999927111054,0.0,0.587384582778,0.163702708449,0.304165896126,1.0,-0.216408571429,-0.284422693878,1.551
0.3817628853,0.194624783636,-0.126843698575,-1.8790114684,0.0401896009429,2.0664816073,0.063637406905,-0.316524576263,-0.851788942012,-0.0121696381936,-1.16839139279,-0.108020993001,0.323655652154,-0.293119129557,0.573716272775,0.819036883132,0.00299488292164,0.0,0.819004418601,-0.573650667052,-0.0117226875723,0.0,-0.00788344868619,0.00917849568136,-0.999926800548,0.0,0.583678840508,0.158800797699,0.304178130913,1.0,-0.22248,-0.292402285714,1.568
0.375799103511,0.178896553905,-0.127083918244,-1.90039740288,0.0381549018645,2.07219834273,0.0580447479453,-0.338499404547,-0.885611689599,-0.0177327500207,-1.18283344763,-0.111189479529,0.327339102728,-0.311432852591,0.573871416446,0.81892810253,0.00301780943462,0.0,0.818895462297,-0.573805158277,-0.011773235163,0.0,-0.00790995080345,0.00922777125441,-0.99992613773,0.0,0.579659547487,0.153387294246,0.304185085144,1.0,-0.228908571429,-0.300851265306,1.586
0.37032609039,0.164737137955,-0.127209368152,-1.91968348551,0.0361935530617,2.07714559231,0.0529056357154,-0.341977488164,-0.890654905883,-0.00854996861779,-1.21446801368,-0.126707821029,0.301522425593,-0.327407637666,0.573849609701,0.81894411349,0.00281270808886,0.0,0.818908434051,-0.573783679114,-0.011916925952,0.0,-0.00814556719118,0.00914204969565,-0.999925033521,0.0,0.575914372376,0.148534136216,0.304097326296,1.0,-0.234622857143,-0.308361469388,1.602
0.364690916509,0.150210870665,-0.127345662581,-1.93890763223,0.0341963136911,2.08218005968,0.0475353831388,-0.358228416196,-0.909638417935,-0.00750875456071,-1.21798274399,-0.124592714266,0.304597157541,-0.33818789763,0.57372895245,0.819027923567,0.0030160303524,0.0,0.818995475296,-0.573662970557,-0.0117454058325,0.0,-0.00788978232193,0.00920897189759,-0.999926470382,0.0,0.572166327838,0.143647866877,0.304203654733,1.0,-0.240337142857,-0.315871673469,1.618
0.358325243649,0.13453977494,-0.127506037316,-1.95954763067,0.0321038904358,2.08728294519,0.0416055104956,-0.382463296421,-0.935116308282,-0.00925022107154,-1.21719479175,-0.127475709084,0.309470242652,-0.353974522092,0.573714966057,0.81903734996,0.00311512349095,0.0,0.819005651483,-0.573648009313,-0.0117665267416,0.0,-0.00785039163569,0.00930211532886,-0.999925918257,0.0,0.568041170293,0.138275438915,0.304267447865,1.0,-0.246408571429,-0.323851265306,1.635
0.351974079662,0.11963532355,-0.127731897787,-1.97909650645,0.0299988817106,2.09200644883,0.0358047113329,-0.411356352254,-0.962604790738,-0.0173737524229,-1.21813111774,-0.134936476238,0.302563165076,-0.363517574905,0.573785977521,0.818987597579,0.00311671517468,0.0,0.818956034502,-0.573719141648,-0.0117518917915,0.0,-0.00783668535106,0.00929570239053,-0.999926085408,0.0,0.564086964297,0.133010783265,0.304288486484,1.0,-0.252122857143,-0.331361469388,1.651
0.345308973059,0.104545714572,-0.127926461106,-1.99880615602,0.0278248514339,2.09661650796,0.0297151715509,-0.408937713263,-0.935975969539,-0.00994758611376,-1.22812279613,-0.125319043311,0.268842857412,-0.383213999278,0.573787852108,0.818986548927,0.00304636675352,0.0,0.81895403471,-0.573721218071,-0.0117898205089,0.0,-0.00790809142177,0.00925986841168,-0.999925855715,0.0,0.560017318091,0.12763387581,0.30426590836,1.0,-0.257837142857,-0.338871673469,1.667
0.337164852174,0.0863174546649,-0.128095283021,-2.02227265197,0.0252930452073,2.10197330721,0.0221854451595,-0.431758030197,-0.947585604769,-0.0134451163017,-1.2468987145,-0.132723054955,0.267380021529,-0.406721912954,0.573653735154,0.819080149862,0.00313801651894,0.0,0.819048150363,-0.573585996559,-0.0118312653415,0.0,-0.00789098418265,0.00935741633967,-0.999925082758,0.0,0.555057535465,0.12125503521,0.304287802568,1.0,-0.264622857143,-0.347790040816,1.686
0.329903157992,0.0706687226472,-0.128257711127,-2.04201320355,0.023001725766,2.10635198562,0.0155626931034,-0.460792357852,-0.981927578162,-0.00310370004878,-1.26480864475,-0.136226461307,0.280535553195,-0.408281753502,0.573546266243,0.819154777339,0.00329820292825,0.0,0.819125454726,-0.573478710792,-0.0116792375545,0.0,-0.00767580185818,0.00940040605227,-0.999926354504,0.0,0.550829585538,0.115714356631,0.304394448191,1.0,-0.26998,-0.354830857143,1.702
0.32174074692,0.0540112618453,-0.128560153341,-2.06295477185,0.0205605980646,2.11074663472,0.00828334191337,-0.482802089475,-0.983649186999,-0.0179610391656,-1.21674677426,-0.143524993523,0.256845858541,-0.422583831335,0.573658341583,0.819076128435,0.00333914080193,0.0,0.819047365733,-0.57359067211,-0.0116576350881,0.0,-0.00763333756323,0.00942259550321,-0.999926470723,0.0,0.546264305665,0.109597017911,0.304437334677,1.0,-0.26998,-0.354830857143,1.719
0.313401568455,0.0375861135799,-0.128715010672,-2.08358470286,0.018183655077,2.11481848032,0.000932728108199,-0.492852080828,-0.977698416389,-0.0146898448967,-1.1856405777,-0.13456040851,0.248827178336,-0.441439199267,0.573708221405,0.819041410069,0.00328514619657,0.0,0.819010829254,-0.57363936052,-0.0118276171991,0.0,-0.00780296933644,0.00947635398661,-0.999924653354,0.0,0.541360987063,0.103231589073,0.304399668926,1.0,-0.26998,-0.354830857143,1.737
0.305355761875,0.0222053137918,-0.128896183824,-2.10264245973,0.0158127972641,2.11847571444,-0.00620873551321,-0.504351045617,-0.947269078708,-0.00953089044903,-1.18697644011,-0.149254106812,0.212404331438,-0.456459324101,0.573679819891,0.819061768387,0.00316713096989,0.0,0.819029739319,-0.573611488258,-0.0118698588782,0.0,-0.00790559710135,0.00940365400549,-0.999924533565,0.0,0.537286690837,0.0978893724068,0.304364141325,1.0,-0.26998,-0.354830857143,1.752
0.29597438207,0.00493955924377,-0.129156101149,-2.1235056017,0.013239356387,2.12232057137,-0.0144319791921,-0.527718253154,-0.954627300038,-0.0156427828713,-1.14312367719,-0.137486047232,0.20188616397,-0.455685679922,0.57379237906,0.81898224191,0.00333767431874,0.0,0.818952594182,-0.573723629767,-0.0117725116678,0.0,-0.00772672413687,0.00948855720338,-0.999925129705,0.0,0.532470462853,0.0914283059866,0.304476021403,1.0,-0.26998,-0.354830857143,1.77
0.286991717195,-0.0111958828224,-0.129283280324,-2.14282599225,0.0108491607089,2.12579277948,-0.0223825511,-0.525444474709,-0.953193022369,-0.00470450479008,-1.12718324305,-0.140682017087,0.205250377787,-0.463671606779,0.573726721977,0.819027301826,0.00356009182967,0.0,0.819000647405,-0.573657378325,-0.0116575617005,0.0,-0.00750573286845,0.00960415708378,-0.999925709311,0.0,0.527916117102,0.0854548963159,0.304567766959,1.0,-0.26998,-0.354830857143,1.787
0.278304321208,-0.0261863768387,-0.129459428046,-2.16072029547,0.0085001049425,2.12864503619,-0.0300006999322,-0.546751190551,-0.945358408365,-0.0116206017996,-1.09589688112,-0.143548222663,0.179642338791,-0.480035942763,0.573710953047,0.819038685535,0.00348150141375,0.0,0.819010868644,-0.573641685713,-0.011711547986,0.0,-0.00759522275985,0.00957061511778,-0.999925355173,0.0,0.523578668483,0.0797672003385,0.304573380867,1.0,-0.26998,-0.354830857143,1.803
0.268755736733,-0.0419732595417,-0.129712508422,-2.17943923047,0.00605923309511,2.1315838545,-0.0382616333546,-0.566409934372,-0.922286657219,-0.013241562898,-1.09915821231,-0.134497295849,0.15555050008,-0.493938990652,0.573860056581,0.818934240111,0.00347746102039,0.0,0.818906076518,-0.573790411349,-0.0117536627462,0.0,-0.00763028998695,0.00959285622121,-0.99992487507,0.0,0.518987319109,0.0736497909173,0.304555452518,1.0,-0.26998,-0.354830857143,1.82
0.259114125005,-0.0576896128584,-0.129840543608,-2.19761548891,0.00365143478501,2.13433270323,-0.0467476029832,-0.57253169483,-0.91747651673,-0.00903816241349,-1.07634070237,-0.15537178529,0.153713316184,-0.505433423972,0.573777335087,0.818991273325,0.00368928989967,0.0,0.818966275515,-0.573707554312,-0.0116029563088,0.0,-0.00738628868513,0.00967910371116,-0.999925876098,0.0,0.514447990866,0.0676845032523,0.304654163924,1.0,-0.26998,-0.354830857143,1.837
0.249209029667,-0.073173964601,-0.130042764649,-2.21553355607,0.001203169667,2.13673496514,-0.0554103466294,-0.592489755537,-0.929408710567,-0.016992147236,-1.04546276579,-0.152961692603,0.145815689504,-0.50640500255,0.573773682287,0.818993995568,0.00365289464911,0.0,0.818968286699,-0.573703703734,-0.0116512919805,0.0,-0.00744680235714,0.0096769958875,-0.999925447664,0.0,0.509854599825,0.0616534828766,0.304644158674,1.0,-0.26998,-0.354830857143,1.854
0.239009361242,-0.0885170637259,-0.130252903616,-2.23326226028,-0.00116998803226,2.1388925453,-0.0643440205404,-0.594697475879,-0.899975528404,-0.00630397061055,-1.03982120458,-0.144361538336,0.116775097916,-0.526134548234,0.573795515671,0.818979215133,0.00353529027942,0.0,0.818950616422,-0.573724185561,-0.011882494071,0.0,-0.00770338244581,0.00971353698219,-0.999923149596,0.0,0.505201206002,0.0555949300218,0.304552364293,1.0,-0.26998,-0.354830857143,1.871
0.229325647294,-0.102933146262,-0.130398922765,-2.24937709645,-0.00346691350217,2.14075138785,-0.0728872502179,-0.619410071378,-0.894975712183,-0.0104603191157,-1.0169892323,-0.153009636297,0.103592213294,-0.540924464807,0.573676723635,0.81906198423,0.00363725843911,0.0,0.819035139132,-0.573605603034,-0.0117813384785,0.0,-0.0075634402704,0.00973790961506,-0.999923980854,0.0,0.500908183869,0.0499899063903,0.304630292651,1.0,-0.26998,-0.354830857143,1.887
0.218615260798,-0.118003788081,-0.130681124491,-2.26629430621,-0.00591416548804,2.14245879916,-0.0821064362559,-0.638446169935,-0.877689710119,-0.023943706135,-0.968342301696,-0.151948633347,0.101038477413,-0.553347706086,0.573850492643,0.81894069416,0.00353531375972,0.0,0.81891199917,-0.573779032726,-0.0118956344713,0.0,-0.00771347875034,0.00972161373152,-0.999922993271,0.0,0.496299751621,0.0438736282767,0.304587884934,1.0,-0.26998,-0.354830857143,1.904
0.207156227255,-0.133928456763,-0.130842450932,-2.28389932418,-0.00838182285329,2.14405263451,-0.0922352839388,-0.635835238211,-0.897960039805,-0.0134663267085,-0.985101877527,-0.148930163037,0.0796463914651,-0.564279205872,0.573742983741,0.819015971226,0.00354603806242,0.0,0.818986357593,-0.573670169549,-0.0120262025553,0.0,-0.00781554618301,0.00980429489686,-0.99992139343,0.0,0.49138757477,0.0375571623675,0.304570393003,1.0,-0.26998,-0.354830857143,1.922
0.195979143008,-0.148783877027,-0.131098282653,-2.29995975481,-0.0107923182121,2.1454885494,-0.102008997085,-0.666554269721,-0.868581545679,-0.0233414841852,-0.948659545457,-0.146439773616,0.0855809864671,-0.573329236518,0.573786448632,0.818984819595,0.00370452969043,0.0,0.818958053271,-0.573714053346,-0.0118591263259,0.0,-0.00758724976822,0.00983864982648,-0.999922814326,0.0,0.486860224017,0.031490432078,0.304639919048,1.0,-0.26998,-0.354830857143,1.939
0.185915486984,-0.161760849549,-0.13130095262,-2.31398837361,-0.0129042015628,2.14636204775,-0.110820806603,-0.66018497121,-0.874984629851,-0.00330931653542,-0.927121409926,-0.135457834896,0.0483391404732,-0.592514387799,0.573800948578,0.818975100618,0.00360595061066,0.0,0.818946259967,-0.573727891818,-0.012003180319,0.0,-0.00776162080289,0.0098407054833,-0.999921455794,0.0,0.482765376966,0.0261502305534,0.304610604835,1.0,-0.26998,-0.354830857143,1.954
0.17375622337,-0.177194351341,-0.131492733856,-2.33030365826,-0.0152883664246,2.14737200583,-0.121643251766,-0.690129146404,-0.855846378445,-0.0086510804159,-0.915708591116,-0.139526093832,0.0504935905342,-0.602006586893,0.573687322035,0.819053987228,0.0037642320153,0.0,0.819026839574,-0.573613223723,-0.0119855132932,0.0,-0.00765771662538,0.00995913581951,-0.999921084381,0.0,0.477665704776,0.0195200745548,0.304662914317,1.0,-0.26998,-0.354830857143,1.973
0.161048396086,-0.192468820952,-0.13180312283,-2.34625588296,-0.0178430078327,2.1481751609,-0.132752973387,-0.704704561831,-0.842290059627,-0.0154557406316,-0.85262371423,-0.137114562446,0.055938504791,-0.622661960584,0.57378571766,0.818984611045,0.00386056750014,0.0,0.818959496373,-0.573712287091,-0.011844907898,0.0,-0.00748608640812,0.00995827912225,-0.999922392582,0.0,0.473116945864,0.0134010465555,0.304724516443,1.0,-0.26998,-0.354830857143,1.99
0.151157254635,-0.20416249401,-0.131937817458,-2.35846419071,-0.0196835751671,2.14860873277,-0.141616347336,-0.719079814367,-0.831556107901,-0.013057542514,-0.853862361278,-0.12806983631,0.0195807585286,-0.636429264163,0.573638918587,0.819087316882,0.00388655458232,0.0,0.819061700553,-0.573564302561,-0.0119443885125,0.0,-0.0075544536168,0.0100352873254,-0.999921108507,0.0,0.469050613986,0.00817553039766,0.304703675594,1.0,-0.26998,-0.354830857143,2.005
0.137934797935,-0.219148134903,-0.132303149138,-2.37376040729,-0.022119419958,2.14899605351,-0.153188390913,-0.741192263965,-0.862640319385,-0.0226162350827,-0.840462750944,-0.142566236464,0.0239740981212,-0.64518922893,0.573848187487,0.818940206688,0.0039928046059,0.0,0.818916082454,-0.573773309735,-0.0118905775606,0.0,-0.00744685070621,0.0100933526155,-0.999921331229,0.0,0.464482946237,0.00204501726599,0.304751177018,1.0,-0.26998,-0.354830857143,2.022
0.125376934255,-0.233050020118,-0.132470652192,-2.38800613346,-0.0244376706218,2.14915570181,-0.164403793388,-0.75020010374,-0.853055893963,-0.011324668126,-0.812152813883,-0.144782656469,0.0062331741188,-0.669705320401,0.573689348162,0.819051968975,0.00389240597015,0.0,0.8190259957,-0.573614128278,-0.0119998795042,0.0,-0.00759593212313,0.0100723786507,-0.999920421335,0.0,0.459846435105,-0.00390077969901,0.304691357893,1.0,-0.26998,-0.354830857143,2.039
0.11314494428,-0.246042931112,-0.132815582096,-2.40086331604,-0.0264978292529,2.14923411877,-0.175233798292,-0.783154089097,-0.824243911655,-0.0279924550155,-0.785714446851,-0.124610860325,0.00494907297257,-0.680123286878,0.573849118802,0.818938876677,0.00412940897277,0.0,0.818916340874,-0.573773508885,-0.0118631384045,0.0,-0.00734598119585,0.0101894881848,-0.999921102333,0.0,0.455584668568,-0.00964456288023,0.304777100041,1.0,-0.26998,-0.354830857143,2.055
0.10001604815,-0.259620748448,-0.133022316611,-2.41443444432,-0.028712038296,2.14913893227,-0.1870227626,-0.779111165694,-0.793813801197,-0.0167115351567,-0.815794402071,-0.122317057749,-0.00881265591468,-0.695805549082,0.573739549379,0.819015599495,0.00413813514054,0.0,0.818992736197,-0.573663315021,-0.0119183034467,0.0,-0.00738752235234,0.0102273015776,-0.999920410241,0.0,0.450966953005,-0.0156175423427,0.304734518076,1.0,-0.26998,-0.354830857143,2.072
0.0865155557191,-0.273059755768,-0.133374308673,-2.42736611642,-0.0309315781073,2.14892151616,-0.199028875057,-0.799843575233,-0.790294631781,-0.0215752558936,-0.769240930301,-0.12618429355,-0.0171254395321,-0.710391787702,0.573864166752,0.81892710215,0.00436650714831,0.0,0.81890842847,-0.573788890486,-0.0116636974162,0.0,-0.00704640029852,0.0102693452224,-0.999922441388,0.0,0.446458140458,-0.0217071817278,0.304847184468,1.0,-0.26998,-0.354830857143,2.089
0.0737250902148,-0.285440665858,-0.133549599338,-2.4394391943,-0.0329687253035,2.14847355167,-0.210648392643,-0.800044864207,-0.788859316372,-0.0157092590131,-0.741390740801,-0.121010983882,-0.0335040683402,-0.737034105724,0.573674249187,0.819060322337,0.00433486965271,0.0,0.819040749074,-0.573598394219,-0.0117422487688,0.0,-0.00713127308873,0.0102868586876,-0.999921659673,0.0,0.442119754613,-0.0272869094903,0.304808584718,1.0,-0.26998,-0.354830857143,2.105
0.059656386991,-0.298449767133,-0.133873600887,-2.45170242855,-0.0350985561893,2.14792213526,-0.223253634654,-0.830622893094,-0.764765990096,-0.0203098061502,-0.704560861511,-0.129877685141,-0.0357786092918,-0.739029231411,0.573765845268,0.81899512129,0.00452692029538,0.0,0.81897896757,-0.573690755862,-0.0115375135025,0.0,-0.00685224687139,0.0103274825329,-0.999923191959,0.0,0.437326618938,-0.0337259749686,0.304902650137,1.0,-0.26998,-0.354830857143,2.123
0.0446798814299,-0.311949557803,-0.134096896462,-2.464553576,-0.0373089378901,2.1470912291,-0.236835411802,-0.828989209551,-0.7445804824,-0.0165210426426,-0.709730767547,-0.115120239114,-0.0556214296217,-0.746889841485,0.573664191179,0.819066498235,0.00449601265536,0.0,0.819049106192,-0.573587956955,-0.0116689409806,0.0,-0.00697891427939,0.0103767085201,-0.999921806281,0.0,0.432708378205,-0.0396573645924,0.304853425109,1.0,-0.26998,-0.354830857143,2.14
0.0308858442956,-0.323725197314,-0.134440921188,-2.47546058585,-0.0392919058152,2.14626571515,-0.249254322704,-0.86283026442,-0.741310232693,-0.0173973242024,-0.664243904384,-0.128820887228,-0.0422425882334,-0.787475175073,0.573783233132,0.818982658372,0.00457750641041,0.0,0.81896667776,-0.573707263461,-0.0115889375064,0.0,-0.00686512234541,0.0103985634529,-0.999922366973,0.0,0.428420753884,-0.0454116375482,0.304893510311,1.0,-0.26998,-0.354830857143,2.156
0.0162183528307,-0.336004002701,-0.134638715484,-2.48683437494,-0.0412418713761,2.14530947384,-0.262767449034,-0.872553310738,-0.711604933718,-0.00849394462928,-0.664619385763,-0.125197945652,-0.0722604367251,-0.79897853948,0.573591436015,0.819116518168,0.0046627346907,0.0,0.819101316343,-0.573514744857,-0.0116024953692,0.0,-0.00682978000681,0.0104745457705,-0.999921815942,0.0,0.423847937417,-0.0513256131888,0.304882680018,1.0,-0.26998,-0.354830857143,2.173
0.000173106747699,-0.348706217617,-0.134995396107,-2.49844407285,-0.0434067007181,2.14400991623,-0.277345986175,-0.885786000674,-0.713426822313,-0.00351430599229,-0.620284697545,-0.109952411978,-0.0761155235037,-0.82186867076,0.573655733921,0.819071766234,0.00461384854435,0.0,0.819055309884,-0.573578239597,-0.011711076513,0.0,-0.00694594272908,0.0104973254473,-0.999920776881,0.0,0.418966843198,-0.0577513286483,0.304861583982,1.0,-0.26998,-0.354830857143,2.191
-0.0133330964194,-0.359134933337,-0.135260102065,-2.50767179234,-0.0451761702851,2.14302553284,-0.289780469579,-0.915939529298,-0.682758580904,-0.0198617039389,-0.624805915564,-0.121606905992,-0.0676455419006,-0.835531010727,0.573580666146,0.819123517276,0.00475707589989,0.0,0.819110309255,-0.573504903094,-0.0114531349357,0.0,-0.00665345391901,0.0104660681817,-0.999923093527,0.0,0.414995417537,-0.0630633295761,0.30495093302,1.0,-0.26998,-0.354830857143,2.206
-0.0289430536929,-0.370650781486,-0.135553743798,-2.51807226096,-0.0470592882852,2.14161146535,-0.304145995456,-0.914226091843,-0.667146978615,-0.0110151951019,-0.600516918931,-0.115335640412,-0.0854900262198,-0.850188533707,0.573560363248,0.819137929652,0.00472322106924,0.0,0.819122918664,-0.57348257857,-0.0116671803203,0.0,-0.00684847678888,0.010560934141,-0.99992077938,0.0,0.410349860234,-0.0690624670463,0.3048859711,1.0,-0.26998,-0.354830857143,2.223
-0.0448671060734,-0.381920602828,-0.135918099964,-2.52787213328,-0.0489739438477,2.14016444433,-0.318744303904,-0.952120258763,-0.651613227411,-0.024932953891,-0.560803301267,-0.1201814751,-0.0722307303181,-0.86600829796,0.573656605977,0.819070052581,0.00480565142715,0.0,0.819056535415,-0.573579215426,-0.0115768011981,0.0,-0.00672591888567,0.0105774123397,-0.999921437096,0.0,0.405788125912,-0.0751313330502,0.304945608747,1.0,-0.26998,-0.354830857143,2.24
-0.0609622350967,-0.392820826612,-0.136172826967,-2.53742670917,-0.0508012407289,2.13873616967,-0.333713819569,-0.951125269158,-0.63918896709,-0.0161651760553,-0.555726169633,-0.104130684477,-0.0919571030087,-0.891703264357,0.573544290786,0.819148526153,0.00483585649342,0.0,0.81913538051,-0.573466797583,-0.0115675134492,0.0,-0.00670243749902,0.0105959064503,-0.99992139896,0.0,0.401217301541,-0.0811060872154,0.304930275295,1.0,-0.26998,-0.354830857143,2.257
-0.0774273262169,-0.403430824553,-0.136523404262,-2.54667066182,-0.0526248378505,2.13704239408,-0.348952716686,-0.955726576268,-0.611539346056,-0.0132523670588,-0.535975679986,-0.0989360651588,-0.0956333720523,-0.900163811623,0.573590398425,0.81911664976,0.00476611191205,0.0,0.819101310378,-0.573511105527,-0.0117814292508,0.0,-0.00691707992082,0.0106618484842,-0.999919236235,0.0,0.396568408767,-0.0871475729457,0.30487631303,1.0,-0.26998,-0.354830857143,2.274
-0.0940897329237,-0.413792490847,-0.136852019972,-2.55528525874,-0.0542641314562,2.13553887872,-0.364536960473,-0.999737095262,-0.601722151589,-0.0256967188735,-0.496763931197,-0.104615995444,-0.0897501617334,-0.924131510238,0.573597106696,0.819110341046,0.00503540298012,0.0,0.819099661954,-0.573518827877,-0.0115171506052,0.0,-0.0065460447767,0.0107309077466,-0.999920995337,0.0,0.392068848312,-0.093169526441,0.304989740145,1.0,-0.26998,-0.354830857143,2.291
-0.110062141132,-0.423164118808,-0.137126092996,-2.56319531697,-0.0558871572953,2.13391595736,-0.379482374125,-0.994686494225,-0.574713264821,-0.019486480639,-0.490271946024,-0.0900540702485,-0.118829747457,-0.951338151703,0.573552683168,0.819141559154,0.00501723019998,0.0,0.819130355485,-0.573473993065,-0.0115666288652,0.0,-0.00659758238979,0.0107440434342,-0.99992051556,0.0,0.387742190232,-0.0988401278079,0.304987339202,1.0,-0.26998,-0.354830857143,2.307
-0.127289851911,-0.432747716802,-0.137481500584,-2.5713815573,-0.0576179233443,2.1321311497,-0.395565743725,-1.01484846435,-0.554548666997,-0.0178733749206,-0.472875847086,-0.103692166665,-0.0973514112098,-0.944504926297,0.573596794683,0.819111381862,0.0048998096466,0.0,0.819097264634,-0.573516249578,-0.0118122580344,0.0,-0.00686556673273,0.0107891017489,-0.999918226295,0.0,0.383079175157,-0.104877736721,0.304899797517,1.0,-0.26998,-0.354830857143,2.324
-0.14574243318,-0.442533473875,-0.137825334897,-2.57934129027,-0.0591868203926,2.13039077474,-0.412997649643,-1.04574550965,-0.535572378998,-0.0302619940653,-0.422271987866,-0.0869504887006,-0.0915399157488,-0.973841980838,0.57360297914,0.81910575604,0.00511171641021,0.0,0.819094901731,-0.57352255625,-0.0116690330522,0.0,-0.00662661506092,0.010880582458,-0.999918847156,0.0,0.37828956329,-0.11124937949,0.304969329907,1.0,-0.26998,-0.354830857143,2.342
-0.161402333739,-0.450363844744,-0.138063579045,-2.58567590425,-0.060517673684,2.12891320634,-0.427725172011,-1.03825924336,-0.50394627287,-0.0178524331524,-0.427040669228,-0.0825120273917,-0.11379576772,-0.971301044504,0.573637819312,0.819080840114,0.00519389212572,0.0,0.819071578161,-0.573558009351,-0.0115631595676,0.0,-0.00649228902129,0.010887444676,-0.999919653638,0.0,0.374277561323,-0.116576329447,0.305012678074,1.0,-0.26998,-0.354830857143,2.357
-0.18037296585,-0.459332042685,-0.138401719216,-2.59307264523,-0.0621926820838,2.12694891012,-0.445769362801,-1.05475833015,-0.486600284684,-0.0106970677326,-0.390523774088,-0.0971748130634,-0.097156019466,-1.01016257876,0.573530932643,0.819156462893,0.00507005943721,0.0,0.819144311653,-0.573449427906,-0.0117939485175,0.0,-0.00675379649898,0.0109175148365,-0.999917593656,0.0,0.369356664637,-0.122942998602,0.304949601727,1.0,-0.26998,-0.354830857143,2.375
-0.198529952674,-0.46732054477,-0.138709588792,-2.59961301798,-0.0635508628702,2.12531615626,-0.463063818178,-1.0838060305,-0.456636628649,-0.0348304067265,-0.374994070283,-0.0897829026091,-0.0972917250859,-1.01791987497,0.573526559978,0.819159074658,0.00514220841358,0.0,0.819147138256,-0.573443632708,-0.0118790949016,0.0,-0.0067822322935,0.0110254140142,-0.999916217276,0.0,0.364770271877,-0.12894851837,0.304904386723,1.0,-0.26998,-0.354830857143,2.392
-0.215855949469,-0.474582348266,-0.138924049429,-2.60519804443,-0.0648415103618,2.1237643023,-0.479516086884,-1.07511078852,-0.441042038878,-0.0106318300635,-0.342362196484,-0.0644536954831,-0.096965365806,-1.02375220355,0.573536034259,0.819151931577,0.00522276753157,0.0,0.819142446577,-0.573455151711,-0.0116442300201,0.0,-0.00654349654812,0.0109567870336,-0.999918562419,0.0,0.360517978913,-0.134626782553,0.305005356168,1.0,-0.26748,-0.351545142857,2.408
-0.234288271858,-0.481650990764,-0.139135667704,-2.61080308447,-0.0660274304241,2.12217760914,-0.497116729059,-1.07964383218,-0.407822111687,-0.0048017281983,-0.32761461219,-0.074971058591,-0.0900788408252,-1.03356340417,0.573551013612,0.819140911622,0.00530552482009,0.0,0.819132236386,-0.573469419476,-0.011659808731,0.0,-0.00650859542525,0.0110336339589,-0.999917945187,0.0,0.356013382171,-0.140569009514,0.305005104976,1.0,-0.261408571429,-0.34356555102,2.425
-0.252611063819,-0.488141627508,-0.139277857726,-2.61606898679,-0.067042372361,2.12053675999,-0.514573924143,-1.09156276375,-0.368402722546,-0.0146350338445,-0.299770115851,-0.065214068758,-0.0956369841488,-1.02685313253,0.573633321098,0.819082937184,0.0053574099489,0.0,0.819072809659,-0.573547950124,-0.0119678020471,0.0,-0.00673002053195,0.0112534555177,-0.999914029586,0.0,0.351527714753,-0.146354133346,0.304922890726,1.0,-0.255337142857,-0.335585959184,2.442
-0.269707419794,-0.493769084739,-0.139274633999,-2.62049797687,-0.0679446968507,2.11920500404,-0.530882062855,-1.05701149146,-0.341465073749,0.00174942924834,-0.264720779982,-0.0468941835135,-0.0729152351964,-1.01065018171,0.573639083783,0.819078603709,0.00540272195329,0.0,0.819068886971,-0.573553239044,-0.0119827909826,0.0,-0.00671622833881,0.0112992162422,-0.999913606263,0.0,0.347458691393,-0.15168988856,0.304914184585,1.0,-0.249622857143,-0.328075755102,2.458
-0.288753785664,-0.499488632467,-0.139273061452,-2.6248881836,-0.0688309868505,2.1178056996,-0.549009811268,-1.0477889458,-0.294048365959,0.00919306311989,-0.23350896161,-0.0462838847485,-0.0760104582613,-0.995950801779,0.573759503961,0.818993581099,0.005503874576,0.0,0.818985360552,-0.573673557647,-0.0119321146706,0.0,-0.00661502537505,0.0113539754979,-0.999913660613,0.0,0.343007313708,-0.15759944692,0.30494206905,1.0,-0.243194285714,-0.31962677551,2.476
-0.306412255172,-0.504351886744,-0.139246392432,-2.62859882176,-0.0695382351862,2.1165937898,-0.565881625056,-1.03656443906,-0.27576199513,0.00217551389387,-0.206526102064,-0.048411744109,-0.0740310586816,-0.991929827868,0.573868112396,0.818916620891,0.00563067533794,0.0,0.818910166586,-0.573781872219,-0.0118848254855,0.0,-0.00650202687338,0.0114315597394,-0.999913517805,0.0,0.338916360489,-0.163020095884,0.304966933631,1.0,-0.237122857143,-0.311647183674,2.493
-0.322716588632,-0.508484645995,-0.139147117903,-2.63170540707,-0.0701473067296,2.11558967285,-0.58159644069,-1.01221524196,-0.248915260998,0.00688005435258,-0.192948449168,-0.041576216671,-0.0604031472195,-0.972697806154,0.573839055529,0.818936340083,0.00572329825785,0.0,0.818931793909,-0.573753738101,-0.0117520993884,0.0,-0.00634057956755,0.0114310246056,-0.999914560714,0.0,0.335186361545,-0.167977378501,0.30500785061,1.0,-0.231408571429,-0.304136979592,2.509
-0.339839841178,-0.512408933214,-0.139043274779,-2.63471845942,-0.0707564094873,2.11448666181,-0.59801624584,-0.976761062638,-0.212078140884,0.0139424286847,-0.168278633625,-0.0298963160521,-0.0658157126551,-0.965833192871,0.573905289406,0.818889692842,0.00575644426917,0.0,0.818885104002,-0.573818986234,-0.0118196608204,0.0,-0.00637596416092,0.0114974536895,-0.999913574085,0.0,0.33124791396,-0.173133495982,0.305000649065,1.0,-0.225337142857,-0.296157387755,2.526
-0.357569630786,-0.515985963189,-0.138898908444,-2.63759457011,-0.0711895450977,2.11345661068,-0.61510211515,-0.984082335453,-0.191131250354,0.00584860369722,-0.150166689016,-0.0245739215259,-0.0546855326625,-0.944484982767,0.573977892786,0.818837995948,0.00587042467533,0.0,0.818833355515,-0.573888361435,-0.0120345920752,0.0,-0.0064855377258,0.0117147148796,-0.999910347609,0.0,0.327184891641,-0.178399485431,0.304930448484,1.0,-0.218908571429,-0.287708408163,2.544
-0.372962172748,-0.518701136903,-0.138674822068,-2.63978254878,-0.0715772992743,2.112698064,-0.629946881684,-0.95643403521,-0.162330216085,0.010618692592,-0.133406367104,-0.0179020510127,-0.050372609245,-0.914937810732,0.57397431317,0.818840415901,0.00588285723992,0.0,0.818835192806,-0.573883389379,-0.0121461647397,0.0,-0.0065698230244,0.0117889040793,-0.999908925436,0.0,0.323709977565,-0.182941745884,0.304877316765,1.0,-0.213194285714,-0.280198204082,2.56
-0.389059743809,-0.521263503826,-0.138492857221,-2.64173478347,-0.0719157464282,2.11195834698,-0.645457325324,-0.936983688748,-0.153470361865,0.0151661684766,-0.109785774594,-0.0124838566486,-0.0476983537651,-0.904443221863,0.574066905409,0.818774937577,0.00596125923138,0.0,0.818770543037,-0.573975270548,-0.0121627938973,0.0,-0.00653710129334,0.0118633893188,-0.999908258942,0.0,0.320103861534,-0.187697056199,0.304873546563,1.0,-0.207122857143,-0.272218612245,2.577
-0.404618789781,-0.523443918556,-0.138213333267,-2.64337030833,-0.0721654400664,2.11130002809,-0.660631217891,-0.919238351396,-0.113001826,0.0110800381413,-0.0876775142133,-0.0182733060059,-0.0375697357473,-0.879193207371,0.573981395106,0.818834437166,0.006022415249,0.0,0.818830780505,-0.573889399293,-0.0121596536817,0.0,-0.00650066806706,0.0119109832864,-0.999907930658,0.0,0.316648043058,-0.192244635719,0.304881298614,1.0,-0.201051428571,-0.264239020408,2.594
-0.418198146473,-0.525104720847,-0.138026294882,-2.64455938304,-0.0723671434449,2.11080309584,-0.673720014033,-0.882575981452,-0.0982981891998,0.0194723875535,-0.0719456728097,-0.0102329177223,-0.0256357755523,-0.868584010466,0.574094191603,0.818754820132,0.00609512741703,0.0,0.818752499333,-0.574002569847,-0.0120889017789,0.0,-0.00639935100798,0.0119307988054,-0.999908347973,0.0,0.31364583062,-0.196229625712,0.304911727839,1.0,-0.195694285714,-0.257198204082,2.609
-0.4339966154,-0.526728264771,-0.137780963128,-2.64575456767,-0.0725417656095,2.11032362115,-0.689053561164,-0.878580659149,-0.0853904111433,0.00859238342519,-0.066034863993,-0.00835593707728,-0.0255304549163,-0.85596058011,0.574156372696,0.818710564808,0.00618204379923,0.0,0.818709683438,-0.574064940343,-0.0120268622238,0.0,-0.00629774581044,0.0119668291098,-0.999908562519,0.0,0.310161040813,-0.200839682188,0.30492797794,1.0,-0.189265714286,-0.24874922449,2.627
-0.449280912898,-0.528004065924,-0.137438245633,-2.64671086239,-0.0726532999002,2.10990196373,-0.703957930977,-0.834326223955,-0.0619110604942,0.017077651828,-0.0478241993564,-0.00164960111554,-0.0127166839417,-0.81101444146,0.574121503451,0.818734680973,0.00622642340682,0.0,0.818734422581,-0.574029974013,-0.0120117075366,0.0,-0.00626036840296,0.0119941976881,-0.999908469316,0.0,0.306802068667,-0.205251756302,0.304932513009,1.0,-0.182837142857,-0.240300244898,2.645
-0.461777233483,-0.528800575107,-0.13720340492,-2.64733639286,-0.0727189509316,2.10961535885,-0.716011833023,-0.825866454269,-0.048619806722,0.00938023668247,-0.0376658677887,-0.00279328680101,-0.0149321829751,-0.807345565728,0.574253381249,0.818641797699,0.00627758598153,0.0,0.818642017006,-0.574161239172,-0.0120360428061,0.0,-0.00624898148604,0.0120510659485,-0.999907856775,0.0,0.304049564714,-0.208863072984,0.304920692418,1.0,-0.17748,-0.233259428572,2.66
-0.475364901449,-0.529439594466,-0.136793675552,-2.64783873626,-0.0727456279684,2.10935748705,-0.729326452461,-0.782242172345,-0.0346630376531,0.0205202949788,-0.0274873673394,-0.000904622844482,-0.00958209330368,-0.775455704447,0.574147179477,0.818716318958,0.0062731388827,0.0,0.818716401992,-0.574054928966,-0.0120473457522,0.0,-0.00626235284146,0.0120531033387,-0.999907748563,0.0,0.30109040241,-0.212746753171,0.304914226699,1.0,-0.171408571429,-0.225279836735,2.677
-0.489425622319,-0.529852540115,-0.136477556179,-2.64817649018,-0.0727690869022,2.10913256007,-0.742948900725,-0.780580072484,-0.0233355301724,0.0127356262834,-0.0154521969397,-0.000717283835951,-0.00846923015122,-0.746456451115,0.574253482364,0.818641572998,0.0062976070238,0.0,0.818641682471,-0.574160537234,-0.0120921505973,0.0,-0.00628342072916,0.0120996761555,-0.999907053911,0.0,0.298006108667,-0.216789488298,0.3049003463,1.0,-0.16498,-0.216830857143,2.695
-0.500569039063,-0.530017112881,-0.136066407082,-2.64831581279,-0.0727571342096,2.10901308232,-0.753990388208,-0.738631355745,-0.0122463017272,0.0243542161527,-0.00948609554653,0.00118100129115,-0.00411976060304,-0.719110770457,0.574044136481,0.818788749489,0.00624979864936,0.0,0.818788245649,-0.573951469499,-0.0120940625654,0.0,-0.00631552283869,0.0120600195664,-0.999907330756,0.0,0.295594667082,-0.219952798856,0.304897496529,1.0,-0.159622857143,-0.209790040816,2.71
-0.51301667304,-0.530079619699,-0.135744030607,-2.6483941868,-0.072760066542,2.10891668141,-0.76605431134,-0.739664671568,0.00361125031796,0.0122147258522,-0.00319297932541,0.00191315667322,-0.00890396729929,-0.700586126282,0.574125472018,0.818731822789,0.00623631570521,0.0,0.818731039202,-0.574032649449,-0.01211402967,0.0,-0.00633841480013,0.0120610704534,-0.99990717323,0.0,0.292858086405,-0.223509638085,0.304884753686,1.0,-0.153551428571,-0.20181044898,2.727
-0.525552766508,-0.53000535674,-0.135306799203,-2.64834641517,-0.0727141698468,2.1088586455,-0.778387490429,-0.675723402681,0.00411446970283,0.0235965699679,0.00516119776197,0.00258151453946,0.00593731299275,-0.679532235728,0.574005774067,0.818816053491,0.00619586839871,0.0,0.818814845535,-0.57391335292,-0.0121020234846,0.0,-0.00635356182769,0.0120201318087,-0.99990757007,0.0,0.290119614721,-0.227057044608,0.304885711684,1.0,-0.147122857143,-0.193361469388,2.745
-0.535676646697,-0.529824491765,-0.134993936968,-2.64821781686,-0.0727003679757,2.10885523762,-0.788233310452,-0.670558869402,0.0120390800674,0.0226106919629,0.0101949658479,0.00266330602466,-0.000424481727591,-0.640721585781,0.574049193293,0.818785976363,0.00614780387229,0.0,0.81878428621,-0.573957246718,-0.0120879484005,0.0,-0.00636898867223,0.0119730327512,-0.999908037006,0.0,0.287745626966,-0.230125022103,0.304884232384,1.0,-0.141408571429,-0.185851265306,2.761
-0.547385946341,-0.52946563812,-0.134582663255,-2.64795684366,-0.072635460447,2.10887671425,-0.799646046034,-0.627973248179,0.0176926121764,0.0224138559918,0.0150856811699,0.011256315927,0.00164061417037,-0.625894012268,0.574021902247,0.818805478838,0.00609839869981,0.0,0.818803272914,-0.573930416371,-0.0120757745009,0.0,-0.00638777680208,0.0119253774655,-0.999908486653,0.0,0.285327857716,-0.233244589331,0.30488600739,1.0,-0.135337142857,-0.177871673469,2.778
-0.558391235505,-0.528905163868,-0.134101915783,-2.64758566587,-0.0724861877772,2.10893122597,-0.81053794777,-0.615222699846,0.0317908241342,0.0250399158554,0.0256500817353,0.0142235847534,0.0036383627157,-0.591830665413,0.573860881647,0.818918623535,0.00605998717529,0.0,0.818915602002,-0.573769012484,-0.0121286443001,0.0,-0.00645546412605,0.0119230021117,-0.999908080277,0.0,0.282938172612,-0.236329456536,0.304867144134,1.0,-0.128908571429,-0.169422693878,2.796
-0.567988628898,-0.528349167743,-0.133786452493,-2.64716623551,-0.0723248414724,2.10903522967,-0.819777927786,-0.587807338408,0.043517642506,0.0176462323642,0.0346661386853,0.00347178836881,0.0111293989441,-0.562318103672,0.574023637997,0.818804307458,0.00609229101609,0.0,0.818801905129,-0.573931960468,-0.0120951152204,0.0,-0.00640709527153,0.0119314912496,-0.999908290118,0.0,0.280840426305,-0.239049387581,0.304871739581,1.0,-0.123194285714,-0.161912489796,2.812
-0.577410409103,-0.527594204611,-0.13331170905,-2.6466400273,-0.0720893249111,2.10915993428,-0.829201738598,-0.541619197487,0.0431186461911,0.0262339381093,0.0336024145507,0.0100516709304,0.0109973233214,-0.543862774006,0.57381740929,0.818948835437,0.00609365512255,0.0,0.818946217394,-0.573725335258,-0.0121276378329,0.0,-0.00643595446379,0.0119496556027,-0.999907887868,0.0,0.278822042834,-0.241682778801,0.304857878738,1.0,-0.117122857143,-0.153932897959,2.829
-0.58660985601,-0.526801243789,-0.132930266625,-2.64606842542,-0.0718830304594,2.10929004363,-0.838134805863,-0.529241513333,0.0474556496167,0.0231021913413,0.0301847978509,0.0133317918531,0.00859087033482,-0.514213750898,0.573886623485,0.81890023154,0.0061074602237,0.0,0.818897615971,-0.573794143706,-0.012154098377,0.0,-0.00644869322317,0.0119766896843,-0.99990748235,0.0,0.27682300591,-0.244273115104,0.304848608239,1.0,-0.111051428572,-0.145953306123,2.846
-0.59488447753,-0.525988089394,-0.132592463983,-2.64544163735,-0.0716737988878,2.10943104994,-0.84613362505,-0.505126798546,0.0599555252795,0.0255472060766,0.0398739949523,0.0192238380021,0.0144390988519,-0.505546266818,0.573998231591,0.818821841938,0.00612929009304,0.0,0.818819580111,-0.573905759055,-0.012141740085,0.0,-0.00642441078722,0.0119883508905,-0.999907498916,0.0,0.275034097506,-0.246616940964,0.304856631934,1.0,-0.105337142857,-0.138443102041,2.862
-0.603374492257,-0.524993327085,-0.132079192573,-2.64472747046,-0.0713485971695,2.10959996887,-0.854639129331,-0.461778184558,0.0553579355321,0.0297225686262,0.037246664242,0.0205512034563,0.00982115068151,-0.468874765824,0.573801648423,0.818959413466,0.00615583169225,0.0,0.818957159714,-0.573708467299,-0.0121865500932,0.0,-0.00644876131002,0.0120342566672,-0.999906790728,0.0,0.273239363915,-0.248977397531,0.304844477937,1.0,-0.0989085714286,-0.129994122449,2.88
-0.610736832289,-0.524156626322,-0.131703204216,-2.64409102602,-0.0711294990733,2.1097493107,-0.861731395,-0.452134168928,0.0562281671576,0.0310762829226,0.0408169530034,0.00648449530072,0.0108142533283,-0.430925574337,0.57388583172,0.818900423263,0.00615595907656,0.0,0.818898186241,-0.573792660031,-0.0121856788107,0.0,-0.00644673752193,0.0120345238436,-0.999906800563,0.0,0.271652067943,-0.251040903883,0.304849406504,1.0,-0.0931942857144,-0.122483918367,2.896
-0.617685737816,-0.523294745712,-0.131339876923,-2.6434091084,-0.0708716306258,2.1099149936,-0.86844401706,-0.425282449615,0.0561027394261,0.0184930676419,0.0412515568075,0.0061255317813,0.013636510548,-0.411976152127,0.573969895664,0.818841287325,0.00618481558519,0.0,0.818839643259,-0.573876980813,-0.012148926784,0.0,-0.0063988427501,0.0120377221895,-0.99990706971,0.0,0.270167451637,-0.252994669541,0.304866616459,1.0,-0.0874800000001,-0.114973714286,2.912
-0.624468575539,-0.52232428535,-0.130901683172,-2.64268394785,-0.0705695418955,2.11010093488,-0.875109370113,-0.385067406991,0.0572891908259,0.0303219274393,0.0369826622479,0.0138830426006,0.00674652440455,-0.375058374046,0.573924901974,0.818872651184,0.00620765165099,0.0,0.81887123549,-0.573831762641,-0.0121554421019,0.0,-0.00639173447223,0.0120598104824,-0.999906849012,0.0,0.268742010671,-0.254885848883,0.304866971341,1.0,-0.0814085714286,-0.106994122449,2.929
-0.630054790854,-0.521559765459,-0.130484010332,-2.64208542255,-0.0703177576149,2.11025829081,-0.880661845218,-0.373399738294,0.0453480336219,0.0303200131004,0.0407158824122,0.0109125060134,0.00380253586524,-0.366925622554,0.573796932784,0.818962376892,0.00620097286986,0.0,0.818961088024,-0.573704255062,-0.0121206817594,0.0,-0.00636898044484,0.0120333971853,-0.999907312425,0.0,0.267572482471,-0.256426051875,0.304882118862,1.0,-0.0760514285715,-0.0999533061225,2.944
-0.636137648009,-0.520711795599,-0.130060930166,-2.6414329567,-0.0700574443216,2.11043315202,-0.886439112265,-0.348486382878,0.0477597659543,0.0269683978254,0.0412142044967,0.0104441734542,0.0112221076222,-0.333138107981,0.573894144982,0.818894304794,0.00619474228169,0.0,0.818893102471,-0.573801791239,-0.0120970243504,0.0,-0.00635175241896,0.0120154745076,-0.999907637541,0.0,0.266281471886,-0.258105919644,0.304892510776,1.0,-0.0699800000001,-0.0919737142858,2.961
-0.641643441847,-0.519837989019,-0.129671788897,-2.64076002866,-0.0697300634593,2.11060835862,-0.891805453004,-0.314433443112,0.0510413862267,0.0172522730305,0.038640044076,0.018583218229,0.00942526492028,-0.304480995681,0.573908776049,0.818883589171,0.00625548243562,0.0,0.81888325729,-0.573816300247,-0.0120752392264,0.0,-0.00629883872254,0.012052827652,-0.999907522712,0.0,0.265132782669,-0.259631827278,0.304901671788,1.0,-0.0639085714286,-0.0839941224491,2.978
-0.647590113232,-0.518880701427,-0.129241178061,-2.64006846587,-0.069409942778,2.11081107142,-0.897489436511,-0.279803508917,0.0434961300701,0.021632128607,0.0362510753347,0.0195839863334,0.0133440184819,-0.281988305565,0.573992842346,0.818824393615,0.00629096637469,0.0,0.818824405175,-0.573899962015,-0.012090243628,0.0,-0.00628952213667,0.0120911428964,-0.999907118774,0.0,0.26387556042,-0.261267984615,0.304891650471,1.0,-0.0567657142858,-0.074606367347,2.998
-0.651290349808,-0.518272392347,-0.128845778264,-2.63962312643,-0.0691706831116,2.11094061946,-0.90112828913,-0.252045483212,0.0424186715947,0.0303510780879,0.0331390696675,0.017910195383,0.0117915089355,-0.244848035178,0.57388886039,0.818897332889,0.00628339159398,0.0,0.818897229783,-0.573796006023,-0.012092039824,0.0,-0.00629687539454,0.0120851716013,-0.999907144683,0.0,0.263123539256,-0.262255402143,0.304890831924,1.0,-0.0517657142858,-0.0680349387756,3.012
-0.655197838411,-0.51762294318,-0.128386615345,-2.63915251419,-0.068917057595,2.11107992712,-0.904844184321,-0.233076272645,0.0407656552046,0.0244021325175,0.0287616896022,0.0100661223125,0.0020937422336,-0.213296257032,0.573853595723,0.818922266217,0.00625455596838,0.0,0.818921760483,-0.573760826803,-0.0121000303829,0.0,-0.00632048678771,0.0120658702336,-0.999907228808,0.0,0.262335085674,-0.263286978067,0.304888569719,1.0,-0.0460514285715,-0.060524734694,3.028
-0.659340099467,-0.5168739634,-0.127909863443,-2.63860697736,-0.0686290918489,2.1112586668,-0.908772232459,-0.205261643959,0.0344704395578,0.0195242262194,0.0269161030985,0.0179539610689,0.0102799744343,-0.205698236202,0.573842796534,0.818929965409,0.00623726883565,0.0,0.81892931058,-0.573750252385,-0.0120904533604,0.0,-0.00632272171551,0.0120461337606,-0.999907452643,0.0,0.261508600862,-0.264393683552,0.304887277572,1.0,-0.0392657142858,-0.051606367347,3.047
-0.662379707428,-0.516301158457,-0.12753368431,-2.63822523453,-0.0683708595507,2.11137371698,-0.911600084393,-0.182711767213,0.0345698042529,0.0232377707661,0.0208218450641,0.0243320959371,0.00878635991868,-0.160454831401,0.573879968166,0.818903765777,0.00625711077093,0.0,0.818903058642,-0.573786734515,-0.0121371637038,0.0,-0.00634904414495,0.0120894750284,-0.999906762769,0.0,0.260902156673,-0.265186237704,0.30486847919,1.0,-0.0335514285715,-0.0440961632654,3.063
-0.665324787881,-0.515808491619,-0.127117814755,-2.637880223,-0.0681130037921,2.11147680618,-0.914337335371,-0.148392679897,0.0249007415333,0.0244592608084,0.0177919991214,0.0181121173521,0.00314400152199,-0.141308327643,0.573883326847,0.818901391271,0.00625982768816,0.0,0.818900613342,-0.573789877907,-0.0121535336413,0.0,-0.00636084230872,0.0121011200363,-0.999906546923,0.0,0.260318989696,-0.265934382018,0.304862362576,1.0,-0.0271228571429,-0.0356471836736,3.081
-0.66766570649,-0.51542926975,-0.126712057617,-2.63760736008,-0.0678562907196,2.11155020827,-0.916466993035,-0.128473231801,0.0211241300948,0.0226183429893,0.0179644970255,0.0164304517094,0.0026149593185,-0.116777078796,0.573892166149,0.818895126157,0.00626904213016,0.0,0.818894414488,-0.573798570435,-0.0121608136569,0.0,-0.00636138609782,0.0121129124873,-0.999906400679,0.0,0.259874140876,-0.266505431683,0.304862461778,1.0,-0.0210514285715,-0.0276675918368,3.098
-0.669576166006,-0.51511987235,-0.126370730019,-2.63735937714,-0.0676245726697,2.11161305146,-0.91809018406,-0.10688206417,0.013475898881,0.0143914296299,0.0139487778504,0.0161463668691,0.00505047441069,-0.0928378975572,0.573996771713,0.818821688909,0.006284483775,0.0,0.818821324503,-0.573903360899,-0.0121374539807,0.0,-0.00633184611522,0.0121129619423,-0.999906587576,0.0,0.259520654927,-0.266973563125,0.304874510767,1.0,-0.0197,-0.0258914285714,3.115
-0.67114954888,-0.514868589461,-0.126124684438,-2.63715292585,-0.0674642040189,2.11166768558,-0.919666661213,-0.0984799956677,0.0145935832986,0.0161388939835,0.0115822909893,0.00556827651142,0.00096974869967,-0.0880402914911,0.573906751114,0.81888469344,0.00629656864392,0.0,0.818884539286,-0.57381340586,-0.012125736077,0.0,-0.00631664578633,0.0121154377696,-0.99990665372,0.0,0.259234856084,-0.267345351347,0.304879223093,1.0,-0.0194,-0.0254971428571,3.13
-0.672814232708,-0.514562547931,-0.125929552206,-2.63690632399,-0.0673635160953,2.11171888109,-0.921231376531,-0.0908797900845,0.0164726246013,0.0116807445085,0.0164398717167,0.00655374528987,0.00090960336836,-0.0853679295443,0.573897600713,0.818891320774,0.00626861696039,0.0,0.818890943155,-0.57380465377,-0.0121074122313,0.0,-0.00631781484618,0.0120819611005,-0.999907051396,0.0,0.258883289601,-0.267816354429,0.304894125288,1.0,-0.01902,-0.0249977142857,3.149
-0.674115189414,-0.514305649251,-0.12579317233,-2.63670082251,-0.0673105781475,2.11180293934,-0.922570041536,-0.083134407958,0.00874400171095,0.00713756325276,0.0131584685191,0.0014653029735,0.00637487384335,-0.0867866592987,0.57380303061,0.818957869758,0.00623189582882,0.0,0.818957285899,-0.573710787528,-0.0120682661849,0.0,-0.00630821715546,0.0120286957947,-0.999907754182,0.0,0.258623470947,-0.268180009565,0.304902988545,1.0,-0.01872,-0.0246034285714,3.164
-0.675530796019,-0.514025159344,-0.125704108741,-2.63646843837,-0.0672664155654,2.11185613825,-0.923913132564,-0.0820291388444,0.0133372484219,0.00448582484904,0.0155502717909,0.0061691614434,-0.000263874025836,-0.0823191679088,0.573829977546,0.818939138782,0.00621214473415,0.0,0.818938395454,-0.573738001662,-0.012056400871,0.0,-0.0063094365165,0.0120059192331,-0.999908020227,0.0,0.258321627539,-0.268586229218,0.304911563284,1.0,-0.01838,-0.0241565714286,3.181
-0.676894900495,-0.513753493442,-0.125641688396,-2.63624115665,-0.0672126230713,2.11191053774,-0.925335720395,-0.0782260164082,0.0112674012226,0.00587683712751,0.016457824156,0.00185047227804,0.00701966617867,-0.0864509993884,0.573772404935,0.818979457568,0.00621468570289,0.0,0.818978859565,-0.573680644089,-0.0120371543342,0.0,-0.00629305839135,0.0119965141705,-0.999908236322,0.0,0.258027143457,-0.268982564809,0.304920534805,1.0,-0.01804,-0.0237097142857,3.198
-0.678163716287,-0.513478874516,-0.125604999298,-2.63603590028,-0.0671774679994,2.11200275386,-0.926616137676,-0.0722088244937,0.0159707641584,0.00201148457713,0.0164518591011,0.00128406562763,0.00373932359379,-0.0767402546417,0.573762520391,0.818986409369,0.00621114845937,0.0,0.818985955446,-0.573671139703,-0.0120072959414,0.0,-0.00627077630561,0.0119764103208,-0.999908617305,0.0,0.257751071075,-0.269360990256,0.30492099465,1.0,-0.01772,-0.0232891428571,3.214
-0.679553015666,-0.513172266438,-0.125606141666,-2.63580070888,-0.0671406629567,2.11202720397,-0.928020836255,-0.0725881600018,0.0131793386659,0.000208093716791,0.014023448382,9.74868590228e-05,7.22999397872e-05,-0.0866948125353,0.573778730377,0.818974867812,0.00623549202116,0.0,0.818974472226,-0.573686746768,-0.012044804928,0.0,-0.0062872944415,0.0120179930499,-0.999908014655,0.0,0.257429072537,-0.269775579179,0.30491652514,1.0,-0.01736,-0.022816,3.232
-0.680861889912,-0.512878852436,-0.125609049237,-2.63559772042,-0.0671060550797,2.11206584833,-0.929367298165,-0.0783039529699,0.0210794253851,0.000190554765279,0.013792457423,0.00107383850691,0.00182258656449,-0.0702249690955,0.573775525274,0.818976918464,0.00626103196684,0.0,0.818976562708,-0.573682869669,-0.0120872529777,0.0,-0.00630745584862,0.0120632406204,-0.999907342821,0.0,0.257122874549,-0.270163505756,0.304903450633,1.0,-0.01702,-0.0223691428571,3.249
-0.682085194818,-0.51263483824,-0.125604934808,-2.63541569153,-0.0670802296904,2.1121410526,-0.930511046051,-0.0788426198187,0.0157497559257,0.000343229692051,0.0110713383103,0.000826909664255,0.00755006355842,-0.0704447000707,0.573858266347,0.818918887649,0.00626837284445,0.0,0.81891875501,-0.573765804354,-0.0120673671076,0.0,-0.00628573788145,0.0120584786165,-0.999907537022,0.0,0.256842083657,-0.270529138833,0.304902385104,1.0,-0.0167,-0.0219485714286,3.265
-0.683354948231,-0.512368917314,-0.125595330601,-2.63520667878,-0.0670502940717,2.11218307052,-0.931828429835,-0.0689670869751,0.018967815269,0.000179191327975,0.00812162976795,0.00323945553354,0.000983566514871,-0.0776273451101,0.573836068308,0.818934352714,0.00628009187809,0.0,0.818934315555,-0.573743449328,-0.0120742726412,0.0,-0.0062849960793,0.0120718683048,-0.999907380121,0.0,0.256550236963,-0.270906751089,0.304902751778,1.0,-0.01636,-0.0215017142857,3.282
-0.684641682465,-0.512095460555,-0.125586681708,-2.63497838174,-0.0670087599395,2.11222390617,-0.933112350605,-0.0699663557641,0.0166428503561,0.000552547630073,0.0107466801072,0.00270070151175,0.00194826074344,-0.0732032229222,0.573861733292,0.818916224068,0.00629888271291,0.0,0.818916445628,-0.573769051843,-0.012069678083,0.0,-0.00627007195792,0.0120848176979,-0.999907317394,0.0,0.256258020585,-0.271292278052,0.304908948998,1.0,-0.016,-0.0210285714286,3.3
-0.685700855811,-0.511878079784,-0.125555256867,-2.63479876099,-0.0669720912904,2.11226338667,-0.934167800066,-0.0724625491095,0.0163533968216,-0.000304285307981,0.0124196297986,0.00220275393057,0.00154770023361,-0.0736755006327,0.573867338265,0.818912252178,0.00630461788185,0.0,0.818912597342,-0.573774724391,-0.0120611137933,0.0,-0.006259683991,0.0120846429408,-0.999907384592,0.0,0.256022069612,-0.271602782083,0.304914193134,1.0,-0.0157,-0.0206342857143,3.315
-0.686860532315,-0.511639070901,-0.125508299359,-2.63461435341,-0.0669511744866,2.11233031139,-0.935379033194,-0.0650282046724,0.0174056604489,0.00311041069488,0.00996486150871,0.00457619563586,0.00349338894576,-0.0646174914683,0.573810170084,0.818952438192,0.00628805136599,0.0,0.818952684981,-0.573717868398,-0.012043842586,0.0,-0.00625588727016,0.0120607281186,-0.999907697096,0.0,0.255765289299,-0.271941930021,0.304916286226,1.0,-0.01536,-0.0201874285714,3.332
-0.68804109918,-0.511368944262,-0.125469580997,-2.63440167265,-0.0669191242624,2.11237499708,-0.936562343614,-0.064757207033,0.0128172107891,0.00477475014216,0.0101952416422,-0.000429517732006,0.00613074297288,-0.0667159165874,0.573805056945,0.818956044022,0.00628502073917,0.0,0.818956212818,-0.573712695493,-0.0120503700006,0.0,-0.00626304773825,0.0120619522564,-0.999907637505,0.0,0.2555036958,-0.272290539041,0.304917593823,1.0,-0.015,-0.0197142857143,3.35
-0.688997788592,-0.511150170405,-0.125441228888,-2.63423585952,-0.0668896885067,2.11241234257,-0.937547124576,-0.0636385934763,0.0143851283819,0.00351288933983,0.0161850528779,0.00448323360532,0.000273144659835,-0.0718952045027,0.573783053321,0.818971435164,0.00628832312242,0.0,0.818971580218,-0.573690553505,-0.0120601208427,0.0,-0.0062694636087,0.0120700832716,-0.99990749918,0.0,0.255289744057,-0.272571596535,0.304915743528,1.0,-0.0147,-0.01932,3.365
-0.690095117839,-0.510907312034,-0.125424123618,-2.63404945106,-0.0668657166601,2.11245700751,-0.938692461564,-0.0621460324922,0.011150644103,0.000300727948974,0.0103307798143,0.000468172053236,0.00355598916254,-0.0655085631094,0.573751458302,0.818993555856,0.00629018784251,0.0,0.818993679102,-0.573658868345,-0.0120666176346,0.0,-0.00627418084176,0.012075096031,-0.999907409069,0.0,0.255025678236,-0.272916580579,0.304914066035,1.0,-0.01434,-0.0188468571429,3.383
-0.691242349231,-0.510652409408,-0.125413581159,-2.63385136798,-0.0668293435128,2.11250965068,-0.939820842294,-0.0617021246063,0.0149971233319,0.000288831157103,0.0104296250725,0.00692053113692,0.000824795638724,-0.0649453325104,0.573785177644,0.818969814882,0.00630548406721,0.0,0.818970154133,-0.57369254463,-0.0120622459399,0.0,-0.00626132667474,0.0120853738687,-0.999907365473,0.0,0.254777683026,-0.273239938818,0.30491494251,1.0,-0.014,-0.0184,3.4
-0.692237378643,-0.510447702222,-0.1254059728,-2.6336815363,-0.0668115498723,2.11256145483,-0.940821323799,-0.0628068937421,0.0151260630027,0.00028195892473,0.00722106804739,0.00219854673836,0.00323872241801,-0.0663347605702,0.573791600457,0.818965316816,0.00630523577361,0.0,0.818965790732,-0.573699233551,-0.0120403461751,0.0,-0.00624343719471,0.012072654339,-0.999907630989,0.0,0.254549762644,-0.273539173126,0.304920819602,1.0,-0.01368,-0.0179794285714,3.416
-0.693251741552,-0.510235554086,-0.12539712174,-2.63348306107,-0.0667761198572,2.11261187792,-0.941872257358,-0.0563621481023,0.00511171033355,-0.00176920554262,0.0148734468498,-0.000163785183711,0.00572776855585,-0.0718077340623,0.573780534449,0.81897299353,0.00631514499061,0.0,0.818973857944,-0.573688633569,-0.011996608655,0.0,-0.00620209101145,0.0120555912896,-0.99990809417,0.0,0.254324046097,-0.273848468903,0.304936854475,1.0,-0.01334,-0.0175325714286,3.433
-0.694234340472,-0.510022089276,-0.125364457644,-2.63330834383,-0.0667500739035,2.11266130669,-0.942823625318,-0.0543165005128,0.00976004964661,0.000394137772916,0.0109286291621,0.00769534426942,-0.00038234871995,-0.0524537456415,0.573802928275,0.818957350202,0.00630911676327,0.0,0.818958239655,-0.573711249797,-0.0119812544618,0.0,-0.00619264437032,0.0120420138989,-0.999908316326,0.0,0.254105911496,-0.274138886646,0.304942068398,1.0,-0.013,-0.0170857142857,3.45
-0.695204715499,-0.509789024452,-0.125331546228,-2.63313233051,-0.066726940024,2.11270950752,-0.943769262337,-0.0608030246385,0.00865959235108,0.00191904907826,0.0138210255432,0.00176174260738,0.000376645366672,-0.0597780943344,0.573815484231,0.818948604192,0.0063024320188,0.0,0.818949381094,-0.57372378217,-0.0119866542157,0.0,-0.00620071798721,0.0120397323964,-0.999908293765,0.0,0.253904256344,-0.274408219442,0.304940047227,1.0,-0.01268,-0.0166651428571,3.466
-0.696107317132,-0.509580666573,-0.125300971138,-2.63297119338,-0.0667003949375,2.11275130715,-0.944711469329,-0.0560794533189,0.00940164058547,-0.000189210162758,0.00643813826948,0.00329019314377,0.00650263902922,-0.0563187886052,0.573784161101,0.818970563829,0.00630071043937,0.0,0.818971319571,-0.573692475654,-0.0119861586841,0.0,-0.00620176036844,0.0120378009131,-0.999908310555,0.0,0.253689036226,-0.274691596284,0.304940700985,1.0,-0.01234,-0.0162182857143,3.483
-0.696935312074,-0.509379982604,-0.125271918001,-2.63281618907,-0.0666828504604,2.11278477996,-0.945543717622,-0.05295033394,0.0130848046793,0.00262826074039,0.00994306956886,-5.05589271751e-05,0.00107631960314,-0.0528983671591,0.573781154787,0.81897273601,0.00629213677672,0.0,0.818973362324,-0.573689472323,-0.0119903315492,0.0,-0.00621014157178,0.0120331503703,-0.999908314514,0.0,0.253491872153,-0.274956062927,0.304941875807,1.0,-0.01202,-0.0157977142857,3.499
-0.697852489118,-0.509162706997,-0.125264327815,-2.63263141312,-0.0666594706095,2.11282569236,-0.946445372047,-0.0507225796253,0.0112942703051,-0.00037557454984,0.00516772621347,0.00189501033444,-0.000898889704813,-0.0562997788096,0.573809647387,0.818952743175,0.00629602352148,0.0,0.818953479177,-0.573718056656,-0.0119807057771,0.0,-0.00619960884363,0.0120310265599,-0.99990840543,0.0,0.253285575756,-0.275233371565,0.304946244636,1.0,-0.01168,-0.0153508571429,3.516
-0.698851224746,-0.508923387594,-0.125235579814,-2.63244972874,-0.0666340154529,2.11287164427,-0.947414572486,-0.049209054427,0.0168766534613,0.00090942455174,0.00664209242647,0.000441367316344,0.000173802839082,-0.051800387222,0.573826138087,0.818941210139,0.00629320952272,0.0,0.818941865726,-0.573734470952,-0.0119885071739,0.0,-0.00620737084779,0.0120333231997,-0.999908329638,0.0,0.25307325654,-0.275512124778,0.304945528547,1.0,-0.01132,-0.0148777142857,3.534
-0.699658637993,-0.508731151474,-0.125222796268,-2.63229865356,-0.0666137314005,2.11290047684,-0.948234287543,-0.0435656999481,0.0179588387335,0.000785990040901,0.00863426089262,-2.22035849329e-05,0.000465220879494,-0.0506744104817,0.573823392222,0.818943108817,0.00629650389635,0.0,0.818943755183,-0.573731610478,-0.0119963280747,0.0,-0.00621192648585,0.0120404880321,-0.999908215096,0.0,0.252888664642,-0.275753017429,0.304945571021,1.0,-0.011,-0.0144571428572,3.55
-0.700500107045,-0.508543950268,-0.125196951838,-2.6321403879,-0.0665855381463,2.11293613753,-0.949057476619,-0.0501004147996,0.0102454753465,0.00179773048467,0.00421731064932,0.00546190609195,0.00436269434663,-0.0487183762879,0.573840049521,0.818931431796,0.00629718063878,0.0,0.81893215953,-0.573748401978,-0.011984832795,0.0,-0.00620187835755,0.0120345724869,-0.999908348685,0.0,0.252700932512,-0.276001920828,0.304951628337,1.0,-0.01066,-0.0140102857143,3.567
-0.701199174418,-0.508364841156,-0.125187366333,-2.63199795748,-0.0665724671261,2.11297391124,-0.949729683048,-0.0392039247253,0.0088094416649,0.000387480470726,0.00879447935446,0.000398801079462,-0.000294851049636,-0.0445256005257,0.573868096849,0.818911807668,0.00629329664163,0.0,0.818912515573,-0.573776519531,-0.0119810005311,0.0,-0.00620055633912,0.0120294049605,-0.999908419065,0.0,0.2525441507,-0.276215823675,0.304953278878,1.0,-0.01036,-0.013616,3.582
