nelsonifechukwu/NELSON_IML_WORK/CNN-GradCAM/train2dof/data_sample_2022-02-21-15-33-11/robot_state.csv
position_joint1,position_joint2,position_joint3,position_joint4,position_joint5,position_joint6,position_joint7,velocity_joint1,velocity_joint2,velocity_joint3,velocity_joint4,velocity_joint5,velocity_joint6,velocity_joint7,ee_T_00,ee_T_10,ee_T_20,ee_T_30,ee_T_01,ee_T_11,ee_T_21,ee_T_31,ee_T_02,ee_T_12,ee_T_22,ee_T_32,ee_T_03,ee_T_13,ee_T_23,ee_T_33,v_x,v_y,time
0.465084344303,0.547879499972,-0.123916415058,-1.35587184799,0.0794667531433,1.89409233214,0.159173266225,0.00858640249931,-0.00128896024383,-0.00182558555087,-0.00223762971248,-4.44521045044e-05,-0.00437395124138,-0.000524200591804,0.573751582023,0.819015605863,0.00181834530218,0.0,0.818970615784,-0.573693450395,-0.0119875918568,0.0,-0.00877502096339,0.00836723225949,-0.999926491514,0.0,0.661646427471,0.260927372633,0.303123083798,1.0,0.0,0.0,0.0
0.465081094394,0.547884703342,-0.123915787213,-1.35586428221,0.0794680682158,1.89409162013,0.159170100231,-5.57521539252e-05,-0.00059724427226,-0.00161737280879,-0.00307235052246,0.000303113246885,-0.000627878677105,-0.00185277074939,0.573751152387,0.819015902416,0.00182033664383,0.0,0.818970929724,-0.573693004029,-0.0119875058138,0.0,-0.00877381241732,0.00836880919401,-0.999926488922,0.0,0.661648512467,0.260926580522,0.303122918189,1.0,-0.00024,-0.000315428571429,0.013
0.465078941951,0.54787480955,-0.123911112979,-1.35587530279,0.0794673507843,1.89409267977,0.159174615272,2.00854126451e-05,-0.000687966950184,0.000764020595908,-0.000815457073611,-9.22049226566e-05,-0.000256546585227,-0.000707839707512,0.573753748117,0.819014081339,0.00182153542385,0.0,0.818969096959,-0.573695568201,-0.011990002232,0.0,-0.00877514281198,0.0083712511142,-0.999926456807,0.0,0.661645987417,0.260926639026,0.303124618129,1.0,-0.0006,-0.000788571428571,0.031
0.465077966937,0.547851126771,-0.123908617422,-1.35589381723,0.0794673503516,1.89409707215,0.159174002828,0.000551759470138,-0.00180144530858,0.00181239569471,0.000279645310024,-0.000121492103934,-0.000490443316801,0.00153874954546,0.573753301601,0.819014372324,0.00183131920821,0.0,0.818969489438,-0.573695054595,-0.0119877689607,0.0,-0.00876770510326,0.008377977879,-0.999926465713,0.0,0.661642928987,0.260925852436,0.303132882466,1.0,-0.00094,-0.00123542857143,0.048
0.465082636368,0.547761669066,-0.123914232392,-1.35599782888,0.0794650658681,1.89411868227,0.159163729767,0.0019886861841,-0.00717543932972,-0.00151851532828,-0.00942609288573,1.46613059199e-05,0.00496215531984,-0.00203459311784,0.573750050362,0.819016631825,0.00183940329492,0.0,0.818971823695,-0.573691739592,-0.0119869436461,0.0,-0.00876242443868,0.00838409041133,-0.999926460769,0.0,0.661625961243,0.260915621257,0.303148810431,1.0,-0.00126,-0.001656,0.064
0.465074724382,0.547619473652,-0.123909320264,-1.3561800743,0.0794645866349,1.89414574631,0.159163670531,0.000570920316858,-0.0123536441857,0.00199921242184,-0.00672661564778,-8.43166937541e-05,0.000988090930521,-0.000829483083169,0.573762800164,0.819007704513,0.00183738898141,0.0,0.818962693604,-0.573704327715,-0.0120082366212,0.0,-0.00878088935935,0.00839479412401,-0.999926208984,0.0,0.661594295548,0.260895222951,0.30316498943,1.0,-0.0016,-0.00210285714286,0.081
0.465056287837,0.54745582107,-0.123911913954,-1.35638807592,0.0794579197706,1.89424879173,0.159157203831,-0.00449126204726,-0.0109698946419,-0.00215291120214,-0.0115755699242,-0.000177824519536,0.00919514409477,0.000490892484248,0.57378443001,0.818992432731,0.00188942022455,0.0,0.818948098179,-0.573725728772,-0.011981132512,0.0,-0.0087286159205,0.00842208654009,-0.999926437155,0.0,0.66157726545,0.260864915431,0.303190938703,1.0,-0.00194,-0.00254971428571,0.098
0.465040730291,0.547283801108,-0.123912182238,-1.35659570722,0.0794564832787,1.894365496,0.159147312933,0.000395327754616,-0.00907732581206,-0.00598678766043,-0.0128262654243,0.0001127191259,0.0101749678112,0.000503923898826,0.573800715618,0.818980848117,0.00196368916897,0.0,0.818937439178,-0.573741656697,-0.0119469236337,0.0,-0.00865781806271,0.00846345485756,-0.999926703373,0.0,0.661561682024,0.260839791572,0.303224104296,1.0,-0.00226,-0.00297028571429,0.114
0.465007624396,0.547067965042,-0.123911835395,-1.35686343796,0.0794522944431,1.89449618108,0.15913357727,-0.00355099915053,-0.0139436289859,-0.000506352813834,-0.0202842036343,-0.000628679902187,0.0125119663113,0.00134147721918,0.573830353524,0.818959902992,0.00203704871782,0.0,0.818917387291,-0.573770924718,-0.0119157728039,0.0,-0.00858990619535,0.00850597050064,-0.999926928319,0.0,0.661540839319,0.260797358056,0.303260882176,1.0,-0.0026,-0.00341714285714,0.131
0.46497754116,0.546840057458,-0.123912098215,-1.35723026257,0.0794452278599,1.89462428862,0.159074707383,-0.00193711793984,-0.0177974086133,-0.00287315128974,-0.0305065421018,0.000626715644439,0.00522253752657,-0.00533393403182,0.573825576054,0.818963252662,0.00203616214858,0.0,0.818920574905,-0.573766002511,-0.0119337027617,0.0,-0.00860514908933,0.00851548288842,-0.999926716295,0.0,0.661496550506,0.260744308079,0.303258826749,1.0,-0.00294,-0.003864,0.148
0.464942022839,0.54657637624,-0.123909412311,-1.35760351746,0.0794309841688,1.89476982608,0.158955565787,-0.00198027618431,-0.0175042385543,-0.000398107026668,-0.0287722008913,0.000190993906091,0.0143547577143,0.000316494718648,0.57377232374,0.819000469947,0.00207307454356,0.0,0.818958188412,-0.573712520553,-0.0119237701533,0.0,-0.00857638965947,0.0085394550922,-0.999926758941,0.0,0.661456333184,0.260689107061,0.303280435121,1.0,-0.00326,-0.00428457142857,0.164
0.464888780217,0.546275654913,-0.123912287782,-1.3581076936,0.0794134850127,1.89494656898,0.158945410258,-0.00112957395499,-0.021157828988,0.000364020132245,-0.0286797517358,0.000196734532272,0.0120006783736,-0.00214270455923,0.573833141835,0.81895790286,0.0020556205098,0.0,0.818915277263,-0.573773287168,-0.0119469870255,0.0,-0.00860478497161,0.00853912054456,-0.999926517848,0.0,0.661399304928,0.260605490149,0.303268832917,1.0,-0.00362,-0.00475771428571,0.182
0.464842996679,0.545956194915,-0.123912524595,-1.35864401386,0.0793752628339,1.89513330124,0.158866431279,-0.00164127005715,-0.0137167558234,-9.26313417305e-06,-0.0311113622395,0.000565746558449,0.00972542381214,-0.00554598589776,0.573825908198,0.818963044327,0.00202632892129,0.0,0.81892006711,-0.573766206159,-0.0119587313992,0.0,-0.00863128619442,0.00852179539325,-0.999926437245,0.0,0.661335946333,0.26052208868,0.30325592154,1.0,-0.00396,-0.00520457142857,0.199
0.464797300672,0.545705246361,-0.123915268095,-1.35907030228,0.079304453749,1.89527917404,0.158805258453,-0.00458944381809,-0.0205439665371,-0.00245898847183,-0.0330522307472,-0.000849825708796,0.0120762165442,-0.00629325193864,0.573831650066,0.818959147215,0.00197470938413,0.0,0.818915970273,-0.573772627791,-0.0119311411719,0.0,-0.00863824932003,0.00846375043057,-0.999926870115,0.0,0.661275906692,0.260413506259,0.303246640919,1.0,-0.00428,-0.00562514285714,0.215
0.464713477912,0.545222393415,-0.123923200454,-1.35990869542,0.0792689603255,1.89554039872,0.158715662606,-0.00076472796728,-0.0262326968269,-0.00136759234385,-0.0377015127649,-0.000112842045987,0.0163522093748,-0.00411454367029,0.573858035155,0.818940832566,0.00190135331099,0.0,0.81889645439,-0.573799081327,-0.0119982564285,0.0,-0.0087350355023,0.00844246988798,-0.999926209206,0.0,0.661188025969,0.26030018186,0.303209000624,1.0,-0.00462,-0.006072,0.232
0.464644194392,0.544762671406,-0.123918263857,-1.36065957934,0.0792483552737,1.89580459396,0.15860907634,-0.00430660761975,-0.0234380785397,-0.0011718764375,-0.0361036513875,9.03686763218e-05,0.0141496723757,-0.00360771650914,0.573860377781,0.818939210407,0.00189297967143,0.0,0.818894440703,-0.573801187277,-0.0120349228024,0.0,-0.00876984504088,0.00845667869254,-0.999925784448,0.0,0.661098241699,0.260188737254,0.303199758986,1.0,-0.00498,-0.00654514285714,0.25
0.464580588315,0.54436932588,-0.123923938207,-1.36133194326,0.0792179664609,1.89605543942,0.158543042204,-0.00347346859357,-0.0241829247179,-0.00286098226777,-0.0464027468627,-0.00136015733841,0.0149793998418,-0.0127665217634,0.573891829954,0.818917219161,0.00187151668393,0.0,0.818872099453,-0.573832661841,-0.0120543702506,0.0,-0.00879776334813,0.00845060009842,-0.999925590591,0.0,0.661023515802,0.260080861174,0.303180045618,1.0,-0.00528,-0.00693942857143,0.265
0.464512836517,0.543855421687,-0.123919589022,-1.36215204246,0.0791785046912,1.89633762914,0.158414458005,-0.00486209706667,-0.0338915840287,-0.00263173182996,-0.0481100464533,-0.000747934792472,0.0163594448855,-0.00767710646628,0.573878019977,0.818926937769,0.00185355997517,0.0,0.818881452714,-0.573818807019,-0.0120784938621,0.0,-0.00882796638339,0.00844959070785,-0.999925332926,0.0,0.660917685429,0.259950691491,0.303176719168,1.0,-0.00564,-0.00741257142857,0.283
0.46442938599,0.543283024268,-0.123924562443,-1.36305279776,0.0791145492447,1.89665683251,0.158308896399,-0.00137342529252,-0.0317457841553,0.000284780965449,-0.0493723099488,-0.00600117458915,0.0211412797875,-0.00412469835509,0.573892367183,0.81891690557,0.00184378994218,0.0,0.818871354272,-0.573833254265,-0.0120767691691,0.0,-0.00883201249815,0.00844075492401,-0.999925371821,0.0,0.660821137934,0.259814647816,0.30318167974,1.0,-0.00598,-0.00785942857143,0.3
0.464360569564,0.542752327522,-0.123922598281,-1.36390332878,0.0790639812241,1.89696445343,0.158197587616,-0.00344872470902,-0.0303957856729,0.00133941040861,-0.0533646416034,-0.00137672608025,0.01898834324,-0.00688225490128,0.57388996518,0.81891861119,0.00183385232637,0.0,0.818872892556,-0.573830860702,-0.0120861923392,0.0,-0.00884545708861,0.00843799891734,-0.99992527624,0.0,0.660720739315,0.259689019712,0.303178829895,1.0,-0.0063,-0.00828,0.316
0.464292257207,0.542145657164,-0.123928463187,-1.36482249396,0.0790211973913,1.89730139678,0.158065017928,-0.00174806956418,-0.0368714000246,-0.000110891669927,-0.0484436403901,-0.00383585082875,0.0211160226276,-0.00981399494001,0.573881046769,0.818924800558,0.00186066953306,0.0,0.818879331971,-0.573821728882,-0.012083461173,0.0,-0.00882792338768,0.0084582960192,-0.999925259706,0.0,0.660613476055,0.259555299437,0.303199788652,1.0,-0.00664,-0.00872685714286,0.333
0.464207071673,0.541512058679,-0.123925716492,-1.36579190235,0.0789576855143,1.89766612783,0.157946612299,-0.00634268849403,-0.0388060060646,-0.000322994002271,-0.0533512430873,-0.00814759744755,0.0291812050356,-0.0132037718425,0.573888765021,0.818919341077,0.00188284209872,0.0,0.818874196563,-0.573829381686,-0.0120680494863,0.0,-0.00880249849144,0.00846769185604,-0.999925404325,0.0,0.66050428312,0.259408353266,0.30321788345,1.0,-0.00698,-0.00917371428571,0.35
0.464128573266,0.540862473387,-0.123930867063,-1.36678763695,0.0789030955786,1.89803479204,0.157822691426,-0.00330058281883,-0.0399161348524,-0.000424334803519,-0.062672493993,-0.00292773247024,0.0279238157653,-0.00468891762793,0.573895770575,0.818914383469,0.00190367167747,0.0,0.818869479033,-0.573836264451,-0.0120608793613,0.0,-0.00878460087291,0.00848070956959,-0.999925451398,0.0,0.660389626983,0.259260047447,0.303235277367,1.0,-0.0073,-0.00959428571429,0.366
0.46403283921,0.540101836549,-0.123930946285,-1.36796290631,0.0788358869007,1.89846355937,0.157673091919,-0.00448809479436,-0.0447979641524,-0.000482818131703,-0.0656906860085,-0.00391755814873,0.0355010672521,-0.00262067694073,0.573898755919,0.818912258476,0.00191775213201,0.0,0.818867484464,-0.573839136362,-0.0120596587101,0.0,-0.00877549007891,0.00849157148374,-0.999925439214,0.0,0.660252221474,0.259085493126,0.30325064188,1.0,-0.00766,-0.0100674285714,0.384
0.463936498248,0.539408553081,-0.123933884675,-1.3690338558,0.0787719891908,1.89887646825,0.15753485305,-0.00304949533536,-0.0452423507343,-0.000217262500114,-0.0681027375965,-0.0057223390606,0.0256362730596,-0.00888023929316,0.573907395208,0.818906142073,0.00194399120036,0.0,0.818861714425,-0.573847664315,-0.0120456511281,0.0,-0.00874887132714,0.0085051119794,-0.99992555739,0.0,0.660124044231,0.258910160467,0.303266014185,1.0,-0.008,-0.0105142857143,0.401
0.463838989338,0.538693773708,-0.123937129004,-1.37015088654,0.0787138967978,1.89930677715,0.157392728408,-0.0050889959522,-0.0477428074088,-0.000481847256543,-0.0701170190453,-0.00561928533646,0.0255137484029,-0.00960366192807,0.573920742982,0.818896716561,0.00197364690393,0.0,0.818852639519,-0.573860846973,-0.0120345322122,0.0,-0.00872260816724,0.00852315774264,-0.999925633179,0.0,0.660009796747,0.258750193242,0.303277360991,1.0,-0.0083,-0.0109085714286,0.416
0.463719956464,0.537861027886,-0.123934242908,-1.37144357195,0.0786375726343,1.89980821697,0.157242612845,-0.00253878787469,-0.0486285786979,0.00105209522219,-0.0685842795306,-0.00494195602157,0.0295857825149,-0.00782349585761,0.573944261622,0.818880146818,0.00200912909682,0.0,0.818836525611,-0.57388420382,-0.0120171474311,0.0,-0.00868776326699,0.00854248556763,-0.9999257716,0.0,0.65986674992,0.258552481412,0.303293596051,1.0,-0.00866,-0.0113817142857,0.434
0.463603136748,0.537043663873,-0.123943099603,-1.3727475771,0.0785605189259,1.90028753275,0.157079113069,-0.0100485616124,-0.0488422318169,-0.000517917577537,-0.0769694958864,-0.000941929625166,0.0262347300608,-0.00554089792843,0.573963426038,0.818866734774,0.00200078818195,0.0,0.81882301329,-0.573903409791,-0.0120206505076,0.0,-0.00869521908101,0.00853786953707,-0.999925746218,0.0,0.659718107685,0.258346268405,0.303291899352,1.0,-0.009,-0.0118285714286,0.451
0.46350061396,0.53629072391,-0.123941284805,-1.3739076432,0.078494013464,1.90072336972,0.156940762543,-0.0100002603726,-0.0469242106924,-0.000980523900676,-0.0774559937842,-0.00106820262011,0.0250680360819,-0.0127676314745,0.573984772349,0.81885171633,0.00202353055569,0.0,0.818808274609,-0.573924639974,-0.012010993463,0.0,-0.00867403556845,0.00855117554812,-0.9999258165,0.0,0.65957776179,0.258155188848,0.303307091043,1.0,-0.00932,-0.0122491428571,0.467
0.463354664912,0.535238398151,-0.123945191495,-1.37556162956,0.0784038316792,1.90132484745,0.15674733961,-0.00756232855308,-0.0538924732942,3.82325461531e-05,-0.0821226797923,-0.00579820375413,0.0298497129171,-0.0096203463098,0.574009226572,0.818834556191,0.00203083720608,0.0,0.818791083214,-0.573948935232,-0.0120220088136,0.0,-0.00867860648943,0.00856374025529,-0.999925669309,0.0,0.659392641032,0.257915886723,0.303316633988,1.0,-0.0097,-0.0127485714286,0.486
0.463248249549,0.534459046217,-0.123948361337,-1.37686779912,0.078331151566,1.90180102784,0.156577787867,-0.00478736695332,-0.0512987710898,0.000600039428973,-0.0877448570172,-0.00697664090885,0.0340923194833,-0.0108112878743,0.574011891627,0.818832791396,0.00198869446258,0.0,0.818788690656,-0.573951704062,-0.0120527324419,0.0,-0.00872792601333,0.00854689683765,-0.999925384147,0.0,0.659236687225,0.257719621452,0.303286184438,1.0,-0.01,-0.0131428571429,0.501
0.463128746052,0.533593726141,-0.123950872464,-1.37825708932,0.0782438676721,1.90230911407,0.156406917364,-0.00969861152025,-0.0579620024608,0.000772783672436,-0.0844052422512,-0.00165432343957,0.0306082055229,-0.0100000216875,0.574024156875,0.818824234115,0.00197176359919,0.0,0.818779926295,-0.573964054602,-0.012059984382,0.0,-0.00874345438354,0.00853732719123,-0.999925330237,0.0,0.659073751155,0.2575062039,0.303279376492,1.0,-0.01032,-0.0135634285714,0.517
0.462991085283,0.532584572149,-0.123951673875,-1.37988148226,0.0781715640276,1.90292882267,0.15620061593,-0.0105587688733,-0.0541454551626,-0.000599326719328,-0.0949738085241,-0.000995961734933,0.036728405682,-0.00737542384943,0.574038061985,0.818814447999,0.00198747121115,0.0,0.818770114492,-0.573977664207,-0.0120783900989,0.0,-0.00874936469048,0.00856090249928,-0.999925076976,0.0,0.658885205958,0.257265784519,0.303271586791,1.0,-0.01068,-0.0140365714286,0.535
0.462856483865,0.531600343914,-0.123951278601,-1.38144873716,0.0780705474315,1.90349381789,0.156000041153,-0.00906528928143,-0.0585893398302,0.000595234981213,-0.0921205699755,-0.00205429762797,0.0290574304612,-0.012800828381,0.574041941819,0.818811774109,0.00196837875416,0.0,0.818767200711,-0.573981636004,-0.0120871614297,0.0,-0.00876746563751,0.00855034620135,-0.999925008751,0.0,0.658698477968,0.257026238705,0.303268346688,1.0,-0.01102,-0.0144834285714,0.552
0.462733312092,0.530639777085,-0.123957524139,-1.38299775293,0.077974119346,1.90403279386,0.155795388328,-0.0122497038482,-0.0562952829412,-0.00243693505868,-0.0925787789364,-0.00500581357955,0.0281090245147,-0.020875587862,0.57403776721,0.818814807535,0.00192345518364,0.0,0.818769624676,-0.573977637465,-0.0121128155275,0.0,-0.00881430215544,0.00852824445397,-0.999924785733,0.0,0.658508083095,0.256791222686,0.30325487355,1.0,-0.01134,-0.014904,0.568
0.462592421597,0.529600670865,-0.123954211684,-1.38463729959,0.0778687931631,1.90463984433,0.155586058603,-0.00657977435681,-0.0635936053801,0.0013544486817,-0.0963017024006,-0.00749741136349,0.0356800958636,-0.0150051940372,0.574040062479,0.818813193141,0.00192569707491,0.0,0.818768056287,-0.573979938707,-0.0121097839193,0.0,-0.00881050897977,0.0085283645661,-0.999924818139,0.0,0.658314626451,0.25654357937,0.303258998358,1.0,-0.01168,-0.0153508571429,0.585
0.46245881178,0.528500447966,-0.123956610376,-1.3863272945,0.0777672024711,1.90528845087,0.155340247531,-0.00572525518147,-0.0611431945932,0.00120824080754,-0.0971821673336,-0.00292602980013,0.0409115658717,-0.015670646634,0.574014237047,0.818831180467,0.00197495911341,0.0,0.818786706027,-0.573953918714,-0.012082058086,0.0,-0.00875979901584,0.00855250828347,-0.999925057453,0.0,0.658118038286,0.2562956602,0.303285682919,1.0,-0.01202,-0.0157977142857,0.602
0.462309357517,0.527382173403,-0.123959764618,-1.38806166136,0.0776508175865,1.90595953066,0.155103483305,-0.0093695309592,-0.0651650959634,-0.00135148303268,-0.101337791104,-0.00934409440992,0.0338130749677,-0.0161819721532,0.574007535083,0.8188357851,0.00201335755957,0.0,0.818791952885,-0.573947189502,-0.0120460970714,0.0,-0.00870838210337,0.0085632363242,-0.999925414751,0.0,0.657920557323,0.256031012567,0.303305638974,1.0,-0.01236,-0.0162445714286,0.619
0.462163760847,0.526279209939,-0.123952956723,-1.38975715463,0.0775508141825,1.90659510938,0.154875088086,-0.0153380210227,-0.070363538118,0.00231392854106,-0.106036440687,-0.0131289182908,0.0348107105843,-0.0180623336992,0.573999477085,0.818841335524,0.00205291145612,0.0,0.818797953047,-0.573938897773,-0.0120333125197,0.0,-0.00867529498237,0.00858820014143,-0.999925488262,0.0,0.65772002495,0.255779385027,0.30332965903,1.0,-0.01268,-0.0166651428571,0.635
0.462016290572,0.525082991804,-0.123968661068,-1.39160529104,0.07743089146,1.90726243524,0.154625694065,-0.00471327111748,-0.0722618353296,-0.00147048901261,-0.107169329563,-0.00077664712198,0.0418745976336,-0.0076013105613,0.573994098355,0.818845091624,0.00205861060426,0.0,0.818801883216,-0.573933594281,-0.0120188309782,0.0,-0.00866022170635,0.00858449756838,-0.999925650717,0.0,0.657498609527,0.255495522868,0.303349797082,1.0,-0.01302,-0.017112,0.652
0.461848031591,0.523922385949,-0.123971866565,-1.39349818688,0.0773055898671,1.90793848676,0.154365226296,-0.0101626346415,-0.0695474645436,-0.00194072385884,-0.113129669723,-0.00962242315953,0.0427602931021,-0.0166827822084,0.573988574469,0.81884910039,0.00200351460753,0.0,0.81880520859,-0.573928341232,-0.012043106654,0.0,-0.00871178096295,0.00855325849334,-0.999925470543,0.0,0.657269612229,0.255199255293,0.30332367523,1.0,-0.01336,-0.0175588571429,0.669
0.461693906772,0.5226918182,-0.123970050636,-1.39542695936,0.0771926555025,1.90868155634,0.154109667575,-0.00673213640976,-0.0699234460925,-0.00078656440324,-0.118470454347,-0.0104830134829,0.041332470381,-0.0166717295856,0.573977309297,0.818856900326,0.00204257238524,0.0,0.818813485906,-0.573916878652,-0.0120265788272,0.0,-0.00867594733104,0.00857563427776,-0.999925590449,0.0,0.657041360637,0.254918398017,0.303334984109,1.0,-0.0137,-0.0180057142857,0.686
0.461523565624,0.521454891814,-0.123976367567,-1.39741719828,0.0770774687042,1.90945187652,0.153827850557,-0.0106798897342,-0.0724094646311,0.00605987624171,-0.113839884828,-0.00917007924287,0.0420361944951,-0.0186538204471,0.573966099247,0.818864724449,0.00205593512926,0.0,0.818821475688,-0.573905604645,-0.0120205993723,0.0,-0.00866349889842,0.00858302561861,-0.999925634964,0.0,0.656809673342,0.254616452066,0.303323823571,1.0,-0.01404,-0.0184525714286,0.703
0.461365192785,0.520244343241,-0.123973652369,-1.39932541885,0.0769559045679,1.91014766768,0.153576593877,-0.010673175878,-0.077575168332,0.00154411278888,-0.117047382687,-0.00946123362182,0.0405341330552,-0.0235295163367,0.573956896366,0.818871185861,0.00205158029293,0.0,0.818827870571,-0.573896411792,-0.012023884942,0.0,-0.00866878525346,0.00858124802175,-0.999925604405,0.0,0.656576339049,0.254331030718,0.303326029946,1.0,-0.01436,-0.0188731428571,0.719
0.461185593826,0.51881891079,-0.12398211239,-1.40154802248,0.0768082498289,1.91093384952,0.153282608227,-0.0078715947355,-0.0878844061864,-0.000884788258097,-0.125079193909,-0.013868865537,0.0415709631348,-0.0202135829082,0.573947132335,0.818878072169,0.00203447938665,0.0,0.818834598945,-0.573886786159,-0.0120251047364,0.0,-0.00867970085856,0.00856784144958,-0.999925624677,0.0,0.656301062707,0.253992672462,0.303337262583,1.0,-0.01472,-0.0193462857143,0.737
0.461002153806,0.517405618139,-0.123985326092,-1.40380268741,0.0766699160557,1.91173988988,0.152979297368,-0.00820749560067,-0.0787005796209,0.000413393003687,-0.125921051856,-0.0103545775552,0.0457569647493,-0.0212491777206,0.573933206667,0.818887909976,0.00200301800232,0.0,0.818843965848,-0.57387293753,-0.0120481561856,0.0,-0.00871677943802,0.0085551608321,-0.999925410708,0.0,0.656020252278,0.253653775161,0.303325872484,1.0,-0.01508,-0.0198194285714,0.755
0.460835869892,0.516199188255,-0.123988534487,-1.4057018161,0.0765576743747,1.91245674973,0.152706206424,-0.0147643446308,-0.0835906912042,0.000716619396447,-0.128898658291,-0.0103612894363,0.0451797322691,-0.0201580236774,0.573919287026,0.818897617337,0.0020226714902,0.0,0.818853925873,-0.57385893151,-0.0120383433054,0.0,-0.0086976100053,0.00856547480927,-0.999925489335,0.0,0.655779289737,0.253342768508,0.303330982802,1.0,-0.0154,-0.02024,0.771
0.460653233473,0.514837099175,-0.123994233137,-1.40791624382,0.0764167259196,1.91327531368,0.152407401199,-0.0108735379008,-0.0785683114553,-0.000820818525773,-0.13562474187,-0.00231652540114,0.0479236338169,-0.0130102794689,0.573905768542,0.818907175512,0.00198837356187,0.0,0.818863043462,-0.573845569165,-0.0120551111,0.0,-0.00873116572505,0.00854686798082,-0.999925356111,0.0,0.655522701472,0.2530285876,0.303302676219,1.0,-0.01572,-0.0206605714286,0.787
0.460459064197,0.51343048135,-0.123988913783,-1.41017509634,0.0762914463168,1.91404484124,0.152103328617,-0.0102725040423,-0.0797835444554,0.00039672219017,-0.128934190295,-0.00292172624956,0.0467087665622,-0.011504275035,0.573896515088,0.818913805669,0.00192762945979,0.0,0.818868589902,-0.57383630008,-0.0121194094147,0.0,-0.00881877771796,0.00853392635016,-0.999924697795,0.0,0.655230999807,0.252686887214,0.303279948511,1.0,-0.01606,-0.0211074285714,0.804
0.460275972867,0.512074965914,-0.123997692956,-1.412321425,0.0761554802229,1.91482796666,0.151777505345,-0.0100131662282,-0.0832454468054,-0.0037770802052,-0.134864941381,-0.00714697709538,0.0527494731402,-0.0180628645643,0.573861466462,0.818938393225,0.0019163281341,0.0,0.818893056006,-0.573801331377,-0.0121219567613,0.0,-0.008827714119,0.0085257558327,-0.99992468864,0.0,0.65496759673,0.252356131903,0.303276116573,1.0,-0.01638,-0.021528,0.82
0.460077722753,0.510627834817,-0.124000251073,-1.41464028927,0.0760150047704,1.91571824102,0.1514618632,-0.0182327074933,-0.0856241503871,-0.000433698675179,-0.139337419229,-0.0147439998612,0.0587742957798,-0.0175136928536,0.573850580228,0.818945991054,0.0019293030873,0.0,0.818900825661,-0.573790391199,-0.0121149329619,0.0,-0.00881462991679,0.0085322334727,-0.999924748814,0.0,0.654688699606,0.252006352891,0.303263019619,1.0,-0.01672,-0.0219748571429,0.837
0.459873199888,0.509129483021,-0.124001236161,-1.41699538162,0.0758690499482,1.91658179232,0.151132498693,-0.0104259963901,-0.0914519102361,-0.000232515398292,-0.137963298384,-0.00686710456032,0.0533506549374,-0.020921012598,0.573832110133,0.818958922964,0.00193359241823,0.0,0.818913779038,-0.573771870969,-0.012116496502,0.0,-0.00881364167576,0.00853644458247,-0.999924721584,0.0,0.654397735173,0.251647197556,0.303265625608,1.0,-0.01706,-0.0224217142857,0.854
0.459682165864,0.507703709315,-0.123999213221,-1.4192287553,0.0757221066406,1.91737797027,0.150814010147,-0.0150587040735,-0.0849835460769,0.00133681139757,-0.146126526093,-0.0122576641459,0.0516599056674,-0.0173312002234,0.573802095013,0.818979985923,0.00191971815386,0.0,0.818934654684,-0.573741915353,-0.0121240597894,0.0,-0.00882810951359,0.00852909884224,-0.999924656639,0.0,0.654115553617,0.251307511971,0.303268935124,1.0,-0.01738,-0.0228422857143,0.87
0.459453230327,0.506121307332,-0.124007698359,-1.42166909515,0.075572028726,1.91828920298,0.150484743283,-0.0149368089671,-0.0933502243939,-0.00215254313979,-0.142631032148,-0.0102833801622,0.0514147567816,-0.0226697413011,0.573811631729,0.818973202854,0.00196244775759,0.0,0.818928451749,-0.573751283318,-0.0120996986588,0.0,-0.00878354115519,0.00855021675276,-0.999924868777,0.0,0.653822071772,0.250921706982,0.303293047843,1.0,-0.01772,-0.0232891428571,0.887
0.459218519889,0.504384169794,-0.124017267259,-1.42428658557,0.0754014155864,1.91929929247,0.150120407975,-0.00946055538048,-0.103784977626,-0.000921530473606,-0.147351619328,-0.0117726122753,0.0477866651857,-0.0188016432325,0.573801109138,0.818980324871,0.00206434683115,0.0,0.818937074598,-0.573740489362,-0.0120277020742,0.0,-0.0086662188426,0.00859224437272,-0.999925532221,0.0,0.653511634658,0.250515973643,0.303348890133,1.0,-0.01808,-0.0237622857143,0.905
0.45900088116,0.502809864026,-0.124025160697,-1.42661781731,0.0752528322177,1.92018374171,0.149801144017,-0.0126688334278,-0.0971924516964,-0.000933891213252,-0.150588738713,-0.010680293705,0.0564185168602,-0.0246976871873,0.57380297761,0.818978746066,0.00216870455751,0.0,0.81893695631,-0.573742020881,-0.0119625234419,0.0,-0.00855294018332,0.0086403302333,-0.999926093223,0.0,0.653233651652,0.250149334197,0.303415615719,1.0,-0.0184,-0.0241828571429,0.921
0.458767500227,0.501097257374,-0.124029986577,-1.42918712674,0.0750891310996,1.92108506299,0.149439936057,-0.0141811437356,-0.10341982931,-9.71012399621e-05,-0.155492449611,-0.0116445987335,0.0531245664833,-0.0186192352141,0.573788386674,0.818988869131,0.0022060050093,0.0,0.818947534317,-0.573727247425,-0.0119469033327,0.0,-0.00851889968347,0.00866176351784,-0.999926198377,0.0,0.652908374314,0.249746705161,0.303466344166,1.0,-0.01874,-0.0246297142857,0.938
0.45852503706,0.499387376356,-0.124030757619,-1.43179678402,0.0749276153047,1.92203170148,0.149076253967,-0.0123670305006,-0.100500464242,0.000553310398402,-0.152237991787,-0.0118582403398,0.055635794589,-0.0185045217328,0.573778790671,0.818995481688,0.002246608908,0.0,0.81895462265,-0.573717433525,-0.0119322844155,0.0,-0.00848373166383,0.008686529715,-0.999926282532,0.0,0.652582431119,0.249339180445,0.303499158044,1.0,-0.01908,-0.0250765714286,0.955
0.458282261433,0.497819616907,-0.124033962691,-1.43429447194,0.0747704668759,1.92295585098,0.148698927207,-0.0150882614712,-0.102365402635,0.000802434036838,-0.151939882139,-0.0148402037036,0.0603736880741,-0.0169213465,0.573755260291,0.819011989355,0.00223818737663,0.0,0.818971009483,-0.573693928812,-0.0119376954701,0.0,-0.00849324472705,0.00868249331187,-0.999926236831,0.0,0.652274529084,0.248940712137,0.303483786005,1.0,-0.0194,-0.0254971428571,0.971
0.458012687506,0.496056603071,-0.124039908301,-1.43712862248,0.0745995728813,1.92395105085,0.148289511872,-0.0103151322562,-0.0960282405392,-0.00246888938197,-0.155975858604,-0.00588081790933,0.048275295082,-0.0302085100556,0.573741980876,0.819021461832,0.00217516439238,0.0,0.818979503532,-0.573680749822,-0.0119882016593,0.0,-0.00857090952472,0.00865971634771,-0.999925771656,0.0,0.65191135346,0.248488647536,0.303450039452,1.0,-0.01976,-0.0259702857143,0.989
0.457749651765,0.494481505659,-0.124040081006,-1.43970971392,0.0744372594683,1.92484896555,0.147924019488,-0.0168031313079,-0.10063424915,0.000167035500974,-0.16480819644,-0.013206503342,0.0552509533479,-0.0266526909627,0.573744068144,0.819020242303,0.00208179456239,0.0,0.818976933375,-0.573683097056,-0.0120512926166,0.0,-0.0086761292893,0.00861946533029,-0.999925212002,0.0,0.6515804071,0.248066718908,0.303396618349,1.0,-0.0210862857143,-0.0277134040816,1.005
0.457492715469,0.492642355375,-0.124092006101,-1.44258078545,0.0742632338681,1.92591269372,0.147511884207,-0.0148463328119,-0.122241105914,-0.00491844896241,-0.190057798133,-0.0133652024223,0.0646817554098,-0.0269129282011,0.57375152359,0.819014976948,0.00209847910423,0.0,0.818972043258,-0.573690637384,-0.0120246347352,0.0,-0.00864464456181,0.00861791414121,-0.999925498063,0.0,0.651228648048,0.247596884179,0.303404206971,1.0,-0.0255114285714,-0.0335293061224,1.021
0.457128984304,0.490223248998,-0.12410335884,-1.44647921199,0.0740377713841,1.92733049385,0.146942269557,-0.0232562850289,-0.137144986555,-0.000787742781223,-0.22846161611,-0.0144495127358,0.0736530337141,-0.0351322203255,0.573725168944,0.819033558714,0.00205112678243,0.0,0.818989777762,-0.573664260983,-0.0120750359686,0.0,-0.00871336931053,0.00860776964505,-0.999924988935,0.0,0.650731155479,0.246983102688,0.303354991256,1.0,-0.0304897142857,-0.0400721959184,1.039
0.456672026359,0.487284535745,-0.124128837947,-1.45111567061,0.0737638492503,1.92903675658,0.146279183962,-0.0231398957494,-0.165893091952,-0.0030475921109,-0.269937578501,-0.0141359937086,0.105806181506,-0.0368009362502,0.573731165147,0.819029338291,0.00205914062875,0.0,0.818985542348,-0.573670103536,-0.0120847273829,0.0,-0.00871664667657,0.00861995708733,-0.999924855382,0.0,0.650150680314,0.246231826911,0.303339484022,1.0,-0.035468,-0.0466150857143,1.057
0.456232194855,0.484462082191,-0.124181964286,-1.45542853566,0.0734954391605,1.9306705767,0.145611410642,-0.0287198880545,-0.190829677766,-0.00693719612612,-0.298659925002,-0.0168330116533,0.105702421878,-0.0505982859046,0.573723234897,0.819034610925,0.00216858169949,0.0,0.81899248162,-0.5736619476,-0.0120013260779,0.0,-0.00858563393359,0.00866165849188,-0.999925628516,0.0,0.649629952044,0.245508563242,0.303389623896,1.0,-0.0396165714286,-0.0520674938775,1.072
0.455663215644,0.480906803963,-0.124241972784,-1.46098285171,0.0731654898811,1.93258524004,0.144772573522,-0.0359366857015,-0.219496866745,-0.00476374270895,-0.345605809334,-0.0228309341037,0.125281551937,-0.0547227038148,0.573727936362,0.819031499679,0.00209868331467,0.0,0.818988244244,-0.573666729045,-0.012061785889,0.0,-0.00867520481765,0.00863914682041,-0.999925050173,0.0,0.648912289577,0.244570013734,0.303379806548,1.0,-0.0443182857143,-0.0582468897959,1.089
0.454980946228,0.47670044911,-0.124298441914,-1.4674552517,0.0727700611582,1.93491769102,0.143840132393,-0.0404713446044,-0.24522287608,-0.00185193903853,-0.36623030605,-0.025479371265,0.128792907292,-0.0546359988528,0.573771001061,0.819001195336,0.00215111142382,0.0,0.818958586173,-0.573709527306,-0.0120399050414,0.0,-0.00862674959417,0.00866998646276,-0.999925202466,0.0,0.648093358508,0.243478348624,0.303416731943,1.0,-0.0492965714286,-0.0647897795918,1.107
0.454348141701,0.472893594723,-0.124334603233,-1.47334029064,0.0724256412027,1.93706455942,0.142976332345,-0.0438529491799,-0.25982267884,-0.001963144466,-0.404524519839,-0.0249783844089,0.138882255919,-0.0609326981002,0.573798407505,0.818981819627,0.00221665663289,0.0,0.818939853788,-0.573736440462,-0.0120316110321,0.0,-0.00858205924103,0.00871919558029,-0.999925159143,0.0,0.647345917197,0.24249130551,0.303436308554,1.0,-0.0534451428571,-0.0702421877551,1.122
0.453566715336,0.468183920262,-0.124384831802,-1.48044597589,0.0719818675078,1.93969325014,0.141855624516,-0.0468918588805,-0.291590235563,-0.00440597440418,-0.426003750568,-0.0305907273397,0.172429956892,-0.0711756762424,0.573775287729,0.818997474966,0.0024087534828,0.0,0.818958116045,-0.57371264797,-0.0119226098412,0.0,-0.00838281641123,0.00881373679815,-0.99992602048,0.0,0.646452669551,0.241285028097,0.30353650556,1.0,-0.0581468571429,-0.0764215836735,1.139
0.45270802707,0.463088476598,-0.124402673688,-1.48823866274,0.071471952653,1.94244268816,0.140650465093,-0.0473110493299,-0.305207691305,-0.00132686404092,-0.469091324779,-0.0353956843989,0.155793466167,-0.0683942161917,0.57373172963,0.819027874037,0.00244762485134,0.0,0.818988910466,-0.573668825216,-0.0119159729244,0.0,-0.00835554876855,0.00884131958919,-0.999926005199,0.0,0.645427473285,0.239971337714,0.303579919643,1.0,-0.0628485714286,-0.0826009795918,1.156
0.451831529435,0.457975981838,-0.124436318917,-1.49612052906,0.0709517656546,1.94512617666,0.139482350519,-0.0534142307516,-0.331131532275,-0.00584549006864,-0.501787668154,-0.0398997949012,0.177697763496,-0.0793487439517,0.573740750867,0.8190217898,0.00236759993241,0.0,0.818981576813,-0.573677947612,-0.0119806579464,0.0,-0.00845434281657,0.00881298208919,-0.999925424936,0.0,0.644364490347,0.238622553746,0.303581367966,1.0,-0.0672737142857,-0.0884168816326,1.172
0.450761882619,0.451884459161,-0.124482868654,-1.50540572175,0.0703178631493,1.94849487786,0.137970552511,-0.0580986279473,-0.361285681609,-0.000314103190752,-0.515102097507,-0.0404701394413,0.20144106597,-0.0840585046281,0.57366454147,0.819074811541,0.00248874672775,0.0,0.819036484836,-0.573601593115,-0.0118825832914,0.0,-0.00830533548561,0.00885516155621,-0.999926301042,0.0,0.643152949399,0.237018953967,0.303640257002,1.0,-0.072252,-0.0949597714286,1.19
0.449662133058,0.445724795435,-0.124521122871,-1.51465112295,0.0697103494993,1.95189126003,0.136581168479,-0.0641795774781,-0.368300350069,0.000161437850438,-0.559232931061,-0.0355969458299,0.191047208074,-0.0836031158169,0.57370692511,0.81904432356,0.00273989528611,0.0,0.819009429261,-0.57364321997,-0.0117370296873,0.0,-0.00804158001189,0.00897778813659,-0.999927363518,0.0,0.641947493372,0.235414930008,0.30375771617,1.0,-0.0769537142857,-0.101139167347,1.207
0.448570323915,0.439704377864,-0.124547048445,-1.52407077608,0.0690530251339,1.95502358768,0.13509958566,-0.0718770310051,-0.379061156691,-0.00432841229515,-0.597127585902,-0.0455149620172,0.196949741307,-0.0946650212589,0.573642848887,0.81908998454,0.00249520514943,0.0,0.819051644321,-0.57357977423,-0.0118908969563,0.0,-0.00830867536562,0.00886500056515,-0.999926186115,0.0,0.640623266637,0.233779668949,0.303665762223,1.0,-0.0813788571429,-0.106955069388,1.223
0.447300168211,0.432851638154,-0.124568150358,-1.5343546279,0.068373765677,1.9586931184,0.133418156242,-0.0781476736739,-0.41938083651,-0.0008652634415,-0.607242447163,-0.036537699374,0.227358207,-0.102453946113,0.573584406259,0.819130273628,0.00269640930768,0.0,0.819094431093,-0.573520448864,-0.011804854485,0.0,-0.00812342420906,0.00897986718889,-0.999926683295,0.0,0.639231927063,0.231977446146,0.303766621572,1.0,-0.0860805714286,-0.113134465306,1.24
0.445837788605,0.425398161189,-0.124618308041,-1.54581248766,0.0675482194742,1.96266627158,0.131545357537,-0.0800837719509,-0.431679743186,-0.0054825528827,-0.657913253639,-0.0431229110977,0.221569378285,-0.107827190314,0.57354671706,0.819156883146,0.00262888677055,0.0,0.819120378469,-0.573483251331,-0.011811558791,0.0,-0.0081680544121,0.00892802738655,-0.999926783927,0.0,0.637651428475,0.229908113762,0.303733751768,1.0,-0.0910588571428,-0.119677355102,1.258
0.444512460036,0.418887615318,-0.124719072475,-1.55582413214,0.0668263823927,1.96600100142,0.129934657237,-0.0880270170624,-0.447426651268,-0.0131246723612,-0.66740746654,-0.0568827150496,0.23612499249,-0.104175720346,0.573610398644,0.81911284901,0.00244909287284,0.0,0.819074239315,-0.573547858547,-0.0118739777396,0.0,-0.00832161597966,0.00881719574487,-0.999926501182,0.0,0.636153946106,0.227903294964,0.303684707453,1.0,-0.095484,-0.125493257143,1.274
0.44283122374,0.410651844043,-0.124792876048,-1.56813395566,0.0659875251666,1.97040046664,0.127851571225,-0.09691635074,-0.458267598565,-0.00431654047471,-0.693191119222,-0.0472869087024,0.244108060415,-0.120647239966,0.573608317556,0.819113491982,0.00270780070737,0.0,0.819078291016,-0.573544862486,-0.0117384327347,0.0,-0.00806221866607,0.00895133576846,-0.999927434476,0.0,0.634558921737,0.225756217078,0.303784313542,1.0,-0.100185714286,-0.131672653061,1.291
0.441111085487,0.402678857325,-0.124871695139,-1.58040327213,0.0651350426706,1.97439589449,0.125847628077,-0.100833098681,-0.47168073246,-0.00867919919429,-0.724739714649,-0.058746383793,0.241829412465,-0.119742697696,0.573690543761,0.819056733941,0.0024440715553,0.0,0.819017548526,-0.573627473051,-0.0119383528408,0.0,-0.00837636296716,0.00885082803238,-0.999925746937,0.0,0.632776592301,0.22343424478,0.303678294726,1.0,-0.104887428571,-0.13785204898,1.308
0.439394559818,0.394719086443,-0.124968214807,-1.59202901237,0.06429899079,1.97854476553,0.123859351532,-0.108330227208,-0.495657115491,-0.00663000941659,-0.735535291417,-0.0606301823546,0.262817008709,-0.132528093586,0.573764111269,0.819004004163,0.00281650241683,0.0,0.818970247992,-0.573700291277,-0.0116814208529,0.0,-0.00795145528604,0.00900918519152,-0.999927801864,0.0,0.631171371797,0.221196165454,0.303865062647,1.0,-0.109312571429,-0.14366795102,1.324
0.437482638202,0.386197106428,-0.125007091936,-1.60507362655,0.0633144382868,1.98280212962,0.12159732827,-0.113002094002,-0.507749719516,0.000239146801033,-0.756114219392,-0.0612859912157,0.246858471349,-0.137345158856,0.573727603953,0.819030432862,0.00255605343851,0.0,0.818993092887,-0.573664509237,-0.0118360274626,0.0,-0.00822790796742,0.00888421683635,-0.999926683423,0.0,0.629234012924,0.218706885752,0.303748082175,1.0,-0.114014285714,-0.149847346939,1.341
0.435470881513,0.377229715208,-0.125076660872,-1.61828939171,0.0623284348625,1.98727488282,0.119210755876,-0.123063240913,-0.526428737169,-0.00281665260148,-0.799108181203,-0.0555518889757,0.263993091837,-0.136592513736,0.573687107725,0.819058296237,0.00271232315078,0.0,0.819023189568,-0.573623665833,-0.0117325124119,0.0,-0.00805391394079,0.00895241903183,-0.999927491703,0.0,0.627302433125,0.216144994096,0.303846177892,1.0,-0.118716,-0.156026742857,1.358
0.433411385746,0.368645306768,-0.12514454236,-1.63124208682,0.0613361431126,1.99149544415,0.11694926445,-0.13493459702,-0.536691010231,-0.0106710263359,-0.795717463062,-0.0702202502012,0.249103015919,-0.129754830901,0.573759747134,0.819007939959,0.00254828447059,0.0,0.818970648101,-0.573696838559,-0.0118220927737,0.0,-0.00822060337619,0.00887018192337,-0.999926868102,0.0,0.625359563276,0.213572818303,0.303774064433,1.0,-0.123141142857,-0.161842644898,1.374
0.431150547055,0.359136507336,-0.125284866246,-1.64519565076,0.0602259968142,1.99613734213,0.114387725808,-0.135118712291,-0.561518236124,-0.0133373006135,-0.802463141339,-0.067235536021,0.269284663478,-0.158919455073,0.573792129486,0.81898495517,0.00264239405904,0.0,0.818949614068,-0.573729667408,-0.0116852579987,0.0,-0.00805418570159,0.00886906742257,-0.999928232293,0.0,0.62328213678,0.210749933176,0.303856422532,1.0,-0.127842857143,-0.168022040816,1.391
0.428563091478,0.348907787076,-0.12535406395,-1.66055443149,0.0591198152748,2.00095293548,0.111530837081,-0.150749031841,-0.578547378364,-0.0100062543633,-0.855396853436,-0.0620333435297,0.268831096838,-0.16064703728,0.57383318061,0.818956948831,0.00239660048851,0.0,0.818917217923,-0.573770357444,-0.0119546647725,0.0,-0.00841541949035,0.00882277057973,-0.999925666954,0.0,0.620886060405,0.207643275621,0.303738308837,1.0,-0.132821142857,-0.174564930612,1.409
0.426173158365,0.339416832092,-0.125443088953,-1.67420170409,0.0580520871424,2.00553260119,0.108954168697,-0.148217815768,-0.583507341938,0.000870167648861,-0.88514926227,-0.074339076029,0.289372851129,-0.163284289464,0.573889713106,0.818916349859,0.00271219965489,0.0,0.818881187346,-0.573826185209,-0.0117412554942,0.0,-0.00805893006999,0.00895932751563,-0.999927389412,0.0,0.618819409199,0.204833595721,0.303898384504,1.0,-0.137246285714,-0.180380832653,1.425
0.42355893718,0.329200457762,-0.125444082719,-1.68923831735,0.0568274745805,2.01025794799,0.106015370018,-0.159472401153,-0.611809749287,-9.24104338559e-05,-0.864580004693,-0.0741070238578,0.281976077088,-0.174712298357,0.573743351298,0.819019271924,0.00259729862183,0.0,0.818982353505,-0.573679974832,-0.0118295403814,0.0,-0.00819876119393,0.00891443351127,-0.999926653905,0.0,0.616409619207,0.201794002175,0.303862326683,1.0,-0.141948,-0.186560228571,1.442
0.420628975402,0.3180266749,-0.125453633233,-1.70542258725,0.0554938663575,2.0154247568,0.102889292477,-0.162631304547,-0.6278679711,-0.00191718588823,-0.915337408451,-0.0751799335811,0.297322212277,-0.171897815211,0.573690790967,0.819055810788,0.00268366838296,0.0,0.819020081115,-0.57362717413,-0.0117778916499,0.0,-0.00810748157799,0.0089550186851,-0.999927035529,0.0,0.613815676099,0.1984692367,0.30391469195,1.0,-0.146926285714,-0.193103118367,1.46
0.418070131457,0.308515462429,-0.125502848276,-1.71911490298,0.0543639574618,2.01975096703,0.100055999387,-0.174704930995,-0.64620107836,0.00133860518087,-0.924065003194,-0.0773290511422,0.304348168763,-0.193063467225,0.573570896195,0.819139487585,0.0027701657552,0.0,0.819104939267,-0.573507048388,-0.0117265007034,0.0,-0.00801708454522,0.00899520915598,-0.999927403649,0.0,0.611598968906,0.195597018408,0.303967562328,1.0,-0.151074857143,-0.198555526531,1.475
0.414799752391,0.296936026239,-0.125560432419,-1.7359881659,0.0529433728788,2.02487616351,0.0966314718978,-0.185277897628,-0.653794307423,-0.00281227027192,-0.941280718851,-0.0767249818214,0.27848775623,-0.187110641636,0.57353835509,0.819162874705,0.00258589396479,0.0,0.819125612504,-0.573474836044,-0.0118570765972,0.0,-0.00823009028817,0.00891883190064,-0.999926357314,0.0,0.608796215744,0.191992122083,0.303892329277,1.0,-0.156053142857,-0.205098416327,1.493
0.41151251318,0.285620465871,-0.125691183176,-1.75199302874,0.0516515031136,2.02986875438,0.093267958819,-0.193182063821,-0.672903406238,-0.00874249145748,-0.961746722171,-0.0902780238054,0.297900023466,-0.196635591555,0.573622391889,0.819103243631,0.00282395069237,0.0,0.819068963286,-0.573557861452,-0.0117541418015,0.0,-0.00800831074058,0.0090556236496,-0.99992692865,0.0,0.606170188996,0.188457901705,0.304010981709,1.0,-0.160754857143,-0.211277812245,1.51
0.408300646389,0.274906593696,-0.125795376115,-1.76741860808,0.0503329384494,2.03440331989,0.0899514094768,-0.204049372439,-0.678394849941,-0.00606429544811,-0.958697213552,-0.0800798156789,0.291661153059,-0.20739216269,0.573612005639,0.819111115468,0.00264469370585,0.0,0.819074069655,-0.57354765567,-0.0118954611584,0.0,-0.00822700497887,0.00898975245031,-0.999925747613,0.0,0.603537669862,0.185032971531,0.303947717816,1.0,-0.16518,-0.217093714286,1.526
0.404648116614,0.263177984718,-0.125953528946,-1.78395054022,0.0488765530755,2.03940481204,0.0863186734247,-0.225551024274,-0.692003129598,-0.00836252063091,-0.995649676334,-0.0818541426722,0.292630741401,-0.215524409096,0.573707126346,0.819044154967,0.00274814388581,0.0,0.819008850452,-0.573642814076,-0.011797103126,0.0,-0.00808605105027,0.00901900994229,-0.999926633928,0.0,0.600748923092,0.181239052214,0.304012605772,1.0,-0.169881714286,-0.223273110204,1.543
0.400810952204,0.251273905326,-0.126122880358,-1.80069247175,0.0473718540866,2.04434208287,0.0826212597528,-0.227108831159,-0.708871608783,-0.0145826764293,-0.98117390354,-0.0899741261735,0.291540150869,-0.21726899124,0.573872588172,0.81892816697,0.00276709053705,0.0,0.818893390483,-0.57380850101,-0.011754407407,0.0,-0.00803839000235,0.0090116578551,-0.999927084496,0.0,0.597871624189,0.177327528222,0.30404574477,1.0,-0.174583428571,-0.229452506122,1.56
0.397102469327,0.23994599089,-0.126206009021,-1.81678216508,0.045934471703,2.04893325227,0.0788890120101,-0.229674431461,-0.708460955707,-0.00689486421629,-0.999617760537,-0.0905310221572,0.280987395016,-0.240843279797,0.573818460612,0.818966649029,0.0025978721478,0.0,0.818929117758,-0.573754398554,-0.0119053403769,0.0,-0.00825969516706,0.00895914972557,-0.99992575278,0.0,0.595008977253,0.173623985098,0.30395728856,1.0,-0.179008571429,-0.235268408163,1.576
0.393036317286,0.227596694318,-0.126260491731,-1.83379570431,0.0443842190647,2.0539855612,0.0749069697149,-0.245452972534,-0.71132220865,-0.00181418295026,-1.01179540244,-0.097443575383,0.284941789425,-0.244533538056,0.573787727821,0.818987247595,0.00287725205253,0.0,0.818953623296,-0.573722946113,-0.0117341763377,0.0,-0.00795954850333,0.00908943737208,-0.999927011194,0.0,0.591997244623,0.169683801055,0.304069342378,1.0,-0.183710285714,-0.241447804082,1.593
0.388477491715,0.214249702684,-0.126342193911,-1.85217338938,0.0426194986218,2.05915758926,0.0704263085684,-0.251622188746,-0.752320483236,-0.00603829614275,-1.01805753555,-0.0920638025969,0.28906612139,-0.245339473605,0.573696344521,0.819051097747,0.00292411746127,0.0,0.819018357716,-0.573631729285,-0.011675435033,0.0,-0.007885563146,0.00909323535296,-0.999927562859,0.0,0.588656539957,0.165328014251,0.304123034692,1.0,-0.188688571429,-0.247990693878,1.611
0.384485470863,0.203072827578,-0.12645736146,-1.86771038586,0.041186278177,2.06333870062,0.0665739670235,-0.265548435573,-0.743462279309,-0.0075333557462,-1.03742553475,-0.0983282376722,0.273717729403,-0.26154835654,0.573714336443,0.819039044798,0.00276589173832,0.0,0.819003474281,-0.573649403533,-0.0118498034921,0.0,-0.00811895590235,0.00906385159786,-0.999925961834,0.0,0.585765427295,0.161569011681,0.304049317304,1.0,-0.192837142857,-0.253443102041,1.626
0.379766005128,0.190053027896,-0.126603372254,-1.88532570058,0.0394767125743,2.06820562966,0.0620599475574,-0.290951065576,-0.759427653408,-0.0103297503016,-1.03759868152,-0.0972201151181,0.275052675876,-0.27552522023,0.573731989896,0.819026089303,0.00293525340004,0.0,0.818992982749,-0.573666742357,-0.0117349828358,0.0,-0.00792755247396,0.00913686290391,-0.999926833147,0.0,0.582305507915,0.156964198347,0.304144571605,1.0,-0.197815428571,-0.259985991837,1.644
0.374741954779,0.176847760509,-0.126785208405,-1.90308015498,0.0378390955037,2.07291432502,0.0573816440566,-0.296774773231,-0.781078872981,-0.0086307678824,-1.04290435442,-0.0994232033339,0.281675977522,-0.278243613693,0.573883127756,0.818919661849,0.00308058700592,0.0,0.818887798266,-0.573816603346,-0.0117484669543,0.0,-0.00785350981779,0.00926508045422,-0.999926237613,0.0,0.579149508147,0.152715414717,0.304221833536,1.0,-0.202240571429,-0.265801893878,1.66
0.369624068014,0.163567619632,-0.12685839087,-1.92117958835,0.0359475901812,2.07749510934,0.0525384558479,-0.298858854066,-0.776215443246,-0.00542836609733,-1.06532034075,-0.108745877973,0.258594962671,-0.292666916423,0.573769936063,0.818999949511,0.00280892727441,0.0,0.818964367799,-0.573704195343,-0.0118998916975,0.0,-0.0081346739554,0.00912838719767,-0.999925247019,0.0,0.575606242881,0.148193019023,0.304122895831,1.0,-0.206942285714,-0.271981289796,1.677
0.364287458465,0.149981858665,-0.126924256195,-1.93914055997,0.034094115156,2.08221920795,0.047510905176,-0.319450437013,-0.800157066032,-0.00479240967607,-1.07767482489,-0.112481095931,0.266523393075,-0.294671601662,0.57366059863,0.819075727596,0.00303594185595,0.0,0.819043575503,-0.573594600833,-0.0117303974664,0.0,-0.00786683544377,0.0092160129423,-0.999926586308,0.0,0.572107193557,0.143627151315,0.304229192671,1.0,-0.211644,-0.278160685714,1.694
0.358684553714,0.136192345206,-0.127053877674,-1.95730424826,0.0322725883177,2.08674885643,0.0422985906475,-0.332968860369,-0.836554189836,-0.00487894955946,-1.06903172913,-0.113158007404,0.275983669699,-0.321328307957,0.573653862189,0.81907997914,0.00315928294401,0.0,0.819048955965,-0.573586882564,-0.0117321261344,0.0,-0.00779757650196,0.00931796626532,-0.999926183928,0.0,0.568487044439,0.138906621171,0.30429103439,1.0,-0.216345714286,-0.284340081633,1.711
0.353144677724,0.123168048695,-0.127223155713,-1.97456429909,0.0303940333981,2.09089759672,0.0371998857953,-0.356145937427,-0.82613789654,-0.0139451885208,-1.07574302004,-0.11425906223,0.255793676638,-0.316369881429,0.573652222413,0.819081657829,0.0030186802521,0.0,0.819048840544,-0.573585771019,-0.0117943626046,0.0,-0.00792922669755,0.00923848675005,-0.999925886117,0.0,0.56498808489,0.134297971913,0.3042396138,1.0,-0.220770857143,-0.290155983673,1.727
0.34655007797,0.108198965119,-0.127423539747,-1.99398674332,0.0282421437131,2.09558269759,0.0312451980289,-0.365033258353,-0.855078087995,-0.00472369393193,-1.08986930518,-0.119917382995,0.249824405036,-0.342850462079,0.573725073395,0.819030247533,0.00312100712234,0.0,0.818999418183,-0.57365903718,-0.0116622887406,0.0,-0.00776152272659,0.00924722851882,-0.999927121109,0.0,0.561035111355,0.128967791577,0.304302981311,1.0,-0.225749142857,-0.296698873469,1.745
0.340238848469,0.0938603866427,-0.12753103161,-2.01241274973,0.0262229191708,2.09984549765,0.0253995030329,-0.373239110995,-0.824145242443,-0.00517958124607,-1.09112387355,-0.116109515601,0.252564996574,-0.354276495907,0.573584895896,0.819128006841,0.00322839107491,0.0,0.819098537004,-0.573518487428,-0.0116137055899,0.0,-0.0076617170576,0.00930599568736,-0.999927345629,0.0,0.557170137789,0.123990947324,0.304363601233,1.0,-0.230450857143,-0.302878269388,1.762
0.333944545868,0.0802860270916,-0.127682973017,-2.02986058477,0.0243639436764,2.10361735416,0.01967288346,-0.406426516761,-0.889180109548,-0.0106391783947,-1.07092547085,-0.124024494199,0.242466947191,-0.370967123705,0.573587380271,0.819126468987,0.00317677501496,0.0,0.819095151447,-0.57351972591,-0.011789985992,0.0,-0.00783569732061,0.00936484849292,-0.999925447951,0.0,0.553430784098,0.119132981868,0.304340554741,1.0,-0.234876,-0.308694171429,1.778
0.326975961711,0.0656474721906,-0.127884420598,-2.04852711331,0.0221929632076,2.10768092821,0.0134283440288,-0.422793240735,-0.861593814355,-0.0195527981805,-1.10282847845,-0.128305398019,0.221775635313,-0.377991401782,0.573607598205,0.819112452513,0.00314011472839,0.0,0.819080820835,-0.573540262763,-0.0117865529755,0.0,-0.00785368129573,0.00933304378266,-0.999925604225,0.0,0.549400486746,0.113834809508,0.304322147932,1.0,-0.239577714286,-0.314873567347,1.795
0.319603136914,0.0508703743959,-0.128121749233,-2.06698490673,0.020045077706,2.11152663641,0.00691262834429,-0.436437405931,-0.857472573005,-0.010347552261,-1.09132431184,-0.12995267266,0.223317345453,-0.376795848263,0.573737988013,0.819020748255,0.00323758243998,0.0,0.818990461276,-0.573670393013,-0.0117324942231,0.0,-0.00775200025681,0.0093831074198,-0.99992592915,0.0,0.545367124639,0.108384511362,0.304392717249,1.0,-0.23998,-0.315402285714,1.812
0.312643405347,0.0371330065153,-0.128263033871,-2.08417935795,0.0180846864513,2.11491768463,0.000743607600422,-0.436247161068,-0.850506295003,-0.0157826545166,-1.05303695138,-0.120211533887,0.215956307052,-0.396803020567,0.573773692892,0.8189958519,0.00320793042032,0.0,0.818964209591,-0.573705029019,-0.0118705512843,0.0,-0.00788167819349,0.00943837196609,-0.999924395284,0.0,0.541497333932,0.103372698486,0.304366691044,1.0,-0.23998,-0.315402285714,1.828
0.304569211317,0.021741673264,-0.128413708253,-2.1032650557,0.0157011434387,2.11855324436,-0.00641203279786,-0.452028372533,-0.847290057684,-0.00550273367364,-1.06339327158,-0.12954965119,0.192335619439,-0.393087583863,0.573717959093,0.819035360091,0.00308694611364,0.0,0.819002321685,-0.57364995528,-0.0119026376226,0.0,-0.00797800819264,0.00935715315287,-0.999924394677,0.0,0.537380838113,0.0979989025155,0.304335957562,1.0,-0.23998,-0.315402285714,1.845
0.297145296696,0.00810089231407,-0.128624499703,-2.11976315702,0.0136377788169,2.12164593014,-0.0128921215805,-0.474387343429,-0.858684225677,-0.0133731885275,-1.02908774854,-0.12630128191,0.18960049158,-0.40932594273,0.573823486834,0.818960880408,0.00322943029596,0.0,0.81893012726,-0.573755472717,-0.0117835094175,0.0,-0.00779748006645,0.00940651332887,-0.99992535562,0.0,0.533347580937,0.0925557988215,0.304429185005,1.0,-0.23998,-0.315402285714,1.862
0.28917060602,-0.00625188295462,-0.128745789618,-2.13699454802,0.0115786824428,2.12471347673,-0.0199407933282,-0.471962210849,-0.833914837953,-0.00469738452432,-1.00502704858,-0.126621461894,0.194120718111,-0.414776887321,0.57381584456,0.818965482519,0.00341494887144,0.0,0.818936647561,-0.573746592461,-0.0117627302582,0.0,-0.00767410253347,0.00954645157657,-0.999924983893,0.0,0.529294686716,0.087228381204,0.30450673802,1.0,-0.23998,-0.315402285714,1.879
0.281070396723,-0.0204170304096,-0.128842221469,-2.15411699009,0.0093467673622,2.12755474834,-0.0270990587031,-0.482907189914,-0.831788001363,-0.00704137740758,-0.998950837006,-0.13357370456,0.146093783263,-0.428763981691,0.573694425598,0.81905110286,0.00327778005782,0.0,0.819020301421,-0.573625441239,-0.0118467685223,0.0,-0.00782304140936,0.00948117601557,-0.999924450808,0.0,0.525165685939,0.0819077102351,0.304451602253,1.0,-0.23998,-0.315402285714,1.896
0.272692109701,-0.0345871075478,-0.129032761125,-2.17075070143,0.00716914694891,2.13029209272,-0.0343510315342,-0.504939996842,-0.848622952851,-0.0132372459249,-0.998801462281,-0.132206927194,0.155038428881,-0.422423189297,0.573794005124,0.818980618582,0.00345441333687,0.0,0.818952720777,-0.573725155641,-0.0116890469205,0.0,-0.00759136520557,0.00953628985267,-0.999925712416,0.0,0.521139010002,0.0765077036416,0.304550379471,1.0,-0.23998,-0.315402285714,1.913
0.265132259033,-0.0469093994615,-0.129178080092,-2.18530009373,0.00540386995862,2.13239834584,-0.0409388946878,-0.507628929332,-0.852447167011,-0.0129900918157,-0.952153369902,-0.109159750117,0.145557075501,-0.44424577548,0.573889361332,0.818913812518,0.00345188624705,0.0,0.818884349023,-0.573818590763,-0.0118909512175,0.0,-0.00775705704163,0.00965097183328,-0.999923340466,0.0,0.517508347812,0.0717575689228,0.304523295271,1.0,-0.23998,-0.315402285714,1.928
0.255984426053,-0.0616042220491,-0.129305767184,-2.20235277961,0.00307904063032,2.13492914523,-0.0489876862844,-0.513218077996,-0.840809866678,-0.00691112651105,-0.944308052162,-0.120920093757,0.123453075107,-0.457385109153,0.57379196644,0.818981688739,0.00353831317257,0.0,0.818953943767,-0.573721656199,-0.011774807721,0.0,-0.00761349160167,0.00965419147672,-0.99992441281,0.0,0.513223141449,0.0661243683833,0.304565998488,1.0,-0.23998,-0.315402285714,1.946
0.247102848225,-0.075429628723,-0.129493937943,-2.21819724889,0.000905994424792,2.13705365118,-0.0567451148159,-0.524098503685,-0.816798211972,-0.0150342199563,-0.939803576711,-0.118757173128,0.117857529808,-0.452978736523,0.573807580395,0.818970473772,0.0036014819911,0.0,0.818943737541,-0.573737297631,-0.0117224123621,0.0,-0.00753415011666,0.0096760064895,-0.999924802913,0.0,0.50915766112,0.0607442184925,0.304612358341,1.0,-0.23998,-0.315402285714,1.963
0.238525070629,-0.0882288399665,-0.129645127105,-2.23303529983,-0.00107362013613,2.13883202748,-0.0642211484767,-0.531956635326,-0.79179087129,-0.00898583277148,-0.935972191439,-0.114809687328,0.107270656348,-0.4680258893,0.573841845442,0.818947108544,0.00345206153509,0.0,0.818917092648,-0.573770392126,-0.01196157975,0.0,-0.00781536091913,0.00969119377959,-0.999922497445,0.0,0.505251983134,0.0556713098017,0.304508463033,1.0,-0.23998,-0.315402285714,1.979
0.229342456474,-0.101856154176,-0.129778502071,-2.24825440099,-0.00324195628069,2.14061476136,-0.0722828485793,-0.550795395897,-0.822783800885,-0.015432921943,-0.898362232549,-0.137570551203,0.0887873906207,-0.479082197481,0.573764190968,0.819001007695,0.00357063846176,0.0,0.818973138148,-0.573693082582,-0.0118318591135,0.0,-0.00764200108313,0.00971314106617,-0.999923624438,0.0,0.501208267472,0.0503576818839,0.304594217055,1.0,-0.23998,-0.315402285714,1.996
0.219866821763,-0.115234957748,-0.12998261117,-2.26338211875,-0.0053701011339,2.14211408419,-0.0804884977953,-0.563662464502,-0.781270140237,-0.0177517931082,-0.874072775178,-0.127255798469,0.0884543519037,-0.4906881825,0.573859614319,0.818934803415,0.00341726654583,0.0,0.818903806121,-0.573787637127,-0.0120436996754,0.0,-0.00790237167446,0.00970999237906,-0.999921631214,0.0,0.49708030557,0.0449561050031,0.304514566494,1.0,-0.23998,-0.315402285714,2.013
0.210807691716,-0.127856209383,-0.130107008364,-2.27725820541,-0.00730580759128,2.14348635778,-0.0884338895927,-0.568104723062,-0.788695613421,-0.0053797109126,-0.881260675107,-0.119964470948,0.0654710252668,-0.501891730361,0.573838702855,0.818948892135,0.00354994052813,0.0,0.818919454893,-0.573766017502,-0.0120095985991,0.0,-0.00779856237505,0.00979887650288,-0.999921579147,0.0,0.493255996081,0.0399394726519,0.304563316148,1.0,-0.23998,-0.315402285714,2.029
0.201018855383,-0.14110581685,-0.130270923263,-2.29174899119,-0.00942837412177,2.14473616085,-0.0970356213798,-0.578415425587,-0.801000381637,-0.00403352779678,-0.853750612372,-0.127132657846,0.0810720426311,-0.508478782142,0.573795549457,0.818979048628,0.00356822546714,0.0,0.818949743406,-0.573722668397,-0.0120151755629,0.0,-0.00779315525751,0.0098166405954,-0.999921447064,0.0,0.489177850938,0.0345976645116,0.304577522639,1.0,-0.23998,-0.315402285714,2.046
0.190352830197,-0.15505360521,-0.130495972534,-2.30680101285,-0.011673204607,2.14596002357,-0.106340865863,-0.599865492616,-0.795879894566,-0.0141868465961,-0.850239055141,-0.12643976013,0.057983007347,-0.511909634084,0.573856522117,0.818935906518,0.00366332371182,0.0,0.818908160477,-0.573783690209,-0.0119351772731,0.0,-0.00767233753804,0.00984919463036,-0.999922061264,0.0,0.48487937702,0.0288779091313,0.304615108412,1.0,-0.23998,-0.315402285714,2.064
0.180839243662,-0.167349846287,-0.130594732024,-2.31986060137,-0.0135739357242,2.14677378548,-0.114772322337,-0.598661528312,-0.78725985535,-0.00511439984828,-0.792927763998,-0.109096874308,0.0522384053549,-0.533862046907,0.573737621829,0.819018610489,0.00379524327941,0.0,0.818992356588,-0.573664044123,-0.0119092918246,0.0,-0.00757688291244,0.00994127540667,-0.999921877893,0.0,0.480814464667,0.0236190672775,0.304687050661,1.0,-0.23998,-0.315402285714,2.081
0.169778618604,-0.180962186632,-0.130814008842,-2.33438409896,-0.0158287322004,2.14758326719,-0.124481464644,-0.625757731943,-0.754635849932,-0.0196321794772,-0.823650701148,-0.134605506204,0.0491534947666,-0.554904751338,0.573755518896,0.819006562612,0.0036880666645,0.0,0.81897860637,-0.573681927981,-0.0119931112564,0.0,-0.00770680801044,0.00990175210859,-0.999921277109,0.0,0.476711709517,0.0182253906465,0.304634968734,1.0,-0.23998,-0.315402285714,2.098
0.159094392352,-0.193810945276,-0.131005284712,-2.34767776614,-0.0178688466463,2.14823216171,-0.133863391184,-0.622214501971,-0.767973072551,-0.00504049550673,-0.760715144796,-0.11727456051,0.0419871180467,-0.551425111303,0.57379493044,0.818978133061,0.00386552319171,0.0,0.818953021276,-0.573721399533,-0.0118512262106,0.0,-0.00748830591404,0.00996604729309,-0.999922298569,0.0,0.472678800417,0.0128467015689,0.304725530845,1.0,-0.23998,-0.315402285714,2.115
0.148973280628,-0.205703119122,-0.131176874639,-2.36013490618,-0.0197481033425,2.14864177504,-0.142915506003,-0.643343412361,-0.747423545403,-0.0183297190377,-0.765686774383,-0.122902667456,0.0224648988502,-0.568686958685,0.573698451878,0.819045863355,0.00383496231808,0.0,0.819019343832,-0.573623708656,-0.0119959241791,0.0,-0.0076255335837,0.0100231444284,-0.999920690762,0.0,0.468796827052,0.00785106790363,0.304676457629,1.0,-0.23998,-0.315402285714,2.131
0.137152372275,-0.218992742676,-0.131445592641,-2.37361732082,-0.0218766362878,2.14898817525,-0.153213909164,-0.657850588842,-0.74419183373,-0.010863396075,-0.74268253772,-0.130258008994,0.0152981283332,-0.577109015616,0.573895680597,0.818906930647,0.00399169536955,0.0,0.818882818254,-0.573820835047,-0.0118880669371,0.0,-0.00744484577292,0.0100914353111,-0.999921365511,0.0,0.464527636384,0.00209424244342,0.304755414653,1.0,-0.23998,-0.315402285714,2.149
0.126082435541,-0.231377043742,-0.131556605824,-2.38627113694,-0.0238711322648,2.14914829822,-0.163180319221,-0.659675619604,-0.739186268999,-0.00798029792043,-0.729407662677,-0.107624196424,0.00487512979591,-0.588124854811,0.573684190565,0.819055226158,0.00396647216957,0.0,0.819030280297,-0.573608785246,-0.0119627900845,0.0,-0.00752312729871,0.0101117190412,-0.999920574693,0.0,0.460418836629,-0.00313162240416,0.30472510525,1.0,-0.23998,-0.315402285714,2.166
0.115890750379,-0.242181928496,-0.13179509243,-2.39703295475,-0.0256617205324,2.14920137986,-0.172195783915,-0.689269345629,-0.732901064326,-0.0173066933002,-0.70481324122,-0.108719311903,0.00813494989521,-0.601776380363,0.573755752626,0.819004696889,0.00404842000736,0.0,0.818981314946,-0.573680721655,-0.0118651705202,0.0,-0.00739527225593,0.0101234850914,-0.999921409411,0.0,0.456860774705,-0.00792645440562,0.304774568238,1.0,-0.23998,-0.315402285714,2.181
0.103558779603,-0.255001907228,-0.131954927077,-2.40981747817,-0.0276693563648,2.14919515984,-0.183203826822,-0.67476561963,-0.719552270341,-0.00989077270266,-0.718242322678,-0.118289179125,-0.00421139376728,-0.605761298873,0.573719536729,0.819029514019,0.00415875491463,0.0,0.819007347351,-0.573643828918,-0.0118519800361,0.0,-0.00732161832024,0.0102059598229,-0.999921113033,0.0,0.452553344626,-0.0135516170204,0.304773476636,1.0,-0.23998,-0.315402285714,2.199
0.0917128953785,-0.266964147843,-0.13219299899,-2.42156050386,-0.0296253214505,2.14905050209,-0.193808397759,-0.711510286025,-0.699632371036,-0.019205597235,-0.66694802462,-0.110721735744,-0.00410423500719,-0.628688763797,0.573711203201,0.819034878154,0.00425095166276,0.0,0.819014247204,-0.573635662357,-0.0117701593195,0.0,-0.00720181218857,0.0102344592861,-0.999921691806,0.0,0.448501080927,-0.0189022527423,0.304795459407,1.0,-0.23998,-0.315402285714,2.216
0.0802576849919,-0.278055362362,-0.132396217068,-2.43232670477,-0.0314616108367,2.14878999024,-0.204016774484,-0.707048959321,-0.694575907814,-0.0101966518019,-0.673800101247,-0.115692303731,-0.0183962576766,-0.639990565103,0.573746556138,0.819009767091,0.00431713212907,0.0,0.818990462919,-0.573671467036,-0.0116797456414,0.0,-0.00708934672744,0.0102371009751,-0.999922468458,0.0,0.444694347436,-0.0239798717131,0.304819079613,1.0,-0.23998,-0.315402285714,2.232
0.0681086123893,-0.289702062737,-0.132579767923,-2.44364494464,-0.033291169106,2.14829426936,-0.215106878475,-0.728112713496,-0.686059567246,-0.0166607504925,-0.65360417307,-0.110652874145,-0.0340963632125,-0.654333022075,0.573586323992,0.81912187339,0.0043396271325,0.0,0.819101759029,-0.573509599366,-0.0118234805827,0.0,-0.00719619229573,0.0103365819932,-0.999920681799,0.0,0.440342241208,-0.0295544337941,0.304778957398,1.0,-0.23998,-0.315402285714,2.25
0.0561900368654,-0.300590128591,-0.132864962661,-2.45378769112,-0.0351056780604,2.14785776952,-0.225736663264,-0.740481506348,-0.670698554471,-0.0180694698834,-0.636623843475,-0.116505973376,-0.034807126095,-0.678083826308,0.573719074852,0.819027853483,0.00453268919453,0.0,0.819011866692,-0.573644115308,-0.0115212018459,0.0,-0.00683616635178,0.0103224582418,-0.999923353905,0.0,0.43682375723,-0.0343840469583,0.304896545924,1.0,-0.23998,-0.315402285714,2.265
0.0443234976066,-0.311209800675,-0.133012864372,-2.46395433528,-0.0368131110176,2.14714924061,-0.236480334867,-0.743135904214,-0.656457804286,-0.00230121005346,-0.622091376417,-0.106798452535,-0.0519060987288,-0.672268551511,0.573646384884,0.819079160307,0.00446107178999,0.0,0.819061145382,-0.573570012551,-0.0117058843857,0.0,-0.00702944428927,0.0103691284675,-0.999921530965,0.0,0.432941402725,-0.0393410798882,0.304830707098,1.0,-0.23998,-0.315402285714,2.281
0.0305227132383,-0.323007793954,-0.133333712171,-2.4749075055,-0.0387469727624,2.14633737517,-0.248898942637,-0.767932722772,-0.653560177744,-0.016513193363,-0.597741760118,-0.107302825637,-0.0381732882388,-0.692406988836,0.573777669711,0.818986652298,0.00456026313505,0.0,0.818970091505,-0.573701214837,-0.0116469831335,0.0,-0.00692262850738,0.0104176985315,-0.999921771326,0.0,0.428646051365,-0.0450885604597,0.304864525334,1.0,-0.23998,-0.315402285714,2.299
0.017497525403,-0.333947028448,-0.133467880846,-2.48501916202,-0.0404686306952,2.14553121454,-0.26088824873,-0.770592473449,-0.646153717687,-0.00366727727536,-0.602806626667,-0.101554150861,-0.0607318791377,-0.707670437702,0.573592479059,0.819115800657,0.00466047017958,0.0,0.819100633653,-0.573515892973,-0.0115939362197,0.0,-0.00682405401685,0.0104677902329,-0.999921925779,0.0,0.424600747831,-0.0503369391923,0.304874624814,1.0,-0.23998,-0.315402285714,2.316
0.0055768688774,-0.343462969941,-0.133743185453,-2.49376904586,-0.0421150486598,2.14458491216,-0.27161425214,-0.795901800671,-0.619483386409,-0.0177249266491,-0.573359019952,-0.122579214919,-0.0672670149884,-0.723787111257,0.57370352987,0.819038537669,0.00456952186031,0.0,0.819021696768,-0.573626456317,-0.0117002451927,0.0,-0.00696188711906,0.01045521081,-0.999921107235,0.0,0.420713458167,-0.0554597304912,0.304843125828,1.0,-0.23998,-0.315402285714,2.332
-0.00869065925424,-0.35472261498,-0.133928369099,-2.50372918076,-0.0439008602317,2.14349371277,-0.284801201412,-0.797166696654,-0.61938441778,-0.00593751784845,-0.546171232846,-0.10086918911,-0.0635721275918,-0.737207446717,0.573561904355,0.819136527435,0.00477893238588,0.0,0.81912352952,-0.573485969305,-0.0114557102792,0.0,-0.00664326796935,0.0104852968412,-0.999922959803,0.0,0.416719353497,-0.0607464591002,0.304964152499,1.0,-0.23998,-0.315402285714,2.349
-0.022621234576,-0.365015306067,-0.134226783339,-2.5130690654,-0.0456498867632,2.14229354915,-0.29748345348,-0.828456104628,-0.606279369557,-0.00573416194087,-0.547698606145,-0.0950749077354,-0.0783206555584,-0.758666389262,0.573660071513,0.819068191493,0.00470817776306,0.0,0.819053450948,-0.573583035303,-0.0116057315182,0.0,-0.00680548566021,0.0105141964481,-0.999921565443,0.0,0.412594889168,-0.0661736279859,0.304907800274,1.0,-0.23998,-0.315402285714,2.366
-0.0356844091956,-0.37452861738,-0.134375377842,-2.52163692186,-0.0471807831868,2.1410773913,-0.309618700509,-0.835558995542,-0.579124292286,-0.00940881825394,-0.53043590784,-0.0989522463534,-0.0871796792236,-0.753831478607,0.573499906733,0.819180646458,0.0046553567649,0.0,0.819164072812,-0.573421310039,-0.0117885499126,0.0,-0.00698760569642,0.010574436874,-0.9999196741,0.0,0.408721309324,-0.0711138872214,0.304848565723,1.0,-0.23998,-0.315402285714,2.382
-0.0500190602921,-0.384486259847,-0.134700898153,-2.53014299707,-0.0488728720716,2.13988720255,-0.322687504507,-0.846381400088,-0.577654982522,-0.0116380237583,-0.492822641469,-0.0948883694519,-0.0752970009338,-0.780754069091,0.573635624228,0.819084615212,0.00482810940807,0.0,0.819072019926,-0.573559169791,-0.0114739628785,0.0,-0.00662906767566,0.0105366460466,-0.999922514274,0.0,0.404483828695,-0.0768740976987,0.304972640426,1.0,-0.23998,-0.315402285714,2.4
-0.065276263794,-0.394702902376,-0.13493533688,-2.5391325419,-0.0505603889049,2.13842608391,-0.336893528211,-0.861077218107,-0.577695743354,-0.0186897329462,-0.493634725835,-0.0908920915918,-0.0894193289585,-0.798738017468,0.573570524439,0.819130394749,0.00479549730237,0.0,0.819116469348,-0.573492744805,-0.0116201635682,0.0,-0.00676837657222,0.010593258084,-0.999920982859,0.0,0.400369390412,-0.0822004637492,0.304921339843,1.0,-0.23998,-0.315402285714,2.417
-0.079070799684,-0.403516255314,-0.135162574514,-2.54682305333,-0.0520682502591,2.13702324203,-0.349659068315,-0.855649412079,-0.551613907152,-0.00198275646251,-0.475364414275,-0.0883848016493,-0.0877914814757,-0.803201527641,0.573574182103,0.819128321882,0.00471134969897,0.0,0.81911233807,-0.573495177215,-0.0117900904727,0.0,-0.00695579461381,0.0106218206701,-0.999919393675,0.0,0.396492453302,-0.0872315908452,0.304870622275,1.0,-0.23998,-0.315402285714,2.433
-0.0939462957675,-0.412691450089,-0.13546159143,-2.55450335573,-0.0534557333502,2.13569826299,-0.363536777581,-0.889101244806,-0.541376916338,-0.0254789870131,-0.444143200516,-0.08852175242,-0.0761960039424,-0.820023066962,0.573651640565,0.819072513786,0.00497587569875,0.0,0.81906053516,-0.573572671978,-0.0116179432278,0.0,-0.00666203990955,0.0107404023913,-0.999920127301,0.0,0.392484427419,-0.0926075350624,0.304949862923,1.0,-0.23998,-0.315402285714,2.45
-0.1090393175,-0.421585085319,-0.135673394178,-2.562009911,-0.0550341097925,2.13421128923,-0.377661328381,-0.877027790636,-0.516574868461,-0.013343732005,-0.444719239346,-0.0948257111163,-0.0933495362067,-0.83859764379,0.573555928936,0.819139849456,0.00492446097251,0.0,0.81912749599,-0.573477601884,-0.0115901834064,0.0,-0.00667004144054,0.0106815854493,-0.999920703996,0.0,0.388407573324,-0.0979696070117,0.304957419507,1.0,-0.23998,-0.315402285714,2.467
-0.124340594862,-0.430177212886,-0.135979481632,-2.56936116514,-0.0564775085709,2.13260036929,-0.3919270199,-0.908800792801,-0.509912739873,-0.0191591973466,-0.434045855766,-0.0838658858876,-0.0890717106418,-0.846210260738,0.5736463684,0.819076792049,0.00487848851484,0.0,0.819062109458,-0.573565436664,-0.011861602594,0.0,-0.0069175641905,0.0108003582857,-0.9999177464,0.0,0.384254703942,-0.103332440101,0.304879067016,1.0,-0.23998,-0.315402285714,2.484
-0.140615573721,-0.43894321892,-0.136181279439,-2.57666534101,-0.0579393255576,2.13103190199,-0.407352886316,-0.912934812166,-0.485907355165,-0.0122858977032,-0.39292883149,-0.0785882140897,-0.0853989537873,-0.869302702354,0.573493204752,0.819183844172,0.00491125763231,0.0,0.819169478135,-0.573412013799,-0.0118648819603,0.0,-0.00690347839902,0.0108277899996,-0.999917547076,0.0,0.379966752313,-0.108934313244,0.304873038752,1.0,-0.23998,-0.315402285714,2.502
-0.15551980055,-0.446544357782,-0.13644944931,-2.58266361282,-0.0592140458651,2.12965094184,-0.421264878831,-0.925572017791,-0.477664473396,-0.00468950371462,-0.374103851387,-0.0793100827452,-0.0873113583003,-0.874608132404,0.573645364385,0.819076287899,0.00507714715877,0.0,0.819065629414,-0.573566099598,-0.0115832208581,0.0,-0.00657558864989,0.0108033856818,-0.999920021048,0.0,0.376193485428,-0.11406850264,0.304996376859,1.0,-0.23998,-0.315402285714,2.518
-0.170369613594,-0.453807487557,-0.136656787528,-2.58871385482,-0.0603867719573,2.12813597314,-0.435377756277,-0.937100095901,-0.453521773638,-0.0222115518704,-0.375523953504,-0.0746359018051,-0.0925792631325,-0.877382077027,0.573583039453,0.819119870628,0.00508736618811,0.0,0.819107898183,-0.573501392068,-0.0117962422619,0.0,-0.00674505470781,0.0109334368189,-0.999917478693,0.0,0.372318332956,-0.119044240518,0.304937439327,1.0,-0.23998,-0.315402285714,2.534
-0.187313720917,-0.461659021438,-0.13693655998,-2.59510230511,-0.0617935500921,2.12648119953,-0.451510006723,-0.940117060218,-0.431089897966,-0.0162485631241,-0.347457089634,-0.06424169011,-0.08331289644,-0.902586972959,0.573509968725,0.819171162643,0.00506645518893,0.0,0.819158487972,-0.573427711879,-0.0118649792767,0.0,-0.00681433425956,0.0109551245859,-0.999916771583,0.0,0.367984432534,-0.124702952402,0.304921232969,1.0,-0.23998,-0.315402285714,2.552
-0.203683198483,-0.468696497315,-0.137220913314,-2.60080082883,-0.0629941275154,2.12503538227,-0.466962049794,-0.970539124979,-0.419089034683,-0.0144444050291,-0.326524656111,-0.0661606575841,-0.0862333888733,-0.908697224553,0.573648013587,0.819074021165,0.0051430789562,0.0,0.81906207513,-0.573565027375,-0.0118837434146,0.0,-0.00678390589402,0.011029799084,-0.999916157562,0.0,0.363893192124,-0.130117119399,0.304905452138,1.0,-0.23998,-0.315402285714,2.569
-0.218058828331,-0.474675486581,-0.137376538964,-2.6053881287,-0.064040563895,2.12374419438,-0.480720304172,-0.960803033277,-0.395740931939,-0.011335449022,-0.299906322018,-0.0651619523106,-0.0904298791028,-0.924949389939,0.573551678287,0.819141044731,0.0052123000222,0.0,0.819131251359,-0.573470538012,-0.0116739873881,0.0,-0.00657366829071,0.0109654040164,-0.99991827006,0.0,0.360138368973,-0.13512631279,0.304998010127,1.0,-0.23998,-0.315402285714,2.585
-0.234628427649,-0.48109383728,-0.137635012059,-2.61047663013,-0.0651490721747,2.12231468051,-0.496579734267,-0.960263818637,-0.3656130821,-0.00749641804263,-0.300253365199,-0.0619935176836,-0.0865451222052,-0.929438975793,0.57358104318,0.819120044059,0.00528083580778,0.0,0.819110876108,-0.573499232606,-0.0116940045721,0.0,-0.0065503643719,0.011033261811,-0.999917676542,0.0,0.356299647719,-0.14017849461,0.304992201267,1.0,-0.237465714286,-0.312097795918,2.601
-0.251179355307,-0.487041047775,-0.1377832036,-2.61528391187,-0.0661192985349,2.12085287496,-0.512410405277,-0.98363153556,-0.336100821169,-0.0156278475372,-0.270912661961,-0.0562149259538,-0.0872483424656,-0.932445102695,0.573622583976,0.819090782013,0.00530743590443,0.0,0.819080232796,-0.573537783947,-0.0119469464668,0.0,-0.00674174849664,0.0112004697828,-0.999914545501,0.0,0.351998298818,-0.145738665732,0.304921868638,1.0,-0.232487428571,-0.305554906123,2.619
-0.267662640587,-0.492503309745,-0.137833124865,-2.61962675401,-0.0669830923412,2.11953719759,-0.528131775873,-0.9651937793,-0.319731240526,0.00113205964323,-0.239268248141,-0.0443542193191,-0.0693385012517,-0.913682837614,0.573643399136,0.819075838219,0.00536365311714,0.0,0.819065554358,-0.573557605419,-0.0120015761704,0.0,-0.00675396705833,0.0112780256001,-0.999913591301,0.0,0.348298926474,-0.150588581304,0.304900302185,1.0,-0.228062285714,-0.299739004082,2.635
-0.283132694211,-0.49727714004,-0.137889441343,-2.62328925953,-0.067762622527,2.11842076672,-0.542859685707,-0.959043986886,-0.285819883267,0.00109576313503,-0.220974833695,-0.0478363043469,-0.0722976614458,-0.911708606611,0.573750651841,0.819000176974,0.0054448627096,0.0,0.818991437036,-0.573665352521,-0.0119095037541,0.0,-0.00663048425393,0.0112925988946,-0.999914253268,0.0,0.344672477156,-0.155426240398,0.304929995542,1.0,-0.223637142857,-0.293923102041,2.651
-0.300115728314,-0.50220105733,-0.137841484205,-2.62706566788,-0.0684971842373,2.11713551032,-0.559194725112,-0.94760877181,-0.26112977477,-0.00231543272985,-0.194679613131,-0.0414698283349,-0.0611437069232,-0.9014939041,0.573717531193,0.81902289052,0.00551779904191,0.0,0.819014807456,-0.573631465216,-0.0119345792835,0.0,-0.00660963772876,0.0113664553218,-0.999913554455,0.0,0.340691867038,-0.160636879081,0.304945241856,1.0,-0.218658857143,-0.287380212245,2.669
-0.314261054494,-0.505910682149,-0.137812919052,-2.62989153339,-0.0690632783439,2.11620654946,-0.572718619974,-0.924568970066,-0.240050230386,0.00897047932895,-0.183719471,-0.039702269269,-0.0599072905671,-0.891546716374,0.573802024079,0.818963196294,0.00559170632151,0.0,0.81895627002,-0.573716003075,-0.0118879144912,0.0,-0.00652783872895,0.0114008918517,-0.999913699769,0.0,0.33743196497,-0.164969503523,0.304963807333,1.0,-0.214510285714,-0.281927804082,2.684
-0.330940341402,-0.510012241429,-0.137781298982,-2.63296906407,-0.0696803561213,2.11518938892,-0.588756605236,-0.929825749099,-0.221405733526,0.00107221087522,-0.169816316942,-0.0384226404141,-0.0568570650179,-0.895775004005,0.573863416076,0.81891942557,0.00570096621789,0.0,0.818914479367,-0.573777975555,-0.0117752772025,0.0,-0.00637203706888,0.0114262245731,-0.999914415605,0.0,0.33360523631,-0.17004533431,0.305001681219,1.0,-0.209532,-0.275384914286,2.702
-0.346344410063,-0.513393289951,-0.137663401314,-2.63562075852,-0.0701688837523,2.11421921844,-0.603673939739,-0.896100497077,-0.186498748179,0.00238556168698,-0.150677543968,-0.017826300809,-0.0502911405843,-0.866745619242,0.57381653275,0.818951999004,0.00574081633576,0.0,0.818946666905,-0.573729336341,-0.0119059770191,0.0,-0.00645687324834,0.011533490911,-0.999912639872,0.0,0.330061980998,-0.174654765178,0.304968028793,1.0,-0.204830285714,-0.269205518367,2.719
-0.360823621851,-0.516217384,-0.137601994096,-2.63787898515,-0.0706075497273,2.11341152306,-0.617521801567,-0.902613292079,-0.167923562752,0.00651657004821,-0.13661824182,-0.0354750312923,-0.0577974819636,-0.862988901782,0.573972345088,0.818842525853,0.00578029673136,0.0,0.818836743869,-0.573883243314,-0.0120481050285,0.0,-0.00654841139501,0.0116486227233,-0.999910709962,0.0,0.326747138765,-0.178985867723,0.304916844813,1.0,-0.200405142857,-0.263389616327,2.735
-0.375682814189,-0.518841298497,-0.137405791952,-2.63997969474,-0.0709430483359,2.11268783327,-0.631961629093,-0.870709808037,-0.1488296187,0.006611213519,-0.122414124583,-0.0225862302068,-0.0379687294593,-0.849071768346,0.573911890646,0.818884496171,0.00583700321907,0.0,0.818878758007,-0.573821325405,-0.0121413795491,0.0,-0.00659311748931,0.0117481062261,-0.999909252283,0.0,0.323389870527,-0.183368127323,0.304871935103,1.0,-0.195703428571,-0.257210220408,2.752
-0.391284826914,-0.521301948706,-0.137252169527,-2.64184511613,-0.0713237643997,2.11196142656,-0.647024296765,-0.84488624869,-0.132995103694,0.0199601909563,-0.0989313604549,-0.011874725453,-0.0407776321624,-0.838338198243,0.573973383098,0.818841131581,0.00587397876575,0.0,0.81883571857,-0.573882365119,-0.012159107732,0.0,-0.00658553149947,0.0117890547998,-0.999908820324,0.0,0.319887969936,-0.187988928393,0.304870536847,1.0,-0.190725142857,-0.250667330612,2.77
-0.403923658922,-0.523146286587,-0.137074038522,-2.6431801686,-0.0715360071507,2.11143449791,-0.659391630862,-0.845566292019,-0.118934520933,0.0166437864482,-0.0851364985194,-0.0201123565098,-0.036302338707,-0.823295375774,0.573900649735,0.818891532516,0.00595391538982,0.0,0.818887516813,-0.573809944223,-0.0120884085343,0.0,-0.00648280434668,0.0118133599448,-0.999909204765,0.0,0.317075232524,-0.191699001876,0.304900207868,1.0,-0.186576571429,-0.245214922449,2.785
-0.418986053713,-0.525019716275,-0.136858563744,-2.64450405694,-0.0717840035399,2.11086847744,-0.673910095505,-0.819762218487,-0.0945907007513,0.0212097995046,-0.0705180336134,-0.0157055739532,-0.0325786105648,-0.800397683342,0.574009811701,0.818814598262,0.00601137630891,0.0,0.818811864004,-0.573919821757,-0.0119965187021,0.0,-0.00637299932186,0.0118085330328,-0.999909967661,0.0,0.31374592007,-0.196122524108,0.304942191908,1.0,-0.181598285714,-0.238672032653,2.803
-0.432767023738,-0.526476261202,-0.136700892773,-2.64558868279,-0.0719669679589,2.11043968522,-0.687342218908,-0.813406987888,-0.0797611093014,-0.000683068374004,-0.0598728472194,-0.00955909045016,-0.0199442919329,-0.786318802554,0.574042533061,0.81879107097,0.00609091431849,0.0,0.818789524106,-0.573952492671,-0.0119581885186,0.0,-0.00629548373581,0.0118519138503,-0.999909945456,0.0,0.310687191655,-0.200157640407,0.304949686971,1.0,-0.176896571429,-0.232492636735,2.82
-0.445496871995,-0.527590596479,-0.13645118854,-2.64644258382,-0.0721138518026,2.11006113723,-0.699759234396,-0.786008518087,-0.0624509483671,0.022906310176,-0.0460171241141,-0.0033992089884,-0.0215455196798,-0.767225364639,0.574009903219,0.81881386744,0.00610150765192,0.0,0.81881231343,-0.573919552885,-0.0119786932905,0.0,-0.00630666705944,0.0118721067471,-0.999909635433,0.0,0.307872845429,-0.203844551354,0.304943044382,1.0,-0.172471428571,-0.226676734694,2.836
-0.458658619624,-0.528519768568,-0.136230079229,-2.64717028894,-0.0722078652987,2.10974420695,-0.712572541925,-0.786099908863,-0.049897435712,0.00676688049159,-0.0443585403558,-0.000793641771127,-0.0214301798589,-0.746429702367,0.574056771605,0.818780589498,0.00615760804883,0.0,0.818779576089,-0.573965817873,-0.011999691426,0.0,-0.00629097900049,0.0119304575265,-0.999909039746,0.0,0.304964585733,-0.207656534322,0.304930341079,1.0,-0.167769714286,-0.220497338776,2.853
-0.471545511449,-0.529182335643,-0.135936114317,-2.64768792409,-0.072293085195,2.10946249508,-0.725129011052,-0.742008133835,-0.0314424362399,0.0212775011045,-0.0259406865813,-0.00473298962003,-0.0160023318696,-0.727247866028,0.574053545451,0.818782890359,0.00615242323856,0.0,0.818781576503,-0.573962173617,-0.0120374472858,0.0,-0.00632491944049,0.0119478601245,-0.999908617841,0.0,0.302136627284,-0.21137129628,0.304920434991,1.0,-0.163068,-0.214317942857,2.87
-0.483302862201,-0.529590384271,-0.135719086684,-2.6480406844,-0.0723091852335,2.10927165107,-0.736700346594,-0.735963560231,-0.017998052484,0.0100994564137,-0.0202191416439,0.000607843372369,-0.0162695413949,-0.713878701951,0.574025696886,0.818801995087,0.00620798328686,0.0,0.818801020607,-0.573933361012,-0.0120885347077,0.0,-0.00633526959698,0.0120224640808,-0.999907658095,0.0,0.299550988402,-0.214763776241,0.304898301384,1.0,-0.158642857143,-0.208502040816,2.886
-0.496244515036,-0.529862453411,-0.135433914012,-2.64828246357,-0.0723211801569,2.10907661887,-0.74933414796,-0.694451288042,-0.0101501783629,0.0229894476668,-0.0110348104978,0.00147665078857,-0.0122190025146,-0.695232286081,0.574057767658,0.818779331511,0.00623157953648,0.0,0.818778203476,-0.573964444495,-0.012157996147,0.0,-0.00637813366964,0.0120819062392,-0.999906669121,0.0,0.296706418807,-0.21848158974,0.304878342576,1.0,-0.153664571429,-0.20195915102,2.904
-0.507329465657,-0.529987993522,-0.135158178148,-2.64841401124,-0.0723305850168,2.10896426448,-0.760277313946,-0.696172608485,-0.0050147175769,0.0144056374262,-0.00765080209217,-0.000118289104189,-0.00161095457416,-0.675274058849,0.573968100147,0.818842206972,0.00622952613911,0.0,0.818840819781,-0.573874366497,-0.0121930406346,0.0,-0.00640933433581,0.0120996396142,-0.999906255183,0.0,0.294265711613,-0.221650440898,0.304861825817,1.0,-0.149239428571,-0.19614324898,2.92
-0.519013698416,-0.530003659689,-0.134925442517,-2.6484211234,-0.0723316085882,2.10888402621,-0.771549672386,-0.675491944284,0.000513128778305,0.0253261842306,0.00452467834598,-0.000275027080643,-0.0063431755155,-0.640916187416,0.574140402006,0.81872125593,0.00624906185787,0.0,0.81872019003,-0.574046666205,-0.0121828714718,0.0,-0.00638724568008,0.0121111450133,-0.999906257236,0.0,0.291683894635,-0.225006931871,0.304863420201,1.0,-0.144537714286,-0.189963853061,2.937
-0.530017569174,-0.529859450548,-0.13459441917,-2.64833375556,-0.0723234190482,2.10887851677,-0.782512370765,-0.649314240748,0.014797311234,0.0160905505201,0.00611557659867,-0.000971705636605,-0.00108555387474,-0.641742545544,0.573949467822,0.818855433073,0.00620765773672,0.0,0.818853977013,-0.573856246851,-0.0121622029302,0.0,-0.00639690593726,0.0120638873922,-0.999906766761,0.0,0.289271547256,-0.228140887321,0.304858522798,1.0,-0.139836,-0.183784457143,2.954
-0.542224312223,-0.529630340521,-0.134341393283,-2.648126676,-0.0723028048765,2.10887776118,-0.79432867214,-0.634662361897,0.0195494268651,0.0169727285252,0.0145292804743,0.00176202888291,0.00168542357436,-0.608714738837,0.574111253188,0.818741952356,0.00621540955448,0.0,0.818740991577,-0.574018708244,-0.0121019915122,0.0,-0.00634076887392,0.0120369318431,-0.999907449178,0.0,0.286562052005,-0.231638117473,0.304875455129,1.0,-0.134581142857,-0.176878073469,2.973
-0.551276793891,-0.52926488365,-0.13398797648,-2.64785051688,-0.0722325182797,2.10890540422,-0.803370328564,-0.595593979612,0.0201154752786,0.0214047552485,0.0234635192494,0.0121315891524,0.0040911876938,-0.583573799768,0.573916682252,0.818878708146,0.00616847472381,0.0,0.818877200926,-0.57382451043,-0.0120957817016,0.0,-0.00636547866052,0.0119934251298,-0.999907814968,0.0,0.284592810632,-0.234195712961,0.304879006128,1.0,-0.130432571429,-0.171425665306,2.988
-0.561372120361,-0.528751772128,-0.133692140571,-2.64749122758,-0.0721849420767,2.10897439266,-0.813291532298,-0.597380556056,0.0279283672141,0.0228729739188,0.0206638570159,0.00649997960974,0.000783744762079,-0.565726854641,0.573891617201,0.818896574793,0.00612849086781,0.0,0.818894486237,-0.573799514058,-0.0121113574258,0.0,-0.00640154727981,0.0119694243287,-0.999907872293,0.0,0.282364645648,-0.237069767036,0.304868401147,1.0,-0.125730857143,-0.165246269388,3.005
-0.570648574846,-0.528186698442,-0.133458129863,-2.64703473055,-0.0720844614926,2.1090649145,-0.822319332776,-0.564918549181,0.036115680126,0.020753414736,0.034841906513,0.00214723926278,0.0134097926863,-0.561157513498,0.573987211815,0.818829494155,0.0061389800433,0.0,0.818827826138,-0.573895574659,-0.012066790394,0.0,-0.00635763279873,0.0119531811931,-0.999908346782,0.0,0.280203340687,-0.239882782103,0.304883362919,1.0,-0.121029142857,-0.159066873469,3.022
-0.579880857362,-0.527426638393,-0.133102431213,-2.64649717327,-0.071911966542,2.1091949513,-0.831562198787,-0.543824278431,0.0416273239378,0.0191721981576,0.034100080915,0.0071865731232,0.00450005688035,-0.541982426239,0.573843200387,0.818930348841,0.0061491477127,0.0,0.81892861352,-0.573751174047,-0.0120939298129,0.0,-0.00637612820125,0.0119759629742,-0.999907956414,0.0,0.278317705945,-0.24234062094,0.304869964317,1.0,-0.116604,-0.153250971429,3.038
-0.58901962678,-0.526620228088,-0.132822531002,-2.6458938541,-0.071729759478,2.10933049272,-0.840428252434,-0.527567420511,0.0489269533386,0.0186882578046,0.0311193378279,0.0139861791508,0.0116859034548,-0.513111601573,0.573980627471,0.818833731602,0.00618919861932,0.0,0.818832458273,-0.573888282057,-0.0120992519344,0.0,-0.00635548941092,0.0120128842227,-0.999907644919,0.0,0.27631299014,-0.244943914734,0.304868012624,1.0,-0.111902285714,-0.14707157551,3.055
-0.597702729654,-0.525696795075,-0.132522463833,-2.64519599158,-0.0715387560494,2.10948585959,-0.848986973384,-0.495680284035,0.0572129855517,0.0170666447899,0.0373149470137,0.0153482692287,0.0156694940784,-0.500463716026,0.573991173048,0.818826171226,0.00621139917173,0.0,0.818825100898,-0.573898563233,-0.0121095070209,0.0,-0.00635099048525,0.0120370314436,-0.999907383108,0.0,0.274424922161,-0.247424284623,0.304868172345,1.0,-0.107200571429,-0.140892179592,3.072
-0.605337620315,-0.524769128042,-0.132155528801,-2.64453544705,-0.0713388681826,2.10963730503,-0.856702047009,-0.478715183048,0.0562945111059,0.0192815274393,0.0399063030074,0.0101689926444,0.00274844149277,-0.479371328114,0.573788650113,0.818968166664,0.00620273277134,0.0,0.81896658319,-0.57369536736,-0.0121699625796,0.0,-0.00640845626892,0.0120630495157,-0.99990670291,0.0,0.272781624996,-0.249578558089,0.304850887251,1.0,-0.102775428571,-0.135076277551,3.088
-0.613373910345,-0.523827299198,-0.13182598075,-2.6438113005,-0.0711203286,2.10980221329,-0.864494471284,-0.461972515854,0.0508656384525,0.0193102432046,0.0476179270784,0.0166943228987,0.0142276321088,-0.458192533432,0.57388880335,0.818897834511,0.00622293535442,0.0,0.818896523662,-0.573795423794,-0.0121672539252,0.0,-0.00639316915068,0.0120788234787,-0.999906610345,0.0,0.271031193057,-0.251854667348,0.304857241722,1.0,-0.0980737142858,-0.128896881633,3.105
-0.621464850377,-0.52273372403,-0.131516858165,-2.64295878192,-0.0708903494488,2.11000246429,-0.872388953426,-0.43444613715,0.0647553810005,0.0213836154679,0.0487305984302,0.0155274013968,0.00709908674679,-0.424428622944,0.573976227549,0.818836371928,0.00624764900719,0.0,0.81883546182,-0.57388286466,-0.0121528193287,0.0,-0.00636587434095,0.0120914587505,-0.999906631776,0.0,0.269277081998,-0.254171329997,0.30486845924,1.0,-0.0930954285715,-0.122353991837,3.123
-0.628078528185,-0.521768006714,-0.131145674896,-2.64222860636,-0.0706432164036,2.11019039035,-0.879065803285,-0.412632644988,0.0580745483408,0.0222303729659,0.0450528102613,0.0126492347179,0.00735538064332,-0.421196779782,0.57380748961,0.818954556192,0.00625672917045,0.0,0.818953748074,-0.573714090796,-0.012151026213,0.0,-0.00636168707434,0.0120965545485,-0.999906596791,0.0,0.267869279795,-0.256034353472,0.304871152841,1.0,-0.0886702857144,-0.116538089796,3.139
-0.635021914964,-0.520788808272,-0.130831686562,-2.64146030693,-0.0704217656852,2.11037543033,-0.885828979547,-0.401162962462,0.0589657921765,0.0185446930633,0.052183325355,0.0101813276688,0.0132015213042,-0.392173968469,0.573869262377,0.818911171845,0.0062697071188,0.0,0.818910666281,-0.573776045055,-0.0121292074491,0.0,-0.00633545770863,0.0120951422351,-0.99990678041,0.0,0.266357249304,-0.258001789102,0.304884211069,1.0,-0.0839685714286,-0.110358693878,3.156
-0.641546845906,-0.519766408676,-0.130521274508,-2.64064682533,-0.0701807673818,2.11058792342,-0.892232437445,-0.371665909852,0.0622814319731,0.0192892986526,0.0514959083158,0.0186276459487,0.012612641762,-0.363191874663,0.573895910773,0.818892348866,0.00628899580476,0.0,0.818892393236,-0.573803172832,-0.0120794887652,0.0,-0.00628327615385,0.0120826126599,-0.999907261156,0.0,0.264954520936,-0.25986302586,0.304903851191,1.0,-0.0792668571429,-0.104179297959,3.173
-0.647369250467,-0.518780085133,-0.130271672096,-2.63992173162,-0.0699412024795,2.11078180866,-0.89790841857,-0.358069570667,0.0622516999709,0.0165799420997,0.04339155751,0.0133007510866,0.00704184326305,-0.344684385379,0.573980793954,0.818832442509,0.00634241028711,0.0,0.818832994165,-0.573887432615,-0.0121032745362,0.0,-0.0062708450278,0.0121406556786,-0.999906636133,0.0,0.263687125241,-0.261520149682,0.304893187606,1.0,-0.0748417142858,-0.0983633959185,3.189
-0.653076498317,-0.517785360062,-0.129884790108,-2.63919430449,-0.069694989213,2.11097743172,-0.903656807546,-0.325955734786,0.0594386975152,0.021450449829,0.0399629591717,0.0111811909948,0.0111966353773,-0.330540433116,0.573817453831,0.818946972868,0.00633499886064,0.0,0.81894722951,-0.573723778985,-0.0121329141716,0.0,-0.00630179517575,0.0121503416151,-0.9999063239,0.0,0.262471333496,-0.263111221417,0.304883690863,1.0,-0.0701400000001,-0.0921840000001,3.206
-0.658539480562,-0.516866916963,-0.129531068455,-2.63848631281,-0.0694642418001,2.11118206823,-0.908930311686,-0.318360370771,0.0571324812112,0.0204956780173,0.045240749468,0.0106690543245,0.00886113841473,-0.314834728499,0.573858291112,0.818918438135,0.00632457952731,0.0,0.818918774823,-0.57376507124,-0.0121008334067,0.0,-0.00628089369716,0.0121237139166,-0.999906778623,0.0,0.261300824382,-0.264639138282,0.304893092822,1.0,-0.0654382857144,-0.0860046040817,3.223
-0.663357942155,-0.515954208715,-0.129237277618,-2.63780792872,-0.0692241110661,2.11138088382,-0.913632340593,-0.287963924362,0.058432715816,0.0156697120712,0.042060103281,0.0140090596904,0.00979794857452,-0.282938919859,0.57388418349,0.818900094359,0.00635029914181,0.0,0.8189007549,-0.573790819331,-0.0120994288218,0.0,-0.00626460066927,0.0121441694041,-0.999906632605,0.0,0.260273226261,-0.265997719874,0.304888921732,1.0,-0.0610131428572,-0.0801887020409,3.239
-0.668108285738,-0.515025665469,-0.12896286421,-2.63711932857,-0.0689916776831,2.11156339523,-0.918255037281,-0.271597987714,0.0502314137033,0.0156989267451,0.0410182825877,0.0138567117094,0.00194875972177,-0.258703579214,0.573930105732,0.818867679931,0.00637992162139,0.0,0.818868572439,-0.573836296684,-0.0121207500496,0.0,-0.00626438048456,0.0121810151902,-0.999906185802,0.0,0.25925135291,-0.26733972006,0.304881399919,1.0,-0.0563114285715,-0.0740093061225,3.256
-0.673090133832,-0.514089025794,-0.128641016,-2.63642332735,-0.0687396364923,2.11176177214,-0.923084297589,-0.251594147114,0.0500414184969,0.0229819532146,0.0365603607178,0.0188805395398,0.00728220218314,-0.246436055267,0.573971263252,0.818838651614,0.00640300600638,0.0,0.818839803753,-0.573877258056,-0.0121249897828,0.0,-0.00625399116305,0.0122026668234,-0.999905986839,0.0,0.258176989925,-0.268729654692,0.30487647548,1.0,-0.0510565714286,-0.0671029224491,3.275
-0.676355760743,-0.513428374888,-0.128294915549,-2.63593507465,-0.0685606230994,2.1119019173,-0.926248181216,-0.229652109755,0.0486706201418,0.0248254019738,0.0363813559761,0.00754834347421,0.0087474365793,-0.218961851493,0.573911027475,0.818881207566,0.00635982219886,0.0,0.818881759857,-0.573817163612,-0.0121356095752,0.0,-0.00628836855888,0.0121729369217,-0.999906133608,0.0,0.257508307951,-0.269617344461,0.304874503665,1.0,-0.0471845714286,-0.0620140081634,3.289
-0.680208627531,-0.512642418104,-0.127878181834,-2.63533594109,-0.0683186366826,2.11208409999,-0.930081605693,-0.203064169455,0.0388932919095,0.0258525881106,0.0350854019757,0.0109649744283,0.00939161333529,-0.205309038499,0.573765613943,0.818983360011,0.00632638787099,0.0,0.81898363946,-0.573672250288,-0.0121117483355,0.0,-0.00629016828653,0.0121307464373,-0.999906635028,0.0,0.25672794837,-0.270666168247,0.304881697546,1.0,-0.0422062857144,-0.0554711183674,3.307
-0.683592644105,-0.511952141885,-0.12756897973,-2.63481782352,-0.0681035527864,2.11222472571,-0.933285652686,-0.190812555242,0.039155375095,0.0133410099089,0.0308950812459,0.0123527864095,0.00948160412074,-0.183855218533,0.573812265619,0.818950649732,0.00632961522911,0.0,0.818950941139,-0.573718818944,-0.0121169178966,0.0,-0.00629185954832,0.0121367141288,-0.999906551971,0.0,0.256021720829,-0.271592373579,0.304881143611,1.0,-0.0375045714286,-0.0492917224491,3.324
-0.686466969752,-0.511363661981,-0.127307996991,-2.63437702751,-0.0678974305849,2.11235975861,-0.93596425265,-0.170526996611,0.0373427275698,0.0152850244527,0.0278743960429,0.0203751374973,0.00716294830222,-0.157256901806,0.573898081305,0.818890354173,0.00635035571843,0.0,0.818890983934,-0.573804652743,-0.0121047025344,0.0,-0.00626868117926,0.012147348476,-0.999906568416,0.0,0.255423650585,-0.272378147314,0.304881363385,1.0,-0.0330794285715,-0.0434758204083,3.34
-0.68913893546,-0.510824741376,-0.127032312357,-2.63396883182,-0.0676794039191,2.11249400703,-0.938458921016,-0.146752707138,0.0348633373939,0.0145275410923,0.0220153201029,0.015868211862,0.0123480861074,-0.150111151123,0.573961551409,0.818845683229,0.0063742814232,0.0,0.818846790374,-0.573868322249,-0.0120759891668,0.0,-0.00623049337037,0.0121509473047,-0.999906763369,0.0,0.254876836743,-0.273098877157,0.304885302291,1.0,-0.0283777142858,-0.0372964244899,3.357
-0.691460385334,-0.510395872017,-0.126718599758,-2.63363402066,-0.067478626906,2.11258188819,-0.940674548716,-0.130228560709,0.0224635646171,0.0193237093255,0.0251712517703,0.00803968110139,0.00191885701874,-0.128481127778,0.573928032349,0.818869177668,0.00637420195933,0.0,0.818870374935,-0.573834988823,-0.0120607444975,0.0,-0.00621855154507,0.0121418782753,-0.999906947875,0.0,0.254410450612,-0.273698587094,0.304893527022,1.0,-0.0236760000001,-0.0311170285715,3.374
-0.693440659439,-0.510024466858,-0.126397178426,-2.63333183249,-0.0672633115142,2.11265286487,-0.942487185551,-0.105531740649,0.0224764737096,0.0179370095087,0.0145905085246,0.011642491031,0.00151472000308,-0.100399274698,0.573943989241,0.818857932383,0.00638205988246,0.0,0.818859368551,-0.573851174088,-0.0120379165752,0.0,-0.00619511019537,0.0121353330295,-0.999907172843,0.0,0.254030982578,-0.27419764106,0.304906906571,1.0,-0.0199072727273,-0.0261638441559,3.391
-0.695036382164,-0.509681964391,-0.126169901858,-2.63307888997,-0.0670964623153,2.11275743193,-0.943919059188,-0.0932781428798,0.02186073351,0.0122330935821,0.0150894136528,0.0159482384049,0.00198807865828,-0.0905882739031,0.573997542856,0.8188203258,0.00639075524297,0.0,0.818822049462,-0.573905019399,-0.0120094514845,0.0,-0.00616601518043,0.0121265204219,-0.999907459598,0.0,0.253708657084,-0.274638404277,0.304908140463,1.0,-0.0195672727273,-0.025716987013,3.408
-0.696697163596,-0.509334129013,-0.125962575289,-2.63280966285,-0.0669700415334,2.11278370493,-0.945608415971,-0.0876703691579,0.0198539678216,0.013223283111,0.0152671569397,0.0040329705142,-0.000332675307028,-0.0878036536385,0.573897580519,0.818890387462,0.0063911890123,0.0,0.818891889445,-0.573804630805,-0.0120443334999,0.0,-0.00619581436346,0.0121461405515,-0.999907037256,0.0,0.253383431315,-0.275050262525,0.304909663767,1.0,-0.0192272727273,-0.0252701298701,3.425
-0.698116180699,-0.509011349088,-0.125821936385,-2.63256382895,-0.0669287499908,2.11285398816,-0.946984419285,-0.0892533822767,0.0246730116283,0.00739943363421,0.0129094238735,0.00373467228051,0.00783921832552,-0.0770500735558,0.573862930287,0.818915046284,0.0063428000805,0.0,0.818915937895,-0.573770242827,-0.0120474897223,0.0,-0.00622668054405,0.0121080609492,-0.999907307359,0.0,0.253086496989,-0.275446398384,0.30491089834,1.0,-0.0189072727273,-0.0248495584416,3.441
-0.699535386594,-0.508662801041,-0.125703388394,-2.63230844559,-0.0668466852975,2.11295838209,-0.948419652807,-0.0776988191002,0.0210869439373,0.00809149268732,0.00950819942846,0.00427115560434,0.00456328411444,-0.0824189218905,0.573813612049,0.818949664697,0.00633499967186,0.0,0.818950586281,-0.57372122575,-0.0120266061304,0.0,-0.00621478093484,0.0120893147565,-0.999907608215,0.0,0.252794314527,-0.275850128996,0.304909283867,1.0,-0.0185672727273,-0.0244027012987,3.458
-0.700985914297,-0.508303727849,-0.125647214048,-2.63205940253,-0.0668027854308,2.11298509045,-0.949856832624,-0.0829099757848,0.0226852513927,0.00265314738636,0.0154696438989,0.000894978380444,0.00228197797288,-0.0740885177593,0.573816326139,0.818947721412,0.00634037471411,0.0,0.818948240324,-0.573722998195,-0.0121015665916,0.0,-0.00627305237077,0.0121367488673,-0.999906669715,0.0,0.252461452716,-0.276264830477,0.304892731537,1.0,-0.0182072727273,-0.0239295584416,3.476
-0.702468023951,-0.507929884315,-0.125624163227,-2.63178738284,-0.0667568409535,2.11306584064,-0.95140168129,-0.0758419726795,0.0182630012443,0.00234305695642,0.0134071919403,0.00358040172532,0.0124754196702,-0.0854996627977,0.573782282498,0.818971476799,0.0063529034846,0.0,0.818972071993,-0.573688736543,-0.0121130409268,0.0,-0.00627576667085,0.0121533327902,-0.999906451252,0.0,0.252124470585,-0.276707794761,0.304884918711,1.0,-0.0178272727273,-0.0234301298701,3.495
-0.703631299078,-0.50763043407,-0.125611551143,-2.6315640584,-0.0667073456351,2.11314534805,-0.952589774623,-0.0804447517339,0.0200440083885,-0.000968116271829,0.0188837848394,0.00135125085311,0.00359204411242,-0.0719582274389,0.573785676557,0.818968948223,0.00637229365211,0.0,0.81896985766,-0.573692160685,-0.0121005749861,0.0,-0.00625438067164,0.0121620871882,-0.999906478806,0.0,0.25186387093,-0.277059985371,0.304882231444,1.0,-0.0175272727273,-0.0230358441559,3.51
-0.704957505822,-0.50730765252,-0.125611185447,-2.63133344401,-0.066661776687,2.11318296671,-0.953898279207,-0.0724049110172,0.0204226657008,-0.000879317270847,0.0109408619033,0.00343832831871,0.00693986450277,-0.0824244199196,0.573831436248,0.818936642875,0.00640348589279,0.0,0.818937661371,-0.573737187268,-0.0121446957614,0.0,-0.00627193914502,0.0122132991171,-0.99990574461,0.0,0.251549147705,-0.277451175733,0.304870300531,1.0,-0.0171872727273,-0.022588987013,3.527
-0.706161861342,-0.507023186756,-0.125604841222,-2.63110800992,-0.0666331429302,2.11322225321,-0.955145209941,-0.0734204845853,0.0174010185762,0.00111602215152,0.0138865915396,0.000377148100476,0.0059384052731,-0.0750232048645,0.573815887095,0.818947454908,0.00641410304045,0.0,0.818948523538,-0.573721419867,-0.0121571000362,0.0,-0.00627623866725,0.0122289928026,-0.999905525819,0.0,0.251267433608,-0.277811327315,0.304870492837,1.0,-0.0168672727273,-0.0221684155844,3.543
-0.707420227562,-0.506725229968,-0.125604792634,-2.63085867926,-0.0666030120879,2.11331055071,-0.956363405699,-0.0720093215291,0.0152104813763,0.000721806611047,0.015677065905,-0.0002362877193,0.00106694848667,-0.0689710363394,0.573874329426,0.818906481762,0.00641677920948,0.0,0.818907878465,-0.573780409232,-0.0121109648884,0.0,-0.00623604550991,0.0122051578901,-0.999906068517,0.0,0.250981064006,-0.27819945793,0.304880526519,1.0,-0.0165272727273,-0.0217215584416,3.56
-0.708588494843,-0.506460289733,-0.125600910031,-2.63063726317,-0.0665673990113,2.11334224779,-0.957528294552,-0.0743173451068,0.0225720110979,0.00164497398368,0.0138571209332,-0.000362923258384,0.000746616757323,-0.0715932928389,0.573892036844,0.818893962698,0.00643077020395,0.0,0.818895453607,-0.573797875233,-0.0121235861205,0.0,-0.00623808930369,0.0122239933655,-0.99990582568,0.0,0.25069129755,-0.278568387792,0.304881987419,1.0,-0.0161872727273,-0.0212747012987,3.577
-0.709769112571,-0.506173360855,-0.125577458039,-2.63040973984,-0.0665291846987,2.11338963784,-0.958781848745,-0.0711386890416,0.0140097706715,0.000284251560456,0.0148568567263,0.00170404334202,0.00187116948171,-0.0751168832515,0.573852428196,0.818921626854,0.00644256362127,0.0,0.818923286349,-0.57375824975,-0.0121189446784,0.0,-0.00622811177498,0.0122306866827,-0.999905806027,0.0,0.250436810414,-0.278898633818,0.30488664844,1.0,-0.0158672727273,-0.0208541298701,3.593
