nelsonifechukwu/NELSON_IML_WORK/CNN-GradCAM/train2dof/data_sample_2022-02-22-15-20-00/robot_state.csv
position_joint1,position_joint2,position_joint3,position_joint4,position_joint5,position_joint6,position_joint7,velocity_joint1,velocity_joint2,velocity_joint3,velocity_joint4,velocity_joint5,velocity_joint6,velocity_joint7,ee_T_00,ee_T_10,ee_T_20,ee_T_30,ee_T_01,ee_T_11,ee_T_21,ee_T_31,ee_T_02,ee_T_12,ee_T_22,ee_T_32,ee_T_03,ee_T_13,ee_T_23,ee_T_33,v_x,v_y,time
0.465067062966,0.547781692137,-0.123975766253,-1.35586402613,0.0796126068196,1.89410255123,0.159164958115,-8.26383858279e-05,0.00134478614506,0.000901044447907,0.000464097486555,0.00512458815067,-0.000322831625497,-0.00164768815538,0.573838534906,0.818954298026,0.00198506995131,0.0,0.818910476572,-0.573778704454,-0.0120156805,0.0,-0.00870146985457,0.00852081912607,-0.999925837282,0.0,0.661662824647,0.260908167091,0.303199216023,1.0,0.0,0.0,0.0
0.465069574817,0.547782014808,-0.123978559102,-1.35586655828,0.0796125055615,1.89410230399,0.159173604983,0.000922080960626,0.00259312875184,-0.000148773212201,-0.000992358520804,0.000307933950367,-5.12795064637e-05,0.00120627911503,0.573845620301,0.818949341549,0.00198165075922,0.0,0.818905488131,-0.573785815946,-0.0120160655056,0.0,-0.0087036734087,0.00851831524989,-0.999925839437,0.0,0.661662177593,0.260907874112,0.303197853074,1.0,-0.0002,-0.000262857142857,0.011
0.465072190382,0.547770383983,-0.123981783813,-1.35586954292,0.0796125053912,1.89410430868,0.159173012022,0.00190793804229,-0.000312034781008,-0.00457262248069,-0.00055126359467,0.00014337770995,0.000232926216029,0.00109573622306,0.573845402079,0.81894947357,0.0019902648299,0.0,0.818905749995,-0.573785578113,-0.0120095743193,0.0,-0.00869341668578,0.0085216423853,-0.999925900313,0.0,0.661662260989,0.260907675521,0.303204952687,1.0,-0.00044,-0.000578285714286,0.023
0.465063091078,0.547753437116,-0.123976465687,-1.35588489957,0.079613076313,1.89410183114,0.159167197695,0.00024021089916,-0.00145554011734,0.00706822532767,-0.00289373952519,0.000140590340035,-0.000283167522798,0.000590154632412,0.573845319139,0.818949526908,0.00199222982686,0.0,0.818905777182,-0.573785436041,-0.0120145073175,0.0,-0.00869633005512,0.0085260814541,-0.999925837139,0.0,0.661659815147,0.260903056604,0.303209258903,1.0,-0.0009,-0.00118285714286,0.046
0.465062942914,0.547718417673,-0.12398391261,-1.35591844064,0.0796082469703,1.8941091278,0.159161437286,0.000403908716579,-0.00458802046011,-0.00065781777249,2.85617476396e-06,7.33950043639e-05,-0.000126551993502,-0.0100592311198,0.573846466822,0.818948711309,0.00199691327242,0.0,0.818905080874,-0.573786620723,-0.0120053862296,0.0,-0.00868616069851,0.00852469502231,-0.999925937351,0.0,0.661656528809,0.260894842167,0.303218974104,1.0,-0.00112,-0.001472,0.057
0.465061972042,0.547553464102,-0.123976465693,-1.35612530198,0.0796097496867,1.89414740375,0.159157955044,-0.00034513365536,-0.0069530204158,0.000204087706141,-0.00916279783857,0.000229514547599,0.00358938339727,-0.000854954186618,0.57385087435,0.818945601877,0.00200551127335,0.0,0.818901867058,-0.573790778432,-0.0120258728254,0.0,-0.00869795924706,0.00854353905141,-0.999925673961,0.0,0.661619554928,0.260878963378,0.303240449773,1.0,-0.00154,-0.002024,0.078
0.465048174192,0.547453589607,-0.123979681666,-1.35627157326,0.0796099658495,1.89419297216,0.15916026422,-0.000554304617685,-0.0101462393674,-0.000785708439806,-0.0125600422331,0.00024904638966,0.00904484331298,0.00227151050592,0.573874496707,0.818929039673,0.00200920648773,0.0,0.818885276651,-0.573814306937,-0.0120329439134,0.0,-0.00870138330377,0.00855087387358,-0.999925581473,0.0,0.661602069355,0.26085505111,0.303245643297,1.0,-0.00178,-0.00233942857143,0.09
0.465030819489,0.547225691526,-0.123982809357,-1.3565492347,0.0796016458434,1.89435047214,0.159149039406,0.000377870651351,-0.00793880696157,-0.00138738310559,-0.0158087190602,-6.61796756836e-06,0.0052465987605,-0.00239483666916,0.573895349557,0.818914189434,0.00210356857896,0.0,0.818871684868,-0.57383478589,-0.011981198788,0.0,-0.00860463853477,0.00859867256414,-0.999926008776,0.0,0.661581555611,0.26082115883,0.303288682451,1.0,-0.0022,-0.00289142857143,0.111
0.465015801089,0.547069822252,-0.123975012787,-1.35672850793,0.0796027069937,1.89444479239,0.159135607014,-0.000489296615815,-0.0145878337743,0.00028823198379,-0.0181054003088,0.000148587883105,0.00816721278643,-0.000980771272834,0.573901642131,0.818909600253,0.00217225097263,0.0,0.818867892332,-0.573840694369,-0.0119573950215,0.0,-0.00854566410117,0.00864132158624,-0.999926146866,0.0,0.661565442689,0.260803090654,0.303321693167,1.0,-0.00246,-0.00323314285714,0.124
0.46498135202,0.546812983339,-0.123979635519,-1.3571229555,0.0795951985302,1.89460105263,0.159106200479,-0.00290642920987,-0.0129009445796,-0.000844030733659,-0.024551945321,0.000243679460502,0.00619534747574,-0.00821714070058,0.573929170657,0.818890245971,0.00219522735835,0.0,0.818848730306,-0.573868016607,-0.0119583984521,0.0,-0.00853300936659,0.00866099959219,-0.999926084687,0.0,0.661523373031,0.26074356986,0.303329567942,1.0,-0.00286,-0.00375885714286,0.144
0.464955436057,0.546583131557,-0.123976881567,-1.35744888587,0.0795875425723,1.894714828,0.159007795333,-0.00547959296403,-0.0186917608572,-6.86125259329e-05,-0.0262549783129,-0.000147910872256,0.00955216762507,-0.00868109240475,0.573884019969,0.818921824432,0.00221900731427,0.0,0.818880484427,-0.573822637784,-0.0119615839865,0.0,-0.00852244963457,0.00868183083998,-0.999925994094,0.0,0.661483903376,0.260698835049,0.303346993196,1.0,-0.00314,-0.00412685714286,0.158
0.464905400454,0.546234595382,-0.123979661986,-1.35797378767,0.0795758568324,1.894906598,0.158930203245,-0.00627572651459,-0.0229750981997,-0.000816176923773,-0.0279074470891,0.000223161171901,0.0137414782641,-0.000856651608284,0.573889642264,0.818917819623,0.00224279018508,0.0,0.818876620623,-0.573827989649,-0.0119693522987,0.0,-0.00851510404577,0.00870582337042,-0.999925848072,0.0,0.661425214044,0.26061752341,0.303360694415,1.0,-0.00354,-0.00465257142857,0.178
0.464872826766,0.546008081177,-0.123982141329,-1.35836394175,0.07956154699,1.8950370952,0.158909324412,-0.00401955340961,-0.0125510832124,-0.00615846067096,-0.0324877957403,0.000235482637604,0.00246500021717,-0.00420200707971,0.573918937869,0.818897355146,0.00221842112205,0.0,0.818855742682,-0.573857284014,-0.0119932131584,0.0,-0.00854831799684,0.00869986653238,-0.999925616524,0.0,0.661377499873,0.260557738603,0.303346772312,1.0,-0.0038,-0.00499428571429,0.191
0.464797507987,0.545594834152,-0.123977156778,-1.35905074991,0.0795229564652,1.89527734452,0.158808281088,-0.00326479974821,-0.0229507319005,0.000448003887086,-0.0309116138352,0.000448340030967,0.0169701867635,-0.00116795263607,0.57392250699,0.818894923547,0.00219250104395,0.0,0.818852890746,-0.573860876776,-0.0120160028353,0.0,-0.00858181837835,0.00869175763232,-0.999925400089,0.0,0.661299213618,0.26044476248,0.303333085309,1.0,-0.0042,-0.00552,0.211
0.464740315014,0.545301230322,-0.123979290242,-1.3595686314,0.0794724397573,1.89544639056,0.15873393667,-0.00362260357365,-0.0218514635637,0.000271909752722,-0.0406718573657,-0.00271493800646,0.00868223846428,-0.00330586832159,0.573916715217,0.818899137073,0.00213405652673,0.0,0.818856499018,-0.573855489313,-0.0120273979449,0.0,-0.00862475179917,0.00865037732392,-0.999925389531,0.0,0.661234283784,0.260347966727,0.303311414447,1.0,-0.00448,-0.005888,0.225
0.464658188794,0.544783664513,-0.123984981249,-1.36043657592,0.0794316519057,1.89573603792,0.158652942032,-0.00300041212736,-0.0227711082038,-0.000136622195722,-0.0411706789808,-0.00374675239195,0.0120899182207,-0.0153844597256,0.573967782353,0.818863466764,0.00208674887108,0.0,0.81882005733,-0.573906597452,-0.0120697148258,0.0,-0.0086860168135,0.00863646556117,-0.999924979473,0.0,0.66113673968,0.260210587291,0.30328761258,1.0,-0.00488,-0.00641371428571,0.245
0.464592820405,0.544446034679,-0.123983575776,-1.36099932763,0.0794087516585,1.89594218877,0.158569636806,-0.0070661573113,-0.0283169999357,0.000224668418169,-0.0465490126002,-0.000397914223111,0.0131906477317,-0.0040752387047,0.573977458723,0.818856710602,0.00207636260629,0.0,0.818813045189,-0.573916197782,-0.0120889144648,0.0,-0.00870759824938,0.0086390835209,-0.999924769154,0.0,0.661075293979,0.260116098227,0.303276535427,1.0,-0.00514,-0.00675542857143,0.258
0.464507101039,0.543805065856,-0.123983623445,-1.36205614793,0.0793630245901,1.89631495312,0.158458584343,-0.00682341928411,-0.0316909300562,0.000874340369083,-0.0470452343354,2.0847850634e-05,0.0215267416048,0.000820704421076,0.574003454648,0.81883855807,0.00204860248402,0.0,0.818794322929,-0.573942106334,-0.0121269211555,0.0,-0.008754379957,0.00863844503817,-0.999924366189,0.0,0.660948197844,0.259960264943,0.303259393891,1.0,-0.00558,-0.00733371428571,0.28
0.464446373246,0.543444244631,-0.123991792493,-1.36264000893,0.0793355856409,1.89651737175,0.158374274817,-0.000891204341507,-0.0305048415376,-0.00234932875418,-0.050598175621,0.000118451350128,0.0186933605237,-0.0121805166636,0.574015022954,0.818830486493,0.00203339938203,0.0,0.818785994082,-0.573953682284,-0.0121413915837,0.0,-0.00877483345707,0.00863442634247,-0.999924221619,0.0,0.660882836283,0.259860119154,0.303254586301,1.0,-0.00582,-0.00764914285714,0.292
0.464346625384,0.542722159204,-0.123998842534,-1.36380033013,0.0792629698358,1.89692916115,0.158209065433,-0.00671266773448,-0.0293716706907,0.00101501763716,-0.0560710145896,-0.00719817786068,0.0152706920644,-0.00475504862233,0.574021915547,0.818825716174,0.00200845827997,0.0,0.818780928423,-0.573960714399,-0.0121505752555,0.0,-0.00879659669806,0.00861934976754,-0.999924160472,0.0,0.660744527642,0.259666644852,0.303251144556,1.0,-0.00628,-0.00825371428571,0.315
0.464301596316,0.542295778664,-0.124001289497,-1.36445180041,0.0792302476091,1.89716902487,0.15814128258,-0.00525483566998,-0.0396083393865,-0.00037565719583,-0.060439665892,-0.00684036757987,0.0210191266608,-0.00434531328649,0.574022086494,0.818825560425,0.00202304550376,0.0,0.8187808977,-0.573960756285,-0.0121506669353,0.0,-0.00878829713745,0.00863134838035,-0.999924129951,0.0,0.660671234963,0.25958613126,0.303261324383,1.0,-0.0065,-0.00854285714286,0.326
0.464196376683,0.541486335339,-0.124004771058,-1.36568783413,0.0791612811097,1.89762336207,0.157972191734,-0.00282416687613,-0.036263841087,-0.000784150452722,-0.0523964878294,-0.00146542582474,0.017478919205,-0.00242582694242,0.574022452986,0.818825238468,0.00204919906658,0.0,0.818780872889,-0.573960963232,-0.0121425605867,0.0,-0.00876664358299,0.00864811391698,-0.999924175168,0.0,0.660530013351,0.259398179098,0.303284842363,1.0,-0.00694,-0.00912114285714,0.348
0.464145649064,0.541055659852,-0.124002826609,-1.36635298768,0.0791205429371,1.89787959342,0.15789461689,-0.00574148647437,-0.0385014503094,0.000614154523334,-0.0588980072493,-0.000579118102678,0.0261141041558,-0.00338935451745,0.574025210487,0.818823260052,0.00206722638308,0.0,0.818779137573,-0.573963648578,-0.0121326372612,0.0,-0.0087481412268,0.00865720817081,-0.999924258517,0.0,0.660453917452,0.259303291906,0.303294851339,1.0,-0.00716,-0.00941028571429,0.359
0.464038431563,0.540213902511,-0.124005224604,-1.36762378585,0.0790414372104,1.89833502507,0.157723970717,-0.00772466116575,-0.0430341741247,-0.000642257736014,-0.0672364739143,-0.00109723112301,0.0224592727306,-0.0059785838607,0.574024122022,0.818823968336,0.00208880763547,0.0,0.818780134929,-0.573962472939,-0.0121209407638,0.0,-0.00872618762642,0.00866815346647,-0.999924355521,0.0,0.660306153266,0.259109403375,0.303324473135,1.0,-0.00756,-0.009936,0.379
0.463959052854,0.539596791309,-0.124010674367,-1.36857032134,0.0789888714623,1.89870780003,0.157614170796,-0.00433560169208,-0.0477918989373,-0.000553822057135,-0.0686295411456,-0.00459168014276,0.0263304390997,-0.00656017816979,0.574041542547,0.818811660519,0.00212577756161,0.0,0.818768327281,-0.573979748072,-0.0121004935836,0.0,-0.00868803924666,0.0086868725898,-0.999924525261,0.0,0.660202708369,0.258966358918,0.303342515539,1.0,-0.00784,-0.010304,0.393
0.463842457661,0.538719466881,-0.124011005802,-1.36993524209,0.0789151198011,1.89923306241,0.157435315675,-0.00870111971025,-0.0461827151105,-0.0014705675993,-0.0668745977529,-0.00316598971259,0.0327348092774,-0.00559689494707,0.574046700243,0.818807951538,0.00216132809457,0.0,0.81876502621,-0.573984695731,-0.0120891613648,0.0,-0.00865829890325,0.00870953072961,-0.999924586124,0.0,0.660049190391,0.258762389978,0.303358203797,1.0,-0.00824,-0.0108297142857,0.413
0.463755307173,0.538120104244,-0.124009110772,-1.37087386382,0.0788546639928,1.89958797612,0.157328634656,-0.00617869549404,-0.0429502150251,0.00530373749875,-0.0743444045667,-0.0110023228151,0.0273287686845,-0.0107826856174,0.574065087574,0.818795031655,0.00217215745881,0.0,0.818752277013,-0.57400306388,-0.0120804984637,0.0,-0.00864479352443,0.00871361903808,-0.999924667357,0.0,0.659943926482,0.258616715604,0.303365468316,1.0,-0.0085,-0.0111714285714,0.426
0.463626096943,0.537120867087,-0.124017919549,-1.37243786836,0.0787635807224,1.90016996469,0.157128243434,-0.0061122540014,-0.0503738130607,9.83592581538e-05,-0.0776226594703,-0.00626705818116,0.0291841793677,-0.0168258627615,0.574074890719,0.818788122242,0.00218577729082,0.0,0.818745548882,-0.574012811244,-0.0120733431206,0.0,-0.00863101194918,0.00872076646207,-0.999924724099,0.0,0.659764384023,0.258378549287,0.303377364374,1.0,-0.00892,-0.0117234285714,0.447
0.463538690196,0.536477338721,-0.124015470763,-1.373443825,0.0787115626579,1.90054564909,0.157010033259,-0.00709955647363,-0.0456300585462,0.00161907109388,-0.0776436823315,-0.00777010180025,0.0272445292945,-0.00877069008806,0.574089446282,0.81877787369,0.00220184563656,0.0,0.818735416219,-0.574027201657,-0.012076294435,0.0,-0.00862404942996,0.00873577037966,-0.999924653205,0.0,0.659647860319,0.258228408617,0.303385345198,1.0,-0.00918,-0.0120651428571,0.46
0.463394456552,0.535386873132,-0.124026552399,-1.37516711852,0.0786094455208,1.90117196545,0.156802808074,-0.00905037836691,-0.0557134327865,-0.000271601586323,-0.0884018475985,-0.00320863933919,0.0305753796189,-0.00500092429945,0.574112986696,0.81876138857,0.00219408168289,0.0,0.818718829515,-0.574050771835,-0.0120804161592,0.0,-0.00863163021115,0.00873202790759,-0.999924620483,0.0,0.659446861898,0.257962563712,0.303389345206,1.0,-0.0096,-0.0126171428571,0.481
0.463295797412,0.534709608122,-0.12402693175,-1.37625901098,0.0785546943677,1.90156569905,0.156670629162,-0.0103141503865,-0.0490625272261,-0.00181452799059,-0.0888428225997,-0.000355175083896,0.028920506447,-0.00186864505723,0.574134172011,0.818746566698,0.00218150172576,0.0,0.818703727714,-0.574071891321,-0.012100277831,0.0,-0.008654888742,0.00873335473262,-0.999924407851,0.0,0.659328060765,0.257806460981,0.303382090006,1.0,-0.00984,-0.0129325714286,0.493
0.463138407185,0.53365286718,-0.124033288892,-1.37799222771,0.0784545049938,1.90220116018,0.156455495012,-0.00855531280021,-0.049653158082,0.000786746424561,-0.0814636586051,-0.008948929593,0.0316292822133,-0.0103691182701,0.57415641714,0.818731061088,0.00214596540478,0.0,0.818687689223,-0.5740942178,-0.0121261495832,0.0,-0.00869623641419,0.0087193499313,-0.99992417133,0.0,0.659117036422,0.257521990035,0.303357369335,1.0,-0.01026,-0.0134845714286,0.514
0.46303440758,0.532935277353,-0.124031215613,-1.37914905443,0.0783911189222,1.90264646887,0.156303580677,-0.0118520118831,-0.0530938699012,0.000989926933347,-0.0951790182316,-0.00839772026037,0.0376504138933,-0.0155837520038,0.574162176504,0.818727002226,0.00215355522105,0.0,0.818683667925,-0.574099881684,-0.0121294940044,0.0,-0.00869455586431,0.00872754519722,-0.999924114447,0.0,0.658985217755,0.257346695087,0.303351319148,1.0,-0.01052,-0.0138262857143,0.527
0.462877446916,0.531778456808,-0.12403406309,-1.38099010811,0.0782895705128,1.90332447589,0.15607970446,-0.0117725635563,-0.0557046208796,-0.00273558986931,-0.094890901908,-0.00193043668359,0.0304711607367,-0.00634804983172,0.574182702778,0.818712611674,0.00215179414343,0.0,0.818669148836,-0.574120307066,-0.0121426792387,0.0,-0.00870614353813,0.00873389201861,-0.999923958206,0.0,0.658768451243,0.257067828799,0.303349410481,1.0,-0.01092,-0.014352,0.547
0.462775069201,0.530956077927,-0.124036490186,-1.38231611563,0.0782174300204,1.9037951103,0.155902642576,-0.00747528275458,-0.0547647782448,0.000899820719931,-0.0986964885292,-0.00863479916409,0.0318547781072,-0.0112789934859,0.574176090638,0.81871731265,0.00212739439283,0.0,0.818673412165,-0.574113683844,-0.0121683662568,0.0,-0.00874125418546,0.00872859424586,-0.999923698148,0.0,0.658605426362,0.256872634193,0.303338715086,1.0,-0.0112,-0.01472,0.561
0.462611796668,0.52974237527,-0.124035727094,-1.38425763856,0.0780880536002,1.90449852448,0.155641877039,-0.0093218800936,-0.0565305314957,0.0011142901384,-0.0997950763926,-0.0061269220509,0.0400258830842,-0.0224211229983,0.574166453099,0.818724143095,0.00209965508037,0.0,0.818679925757,-0.574104215662,-0.0121768477974,0.0,-0.00876422718394,0.00871065068207,-0.999923653529,0.0,0.658373048861,0.256577838894,0.303330588853,1.0,-0.0116,-0.0152457142857,0.581
0.462506107577,0.528911647864,-0.124042878038,-1.38552190936,0.078009625006,1.90497431765,0.155473701456,-0.0108951045846,-0.0663229979598,-0.000207297526678,-0.0989615362911,-0.00721673365603,0.0421305609297,-0.0150406005777,0.574167882616,0.818723054839,0.00213282632064,0.0,0.818679328444,-0.574105556026,-0.0121537903273,0.0,-0.00872628891206,0.00872458485317,-0.999923863852,0.0,0.658227258319,0.256384529699,0.303355337748,1.0,-0.01186,-0.0155874285714,0.594
0.462336317776,0.527537664286,-0.124043335205,-1.38766335622,0.0778760437897,1.90579488218,0.155167906866,-0.01031931232,-0.066214194972,0.000112086855934,-0.102016390703,-0.0111873344,0.0355083436841,-0.0122778152402,0.574137075711,0.818744549347,0.00217442190847,0.0,0.818701421066,-0.574074626733,-0.0121265405978,0.0,-0.00868042569652,0.00874266718722,-0.99992410511,0.0,0.657976749819,0.256070415913,0.303374508906,1.0,-0.01228,-0.0161394285714,0.615
0.462223804279,0.526653519637,-0.124048886164,-1.38902157117,0.0778003632885,1.90630849443,0.154998646455,-0.00902435401005,-0.0704883352323,-0.00242647236542,-0.108219658926,-0.00529218306694,0.0411681925261,-0.0103514108242,0.574147654228,0.818737036161,0.00220990117748,0.0,0.818694345896,-0.574085025243,-0.0121119235203,0.0,-0.00864797569233,0.00876343479967,-0.999924204491,0.0,0.6578183626,0.255866136897,0.303394964574,1.0,-0.01254,-0.0164811428571,0.628
0.462027863016,0.525190786686,-0.12404918327,-1.39128387853,0.0776557752146,1.90712730647,0.154681746816,-0.0156017648738,-0.0694635426845,-0.000189889591841,-0.112201950627,0.000232763507204,0.0401849362582,-0.014344283034,0.57413168481,0.818748199178,0.00222300276028,0.0,0.818705692896,-0.574069014816,-0.012103782392,0.0,-0.00863395926262,0.00876931882902,-0.99992427403,0.0,0.657547393941,0.255519949177,0.303418149663,1.0,-0.01296,-0.0170331428571,0.649
0.461918040612,0.524361329554,-0.124047507678,-1.39261322853,0.077564488096,1.90760212968,0.154497565572,-0.0134880938775,-0.0691968063923,-4.93836350887e-05,-0.108341125027,-0.00368678060385,0.0401280319375,-0.0154777429196,0.574116398927,0.818758990412,0.00219613390355,0.0,0.818716166781,-0.57405388017,-0.0121131256858,0.0,-0.00865719804641,0.00875252294291,-0.999924220261,0.0,0.657384261515,0.255319292689,0.303409819592,1.0,-0.0132,-0.0173485714286,0.661
0.461712730899,0.522794556453,-0.124055664648,-1.39509996866,0.0774166701257,1.90854438574,0.154175047272,-0.00865380524038,-0.0751412697394,-0.000425429652014,-0.117118099103,-0.00771421982764,0.0515919870916,-0.0151587921586,0.574120045258,0.818756389265,0.00221259401209,0.0,0.818713786934,-0.574057461791,-0.0121042367161,0.0,-0.00864043140098,0.00876093482898,-0.999924291617,0.0,0.657090761077,0.254945004434,0.303409561432,1.0,-0.01364,-0.0179268571429,0.683
0.461592109832,0.521926696599,-0.124053161964,-1.39648373174,0.0773335189033,1.90908814313,0.153986171805,-0.00666559966626,-0.0749364844825,8.77222213568e-05,-0.11519786604,-0.00172508664456,0.0435778967367,-0.0166390882203,0.574114304583,0.818760353073,0.00223526531961,0.0,0.818718053104,-0.574051631486,-0.0120921797501,0.0,-0.00861760557372,0.00877251433686,-0.999924387075,0.0,0.656930828351,0.254737777391,0.303407845595,1.0,-0.01388,-0.0182422857143,0.695
0.46137232118,0.520288535497,-0.124064190707,-1.39909973825,0.0771706179523,1.91005952423,0.153631710847,-0.00512384699757,-0.0782504654996,0.000356991480925,-0.123115438069,-0.00940942543155,0.0399160317833,-0.0157403916874,0.574107671837,0.818765036351,0.00222335052477,0.0,0.818722625145,-0.574045095437,-0.0120929062675,0.0,-0.00862511143562,0.00876310635817,-0.999924404853,0.0,0.656617976306,0.2543375701,0.303397946815,1.0,-0.01432,-0.0188205714286,0.717
0.461256181776,0.519357940449,-0.1240683617,-1.40055387005,0.0770788903022,1.91057499946,0.153432007399,-0.00335869656455,-0.0802846854191,-0.000342217983399,-0.118532753945,-0.0118167116745,0.0405036835604,-0.0162296997311,0.574094717619,0.81877414367,0.0022144438458,0.0,0.818731607228,-0.574032171841,-0.0120982609554,0.0,-0.00863474748906,0.00875875150895,-0.999924359843,0.0,0.656437281149,0.254118685516,0.303404017182,1.0,-0.01456,-0.019136,0.729
0.461035743616,0.517692966447,-0.124077608904,-1.4031691362,0.0769136280756,1.91150785679,0.153072342433,-0.0111612486086,-0.0844140462582,-0.00101259586853,-0.128728945944,-0.00605548159281,0.050573326682,-0.0109278012916,0.574081310429,0.81878359665,0.0021949427712,0.0,0.818740805654,-0.574018850053,-0.0121078421804,0.0,-0.00865393065765,0.00874814354712,-0.999924286868,0.0,0.656115648676,0.253716704438,0.30340889869,1.0,-0.01498,-0.019688,0.75
0.460911561756,0.516742939995,-0.124080433651,-1.40466802022,0.0768181316076,1.9120584946,0.152865668465,-0.0118996942463,-0.0784351645439,-0.000297059425085,-0.125932123603,-0.00863799715428,0.047955914165,-0.0168819641566,0.574069336974,0.818791996348,0.00219316300087,0.0,0.818749200632,-0.574006904513,-0.0121064833128,0.0,-0.00865396755092,0.00874577968565,-0.999924307227,0.0,0.65593279546,0.253490104043,0.303409768755,1.0,-0.01522,-0.0200034285714,0.762
0.460685288129,0.515053521869,-0.124087612951,-1.4073592742,0.076647114377,1.91308114302,0.152496328969,-0.0092706547179,-0.0807605067241,0.000215543855125,-0.128642483019,-0.00820763657036,0.0493378285434,-0.0127339388411,0.574053453723,0.818803106288,0.00220279444824,0.0,0.818760524164,-0.573991070909,-0.0120913807803,0.0,-0.00863624207234,0.00874482839935,-0.999924468797,0.0,0.655611157897,0.253082038878,0.303402391107,1.0,-0.01564,-0.0205554285714,0.783
0.460541602371,0.513993088316,-0.124093651356,-1.40908974653,0.0765435525845,1.91368580308,0.15226714643,-0.00994441702641,-0.0803152137345,-0.00245640775893,-0.129739234396,-0.0114424995994,0.0477707984636,-0.021382577204,0.574050766652,0.81880513892,0.00214678505772,0.0,0.818761735097,-0.573988534624,-0.0121297222639,0.0,-0.00869981641232,0.00872094972891,-0.999924126237,0.0,0.655391932137,0.252817210341,0.303374682071,1.0,-0.0159,-0.0208971428571,0.796
0.460318159967,0.512325561632,-0.124090769488,-1.41177335919,0.076382379406,1.91462373189,0.151879108346,-0.0108743498717,-0.0906816458347,0.000727880988192,-0.136788747711,-0.00940688173593,0.0473549609092,-0.0209366154868,0.57401103363,0.818833157447,0.00208337152612,0.0,0.818788732267,-0.573948893579,-0.0121830362837,0.0,-0.00878029433299,0.00869920586732,-0.999923612207,0.0,0.655048997661,0.252413568888,0.303346928759,1.0,-0.0163,-0.0214228571429,0.816
0.460167123752,0.51122366128,-0.124096799815,-1.41353901882,0.0762695576924,1.91530537665,0.151632049012,-0.0175556391316,-0.0859330104328,-0.000751757624268,-0.139593028075,-0.00582232150435,0.0533127425029,-0.0143446885612,0.573998848097,0.818841677014,0.00209219239447,0.0,0.818797448925,-0.573936751595,-0.0121692113158,0.0,-0.00876404003007,0.00869836254318,-0.99992376214,0.0,0.654838904276,0.252144064677,0.303337502435,1.0,-0.01656,-0.0217645714286,0.829
0.459926868026,0.509405387982,-0.124095404023,-1.41644249682,0.076090044835,1.91637830123,0.151231087022,-0.00334169995025,-0.0837682686237,-0.00154676049798,-0.141186285907,-0.0112104353086,0.0459615693612,-0.0181397288931,0.57396928406,0.818862432476,0.00207955207177,0.0,0.818817984312,-0.573907193087,-0.0121815102397,0.0,-0.00878168028824,0.00869475474767,-0.99992363875,0.0,0.654477888862,0.25171074431,0.303321286211,1.0,-0.01698,-0.0223165714286,0.85
0.459759950889,0.50825542764,-0.124103564105,-1.4182514208,0.0759756060856,1.91702483704,0.150967687894,-0.0114530756204,-0.0907439085105,-0.0020369317409,-0.1409856916,-0.0142733496003,0.0464015242264,-0.0119385780541,0.573959066826,0.818869628945,0.00206574478857,0.0,0.81882500106,-0.57389703946,-0.012188217255,0.0,-0.00879520545766,0.00868718853597,-0.999923585639,0.0,0.654254818249,0.251422638502,0.30332114653,1.0,-0.01724,-0.0226582857143,0.863
0.459499371948,0.506432011947,-0.124106354531,-1.42111264483,0.0758024803755,1.91806466762,0.150588572893,-0.0112548092818,-0.0932791082293,-0.000283687945884,-0.144662380915,-0.0120374529172,0.0560557686751,-0.0163366429233,0.573963215068,0.818866691659,0.00207748452109,0.0,0.818822176246,-0.573901094272,-0.0121870661591,0.0,-0.00878748109297,0.00869618550011,-0.999923575347,0.0,0.653885090594,0.250953324977,0.303331328978,1.0,-0.01766,-0.0232102857143,0.884
0.459322928377,0.505121394464,-0.124112834017,-1.4231272167,0.0756751893396,1.91884130348,0.150305737803,-0.0131995598936,-0.0917007808892,9.62457776086e-05,-0.144237808475,-0.00300481055262,0.0567502880294,-0.0208628270106,0.573952750466,0.818873904011,0.00212519714347,0.0,0.81883005625,-0.573890463582,-0.0121581944779,0.0,-0.00873656600999,0.00871857231738,-0.999923826554,0.0,0.653659839732,0.250668829318,0.303349281498,1.0,-0.01792,-0.023552,0.897
0.459049941669,0.503154550938,-0.12412520051,-1.42605886728,0.0754919815823,1.91995625657,0.149895251404,-0.0124167471241,-0.103539371388,-0.000827069619015,-0.143984592077,-0.00942000605474,0.0601469179269,-0.0181843399761,0.573950405312,0.818875217353,0.0022488992331,0.0,0.818833107551,-0.573887707929,-0.0120825314898,0.0,-0.00860363562031,0.0087764159666,-0.999924473136,0.0,0.653311081732,0.250207292922,0.303424738588,1.0,-0.01832,-0.0240777142857,0.917
0.458870646202,0.501859878547,-0.124130885085,-1.42797471385,0.075362233078,1.92065036334,0.149633083293,-0.0102832635121,-0.0994013267023,0.000477809894475,-0.149989196269,-0.00802840641448,0.0616009527253,-0.019874669185,0.573949413593,0.818875756106,0.00230512480851,0.0,0.818834482134,-0.57388658477,-0.0120426571736,0.0,-0.0085387241916,0.00879956112051,-0.999924826131,0.0,0.653075903162,0.249902811247,0.303476970178,1.0,-0.01858,-0.0244194285714,0.93
0.458573573337,0.499733651782,-0.124129865691,-1.4311808678,0.0751585105563,1.92179053767,0.14918856409,-0.0142446793659,-0.100749421639,0.000547672704248,-0.150625633313,-0.0136349148567,0.0572224299632,-0.0193332640633,0.573936170456,0.818884891616,0.00235657100816,0.0,0.818844239028,-0.573873079014,-0.0120228239365,0.0,-0.00849309973427,0.00883016813017,-0.999924944877,0.0,0.652671703753,0.249401700681,0.303533240094,1.0,-0.019,-0.0249714285714,0.951
0.458389895348,0.498471294768,-0.124130663706,-1.43318941868,0.0750344165795,1.92254133153,0.14889326203,-0.0166958254542,-0.0855880464194,0.00101830822055,-0.156226557962,-0.00759915660127,0.0528273206764,-0.0181430977302,0.573914158466,0.818900311961,0.0023589579894,0.0,0.818859666017,-0.573851034595,-0.0120243239327,0.0,-0.00849319565718,0.00883275536024,-0.999924921212,0.0,0.652422572698,0.249090670659,0.303522751898,1.0,-0.01926,-0.0253131428571,0.964
0.458076599191,0.49647254827,-0.124135462308,-1.43633648887,0.0748369690364,1.9236745086,0.14842693541,-0.0137264179889,-0.0991457673625,-0.000524080284396,-0.159934602832,-0.0112749536145,0.0615945262771,-0.0284016465553,0.57389832765,0.818911449729,0.00234391215265,0.0,0.818870546529,-0.573835204603,-0.0120388074981,0.0,-0.00851386190985,0.00882858209309,-0.999924782318,0.0,0.652030012106,0.248581714902,0.303516420946,1.0,-0.01966,-0.0258388571429,0.984
0.457875693625,0.49521367382,-0.124135567644,-1.43841939362,0.0747115540061,1.92438058331,0.14813564357,-0.0144457015567,-0.0906191716729,0.0014403202591,-0.159461693728,-0.0024064752837,0.0546356221785,-0.0218396768294,0.573895510284,0.818913698481,0.00224602281836,0.0,0.818871315862,-0.573832592465,-0.0121107714252,0.0,-0.00862900165767,0.00878969023649,-0.99992413796,0.0,0.65175616887,0.24824807804,0.303463383743,1.0,-0.01992,-0.0261805714286,0.997
0.457495624319,0.492549213075,-0.124199082283,-1.44242605205,0.0744849649105,1.92583296151,0.147565025547,-0.0178994424219,-0.172171108487,-0.00485283686009,-0.232164727758,-0.00724654729079,0.0846715956596,-0.040471507375,0.573925587177,0.81889235548,0.00234038902097,0.0,0.818851229769,-0.573862292274,-0.0120615054127,0.0,-0.00853417787904,0.00883900718247,-0.999924517031,0.0,0.651264411601,0.247585266344,0.303539028181,1.0,-0.0355228571429,-0.0466871836735,1.018
0.457210374528,0.490054090253,-0.124258707824,-1.44629780199,0.0742899347273,1.92736134933,0.146962771913,-0.0225550849296,-0.203626014245,-0.0058506690944,-0.331607593222,-0.0154924037148,0.129478550521,-0.0563487782926,0.573851584172,0.818943815207,0.00247664643027,0.0,0.818904439332,-0.57378771131,-0.0119970201873,0.0,-0.00840397799898,0.0089128173956,-0.999924964605,0.0,0.650787538145,0.247010369864,0.303566212147,1.0,-0.0474085714286,-0.0623084081633,1.031
0.456403081702,0.484379531599,-0.124331350352,-1.45523987195,0.0737890547839,1.93077034773,0.145599109308,-0.0441733063533,-0.308348468219,-0.0146315110281,-0.477828454157,-0.0289374476636,0.178234943286,-0.0726896015455,0.573758635669,0.819008542324,0.00260432265104,0.0,0.818970667814,-0.573694093131,-0.0119532283816,0.0,-0.00829587135263,0.0089913049793,-0.999925164676,0.0,0.649674527578,0.245607899134,0.303549956975,1.0,-0.0666085714286,-0.0875426938775,1.052
0.455721396219,0.479889875098,-0.124463034356,-1.46246633534,0.0733706025937,1.93324799806,0.144510819898,-0.0572110644176,-0.364976501776,-0.0140362801979,-0.587718828939,-0.0341985805565,0.193830005734,-0.0830190940005,0.573762162479,0.819006760471,0.00237783760282,0.0,0.818965692285,-0.573698284433,-0.0120921544587,0.0,-0.00853955930994,0.00888555918435,-0.999924058499,0.0,0.648730940115,0.244392123241,0.303443103567,1.0,-0.0784942857143,-0.103163918367,1.065
0.45432028077,0.470950856596,-0.12466866181,-1.47655558342,0.0725188121229,1.93815161872,0.14246232079,-0.0700174352765,-0.458347868244,-0.00459953034734,-0.706108601336,-0.0393356701766,0.250070514769,-0.102520331124,0.573830634298,0.818959413259,0.00215162187453,0.0,0.818915150141,-0.573767486016,-0.0122309346214,0.0,-0.00878227745341,0.00878064977701,-0.999922882923,0.0,0.646892350378,0.242009735664,0.303353805497,1.0,-0.0976942857143,-0.128398204082,1.086
0.453371122102,0.464908711511,-0.124770950593,-1.48563861144,0.0719736148121,1.94157856899,0.140987933696,-0.0837026601007,-0.50949399293,-0.00915372820423,-0.771095567843,-0.0428363375485,0.288537942998,-0.1346349866,0.573759753999,0.819008158009,0.0024756227856,0.0,0.818968363701,-0.57369546816,-0.012044748655,0.0,-0.00844465642248,0.00893842085946,-0.999924393347,0.0,0.645753402879,0.240485827391,0.303500119249,1.0,-0.108665714286,-0.142817795918,1.098
0.451449444904,0.453709718174,-0.124944199683,-1.50317430631,0.0708718660166,1.94767537803,0.138263480793,-0.106459628447,-0.604151622866,-0.0112338977837,-0.924737556127,-0.0539493258571,0.315966411522,-0.146054848749,0.57374456234,0.819019425451,0.00225938474724,0.0,0.818976331336,-0.573680704136,-0.0122051348176,0.0,-0.00870024457986,0.00885318281683,-0.999922960482,0.0,0.643415056659,0.237459406036,0.303393982287,1.0,-0.126951428571,-0.16685044898,1.118
0.449874855206,0.444686233895,-0.125090542344,-1.51672461806,0.0699105060172,1.95257938506,0.13614898557,-0.113597771228,-0.661437883389,-0.00818577886284,-0.994905522341,-0.0734080801691,0.348700897643,-0.159858143124,0.573759524386,0.819008216017,0.00250941725518,0.0,0.818969478757,-0.573695757663,-0.0119548067688,0.0,-0.00835160372532,0.00891449201887,-0.99992538849,0.0,0.64164860727,0.235062047329,0.303560043263,1.0,-0.139751428571,-0.183673306122,1.132
0.447302864599,0.43056053502,-0.125271256639,-1.53823861881,0.0685170401543,1.9599989487,0.132665752682,-0.133906915178,-0.744516337947,-0.012431584931,-1.11369059438,-0.0724529126695,0.383924617879,-0.179707502975,0.573712394632,0.819041160634,0.00253225853968,0.0,0.819002173294,-0.573647957662,-0.012008651521,0.0,-0.00838311634084,0.00896361004504,-0.999924685692,0.0,0.638696283147,0.231247410238,0.303614350591,1.0,-0.158037142857,-0.207705959184,1.152
0.445398244315,0.420594831969,-0.125401115067,-1.55334694637,0.0674540825153,1.96515002621,0.130147942752,-0.148521144797,-0.765570528919,-0.0158333538044,-1.17647485623,-0.0866406544242,0.401432566026,-0.19732116083,0.57365585524,0.819080861047,0.00249994336229,0.0,0.819041590445,-0.573591703253,-0.0120074135673,0.0,-0.00840125762267,0.00893585272949,-0.999924781874,0.0,0.636590037251,0.228498132496,0.303649314357,1.0,-0.169922857143,-0.223327183673,1.165
0.441890672903,0.403193997155,-0.125605051137,-1.57943613655,0.0656269475232,1.97427550968,0.125785316707,-0.174020462742,-0.823280936496,-0.00844133765719,-1.28881543482,-0.082093105089,0.43408363601,-0.219670000215,0.573672932273,0.819067884848,0.00281312805619,0.0,0.81903311414,-0.573608039359,-0.0118034751673,0.0,-0.00805436964189,0.00907555397508,-0.999926378015,0.0,0.632952094375,0.223664254853,0.303800369186,1.0,-0.189122857143,-0.248561469388,1.186
0.439459687255,0.391517263781,-0.125747936871,-1.59656097206,0.064482768558,1.98019055837,0.12283944325,-0.190340010163,-0.892897679132,-0.00670766295467,-1.33816005452,-0.0917243877458,0.458776334872,-0.226283265498,0.573717728675,0.819035018407,0.00321765893806,0.0,0.81900526943,-0.573651167269,-0.0116384637127,0.0,-0.00768664352714,0.0093126518894,-0.999927092355,0.0,0.630516446499,0.220428512394,0.304022101557,1.0,-0.201008571429,-0.264182693878,1.199
0.435072438475,0.371676822,-0.125979229267,-1.62611498101,0.0622344281943,1.99004401143,0.117539570604,-0.226375558542,-0.981045980866,-0.0119128657629,-1.44667621662,-0.101012858193,0.47759471807,-0.254440823249,0.573618320955,0.819104585851,0.00323205882759,0.0,0.819075579808,-0.573552402771,-0.0115577999492,0.0,-0.00761343841654,0.00927724487467,-0.999927981548,0.0,0.626158137274,0.214701821506,0.304087585024,1.0,-0.220208571429,-0.289416979592,1.22
0.432035768934,0.358675129231,-0.126137088297,-1.64528524086,0.0607401622486,1.99642407531,0.114109454071,-0.239828770789,-1.01842043431,-0.00970088575318,-1.50131250506,-0.115131518007,0.498385216533,-0.279860109074,0.573672396133,0.819066301324,0.00333509390403,0.0,0.819039171558,-0.573606827812,-0.0114363211731,0.0,-0.00745421616601,0.00929245322705,-0.99992903997,0.0,0.623290165289,0.210885603957,0.304162748963,1.0,-0.232094285714,-0.305038204082,1.233
0.426835734781,0.337759479306,-0.126416638271,-1.67612403978,0.0584188208099,2.0063624624,0.108256248575,-0.26762102314,-1.06506265192,-0.00821612679051,-1.58100123806,-0.112814707429,0.501432356767,-0.290066051965,0.57372708658,0.819028095422,0.00330997506312,0.0,0.819000080873,-0.573660891068,-0.0115237359806,0.0,-0.00753960544902,0.00932252880264,-0.99992811982,0.0,0.618534114323,0.20457855921,0.30416574773,1.0,-0.25038,-0.329070857143,1.253
0.423187356947,0.323506227117,-0.126565756237,-1.69699944551,0.0567436878893,2.01310326117,0.104175881465,-0.287290664347,-1.12268324667,-0.0110062779278,-1.59950289164,-0.140573313201,0.53148021389,-0.325170928315,0.573661252225,0.819074054245,0.00334787396269,0.0,0.819046677317,-0.573595133509,-0.011485211888,0.0,-0.00748705900142,0.00933086572701,-0.999928436886,0.0,0.615241325937,0.200278418996,0.30416517406,1.0,-0.262265714286,-0.344692081633,1.266
0.416794007586,0.299459785233,-0.12677339577,-1.73188806252,0.0538396400423,2.02394130997,0.0971168727516,-0.313622986435,-1.16156519488,-0.00693492266824,-1.70031446324,-0.136652033022,0.503224230116,-0.337102528016,0.573442872213,0.819227367319,0.00324651260462,0.0,0.819198543348,-0.573376925979,-0.01154964212,0.0,-0.00760045382238,0.00928277706924,-0.999928028986,0.0,0.609529763025,0.192973510384,0.304151335262,1.0,-0.281465714286,-0.369926367347,1.287
0.412381431731,0.283906716501,-0.126959471178,-1.75409853183,0.0519723347837,2.03076456058,0.0924783761975,-0.345630105234,-1.20702409681,-0.0142017075075,-1.73815212124,-0.155955094136,0.534393203778,-0.353366483134,0.573446242368,0.819224667472,0.00333139923728,0.0,0.819196932837,-0.573380022433,-0.0115100828151,0.0,-0.00751933076778,0.00932966540185,-0.999928205927,0.0,0.605841449546,0.188132725365,0.304212142178,1.0,-0.293351428571,-0.385547591837,1.3
0.404984186304,0.259172132077,-0.127298037718,-1.78923708547,0.0489354721653,2.04124767815,0.0848140706343,-0.403130094721,-1.24336447688,-0.0211691827506,-1.77249949491,-0.156438942937,0.517988698928,-0.396920379887,0.573438472835,0.819230239332,0.003298444923,0.0,0.819201826872,-0.573372044978,-0.0115590565426,0.0,-0.00757843845551,0.00933067948245,-0.999927750235,0.0,0.59954097947,0.179850067775,0.304223214135,1.0,-0.312551428571,-0.410781877551,1.321
0.399275651038,0.241245068039,-0.12760520011,-1.81436540261,0.0466309872985,2.0486529043,0.0790955164601,-0.416430317233,-1.29485056542,-0.0218831456028,-1.82596467951,-0.170260445048,0.528351669506,-0.419480070504,0.573521077359,0.819172105902,0.00337366826975,0.0,0.819145289358,-0.57345518463,-0.0114408498426,0.0,-0.00743752069372,0.00932527253907,-0.999928858758,0.0,0.595479908099,0.17440945363,0.304280959181,1.0,-0.324437142857,-0.426403102041,1.334
0.390541028276,0.214789978612,-0.127904644754,-1.85086752618,0.0433242857504,2.05914865513,0.070324468518,-0.456363844486,-1.35531227089,-0.0171526330982,-1.82937620279,-0.182614783321,0.54335391915,-0.445969874667,0.573415201302,0.819244852336,0.00369130582037,0.0,0.81922184273,-0.573348054234,-0.0113281949932,0.0,-0.00716430035971,0.009519940857,-0.999929019244,0.0,0.588929364898,0.165853111586,0.304424512232,1.0,-0.342722857143,-0.450435755102,1.354
0.384383268276,0.197134788416,-0.128173409476,-1.87515473549,0.0409823302425,2.06571815144,0.0642472774253,-0.481897846763,-1.3640307126,-0.0208191105387,-1.84435887932,-0.165501253389,0.496347803147,-0.473999176141,0.573362414779,0.819282334802,0.0035698881103,0.0,0.819257530645,-0.573295311433,-0.0114162722308,0.0,-0.00730669072847,0.00947050146847,-0.999928458377,0.0,0.584413662961,0.159968960239,0.304408728863,1.0,-0.354608571429,-0.466056979592,1.367
0.37395903706,0.169046531121,-0.128742266231,-1.91323897871,0.0372866892616,2.07587150548,0.0542685402784,-0.535042169059,-1.40897074663,-0.0266114593259,-1.91563550386,-0.170989601244,0.488291676775,-0.507639662788,0.573540289813,0.819157585086,0.00362403895419,0.0,0.819133104567,-0.573472518261,-0.0114444180086,0.0,-0.00729663555612,0.00953258863286,-0.999927941836,0.0,0.577214499834,0.150370285087,0.3044352096,1.0,-0.372894285714,-0.490089632653,1.387
0.366705909455,0.150293235173,-0.129062722352,-1.93827526765,0.0346671478127,2.08231681437,0.0473576275458,-0.564544725564,-1.44629388119,-0.0197977558751,-1.93837127205,-0.20908647049,0.506484242713,-0.542493346109,0.573503065226,0.81918350675,0.00365559110939,0.0,0.819159840999,-0.57343574455,-0.0113731555676,0.0,-0.00722059386991,0.00951723624753,-0.999928640073,0.0,0.57233544735,0.143947046616,0.304477873411,1.0,-0.38478,-0.505710857143,1.4
0.353980434864,0.119295562097,-0.129672339499,-1.97904952229,0.0303210946932,2.09227271713,0.0354537504051,-0.637020943321,-1.51197783311,-0.0348478104935,-1.90791974187,-0.202427760768,0.456776492335,-0.579174979423,0.573565442658,0.819139695976,0.00368624018843,0.0,0.819116428765,-0.57349803345,-0.0113590782026,0.0,-0.00719075881092,0.00953481819096,-0.999928687572,0.0,0.564148562838,0.133111877364,0.304545422053,1.0,-0.40398,-0.530945142857,1.421
0.345419349858,0.0995909004579,-0.130141416671,-2.00457739947,0.0274535895933,2.09822681392,0.0275466699547,-0.674140705033,-1.51857530885,-0.0366648936455,-1.93375456559,-0.224317984689,0.441645960713,-0.624257327205,0.57364542617,0.819083660496,0.00369175360048,0.0,0.819060838375,-0.573578488098,-0.0113052170651,0.0,-0.00714254564391,0.00950913994074,-0.999929277649,0.0,0.558883317144,0.12607203501,0.304589665636,1.0,-0.415865714286,-0.546566367347,1.434
0.330808397194,0.0673993411128,-0.13067986437,-2.04589536016,0.0227992077691,2.10741774817,0.0139809483458,-0.714112015095,-1.52537483586,-0.0201371951604,-1.95927457002,-0.225479064543,0.428818172377,-0.650287908067,0.573439148626,0.819228104982,0.00368805255296,0.0,0.819204427568,-0.573371177784,-0.0114168840283,0.0,-0.00723854859575,0.00956834145784,-0.999928022538,0.0,0.550036528837,0.114644780219,0.304543129151,1.0,-0.41998,-0.551973714286,1.455
0.321051972378,0.0476388229834,-0.131153833981,-2.07075554888,0.0197867089073,2.1124168062,0.00534452736644,-0.75741901919,-1.50687479434,-0.0342770664861,-1.8974174882,-0.227509029102,0.362154548438,-0.665005891723,0.573663681161,0.819071591679,0.00352923830759,0.0,0.819045683017,-0.57359590891,-0.0115173483786,0.0,-0.00740931886596,0.0094978747318,-0.999927443553,0.0,0.544560345556,0.10729322537,0.304535385378,1.0,-0.41998,-0.551973714286,1.468
0.305551269779,0.0175281939319,-0.131644236392,-2.10778467163,0.0152504717165,2.11956489548,-0.00835957944634,-0.794699369699,-1.49005760779,-0.0209277550388,-1.78756838933,-0.224437994059,0.33856929942,-0.693573351656,0.573784496114,0.818986400664,0.00365710909856,0.0,0.818961908476,-0.573716020001,-0.0114920738558,0.0,-0.00731385094086,0.00958919147515,-0.999927274851,0.0,0.536166405193,0.0962080710472,0.304643682766,1.0,-0.41998,-0.551973714286,1.488
0.294184549624,-0.00326920583832,-0.132102394411,-2.13288647414,0.0120510920257,2.12413081345,-0.0183475777728,-0.816967699616,-1.45537028923,-0.0319744374641,-1.75354044014,-0.220458729249,0.297316445118,-0.719530063379,0.573963573415,0.818860191949,0.00381435901844,0.0,0.818837997584,-0.57389498125,-0.0113855658792,0.0,-0.00713428252098,0.00965842813278,-0.999927905791,0.0,0.530334940098,0.0883523335405,0.304740344267,1.0,-0.41998,-0.551973714286,1.502
0.277558141956,-0.0325467560848,-0.132508508973,-2.16760029951,0.00747831854235,2.13001858614,-0.0330746606988,-0.856286855454,-1.45170943987,-0.0210999737942,-1.70163495579,-0.240993485921,0.290276062764,-0.739025006087,0.573840521463,0.818945069104,0.00409592720866,0.0,0.818927163991,-0.573772155496,-0.0111606700276,0.0,-0.00678997743185,0.00975889865046,-0.999929327555,0.0,0.521994850834,0.0774048781027,0.304886652741,1.0,-0.41998,-0.551973714286,1.522
0.266173342854,-0.0513262748356,-0.132986526057,-2.18957040785,0.00456750238378,2.1332624646,-0.0429756187094,-0.879001522092,-1.45345767554,-0.0267277453479,-1.63134374068,-0.226999396108,0.248593668388,-0.759798278309,0.574097060438,0.818764920779,0.00416132182427,0.0,0.818747263886,-0.574027646426,-0.0112216718531,0.0,-0.00679932840116,0.00984958931696,-0.999928374797,0.0,0.516544691179,0.0700943111375,0.304927976476,1.0,-0.41998,-0.551973714286,1.535
0.248256406853,-0.0798586027917,-0.133459671375,-2.2225032012,-4.94923559298e-05,2.13773722216,-0.0588131483732,-0.913967831436,-1.41823285688,-0.0290608238118,-1.61913628132,-0.235615791266,0.203563555531,-0.815376419854,0.573983015944,0.818844951964,0.00414595611199,0.0,0.818826935823,-0.573913422722,-0.0112507462821,0.0,-0.00683332849899,0.00985274751779,-0.99992811191,0.0,0.507680827464,0.0585290006207,0.304929992839,1.0,-0.41998,-0.551973714286,1.556
0.234270487538,-0.100826765865,-0.133865152962,-2.24633668477,-0.0034815304589,2.14057869983,-0.071113690123,-0.938489543693,-1.43406780351,-0.0200173329427,-1.60641133519,-0.243727763887,0.204284233616,-0.838093653114,0.573926065308,0.818884891627,0.0041415850828,0.0,0.818866677469,-0.5738562871,-0.0112726744301,0.0,-0.0068544801107,0.00986127755752,-0.999927883053,0.0,0.501799996126,0.0508193001402,0.304919004295,1.0,-0.41998,-0.551973714286,1.57
0.215940916112,-0.126968390566,-0.134423181388,-2.27561152574,-0.00780798046919,2.14352476309,-0.0871844545372,-0.984784759479,-1.39785397795,-0.0350902717013,-1.53468900777,-0.233228942269,0.14263589638,-0.867779577222,0.573959147707,0.818862347303,0.00401245980836,0.0,0.818841614077,-0.573888500274,-0.0114519522579,0.0,-0.00707500418102,0.00985871163417,-0.99992637235,0.0,0.493786586285,0.0403410129286,0.304840430809,1.0,-0.41998,-0.551973714286,1.589
0.203046691611,-0.144514861525,-0.134717694555,-2.29495435316,-0.0107110853272,2.14514786679,-0.0986340605797,-0.997298424182,-1.36870856948,-0.0258483612669,-1.47051797269,-0.22618574234,0.130778813186,-0.880871506184,0.573806231181,0.818969977254,0.00391565008374,0.0,0.818947143663,-0.573734723934,-0.0116098810964,0.0,-0.00726173944865,0.00986872257156,-0.99992493491,0.0,0.488318749002,0.0332630742729,0.304774645615,1.0,-0.41998,-0.551973714286,1.602
0.180321607974,-0.173979877873,-0.135379322674,-2.32680789334,-0.0156700280882,2.14723684746,-0.118717644233,-1.04400715184,-1.32711015108,-0.0262152932162,-1.43567932629,-0.223961858796,0.0692959516725,-0.926718311444,0.573734809563,0.819020776416,0.00375273180508,0.0,0.818994417754,-0.573661968635,-0.0118674483793,0.0,-0.00756703295947,0.00988242490289,-0.999922535845,0.0,0.479001540648,0.021158749973,0.304670380762,1.0,-0.41998,-0.551973714286,1.624
0.167473190349,-0.189691707327,-0.135811170344,-2.34351743876,-0.0183439565563,2.14796024283,-0.130117037782,-1.08050436241,-1.29405010221,-0.0480151562343,-1.3568096921,-0.213083502491,0.0531015555293,-0.957235404414,0.573735267024,0.819021090073,0.00361168802838,0.0,0.818991578062,-0.573661254003,-0.012095768726,0.0,-0.00783495505098,0.00989790174298,-0.999920319336,0.0,0.47392883213,0.0145229439171,0.304591076128,1.0,-0.41998,-0.551973714286,1.636
0.145355643522,-0.215760417167,-0.13650677582,-2.37046325911,-0.0226983983943,2.14879753373,-0.149797576926,-1.13153193522,-1.30475128402,-0.0436773142088,-1.30947745316,-0.225312982253,0.0363904647786,-1.00023580539,0.573773072265,0.818994001231,0.00374625043676,0.0,0.818965437497,-0.573697500438,-0.0121464841911,0.0,-0.00779883332871,0.0100375684338,-0.999919209446,0.0,0.465091949608,0.00292278391649,0.304619894774,1.0,-0.41998,-0.551973714286,1.657
0.129291678068,-0.233730818942,-0.137078516097,-2.38872757549,-0.0258841799945,2.14906961824,-0.163942623913,-1.15395517088,-1.2832203218,-0.0378939743506,-1.29811663573,-0.225971434542,0.0134159968197,-1.0205423909,0.57385916655,0.818933905437,0.00369626760569,0.0,0.818904667415,-0.573783750486,-0.0121696452585,0.0,-0.00784542787852,0.0100107460174,-0.999919113842,0.0,0.459587212552,-0.00430381527466,0.304599730558,1.0,-0.41998,-0.551973714286,1.67
0.105634542857,-0.258857639078,-0.137899097659,-2.41359307891,-0.0301324317529,2.14904834643,-0.185133356828,-1.20187979681,-1.24330481825,-0.0363481475646,-1.24574777985,-0.229844747557,0.00327651710618,-1.07681504031,0.573926479687,0.818885306827,0.00399963477342,0.0,0.818860287933,-0.573850235822,-0.0120200913291,0.0,-0.00754803014119,0.010173986665,-0.999919755399,0.0,0.45123259117,-0.0153796498913,0.304686454852,1.0,-0.41998,-0.551973714286,1.69
0.0898013641017,-0.27490188446,-0.138410500638,-2.42899781542,-0.0328805962146,2.1488144576,-0.199314967262,-1.22494333786,-1.23999101193,-0.0513400647375,-1.18617527779,-0.211818035768,-0.0261525445073,-1.09414938522,0.573977992773,0.818847604842,0.00431401877136,0.0,0.818828248143,-0.573902859824,-0.0116856506042,0.0,-0.00709307586177,0.0102399438617,-0.999922412902,0.0,0.445866121649,-0.0225587926958,0.304829930596,1.0,-0.41998,-0.551973714286,1.703
0.0647371240792,-0.298854925474,-0.139197446941,-2.45180668493,-0.0370068022423,2.14784209481,-0.222012661547,-1.28048605156,-1.20082710558,-0.0509287284339,-1.10341866611,-0.207529734193,-0.0467926941072,-1.15774878554,0.573929663547,0.818880207321,0.00454909437749,0.0,0.818864391083,-0.573854560282,-0.0115238691585,0.0,-0.00682628123904,0.0103391808076,-0.999923248667,0.0,0.437538906311,-0.0335709838676,0.304921226281,1.0,-0.41998,-0.551973714286,1.723
0.0466131519444,-0.31513788402,-0.139784282632,-2.46720190986,-0.0398604339186,2.14680788893,-0.23835478346,-1.29955474158,-1.1548125801,-0.0391696932745,-1.08411878732,-0.187774666515,-0.0800828809108,-1.18051914734,0.574021774754,0.818815567951,0.00456231196789,0.0,0.818799257665,-0.573945611923,-0.011617103913,0.0,-0.00689387933281,0.010404288573,-0.99992210957,0.0,0.43164455683,-0.0413001809999,0.30489439331,1.0,-0.41998,-0.551973714286,1.737
0.0200123149524,-0.337763402845,-0.1406251636,-2.48808594306,-0.0438404533191,2.1450309472,-0.262681657429,-1.34185119251,-1.10642402698,-0.0500563508196,-1.03153915622,-0.191004075318,-0.108079472897,-1.24031850789,0.573962909081,0.81885613602,0.00468555256996,0.0,0.818841304766,-0.573886204191,-0.011588319518,0.0,-0.00680032349183,0.010488191492,-0.999921873668,0.0,0.423275322986,-0.0523083568709,0.304915530061,1.0,-0.41998,-0.551973714286,1.757
0.00214611317289,-0.352062308625,-0.141187912973,-2.50103243756,-0.0464220057318,2.14356618985,-0.278988047409,-1.38219122787,-1.10342077613,-0.0353597085996,-0.969149382696,-0.199120672069,-0.121433313363,-1.28232086638,0.573999120543,0.818830723668,0.00469068156344,0.0,0.818815743698,-0.573922062561,-0.0116185575368,0.0,-0.00682167757656,0.0105100480719,-0.999921498721,0.0,0.417803020223,-0.0595043522789,0.304927989722,1.0,-0.41998,-0.551973714286,1.77
-0.0274467730781,-0.374319564843,-0.142091924155,-2.52099265603,-0.0504873516719,2.14100362771,-0.30627543001,-1.43008239958,-1.04306986351,-0.0289273535501,-0.953085570365,-0.195582948122,-0.131112023658,-1.31260462081,0.573918252795,0.818887589482,0.00465851931658,0.0,0.818871542964,-0.573840314417,-0.0117233346347,0.0,-0.00692698041623,0.0105431676198,-0.999920426113,0.0,0.408942174061,-0.0710760386963,0.304879362509,1.0,-0.41998,-0.551973714286,1.791
-0.0462761006606,-0.387661783607,-0.142747863104,-2.53248724129,-0.0528361475571,2.13931561022,-0.323628093651,-1.46326464408,-1.01076798098,-0.0581939785505,-0.885003687885,-0.180347612275,-0.125181023189,-1.33692995496,0.574065812126,0.818782801128,0.00489027875821,0.0,0.81877040532,-0.573988142586,-0.0115491317713,0.0,-0.00664939646266,0.0106341819716,-0.999921346757,0.0,0.40352833683,-0.0782781134608,0.304971998546,1.0,-0.41998,-0.551973714286,1.804
-0.0774286899928,-0.408162211002,-0.14363514224,-2.55015691128,-0.0565681052121,2.13617166025,-0.352697570628,-1.50593976378,-0.958142437778,-0.0418495757274,-0.825755509675,-0.188904115903,-0.16470219117,-1.40100394341,0.573956779996,0.818859165187,0.00490195756439,0.0,0.818845901586,-0.573877469854,-0.0116955526279,0.0,-0.00676401768518,0.0107268961139,-0.999919587649,0.0,0.394678277623,-0.0898025021104,0.304955963947,1.0,-0.41998,-0.551973714286,1.825
-0.0957083864664,-0.419435304346,-0.144206321356,-2.55941587923,-0.0585710067662,2.13450775347,-0.369842790757,-1.53674034048,-0.93900521221,-0.0605473619434,-0.759156513976,-0.164771074377,-0.148071999422,-1.44974573478,0.573973665543,0.818845535807,0.00519294264777,0.0,0.81883783775,-0.573896468328,-0.011321926086,0.0,-0.00629081830418,0.0107508723334,-0.999922419165,0.0,0.389734492383,-0.09644919181,0.305101461159,1.0,-0.41998,-0.551973714286,1.837
-0.128401905429,-0.437747965635,-0.145112521994,-2.57494363263,-0.0620499529045,2.13112038795,-0.400566733333,-1.57607871527,-0.83220702297,-0.036971635644,-0.714462460835,-0.174170152104,-0.16238731635,-1.48467144059,0.573939340637,0.818870388416,0.00506627534478,0.0,0.818858899051,-0.57385893061,-0.0116952171893,0.0,-0.00666966810264,0.0108611190035,-0.999918772512,0.0,0.380858913374,-0.107985510214,0.304973568176,1.0,-0.41998,-0.551973714286,1.858
-0.149132694638,-0.448639817913,-0.145728496777,-2.58356213699,-0.0640514803506,2.12913097495,-0.420164676037,-1.59960085188,-0.803734847326,-0.0586353420519,-0.658818061237,-0.153665073487,-0.151673049322,-1.51487094886,0.573986565512,0.818835722513,0.00531310172149,0.0,0.818829172346,-0.573908353163,-0.0113461705048,0.0,-0.00624153643281,0.0108632812768,-0.999921513091,0.0,0.375485765299,-0.11519060447,0.305127585911,1.0,-0.41998,-0.551973714286,1.871
-0.183069413364,-0.464505378848,-0.146404960866,-2.59669695113,-0.0670440992716,2.12576498155,-0.452476853872,-1.59701359995,-0.715438539476,-0.00644123982651,-0.585649689791,-0.149380380586,-0.14681491783,-1.54472953734,0.573789987535,0.818974085598,0.00521959999222,0.0,0.818963974705,-0.573708094169,-0.0117378755061,0.0,-0.00661861652453,0.011009951772,-0.999917484034,0.0,0.366704682605,-0.12656669969,0.3049880094,1.0,-0.405351428572,-0.532747591837,1.892
-0.204198821414,-0.473369368981,-0.146727659945,-2.60378072045,-0.0686069270086,2.12383852391,-0.472374311237,-1.61772565912,-0.663933985624,-0.0201241820839,-0.51410346354,-0.121328874159,-0.138187221253,-1.51567251693,0.573955554793,0.81885740718,0.00532115873979,0.0,0.818848221985,-0.573872629759,-0.0117703469547,0.0,-0.00658469520536,0.0111130913509,-0.999916567014,0.0,0.361453600266,-0.133504832617,0.304989172807,1.0,-0.393465714286,-0.517126367347,1.905
-0.236090722227,-0.485566835495,-0.146838494339,-2.61323297431,-0.0706037761764,2.12113813805,-0.502605703683,-1.56946968661,-0.56682757043,0.0149783590173,-0.452664550474,-0.104057923499,-0.13849807558,-1.48913731234,0.573984645679,0.818835603427,0.00553425574589,0.0,0.818830286793,-0.573902936333,-0.0115381107812,0.0,-0.00627181103272,0.0111545294074,-0.999918117078,0.0,0.353754905925,-0.143697550604,0.305090193053,1.0,-0.37518,-0.493093714286,1.925
-0.25654448808,-0.492539817905,-0.146822029832,-2.61869223334,-0.0716397560515,2.11942691868,-0.521943835664,-1.57287414286,-0.517428853403,-0.00108741888029,-0.402334022982,-0.0808372693847,-0.121085702976,-1.48763894885,0.574118369117,0.81874095554,0.00566505642113,0.0,0.818736631025,-0.574034960273,-0.0116163808086,0.0,-0.00625898679038,0.0113075845197,-0.99991647832,0.0,0.348863637335,-0.150083808687,0.305090259713,1.0,-0.363294285714,-0.477472489796,1.938
-0.288607808549,-0.502280871634,-0.146396182754,-2.626036218,-0.0729707332977,2.11712146201,-0.552486399037,-1.49902757503,-0.426846369932,0.0369003073765,-0.325146611744,-0.0648965381125,-0.116172106136,-1.43232772645,0.574045737498,0.818790395609,0.00587590167971,0.0,0.818790352451,-0.573964596562,-0.0113025451809,0.0,-0.00588196914914,0.0112995270422,-0.999918858272,0.0,0.341454651114,-0.159888754117,0.305212343554,1.0,-0.344094285714,-0.452238204082,1.959
-0.307905462315,-0.507408303757,-0.146200412955,-2.62972967205,-0.0736339604405,2.11595869419,-0.570876865158,-1.47857769496,-0.386283162199,0.00716710466244,-0.268698418891,-0.0528862003681,-0.0725033870318,-1.41100689059,0.574139415475,0.818723178927,0.00608562139451,0.0,0.818727716206,-0.574061482001,-0.0109127677333,0.0,-0.00544111981128,0.0112481335551,-0.999921933806,0.0,0.337107040136,-0.165777591264,0.305347127463,1.0,-0.332208571429,-0.436616979592,1.972
-0.336726664792,-0.514191536322,-0.145578256181,-2.63434391506,-0.0744588325509,2.11436934063,-0.598405595929,-1.41736131349,-0.304811461615,0.0365330809136,-0.208940726024,-0.0407714288328,-0.0792765422515,-1.35406272606,0.574116136517,0.818738087965,0.00627311783664,0.0,0.818748760503,-0.57404615127,-0.0101108994904,0.0,-0.00467720941658,0.0109411486564,-0.999929204983,0.0,0.330757777484,-0.174431656067,0.305642723798,1.0,-0.313922857143,-0.412584326531,1.992
-0.354789490076,-0.517890631577,-0.145037598037,-2.63690753252,-0.0747859137021,2.11337521776,-0.615735324843,-1.38145919044,-0.273232804975,0.0319919019795,-0.185517749682,-0.022963721081,-0.0733223469223,-1.31868623824,0.574053053145,0.818781502172,0.00637893226495,0.0,0.81879471689,-0.573985949339,-0.00980247186627,0.0,-0.00436474918275,0.0108503838447,-0.999931606729,0.0,0.326480992696,-0.180135955988,0.305781539716,1.0,-0.301122857143,-0.395761469388,2.006
-0.382779445603,-0.522653988493,-0.144165319819,-2.64021245551,-0.075175145043,2.11211537895,-0.642565399073,-1.3052818008,-0.200139342768,0.0318294764385,-0.137324952107,-0.00362946745681,-0.0547482064251,-1.23488693908,0.573994010646,0.818822509286,0.00642813582896,0.0,0.818837982438,-0.573931159012,-0.00938776509425,0.0,-0.00399768289224,0.0106523278008,-0.999935271127,0.0,0.320686544893,-0.187906228734,0.305936131131,1.0,-0.282837142857,-0.371728816327,2.026
-0.399327549739,-0.525015011375,-0.143563474001,-2.6418459106,-0.0753025035035,2.11144355994,-0.658506142185,-1.2490892948,-0.169442322158,0.0486104443957,-0.120943619935,-0.00207950396475,-0.0543848553838,-1.18354649637,0.573909762579,0.818881427433,0.00644508514788,0.0,0.818897855989,-0.573848962707,-0.00918783747408,0.0,-0.00382531768835,0.0105510591732,-0.999937019064,0.0,0.317099760158,-0.192677102773,0.306018051813,1.0,-0.270951428572,-0.356107591837,2.039
-0.423799060947,-0.527820480697,-0.142612863741,-2.64389772994,-0.0754352177936,2.11063042436,-0.681967847368,-1.18802381334,-0.157646156995,0.0454734934786,-0.105749273321,-0.00178855151576,-0.0106040718152,-1.15174643133,0.573882202653,0.818901201794,0.00638639804262,0.0,0.81891761791,-0.573823302003,-0.00902773822129,0.0,-0.00372823344623,0.0104109926114,-0.999938853885,0.0,0.311796816142,-0.199674538742,0.306067887749,1.0,-0.252665714286,-0.332074938776,2.059
-0.440055356189,-0.528895485204,-0.141964978224,-2.64500091129,-0.075472117431,2.11015420178,-0.697538006224,-1.14948963609,-0.0592231332327,0.047698476184,-0.0649290077924,-0.00831393092434,-0.028099379575,-1.09465123944,0.573905836026,0.818885604068,0.00626144761529,0.0,0.818899326705,-0.573843709935,-0.00938276037057,0.0,-0.00409039381752,0.0105125185696,-0.999936375792,0.0,0.308258223789,-0.204286754123,0.305935484379,1.0,-0.239865714286,-0.315252081633,2.073
-0.461958734143,-0.530263200708,-0.140998638257,-2.6461419386,-0.0754187066119,2.10967091313,-0.718541996665,-1.07308303191,-0.0693698879549,0.0262229295839,-0.0578174152094,0.00366708191184,-0.00827660925805,-1.01431339376,0.573914675352,0.818880175057,0.00616045586498,0.0,0.818892572305,-0.573852293397,-0.00944707831189,0.0,-0.00420091429594,0.01046676995,-0.9999363975,0.0,0.303525426286,-0.210459221027,0.305900521927,1.0,-0.22158,-0.291219428572,2.093
-0.47536791385,-0.530724585935,-0.140316674787,-2.6466279239,-0.0753290517391,2.10941501956,-0.731405048161,-1.01555906797,-0.0244719433488,0.0607829394258,-0.0246758364536,0.00319706924295,-0.00749601684841,-0.985320696362,0.573890649132,0.818897779608,0.00605774655649,0.0,0.81890840913,-0.573827025552,-0.00960776266944,0.0,-0.00439176138396,0.0104747464219,-0.999935493979,0.0,0.30064143417,-0.21420216604,0.305844161275,1.0,-0.209694285714,-0.275598204082,2.106
-0.495726822031,-0.531199026485,-0.139139071159,-2.64699733677,-0.0751205247058,2.10917314061,-0.750852264378,-0.928522874813,-0.011449687121,0.0634654387039,-0.0129108904077,0.0136668969645,-0.0097123864835,-0.899627949946,0.573873423334,0.818911166101,0.00587732313882,0.0,0.818920109348,-0.573811042829,-0.00956496390924,0.0,-0.00446046870715,0.0103023350421,-0.99993698107,0.0,0.296322339486,-0.219863373057,0.305860018847,1.0,-0.190494285714,-0.250363918367,2.127
-0.507260022689,-0.531138081445,-0.138294588497,-2.64705925884,-0.0747904891771,2.10908969511,-0.762017573928,-0.883484366022,0.00791518034386,0.0662448881744,-0.00193837310324,0.0250006480208,-0.00606387054432,-0.844801320696,0.573716415588,0.819021490394,0.00583263732384,0.0,0.819029496507,-0.573653175226,-0.00966774566607,0.0,-0.00457226857376,0.010323845167,-0.999936254259,0.0,0.2939165626,-0.223000589525,0.305825029007,1.0,-0.178608571429,-0.234742693878,2.14
-0.523932861768,-0.53108234803,-0.137115507518,-2.64704594822,-0.0742677061417,2.10909481967,-0.777944093481,-0.793122861866,0.0168718310713,0.0637168739539,0.00470495465729,0.0302608817958,0.00454570262525,-0.766341383577,0.573719114934,0.819019604308,0.00583196543594,0.0,0.819028075804,-0.573656950454,-0.00956353185914,0.0,-0.00448725896557,0.0102635220676,-0.999937260343,0.0,0.290424406749,-0.227533314906,0.305842607786,1.0,-0.160322857143,-0.210710040816,2.16
-0.533798701552,-0.530791665979,-0.136250307038,-2.64691019396,-0.0738793399055,2.10908748769,-0.787392462673,-0.749256663777,0.0153408215579,0.0612822880257,0.0101821519175,0.0327609636345,0.000528592568772,-0.710412933484,0.57362425638,0.819086349927,0.00578884769683,0.0,0.819094041077,-0.573561537448,-0.00963646897824,0.0,-0.00457292785956,0.010269520725,-0.999936810641,0.0,0.288387706333,-0.230166179997,0.305820493577,1.0,-0.148437142857,-0.195088816327,2.173
-0.548419961326,-0.53028430509,-0.134997000071,-2.6466190809,-0.0731917414621,2.10911155617,-0.801257365151,-0.652145211993,0.0342148183351,0.0678155722227,0.0186896316273,0.0367047680393,0.00296557244398,-0.629847162144,0.573669075141,0.819054684201,0.00582781406799,0.0,0.819062486875,-0.573605518763,-0.00970042987108,0.0,-0.00460240482351,0.010338379562,-0.999935965839,0.0,0.28535542319,-0.234053296003,0.305802693884,1.0,-0.129237142857,-0.169854530612,2.194
-0.556519827482,-0.529872049726,-0.134173775592,-2.6463873869,-0.0727498176029,2.10920736981,-0.808990307621,-0.61664151289,0.0293623087938,0.0606513829068,0.016800369256,0.0362991196695,0.0115423489295,-0.579843228141,0.573590271979,0.819109891648,0.00582513484869,0.0,0.819117616908,-0.573526629375,-0.0097098903612,0.0,-0.00461268609476,0.0103411683281,-0.999935889627,0.0,0.283711741607,-0.236177914439,0.30578719215,1.0,-0.117351428572,-0.154233306123,2.207
-0.567919085842,-0.529182792351,-0.133083044351,-2.64592276897,-0.0720922563355,2.10931322996,-0.81950551503,-0.539961045646,0.0350147541574,0.050798491883,0.0282730473888,0.0338129642001,0.0137470051503,-0.493758071829,0.573850651528,0.818927173058,0.00587042324911,0.0,0.818935307848,-0.573786622324,-0.00972730708219,0.0,-0.00459767428205,0.0103897184117,-0.999935455488,0.0,0.281387905044,-0.239187993196,0.30578403183,1.0,-0.0990657142858,-0.130200653061,2.227
-0.574731456403,-0.528655512368,-0.132201951773,-2.64560476643,-0.0716096134825,2.10942481086,-0.825952304658,-0.461654847714,0.0430340241012,0.066543758761,0.0244920540272,0.0313400400789,0.00543228844274,-0.441901880477,0.573751597658,0.818996708647,0.00585169306041,0.0,0.819004504993,-0.573687347653,-0.00975678456367,0.0,-0.00463382138894,0.0103907337636,-0.999935278081,0.0,0.280052654133,-0.240927681209,0.305768089689,1.0,-0.0862657142858,-0.113377795919,2.241
-0.583212817924,-0.52803217921,-0.131018756893,-2.64514423525,-0.0709096339206,2.10953445303,-0.833676326703,-0.40006490907,0.0242262647719,0.0570192196438,0.0219673195594,0.0291422058685,0.00372763011756,-0.360570114526,0.573859587791,0.818920949093,0.00586511201678,0.0,0.818929047908,-0.573795624875,-0.00972328479583,0.0,-0.00459731451122,0.0103831107117,-0.999935525777,0.0,0.278412646124,-0.243065070802,0.305789152221,1.0,-0.0679800000001,-0.0893451428573,2.261
-0.587870095124,-0.527645014428,-0.130199668834,-2.64489613096,-0.0704492496033,2.10963718288,-0.837843843193,-0.342037138057,0.0344860530411,0.0633496107456,0.0227056663777,0.0348823477347,0.00922815501511,-0.304978796319,0.573891835343,0.818898467079,0.00584883263341,0.0,0.818906471641,-0.573828110266,-0.00970759878272,0.0,-0.00459340162211,0.0103609580578,-0.999935773542,0.0,0.277550925191,-0.244190892327,0.305789830669,1.0,-0.0560942857144,-0.0737239183675,2.274
-0.593845080056,-0.527069122404,-0.128894776014,-2.64450307488,-0.0696507169473,2.10976481518,-0.843143245072,-0.251178753148,0.0202379093017,0.0625509255673,0.0163479055548,0.0374318258506,0.0044372412128,-0.226803895086,0.573884437855,0.818903504936,0.0058692838036,0.0,0.818911821556,-0.573820846961,-0.00968560842109,0.0,-0.00456374914655,0.0103650453941,-0.999935866957,0.0,0.276523826111,-0.245567302343,0.305801466127,1.0,-0.0368942857144,-0.0484896326532,2.295
-0.596613433101,-0.526804151027,-0.128009035957,-2.64435241026,-0.0691642434405,2.10981541885,-0.845495239351,-0.194323568592,0.0124336867277,0.064690148656,0.00818321448795,0.0371718296865,0.000458027888231,-0.158875149272,0.573814826895,0.818952496169,0.00583955097742,0.0,0.818960404258,-0.573751156457,-0.00970637022899,0.0,-0.00459869554042,0.0103522194942,-0.999935839717,0.0,0.27610425065,-0.246118493691,0.30579927109,1.0,-0.0250085714287,-0.0328684081634,2.308
-0.599707814016,-0.526575703292,-0.126839154208,-2.64421259877,-0.0685319706364,2.10981236728,-0.847972605471,-0.13739409908,0.0147174688858,0.0488877952158,0.00524877585617,0.0316212236737,-0.00138150854553,-0.117140616178,0.573769894317,0.818984274453,0.00579771292074,0.0,0.818991564703,-0.573706011305,-0.00974558566275,0.0,-0.00465538827933,0.0103402007133,-0.999935701737,0.0,0.275663299864,-0.246669689503,0.305807710248,1.0,-0.01969,-0.0258782857143,2.328
-0.601436557766,-0.526396465253,-0.126243347254,-2.64408130926,-0.0682360260994,2.10987131815,-0.849502311997,-0.114982401417,0.0162256939983,0.0380572328007,0.00827552880071,0.0241889628182,0.00181395164094,-0.101178544449,0.573644662355,0.819072356081,0.00574662991918,0.0,0.819079282894,-0.573581398872,-0.00970845520793,0.0,-0.0046558568929,0.0102763468745,-0.999936357821,0.0,0.27542137048,-0.247016675163,0.30582135962,1.0,-0.01939,-0.025484,2.343
-0.603472931292,-0.526153067081,-0.125832560828,-2.64386026705,-0.0680250495592,2.10995518429,-0.851439425747,-0.0969848638167,0.0100638772475,0.0139897929945,0.00737514858497,0.00718188976679,0.0047079471676,-0.0881534048939,0.573536830323,0.819148130099,0.00570895081181,0.0,0.819155051002,-0.573474597936,-0.00962469949712,0.0,-0.00461020508512,0.0101968318564,-0.999937383354,0.0,0.275081740553,-0.247523260103,0.305849904441,1.0,-0.01899,-0.0249582857143,2.363
-0.604723095898,-0.525976423934,-0.12573885451,-2.64375421445,-0.0679184823781,2.10999209905,-0.852545742243,-0.0903790511777,0.0214850872036,0.00808412571532,0.0105943976655,0.0111904497041,0.000653977543258,-0.0875770291112,0.573647552687,0.819070281127,0.00575384847023,0.0,0.819077494771,-0.573584726441,-0.00966261116693,0.0,-0.00461412688038,0.0102559784981,-0.999936760369,0.0,0.274808127684,-0.247886963743,0.305835249856,1.0,-0.01871,-0.0245902857143,2.377
-0.60657715687,-0.52582277023,-0.125631136315,-2.64358590809,-0.0678625737056,2.10999072302,-0.854286185333,-0.092244095011,0.0035511395897,0.00526944840656,0.00642518766933,0.00636638559158,0.00242301934058,-0.0816888132849,0.573688821369,0.819041466452,0.00574102507261,0.0,0.819048741743,-0.573626476889,-0.00962135967949,0.0,-0.00458717687239,0.0102220426625,-0.999937231856,0.0,0.27443161663,-0.248380391638,0.305861590691,1.0,-0.01833,-0.0240908571429,2.396
-0.607853051151,-0.525627664539,-0.125529033006,-2.64344179789,-0.0678305734169,2.10999169644,-0.855496596317,-0.0834914195372,0.0130190692682,0.010474226959,0.00562676419899,0.00524488497708,-0.000216932167054,-0.0847684248763,0.573691578449,0.819039732537,0.00571281405692,0.0,0.81904652516,-0.573628933106,-0.00966352045692,0.0,-0.00463786107109,0.0102231376336,-0.999936986865,0.0,0.274168608972,-0.248736461396,0.305858132487,1.0,-0.01803,-0.0236965714286,2.411
-0.609294396808,-0.525488117767,-0.125466789843,-2.64329570784,-0.0678040707221,2.11005492551,-0.856983107388,-0.0749883696292,0.00929015315282,-0.000232662908475,0.0097754732272,-0.000472777490338,0.00761615288588,-0.0769488220194,0.573629346551,0.819083421008,0.0056981669779,0.0,0.819090421898,-0.573567569386,-0.00958493632932,0.0,-0.00458266688583,0.0101657104787,-0.999937826815,0.0,0.273867081376,-0.24915680966,0.305880353349,1.0,-0.01767,-0.0232234285714,2.429
-0.610474892277,-0.52530567022,-0.125472065488,-2.64320615916,-0.0677766921277,2.11006828035,-0.858143902673,-0.0834709162575,0.0127906879478,0.0037506578736,0.0112290180914,0.00291684692897,-0.00491344392223,-0.0738594401505,0.573665896411,0.819057639059,0.00572451704606,0.0,0.819064579766,-0.573603263689,-0.00965696428048,0.0,-0.0046260977701,0.0102288171557,-0.999936983274,0.0,0.273593462503,-0.249499285064,0.305855174291,1.0,-0.01737,-0.0228291428571,2.444
-0.611985729769,-0.52518946011,-0.125492629551,-2.64306049015,-0.0677618059782,2.11009579171,-0.859626641306,-0.0798846877268,0.00456869191904,-0.000787534095115,0.0112891012098,-0.00191805465039,0.000890219491823,-0.0883671447965,0.573717154806,0.81902159926,0.00574396447928,0.0,0.819029041843,-0.573655098874,-0.00959182227142,0.0,-0.00456094291755,0.010207663236,-0.999937498752,0.0,0.273249742055,-0.249953282306,0.305880707003,1.0,-0.01699,-0.0223297142857,2.463
-0.613103590107,-0.525059438203,-0.125495147567,-2.64295208921,-0.0677489915773,2.11011998787,-0.860723114026,-0.0798150968944,0.0181079536303,0.00419553080679,0.00609803147491,-0.00174913026745,0.000982938740393,-0.0759200313517,0.573747590329,0.819000214306,0.00575312614139,0.0,0.819007792471,-0.573685582028,-0.00958309693533,0.0,-0.00454816049103,0.0102103304959,-0.999937529742,0.0,0.272997545795,-0.250285827544,0.305884338384,1.0,-0.01671,-0.0219617142857,2.477
-0.614621005651,-0.524912659865,-0.125500425914,-2.64279779955,-0.067733032509,2.11015115571,-0.862184942675,-0.0788789577009,0.00634140632364,-0.00395352216311,0.00270280904799,-0.000367716666652,0.01124928653,-0.072363993178,0.573811551832,0.818955324544,0.00576422478118,0.0,0.818963232318,-0.573749970814,-0.00953635165892,0.0,-0.00450270885893,0.0101929531488,-0.999937912732,0.0,0.272656132273,-0.250739408836,0.305903239035,1.0,-0.01631,-0.021436,2.497
-0.615565427417,-0.524752606248,-0.125478549173,-2.64271159735,-0.0677200929793,2.11019080003,-0.863168234551,-0.0674326316729,0.00982498784962,0.00136018643965,0.00613278865367,-0.000550026592795,0.00284682133756,-0.0747847862486,0.573774530342,0.818981281653,0.00576155657889,0.0,0.818989030285,-0.57371266931,-0.00956494887979,0.0,-0.00452812326866,0.0102069722026,-0.999937654966,0.0,0.27244823892,-0.25101472872,0.305887627735,1.0,-0.01605,-0.0210942857143,2.51
-0.617035888882,-0.524608831768,-0.125439586352,-2.64258259312,-0.0677006605533,2.11020599042,-0.864614140522,-0.0701351954471,0.00725402810089,0.000901445730117,0.0118093688871,0.000488599315776,0.000796074854819,-0.0646324808245,0.57378206447,0.818976033098,0.0057573087103,0.0,0.818983778614,-0.573720312137,-0.00955618701329,0.0,-0.0045232902687,0.010198507508,-0.999937763208,0.0,0.272118499286,-0.251436119924,0.305895790358,1.0,-0.01563,-0.0205422857143,2.531
-0.617938174922,-0.524441862753,-0.125375429414,-2.6425104002,-0.067686274799,2.11022998866,-0.865509414792,-0.0680527395622,0.00643084871042,0.0051377406107,0.0108754793655,0.00279880990189,-0.000565550493976,-0.0720123872723,0.573752702771,0.818996746745,0.00573687942171,0.0,0.819003982624,-0.573690373644,-0.00962177409608,0.0,-0.00458909753796,0.0102192427394,-0.999937251662,0.0,0.271923511586,-0.251684205486,0.305870910058,1.0,-0.01537,-0.0202005714286,2.544
-0.619220743392,-0.524259798775,-0.125310986785,-2.64237903144,-0.0676696360449,2.11026979853,-0.866865075415,-0.065943399737,0.0195150390841,0.00595361742779,0.00724235350051,-0.000283423614723,0.00565203477682,-0.0699640093024,0.573661319912,0.819060912462,0.005714771664,0.0,0.819067899404,-0.573599055573,-0.00962530589419,0.0,-0.0046058128753,0.0102026481388,-0.999937344266,0.0,0.271648939224,-0.252051770641,0.305868782496,1.0,-0.01499,-0.0197011428571,2.563
-0.620293743043,-0.524084378037,-0.12528086639,-2.64227424478,-0.0676529767552,2.11029043021,-0.867937008659,-0.0691268768475,0.0114274687985,-0.000410338352185,0.00267720218144,0.000349928940466,0.000537179755041,-0.0701698871872,0.573653683374,0.819066281676,0.00571180131982,0.0,0.819073034775,-0.57359098454,-0.00966918091095,0.0,-0.00464355171581,0.0102253405553,-0.999936937931,0.0,0.271410309815,-0.252360737007,0.30585451926,1.0,-0.01467,-0.0192805714286,2.579
-0.621503268719,-0.523941864666,-0.125285228338,-2.64218277033,-0.0676370418817,2.11031600199,-0.869113436829,-0.0673462652333,0.0050666570374,-0.000544999536276,0.0072967844709,-0.000153104112602,0.00115262216818,-0.0660660274429,0.573695586208,0.819036823394,0.00572740701982,0.0,0.819043653373,-0.573632625515,-0.00968770945719,0.0,-0.00464925276613,0.0102489898507,-0.999936669322,0.0,0.271127889225,-0.252712160592,0.305845885425,1.0,-0.01431,-0.0188074285714,2.597
-0.622572590785,-0.523822473118,-0.125292399934,-2.6421241342,-0.0676246552985,2.11032943163,-0.870155222047,-0.0693781301406,0.00658286056166,-0.000355323266507,0.00929728133667,0.000822796145285,0.00466300466259,-0.0616283032128,0.573731770913,0.819011354519,0.00574483370891,0.0,0.819018175016,-0.573668308033,-0.00972873333269,0.0,-0.00467240398909,0.0102870046805,-0.999936171051,0.0,0.270870406507,-0.253016816478,0.305829684081,1.0,-0.01399,-0.0183868571429,2.613
-0.623649889938,-0.523782395711,-0.125295195727,-2.64202734581,-0.0676069039259,2.11034370114,-0.871161358002,-0.0582500528577,0.00161931296339,0.000445063506324,0.00708498974298,0.000745675084626,0.00293304192878,-0.0567554549038,0.57380428559,0.818960454493,0.00575870784813,0.0,0.818967780493,-0.573741550766,-0.00965164956519,0.0,-0.00460039791524,0.0102545515003,-0.999936838262,0.0,0.27062280804,-0.253332736428,0.305860185106,1.0,-0.01365,-0.01794,2.63
-0.624692707055,-0.523643781023,-0.125280459923,-2.64190004983,-0.0675891028162,2.11038663774,-0.872197272796,-0.0610317216841,0.00389767182867,-0.000276990334132,0.0124563565144,0.000644991791326,0.00471917578526,-0.0676290162283,0.573813666406,0.81895387877,0.00575913132184,0.0,0.818961381366,-0.573751312999,-0.00961423759831,0.0,-0.00456939598995,0.0102334840951,-0.99993719624,0.0,0.270396934018,-0.253645139725,0.305871226979,1.0,-0.01331,-0.0174931428571,2.647
-0.625684182254,-0.523500419921,-0.125253953565,-2.64175686998,-0.067575395672,2.11042914259,-0.873242191999,-0.0546615118088,0.010423751055,0.00588085120926,0.0103110061628,-0.00020686004513,0.00332971353924,-0.061776938799,0.573764321603,0.818988526421,0.00574836907861,0.0,0.818996132215,-0.573702503319,-0.00956660882714,0.0,-0.00453717649049,0.0101970671908,-0.999937714985,0.0,0.270189435643,-0.253945113802,0.305887989625,1.0,-0.01297,-0.0170462857143,2.664
-0.626653370672,-0.52332762562,-0.125235987445,-2.64161494919,-0.0675556641722,2.11045057663,-0.874206996524,-0.0550210083784,0.0107818238819,-0.00037474546528,0.00535356667434,0.000263799994931,0.000378159401776,-0.0511139786113,0.573771020302,0.818983831643,0.00574862330838,0.0,0.8189914223,-0.573709159953,-0.00957062622038,0.0,-0.0045402376977,0.0101996175252,-0.99993767508,0.0,0.269981650452,-0.254236528618,0.305891339036,1.0,-0.01263,-0.0165994285714,2.681
-0.627549012845,-0.523185395217,-0.125223835939,-2.64150042324,-0.0675375602318,2.1104705407,-0.875106829958,-0.0563277465835,0.00629674465523,0.00140038453869,0.0051390167418,0.000162253449455,0.000522602604385,-0.0525755321074,0.573772691191,0.818982631474,0.00575283304625,0.0,0.818990253841,-0.573710786203,-0.00957312957067,0.0,-0.00453985188358,0.0102045109822,-0.999937626905,0.0,0.269784917058,-0.254502820104,0.305893183505,1.0,-0.01231,-0.0161788571429,2.697
-0.628490358535,-0.523015848715,-0.125184631554,-2.64141294553,-0.067519352335,2.11049521215,-0.876068342933,-0.0536653150986,0.0104444574396,0.00199156512342,0.00665763387952,0.00234222106994,-0.000271636673385,-0.0552552300849,0.573741029109,0.819004849066,0.00574766249504,0.0,0.819012179932,-0.573678618361,-0.00962490824726,0.0,-0.00458562373482,0.0102298073079,-0.999937159574,0.0,0.269575876118,-0.254768674668,0.30587370698,1.0,-0.01197,-0.015732,2.714
-0.629462574127,-0.52287270552,-0.125144477526,-2.64133358957,-0.0675041399912,2.11051551509,-0.877021240927,-0.0559445926559,0.00597851828669,-0.00021768209435,0.00334865161666,6.93808165961e-05,-0.00011995393867,-0.0522871255462,0.573739254286,0.819006143009,0.00574044467576,0.0,0.819013224565,-0.573676486929,-0.00966298269209,0.0,-0.00462097301767,0.0102457298503,-0.999936833819,0.0,0.269356620692,-0.255040555898,0.305859883918,1.0,-0.01161,-0.0152588571429,2.732
-0.630144407045,-0.522760743275,-0.12511775901,-2.64128325071,-0.0674878363212,2.11052586604,-0.877656756307,-0.0479452094139,0.00853404683405,0.0019127925404,0.0111586185231,-0.000322961750661,0.000417643235771,-0.0477111289833,0.57376806714,0.818985947932,0.0057418744054,0.0,0.818992827533,-0.573704809465,-0.00971014662008,0.0,-0.00465842236154,0.0102741238212,-0.999936368716,0.0,0.269200755167,-0.255228805158,0.305843144344,1.0,-0.01135,-0.0149171428571,2.745
-0.631164593724,-0.522672866287,-0.125108676195,-2.64122078158,-0.0674718655134,2.11054951167,-0.878679312791,-0.0456473394073,0.00517457164991,0.000636103458017,0.000416752783056,0.00161350784545,0.00200315073316,-0.0561824800731,0.573769794813,0.818984663749,0.00575239124509,0.0,0.818991672652,-0.573706534767,-0.00970561657408,0.0,-0.0046486561796,0.0102801480825,-0.99993635225,0.0,0.268960026117,-0.255517187552,0.305841506954,1.0,-0.01095,-0.0143914285714,2.765
-0.631799123699,-0.522569300672,-0.125102393387,-2.64115315181,-0.0674595210263,2.11057162973,-0.879362372502,-0.052904674811,0.00934078013785,0.00205617163896,0.0084518779518,-0.000287652932994,3.78993813539e-05,-0.0507708470425,0.573734475674,0.819009369189,0.00575773446468,0.0,0.819016384898,-0.573671090039,-0.00971538081016,0.0,-0.00465403170679,0.0102899258945,-0.999936226673,0.0,0.268817321373,-0.255703524221,0.305836243859,1.0,-0.01069,-0.0140497142857,2.778
-0.632826490124,-0.522421285891,-0.125103440295,-2.64100642066,-0.0674357117628,2.11058601996,-0.880351534457,-0.0549308145554,0.00542142841103,-0.00090047767712,0.0130055088544,-0.000270685156586,0.000293060596232,-0.0436808614774,0.573784157319,0.818974471148,0.0057709026847,0.0,0.818981714997,-0.57372090781,-0.00969625411159,0.0,-0.00463018620145,0.0102900188871,-0.999936336417,0.0,0.268589602988,-0.256013900785,0.305849798736,1.0,-0.01027,-0.0134977142857,2.799
-0.63343844456,-0.522324341572,-0.125102839226,-2.64090386299,-0.0674200096417,2.11062653492,-0.880931881519,-0.0415966733971,0.0065435269994,0.000139128179885,0.00877476751678,0.0010580991524,0.00400551406805,-0.0482867179422,0.573821510588,0.81894827434,0.00577449935379,0.0,0.818955786043,-0.573758753318,-0.00964678177002,0.0,-0.00458713404978,0.0102647881739,-0.999936794165,0.0,0.268462651406,-0.256206327088,0.305864310907,1.0,-0.01001,-0.013156,2.812
-0.634346133457,-0.522143320492,-0.125080860374,-2.64073987666,-0.0674032387664,2.11068421372,-0.881829843081,-0.0450166455524,0.0106978508965,0.00232369340399,0.00810620155251,0.00307397816377,-0.000108971270711,-0.0399214729768,0.573829510792,0.818942745629,0.00576357764849,0.0,0.818950351558,-0.573767264233,-0.00960182677801,0.0,-0.00455648193146,0.0102300924652,-0.999937289874,0.0,0.268279607535,-0.256489694888,0.305877819558,1.0,-0.00961,-0.0126302857143,2.832
-0.634905986085,-0.522050248307,-0.125056682922,-2.64067690832,-0.0673884830718,2.11069298719,-0.882402411187,-0.0449823066858,0.00393811759163,0.00181774493265,0.00664324948983,0.000682969287063,0.00325426265011,-0.0502047357843,0.573811610816,0.818955294548,0.00576261445368,0.0,0.818962807924,-0.573749186107,-0.00961964554164,0.0,-0.00457185231768,0.0102394283584,-0.99993712416,0.0,0.2681564653,-0.256648579653,0.30587356064,1.0,-0.00935,-0.0122885714286,2.845
-0.635761518071,-0.521957660416,-0.125002437185,-2.64064160949,-0.0673652438865,2.11069666774,-0.883268919647,-0.0413955489397,0.00166822098839,0.00224361567297,-0.000674508921209,0.00612928440332,0.000116132930154,-0.0391289509207,0.573776149051,0.818980152397,0.00576087335093,0.0,0.818987425842,-0.573713242266,-0.00966741235952,0.0,-0.00461241832238,0.0102652111083,-0.999936673514,0.0,0.267957253709,-0.256871437371,0.305857163357,1.0,-0.00893,-0.0117365714286,2.866
-0.636255193549,-0.521917163196,-0.124974954395,-2.64063597285,-0.0673549306155,2.11069631225,-0.883770428078,-0.0358135755648,0.00229291040028,-0.00029095955043,-0.00168515807257,0.000321375881778,-0.00113086124239,-0.0400634510613,0.573755099596,0.818994897761,0.00576107887964,0.0,0.819002024239,-0.573691864135,-0.00969928963441,0.0,-0.00463867394945,0.0102835501446,-0.999936363625,0.0,0.267837587952,-0.25699727192,0.305845448756,1.0,-0.00867,-0.0113948571429,2.879
-0.637061957418,-0.521820284259,-0.124922221159,-2.64059174541,-0.0673370682727,2.11071358256,-0.884560163071,-0.0438446174319,0.00686174218002,-0.000670742751561,-0.000886629957413,0.000795799129691,-0.000245064050305,-0.0359209153974,0.573741786381,0.819004284576,0.0057525044679,0.0,0.819011179468,-0.573678276035,-0.00972987226606,0.0,-0.00466881011732,0.0102939979557,-0.999936115868,0.0,0.267653983453,-0.257211778202,0.305832659556,1.0,-0.00825,-0.0108428571429,2.9
-0.637616093927,-0.521723779973,-0.124901398921,-2.64051415441,-0.0673212595931,2.11072780429,-0.885133829127,-0.028443583337,0.0070086468351,0.000430720760446,0.00448848385972,-3.83540706363e-05,0.00130556006702,-0.0361345708345,0.573720247615,0.819019373791,0.00575236753926,0.0,0.819026256783,-0.573656718283,-0.00973176089192,0.0,-0.00467070635223,0.0102948465297,-0.999936098277,0.0,0.267527003354,-0.25738556509,0.305834364135,1.0,-0.00793,-0.0104222857143,2.916
-0.638272133805,-0.521595668695,-0.124899784316,-2.64041225051,-0.0673068192367,2.11074689321,-0.88578461218,-0.0395869162004,0.0108002115612,0.00119361668145,0.00163955504863,-5.57577291648e-05,0.00518107151237,-0.0405282065603,0.573736445559,0.819007991267,0.00575744561735,0.0,0.819014915005,-0.573672864411,-0.00973450254176,0.0,-0.0046698349625,0.0103006710404,-0.999936042363,0.0,0.267392041183,-0.257573841724,0.305835072926,1.0,-0.00759,-0.00997542857143,2.933
-0.638847056122,-0.521497185834,-0.12489394374,-2.64031680478,-0.0672851137543,2.11078610339,-0.88633950355,-0.0345105026524,0.00682869885136,-6.94330396644e-05,0.003398675148,0.000184005411792,0.00260410681612,-0.0415220893786,0.573762821093,0.818989466378,0.00576419946163,0.0,0.81899664713,-0.573699619119,-0.00969463327067,0.0,-0.00463297269249,0.0102834781561,-0.999936390797,0.0,0.267273312145,-0.257752015905,0.305845771425,1.0,-0.00727,-0.00955485714286,2.949
-0.639452863484,-0.521418143897,-0.124886632159,-2.64024630682,-0.0672699651246,2.11081799891,-0.886919632018,-0.0314503315684,0.00704398583885,-0.000998280462796,0.00567664358941,0.000394592276289,0.00255157101516,-0.0304862031694,0.573788742191,0.818971276219,0.00576844565804,0.0,0.818978627086,-0.573725797702,-0.00966769507592,0.0,-0.00460814720888,0.010271646064,-0.999936627125,0.0,0.26713971936,-0.257931717244,0.305851673686,1.0,-0.00691,-0.00908171428572,2.967
-0.639923224513,-0.521352600412,-0.124862484012,-2.6402023552,-0.0672560786086,2.11082127072,-0.887373159049,-0.0303086863766,0.00317191234956,0.00207951184592,-0.000364921185477,0.00473465065909,-4.7020487644e-05,-0.0349496521679,0.573778769522,0.818978247243,0.00577070957254,0.0,0.818985536008,-0.573715626081,-0.00968602611312,0.0,-0.00462198742111,0.0102839618153,-0.999936436661,0.0,0.267027794536,-0.258065655873,0.305846815947,1.0,-0.00659,-0.00866114285715,2.983
-0.640439684724,-0.521294648041,-0.124836868234,-2.64017072182,-0.0672397624295,2.11083167942,-0.887912562142,-0.030608276168,0.00167040209323,0.00316641250675,0.00219655923536,0.00211617007807,0.000688776833117,-0.032450060227,0.573762832351,0.818989412534,0.00577072538,0.0,0.818996668222,-0.573699617504,-0.00969294682557,0.0,-0.00462784698356,0.010287855557,-0.999936369506,0.0,0.266910147039,-0.25820815595,0.305842598415,1.0,-0.00623,-0.00818800000001,3.001
-0.640904485257,-0.521225046882,-0.124802863674,-2.64014514995,-0.0672237251813,2.11084283726,-0.888391270773,-0.0286010701676,0.00398167782858,0.00158406482276,0.00699819039329,-0.000450887052504,0.000645209213861,-0.0231756131475,0.573738236538,0.819006651981,0.00576947537621,0.0,0.819013745027,-0.573674699252,-0.00972480315246,0.0,-0.0046549660423,0.0103049694487,-0.999936067404,0.0,0.266810340558,-0.258322006009,0.305830745545,1.0,-0.00591,-0.00776742857143,3.017
-0.641364098605,-0.52116833845,-0.124769119061,-2.64010980101,-0.0672087079634,2.11084911928,-0.888861113129,-0.0261222091564,0.00779954337002,-0.000322078738962,0.00397185812686,0.000230546108084,9.78713990171e-05,-0.0274229939379,0.573714233851,0.819023489265,0.00576617814144,0.0,0.81903049051,-0.573650587999,-0.00973680673586,0.0,-0.00466699179981,0.0103090188087,-0.999935969609,0.0,0.266708139906,-0.25844455627,0.305827295233,1.0,-0.00557,-0.00732057142858,3.034
-0.641765117668,-0.521085668268,-0.124753049311,-2.64005041345,-0.0671939822595,2.11086365976,-0.889269147092,-0.0235388210969,0.00825555004291,-0.000458207528449,0.00118063653737,0.00162602732101,0.000936408017355,-0.0227184926019,0.573706497095,0.819028899691,0.00576745723808,0.0,0.819035885065,-0.573642782357,-0.00974290134946,0.0,-0.00467134749278,0.0103135188155,-0.999935902867,0.0,0.266623491485,-0.258562195866,0.305825512636,1.0,-0.00525,-0.00690000000001,3.05
-0.642196928036,-0.520999073803,-0.124745337391,-2.6399724147,-0.0671800457876,2.11088665067,-0.889681031998,-0.0188766560155,0.00325351323424,0.00227858498631,0.00301825287361,-0.000222354741103,0.00409344290015,-0.0191683359672,0.573727290687,0.8190143236,0.00576893056759,0.0,0.819021404438,-0.573663743128,-0.00972603690537,0.0,-0.00465642688475,0.0103051688249,-0.999936058548,0.0,0.266534507735,-0.258695773946,0.305831280417,1.0,-0.00489,-0.00642685714286,3.068
-0.64253956851,-0.5209397164,-0.124726117772,-2.63993532674,-0.0671674602398,2.11089932238,-0.890019234835,-0.0237600968313,0.00479398786599,0.00187447722285,-0.000277854929309,0.00206991726545,0.000293264509505,-0.0219914869524,0.57373063162,0.819011970827,0.00577069175635,0.0,0.819019021888,-0.573666969271,-0.00973637784018,0.0,-0.0046638445466,0.0103125630746,-0.999935947747,0.0,0.266454311474,-0.25879801465,0.305826544583,1.0,-0.00457,-0.00600628571429,3.084
-0.642935523719,-0.52091034717,-0.124705204493,-2.63991188668,-0.0671520108307,2.11090697268,-0.890372490274,-0.0230071139336,0.000927450545363,0.000920065401337,-0.00052861084807,0.000746302821063,-1.13541774372e-05,-0.0186957109972,0.573752584732,0.818996584673,0.00577171618363,0.0,0.819003682861,-0.573688994922,-0.00972889848883,0.0,-0.0046568542375,0.0103092359501,-0.999936014634,0.0,0.266369808526,-0.258897629486,0.305828854937,1.0,-0.00423,-0.00555942857143,3.101
-0.643267756514,-0.520902916503,-0.124685575776,-2.63990203141,-0.0671369480065,2.11090720361,-0.89067145692,-0.0237507098622,-0.000951316920677,0.00204931358027,0.00306319508538,0.00253969805469,-8.8248677428e-05,-0.0190371775378,0.57377281333,0.81898237953,0.00577646985204,0.0,0.818989552805,-0.573709255873,-0.00972363215364,0.0,-0.00464955869688,0.0103102227412,-0.99993603841,0.0,0.266291515394,-0.258982671077,0.305831096556,1.0,-0.00391,-0.00513885714286,3.117
-0.643528056423,-0.520889978348,-0.124660696491,-2.63988591244,-0.067125164929,2.11091456655,-0.890911100998,-0.0211247785958,-0.000911772927117,0.000863460780128,0.00162593264161,-0.000357802394382,0.000260423484955,-0.0168079954344,0.573777912319,0.818978825997,0.00577380333002,0.0,0.818986029472,-0.573714494382,-0.00971130101864,0.0,-0.00464092460118,0.0103009926146,-0.999936173648,0.0,0.266235135057,-0.259050212203,0.305834894177,1.0,-0.00363,-0.00477085714286,3.131
-0.643848896277,-0.520856466055,-0.124634889305,-2.63984588037,-0.0671083055904,2.11092692182,-0.891221968082,-0.0193120434259,0.00119451935316,0.000508577062074,0.00476675581873,2.88553359075e-05,0.000145522210192,-0.00675892587092,0.573776965098,0.818979499109,0.00577245725079,0.0,0.818986786876,-0.573713771654,-0.00969009999044,0.0,-0.00462434404837,0.0102877204507,-0.999936387102,0.0,0.266169562076,-0.259139573888,0.305842449616,1.0,-0.00325,-0.00427142857143,3.15
-0.644119559561,-0.520820522422,-0.124601530927,-2.6397961078,-0.0670943577952,2.1109375345,-0.891485495179,-0.00954800014562,0.00249609066298,0.00457138866665,0.00790656342703,0.000269485897724,0.000165337871308,-0.00486903522328,0.573773025347,0.818982311878,0.00576499059676,0.0,0.818989632756,-0.573710111575,-0.0096662410595,0.0,-0.00460913579173,0.0102678935969,-0.999936661108,0.0,0.26611495632,-0.259222107065,0.305853234004,1.0,-0.00287,-0.00377200000001,3.169
-0.64434331162,-0.520779057561,-0.124578571077,-2.63976025632,-0.0670801098263,2.11094705617,-0.891699029809,-0.0136603844401,0.000795829896944,0.000469416760636,0.00368384962899,0.000208029279541,0.00300996076233,-0.00541108046787,0.57376757293,0.818986157301,0.00576136307963,0.0,0.818993476026,-0.573704754914,-0.00965853596937,0.0,-0.00460497452517,0.0102604710623,-0.999936756472,0.0,0.266077371225,-0.259279202977,0.305855978595,1.0,-0.00257,-0.00337771428572,3.184
-0.644571103888,-0.520737874543,-0.12454674605,-2.63973174506,-0.0670663237769,2.11095713504,-0.891931369756,-0.00985366015976,0.00146504811083,0.003391500948,0.00344301762714,-6.2300221912e-05,0.000141645549175,-0.0101250675215,0.5737486612,0.818999445619,0.0057557579178,0.0,0.81900670105,-0.573685859174,-0.00965947820469,0.0,-0.0046091991097,0.010256314458,-0.99993677965,0.0,0.266033705712,-0.259339388239,0.305855406792,1.0,-0.00221,-0.00290457142858,3.202
-0.644746367891,-0.520715721548,-0.124522008854,-2.63973247379,-0.0670498515684,2.11096018375,-0.89210429772,-0.0122772642126,-0.0011433754501,0.00147246672992,-0.000198297615015,0.00457594641469,-9.46817981743e-05,-0.0124962330104,0.573740110703,0.819005408467,0.00575961576853,0.0,0.819012620715,-0.573677108188,-0.00967726984092,0.0,-0.00462166560193,0.010269633597,-0.999936585406,0.0,0.265994914409,-0.259378769993,0.305847768274,1.0,-0.00191,-0.00251028571429,3.217
-0.644897790215,-0.520693745706,-0.124494215957,-2.63973139179,-0.0670380750018,2.11096032108,-0.892245271629,-0.0178279938944,0.00351186536619,0.00205128000541,-0.000733778069931,0.00306662730377,-0.000483879950697,-0.0111308739135,0.573734127118,0.819009613463,0.00575771983272,0.0,0.819016716075,-0.573670934298,-0.00969664029024,0.0,-0.00463869440938,0.0102791601481,-0.999936408668,0.0,0.265962505685,-0.259411669224,0.305840838269,1.0,-0.00161,-0.00211600000001,3.232
-0.645077140323,-0.520672795049,-0.124461637195,-2.63972336475,-0.0670243019409,2.11096530933,-0.892400924045,-0.0109106500562,0.00208369344886,0.00187358663352,0.000930123779334,0.00281189774064,-2.39603789132e-06,-0.0109672720761,0.573741481344,0.819004500248,0.00575222218285,0.0,0.819011521845,-0.573678258597,-0.00970204101799,0.0,-0.00464617990377,0.0102777975091,-0.999936387922,0.0,0.265923794963,-0.259453608613,0.30583828499,1.0,-0.00123,-0.00161657142858,3.251
-0.645247270536,-0.520668550648,-0.124445598007,-2.63972578782,-0.067010839775,2.11096496567,-0.892496128072,-0.011936086752,-0.000781308359571,-0.000705672141157,0.000409215001715,-0.000215631947654,0.00366756223675,0.000108943702863,0.573792392672,0.818968787634,0.00575863643129,0.0,0.818975848501,-0.573729072799,-0.00970863011863,0.0,-0.00464725737163,0.0102871203218,-0.999936287048,0.0,0.265886283697,-0.259492803452,0.305835667986,1.0,-0.000870000000005,-0.00114342857144,3.269
-0.645365470784,-0.520662085769,-0.124436777565,-2.63972272481,-0.0669925470465,2.1109698489,-0.892548479042,-0.00748018017561,0.000620999919948,0.00166821921336,-5.23074089329e-05,0.00151227906992,0.000210008057889,-0.00640603590109,0.573848014665,0.818929737819,0.00576953050307,0.0,0.818936929933,-0.573784677579,-0.00970543502019,0.0,-0.00463769044693,0.0102945244166,-0.999936255265,0.0,0.265860491826,-0.25952178337,0.305835318712,1.0,-0.000570000000005,-0.000749142857149,3.284
-0.645452410506,-0.520662085291,-0.12444007775,-2.63971371579,-0.0669827234245,2.11097009627,-0.892596194179,-0.000265664367427,0.00159257901397,0.00159281706927,-0.000693883417072,0.00159197833514,-0.000161247119408,-0.00154127717849,0.573887068348,0.818902306002,0.00577865976399,0.0,0.818909643055,-0.573823795891,-0.00969508549053,0.0,-0.00462348440055,0.0102962826296,-0.999936302949,0.0,0.265840199318,-0.259546950182,0.305839368718,1.0,-0.000190000000005,-0.000249714285721,3.303
-0.645472396152,-0.520661331649,-0.124436730213,-2.63971014682,-0.0669712180277,2.11097541449,-0.892607561188,-0.00102807155493,4.87503024066e-05,0.00443258257395,8.91822687398e-05,0.000251071863311,0.000247378470416,-0.00437335128484,0.573896810921,0.81889542783,0.00578580987695,0.0,0.818902881237,-0.573833599138,-0.00968599520792,0.0,-0.00461181387583,0.0102969763877,-0.999936349699,0.0,0.265838412156,-0.259551994068,0.305841258253,1.0,0.0,0.0,3.316
-0.645460710328,-0.52065886664,-0.124422924677,-2.63970747424,-0.0669594218095,2.11097567984,-0.892623372733,0.000498252563071,-0.00012673277914,-5.08555802213e-05,-0.000556295075788,9.03780922472e-06,0.00235823275301,-0.00332498497538,0.573869659206,0.81891443461,0.00578877630704,0.0,0.818921922669,-0.573806447342,-0.00968465080252,0.0,-0.00460935191345,0.0102984813565,-0.999936345552,0.0,0.265846094993,-0.259545329398,0.305841922257,1.0,0.0,0.0,3.337
-0.645458349627,-0.520658554635,-0.124401276901,-2.63970120103,-0.0669509469538,2.11097845092,-0.892627064172,0.000192549875856,0.002578408068,0.00118248046903,0.00311492874928,0.000916412445009,-0.000380542040819,0.0014858209613,0.573853255121,0.818925963162,0.00578405985098,0.0,0.81893344308,-0.573790157958,-0.00967560524747,0.0,-0.00460485638868,0.0102893357169,-0.999936460415,0.0,0.265854037436,-0.259541058758,0.305845416372,1.0,0.0,0.0,3.35
-0.645461125018,-0.520653202381,-0.124374065938,-2.6397014303,-0.0669454958947,2.11097641429,-0.892636078048,-0.000567090822216,0.000335174626316,0.00302401531998,0.00040414536934,0.000413322073332,-0.000434321838121,-0.00170851687517,0.573831194387,0.81894148072,0.00577567360099,0.0,0.818948837947,-0.573768058238,-0.00968313340077,0.0,-0.00461611145263,0.0102866632388,-0.999936436017,0.0,0.265859215194,-0.259534830191,0.305843809889,1.0,0.0,0.0,3.37
-0.645458340959,-0.520649954402,-0.124368112114,-2.63970820549,-0.0669405109379,2.11097963246,-0.892632744444,-0.00033482911978,-7.43492383584e-05,0.000400239456236,-0.00106331320469,3.71750340546e-05,3.66802116438e-05,-0.000288542259525,0.57382924367,0.818942833762,0.00577763271992,0.0,0.818950181356,-0.573766032413,-0.00968955149005,0.0,-0.00462026830718,0.0102919395185,-0.999936362526,0.0,0.265860554021,-0.259530944408,0.305839948943,1.0,0.0,0.0,3.383
-0.64546185014,-0.520646824283,-0.124367418692,-2.63970187277,-0.0669364330401,2.1109779894,-0.892642134193,-0.0019825652742,0.000452693912978,-0.00131525675877,0.000348710168357,-3.03372146306e-05,-0.000404914073876,-0.000455019434147,0.573825978548,0.818945103334,0.00578022231689,0.0,0.818952486102,-0.57376277485,-0.00968765212759,0.0,-0.00461726777362,0.0102929520698,-0.999936365963,0.0,0.265861285853,-0.259532641979,0.305841555817,1.0,0.0,0.0,3.403
-0.645463630673,-0.520656803797,-0.124359566209,-2.6396952222,-0.0669335156815,2.11098126056,-0.892642852103,-0.00117210335841,-0.000816566161197,0.000836685773607,0.00159802929435,0.000191540520888,0.000120532646281,-0.000532759655089,0.573822784322,0.818947363058,0.00577716491439,0.0,0.81895480599,-0.57375979965,-0.00966772734737,0.0,-0.00460274345114,0.0102789970987,-0.999936576474,0.0,0.265865054647,-0.259533404185,0.305848728184,1.0,0.0,0.0,3.416
-0.645458429556,-0.520652780338,-0.124359921844,-2.6396985636,-0.066928589375,2.11098044682,-0.892641701355,-0.00146350558738,-0.00061122318548,0.000325217628795,-0.000576092271175,0.000337183155328,0.00277580042365,-0.000293965875463,0.573821677741,0.818948102854,0.00578220429925,0.0,0.818955562095,-0.573758590729,-0.00967542135909,0.0,-0.00460616725929,0.0102875329561,-0.999936472927,0.0,0.265865779822,-0.259530568433,0.305845649519,1.0,0.0,0.0,3.437
-0.645455835305,-0.520651836514,-0.124364222737,-2.63970362467,-0.0669314711683,2.110978466,-0.892641506639,0.000328325160162,-0.00050031258203,0.00225986508887,-0.00140792168419,-0.000409778339978,-0.000258690708173,0.00133781866355,0.573821306506,0.818948358352,0.00578285852146,0.0,0.818955786977,-0.573758133159,-0.00968351756365,0.0,-0.00461242750575,0.010292712318,-0.99993639077,0.0,0.265863763012,-0.259529537583,0.30584272484,1.0,0.0,0.0,3.45
-0.645459044988,-0.52065040046,-0.124361399956,-2.63969833404,-0.0669281145274,2.11098044827,-0.892643511592,0.00335816021002,-0.000986379246621,0.0028086558108,0.00058486640015,0.000203933980245,0.00023992365627,0.00085493532684,0.573821970276,0.818947889381,0.00578340805464,0.0,0.818955351483,-0.573758856399,-0.0096774935895,0.0,-0.0046071700604,0.0102897095238,-0.999936445911,0.0,0.265865343036,-0.259531028453,0.305844842596,1.0,0.0,0.0,3.471
-0.645461827027,-0.520641534528,-0.124353954152,-2.63970083966,-0.0669238462433,2.11098161383,-0.89264307341,-0.00496861877611,0.00251578457756,0.00204314014757,-0.000287567829579,6.81321584955e-05,0.000266571953452,0.00149117226771,0.573821069436,0.818948517433,0.00578385395817,0.0,0.818955938276,-0.573757851308,-0.00968742099511,0.0,-0.00461505629651,0.0102957660461,-0.999936347203,0.0,0.265866032488,-0.259529076505,0.30584071326,1.0,0.0,0.0,3.484
-0.645463604673,-0.520651832266,-0.124356014771,-2.63969825159,-0.0669226193986,2.11098056455,-0.892649419622,0.000256379305369,-0.000514118262946,0.000582785171603,0.0013192748708,2.57636870789e-05,9.18372087576e-05,-0.00157877928125,0.573819382696,0.818949688568,0.00578537277892,0.0,0.818957180168,-0.573756280927,-0.00967543534896,0.0,-0.00460438944514,0.0102901230333,-0.999936454464,0.0,0.265865885778,-0.259530558142,0.305845548168,1.0,0.0,0.0,3.504
-0.645461125981,-0.520641295784,-0.124358511654,-2.639698334,-0.0669226043008,2.11098048612,-0.892650931686,-0.00134567845623,0.00267837235516,-4.14982631121e-05,0.000463102830088,-5.91463197493e-06,-5.18142633699e-05,-0.000816496561178,0.573817935352,0.81895069103,0.00578702270529,0.0,0.818958150485,-0.573754716469,-0.00968607168622,0.0,-0.00461217232793,0.0102975693283,-0.99993634194,0.0,0.265865728556,-0.259530242499,0.305841562344,1.0,0.0,0.0,3.517
-0.645464332682,-0.520649328875,-0.124360938375,-2.63970083966,-0.0669218922059,2.11098000367,-0.892650949296,-0.000680354528201,5.09345336152e-06,-0.000161723340895,-6.35928792124e-05,0.000130521726621,-0.000595025085489,-0.000620652311165,0.573822416646,0.818947537363,0.00578896387116,0.0,0.81895504102,-0.573759242172,-0.00968089408417,0.0,-0.00460676154046,0.0102962134173,-0.999936380845,0.0,0.265863953777,-0.259530982179,0.305843283922,1.0,0.0,0.0,3.538
-0.645458340996,-0.520654155007,-0.1243585175,-2.63969503385,-0.0669201205968,2.11098362724,-0.892645217084,-0.00141940627784,0.00313559376807,-0.00111182846845,0.000344927645747,0.000236663597496,-9.86184033784e-05,0.000269914987479,0.573826895658,0.818944388333,0.00579046958023,0.0,0.81895191737,-0.573763735598,-0.00967882476292,0.0,-0.00460414641212,0.0102962843679,-0.999936392159,0.0,0.265865045269,-0.259532786234,0.305842946288,1.0,0.0,0.0,3.551
-0.645455838199,-0.520644571154,-0.124356010871,-2.6397008365,-0.0669232763887,2.11098271279,-0.892654742601,0.00138141008689,0.000326657662918,0.000843873217104,-0.000212572757986,-0.000553598819724,0.000203739931814,-0.00177356073443,0.573808293708,0.818957459122,0.0057852503096,0.0,0.818964913117,-0.573745113125,-0.00968313740187,0.0,-0.00461090728387,0.0102943797662,-0.999936380616,0.0,0.265867432253,-0.259528082029,0.305841879929,1.0,0.0,0.0,3.571
-0.645465736703,-0.520649082631,-0.124358816294,-2.63970050083,-0.0669172375398,2.11097963301,-0.892650057424,-0.000538534562417,0.00152220943239,0.00030817197074,-0.00160156474607,3.31759000121e-05,-0.000285615290177,-0.00090099665697,0.573824788707,0.818945854918,0.00579184592997,0.0,0.818953388861,-0.573761601929,-0.00968080189937,0.0,-0.00460500244944,0.0102985342352,-0.999936365048,0.0,0.265864477889,-0.259530445795,0.305843368574,1.0,0.0,0.0,3.585
