nelsonifechukwu/NELSON_IML_WORK/CNN-GradCAM/train2dof/data_sample_2022-02-21-09-57-44/robot_state.csv
position_joint1,position_joint2,position_joint3,position_joint4,position_joint5,position_joint6,position_joint7,velocity_joint1,velocity_joint2,velocity_joint3,velocity_joint4,velocity_joint5,velocity_joint6,velocity_joint7,ee_T_00,ee_T_10,ee_T_20,ee_T_30,ee_T_01,ee_T_11,ee_T_21,ee_T_31,ee_T_02,ee_T_12,ee_T_22,ee_T_32,ee_T_03,ee_T_13,ee_T_23,ee_T_33,v_x,v_y,time
0.465048615548,0.547665582955,-0.123959056898,-1.35577302268,0.079447634083,1.89408698694,0.159175764524,-0.00112477087758,0.00150577048988,-0.000553588467579,-0.000427171525121,0.000155844524761,-0.000176999115302,0.000307740915145,0.573801819983,0.818979831405,0.00206253175083,0.0,0.818938524692,-0.573743163927,-0.0117992170839,0.0,-0.00848012059425,0.00845966182097,-0.999928258265,0.0,0.661693914749,0.26089019971,0.3033225715,1.0,0.0,0.0,0.0
0.465054311249,0.547657088466,-0.123959754211,-1.35577054352,0.079446961434,1.89408897814,0.159174941252,0.00113490429085,-0.000496186216026,-0.000893498988496,0.000200382503065,-0.000155741042023,-1.70077819456e-05,-0.00192188112449,0.57379665262,0.818983425034,0.00207312857735,0.0,0.818942270632,-0.573737969946,-0.0117917816608,0.0,-0.0084680041857,0.00846402042844,-0.999928324063,0.0,0.661693817901,0.260893999351,0.303329964096,1.0,-0.00016,-0.000210285714286,0.009
0.465052775891,0.547656190365,-0.123954782235,-1.35577161374,0.0794475552174,1.89409121418,0.159179012501,0.00430410521734,-0.000984389215041,0.00102777452239,-0.00201388787869,2.47682869722e-06,0.000164722823089,0.00108116217753,0.573797999606,0.818982473125,0.00207635811054,0.0,0.818941332525,-0.573739275884,-0.0117933918543,0.0,-0.00846745605336,0.00846760316004,-0.999928298372,0.0,0.661693267821,0.260895994126,0.303330121757,1.0,-0.00046,-0.000604571428571,0.024
0.465050307344,0.547634541877,-0.123955492564,-1.35578431306,0.0794482837021,1.89409161997,0.15917372526,5.7452876478e-05,-0.00391352022302,0.000476949320765,-0.00135887316225,0.00027034047642,0.000370427996738,-0.000883582484989,0.573797037389,0.818983123858,0.00208557437837,0.0,0.818942087735,-0.573738262214,-0.0117902632875,0.0,-0.00845961571254,0.00847334591811,-0.999928316086,0.0,0.661691776713,0.260892873688,0.303339473406,1.0,-0.00084,-0.001104,0.043
0.465053079735,0.547548102691,-0.123951939185,-1.35585573047,0.0794425277716,1.8941005835,0.159173214205,0.000620197786863,-0.00421873142579,-0.000647342394419,-0.00488147993468,9.07742568202e-05,0.00293550584423,0.00100709006618,0.57379414505,0.818985093318,0.00210782581301,0.0,0.818944320102,-0.57373525669,-0.0117814559835,0.0,-0.00843966533386,0.00848648583196,-0.999928373238,0.0,0.661678261617,0.260889101953,0.303367364582,1.0,-0.0011,-0.00144571428571,0.057
0.465052805649,0.547397330433,-0.123954853382,-1.35603111285,0.0794448160569,1.89414933751,0.159176301556,1.03882491297e-05,-0.00948726274187,0.000662433785607,-0.0109499986856,0.000154667985439,0.00474118169069,-0.00022155753827,0.573809179008,0.818974486707,0.00213614388056,0.0,0.818933961998,-0.573750057976,-0.0117806519265,0.0,-0.00842260285043,0.00850937081337,-0.999928322616,0.0,0.661652373694,0.260872081841,0.30339502608,1.0,-0.00148,-0.00194514285714,0.075
0.465039631829,0.547266987035,-0.12395200695,-1.35622275161,0.0794362212229,1.89420813987,0.159165358259,-0.000192905090844,-0.0103681794285,0.00183593976478,-0.0158344631918,-0.00487677168541,-0.000506831705385,-0.00063145933472,0.573817373315,0.818968743591,0.00213682093046,0.0,0.8189281712,-0.57375819158,-0.0117870653885,0.0,-0.00842738187223,0.00851368967196,-0.999928245587,0.0,0.661626869258,0.260846577183,0.303401136219,1.0,-0.0018,-0.00236571428571,0.091
0.465019319881,0.54704619197,-0.123955165134,-1.35647326528,0.0794339705927,1.8943580873,0.159151233728,0.00109742807133,-0.00598763440063,0.000322979110564,-0.0158075877221,-5.65906739043e-05,0.00241076984305,0.0017376200524,0.573838346405,0.818953760078,0.00224453798767,0.0,0.818914566708,-0.573778728148,-0.0117324532725,0.0,-0.00832062876847,0.00857078145287,-0.999928651876,0.0,0.661611316895,0.260814312395,0.303451418032,1.0,-0.0022,-0.00289142857143,0.111
0.464997357828,0.546864031579,-0.123952946691,-1.35667352931,0.0794303762112,1.89446501243,0.159131356691,0.00166555757764,-0.0112245231797,-9.15578373551e-05,-0.0120151266804,7.12530138139e-05,0.00125003811242,-0.000775279391355,0.573848870516,0.818946160099,0.00232541778107,0.0,0.818907977097,-0.573788908331,-0.0116944698439,0.0,-0.00824300094635,0.00861532735395,-0.999928912008,0.0,0.661596944672,0.260786378235,0.303494326845,1.0,-0.0025,-0.00328571428571,0.126
0.464956899756,0.546622941199,-0.123955764705,-1.35703243396,0.0794203836998,1.89460563079,0.159103031678,-0.00103200973858,-0.00974046079163,-0.000709025238675,-0.0161898445578,-0.00468223388678,0.00769373791186,0.0011616345794,0.573878240274,0.818925508753,0.00235018190921,0.0,0.818887570128,-0.573818102804,-0.011690991623,0.0,-0.00822563270724,0.00863390668213,-0.999928894783,0.0,0.661560783344,0.260726477966,0.303506530501,1.0,-0.00286,-0.00375885714286,0.144
0.464922186876,0.546403526925,-0.123952799195,-1.35735619701,0.0794124699545,1.89472839197,0.158990713558,-0.000559569323876,-0.0164497085918,0.00331312562442,-0.0235439683167,3.36510836217e-05,0.00913540674315,-0.0047874262566,0.573815785042,0.818969200804,0.00237484164447,0.0,0.818931454619,-0.573755430793,-0.0116929539896,0.0,-0.00821374903324,0.00865460072328,-0.999928813573,0.0,0.661521494441,0.260675605694,0.303519305063,1.0,-0.00316,-0.00415314285714,0.159
0.464880968232,0.546105909935,-0.123957976588,-1.35784172558,0.0793917977033,1.89489778353,0.158945016747,2.14987281065e-05,-0.0182040018836,0.000173720124946,-0.0312438307292,-0.00242771961564,0.00977898643662,-0.00123726081904,0.573850206262,0.818945121722,0.00236120340809,0.0,0.818907141128,-0.57378983743,-0.0117074152748,0.0,-0.00823305461941,0.00865207558203,-0.999928676656,0.0,0.661468883593,0.260600901411,0.303512848124,1.0,-0.0035,-0.0046,0.176
0.464829559113,0.545812290114,-0.123955913549,-1.35831777214,0.0793518974424,1.89506499282,0.158919622701,-0.00437981572869,-0.0206678470777,-0.000558494656955,-0.0278789963092,-0.00277702042664,0.0120344113006,-0.00477966848925,0.573886051079,0.818920058632,0.00234197529504,0.0,0.818881903463,-0.57382582747,-0.0117087493193,0.0,-0.00824480250548,0.00863745539518,-0.999928706257,0.0,0.661415846391,0.260520329774,0.303508536398,1.0,-0.00382,-0.00502057142857,0.192
0.464769122097,0.545478641136,-0.123961546227,-1.35890511139,0.0792540997308,1.89525516939,0.158809984962,-0.0044826705495,-0.0208702501072,-0.00149536536134,-0.0365532939878,-0.00294624457322,0.0112942271993,-0.0021291902099,0.573856442305,0.818941059266,0.00225210466646,0.0,0.818902266122,-0.573797104976,-0.0116922095108,0.0,-0.00828313878034,0.0085540680598,-0.999929106253,0.0,0.661350197747,0.260408828792,0.303481711903,1.0,-0.00416,-0.00546742857143,0.209
0.464700097008,0.545067424232,-0.123958743744,-1.35962279058,0.0792418508931,1.8954843204,0.158722337329,-0.00829590028669,-0.022116210872,0.000427161961109,-0.0478934057037,5.96030402769e-05,0.0169632646955,-0.000828921414457,0.57387588898,0.818927563374,0.00220383641523,0.0,0.818887801165,-0.573816379559,-0.01175919025,0.0,-0.00836548864737,0.00855317518974,-0.999928428336,0.0,0.661259856217,0.260298585659,0.303450997932,1.0,-0.00452,-0.00594057142857,0.227
0.464630674049,0.544651635925,-0.123971266727,-1.36031380068,0.079225124539,1.89572883613,0.158658558109,-0.00239062099946,-0.0228705320882,-0.00139206909089,-0.0441594638546,2.73497916041e-05,0.0102671206186,-0.00618190484523,0.5739233549,0.818894342742,0.00218747045412,0.0,0.818854189227,-0.573863720352,-0.0117895780291,0.0,-0.00839927053036,0.00855769828268,-0.999928106443,0.0,0.66118261452,0.260182757188,0.303438009988,1.0,-0.00486,-0.00638742857143,0.244
0.464562572866,0.544200791513,-0.123970147669,-1.36105830115,0.0791900968279,1.89598981704,0.158537890807,-0.00260028428439,-0.0305398037894,0.00402542825127,-0.043488450922,-0.000433592127344,0.0133816621211,-0.0109454269896,0.573901286715,0.818909889139,0.0021571923345,0.0,0.818869218779,-0.573841647921,-0.0118200062687,0.0,-0.00844179574978,0.00855013982501,-0.999927812991,0.0,0.661098459101,0.260077029419,0.303420245479,1.0,-0.00518,-0.006808,0.26
0.464501375423,0.543769435925,-0.123967841975,-1.36176534616,0.0791635244696,1.89623788446,0.158470557556,-0.00596240003594,-0.024514635606,0.00106402457823,-0.0467801230552,0.00044371081507,0.0173586847587,-0.00974082680879,0.573937296447,0.818884669575,0.00215048459456,0.0,0.818843732467,-0.573877498042,-0.011845080891,0.0,-0.00846580342573,0.00855940932994,-0.999927530716,0.0,0.661009759784,0.259963131301,0.303415394994,1.0,-0.0055,-0.00722857142857,0.276
0.464425961764,0.543246849648,-0.123974226013,-1.36260537706,0.079098192338,1.8965341347,0.158346370108,-0.00334108959859,-0.0300141143134,0.000330009599815,-0.048678297767,-0.00628832707609,0.0185147123755,-0.00598578638533,0.5739311131,0.818889075602,0.00212277560764,0.0,0.818847911156,-0.573871559845,-0.0118439055024,0.0,-0.00848080756109,0.00853598058472,-0.999927603849,0.0,0.660913934718,0.259826274343,0.303411113226,1.0,-0.00584,-0.00767542857143,0.293
0.464360353107,0.542700209677,-0.123980316093,-1.36349618407,0.0790485913921,1.89684295281,0.158230405911,-0.00377229694346,-0.0317470701299,0.000329066226574,-0.0518710329883,-0.000650857925516,0.0118732142193,-0.00371309743829,0.573930369607,0.818889672573,0.0020932984127,0.0,0.818848078569,-0.573870888151,-0.0118648580971,0.0,-0.00851489068106,0.00852385988686,-0.999927417591,0.0,0.660805929218,0.259693760052,0.303400729241,1.0,-0.00618,-0.00812228571429,0.31
0.4642871104,0.542137785698,-0.123980512083,-1.36435685611,0.0790018995898,1.8971674796,0.158119537179,-0.00657873198531,-0.036245894516,-0.00045022298684,-0.0598088599356,-0.00479334422207,0.0208323496843,-0.00686860681523,0.573931411069,0.818888882488,0.00211670178639,0.0,0.818847539031,-0.573871781447,-0.0118588861957,0.0,-0.00849655822445,0.00853960775054,-0.999927439166,0.0,0.660700486474,0.259558379868,0.303416574111,1.0,-0.00652,-0.00856914285714,0.327
0.46421837478,0.541517186523,-0.123978959139,-1.3653135033,0.078954671709,1.89752428969,0.157996111431,-0.00269647862072,-0.0374383983834,0.00172972655329,-0.0577590291061,-0.00267279814155,0.0178782114091,-0.00629642162577,0.573929724681,0.81888999916,0.0021417995542,0.0,0.818848884695,-0.573869896742,-0.0118571728366,0.0,-0.00848076924625,0.00855915890811,-0.999927406041,0.0,0.660595751046,0.259431608881,0.303431307867,1.0,-0.00684,-0.00898971428571,0.343
0.464134320307,0.540854467057,-0.123980658369,-1.36633507027,0.0788809578381,1.89789438242,0.157869598047,-0.00582819019857,-0.0388665568322,8.43942730619e-05,-0.0622645836513,-0.00573893734294,0.017863899148,-0.00790392961857,0.573933030157,0.81888767566,0.00214439928168,0.0,0.818846691962,-0.573873289346,-0.0118443969894,0.0,-0.00846878030104,0.00855398960335,-0.999927551887,0.0,0.660477545851,0.259275738245,0.303445660695,1.0,-0.00718,-0.00943657142857,0.36
0.464049989461,0.540151081177,-0.123983874457,-1.36740185381,0.0788188777712,1.89828722623,0.157720949217,-0.00582119072843,-0.0413095872505,0.000324191710397,-0.0580038460241,-0.00228922888495,0.0243203033225,-0.0139519399185,0.573925061959,0.818893191974,0.0021703213682,0.0,0.818852528525,-0.573865202457,-0.0118327020719,0.0,-0.00844440983906,0.00856842237852,-0.999927634422,0.0,0.660354092241,0.259117406216,0.303469179082,1.0,-0.00752,-0.00988342857143,0.377
0.463949755847,0.539412737582,-0.123988868645,-1.36855704928,0.0787570686787,1.89872588011,0.157579270866,-0.000479090850553,-0.0465532179747,-0.00074676059105,-0.0694579920436,-0.00122149194895,0.0196615948444,-0.00384226941682,0.57394208994,0.818881202521,0.00219099385567,0.0,0.818840766562,-0.573882104978,-0.0118268974795,0.0,-0.00842761412194,0.00858219457907,-0.999927658012,0.0,0.660224566602,0.258940663979,0.30347924938,1.0,-0.00786,-0.0103302857143,0.394
0.463843278814,0.538711274088,-0.12398152742,-1.36964412001,0.0787030372163,1.89914636859,0.157451858584,-0.00895408289607,-0.0451718113086,0.000128845634001,-0.0693137464684,-0.00166291062291,0.0252779525299,-0.0110450524293,0.573965518388,0.81886468231,0.00222770459914,0.0,0.818824601567,-0.573905262085,-0.0118223906352,0.0,-0.00840260853607,0.00860990966776,-0.999927630194,0.0,0.660104338792,0.258774593673,0.303493601155,1.0,-0.00818,-0.0107508571429,0.41
0.463706188166,0.537797526813,-0.123993096762,-1.37107512396,0.0786079769928,1.89970441628,0.157274428749,-0.00187425600364,-0.0477010135274,0.000243359702289,-0.0797060930985,-0.00542332394643,0.0317320637157,-0.0105375672637,0.573981136487,0.818853664682,0.00225337394879,0.0,0.818814081629,-0.573920947306,-0.0117895238104,0.0,-0.00836079723692,0.00861222440778,-0.999927960735,0.0,0.659941291222,0.258535322041,0.303507913706,1.0,-0.0086,-0.0113028571429,0.431
0.463600670964,0.537036551287,-0.123998669706,-1.37226572024,0.0785383347165,1.90013502302,0.157125508796,-0.00848259292154,-0.0474713836176,-0.00121185741568,-0.0791602822693,-0.00173362730042,0.0257359582842,-0.00772887635347,0.574009538961,0.818833754532,0.0022535573801,0.0,0.81879415031,-0.573949321288,-0.0117924939132,0.0,-0.00836282534779,0.00861436944787,-0.999927925298,0.0,0.65981422991,0.258355788096,0.30351467502,1.0,-0.0089,-0.0116971428571,0.446
0.46348639107,0.536288292947,-0.124004534265,-1.37343165734,0.0784829980213,1.90059261052,0.156977281328,-0.0091968563524,-0.0527910218668,-0.00179725676294,-0.0809501683575,-0.00285990177563,0.0318293961455,-0.0143446169126,0.574030341085,0.818819063188,0.00229263496739,0.0,0.818779861452,-0.573969862089,-0.0117848544783,0.0,-0.00833392058143,0.00864219376577,-0.99992792653,0.0,0.659677071071,0.258162871927,0.303526888402,1.0,-0.00922,-0.0121177142857,0.462
0.463377770853,0.535418852891,-0.12400910747,-1.3747941158,0.0783869143417,1.90108241305,0.156807521515,-0.0117189084362,-0.0494347115531,0.00200245903732,-0.0775229031338,-0.00119311682671,0.032009958028,-0.0132929929742,0.574037479954,0.818814089675,0.00228145998136,0.0,0.818774876685,-0.573977181519,-0.0117746892051,0.0,-0.00833193586841,0.00862728113532,-0.999928071846,0.0,0.659527456093,0.257963604059,0.303535462359,1.0,-0.00954,-0.0125382857143,0.478
0.463259625513,0.5345310513,-0.124022401525,-1.37624528167,0.0783114204163,1.90160985575,0.156634476364,-0.00377292076797,-0.0466833753208,-0.000532126415119,-0.0869353103993,-0.000290943140421,0.032516401192,-0.00652320901684,0.574061251775,0.818797502576,0.00225297323479,0.0,0.818757842735,-0.574000980465,-0.0117989951551,0.0,-0.0083679400289,0.00861815135997,-0.999927849921,0.0,0.659356539042,0.25774095325,0.303517294776,1.0,-0.00988,-0.0129851428571,0.495
0.463127104795,0.533551239468,-0.124023342279,-1.37781222721,0.0782178181525,1.90218764102,0.156441166573,-0.00721906189297,-0.0552791559211,0.000643074231711,-0.0878840444286,-0.0025648581258,0.0383010680477,-0.00857536870728,0.574072823899,0.818789413276,0.00224420784261,0.0,0.818749610678,-0.574012555373,-0.0118071245268,0.0,-0.00837950641672,0.00861575949672,-0.999927773672,0.0,0.65917266015,0.257503976253,0.303512666284,1.0,-0.01024,-0.0134582857143,0.513
0.463016679567,0.532725296946,-0.124018930634,-1.3791415881,0.0781498184493,1.90269631067,0.156269915464,-0.00425102177805,-0.0565625991077,0.000275588757426,-0.090340343581,-0.00714788612717,0.0339332233,-0.00965660586327,0.574074378465,0.818788307652,0.00224992089714,0.0,0.818748463835,-0.574013968805,-0.0118179307002,0.0,-0.00838505889269,0.00862665658963,-0.999927633173,0.0,0.659005924173,0.257293803235,0.303505207888,1.0,-0.01056,-0.0138788571429,0.529
0.46287328954,0.531633063746,-0.12402115734,-1.38089226864,0.0780388660109,1.9033307977,0.156050643099,-0.003587107788,-0.0579781548084,-0.000412793419108,-0.0948091699152,-0.00510006012595,0.0358835080569,-0.00660218815442,0.574079550692,0.818784735396,0.00223012583793,0.0,0.818744634531,-0.574019217853,-0.0118282654156,0.0,-0.00840482989834,0.00861643475247,-0.999927555319,0.0,0.658808339709,0.257046190781,0.303497995352,1.0,-0.01092,-0.014352,0.547
0.462760713432,0.530747169478,-0.12401618515,-1.3823252748,0.0779544232351,1.90383690764,0.155862612112,-0.00330306271974,-0.0582420933817,0.000744941004076,-0.0947620555021,-0.00953117660326,0.0353650167584,-0.00645265695976,0.574069470762,0.818791891139,0.00219741769376,0.0,0.818751263115,-0.574009163897,-0.0118573104708,0.0,-0.00844749441153,0.00860622415548,-0.999927283728,0.0,0.658630705196,0.25683715474,0.303483913353,1.0,-0.01122,-0.0147462857143,0.562
0.4626129787,0.529734373251,-0.124021659754,-1.38396522054,0.0778658059558,1.90442726531,0.155653085921,-0.00555199379531,-0.0530407224649,-0.000411760193661,-0.0942328864422,-0.00187113625691,0.0273080416301,-0.00354070241622,0.574088008196,0.818778967531,0.00216981018594,0.0,0.818737862755,-0.574027689687,-0.011885725276,0.0,-0.00848641413152,0.00860012368292,-0.99992700666,0.0,0.65843614186,0.256581048541,0.303468207896,1.0,-0.01156,-0.0151931428571,0.579
0.462475854421,0.528651821723,-0.124016608329,-1.38563190494,0.0777513480932,1.9050505535,0.155415312774,-0.0084466683696,-0.0638741312389,0.00149585764075,-0.0995045421303,-0.00281749877998,0.0307034439755,-0.0171968290477,0.574061561702,0.81879743793,0.00219679704197,0.0,0.818756767691,-0.574001223506,-0.0118616050652,0.0,-0.00845145036381,0.00860809970595,-0.999927234156,0.0,0.658239567743,0.25633389153,0.303491102628,1.0,-0.0119,-0.01564,0.596
0.46234479648,0.527604179848,-0.124019130635,-1.38725201641,0.0776461040475,1.90567962228,0.155187977275,-0.00151866987016,-0.0673814397771,0.000718001188081,-0.103216377248,-0.00834919043311,0.0412181586405,-0.0105333538863,0.574043988314,0.818809643578,0.00223918851351,0.0,0.818769619701,-0.573983582596,-0.0118280880096,0.0,-0.00839985680551,0.00862338836975,-0.999927537164,0.0,0.658053327617,0.256093282787,0.303512095907,1.0,-0.01222,-0.0160605714286,0.612
0.46217485,0.526311281804,-0.124024829167,-1.38925565789,0.0775221453542,1.90644158195,0.154920305332,-0.00803402656392,-0.0700904303871,-0.000122952471922,-0.108166063968,-0.0047796021966,0.0456355281512,-0.0114653927091,0.574042882001,0.818810309545,0.00227892691002,0.0,0.818770854606,-0.57398237629,-0.0118011125212,0.0,-0.00835496957233,0.00864042993126,-0.999927766118,0.0,0.657821352096,0.255788957321,0.303534483707,1.0,-0.0126,-0.01656,0.631
0.462029988915,0.525205045329,-0.124032598948,-1.39098053571,0.0774081119238,1.90706303808,0.154680690693,-0.00773145246462,-0.0660497161735,0.00289146114646,-0.105641863058,-0.0080510548937,0.0385663088139,-0.0194056224835,0.574032796231,0.818817391949,0.00227472964367,0.0,0.818777953722,-0.573972381599,-0.0117946836045,0.0,-0.00835222088299,0.00863319990894,-0.99992785153,0.0,0.65761470146,0.255522705444,0.30354577005,1.0,-0.01292,-0.0169805714286,0.647
0.461874358495,0.524037120308,-0.12404459767,-1.39285962495,0.0772945699168,1.90772676819,0.154417494068,-0.00834900203797,-0.0648698646723,-0.00342197043488,-0.115238744362,-0.00444644484926,0.0363834147989,-0.0162348708162,0.574023438019,0.818824070414,0.00223186397929,0.0,0.818784049934,-0.573963164632,-0.0118199882064,0.0,-0.00839764482355,0.00861253071337,-0.999927649321,0.0,0.657385009087,0.255232398948,0.30353059668,1.0,-0.01326,-0.0174274285714,0.664
0.461738766543,0.522969829793,-0.124041785166,-1.39455437366,0.0771877918202,1.90836402885,0.154201227786,-0.0113661283626,-0.069502255817,-0.000704277565579,-0.117258016079,-0.00440840090672,0.0438814692283,-0.00954024181362,0.574015019847,0.818829939208,0.0022437799136,0.0,0.81879008759,-0.573954715492,-0.011812024833,0.0,-0.00838437293912,0.008617630337,-0.999927716756,0.0,0.65716899029,0.254967289967,0.303531156679,1.0,-0.01358,-0.017848,0.68
0.461575239133,0.521736460307,-0.124051753641,-1.39650484063,0.0770657380405,1.90913138307,0.153939649362,-0.0113406669215,-0.0686660944458,-0.00176701990955,-0.117857165608,-0.0144030220702,0.0358621872403,-0.0154306078314,0.574016019642,0.818829158172,0.00227284472657,0.0,0.818789789505,-0.573955711544,-0.0117842560309,0.0,-0.00834494089919,0.00862549986416,-0.999927978763,0.0,0.656958095617,0.254687503685,0.303534502975,1.0,-0.0139,-0.0182685714286,0.696
0.461386565504,0.520327150168,-0.124053236623,-1.39876611485,0.076937496083,1.9099705883,0.153630183949,-0.00677113297267,-0.0708877866305,-0.00125207781003,-0.120667358511,0.000376337719121,0.0375192536158,-0.0133647518904,0.574004328477,0.818837375165,0.00226513231352,0.0,0.81879779505,-0.573943936619,-0.0118014974281,0.0,-0.00836360924543,0.00862896208429,-0.99992779292,0.0,0.656684586625,0.254349038724,0.303520926154,1.0,-0.01428,-0.018768,0.715
0.461234791674,0.519082271442,-0.124059554074,-1.40069451662,0.0768059534253,1.91066121754,0.15337070835,-0.0124348947277,-0.071919194092,-0.000481947365649,-0.120749132938,-0.0156723767245,0.0401376946568,-0.0121398819401,0.573987410618,0.81884924107,0.0022626868223,0.0,0.818809722448,-0.573927126508,-0.0117914708451,0.0,-0.00835698050424,0.00862103176826,-0.999927916746,0.0,0.656446803939,0.254058828474,0.303537100831,1.0,-0.0146,-0.0191885714286,0.731
0.461071888683,0.517795834627,-0.124066891625,-1.40268199929,0.0766781910818,1.91137162275,0.153100438613,-0.00991801839577,-0.0801353144861,-0.000319521815125,-0.126490315253,-0.009816313518,0.0463341436925,-0.0107870203027,0.573965375827,0.818864692838,0.00226032666262,0.0,0.81882515371,-0.573905114014,-0.0117912959811,0.0,-0.00835842385622,0.00861877389432,-0.999927924146,0.0,0.656184769734,0.25374060744,0.303552274142,1.0,-0.01494,-0.0196354285714,0.748
0.46090622726,0.516548055724,-0.124071641214,-1.40469306342,0.0765476470802,1.91211707297,0.152813058436,-0.0066697451613,-0.0728643169238,-0.00362631732402,-0.127552604803,-0.0101233980106,0.0544473410175,-0.0167825071277,0.573950283545,0.818875315753,0.00224414133781,0.0,0.818835639636,-0.573890161434,-0.0117908766869,0.0,-0.00836752833619,0.00860512560078,-0.999927965547,0.0,0.655957738746,0.253451999954,0.30353864105,1.0,-0.01524,-0.0200297142857,0.763
0.46072009752,0.515161293648,-0.124067614853,-1.40687030702,0.0764254156099,1.91293430936,0.152516619025,-0.0128340604262,-0.0808189555934,0.00286487112337,-0.128115554735,-0.00836947122399,0.04673748587,-0.0148481532357,0.573939133456,0.818883052468,0.00227252484669,0.0,0.818843613981,-0.573878768283,-0.0117916096446,0.0,-0.00835195634043,0.00862867480854,-0.999927892798,0.0,0.655693783469,0.253127782306,0.303545495805,1.0,-0.01558,-0.0204765714286,0.78
0.460528108346,0.513757009018,-0.124073840407,-1.4091234828,0.0762804998078,1.91372627958,0.152215299307,-0.0127142541409,-0.079536332721,0.000402727152819,-0.135850531218,-0.0137270642068,0.0387283701128,-0.0177086595572,0.573933139405,0.81888740081,0.00221882618511,0.0,0.818847256497,-0.573872974888,-0.0118205804845,0.0,-0.00840656189778,0.00860126820245,-0.999927671335,0.0,0.655411381912,0.252779738266,0.303526184079,1.0,-0.01592,-0.0209234285714,0.797
0.460331180624,0.512363923124,-0.124076314387,-1.41140357675,0.0761400074997,1.91452581033,0.151898050569,-0.0161987806825,-0.0820800003712,0.000865576671117,-0.13378164138,-0.0107956752678,0.0513043422483,-0.00702243245559,0.573917801936,0.81889835229,0.00214292766864,0.0,0.818857130104,-0.573857847452,-0.0118709012403,0.0,-0.00849148909415,0.00856783810501,-0.999927240735,0.0,0.655123055638,0.252428599893,0.303486359071,1.0,-0.01626,-0.0213702857143,0.814
0.460155477091,0.510992691022,-0.12409277382,-1.41356584606,0.0760179000893,1.91534818436,0.151574700578,-0.00918637580455,-0.0861406048226,-0.00142852540072,-0.130951323371,-0.00487137628439,0.054216663073,-0.0209709654552,0.573888983926,0.818918477471,0.00216985827704,0.0,0.81887758387,-0.573828903423,-0.0118591371097,0.0,-0.00846670212056,0.00858284169567,-0.999927322251,0.0,0.6548627644,0.252101371166,0.30348926523,1.0,-0.01658,-0.0217908571429,0.83
0.45995918812,0.509519868654,-0.124100014766,-1.41591839198,0.0758628621537,1.91623144027,0.151252105729,-0.00862730473658,-0.0872033153164,-0.0050530849244,-0.14434165154,-0.0131667962401,0.0473781865822,-0.0254307640334,0.573873902351,0.818929072006,0.0021601217395,0.0,0.818888094102,-0.573813905403,-0.0118590980126,0.0,-0.00847241535902,0.00857468991847,-0.999927343796,0.0,0.654555802488,0.251726911076,0.303474032357,1.0,-0.01694,-0.022264,0.848
0.459748514969,0.508021601341,-0.12409717693,-1.41830504141,0.0757040179624,1.91707938397,0.150914932537,-0.0189145589259,-0.0878475933426,-0.00131628597119,-0.147190225616,-0.0110488212408,0.0568734721202,-0.0223633280539,0.573846570896,0.818948321759,0.00212279544166,0.0,0.818906920265,-0.57378678929,-0.0118711111186,0.0,-0.00850395827476,0.00855073291373,-0.999927281186,0.0,0.65427510308,0.251375997421,0.303462901175,1.0,-0.01726,-0.0226845714286,0.864
0.459547898654,0.506572606849,-0.124103180343,-1.42057562534,0.0755763854458,1.91790843105,0.150609514708,-0.0125393945585,-0.0931231359312,-0.00174250124085,-0.144720994173,-0.00347264076784,0.0548539569865,-0.014325108263,0.573848195516,0.818947154236,0.00213400392565,0.0,0.818905767194,-0.573788236399,-0.0118807040293,0.0,-0.00850536616083,0.00856543360176,-0.999927143393,0.0,0.653993843525,0.251026549724,0.303467497361,1.0,-0.01758,-0.0231051428571,0.88
0.459273558138,0.504565739155,-0.124104045073,-1.42362544466,0.0753718687428,1.91908397802,0.150192413501,-0.0183419565998,-0.101511116831,0.000269739782415,-0.149617030057,-0.00704114837743,0.054230281343,-0.0217133565756,0.573833930906,0.818956878263,0.00223566259047,0.0,0.81891699421,-0.573773755596,-0.0118059681712,0.0,-0.00838597577358,0.00860565289795,-0.999927806468,0.0,0.653630026088,0.250557962469,0.303520250183,1.0,-0.018,-0.0236571428571,0.901
0.459069298473,0.503105986342,-0.124107225599,-1.42580060823,0.0752373537963,1.91989937235,0.149884489803,-0.0123514832366,-0.0962180423978,-0.000472495599162,-0.150675611385,-0.0139704784409,0.0563953381774,-0.0251399139302,0.57382666264,0.818961735183,0.00232044201375,0.0,0.818922963103,-0.573766174429,-0.0117602927211,0.0,-0.00829999839664,0.00864879928964,-0.999928151568,0.0,0.653367822853,0.250217379579,0.303575216402,1.0,-0.0183,-0.0240514285714,0.916
0.458840372783,0.501400382101,-0.124118435802,-1.42831879644,0.0750792198487,1.92081660645,0.14952736772,-0.0125142410589,-0.098609457331,-0.00148568424465,-0.155648977261,-0.00540749703431,0.0506514622377,-0.0211846687331,0.57381561181,0.818969225989,0.00240778492984,0.0,0.818931617985,-0.573754831219,-0.0117109187377,0.0,-0.00820956187772,0.00869188655444,-0.999928524547,0.0,0.653058227699,0.249821754561,0.30364703438,1.0,-0.01864,-0.0244982857143,0.933
0.458616788483,0.49979075581,-0.12411174688,-1.43076240637,0.0749264818086,1.9216862869,0.149183097403,-0.00963144070447,-0.0981832034229,0.000250233723088,-0.152329060371,-0.00579080835824,0.0608695579274,-0.0195842240733,0.573795039315,0.818983542281,0.00244074403228,0.0,0.818946267752,-0.573734040576,-0.011705046774,0.0,-0.00818606034089,0.00871530378624,-0.999928513393,0.0,0.652747826182,0.249445463396,0.303682124885,1.0,-0.01896,-0.0249188571429,0.949
0.458379499462,0.49821547904,-0.124114567065,-1.43323400347,0.0747693299226,1.92261776008,0.14883705298,-0.0136487218474,-0.099014877292,-0.000582317856139,-0.157295484014,-0.00279533877764,0.0646326868588,-0.0127234402546,0.573791259809,0.818986115114,0.00246583019799,0.0,0.818949200139,-0.573730206778,-0.0116877852108,0.0,-0.00815756959323,0.00872590666956,-0.99992865376,0.0,0.652446877201,0.249054403321,0.303685109281,1.0,-0.01928,-0.0253394285714,0.965
0.458113952246,0.49652993469,-0.124111783331,-1.43590937494,0.074607237025,1.92356692302,0.148435854839,-0.0210362139879,-0.102836398005,0.000489525607046,-0.154038030714,-0.00564913609962,0.052951338506,-0.0262707665062,0.573769736268,0.819001288234,0.00243444338959,0.0,0.818963815557,-0.573708639973,-0.0117222920501,0.0,-0.00820406903774,0.00871978534805,-0.999928326729,0.0,0.652107982157,0.248626091514,0.303668769352,1.0,-0.01962,-0.0257862857143,0.982
0.457863171397,0.494977630555,-0.124116699279,-1.43847506421,0.0744449748791,1.92445233884,0.148068248937,-0.0166283495159,-0.0927009517771,0.000419525975306,-0.162576821092,-0.00937902610407,0.0534236526089,-0.0249441274199,0.573762932905,0.819006379404,0.00232254608483,0.0,0.818967349263,-0.573702147379,-0.0117929570179,0.0,-0.00832621765897,0.00866861791464,-0.999927761972,0.0,0.65177623379,0.248210010996,0.303606022559,1.0,-0.01994,-0.0262068571429,0.998
0.457583544055,0.493233843723,-0.12412236432,-1.44126484535,0.0742664734293,1.92546857544,0.147675938801,-0.020906954375,-0.110498830042,0.000577910685306,-0.16529342917,-0.0157257074609,0.06342897361,-0.0280218402378,0.573766603036,0.819003895165,0.00229169073512,0.0,0.818964458558,-0.573705929892,-0.0118096793897,0.0,-0.00835757776586,0.0086529794851,-0.999927635802,0.0,0.651428278744,0.247756951887,0.303580629564,1.0,-0.021548,-0.0283202285714,1.015
0.457294018582,0.49133107737,-0.124127651109,-1.4443023433,0.0740752977081,1.92657833512,0.147244669225,-0.0135535058316,-0.122663490735,0.000206788925594,-0.185390114954,-0.0143872089634,0.057014914084,-0.0317909673769,0.57375463687,0.819012348213,0.00226650513779,0.0,0.818972548098,-0.573694025567,-0.0118269773181,0.0,-0.00838632147179,0.00864215495267,-0.999927488756,0.0,0.651044574234,0.247274854018,0.303555330773,1.0,-0.023452,-0.0308226285714,1.032
0.456924843441,0.489031155275,-0.124142536617,-1.44801729611,0.0738473710176,1.92788285011,0.14671301363,-0.0210691907725,-0.129121809099,-0.00308316862256,-0.198338363871,-0.0139858006074,0.0779308949404,-0.0311426663207,0.573755481576,0.819012014952,0.00217108890436,0.0,0.818970825925,-0.573695097256,-0.0118940560284,0.0,-0.00849599530787,0.00860250394247,-0.999926904823,0.0,0.650567102426,0.246667840431,0.303500101537,1.0,-0.02558,-0.0336194285714,1.051
0.456581204004,0.486896242513,-0.12416249534,-1.451330968,0.0736484294628,1.9291483449,0.146226587939,-0.0201207804887,-0.135850433686,0.000174688858367,-0.212141817799,-0.010464851908,0.0801990139721,-0.028439706884,0.573763792245,0.819006001532,0.00224211160899,0.0,0.81896576541,-0.573703153249,-0.011853857583,0.0,-0.00842223615595,0.00863769323192,-0.999927225449,0.0,0.65016657612,0.246121845995,0.303516624867,1.0,-0.027372,-0.0359746285714,1.067
0.456179735287,0.484460750321,-0.124184073726,-1.45505100013,0.073417486709,1.93053701437,0.145654092436,-0.0214112229816,-0.146321177397,-0.000397719110946,-0.227168396876,-0.0108802944439,0.0825959864765,-0.0374330545449,0.573760293699,0.819008216922,0.00232656190973,0.0,0.818969128893,-0.573699378505,-0.0118040638912,0.0,-0.00833303863508,0.00867825262881,-0.99992762158,0.0,0.6497132866,0.245496664457,0.303557903746,1.0,-0.029276,-0.0384770285714,1.084
0.455804327252,0.482184065388,-0.124220599502,-1.45860096441,0.0731985953897,1.93172881452,0.145126886611,-0.0258590767577,-0.148479148536,-0.000211025692327,-0.244127378044,-0.0143321744063,0.0787476861852,-0.039099315486,0.573776577448,0.818997006908,0.00225582545137,0.0,0.81895688731,-0.573715819336,-0.0118542090527,0.0,-0.00841452099195,0.00864925781362,-0.999927190437,0.0,0.64925200603,0.244886903383,0.303552115975,1.0,-0.030956,-0.0406850285714,1.099
0.455356167954,0.479432784566,-0.124247790603,-1.46285065696,0.0729384737952,1.93327771365,0.144496322621,-0.0243647586679,-0.166029667229,-0.00302289601639,-0.24767266304,-0.0107900482957,0.0876777602608,-0.0411706222396,0.573783696967,0.818991905104,0.00229681747361,0.0,0.818952280898,-0.573722738574,-0.0118375570484,0.0,-0.00837728827665,0.00867334814395,-0.999927294393,0.0,0.648717935871,0.2441764762,0.303571549877,1.0,-0.03286,-0.0431874285714,1.116
0.454872268374,0.476548026708,-0.124263116786,-1.46725478108,0.072659733942,1.93490294544,0.143868516918,-0.0261439772219,-0.164888199185,-0.000394937383803,-0.263345575701,-0.0152340113786,0.102356556772,-0.0348446863135,0.573814689085,0.818969946652,0.0023824297398,0.0,0.818931456551,-0.573753419929,-0.0117910767909,0.0,-0.00828976992325,0.00871710755105,-0.999927643258,0.0,0.648168334078,0.243435917456,0.303614248924,1.0,-0.034764,-0.0456898285714,1.133
0.454387362656,0.473700532505,-0.124285609364,-1.47165225924,0.0724004165236,1.93650068261,0.143231964859,-0.0289744527785,-0.173739928716,0.000446374349907,-0.281039823971,-0.0178327834519,0.0959354868463,-0.0453772416496,0.573847169275,0.818947051088,0.00242914191904,0.0,0.818908999355,-0.573785541488,-0.0117877078327,0.0,-0.00825986108526,0.00875375748722,-0.999927570589,0.0,0.647573070567,0.242649110694,0.303632447189,1.0,-0.036668,-0.0481922285714,1.15
0.453820037463,0.470323747937,-0.124286484509,-1.47682961937,0.0720698860088,1.93830876437,0.142441973097,-0.0316396137177,-0.193460005126,-0.000143588397954,-0.288929242459,-0.0140215395825,0.109214742368,-0.045456202233,0.573823666559,0.818963493638,0.00243776258511,0.0,0.818925354927,-0.573761798192,-0.0118071543895,0.0,-0.00827109260854,0.00877173909682,-0.999927320169,0.0,0.646931715986,0.241826955759,0.303656430845,1.0,-0.038572,-0.0506946285714,1.167
0.453300092126,0.467162715603,-0.124287524583,-1.48157904566,0.0717639572407,1.94014841321,0.141679258054,-0.034791945146,-0.201380016444,0.000637553261255,-0.302100948188,-0.0117297747698,0.115265574883,-0.0420042275443,0.573767982183,0.819001861621,0.00264578628789,0.0,0.818966556204,-0.57370550202,-0.0116843345386,0.0,-0.00805174460941,0.00887107833175,-0.999928234114,0.0,0.646342232068,0.241045828597,0.303737238401,1.0,-0.040364,-0.0530498285714,1.183
0.452712227222,0.463670781895,-0.12429615684,-1.48696017631,0.0714009723438,1.94197943872,0.140858392899,-0.0342062222045,-0.200793910284,-0.00243682365982,-0.325672047378,-0.0265351546536,0.105855898117,-0.0401355752004,0.573736356289,0.819024196178,0.00258968104434,0.0,0.818988051939,-0.573673959306,-0.0117262993653,0.0,-0.00811864664286,0.00884889247285,-0.999927889739,0.0,0.645618506338,0.240137882744,0.303742716991,1.0,-0.042268,-0.0555522285714,1.2
0.452078991495,0.460088378616,-0.124299911202,-1.49256174906,0.0710140028251,1.94394586341,0.140030057486,-0.0388104300645,-0.218773571021,-0.00109528357378,-0.332892406991,-0.0243246370925,0.11384039753,-0.0473790749103,0.573733855082,0.819026135276,0.00252985542153,0.0,0.818989223648,-0.573671686829,-0.011755602132,0.0,-0.00817699638747,0.00881668100609,-0.999927698819,0.0,0.644874823433,0.23918478143,0.303714460615,1.0,-0.044172,-0.0580546285714,1.217
0.45141353797,0.456400976421,-0.124303919092,-1.49834640427,0.0706349145119,1.94601638234,0.13913709797,-0.0391630092444,-0.216064838902,-0.000891815220007,-0.348090968155,-0.0182948338812,0.125430795065,-0.0632799249949,0.573714031544,0.819040108073,0.00250165519479,0.0,0.819002713642,-0.573651845083,-0.0117839968046,0.0,-0.00821664509401,0.00880967632119,-0.99992743554,0.0,0.644110389384,0.238199620077,0.303677370992,1.0,-0.046076,-0.0605570285714,1.234
0.450733296313,0.452764687591,-0.124350330841,-1.50398233438,0.0702374160202,1.94797872655,0.138240596366,-0.036985540931,-0.232969772756,-0.00701740039543,-0.352076229427,-0.0309022651661,0.122294170591,-0.0519600659465,0.573718901422,0.819036869165,0.0024445860038,0.0,0.818998946563,-0.573657155802,-0.0117872824481,0.0,-0.00825202353526,0.00876486884968,-0.999927537965,0.0,0.643368282992,0.237187843071,0.303664408772,1.0,-0.047868,-0.0629122285714,1.25
0.449948872759,0.448441673687,-0.124404947911,-1.51047647085,0.0698067839078,1.95036431849,0.137260134797,-0.0469049062547,-0.245535724716,-0.000203142799999,-0.365540718882,-0.0226276075773,0.118139518135,-0.0535242052032,0.573774873656,0.818997150766,0.00260927196128,0.0,0.818961616356,-0.573712790406,-0.0116727015405,0.0,-0.00806309184507,0.00883456652731,-0.999928465934,0.0,0.642533565586,0.236036116907,0.303747098987,1.0,-0.049884,-0.0655618285714,1.268
0.449212874808,0.444484001483,-0.124417768806,-1.51657904178,0.0693952856023,1.95236926822,0.136348600432,-0.0490281751547,-0.24969767634,0.000333062351099,-0.384188227004,-0.0224219531503,0.132228334682,-0.0637193134854,0.573799914885,0.81897998179,0.00248877599555,0.0,0.818942596201,-0.573737954239,-0.0117699147978,0.0,-0.0082115774568,0.00879191005583,-0.999927633538,0.0,0.641683572455,0.23496110168,0.30372780739,1.0,-0.051676,-0.0679170285714,1.284
0.448416496116,0.440219246641,-0.124428058482,-1.52316884265,0.0689275965285,1.95467621985,0.135266424703,-0.0474645173141,-0.256960917583,0.00220554279442,-0.391958611258,-0.0311869332702,0.141626064823,-0.064694832993,0.573735979743,0.819024878861,0.00245362085529,0.0,0.818987106979,-0.573674233494,-0.0117787660008,0.0,-0.00823968197293,0.00876755450014,-0.999927616195,0.0,0.640787278581,0.233808095776,0.303708952329,1.0,-0.05358,-0.0704194285714,1.301
0.447613691707,0.436083869914,-0.124439813576,-1.52951893119,0.0685222613691,1.95695856832,0.134246267216,-0.0500875630464,-0.267621249643,-0.00122687351835,-0.39216081632,-0.0268878359745,0.138688633263,-0.0624214920755,0.573729828659,0.81902893686,0.00253598011754,0.0,0.818992049243,-0.573667578464,-0.0117592345234,0.0,-0.00817650119991,0.00882374104593,-0.999927640593,0.0,0.639886663901,0.232614295035,0.303720485724,1.0,-0.055484,-0.0729218285714,1.318
0.446703163498,0.43150947547,-0.124475863929,-1.53637093386,0.0680242771812,1.95945921475,0.133134535786,-0.0573616393345,-0.262159579425,-0.00625733097481,-0.412616079612,-0.0284888907194,0.140914225097,-0.0614752476831,0.573755231665,0.819010713733,0.00267054850668,0.0,0.818976009451,-0.573692975995,-0.011636672127,0.0,-0.00799863822245,0.00886388732839,-0.999928724104,0.0,0.639036604337,0.231428869624,0.303785061625,1.0,-0.057276,-0.0752770285714,1.334
0.445775077435,0.426841787769,-0.124520981491,-1.54366942269,0.0674954919116,1.96179460505,0.131972806946,-0.0553679741541,-0.283457820557,-0.00335418088336,-0.431474649153,-0.0238995433546,0.143291702528,-0.0736377026923,0.573761265134,0.819007331324,0.00239765937397,0.0,0.818968961738,-0.573699863509,-0.0117920829941,0.0,-0.00828242503047,0.00872961713752,-0.999927594989,0.0,0.637990226773,0.230091820171,0.303693493614,1.0,-0.05918,-0.0777794285714,1.351
0.444803478876,0.422004746589,-0.124572949692,-1.55102395036,0.0669609268393,1.96428339218,0.130750239304,-0.0541867568493,-0.28765080184,-0.00396957054375,-0.441265846499,-0.0270613010401,0.147225749991,-0.0739321828453,0.573755326208,0.819011641288,0.00234605697314,0.0,0.818972761319,-0.573694289745,-0.011799365812,0.0,-0.00831805861934,0.0086914730758,-0.99992763148,0.0,0.636966652457,0.228729590848,0.303697831145,1.0,-0.061084,-0.0802818285714,1.368
0.443774775964,0.417021245651,-0.124588656135,-1.55842260045,0.0664539175828,1.96697581029,0.129573970399,-0.0628552234571,-0.299777667662,-0.00156814404968,-0.431052536191,-0.0333964249125,0.164112695703,-0.0749507349395,0.573814513453,0.818969500068,0.00257079947823,0.0,0.81893363956,-0.573752750209,-0.0116714405974,0.0,-0.00808370623662,0.00880272566071,-0.999928580307,0.0,0.635970504763,0.227368463358,0.303790828011,1.0,-0.062988,-0.0827842285714,1.385
0.442651287722,0.411665196946,-0.124602004857,-1.56653648584,0.0658872377148,1.96982472774,0.128169428187,-0.0593393127145,-0.296870409747,-0.00258276736954,-0.469176948927,-0.0377278346562,0.150431682089,-0.0765753730276,0.573770126518,0.819000387599,0.00263703043258,0.0,0.818965335238,-0.573708080714,-0.0116432256695,0.0,-0.00802307513698,0.00884034178167,-0.999928736772,0.0,0.63484141894,0.225874316665,0.303803463953,1.0,-0.065004,-0.0854338285714,1.403
0.441555711321,0.406476596091,-0.124647340912,-1.57452132664,0.0653229468408,1.97236352539,0.126890997676,-0.0619892425342,-0.307178497543,-0.00144273366524,-0.476770578308,-0.0370107506793,0.149491075173,-0.0788902585714,0.573818713098,0.818967043313,0.00241109245502,0.0,0.818928692652,-0.573757089074,-0.0118044902776,0.0,-0.00828426660975,0.00874831864414,-0.99992741629,0.0,0.633667899359,0.224375764677,0.303731896097,1.0,-0.066908,-0.0879362285714,1.42
0.440407801187,0.401169980774,-0.12468584265,-1.58253631297,0.0647769289888,1.97513184353,0.125526582472,-0.0684422067377,-0.324242567198,-0.000959989485748,-0.466826747971,-0.0297846259258,0.162914596559,-0.0761912021272,0.573838135388,0.818953292469,0.00245886772771,0.0,0.818915377701,-0.57377613186,-0.0118026087719,0.0,-0.00825510463623,0.00878656077284,-0.999927322158,0.0,0.632533545692,0.222866113862,0.303738109566,1.0,-0.068812,-0.0904386285714,1.437
0.439350548996,0.396310865863,-0.124695402064,-1.58959078777,0.0642485502402,1.9777088252,0.124299147136,-0.0723322391667,-0.321234016128,4.78060237938e-05,-0.475747285194,-0.039449912021,0.162544830679,-0.0860218550734,0.573834236615,0.818955083399,0.00275448089615,0.0,0.818921453136,-0.57377166944,-0.0115961994832,0.0,-0.00791647582937,0.00891017132462,-0.999928966606,0.0,0.631566257507,0.221528434468,0.303874798216,1.0,-0.070492,-0.0926466285714,1.452
0.4381254837,0.390768119973,-0.124712854194,-1.59800724227,0.0636194492689,1.98042217832,0.122900181513,-0.069184439762,-0.327951160708,-0.00171688877424,-0.492451885828,-0.0359329981015,0.155285857306,-0.088701885684,0.573851467241,0.818943511282,0.00260111055023,0.0,0.81890769649,-0.573789212279,-0.0116992051891,0.0,-0.00808865473476,0.00884384578375,-0.999928177449,0.0,0.630313822171,0.219930155104,0.303829915015,1.0,-0.072396,-0.0951490285714,1.469
0.436874728317,0.385131297293,-0.124721739188,-1.60659808933,0.0629690437331,1.98321549659,0.121364502992,-0.0732908002315,-0.324240155105,0.000289311269925,-0.499278858284,-0.0362693615257,0.169843815853,-0.0919815399165,0.57376582425,0.819003996862,0.00244518894019,0.0,0.818965981489,-0.573703963574,-0.0117995866256,0.0,-0.00826125307572,0.00877289501179,-0.999927391369,0.0,0.629024927305,0.218307681397,0.303764378204,1.0,-0.0743,-0.0976514285714,1.486
0.435658344826,0.379612381878,-0.124719977218,-1.6145964074,0.0624146400638,1.98603373796,0.119959465773,-0.0829570994621,-0.348933893272,-0.000644332096253,-0.50633272906,-0.042379825816,0.170121397188,-0.0804309639841,0.573753665602,0.819011590298,0.00273734673496,0.0,0.818977247194,-0.573690616487,-0.0116658490683,0.0,-0.00798422918286,0.00893532039153,-0.99992820349,0.0,0.62787086,0.216798204046,0.303894042752,1.0,-0.076092,-0.100006628571,1.502
0.434279044884,0.373784429785,-0.124743429767,-1.62342521389,0.0617269474899,1.9889423415,0.118364646008,-0.0839221278365,-0.346542042954,-0.00255656044708,-0.527461178869,-0.0422844458224,0.172822865374,-0.091317785453,0.57372156071,0.81903444244,0.00262674201908,0.0,0.818998721468,-0.57365896904,-0.0117144515503,0.0,-0.00808784089143,0.0088723026009,-0.999927931941,0.0,0.626552075466,0.215071314232,0.303837235825,1.0,-0.077996,-0.102509028571,1.519
0.432852845212,0.367773633502,-0.124808100963,-1.63243188205,0.0610314743386,1.99179385374,0.116847583998,-0.0844802718369,-0.353495573541,-0.00216934114663,-0.528283674105,-0.0481016639663,0.178502897343,-0.0887884931387,0.573820114946,0.818965866968,0.00247615140957,0.0,0.818928141823,-0.573758011285,-0.0117978776967,0.0,-0.00824150610238,0.00879781899402,-0.999927335339,0.0,0.625182307242,0.213273091734,0.303804552185,1.0,-0.0799,-0.105011428571,1.536
0.431382604008,0.3616135973,-0.124843791168,-1.64135437565,0.0603208421331,1.99490019123,0.115179303841,-0.0898953670749,-0.3620615024,-0.00287455403693,-0.53682687606,-0.0440900985688,0.183615995559,-0.0991695472122,0.573795042008,0.818982654395,0.00272185029327,0.0,0.818948712685,-0.573732714767,-0.0115984869087,0.0,-0.00793749785894,0.00888438112868,-0.999929029431,0.0,0.623880201345,0.211493612403,0.303921530746,1.0,-0.081804,-0.107513828571,1.553
0.429829018513,0.35545410681,-0.124864371548,-1.65061421576,0.0596516108393,1.9978400895,0.113453813707,-0.092286661691,-0.366914044007,-0.00541484005572,-0.545000770542,-0.0365760485601,0.170694256748,-0.0972104745021,0.573799176547,0.81898016781,0.00259550165974,0.0,0.818943951683,-0.573736589705,-0.0117420840437,0.0,-0.00812755617038,0.00886333918781,-0.99992768941,0.0,0.622449027474,0.209635182733,0.303855256743,1.0,-0.083708,-0.110016228571,1.57
0.428147517479,0.348792296946,-0.12493350966,-1.66057394286,0.0588920280514,2.0010163329,0.111609536265,-0.0928315295771,-0.37828716668,-0.00497057523851,-0.546956069505,-0.0404949161114,0.185448461104,-0.104609740131,0.573836453029,0.818954425644,0.00247402375881,0.0,0.818916413671,-0.573774078868,-0.0118305004322,0.0,-0.0082692691923,0.0088149607848,-0.999926955159,0.0,0.62090895886,0.20760365488,0.303799539586,1.0,-0.085724,-0.112665828571,1.588
0.426604526528,0.342648171648,-0.124946853393,-1.66933153683,0.0582240898053,2.00400463096,0.109980162908,-0.0972828177753,-0.379969756826,0.000584308082198,-0.558695976213,-0.0489595040178,0.177220264547,-0.0991952665612,0.573873092771,0.818927780974,0.00277666050446,0.0,0.818893863763,-0.573809798192,-0.0116577137948,0.0,-0.00795370381893,0.00896401110389,-0.999928189972,0.0,0.61959048871,0.205825938692,0.303943050714,1.0,-0.087516,-0.115021028571,1.604
0.424823673327,0.335758507465,-0.124951662703,-1.67958648992,0.057390361298,2.00716178829,0.107994398044,-0.0965712686815,-0.386953049396,0.00273530411813,-0.57269336314,-0.049775198753,0.174377190233,-0.10923453644,0.573795109702,0.818983075661,0.00257696789677,0.0,0.818946276009,-0.573732218554,-0.0117934433444,0.0,-0.0081802984904,0.00887758930113,-0.999927132908,0.0,0.617945674834,0.203742464353,0.303871306115,1.0,-0.089532,-0.117670628571,1.622
0.423304056673,0.329873867362,-0.124947972211,-1.68815504535,0.0566700202847,2.00987644279,0.106342796547,-0.106531058793,-0.393970376112,0.000894911115191,-0.562223341607,-0.0471652386023,0.186684665068,-0.119169822131,0.57374103345,0.819020983114,0.00256956345584,0.0,0.818984208192,-0.573678307862,-0.01178188111,0.0,-0.0081756624412,0.00886435120256,-0.999927288267,0.0,0.616581175478,0.201995033219,0.303891102147,1.0,-0.091212,-0.119878628571,1.637
0.421639106843,0.323509214653,-0.124947268061,-1.69731040228,0.0559614907588,2.01294150165,0.104529985243,-0.107671078095,-0.393807316051,-0.00161546423665,-0.578987029161,-0.0516312731421,0.180422269689,-0.111113576133,0.573695659507,0.819052039812,0.00279163831806,0.0,0.819018137026,-0.573632133292,-0.0116710658452,0.0,-0.00795799005949,0.0089822151672,-0.99992799251,0.0,0.615149862587,0.200125993274,0.303966383807,1.0,-0.093004,-0.122233828571,1.653
0.419670817189,0.316285615944,-0.124988314309,-1.70791598912,0.0550985295349,2.01617656356,0.102493976043,-0.108659244231,-0.396667998684,-0.00110103004209,-0.602431011513,-0.0427747731982,0.180571134046,-0.12176149561,0.573735026523,0.819024946483,0.00264637095598,0.0,0.818988868937,-0.573671690923,-0.0117800887886,0.0,-0.00813019501999,0.00892616976604,-0.999927109055,0.0,0.613421897662,0.197893922581,0.303918208384,1.0,-0.09502,-0.124883428571,1.671
0.417876263194,0.309701573676,-0.125034770176,-1.71729284799,0.0542890153475,2.01917525771,0.10053039573,-0.111320030408,-0.415565352085,-1.93736512582e-05,-0.5805981635,-0.0511628838813,0.196562571099,-0.122296443711,0.573664114283,0.819074205501,0.00277069797228,0.0,0.819040238113,-0.573600897637,-0.0116552770666,0.0,-0.00795741516413,0.00895569974705,-0.999928234918,0.0,0.611924277612,0.195892158338,0.304002576039,1.0,-0.096812,-0.127238628571,1.687
0.415634358783,0.301847545973,-0.125053471417,-1.72867614544,0.0533500762473,2.02269373972,0.0981822533458,-0.118990866066,-0.407004551085,-0.00396783502286,-0.603112090568,-0.0537657845463,0.185113862713,-0.125844114902,0.573634871302,0.819094785972,0.00274097098077,0.0,0.819060218034,-0.573571520687,-0.0116968710187,0.0,-0.00800885736533,0.00895492580067,-0.99992783115,0.0,0.610058598873,0.193453455823,0.303989998299,1.0,-0.09894,-0.130035428571,1.706
0.413669171867,0.295203840954,-0.125136874264,-1.7384112502,0.0525671307456,2.02557725848,0.0962757338176,-0.127757076269,-0.414794944259,-0.00923088229654,-0.594209740323,-0.0448269899126,0.181573691281,-0.122762950759,0.573783017436,0.818991605617,0.00255846286155,0.0,0.818954167415,-0.573719766547,-0.0118510779459,0.0,-0.00823825125145,0.00889538235001,-0.999926498993,0.0,0.608436908885,0.19130299172,0.303910547095,1.0,-0.100732,-0.132390628571,1.722
0.411549844181,0.287914935336,-0.125194258457,-1.74859207544,0.0517123920593,2.02892302148,0.0940702580125,-0.128913844482,-0.413760257031,-0.000856255358476,-0.612382289741,-0.0533546613628,0.190607609318,-0.120330249809,0.573773389631,0.818997202537,0.00290284142213,0.0,0.818964784932,-0.573709525756,-0.0116106846768,0.0,-0.00784388151327,0.00903940084042,-0.999928378813,0.0,0.606805651362,0.189058969208,0.304058530561,1.0,-0.102636,-0.134893028571,1.739
0.409351607536,0.280632950194,-0.125234365311,-1.7591977547,0.0507828341889,2.03194813592,0.09182684429,-0.128287374123,-0.432266950693,-0.00036794241744,-0.638206359447,-0.0610781550617,0.178537258747,-0.133863484392,0.573758484098,0.819008585315,0.00262412034536,0.0,0.818972169975,-0.573695174091,-0.0117974120657,0.0,-0.00815689363345,0.00891811849805,-0.999926963457,0.0,0.604979090469,0.186714485011,0.303961319261,1.0,-0.10454,-0.137395428571,1.756
0.40680965827,0.272282986803,-0.125291450211,-1.77093064223,0.0497722008713,2.03558597073,0.0893051997149,-0.132244924193,-0.434217680284,-0.00329326700552,-0.612819428448,-0.0493749410267,0.197097211474,-0.135658207301,0.573805764286,0.818974870824,0.00280227271237,0.0,0.818941016407,-0.573742085884,-0.0116780749102,0.0,-0.00795642128559,0.00899601596372,-0.999927880928,0.0,0.603022191216,0.184081422404,0.304047272374,1.0,-0.106668,-0.140192228571,1.775
0.404864659021,0.266131241738,-0.125356673228,-1.77967368338,0.0490209158308,2.03823308996,0.087380733514,-0.13859551885,-0.434011232511,-0.00538388184131,-0.635690005239,-0.0455650809289,0.185423418351,-0.130639566511,0.573856047589,0.818939554572,0.00282657105044,0.0,0.818906020208,-0.57379228445,-0.0116658164951,0.0,-0.00793188661743,0.0090093688538,-0.999927955629,0.0,0.601544863487,0.182080429643,0.30405000195,1.0,-0.108236,-0.142253028571,1.789
0.402016209327,0.257212732737,-0.12547183772,-1.7923808157,0.047868145985,2.0418439549,0.0845974894223,-0.136739966414,-0.456943007731,-0.00416850243353,-0.618998286502,-0.0584197510157,0.185784297644,-0.143403406521,0.57393823197,0.818882620317,0.00262810335315,0.0,0.818846465488,-0.573875112632,-0.0117714892908,0.0,-0.00813142144273,0.0089082924051,-0.99992725851,0.0,0.59933170608,0.179140090382,0.304001567389,1.0,-0.110476,-0.145197028571,1.809
0.400131674851,0.251286593726,-0.125457522412,-1.80053371846,0.0471387889931,2.04434342662,0.0827716350615,-0.150487700026,-0.446566530127,0.00349943540406,-0.626093316106,-0.0544323866559,0.197529588683,-0.146495870135,0.573931870256,0.818886392963,0.00283383569518,0.0,0.818853114786,-0.573868256705,-0.0116424762177,0.0,-0.00790776925399,0.0090026566649,-0.999928207102,0.0,0.597931958478,0.177293837256,0.304099971703,1.0,-0.111932,-0.147110628571,1.822
0.397188085536,0.242225103963,-0.125470541151,-1.81349543418,0.0460139667332,2.04801488853,0.0797894093942,-0.147947378977,-0.452092183594,-0.00107647033256,-0.655752299319,-0.0568220194713,0.18156726795,-0.149952626433,0.573842102367,0.81894993532,0.00264421852146,0.0,0.818913329029,-0.573778211746,-0.0118435706746,0.0,-0.00818225399697,0.00896189783185,-0.999926364842,0.0,0.595604288056,0.17436903131,0.303989035563,1.0,-0.114172,-0.150054628571,1.842
0.394896633099,0.23518728651,-0.125474136119,-1.82301971723,0.0451680957462,2.05086055061,0.0775472759067,-0.152167381976,-0.47772641054,-0.00145395313257,-0.640687179607,-0.0616570029211,0.197054584874,-0.146652191808,0.573818105421,0.81896577279,0.0029311757202,0.0,0.818933038569,-0.57375335116,-0.0116840606758,0.0,-0.00788722574191,0.00910513750184,-0.999927441438,0.0,0.593935438659,0.172168142694,0.304139253269,1.0,-0.115852,-0.152262628571,1.857
0.392099770082,0.22680074907,-0.12545596469,-1.83476832854,0.0440597470452,2.05417951871,0.0747723608034,-0.16377222753,-0.466249777379,-0.00207545612299,-0.661005616073,-0.0622568420304,0.186201200783,-0.164241592845,0.573702038855,0.819047339228,0.00285895405849,0.0,0.819013551148,-0.573637416858,-0.0117330267895,0.0,-0.00797005480024,0.00907295818964,-0.999927077169,0.0,0.59179874189,0.169476387397,0.304108223903,1.0,-0.117868,-0.154912228571,1.875
0.389631282226,0.219733954805,-0.125502005337,-1.84464147179,0.0431314279323,2.0568659874,0.0723940860432,-0.167078323881,-0.471728357903,-0.00458576036001,-0.63827133905,-0.0563005207425,0.18587490034,-0.15772927304,0.573702961575,0.81904711869,0.00273425439665,0.0,0.819011462323,-0.573638510107,-0.011825024592,0.0,-0.00811693497829,0.00902361105334,-0.999926342192,0.0,0.589991685724,0.167117121581,0.304070887127,1.0,-0.119548,-0.157120228571,1.89
0.386443228127,0.210608868601,-0.125555241351,-1.85702709586,0.0420167758108,2.06048860429,0.0693650052835,-0.171309588523,-0.480493279164,-0.00102068901065,-0.658779099888,-0.0540435788726,0.180272923553,-0.156999404737,0.573745846255,0.819016072194,0.00302064470051,0.0,0.818984234706,-0.573680490519,-0.0116732601207,0.0,-0.0078278534307,0.00917152147507,-0.99992730131,0.0,0.587768341865,0.164146357189,0.304184114676,1.0,-0.121676,-0.159917028571,1.909
0.384189503366,0.20439594279,-0.125587411302,-1.86576660711,0.041170011922,2.0627132341,0.0672031605759,-0.17620827339,-0.47791098991,1.39615799181e-05,-0.679788741103,-0.0644894029323,0.172433472655,-0.16906246518,0.573721970112,0.819033745562,0.00275164369105,0.0,0.818997882221,-0.573656969599,-0.0118700062854,0.0,-0.00814359291595,0.00906384825407,-0.999925761519,0.0,0.586108809234,0.162035418471,0.304084565422,1.0,-0.123132,-0.161830628571,1.922
0.381175455798,0.196068213479,-0.125673692387,-1.87695126368,0.0400871707659,2.06590333696,0.06431911054,-0.17995513389,-0.499211160188,-0.007136853607,-0.670991362765,-0.0587943372451,0.198575121138,-0.16524271916,0.573728959133,0.819028045044,0.00298157423287,0.0,0.818995734816,-0.573663778035,-0.0116877297083,0.0,-0.00786230864883,0.00914766170074,-0.999927249548,0.0,0.58407082424,0.159268039765,0.304198463478,1.0,-0.125036,-0.164333028571,1.939
0.378019252712,0.187782028726,-0.125770577836,-1.88837554945,0.0390239640165,2.06895202529,0.0613813610247,-0.184748777732,-0.495755210104,-0.0132914816881,-0.684042153136,-0.0597077214375,0.171865768501,-0.177802571055,0.573817844401,0.818966059991,0.00290188401204,0.0,0.818932204243,-0.573752341055,-0.0117916448681,0.0,-0.00799214806668,0.00914287853935,-0.999926263952,0.0,0.581925734387,0.156402544043,0.304144842972,1.0,-0.12694,-0.166835428571,1.956
0.374963399493,0.179830115883,-0.125908118016,-1.89908939473,0.0379930438344,2.07177643901,0.0585560540037,-0.191024304548,-0.507178024806,-0.00343006555416,-0.66394638185,-0.0712542669423,0.186749535287,-0.169700902559,0.573945545488,0.818876325373,0.00297009414269,0.0,0.818843366769,-0.573879795658,-0.0117587302025,0.0,-0.00792462133312,0.00918108947219,-0.999926451282,0.0,0.579790314383,0.153479168035,0.3042019018,1.0,-0.128844,-0.169337828571,1.973
0.371701682468,0.171350619323,-0.125924304623,-1.91054343216,0.0367983228252,2.07486932522,0.0555348684076,-0.193064590215,-0.500543364319,5.9394158325e-05,-0.684782545811,-0.0725897211952,0.175874156504,-0.192536825165,0.573901964727,0.818906884875,0.00296575253989,0.0,0.818874269366,-0.573836698866,-0.0117098636382,0.0,-0.00788758216752,0.00914906834078,-0.999927037636,0.0,0.577725413405,0.150785979198,0.304194363597,1.0,-0.130636,-0.171693028571,1.989
0.367934487676,0.161792487816,-0.125946717018,-1.9235027031,0.0355320002428,2.07811340772,0.0519573331227,-0.204468183355,-0.504261571934,-0.00217093516309,-0.673574834868,-0.0587376826334,0.173770455975,-0.188056954977,0.573818159224,0.818966062934,0.00283809933575,0.0,0.818930981678,-0.573752438751,-0.0118715279647,0.0,-0.0080941679408,0.00913648170462,-0.999925501799,0.0,0.57517691558,0.147527453658,0.304140262172,1.0,-0.132764,-0.174489828571,2.008
0.364475391053,0.153071870403,-0.125965441723,-1.9349455131,0.0343103018618,2.08121303764,0.0488024143864,-0.204729459181,-0.50444046379,0.00325470452592,-0.692048811911,-0.0738704346893,0.16847861874,-0.189226372686,0.573800991259,0.818977230338,0.00307660837106,0.0,0.818946197313,-0.573735534069,-0.0116365696817,0.0,-0.0077650755634,0.00919682901174,-0.999927558345,0.0,0.572976204571,0.144596138988,0.304256036148,1.0,-0.134668,-0.176992228571,2.025
0.360902583289,0.144371124598,-0.125999886056,-1.94675836676,0.0331452548054,2.08394247817,0.0455149100003,-0.212781013172,-0.507893362023,0.000248437223047,-0.682026663213,-0.0689496024082,0.160717265474,-0.193204509534,0.573795953678,0.818981809839,0.00278309124665,0.0,0.818945636881,-0.573730022683,-0.0119436931705,0.0,-0.00818508203302,0.00913261907788,-0.999924797023,0.0,0.570570048992,0.141571418918,0.304135763621,1.0,-0.136572,-0.179494628571,2.042
0.357027718664,0.134956795955,-0.126104866404,-1.95892770066,0.0319039579889,2.08717082982,0.0419002216686,-0.217087703951,-0.512508582892,-0.00897152920642,-0.682794511913,-0.0749110129903,0.179406603757,-0.200008528225,0.57379034304,0.818984456409,0.00313835872665,0.0,0.818953545963,-0.573723874897,-0.0116940937328,0.0,-0.00777687939849,0.00928030673683,-0.99992669534,0.0,0.568196824658,0.13834764987,0.304287880626,1.0,-0.138588,-0.182144228571,2.06
0.353683776714,0.127107406768,-0.126163502574,-1.96936893138,0.0307648204257,2.08956815078,0.0388446666209,-0.223542868126,-0.524207709426,-0.0043834230394,-0.708015167107,-0.0798456306707,0.162446061043,-0.201762600668,0.573770339368,0.818999196501,0.00294290548671,0.0,0.818965478748,-0.573704241386,-0.0118209532589,0.0,-0.00799314775407,0.00919282735427,-0.999925798004,0.0,0.566052719898,0.135580412671,0.304233189594,1.0,-0.140268,-0.184352228571,2.075
0.349748729926,0.118050489486,-0.12630173799,-1.98101752889,0.0295244411723,2.0924643799,0.0353695214683,-0.235835534469,-0.531441619487,-0.00800500478102,-0.681530780645,-0.070890734668,0.17444552993,-0.217312090002,0.573920977823,0.818892866674,0.00315135320041,0.0,0.818862372151,-0.573854744525,-0.0116573822945,0.0,-0.00773787719747,0.00927111930029,-0.999927083143,0.0,0.563722931231,0.132376873838,0.304343370812,1.0,-0.142172,-0.186854628571,2.092
0.345736738993,0.109066310013,-0.126355041042,-1.99282828157,0.0282344819166,2.09522457124,0.0316892305886,-0.240442696638,-0.537734314004,-0.00201599641864,-0.69081074624,-0.0801853060468,0.15405872688,-0.212518633336,0.573865818397,0.818931855864,0.0030634666887,0.0,0.818900077418,-0.573799717672,-0.0117172567578,0.0,-0.00783796940647,0.00923298401081,-0.999926656431,0.0,0.56128059761,0.129177538608,0.304300669132,1.0,-0.144076,-0.189357028571,2.109
0.341925572788,0.10045575508,-0.126349766699,-2.00392120711,0.0269929737058,2.09777364851,0.0282425343748,-0.238060847707,-0.544140468952,0.0016266585566,-0.679925725384,-0.0800150861702,0.16963659136,-0.220969950293,0.573786746386,0.818987199573,0.00307953068479,0.0,0.818955749267,-0.573720742747,-0.0116934591293,0.0,-0.00781015308349,0.00923172896654,-0.999926885672,0.0,0.558954022532,0.126199793757,0.304332962953,1.0,-0.145868,-0.191712228571,2.125
0.337525144107,0.0907520514099,-0.126361739064,-2.01644626111,0.0257257255438,2.10068149193,0.0242322736594,-0.248136133429,-0.541629883491,-0.000562554926761,-0.70250582107,-0.0664957805422,0.153279151699,-0.212882902064,0.573736578641,0.819021933098,0.0031872141713,0.0,0.818991095551,-0.573669280211,-0.0117426254279,0.0,-0.00778921088449,0.00934765373445,-0.999925972042,0.0,0.556311564609,0.122821453269,0.30433561341,1.0,-0.147884,-0.194361828571,2.143
0.333951846745,0.0831765663936,-0.126442668815,-2.02630741325,0.0246214477062,2.10270850677,0.0209803625757,-0.259965587648,-0.536437463225,-0.0119836209243,-0.68756635104,-0.0769186872847,0.14909207565,-0.228170163727,0.573710532918,0.819041001308,0.00296807963828,0.0,0.819006628499,-0.573643220357,-0.011930847141,0.0,-0.00806938958756,0.00927590815904,-0.999924418383,0.0,0.554175826194,0.12005833176,0.304259396955,1.0,-0.149452,-0.196422628571,2.157
0.329541510405,0.0737848058215,-0.126556829668,-2.03800266416,0.0232724211931,2.10546679654,0.0170273475287,-0.261106076033,-0.535913996641,-0.0030990055524,-0.707450437994,-0.075839602099,0.159723918111,-0.230807811253,0.573728803386,0.819027034587,0.00327470335492,0.0,0.818997745605,-0.573661714184,-0.0116480588588,0.0,-0.00766165067631,0.00936498184096,-0.999926795433,0.0,0.551722428913,0.116715471181,0.304405732839,1.0,-0.151356,-0.198925028571,2.174
0.324939613634,0.064419242856,-0.126683645048,-2.05009202789,0.0219197851584,2.10785254062,0.0129501384472,-0.277754289138,-0.547751957189,-0.00754073965814,-0.704227491656,-0.0771074558446,0.132060713951,-0.241160975226,0.573799409205,0.818978589521,0.00300912001734,0.0,0.81894476287,-0.573731944534,-0.0119112589764,0.0,-0.00802879237616,0.00929915548014,-0.999924529252,0.0,0.54905242097,0.113247510675,0.304298099926,1.0,-0.15326,-0.201427428571,2.191
0.320201248573,0.0548919595503,-0.126816583802,-2.06184562053,0.020544951439,2.11045821754,0.00877420428226,-0.283824652353,-0.561747725823,-0.00527066044785,-0.701389016351,-0.0724912904572,0.149868962626,-0.244447209427,0.573880059638,0.818921089061,0.00326709995197,0.0,0.818891465347,-0.573812686579,-0.0116839891954,0.0,-0.00769370988349,0.00938078929265,-0.999926401102,0.0,0.54652699811,0.109764748508,0.304426510983,1.0,-0.155164,-0.203929828571,2.208
0.315441271498,0.0454240491013,-0.126836436561,-2.07389039929,0.0191981515375,2.11286008003,0.00456955607907,-0.283320982214,-0.553265165625,0.0001608127168,-0.71226334061,-0.0779353538434,0.13436261918,-0.235214288973,0.573861991461,0.818934221132,0.00314692177927,0.0,0.818902078421,-0.573793885002,-0.0118621412175,0.0,-0.00790878117395,0.00938443344718,-0.999924688959,0.0,0.543817077948,0.106340951992,0.30434351752,1.0,-0.157068,-0.206432228571,2.225
0.310821391317,0.0363129462276,-0.126871871616,-2.08502907602,0.0178892993165,2.11510870704,0.000407439450145,-0.293567692034,-0.569634966933,-0.00711019943193,-0.686356467495,-0.0766768785279,0.143009711754,-0.267424688371,0.573772782323,0.818996091751,0.00330799986773,0.0,0.818966285367,-0.573704415126,-0.0117564619932,0.0,-0.00773083113837,0.00945486030715,-0.999925417152,0.0,0.541323227504,0.10307354726,0.304439575453,1.0,-0.15886,-0.208787428571,2.241
0.305762868648,0.026691736407,-0.126993560715,-2.09695663653,0.0164198182308,2.1174756362,-0.00403722210079,-0.297760541975,-0.566623375644,-0.0120132977907,-0.712456356844,-0.089149394085,0.137095718527,-0.266729076873,0.573804318213,0.818974011048,0.00330462240706,0.0,0.818944509422,-0.573736384746,-0.0117131638657,0.0,-0.00769694287034,0.00942754789154,-0.999925936463,0.0,0.538629565199,0.0994918871528,0.304437470999,1.0,-0.15998,-0.210259428571,2.258
0.300558690397,0.0170555690854,-0.127096578155,-2.10880692188,0.0149810379738,2.11962702604,-0.00859892888832,-0.31038777576,-0.584221568211,-0.00266473374473,-0.679296277882,-0.0925906011941,0.131088029144,-0.256078773368,0.573841267816,0.818948375402,0.00324109232482,0.0,0.818917742868,-0.573773173473,-0.0117823054005,0.0,-0.00778959801139,0.00941554235824,-0.999925332075,0.0,0.535895073948,0.0958803457332,0.304431845375,1.0,-0.15998,-0.210259428571,2.275
0.295273810162,0.00746392978047,-0.127223126839,-2.12051224181,0.0135685823414,2.12178080483,-0.0132270073646,-0.310727692053,-0.566956882478,-0.00241850545878,-0.68666852314,-0.0772774982579,0.123139518706,-0.266006385882,0.573906055509,0.818902868675,0.003267725068,0.0,0.818872403842,-0.573837643767,-0.0117937154245,0.0,-0.00778291358519,0.00944451641682,-0.999925110879,0.0,0.533183992729,0.0922625483772,0.304440318222,1.0,-0.15998,-0.210259428571,2.292
0.289942870843,-0.00208052285639,-0.127239097322,-2.13213044064,0.0121985583266,2.12378548879,-0.0179256804762,-0.312885216319,-0.556280245977,0.000539370286582,-0.671960146935,-0.0802759418167,0.119566353812,-0.280541592185,0.57386393174,0.818932475502,0.00324581540621,0.0,0.818900906399,-0.573794613969,-0.0119077025888,0.0,-0.00788932485452,0.00949158494617,-0.999923831283,0.0,0.530429767505,0.0887222925582,0.304422216973,1.0,-0.15998,-0.210259428571,2.309
0.284908093336,-0.011074707605,-0.127224258099,-2.14277740976,0.0108329902267,2.1257876111,-0.0223569236466,-0.319835612999,-0.54953043116,0.00190605425699,-0.67628432937,-0.084670801875,0.118916885164,-0.276247884767,0.57376115792,0.819003560167,0.00347116642461,0.0,0.818975928709,-0.573692320075,-0.0116746299104,0.0,-0.007570327693,0.00954143462415,-0.999925822831,0.0,0.527930926797,0.0854405693357,0.304526679624,1.0,-0.15998,-0.210259428571,2.325
0.27941995948,-0.0205086258365,-0.127257548729,-2.15425046786,0.00938742754448,2.1274804179,-0.0272123322386,-0.322223156015,-0.557997103598,-0.00176767966792,-0.673141106771,-0.0856217189869,0.0920620836273,-0.288120336976,0.57367300752,0.819066367317,0.00321142881214,0.0,0.819034217423,-0.573603683417,-0.0119378374248,0.0,-0.00793594652904,0.00947886768031,-0.99992358299,0.0,0.525111863456,0.0818690656139,0.304434887464,1.0,-0.15998,-0.210259428571,2.342
0.273460981154,-0.0305538455678,-0.127426049764,-2.16589781097,0.00787550905984,2.12952286214,-0.0323035363246,-0.333553086236,-0.557145198171,-0.0110971905587,-0.641852788513,-0.0803198123444,0.105057144976,-0.281446143212,0.573845430739,0.81894432972,0.00351473205407,0.0,0.81891727864,-0.573776459985,-0.0116538239929,0.0,-0.00752730748674,0.00956595263205,-0.999925913352,0.0,0.522339020169,0.0780183619242,0.304586660173,1.0,-0.15998,-0.210259428571,2.36
0.268088599212,-0.039317493049,-0.127516228515,-2.17640180291,0.00656564112867,2.13106231624,-0.0369589644887,-0.339397398838,-0.543673346809,0.00217964066157,-0.662123113301,-0.0793094560384,0.0949307262789,-0.296010096101,0.573907545664,0.818901333496,0.00338849979501,0.0,0.818871679776,-0.573837783177,-0.0118371263384,0.0,-0.00774913852756,0.009568346864,-0.999924195922,0.0,0.519730072682,0.0746120334476,0.304516530044,1.0,-0.15998,-0.210259428571,2.376
0.261723320866,-0.0497361199273,-0.127528864703,-2.18853838306,0.00502026113394,2.1329364741,-0.042512174139,-0.339345885281,-0.551911236748,-0.000281684886653,-0.62495505279,-0.0837057564634,0.107806472379,-0.288848889856,0.573862471527,0.818932377585,0.00351733103304,0.0,0.818904455054,-0.573792342512,-0.0117723433401,0.0,-0.00762268226867,0.00963624962534,-0.999924515855,0.0,0.516713278299,0.070687059856,0.304565865833,1.0,-0.15998,-0.210259428571,2.395
0.25623852793,-0.0584149874347,-0.127557510615,-2.19866647036,0.0036412236763,2.13441564035,-0.0473362734097,-0.342954230772,-0.543241834129,-0.000980284031964,-0.639789925069,-0.081346202624,0.083167344045,-0.292230504048,0.573774287512,0.818994217413,0.00350510130415,0.0,0.818966415972,-0.573704565861,-0.0117399966681,0.0,-0.00760424316691,0.00960685343804,-0.999924939109,0.0,0.514162863362,0.0673365217409,0.304565582746,1.0,-0.15998,-0.210259428571,2.411
0.250364314229,-0.0675800421854,-0.12759800527,-2.20949963994,0.00224926642704,2.13575423665,-0.0524956587289,-0.35257064324,-0.535506299765,-0.00548232977864,-0.619370116695,-0.0774326326849,0.0764498447893,-0.304453308554,0.573718818137,0.819033952553,0.0032938096229,0.0,0.819002001418,-0.573648128961,-0.0120121901736,0.0,-0.00794905691335,0.00958944084953,-0.99992242455,0.0,0.511350267194,0.0637865894636,0.304457891962,1.0,-0.15998,-0.210259428571,2.428
0.245004003925,-0.0756985531295,-0.127758506613,-2.21859307797,0.00100940870629,2.13709906613,-0.0570839791701,-0.361224466172,-0.533348309332,-0.0152428937723,-0.603033841838,-0.078118184052,0.0822381376773,-0.302835135303,0.57387512535,0.818923351703,0.00355407389316,0.0,0.818895834901,-0.573804779826,-0.0117657610309,0.0,-0.00759605811866,0.00966267993101,-0.999924463406,0.0,0.509058594429,0.0605548601689,0.304581998514,1.0,-0.15998,-0.210259428571,2.443
0.238966897953,-0.0847992240268,-0.127823184367,-2.22911974189,-0.000350999752167,2.13835184088,-0.0623681708451,-0.355219244407,-0.53925798317,-0.00367267511096,-0.623711775666,-0.0805241949698,0.0782103984771,-0.304026510202,0.573863789222,0.818931650427,0.00347134714648,0.0,0.818902003204,-0.573792408125,-0.0119385270841,0.0,-0.00778515493836,0.00969396816118,-0.999922706185,0.0,0.50628563082,0.0569996650264,0.304523695114,1.0,-0.15998,-0.210259428571,2.46
0.232877328449,-0.0939077148375,-0.127827543965,-2.23941988478,-0.00172795148296,2.13955139271,-0.0677479655958,-0.363839352588,-0.542968953998,-0.00155326846695,-0.593151430415,-0.0868256893421,0.0812347823276,-0.324408830261,0.573750260745,0.819011072666,0.00349972090348,0.0,0.818981494524,-0.573678417631,-0.0119637650117,0.0,-0.00779089166413,0.00973060729526,-0.999922305626,0.0,0.503550610575,0.0534934256,0.304541777714,1.0,-0.15998,-0.210259428571,2.477
0.226647252154,-0.102921522968,-0.127913935291,-2.24951046497,-0.00318953613808,2.14073547195,-0.0731545814241,-0.363619214648,-0.522664879432,-0.0091660432757,-0.597297538367,-0.0805295269489,0.061805269556,-0.3198280469,0.573749669479,0.819011319192,0.00353874405262,0.0,0.818982888482,-0.573678489082,-0.0118645032938,0.0,-0.00768720915546,0.00970561253229,-0.999923351013,0.0,0.50086615837,0.0499109032502,0.304579491115,1.0,-0.15998,-0.210259428571,2.494
0.220289242738,-0.111893607641,-0.128056649723,-2.25971764482,-0.00458554018726,2.1417056777,-0.0786385704348,-0.3808605908,-0.528180630628,-0.0158480694568,-0.590981802158,-0.0898153871074,0.0579422990851,-0.325752401333,0.573852977763,0.818939605685,0.00338068842177,0.0,0.818907918477,-0.573780881748,-0.012085846976,0.0,-0.00795795758869,0.00970415862958,-0.999921247007,0.0,0.498072561815,0.0462790544779,0.304499094876,1.0,-0.15998,-0.210259428571,2.511
0.213853132054,-0.120909017085,-0.128145744184,-2.26944964702,-0.00597473487453,2.1428417493,-0.0842058021947,-0.374023392784,-0.528631836169,-0.00243705506771,-0.567169514644,-0.0804667549291,0.071075957853,-0.327831294086,0.573905539803,0.818901510629,0.00367344171965,0.0,0.818874978035,-0.573834060338,-0.0117893360878,0.0,-0.00754650444784,0.00977424298336,-0.999923754316,0.0,0.495452446271,0.0426936043721,0.304644602552,1.0,-0.15998,-0.210259428571,2.528
0.206657134631,-0.130791938267,-0.128155951046,-2.28045275308,-0.00748067744008,2.14378285526,-0.0905754835493,-0.38696320166,-0.525394483603,-1.71352410299e-05,-0.580269700577,-0.0861178676029,0.0456734696498,-0.329820683882,0.573779990701,0.818989850102,0.00359090547167,0.0,0.818961251757,-0.573707548095,-0.0119525846973,0.0,-0.00772906478447,0.00979915504062,-0.999922116026,0.0,0.492366654304,0.0387735766819,0.304597189956,1.0,-0.15998,-0.210259428571,2.547
0.200454050491,-0.13908346343,-0.128227260963,-2.2895799298,-0.00881418013356,2.14456878366,-0.095996438342,-0.378970034953,-0.519688350956,-0.000286056618003,-0.554813459587,-0.0763032193274,0.0530089191776,-0.328917799945,0.573758290967,0.819005230888,0.00354996136995,0.0,0.818976011425,-0.573685890826,-0.0119807461722,0.0,-0.00777588074385,0.00978157397735,-0.999921925197,0.0,0.489795183067,0.0354066664709,0.304579757181,1.0,-0.15998,-0.210259428571,2.563
0.193358113431,-0.148429946124,-0.128392410261,-2.29954935181,-0.0102364393654,2.14550891539,-0.10216161891,-0.402255334969,-0.512578213822,-0.00816468146213,-0.551126954703,-0.0820043304017,0.0360670541059,-0.347406994012,0.573872590752,0.81892401496,0.00380186889393,0.0,0.818898849562,-0.573800290729,-0.0117748650545,0.0,-0.00746134994346,0.00987080842162,-0.999923444769,0.0,0.486994767349,0.0315818744188,0.304682295746,1.0,-0.15998,-0.210259428571,2.581
0.187762108763,-0.155629218008,-0.128486367136,-2.30742465749,-0.0113904527285,2.14597602987,-0.107072797802,-0.399484582224,-0.511888350356,-0.00593556227751,-0.563010209262,-0.0752237203893,0.0376415088946,-0.347651413265,0.573870092149,0.818926353682,0.00367307543618,0.0,0.818898718917,-0.573797202966,-0.0119333535021,0.0,-0.00766508483578,0.00985626120666,-0.999922047256,0.0,0.484695147133,0.0286075506213,0.304631397444,1.0,-0.15998,-0.210259428571,2.595
0.180978634974,-0.164310768841,-0.128501714155,-2.31669137025,-0.0127377640526,2.14657485404,-0.113006693532,-0.406221432909,-0.5112117496,-0.00223328493939,-0.529037478272,-0.0746642830411,0.0390647658237,-0.343549070412,0.573821795998,0.818960057995,0.00370361278154,0.0,0.818932746874,-0.573748708965,-0.0119298767972,0.0,-0.00764529673746,0.00987882331632,-0.9999219761,0.0,0.481982605646,0.0250985945726,0.304656227993,1.0,-0.15998,-0.210259428571,2.612
0.173661412482,-0.173455285917,-0.128546374906,-2.3263635027,-0.014084430116,2.14724791454,-0.119493309394,-0.407562913666,-0.502586915438,-0.00162998796148,-0.547522557954,-0.0755230279904,0.0200083392794,-0.353987864809,0.573765765997,0.818998542548,0.00387039730788,0.0,0.818973397033,-0.573692093378,-0.0118618653071,0.0,-0.0074945783585,0.00997587673171,-0.999922153559,0.0,0.479139660902,0.0213629714674,0.304699990353,1.0,-0.15998,-0.210259428571,2.63
0.166547394314,-0.18202202671,-0.128730221881,-2.3355210827,-0.0155153096926,2.14763817783,-0.125660549906,-0.423044078535,-0.515618229093,-0.0173862305508,-0.531475298903,-0.0868920126913,0.0255621042128,-0.362861093,0.573877850252,0.818920663426,0.00372919631143,0.0,0.818893130081,-0.573803943767,-0.0119926029591,0.0,-0.00768131070997,0.00993629374971,-0.999921130656,0.0,0.476371317813,0.0176932033485,0.304650490491,1.0,-0.15998,-0.210259428571,2.647
0.159428982695,-0.190586569523,-0.128818296828,-2.34436727409,-0.0167996169604,2.14810380805,-0.131925836434,-0.42276864479,-0.5103661216,-0.00287250689486,-0.50700100863,-0.0759012998375,0.037087082432,-0.371345065008,0.573898604536,0.818905284334,0.00390818392172,0.0,0.81888038462,-0.573824452656,-0.0118810824058,0.0,-0.00748701381416,0.0100190646641,-0.999921778424,0.0,0.473697412105,0.0141308669782,0.30472499069,1.0,-0.15998,-0.210259428571,2.664
0.153575576777,-0.197560826305,-0.128830940891,-2.35159379753,-0.0179281587125,2.14845364031,-0.137179055629,-0.419813500343,-0.491770152195,-0.00566520355856,-0.525336840133,-0.0872418679352,0.0286321882765,-0.377207792152,0.573746546219,0.819011574012,0.00396096422566,0.0,0.818987943589,-0.573673023176,-0.0117795431486,0.0,-0.00737542585304,0.0100026467253,-0.999922772094,0.0,0.471485411842,0.0112515096222,0.30475598191,1.0,-0.15998,-0.210259428571,2.678
0.146278446908,-0.205953472213,-0.128927442042,-2.36047797565,-0.0192388852164,2.14864022263,-0.143578457172,-0.42772696528,-0.495885781444,-0.0141200907777,-0.520727504386,-0.0754148049832,0.0157759533085,-0.375022085051,0.573782240491,0.818987254258,0.00381638056475,0.0,0.818960295354,-0.573707294616,-0.0120300307409,0.0,-0.00766310401458,0.0100282752215,-0.999920352095,0.0,0.468685575341,0.00767506207523,0.304666481561,1.0,-0.15998,-0.210259428571,2.695
0.138813397886,-0.214338353383,-0.129107974075,-2.36898572157,-0.0205040565686,2.14888726201,-0.150103037158,-0.43986484447,-0.501515402015,-0.00176683083761,-0.48600082086,-0.0838914570343,0.0162373600499,-0.375467564628,0.573939637563,0.818876220854,0.00397168160554,0.0,0.81885130906,-0.573864128564,-0.0119683958171,0.0,-0.00752157394651,0.0101215483105,-0.999920486931,0.0,0.466004515589,0.00403163097293,0.304725132351,1.0,-0.15998,-0.210259428571,2.712
0.131425445909,-0.222634709789,-0.129148052838,-2.37738939132,-0.0218322368925,2.14910418519,-0.156674560692,-0.433223869739,-0.482271521243,0.00642385874811,-0.49974785012,-0.0861219550722,0.0068019570007,-0.398597849025,0.573848919827,0.818939432622,0.00404596240378,0.0,0.818916090278,-0.573773980954,-0.0118576036935,0.0,-0.0073893335534,0.0101179715867,-0.99992150912,0.0,0.463322700058,0.000522120131249,0.304766675212,1.0,-0.15998,-0.210259428571,2.729
0.124291666631,-0.230349876412,-0.129202635499,-2.38538533601,-0.0230832606461,2.14915619023,-0.162978508564,-0.449807532025,-0.485479752006,-0.00585173843505,-0.488703946343,-0.0685877536359,0.000569424199794,-0.387212980465,0.573818009951,0.818961716309,0.00391734312645,0.0,0.818935878011,-0.573742425994,-0.012016789207,0.0,-0.00759389057056,0.010103697429,-0.999920120872,0.0,0.460708099126,-0.00283130243969,0.304690549618,1.0,-0.15998,-0.210259428571,2.745
0.116609471747,-0.238563989166,-0.129338901401,-2.39360498361,-0.0243863548965,2.14918257563,-0.16977451909,-0.453507817262,-0.486000210698,-0.00851943844428,-0.474851607773,-0.0803337699802,0.00289615327778,-0.398850516003,0.573862782791,0.818930086644,0.00397071998498,0.0,0.818904984376,-0.573787049904,-0.0119914480996,0.0,-0.00754195513101,0.0101332832605,-0.999920214559,0.0,0.457836909968,-0.00664550898799,0.304718687156,1.0,-0.15998,-0.210259428571,2.763
0.108837310502,-0.24673094607,-0.129474678432,-2.40158893183,-0.0256351657943,2.14924951991,-0.17670471931,-0.450837645742,-0.483145170794,-0.00430946653558,-0.477973118766,-0.0715982434276,0.00082479738581,-0.408447568291,0.573890345068,0.818909734408,0.0041791902041,0.0,0.818888130742,-0.573814957305,-0.0118055496929,0.0,-0.00726973767998,0.0101975765762,-0.999921577098,0.0,0.455342289685,-0.0100264361018,0.304811531843,1.0,-0.15998,-0.210259428571,2.779
0.10103131075,-0.254735075056,-0.129517374086,-2.40972795279,-0.0268816242892,2.14917573404,-0.183696386345,-0.464530932795,-0.468192715285,-0.00312431396224,-0.475796618627,-0.0841462881265,-0.0057128284711,-0.425076359714,0.573813761981,0.818963786777,0.00410236634622,0.0,0.818940208301,-0.573737299562,-0.0119663369307,0.0,-0.00744645938477,0.0102262384482,-0.999919983944,0.0,0.452573876693,-0.0135471540465,0.304730183841,1.0,-0.15998,-0.210259428571,2.796
0.0930590969043,-0.2627292957,-0.129610445174,-2.41763347977,-0.0281579556079,2.14906612961,-0.190726400476,-0.468139056408,-0.472831745888,-0.00901124245742,-0.451351045925,-0.0716939142367,-0.00437954656262,-0.421185068871,0.573866604183,0.818926677384,0.00411880730051,0.0,0.818903294369,-0.573790048579,-0.0119633408579,0.0,-0.00743391146398,0.0102384637822,-0.999919952206,0.0,0.449849701666,-0.0171281460883,0.30472545454,1.0,-0.15998,-0.210259428571,2.813
0.0849699385301,-0.270699699052,-0.129780570196,-2.42518778303,-0.0293934512109,2.14897339659,-0.197945850467,-0.479604434845,-0.465485398781,-0.00637833965669,-0.449835432768,-0.0699671113649,-0.00486054629005,-0.427421370011,0.573941274026,0.818873069254,0.0043654692736,0.0,0.818854136764,-0.573865631725,-0.0116998431358,0.0,-0.00707562990369,0.0102899035614,-0.999922023633,0.0,0.44722104315,-0.020753430781,0.304848585663,1.0,-0.15998,-0.210259428571,2.83
0.0774142745347,-0.278057397917,-0.129821642369,-2.4324673569,-0.03057614924,2.14874441402,-0.204787708297,-0.477654341324,-0.456562824615,-0.00812323297372,-0.452833095094,-0.0751068074861,-0.02519100682,-0.428060289614,0.573812993358,0.81896332973,0.00429652328089,0.0,0.818943025039,-0.573736907128,-0.0117911000483,0.0,-0.00719154303763,0.0102846921987,-0.999921250307,0.0,0.444631239649,-0.0240448623029,0.304795313388,1.0,-0.15998,-0.210259428571,2.846
0.069143920435,-0.285821877659,-0.129892299881,-2.44003933766,-0.031846841265,2.14844820121,-0.212169534199,-0.490372526497,-0.46001846683,-0.00579219887452,-0.451842121363,-0.0663119276397,-0.0132942815011,-0.436454970306,0.573796215504,0.818975352582,0.00424521342422,0.0,0.818954212179,-0.573720063812,-0.0118335807991,0.0,-0.00725598659084,0.0102668969633,-0.99992096762,0.0,0.441891209144,-0.02762332495,0.304764828038,1.0,-0.15998,-0.210259428571,2.863
0.0607727247885,-0.293573925287,-0.130076297233,-2.44734337145,-0.0329665309611,2.14814772325,-0.219665078268,-0.492726768911,-0.451919121065,-0.0188000895309,-0.424788224576,-0.0637355238486,-0.0161728054138,-0.439746978335,0.573927046634,0.818882551238,0.00445637985616,0.0,0.818864212174,-0.573850256717,-0.0117486930057,0.0,-0.00706364097473,0.0103922627419,-0.999921049809,0.0,0.439211028565,-0.0312374274911,0.304828562635,1.0,-0.15998,-0.210259428571,2.88
0.0524025988401,-0.301232628241,-0.130139611521,-2.45448858412,-0.0341595745193,2.14781910942,-0.227251642047,-0.492271007644,-0.451238292477,-0.00220013510948,-0.422130711682,-0.0827022532899,-0.030644367563,-0.446136341625,0.573853391289,0.818933390239,0.00459723387788,0.0,0.818917774737,-0.573777518083,-0.0115665406724,0.0,-0.00683456850831,0.0104024554071,-0.999922535797,0.0,0.436553478732,-0.0347713277843,0.304903760868,1.0,-0.15998,-0.210259428571,2.897
0.043861404057,-0.308714659885,-0.130211405962,-2.46175703908,-0.0354247104571,2.14727074579,-0.23486136638,-0.505928421779,-0.438798841093,-0.00644033457777,-0.415717916647,-0.0707030354652,-0.038146397636,-0.463704878319,0.573866111394,0.818925556057,0.0044007648781,0.0,0.818906381554,-0.573789348097,-0.0117842760692,0.0,-0.00712547000955,0.0103666107152,-0.9999208774,0.0,0.433766832458,-0.0383388500587,0.304809041324,1.0,-0.15998,-0.210259428571,2.914
0.0357221136624,-0.315776757949,-0.130376366901,-2.46839240796,-0.0364808440285,2.14683184226,-0.242222677311,-0.506281466443,-0.436873887409,-0.0131417570216,-0.408826087059,-0.070488965202,-0.029827135017,-0.461820407491,0.573920998237,0.818886541429,0.0045018830576,0.0,0.818868278297,-0.573843299933,-0.0118049490658,0.0,-0.00708367486522,0.0104617588017,-0.999920183391,0.0,0.431039501007,-0.041938794868,0.304811213162,1.0,-0.15998,-0.210259428571,2.931
0.0270833725832,-0.323190002102,-0.130466822181,-2.47513449367,-0.0376536742532,2.14638289248,-0.25013865197,-0.505294113422,-0.432900394658,-0.00380337369819,-0.391388293739,-0.0722694951838,-0.0197699372087,-0.468280462144,0.573837960761,0.818943924478,0.00464653119695,0.0,0.818928723658,-0.573761601769,-0.0115808809902,0.0,-0.00681822221673,0.0104509282066,-0.999922141942,0.0,0.428559964875,-0.0452715057768,0.304897460469,1.0,-0.15998,-0.210259428571,2.947
0.01824442248,-0.330486187863,-0.130528362937,-2.48191240414,-0.0387891523803,2.14581765428,-0.258117185365,-0.526387304274,-0.430973500394,-0.00264246941123,-0.40795577809,-0.0643208160539,-0.0465204277173,-0.469640016403,0.573842473353,0.818940637585,0.00466848893057,0.0,0.81892561951,-0.573765891863,-0.0115878361276,0.0,-0.00681126132956,0.0104729393705,-0.999921959085,0.0,0.425843253497,-0.0488336883744,0.304891825569,1.0,-0.15998,-0.210259428571,2.964
0.00929616738255,-0.337709259348,-0.130705466541,-2.48864823475,-0.039893029651,2.14510921344,-0.266212438489,-0.52961290131,-0.426010565775,-0.0166006545892,-0.389989103431,-0.0687020010044,-0.0360363942272,-0.47460558411,0.573940751649,0.818871860997,0.00465142621696,0.0,0.818855381321,-0.573862314726,-0.0117751909077,0.0,-0.00697322853278,0.0105673107624,-0.999919849802,0.0,0.423070269147,-0.0524362052901,0.30484286773,1.0,-0.15998,-0.210259428571,2.981
0.000365296875027,-0.34487424887,-0.130792509859,-2.49517446445,-0.0409846414145,2.14445076182,-0.274432086601,-0.522386145168,-0.414474858152,-0.00279438852904,-0.377711364373,-0.0672715246344,-0.0495286744149,-0.482734937442,0.573860850433,0.818927507562,0.00471260004435,0.0,0.818911713081,-0.573782058239,-0.0117687179747,0.0,-0.0069338550233,0.0106130142142,-0.999919639563,0.0,0.420356582519,-0.0559609487436,0.304853583722,1.0,-0.15998,-0.210259428571,2.998
-0.00824413309218,-0.351529588929,-0.13089521057,-2.50105056213,-0.0420672284163,2.14382204383,-0.282226907539,-0.540167571895,-0.413959920367,-0.00791570516831,-0.360746302562,-0.0602704242418,-0.0421978074845,-0.491680650481,0.573900525411,0.818899172244,0.00480411613968,0.0,0.818885594423,-0.573823035056,-0.011586828159,0.0,-0.00673186109348,0.0105839120421,-0.999921328331,0.0,0.417851680544,-0.059353741826,0.304930958571,1.0,-0.15998,-0.210259428571,3.014
-0.0174942343933,-0.358462947267,-0.131034721789,-2.50728997177,-0.0431603858163,2.14310102706,-0.290642247878,-0.546940854349,-0.400883104577,-0.00863893130057,-0.369419436976,-0.0592957583938,-0.0497714153753,-0.491366079634,0.57396295512,0.81885515158,0.00484910123748,0.0,0.818842122594,-0.573885265996,-0.0115769875159,0.0,-0.00669717705507,0.0106156146995,-0.999921225169,0.0,0.415141217665,-0.0629596583546,0.304937041047,1.0,-0.15998,-0.210259428571,3.031
-0.0272009790826,-0.365737811116,-0.131108052433,-2.51391713964,-0.0443440194942,2.14221336962,-0.299701671351,-0.539012458271,-0.403894236642,-0.00349505643347,-0.3588330646,-0.0632577203963,-0.0532245943714,-0.505188730426,0.573759343345,0.818998365765,0.00475811935102,0.0,0.818983355085,-0.573680715983,-0.0117237837081,0.0,-0.00687225069362,0.0106236555302,-0.999919951853,0.0,0.412055884151,-0.0668644123189,0.304882010447,1.0,-0.15998,-0.210259428571,3.05
-0.0366464535859,-0.372476974939,-0.131214958382,-2.51993057413,-0.0454045665128,2.14140765465,-0.308309596598,-0.561184575592,-0.389285451378,-0.00589120315914,-0.351824805688,-0.0633327830154,-0.0463913159817,-0.504877188204,0.573815314245,0.818959093131,0.00476820897529,0.0,0.818943997317,-0.573736310608,-0.0117525337414,0.0,-0.00688928238916,0.0106488849843,-0.999919566284,0.0,0.409489911172,-0.0702481418213,0.304871111489,1.0,-0.15998,-0.210259428571,3.066
-0.0467828285836,-0.379511334079,-0.131377297982,-2.52600942639,-0.0464606248777,2.14054088638,-0.317506830552,-0.556194092416,-0.389179732699,-0.00853769178798,-0.329874635822,-0.0584474823973,-0.0434357137941,-0.514619962303,0.573988942784,0.818836550784,0.00491361000986,0.0,0.818823688697,-0.573909988282,-0.0116550023637,0.0,-0.0067237015238,0.0107134290247,-0.999920003938,0.0,0.406654431493,-0.0740823526024,0.304932090299,1.0,-0.15998,-0.210259428571,3.084
-0.0550970818257,-0.385295352384,-0.131442362121,-2.53101744454,-0.0473757898059,2.13982498524,-0.325337362102,-0.562082067408,-0.385282834299,-0.00801100332385,-0.343584918731,-0.0668371345317,-0.0507623010656,-0.524954166245,0.573819115004,0.818955216679,0.00497224622421,0.0,0.818943655059,-0.573740878792,-0.0115516554454,0.0,-0.00660763478751,0.010700756224,-0.999920913362,0.0,0.404299518736,-0.0771678658141,0.304967207195,1.0,-0.15998,-0.210259428571,3.099
-0.0643020465954,-0.391365120069,-0.131561520551,-2.53643643276,-0.0483840129038,2.13891511749,-0.333762211698,-0.575077519746,-0.380923577431,-0.00333988839077,-0.337524339422,-0.0515391159429,-0.0613257742833,-0.522178011405,0.573872075288,0.818918676827,0.00487738132793,0.0,0.818904945392,-0.573792623316,-0.0117244505969,0.0,-0.00680289711916,0.01072265293,-0.999919369402,0.0,0.401672840947,-0.0805658190884,0.304903930027,1.0,-0.15998,-0.210259428571,3.115
-0.0741046678374,-0.397769094776,-0.13169142006,-2.54193144668,-0.0493871215258,2.13799349162,-0.342797208782,-0.570759215549,-0.370741944089,-0.00343681721395,-0.32021324671,-0.0455169047504,-0.0490979908963,-0.536642068544,0.573917536357,0.818886471942,0.00493502115762,0.0,0.818873579483,-0.573838035106,-0.0116926126671,0.0,-0.00674314931698,0.0107519609042,-0.999919459394,0.0,0.398950010503,-0.0841556747328,0.304928446881,1.0,-0.15998,-0.210259428571,3.132
-0.0837968811131,-0.403955600953,-0.131754169904,-2.54731488695,-0.0503534791931,2.13704221512,-0.351941794093,-0.581172743712,-0.357324288519,-0.00706813269176,-0.310919729433,-0.0516998168838,-0.0619359010503,-0.543220962875,0.573750449234,0.819003640521,0.0049199308299,0.0,0.818990036236,-0.573670206567,-0.0117712167907,0.0,-0.00681838294448,0.0107833228627,-0.999918611489,0.0,0.396239036035,-0.0876352627596,0.30490200172,1.0,-0.15998,-0.210259428571,3.149
-0.0951051440104,-0.410766409583,-0.131940529896,-2.55302311727,-0.0514791188373,2.1360322408,-0.362286612186,-0.605938485679,-0.349417435714,-0.0121596662445,-0.294499075488,-0.0596160055819,-0.0506458195406,-0.550771449134,0.573927423929,0.818879149344,0.00499977326691,0.0,0.81886742516,-0.573848245198,-0.0116223232061,0.0,-0.00664829502513,0.0107647287336,-0.999919957191,0.0,0.393234089734,-0.0917360952433,0.304958485371,1.0,-0.15998,-0.210259428571,3.168
-0.10391378061,-0.416087624285,-0.132006539913,-2.55749488114,-0.0522388892585,2.13521503792,-0.370580968243,-0.581132607132,-0.357413266632,-0.00226540497493,-0.294934960395,-0.0571564482248,-0.0624016985096,-0.555840128201,0.573860728754,0.818925209596,0.00510998853298,0.0,0.818915039525,-0.573781431267,-0.0115660743186,0.0,-0.00653985921395,0.0108221706591,-0.999920052236,0.0,0.390861436698,-0.0948438331994,0.304986508438,1.0,-0.15998,-0.210259428571,3.183
-0.114005856238,-0.422016976843,-0.132118967032,-2.56257300793,-0.0531610519389,2.13411963044,-0.380060141698,-0.605045327054,-0.343710952577,-0.00724833908221,-0.297102108123,-0.0569504085126,-0.0592143281859,-0.552376880039,0.573819658746,0.818954225369,0.00507177364607,0.0,0.818942328161,-0.573738472804,-0.0117632848787,0.0,-0.00672384964445,0.0109037041625,-0.999917946174,0.0,0.387920655006,-0.0985944751158,0.304937694641,1.0,-0.15998,-0.210259428571,3.201
-0.123780221919,-0.427415768414,-0.132288099374,-2.56715620117,-0.0540685780634,2.13316773408,-0.389028836805,-0.612774862152,-0.336784037967,-0.0121567803222,-0.279496809944,-0.0549178372522,-0.0532418774177,-0.558294024184,0.573964655267,0.818852686558,0.00505955750674,0.0,0.818840349913,-0.573883031056,-0.0118107968451,0.0,-0.00676783883107,0.0109221600643,-0.999917447981,0.0,0.385655331837,-0.101599355695,0.304921304583,1.0,-0.15998,-0.210259428571,3.215
-0.133918743612,-0.432978000904,-0.132308307285,-2.57180801724,-0.0549364022188,2.13222819864,-0.398681635793,-0.604282767689,-0.315202910196,-0.0026026116041,-0.27452223603,-0.0460142907055,-0.0597897162548,-0.570211536881,0.573794184976,0.818971959061,0.00509023185884,0.0,0.818960247751,-0.573712854269,-0.011765217812,0.0,-0.00671518131967,0.0109197213482,-0.999917829637,0.0,0.3828307583,-0.105292643651,0.304926666309,1.0,-0.15998,-0.210259428571,3.233
-0.14436749236,-0.438446131575,-0.132437087881,-2.57636980441,-0.0557944632607,2.13116518113,-0.408466514533,-0.625543901325,-0.32452063906,-0.0106450594881,-0.259987189931,-0.0509639770512,-0.0688922509927,-0.563866159403,0.573839255389,0.818940283114,0.00510573880445,0.0,0.818928114621,-0.573756794383,-0.0118587893196,0.0,-0.00678231853406,0.0109864834097,-0.999916645195,0.0,0.380097309821,-0.108880866205,0.304911860944,1.0,-0.15998,-0.210259428571,3.25
-0.154312822268,-0.443565492366,-0.13255135153,-2.58042296318,-0.0566240062156,2.13024533387,-0.417745076889,-0.610304125481,-0.314719474552,-0.00496491889438,-0.2496101216,-0.0460214400905,-0.0541483380534,-0.578652312119,0.573909418441,0.818890528492,0.00519891060349,0.0,0.818880708613,-0.573828503325,-0.0116610777382,0.0,-0.00656598943692,0.0109499007616,-0.999918490406,0.0,0.377578408016,-0.112290888247,0.30499478141,1.0,-0.15998,-0.210259428571,3.266
-0.164762579382,-0.448904762785,-0.132626086237,-2.58478370813,-0.0574916359839,2.12923028641,-0.427705353017,-0.619478331493,-0.306835161989,-0.00451662838396,-0.253402414403,-0.0528648295978,-0.0691027969303,-0.585017177023,0.573772501041,0.818986377849,0.00521314185479,0.0,0.818976962378,-0.573691932618,-0.0116210345707,0.0,-0.00652685724643,0.0109374837314,-0.999918882502,0.0,0.374861330468,-0.115800345785,0.305008342887,1.0,-0.15998,-0.210259428571,3.283
-0.175528711062,-0.454001795175,-0.132806953012,-2.58903165273,-0.0582819936719,2.12815707888,-0.437779789557,-0.636062674381,-0.297140110912,-0.00726206873514,-0.243854546708,-0.0453133842822,-0.0539687926768,-0.584949724789,0.573917174232,0.818884809976,0.00524328271171,0.0,0.818874629669,-0.573834550618,-0.0117896693477,0.0,-0.00664573231577,0.0110600978471,-0.999916750774,0.0,0.372085921687,-0.119416851937,0.30496305067,1.0,-0.15998,-0.210259428571,3.3
-0.186140429397,-0.458925954394,-0.132843819757,-2.59298310623,-0.0590171066191,2.12718012447,-0.447985056076,-0.628510047179,-0.294425392475,-0.00516235104812,-0.228172465312,-0.0429407284635,-0.0491858189098,-0.609610961205,0.573758411778,0.818995600073,0.00531402642654,0.0,0.81898657171,-0.573675967938,-0.0117314138556,0.0,-0.00655957336857,0.0110833270551,-0.99991706249,0.0,0.36942529767,-0.12291946892,0.304989106882,1.0,-0.15998,-0.210259428571,3.317
-0.196378206821,-0.463375637238,-0.132967270462,-2.59667122948,-0.059750213167,2.12624367069,-0.457640182912,-0.643400056443,-0.276265837275,-0.00681003660278,-0.232587425712,-0.0435637816286,-0.0620675446241,-0.60796989074,0.573820732052,0.818951952827,0.00531162210713,0.0,0.818942216589,-0.573737146306,-0.0118355286499,0.0,-0.00664538233477,0.0111415978065,-0.999915848305,0.0,0.366851482643,-0.126303870126,0.304946181736,1.0,-0.15998,-0.210259428571,3.333
-0.207353740055,-0.468071150009,-0.133091320618,-2.60048433329,-0.0605434397135,2.1252219539,-0.467971018576,-0.637310137061,-0.269995795725,-0.00156259664933,-0.218832693824,-0.0443734726921,-0.0523645143846,-0.60809398351,0.573899576514,0.818896737843,0.00530619725264,0.0,0.818886550383,-0.573815359061,-0.0118953019212,0.0,-0.00669637538317,0.0111720973965,-0.9999151678,0.0,0.364100015621,-0.129903591175,0.304927203416,1.0,-0.15998,-0.210259428571,3.35
-0.218201453861,-0.472697680227,-0.133185849692,-2.60401922009,-0.0612843828966,2.12425026462,-0.478410007264,-0.644630496593,-0.275353925361,-0.0077835268672,-0.200294702678,-0.0409314141336,-0.0586457448314,-0.6101543992,0.57379772083,0.81896752015,0.00539661094334,0.0,0.8189595376,-0.573714948792,-0.0117123954855,0.0,-0.00649608018446,0.0111403663244,-0.999916843133,0.0,0.361434662072,-0.133437750209,0.305006354427,1.0,-0.15998,-0.210259428571,3.367
-0.229425094909,-0.477137146395,-0.133340074919,-2.60743059931,-0.0620205764606,2.12330175062,-0.488957161599,-0.660840049275,-0.257376246484,-0.00775129553564,-0.196870672364,-0.0479430098564,-0.0586308695598,-0.6246145534,0.573965894661,0.818849096567,0.00548230957936,0.0,0.818842989305,-0.573884141503,-0.0115714259262,0.0,-0.00632916299525,0.0111309689041,-0.999918018253,0.0,0.358717112558,-0.137099869496,0.305064411059,1.0,-0.15998,-0.210259428571,3.384
-0.240358922839,-0.481300357559,-0.133360256949,-2.61083072337,-0.0626798828263,2.12233905184,-0.499612457766,-0.63627264828,-0.243128745436,-0.0108908908458,-0.19751957882,-0.0442862902326,-0.0620168214124,-0.6262903572,0.573744948013,0.819004008715,0.00546948267819,0.0,0.81899700961,-0.573662008135,-0.0116852716546,0.0,-0.00643277376224,0.0111840708636,-0.999916764526,0.0,0.356017887058,-0.140562815934,0.305018846908,1.0,-0.15998,-0.210259428571,3.401
-0.250982019348,-0.485102784024,-0.133487603066,-2.61390997554,-0.0633503930102,2.12141258439,-0.509684410015,-0.678085752851,-0.244917296188,-0.0160658526627,-0.191922968618,-0.0370981835849,-0.0609867842878,-0.639365734801,0.573835594325,0.818940638599,0.00544867310093,0.0,0.818932605768,-0.57375138978,-0.0118100311622,0.0,-0.00654565672192,0.0112393287034,-0.999915412357,0.0,0.353415689351,-0.143955550111,0.304977737054,1.0,-0.15998,-0.210259428571,3.417
-0.262234497119,-0.488974574571,-0.133542612344,-2.6169984326,-0.0640105903446,2.12045273621,-0.520489541762,-0.650945164517,-0.231033007221,-0.00187696331136,-0.176907853349,-0.0289389559159,-0.0512543739662,-0.637985868333,0.573791549132,0.818971632661,0.00542862249261,0.0,0.818962785176,-0.573706478635,-0.0118987297627,0.0,-0.0066304139023,0.0112734474283,-0.99991446984,0.0,0.350692057758,-0.147503302629,0.304953050134,1.0,-0.15998,-0.210259428571,3.434
-0.273531751082,-0.492651449804,-0.133656100236,-2.6199031746,-0.0646241942924,2.11959737402,-0.531402772519,-0.672745392901,-0.217138889519,-0.00780386510392,-0.170177549516,-0.0300998456999,-0.0486299821809,-0.65355274159,0.573766863174,0.818988602906,0.0054774022296,0.0,0.818980220941,-0.573681328334,-0.0119112605957,0.0,-0.00661303060852,0.0113203886692,-0.99991405462,0.0,0.347994354131,-0.151070369689,0.304941532487,1.0,-0.15998,-0.210259428571,3.451
-0.285018470134,-0.496279101405,-0.133773014022,-2.62268918233,-0.0652253662423,2.11868994702,-0.542382863256,-0.663141485071,-0.206437422092,0.00229056387132,-0.162701636351,-0.0353874787108,-0.0539050241477,-0.659915462098,0.573855228424,0.818926299044,0.00553538125113,0.0,0.818918607087,-0.573769350019,-0.0119077641542,0.0,-0.00657567572828,0.0113665782645,-0.999913776976,0.0,0.345257561179,-0.15467487981,0.304956800444,1.0,-0.15998,-0.210259428571,3.468
-0.297689365735,-0.500145990276,-0.133802318103,-2.62561699415,-0.0658545872143,2.11772760127,-0.554710935054,-0.678043149611,-0.199720615975,-0.00403782314609,-0.147116572971,-0.0374283003161,-0.050329638462,-0.662166588376,0.573725518358,0.819016873811,0.00558004467237,0.0,0.819010101116,-0.573640088347,-0.0118427282669,0.0,-0.00649858208154,0.0113648071728,-0.999914301122,0.0,0.342260377311,-0.158594228723,0.304990477837,1.0,-0.15998,-0.210259428571,3.487
-0.308705183663,-0.503195940394,-0.133943608122,-2.62794857438,-0.0663835990118,2.11697793373,-0.565189634864,-0.689703767198,-0.19153621287,-0.00306787287552,-0.140919970205,-0.0338875542981,-0.0438174681248,-0.653238588729,0.573910714662,0.818886645524,0.00564803330049,0.0,0.818880872372,-0.573825206777,-0.0118108353549,0.0,-0.00643087528235,0.0114036509512,-0.999914296622,0.0,0.339677939954,-0.162031577329,0.305001567398,1.0,-0.159756,-0.209965028571,3.503
-0.320116122788,-0.50619276172,-0.133969266048,-2.6302531049,-0.0669080437837,2.11626157403,-0.576368290437,-0.677445975147,-0.174265710192,-0.00475400807347,-0.134955559426,-0.0346459568296,-0.0407683060694,-0.654459977485,0.573766449822,0.818987578629,0.00567045069011,0.0,0.818982428306,-0.573681480129,-0.0117511013906,0.0,-0.00637109619256,0.0113866064296,-0.99991487354,0.0,0.337026380602,-0.165538119335,0.30500807299,1.0,-0.157852,-0.207462628571,3.52
-0.330374080623,-0.508725470554,-0.134030121158,-2.63215914653,-0.0673541642115,2.11562594741,-0.586169429751,-0.685509481166,-0.167157064936,-0.00516928663307,-0.130157939917,-0.0266253355542,-0.048225144297,-0.652026956876,0.573886260298,0.818903359698,0.0057091696391,0.0,0.81889903339,-0.573801710931,-0.0116925851151,0.0,-0.00629928720822,0.0113856666532,-0.999915339204,0.0,0.334655300859,-0.168692624407,0.305026781258,1.0,-0.156172,-0.205254628571,3.535
-0.341754038354,-0.511431063178,-0.133995276339,-2.63421865733,-0.0677732419756,2.11490360687,-0.597274935193,-0.658137305134,-0.155173175431,-0.000619745764524,-0.117933549388,-0.022194210034,-0.0399441736028,-0.638750263851,0.573791271081,0.818969661821,0.00574605509556,0.0,0.818965771229,-0.573706535668,-0.0116886007545,0.0,-0.00627618088034,0.0114128592598,-0.999915174501,0.0,0.332020521273,-0.172125421264,0.305032837665,1.0,-0.154268,-0.202752228571,3.552
-0.354507112552,-0.514121888667,-0.13400964511,-2.63633434431,-0.0682289429733,2.11411325377,-0.60959319183,-0.683884768598,-0.136871753926,-0.00161037964018,-0.109556137671,-0.0214378550188,-0.0381341327953,-0.635748628755,0.573844004272,0.818932571614,0.0057661782737,0.0,0.818928116506,-0.573757690392,-0.0118152280461,0.0,-0.00636760855545,0.0115024047434,-0.999913570388,0.0,0.329070918302,-0.175973881248,0.304998601757,1.0,-0.15214,-0.199955428571,3.571
-0.365173876292,-0.516192275998,-0.133990252139,-2.63795590679,-0.06857190958,2.11351991395,-0.619901749947,-0.653147601164,-0.125734175537,0.00365763737698,-0.103878914972,-0.0119492473777,-0.0411987342336,-0.650407192574,0.573885677736,0.818903207905,0.00578894406361,0.0,0.81889857272,-0.573798411319,-0.0118851868373,0.0,-0.0064112541572,0.0115615191295,-0.999912609729,0.0,0.326628474217,-0.179175410545,0.304975674334,1.0,-0.150348,-0.197600228571,3.587
-0.3762850113,-0.518219940767,-0.133952598218,-2.63953279655,-0.06888851317,2.11293344644,-0.630741914536,-0.657366738964,-0.117951151331,0.00184131985971,-0.0912773981821,-0.0211626762265,-0.0296871931727,-0.646152564724,0.573856517533,0.818923355729,0.005829376254,0.0,0.818918804343,-0.573768302221,-0.0119446289874,0.0,-0.00643714827207,0.0116285129108,-0.999911666503,0.0,0.324091860524,-0.182489611763,0.304957094242,1.0,-0.148444,-0.195097828571,3.604
