nelsonifechukwu/NELSON_IML_WORK/CNN-GradCAM/train2dof/data_sample_2022-07-06-11-30-55/robot_state.csv
position_joint1,position_joint2,position_joint3,position_joint4,position_joint5,position_joint6,position_joint7,velocity_joint1,velocity_joint2,velocity_joint3,velocity_joint4,velocity_joint5,velocity_joint6,velocity_joint7,ee_T_00,ee_T_10,ee_T_20,ee_T_30,ee_T_01,ee_T_11,ee_T_21,ee_T_31,ee_T_02,ee_T_12,ee_T_22,ee_T_32,ee_T_03,ee_T_13,ee_T_23,ee_T_33,v_x,v_y,w_z,time
0.4651112171923309,0.5473110592033543,-0.12397715535837743,-1.35558768691554,0.07945990726682864,1.8941799134948518,0.15914383723645054,0.0012423470067151575,-0.0024629396762179926,0.0011487713494247823,-0.0003924005407568298,5.787632879134929e-05,-9.507544719142904e-05,-0.0008340758664613707,0.573730000364818,0.8190285996269899,0.0026051056880680885,0.0,0.8189946193896527,-0.5736697046402919,-0.011473024445475946,0.0,-0.007902417080450475,0.008716153673725413,-0.9999307878395496,0.0,0.6617514197481638,0.26095618513526553,0.3036706716675564,1.0,5e-324,6.93531884361175e-310,6.93510664403275e-310,0.0
0.46510352075490174,0.5473156465618555,-0.12398708256606912,-1.3555828102933891,0.07945990726682875,1.8941784947049476,0.1591492515415386,-0.0005178417435930552,-0.0010641365518206604,-0.000828249530028749,0.0004384919752063942,-6.12453250556909e-05,0.00018844030257873646,0.0009413282170216591,0.5737474077697847,0.8190164171722017,0.0026014190494378408,0.0,0.8189824398632782,-0.5736871776954463,-0.011468750787840713,0.0,-0.007900846543001883,0.008710850265957457,-0.9999308464646681,0.0,0.6617564220856447,0.26094576912071893,0.30366994847944273,1.0,-0.00018,-0.00023657142857142863,-9e-05,0.010000000000000002
0.4651084471977994,0.54731811036678,-0.1239794252356275,-1.355587797920538,0.07945919519000583,1.8941806199581566,0.1591504601315201,0.0010674070550079056,0.0014286767368915524,0.0002087495367533868,-0.0018060004072936282,-0.00016002750174428756,-0.00011966010115160948,0.0012783731966144333,0.5737391178884624,0.8190222341784295,0.0025983508521883157,0.0,0.8189881844802681,-0.5736788627584417,-0.011474450187433018,0.0,-0.00790736310779283,0.008711527299765084,-0.999930789055316,0.0,0.6617526345742196,0.2609528652011741,0.3036657583239177,1.0,-0.00040000000000000024,-0.0005257142857142861,-0.00020000000000000012,0.02100000000000001
0.4651004567722323,0.5473039765966667,-0.123985036405117,-1.3556017830259062,0.07945915576018422,1.8941778430585479,0.1591446115493997,0.0005228935025421207,0.0007317658299785056,-0.00018888951762428336,-0.0010125201002502862,-0.00024544428578933186,0.0034569066943669242,-0.00117529859157553,0.5737455032746424,0.8190177695165191,0.0025956867148889205,0.0,0.8189836955768601,-0.5736852672902806,-0.011474640497919861,0.0,-0.007908979512141256,0.008709516170869389,-0.9999307937908233,0.0,0.6617526232895341,0.260942659296483,0.30366905709245395,1.0,-0.0007400000000000005,-0.0009725714285714294,-0.00037000000000000027,0.03800000000000003
0.46510742859233056,0.5472484219599594,-0.12398000737533438,-1.3556418489369733,0.0794551229348491,1.894182652441009,0.15915010471145313,0.001811735559575399,-0.003577089709814825,0.0007015436304752649,-0.0036504598388648296,-0.00013905081145912076,0.0006909006291021403,0.001249598788041527,0.5737418211445552,0.8190202892698525,0.002614447411067677,0.0,0.8189864368471319,-0.573681501383695,-0.011467263483361564,0.0,-0.007892213288768546,0.008720613502836136,-0.9999308295424933,0.0,0.6617431120350343,0.2609458286223882,0.30368958458680323,1.0,-0.0010600000000000008,-0.0013931428571428584,-0.0005300000000000004,0.05400000000000004
0.465102419540854,0.5471200105759902,-0.12397998981276652,-1.355796362183016,0.0794567956293391,1.8942149574358491,0.15914491529628425,-0.00033890152015118445,-0.0047416397186620055,-0.000705108665284857,-0.007256638822837169,-0.002489700439982145,-0.00067007843704394,-0.0009216092139515981,0.5737439668620387,0.8190187244465604,0.002633703960037613,0.0,0.818984986783747,-0.5736834358625978,-0.011474046405631341,0.0,-0.007886698357924271,0.008740297181434847,-0.9999307011959334,0.0,0.6617180740373234,0.26093320020671784,0.3037146560907444,1.0,-0.001400000000000001,-0.0018400000000000018,-0.0007000000000000005,0.07100000000000005
0.465074712669299,0.5468692301219589,-0.12398811743377286,-1.3561149526667042,0.0794488860492574,1.8943326755331804,0.1591409989015717,-0.0014476324196886809,-0.011051483888849013,0.0005558171219741472,-0.01352174640920326,-0.002753445393352984,0.005028171519636013,-5.8509514935682797e-05,0.5737811118191366,0.8189925888191736,0.002668722554307914,0.0,0.8189592220916743,-0.5737203721508557,-0.011466212595787917,0.0,-0.007859793966140005,0.008764839908948996,-0.9999306982087209,0.0,0.6616853593853331,0.2608908473978061,0.30374418015457405,1.0,-0.0018800000000000015,-0.0024708571428571453,-0.0009400000000000007,0.09500000000000007
0.4650610345525394,0.5467259708367406,-0.12397756857197013,-1.3562737335150534,0.0794454164742412,1.8944224939419623,0.15913971019337111,0.00033815666952267633,-0.010313375109305436,-0.0005399000923905766,-0.015604855510477527,0.000306101513424441,0.007540305052433755,-0.0007751744943125273,0.5738035269377575,0.8189766393554734,0.0027429117764072924,0.0,0.8189441986407737,-0.5737425119393107,-0.01143137819333457,0.0,-0.0077884565552781004,0.008805826351211674,-0.9999308962957185,0.0,0.6616728258535274,0.260866079972068,0.3037791871384057,1.0,-0.0021600000000000018,-0.0028388571428571456,-0.0010800000000000009,0.10900000000000008
0.4650417942194668,0.5465376759817889,-0.12398035360384814,-1.3564899065988738,0.07943900555820513,1.894539563872787,0.15913574604944697,-0.0010291655709668305,-0.010869858836667332,-0.0004685016686596416,-0.011687734476107235,-0.00010813484427867694,0.011348264360214425,-0.00033008391951585224,0.5738271395467409,0.8189598257085322,0.002822179346558121,0.0,0.8189284346613526,-0.5737659063199048,-0.011386419508053896,0.0,-0.007705898207604256,0.008845169747523196,-0.9999311886849772,0.0,0.661656695936631,0.2608324942947788,0.3038203278222211,1.0,-0.002480000000000002,-0.003259428571428575,-0.001240000000000001,0.12500000000000008
0.4650065592082989,0.5463078667010179,-0.12398035263178642,-1.3568015765853343,0.07943012791634009,1.8946558612234494,0.15913410990503846,-0.0006842513542308111,-0.016589855467074987,0.0011055152124596866,-0.021965520874069902,-9.451070340357958e-05,0.01404394669213427,-0.002266470418032512,0.5738629567879552,0.8189346112255267,0.002855917486405132,0.0,0.8189035562730345,-0.5738015023901701,-0.01138192775274727,0.0,-0.007682472746198266,0.008870558485916807,-0.9999311440317538,0.0,0.6616205419698628,0.26077909551109757,0.3038434553491761,1.0,-0.002840000000000002,-0.0037325714285714314,-0.001420000000000001,0.1430000000000001
0.4649740221979821,0.5460377803905919,-0.12397780579523973,-1.3572045343036563,0.07941732609925783,1.8947947133231668,0.15911884214661834,0.0006222585836977271,-0.018777908539551472,-0.00026762715581966527,-0.021727160206976872,-0.0002834212694974729,0.0054278081451704825,0.001191316983837469,0.5739010909249285,0.818907840485471,0.0028694124498652267,0.0,0.8188768684680281,-0.5738394855020377,-0.011387100946264656,0.0,-0.007678551917290388,0.008884936199376844,-0.9999310464973004,0.0,0.6615751426520489,0.26072467259474325,0.3038562017479808,1.0,-0.003160000000000002,-0.0041531428571428605,-0.001580000000000001,0.1590000000000001
0.4649246504632045,0.5457429056897112,-0.12398051105132467,-1.357661065927317,0.07939549587483306,1.8949586092197757,0.15909978480628287,-0.001251745211862639,-0.020492922885516716,1.6871638965387984e-05,-0.03111536750427516,0.00017218813022789112,0.010380682325476995,-0.004893515569928705,0.5739543179648342,0.8188705378530062,0.0028688023735345958,0.0,0.8188395162307741,-0.5738926594596049,-0.011393374326422737,0.0,-0.0076834618694770485,0.008888536270413666,-0.9999309767862329,0.0,0.6615215862900561,0.2606420072601823,0.30386032521968664,1.0,-0.0035200000000000027,-0.004626285714285719,-0.0017600000000000014,0.17700000000000013
0.46487934338859127,0.545451571512793,-0.12397825074533629,-1.3581522187270485,0.07934797212338182,1.8951229244010632,0.15906990981348362,0.0006595073955489024,-0.025215072023999006,0.0019508155022828102,-0.03541508823205642,-0.005798925946897888,0.01387249426798153,-0.005544244136482407,0.5739733674519198,0.8188573092945063,0.0028332617374285116,0.0,0.8188259431394544,-0.5739119465065451,-0.01139734179796384,0.0,-0.007706902260850967,0.008861889484922336,-0.9999310329079194,0.0,0.6614672349417986,0.2605680337171636,0.3038485340327144,1.0,-0.003820000000000003,-0.005020571428571433,-0.0019100000000000015,0.19200000000000014
0.4648214461225831,0.5451070381794653,-0.12398315431554173,-1.3587424105740566,0.07929784133179954,1.8953204059947553,0.1589445610467366,-0.005680682389724436,-0.017084356198245255,0.0005510916220220764,-0.035320870812964665,-0.0009358559883323302,0.012083161795575257,-0.0021396807482818164,0.5739411848562445,0.8188800382954111,0.0027831831281509532,0.0,0.8188481302871128,-0.5738800416270606,-0.011409831227119515,0.0,-0.007746218921486858,0.008827746315707735,-0.9999310311153494,0.0,0.6613992070491491,0.2604666531730125,0.3038287150592659,1.0,-0.004160000000000003,-0.005467428571428576,-0.0020800000000000016,0.20900000000000016
0.4647607197486709,0.5447100696889781,-0.12398924343313465,-1.359389904990824,0.07928070243481009,1.8955414993270192,0.15893800861112925,-0.0034637124994539863,-0.027225768406233117,0.0009401230648311063,-0.0427714799523444,-0.0011995486658584987,0.016347172734813148,-0.011473418110611127,0.5740213275082597,0.8188239138251022,0.002767781603609517,0.0,0.8187916331920617,-0.5739600247245243,-0.011441080985105863,0.0,-0.007779784497934039,0.008833830993359146,-0.9999307167914917,0.0,0.6613231970349743,0.2603635503629359,0.3038208615534783,1.0,-0.004500000000000003,-0.005914285714285719,-0.0022500000000000016,0.22600000000000017
0.46470024482294164,0.5442976283933992,-0.12398500892346563,-1.360117371872286,0.07924527589026872,1.8957743946056442,0.15891670243269046,-0.005590844445922998,-0.03254769012959773,0.0017277097742138846,-0.04536384434689768,-0.003221728661545079,0.011534596334415894,-0.001955148452401916,0.574081508316131,0.8187819404688562,0.0027023457844494603,0.0,0.8187486747106036,-0.57402024964628,-0.011493805151522297,0.0,-0.007859870210371933,0.008811092668143006,-0.9999302911134702,0.0,0.661230086658277,0.2602551472051618,0.30378650203672397,1.0,-0.004840000000000004,-0.006361142857142864,-0.002420000000000002,0.2430000000000002
0.4646328005377376,0.5438725694125988,-0.12398216534282565,-1.3608276095264031,0.07921209286584502,1.8960121797578802,0.15885599337993464,-0.005235653987579922,-0.027501146889134614,0.0018030119466285232,-0.0405633995131723,-0.0019745046614242224,0.01407016943280711,-0.012106375296740591,0.5741157177973002,0.8187580679613413,0.0026675133571968344,0.0,0.8187242208878518,-0.574054422811046,-0.01152894981624232,0.0,-0.007908275095365125,0.008803078580821466,-0.999929980044861,0.0,0.6611441555667694,0.2601442420465599,0.3037697145760236,1.0,-0.005160000000000004,-0.006781714285714292,-0.002580000000000002,0.2590000000000002
0.4645844997807029,0.5435272821410264,-0.1239956357005511,-1.3613736116788053,0.07918861404763684,1.8962062986899264,0.15880435568505533,-0.006062343236004331,-0.03437720889472113,-0.0008496909783216009,-0.04194202072620624,-0.0002507636240320692,0.015957077720824095,-0.0013650217661263218,0.5741465518607345,0.8187364590831234,0.0026635419400554087,0.0,0.8187025317198173,-0.5740852340146125,-0.011534970444586965,0.0,-0.007915153150690857,0.008803581532465299,-0.9999299211958819,0.0,0.6610833314903858,0.26005360238124714,0.30377139018392585,1.0,-0.005400000000000004,-0.0070971428571428635,-0.002700000000000002,0.2710000000000002
0.4644993116622845,0.5428666417678901,-0.12399673000513094,-1.362453517348499,0.07912882510120106,1.8965876093799912,0.15875864284805358,-0.0038794792549725126,-0.02977558935807384,0.0007211049023405745,-0.04953424440587069,-0.0011733665068518568,0.01906380353699703,-0.005816331003681173,0.5742284862958307,0.81867909791766,0.002631930913586637,0.0,0.8186447018360514,-0.5741671976744297,-0.011559765207970456,0.0,-0.007952722870033568,0.008792732062653297,-0.9999297185611732,0.0,0.6609488768999913,0.25988481553816883,0.3037567340692866,1.0,-0.005860000000000004,-0.007701714285714293,-0.002930000000000002,0.2940000000000002
0.4644251648670565,0.5423218356808418,-0.12399910654484868,-1.3633393210010336,0.07906799368724972,1.896884964569865,0.15868312814044883,-0.00348568723484735,-0.02481454014603019,0.000686666502600624,-0.05449131884725311,-0.004335960591743554,0.010326263565679781,-0.003777141785454568,0.574257251335603,0.8186590542992612,0.0025901744199128404,0.0,0.8186241372331757,-0.5741961220877309,-0.011579387715185047,0.0,-0.00799245636838497,0.0087700955127714,-0.9999296005549071,0.0,0.6608468099704813,0.25975530393133944,0.3037472673641135,1.0,-0.006180000000000005,-0.008122285714285723,-0.0030900000000000025,0.3100000000000002
0.4643432102337137,0.5417265721730432,-0.12400207874735159,-1.3642755308923111,0.07900685785005712,1.8972260431947492,0.1586043344971868,-0.008834313494165377,-0.03384450379972594,0.0003848435119812968,-0.05506458652224772,-0.009881598105364287,0.021042362101799345,-0.0064223017070754815,0.5742976094958561,0.8186307557063975,0.002586201872632577,0.0,0.8185958291387867,-0.5742365347596835,-0.011576595569577724,0.0,-0.007992019449241272,0.008765633993573996,-0.9999296431678648,0.0,0.6607401227829736,0.25960936367372167,0.3037522062805116,1.0,-0.006520000000000005,-0.008569142857142865,-0.0032600000000000025,0.32700000000000023
0.46427534146031024,0.5411456959465709,-0.12400831594690094,-1.3651814259918726,0.07895834662451419,1.8975537740919737,0.15855296130223268,-0.007895516724982975,-0.035750594011009273,-0.000754255659705462,-0.0552925643037007,-0.007627235076314749,0.018286267781138982,-0.005474138799344664,0.5743527714049098,0.8185920443134305,0.0025895689731179764,0.0,0.8185571268450772,-0.5742916404800085,-0.011579666105782909,0.0,-0.0079920086072231,0.008770692321208223,-0.9999295988991568,0.0,0.6606336207429925,0.2594753898942342,0.30376029499073554,1.0,-0.006840000000000005,-0.008989714285714294,-0.0034200000000000025,0.34300000000000025
0.46417442967555816,0.5403856772273337,-0.12400911185529274,-1.3663261595417957,0.07889381196618257,1.8979869557457472,0.15845378642815577,-0.008889579282110477,-0.04098183403199673,0.0009711969519845666,-0.060259411716910474,-0.004533079136290498,0.015154186958310271,-0.00932255961332554,0.5744009859307112,0.8185580763097782,0.0026324838215463827,0.0,0.8185236905038861,-0.5743396773675595,-0.011560708734090997,0.0,-0.007951324681052585,0.008795402206471153,-0.999929706197312,0.0,0.6605058026359715,0.2593013114046602,0.30379019729246487,1.0,-0.007220000000000005,-0.009489142857142866,-0.0036100000000000025,0.36200000000000027
0.46408498659139025,0.539733530422433,-0.12401480944258798,-1.3673307284196814,0.07883458043715928,1.8983521605470572,0.15838435473851215,-0.0034873470364249048,-0.03827583983661992,-0.0003305687423080504,-0.06083139124398447,-0.00807129966917784,0.021561094974500962,-0.0019445985341140293,0.5744611011771291,0.8185158575697493,0.0026421662375037376,0.0,0.8184816013603001,-0.5743997573362558,-0.011555687255097508,0.0,-0.007941006506732573,0.008801026725591007,-0.999929738703793,0.0,0.6603915954803141,0.25914344612933965,0.3038047247372481,1.0,-0.007540000000000006,-0.009909714285714294,-0.003770000000000003,0.3780000000000003
0.46399410083677145,0.5390788205098707,-0.12401800157617494,-1.36835220106497,0.07877293067613136,1.8987299310706847,0.15833872140227884,-0.0031678492599131153,-0.04369857541140996,-0.005169272774516995,-0.06564507093527111,-0.0002664628228172364,0.02964967491008416,-0.011105503134969791,0.5745442516323406,0.8184574744789618,0.0026480723105092472,0.0,0.8184232897244527,-0.5744828720995782,-0.011554021033077552,0.0,-0.00793535546852342,0.00880570995679282,-0.9999297423348027,0.0,0.6602656882629574,0.25897606300716464,0.3038138751576438,1.0,-0.007860000000000006,-0.010330285714285724,-0.003930000000000003,0.3940000000000003
0.463885869214885,0.5382809464925813,-0.12401590925957315,-1.3695952472288164,0.07871013875988557,1.8992059835237238,0.158230201264309,-0.0070716806138573654,-0.04583866396173046,-0.0005887875380987624,-0.07126963129399946,3.339918486158846e-05,0.028540134252832777,-0.0012483751304031693,0.5745906593999034,0.8184247870137568,0.002681237229289999,0.0,0.8183909527639729,-0.574529075923324,-0.011547131850672833,0.0,-0.007910162472970939,0.008829344387160376,-0.9999297335349839,0.0,0.6601352960791034,0.2587993937998296,0.303827058029968,1.0,-0.008200000000000006,-0.010777142857142867,-0.004100000000000003,0.4110000000000003
0.46377718158504977,0.5374957595865515,-0.12402260734038856,-1.3708063388860428,0.07863265278016711,1.89968451455748,0.1581131772917168,-0.007665085318630533,-0.05172199377805625,0.0011049605835164122,-0.06864602984309766,-0.003037567447294175,0.03338718549660134,-0.004118405187510174,0.5746347699722866,0.8183936883583282,0.002720091056826363,0.0,0.8183604575003415,-0.5745731660087526,-0.011514573536120697,0.0,-0.007860714318855488,0.008842859529412841,-0.999930004053154,0.0,0.660005016437323,0.2586102402527838,0.3038467730292611,1.0,-0.008540000000000006,-0.01122400000000001,-0.004270000000000003,0.4280000000000003
0.46368128168398015,0.5367356536744221,-0.12403291784554489,-1.372018266934295,0.07856557584091078,1.9001215289145,0.1580453405123561,-0.0048974675355169285,-0.047747338765718135,-0.0035109732017063124,-0.07780831494061567,-0.0021815748857394353,0.02749819120716719,-0.008535983764009896,0.5747137401214024,0.8183382775808712,0.002706891732321661,0.0,0.8183048515403815,-0.574652141936163,-0.011525303243864596,0.0,-0.007876227314995987,0.008838982948280005,-0.9999299162559956,0.0,0.6598622844164573,0.258425885902157,0.3038447742570352,1.0,-0.008860000000000007,-0.01164457142857144,-0.004430000000000003,0.44400000000000034
0.4635559971088689,0.5358920796380963,-0.12403784333943499,-1.373349238954082,0.07848333904556741,1.900613190739451,0.15794575892159338,-0.010284513272678273,-0.05685432857157761,0.0006399239567799212,-0.07588362088556584,-0.00848642563024314,0.03408058268129553,-0.001477937287552963,0.5747866854057053,0.8182870920925449,0.002692228864351445,0.0,0.8182535047469399,-0.5747251580563237,-0.011530028954487608,0.0,-0.007887734068645513,0.008830402841836504,-0.9999299013615471,0.0,0.6596990703811421,0.25820024416283943,0.3038418747272148,1.0,-0.009220000000000008,-0.012117714285714298,-0.004610000000000004,0.46200000000000035
0.46344789799798886,0.5350136954005776,-0.12404649312985548,-1.3747289565723266,0.07839978049239744,1.9011049695820903,0.15785755973080623,-0.0066167380874764875,-0.051676821847983896,0.00029881141185210316,-0.08253489232640437,-0.007585713768675864,0.027701427329151363,-0.007584244767430992,0.5748650248345103,0.8182320478959783,0.002695536900114097,0.0,0.818198514180489,-0.574803488932866,-0.011527679933664884,0.0,-0.007883064918306815,0.008832514351213933,-0.9999299195332289,0.0,0.6595474557933436,0.25800478119194115,0.30385542854422387,1.0,-0.009540000000000007,-0.012538285714285726,-0.004770000000000003,0.47800000000000037
0.46332594215510686,0.5341100311046955,-0.12405279880388781,-1.3761763566467742,0.0783327440527098,1.901637218368337,0.15774255753664773,-0.010198654299506938,-0.05637384902152967,-0.0009967526374515627,-0.08713480059292884,-0.00973676137924933,0.028759539727737832,-0.011261711694090763,0.5749365796724908,0.8181817771999458,0.0026936431917317294,0.0,0.8181480621479724,-0.5748748654059725,-0.011549217687388074,0.0,-0.007901003804244522,0.008844036947630363,-0.999929676101952,0.0,0.6593777419706599,0.25778600030941623,0.30385034052819815,1.0,-0.009880000000000009,-0.01298514285714287,-0.004940000000000004,0.4950000000000004
0.4632092841506292,0.5332397911055367,-0.12405603954246334,-1.377565181318559,0.07823957516468348,1.9021461629845369,0.15763137524453258,-0.008414364448767562,-0.051848164188128126,1.381144779162719e-05,-0.08829525227060074,-0.0010286535188835787,0.03564940438892046,-0.002276480182794522,0.5749943336208667,0.8181412418887066,0.0026779704831717275,0.0,0.8181073972581527,-0.5749327459873106,-0.011548638196340576,0.0,-0.007908916543666156,0.008831439018423023,-0.9999297248926893,0.0,0.6592151419674211,0.25757323558149703,0.30384720654342046,1.0,-0.010200000000000008,-0.013405714285714299,-0.005100000000000004,0.5110000000000003
0.46307974280062214,0.5323083276543411,-0.1240535540853142,-1.3790549149679392,0.07816524115665587,1.902712773792371,0.15753252581080307,-0.006369133939796348,-0.05380483254799433,0.0005042898227499562,-0.08999231511043437,-0.0029288338779499823,0.033879600819566,-0.004342844731020576,0.5750792994726744,0.8180814764582837,0.00269148566057272,0.0,0.8180476740404828,-0.5750175079035195,-0.011559217213552008,0.0,-0.007908882378157844,0.008849400500348853,-0.999929566364708,0.0,0.6590427908507064,0.2573510869009443,0.3038438975577608,1.0,-0.010540000000000008,-0.013852571428571442,-0.005270000000000004,0.5280000000000004
0.462961289783857,0.531403708200381,-0.1240496283114673,-1.3805042727813832,0.07808906494358363,1.903253508439564,0.1574392170438156,-0.0058042489246243195,-0.05270003548610434,0.0009054188730371911,-0.09183225165790847,-0.004552622619389938,0.033230879270174894,-0.0038953103596930253,0.5751557840591913,0.818027700662112,0.002692937786798455,0.0,0.8179937981101487,-0.5750938449408749,-0.011574224192686174,0.0,-0.007919496532143522,0.008859958980384386,-0.999929388857805,0.0,0.6588705173713404,0.2571394982482825,0.3038383954774181,1.0,-0.010860000000000007,-0.014273142857142868,-0.005430000000000003,0.5440000000000004
0.462831545992513,0.5303907280945809,-0.12405427329091427,-1.3821226802063544,0.07796506152439148,1.903831864849781,0.15729789527061658,-0.004355466292923169,-0.05703892886418254,0.0006682582304840815,-0.09587998063671796,-0.00019861334013352274,0.037257671371966165,-0.0010277891122871725,0.5752089251463164,0.8179904704845884,0.002651326013375802,0.0,0.8179561934766713,-0.5751473022002627,-0.011575544312133097,0.0,-0.007943934879513559,0.008827194886187342,-0.9999294847783373,0.0,0.6586630295021506,0.25687882889983654,0.3038305797455716,1.0,-0.011220000000000008,-0.014746285714285727,-0.005610000000000004,0.5620000000000004
0.4626878929148789,0.52929948960266,-0.12406266791676078,-1.3838800671393385,0.07786811267549452,1.904471981073431,0.15720422666578912,-0.0101295511552122,-0.06405353231176959,0.00017962663283048336,-0.09440035551998013,-0.0048329479763873,0.039301603130317074,-0.002371186633573626,0.5753203996823787,0.8179121340105107,0.002631662761205392,0.0,0.817877564387829,-0.5752587870609125,-0.011591569412663262,0.0,-0.007967151539233608,0.00882141411642176,-0.9999293510790337,0.0,0.6584664092512563,0.25662570233043813,0.3038199844225935,1.0,-0.011560000000000008,-0.01519314285714287,-0.005780000000000004,0.5790000000000004
0.4625550078575454,0.5282891864694765,-0.12406278626135651,-1.3854676656126967,0.07776666748074411,1.9050555047097653,0.15707166925956112,-0.011542106683622353,-0.06321524660201609,0.00042488492326657533,-0.09769466617606705,-0.0033410025166874437,0.03581026765731712,-0.010337564046926028,0.5753794635798298,0.8178705819691158,0.002632668094436621,0.0,0.8178360512863893,-0.57531786883189,-0.01158835278315839,0.0,-0.007963305155693046,0.008820960917681225,-0.9999293857165544,0.0,0.6582779097533242,0.25638614381023156,0.3038262787958065,1.0,-0.011880000000000009,-0.0156137142857143,-0.005940000000000004,0.5950000000000004
0.46240970032649165,0.5271846860431986,-0.12406655156544538,-1.3872075634347047,0.07764940551325139,1.9057249318152345,0.15696216304058683,-0.013521351046463001,-0.060571376924801065,-0.0015568867707870368,-0.09766406255328453,-0.007390889641170996,0.03849058066915792,-0.008704945309351862,0.5754740632237905,0.8178039629300684,0.002650976006092135,0.0,0.8177698067681205,-0.5754125475632874,-0.011562445518444875,0.0,-0.00793056159683847,0.008821945489340122,-0.9999296372598132,0.0,0.6580778100906751,0.256122734997979,0.30383371026209743,1.0,-0.012220000000000009,-0.01606057142857144,-0.006110000000000004,0.6120000000000004
0.46227199926482526,0.5260227388379117,-0.12406913698321397,-1.3890014483183342,0.07755441660009015,1.906404412234,0.15681013406477348,-0.009688723560700337,-0.0699832670017277,-0.0004366730791280093,-0.1063206439010099,-0.012157978493395243,0.0420038276065152,-0.0058267265425853525,0.5755355028786332,0.8177605761262475,0.0026966573966735454,0.0,0.8177269157369601,-0.5754737208439743,-0.011551398119641253,0.0,-0.007894574510499242,0.008853539519591183,-0.9999296427905682,0.0,0.6578645966492556,0.2558636528812109,0.30385644962178415,1.0,-0.012560000000000009,-0.016507428571428586,-0.006280000000000004,0.6290000000000004
0.4621158143753996,0.5249279014460074,-0.1240698617259269,-1.3907182592820853,0.0774415414514647,1.9070257553387444,0.1566929669641589,-0.011785604077850058,-0.07073947648574858,-0.0009213763486473007,-0.10370266011491526,-0.008672584673896413,0.04159515449647927,-0.007898797652553333,0.5756298103013235,0.8176942173328998,0.002689857618348693,0.0,0.8176605137448383,-0.5755680891284471,-0.011550148949847076,0.0,-0.007896445827254683,0.008848170765777805,-0.9999296755359334,0.0,0.6576608368417645,0.25559500543396124,0.30386323394664677,1.0,-0.01288000000000001,-0.016928000000000016,-0.006440000000000005,0.6450000000000005
0.46195273083864236,0.5236930393231889,-0.1240811262906064,-1.3927101921283154,0.07730708302793514,1.9077397280290416,0.15655554363913743,-0.00894571684803038,-0.0749722338513237,6.606236940653767e-05,-0.11357891976421629,-0.012046812291524444,0.03501527474082582,-0.005121021216856396,0.5757293646532025,0.8176242850525421,0.0026408463694741306,0.0,0.8175900585241933,-0.575667918416382,-0.01156247420599089,0.0,-0.007933661921315949,0.00881615540451687,-0.9999296637326057,0.0,0.6574193955210348,0.2552877205846952,0.3038456143264445,1.0,-0.01324000000000001,-0.017401142857142875,-0.006620000000000005,0.6630000000000005
0.4618129374612897,0.5225503986659882,-0.12408511703021334,-1.3945203963187016,0.07720335496993704,1.9084196338124186,0.15641309845430773,-0.014358205858517915,-0.0672548050030857,-0.0004239909133469717,-0.11110117232905256,-0.008080609043182292,0.0460289570279544,-0.013857977029401572,0.5757991541493412,0.8175751044713598,0.0026513262259808597,0.0,0.8175409745654816,-0.5757376206968267,-0.011562608792481882,0.0,-0.007926985457471558,0.008825478106952112,-0.9999296344432145,0.0,0.657201550253128,0.2550229849165399,0.3038461906106201,1.0,-0.01356000000000001,-0.017821714285714302,-0.006780000000000005,0.6790000000000005
0.46163115730965293,0.5212652450326103,-0.12408051742017391,-1.3966068991700802,0.07707566120468458,1.9092408520840238,0.15625657395641243,-0.013703502515643715,-0.06939707367368637,-0.0006608691882565313,-0.11378904892048353,-0.0004342136820122167,0.04316173462153165,-0.001018763281463264,0.5758940109309065,0.8175082517296917,0.0026633492042956713,0.0,0.8174743048927926,-0.5758324561058721,-0.011553797485358449,0.0,-0.007911834196642598,0.00883115234184334,-0.9999297043432402,0.0,0.6569600387923833,0.25471047139199293,0.3038270688827751,1.0,-0.01392000000000001,-0.01829485714285716,-0.006960000000000005,0.6970000000000005
0.461476002329031,0.5200631418264934,-0.12409106509727087,-1.3985036887501505,0.0769571611149903,1.9099429800515682,0.15612413104903292,-0.0071128942532380415,-0.07736475856399785,-0.0015010077638531012,-0.1146069404574259,-0.005434191452183579,0.04492178629996756,-0.011081530277909878,0.5759891619780639,0.8174412147008071,0.00266321112290169,0.0,0.8174073220856994,-0.5759276581980283,-0.011547693467923916,0.0,-0.007905895843106192,0.008828444530403726,-0.9999297752232861,0.0,0.656732742575753,0.2544215418624812,0.3038296759101885,1.0,-0.014240000000000011,-0.018715428571428588,-0.007120000000000006,0.7130000000000005
0.46131441570885795,0.518817953711582,-0.12409438633291586,-1.40045325737904,0.07683120532527564,1.910637261411437,0.15597291231214164,-0.005888489767399128,-0.08431331467941222,-7.960473130382034e-05,-0.12315701993738537,-0.00863262452916651,0.04849750122733529,-0.004174536741938057,0.5760693994858819,0.8173847172772551,0.0026491203757949043,0.0,0.8173506631671426,-0.5760079556909387,-0.011553151179938475,0.0,-0.007917607237308832,0.00882084698700078,-0.9999297496094751,0.0,0.6564923040564754,0.25412523735987025,0.303836138444899,1.0,-0.01456000000000001,-0.019136000000000018,-0.007280000000000005,0.7290000000000005
0.4611346528557376,0.5173873578491707,-0.12410358403790983,-1.4026716834398625,0.07668425896435459,1.9114393850307938,0.15580848107406992,-0.010972925937921627,-0.07556071352356417,-0.0005171795168833173,-0.12069776669337018,-0.0073965046675998885,0.0502651090013011,-0.009983883692544597,0.5761661288773291,0.8173165285294294,0.0026516086294549844,0.0,0.8172826015054561,-0.5761047704768422,-0.01154078036821847,0.0,-0.007905018362305727,0.008816690096440635,-0.9999298858722221,0.0,0.656221064562823,0.2537880722575755,0.303853875344656,1.0,-0.014920000000000011,-0.019609142857142874,-0.007460000000000006,0.7470000000000006
0.46095022777165784,0.5161186256049383,-0.12410998507040653,-1.404683238709163,0.0765589705516384,1.9121891389335577,0.15565645199330322,-0.007169606281136931,-0.08055539433257203,-0.0008765929700138809,-0.12412467616428373,-0.01190434949383794,0.04439380021244924,-0.013320304034547042,0.5762696783162294,0.8172435207676108,0.0026518894919716866,0.0,0.8172096343897214,-0.5762083473109432,-0.011536934212242249,0.0,-0.007900595984011882,0.00881570473905477,-0.9999299295115889,0.0,0.6559826827078256,0.253471876611925,0.30385153155842265,1.0,-0.015240000000000012,-0.020029714285714303,-0.007620000000000006,0.7630000000000006
0.460770073349075,0.5147562965956023,-0.12411421941293246,-1.4068636558685295,0.07642484552267131,1.9130168738525943,0.15548557498950907,-0.012899690516180683,-0.08400559619998216,-0.0007675327061285185,-0.13114973810495498,-0.0038495239045598347,0.048768571475217404,-0.012387128100012496,0.5763591412247996,0.8171804206455585,0.0026546829128460013,0.0,0.8171465996485826,-0.5762978224510656,-0.011532624251560621,0.0,-0.00789449874863063,0.008816368267484276,-0.9999299718180668,0.0,0.6557204528104721,0.2531448370167898,0.3038407721463495,1.0,-0.015580000000000012,-0.020476571428571448,-0.007790000000000006,0.7800000000000006
0.46058193681649484,0.5133624045671551,-0.12411957833351854,-1.4091139512656854,0.07629606979239842,1.9138091229513217,0.15531026557339206,-0.008714853753744877,-0.0796485297189034,-0.0008582605997289477,-0.13637673665155892,-0.0057678650116264685,0.04722078324059147,-0.007435860575028139,0.5764567914856923,0.8171117085661269,0.0026019560669705262,0.0,0.8170770743782955,-0.5763954909812251,-0.011577538733526935,0.0,-0.00796053997587226,0.008800118912050181,-0.9999295913765262,0.0,0.6554365012110955,0.2528025991750061,0.3038154219312865,1.0,-0.01592000000000001,-0.02092342857142859,-0.007960000000000005,0.7970000000000006
0.4603712865352023,0.5118557262634268,-0.12412002235413798,-1.4115334842454084,0.07614670212160103,1.9146599719127388,0.15512440923566426,-0.01067989278225326,-0.08430245867147675,-0.00017752328761427136,-0.13310324997261483,-0.010521073768736343,0.05515806587205973,-0.011532471375998726,0.5765635079364416,0.81703658564404,0.002546750157034463,0.0,0.8170011604295307,-0.5765022989584059,-0.011616800492443295,0.0,-0.008023298163403081,0.008778690093529745,-0.9999292781426208,0.0,0.6551317232517386,0.25243062088371765,0.3037929676240323,1.0,-0.016280000000000013,-0.02139657142857145,-0.008140000000000007,0.8150000000000006
0.46019566770541653,0.5105856891051601,-0.12411779877773142,-1.4135843024571624,0.07601777402352387,1.915435468359218,0.15497642966014222,-0.011581836060347583,-0.08530479980420673,0.0008327233215124933,-0.13678293627060026,-0.009607880531737683,0.050661807497666106,-0.009566612144453705,0.5766568939409447,0.8169707079544859,0.0025369107072481575,0.0,0.8169351702034755,-0.5765957236219867,-0.011620933123637172,0.0,-0.008031344724372946,0.008773951705947775,-0.999929255134272,0.0,0.6548820700509999,0.2521219889992994,0.3037732566339058,1.0,-0.01658000000000001,-0.02179085714285716,-0.008290000000000006,0.8300000000000006
0.45997841360354597,0.5090062808790708,-0.12412559326084417,-1.4160881423786056,0.0758727511340546,1.9163762484870375,0.15477439572044863,-0.010924319442438315,-0.08821757862512236,3.328018627969788e-05,-0.1397913908793928,-0.010879368902346571,0.05214320259705223,-0.01429182253524966,0.5767662113876841,0.816893494533103,0.0025500769009115694,0.0,0.8168580813930335,-0.5767049315325496,-0.01162083087123599,0.0,-0.008022493673102482,0.008785722671849697,-0.9999292228314954,0.0,0.6545782589146864,0.25173920599676625,0.3037686598730153,1.0,-0.016940000000000014,-0.022264000000000023,-0.008470000000000007,0.8480000000000006
0.4597869060751749,0.507597486386241,-0.12412689924247572,-1.418315353637302,0.07572345168789384,1.9171622717813286,0.15459794184493864,-0.012098626956574498,-0.0850679091633698,0.0002665278560137563,-0.14020505075906153,-0.00896179582704844,0.04926270822573737,-0.006349948980813877,0.5768572357883225,0.8168293581211638,0.002505220795052719,0.0,0.8167934112464407,-0.5767961523365864,-0.011639110589766405,0.0,-0.008062320741457962,0.008760521668153026,-0.9999291236104507,0.0,0.6542777541005337,0.2513732985948833,0.30375824300583115,1.0,-0.017280000000000014,-0.022710857142857165,-0.008640000000000007,0.8650000000000007
0.4595707898089571,0.5060375901996604,-0.1241376891826917,-1.420726487282526,0.07557033065456685,1.9180534626287902,0.15440700484959616,-0.015412701411105515,-0.09052740299498567,0.00023537217829490181,-0.14501811856365468,-0.005190246815327932,0.05031174289368669,-0.011365897052911338,0.5769677857812462,0.8167511828528142,0.002535030655272924,0.0,0.8167156636252221,-0.5769066298670911,-0.011619470978345287,0.0,-0.00802789523560421,0.008774628625048644,-0.9999292768944105,0.0,0.6539839767789244,0.25099541014874377,0.30377792221495864,1.0,-0.017620000000000014,-0.02315771428571431,-0.008810000000000007,0.8820000000000007
0.45936204959918453,0.5045161715520107,-0.1241415736181693,-1.4230489045647712,0.07541925131874,1.9189670736707751,0.15422884627430222,-0.015877637126701753,-0.09956003809007355,-0.002483489234110649,-0.1474597199683328,-0.006767586999847749,0.0510439373067777,-0.010961266179562104,0.5770723547456309,0.8166770096016047,0.002627979779551047,0.0,0.8166428459287396,-0.5770110381359681,-0.011552963423730814,0.0,-0.007918818741929734,0.008813186374586154,-0.9999298075643406,0.0,0.6537301429369516,0.25066238295300297,0.303819721731923,1.0,-0.017920000000000016,-0.023552000000000024,-0.008960000000000008,0.8970000000000007
0.4591430890054282,0.5028510734159131,-0.12414793314919828,-1.4255256358238377,0.07526956674976809,1.9199073163026177,0.15402919231435036,-0.012785283370231522,-0.09754799912665024,-0.0018097142874190203,-0.14324946935752897,-0.008957820240299542,0.05937795627340803,-0.016815538884158102,0.577179336824143,0.8166010485323766,0.002736344326656136,0.0,0.8165683087082011,-0.57711767836486,-0.011494756778212016,0.0,-0.007807588072970495,0.008869118911086729,-0.9999301877122341,0.0,0.6534312214948862,0.25028319215466993,0.3038854165768085,1.0,-0.018260000000000016,-0.02399885714285717,-0.009130000000000008,0.9140000000000007
0.45890243451416934,0.501049385040381,-0.12414546202517338,-1.4282099374389683,0.07509265984458185,1.9208759982738492,0.15381275147882367,-0.010773111387394061,-0.09537646431106753,0.0012192181908117384,-0.15136983469053744,-0.006549902471486103,0.04925929145884984,-0.015980533232986538,0.5772852463228524,0.8165259540966626,0.0028031349783043807,0.0,0.8164941640917189,-0.577223463169719,-0.011449911428896918,0.0,-0.007731263424671786,0.00889877961963563,-0.999930517229642,0.0,0.6531188839964329,0.24989007285046885,0.30394468874727726,1.0,-0.018600000000000016,-0.02444571428571431,-0.009300000000000008,0.9310000000000007
0.4586816758867936,0.49944502322452566,-0.12414653039339613,-1.4306602048455004,0.0749363445007502,1.9217525912202014,0.15362064838240158,-0.012791197660338986,-0.09996435032694893,-0.001462248418646029,-0.15767788539376607,-0.00987283591896577,0.049137524003124225,-0.015266558138011614,0.5773926539435207,0.8164499217217679,0.002827612736032853,0.0,0.8164183831316213,-0.5773307066881183,-0.011446645838653537,0.0,-0.007713293944621724,0.008917895934737477,-0.9999304856981913,0.0,0.6527859167019459,0.24948992341456763,0.3039780750516788,1.0,-0.018940000000000016,-0.024892571428571455,-0.009470000000000008,0.9480000000000007
0.45841924640726844,0.497691369336867,-0.12414398253310556,-1.4334315017930246,0.07476560090566814,1.9227968300162892,0.15340206418247634,-0.015730640213238348,-0.10316233436296345,0.00014010977792264665,-0.15172120304019582,-0.005360930762413206,0.05766193995434958,-0.016554254801268375,0.5775212788766947,0.816358876098155,0.0028468862976965487,0.0,0.8163275667203095,-0.5774592331195529,-0.011440489442526392,0.0,-0.007695732491765195,0.008931289812956308,-0.9999305014668232,0.0,0.6524456276862618,0.24905781493226423,0.30397223950361607,1.0,-0.019300000000000015,-0.02536571428571431,-0.009650000000000008,0.9660000000000007
0.458176587998308,0.4961040225612845,-0.12414890415794094,-1.4359623228745202,0.07460865678444985,1.92369284766144,0.15320749120317056,-0.014088446546949681,-0.10632869688219629,-0.006507314665388236,-0.1589544937559293,-0.01013749817620997,0.04895085424036264,-0.012349628219675914,0.5776493879186796,0.8162683826341798,0.0028033997508115863,0.0,0.8162364514197799,-0.5775873914792845,-0.011472030291484686,0.0,-0.007745196381246655,0.0089152199861854,-0.9999302629611796,0.0,0.6521242237570561,0.24865297569345163,0.30395168477090095,1.0,-0.019620000000000016,-0.02578628571428574,-0.009810000000000008,0.9820000000000008
0.4579135721081151,0.4945337218981485,-0.12415189683040344,-1.4385403248525308,0.07445320884861568,1.9245764779351688,0.15300080907854247,-0.01410393080205414,-0.09559678540056737,0.0006008218459103305,-0.16331163351142816,-0.012650473505116798,0.0490249735966493,-0.010372084284965818,0.5777853634830004,0.8161725307067943,0.0026871482453151505,0.0,0.8161388760488306,-0.5777234735924862,-0.011561572695429078,0.0,-0.007883961218121627,0.008873364470734474,-0.9999295507976953,0.0,0.6517700291555832,0.24820554688451218,0.30388674881519784,1.0,-0.019960000000000016,-0.026233142857142882,-0.009980000000000008,0.9990000000000008
0.45761866479907076,0.492457774409197,-0.12423547906081912,-1.441697076643413,0.0742762846575673,1.9257129544821912,0.15286434330849663,-0.015185271724858534,-0.15828238279020992,-0.010298701070794405,-0.2191007568863345,-0.009863647590846698,0.08770618496221023,0.0010304799167635877,0.578084945000696,0.8159602091381868,0.0027350261273103842,0.0,0.8159273811689476,-0.5780230956987626,-0.011513313980352354,0.0,-0.007813648251298655,0.008887427295108427,-0.9999299778169864,0.0,0.6514087027390785,0.24769024351551114,0.30393873505473085,1.0,-0.033427999999999174,-0.04393394285714178,-0.07034448279599623,1.014999999999999
0.4573142905042277,0.4891250268455454,-0.12439826681862663,-1.4468261580064614,0.07406043397732937,1.9277284238467904,0.15332663864991902,-0.020270120728008083,-0.21916603505636595,-0.00620294038539444,-0.34442101233068767,-0.014943747675520197,0.13614333417396268,0.06107645873006077,0.5790271792748255,0.8152911940873595,0.0029225683661033425,0.0,0.8152608159903042,-0.5789646583776245,-0.011422484918443844,0.0,-0.007620734295686826,0.008996757909041447,-0.999930488962068,0.0,0.6507742737493745,0.246933740522486,0.3039951134835698,1.0,-0.04975771428571166,-0.06539585306122105,-0.14363206904827386,1.0319999999999971
0.45683257461285987,0.4847626805338277,-0.12460636845537393,-1.4537300505232331,0.07379016053496758,1.9304155784380437,0.1548241584933309,-0.033468059523305116,-0.30272582937039627,-0.01592254841042771,-0.46219919849514907,-0.020608814911600742,0.1852974554133237,0.11717582072843448,0.5810615592035145,0.8138420650587612,0.0030503209798009344,0.0,0.8138131760649153,-0.5809982081773464,-0.011399274496919503,0.0,-0.0075051225699809265,0.009106246941030113,-0.9999303722769195,0.0,0.6499192503121812,0.24587517424035188,0.3039788253767128,1.0,-0.06512685714285282,-0.08559529795917802,-0.2126086208151234,1.0479999999999954
0.4560434106796432,0.47841700979381124,-0.12494567011262882,-1.4639570977260685,0.0732699447931756,1.934034348274188,0.15752537037163786,-0.048804764588979324,-0.377229043738153,-0.01815897841568286,-0.6153225118663195,-0.034363045240659446,0.21189919411228558,0.17201699448672972,0.5845030278634537,0.8113749384872493,0.00276884713840465,0.0,0.8113427285409559,-0.5844404578915658,-0.011535810522975897,0.0,-0.007741790317533026,0.00898937324501567,-0.999929625449382,0.0,0.6485939511106216,0.24419650747487506,0.30383540874193116,1.0,-0.08241714285713664,-0.1083196734693796,-0.2902072415528292,1.0659999999999934
0.45509912141368836,0.4714180678921732,-0.12525696339785916,-1.4750414467907362,0.07269068925321394,1.937945967511459,0.16076693573938397,-0.06736191736452943,-0.4509581617782794,-0.018868003028351458,-0.6949932819520279,-0.036883203035002816,0.2515987650722098,0.22017521353374161,0.5884952419462374,0.8084847048667665,0.0025649764804113176,0.0,0.8084500821828308,-0.5884330796908206,-0.011649989071186258,0.0,-0.007909673251936589,0.008929790509643223,-0.9999288454237637,0.0,0.6471481305133915,0.2423526913933286,0.30375021394959756,1.0,-0.09778628571427801,-0.12851911836733684,-0.35918379331967965,1.0819999999999919
0.4538869484749249,0.46263931126518126,-0.12556756104181652,-1.4884816628114692,0.07199520844858455,1.9429622300276144,0.16514495576556149,-0.07644967628941793,-0.5252013403874244,-0.01936390255355341,-0.8443398888964521,-0.03695517224096718,0.30149575879765317,0.2673308725306779,0.5936769324683276,0.8046865999086974,0.002814726200680337,0.0,0.8046555316002802,-0.5936136652571853,-0.011534244067515185,0.0,-0.0076107382348196695,0.009112675090894903,-0.9999295154240667,0.0,0.6454300064402378,0.24013819896458447,0.3038535675799527,1.0,-0.11411599999999049,-0.1499810285714161,-0.4324713795719573,1.09899999999999
0.4523546276662849,0.45266990403030316,-0.12590057833540189,-1.5040933453777297,0.07109180606658122,1.9483919125543554,0.17040194282511256,-0.09414988318111374,-0.5952820024862518,-0.01999668080629183,-0.9410403789058247,-0.047544640492343096,0.32207276191498513,0.32057675547752107,0.599838459995944,0.8001050739739876,0.002537599649706234,0.0,0.8000708005625244,-0.599775701214955,-0.011686283436513203,0.0,-0.007828414785390314,0.009040315696973056,-0.9999284917503086,0.0,0.6433375748424364,0.23746349703240552,0.3037595678260928,1.0,-0.13044571428570298,-0.17144293877549538,-0.505758965824235,1.1159999999999881
0.4505408575264607,0.4413178193130366,-0.12626552419413237,-1.5213514163703552,0.06999068505496023,1.9547233605263639,0.17664379459970914,-0.11455398059175625,-0.6725831227502941,-0.01968197523352261,-1.0477322618971998,-0.06288901861540207,0.3662779839163969,0.3791229633924205,0.6069968134824378,0.7946874163260387,0.0027432929884091736,0.0,0.7946573641697748,-0.6069343271239718,-0.011451769755187169,0.0,-0.007435721795772676,0.009131341532068432,-0.9999306619177156,0.0,0.6410820797696448,0.23444816588624334,0.3038815464886254,1.0,-0.14677542857141548,-0.19290484897957466,-0.5790465520765127,1.1329999999999862
0.4483091181201408,0.42795798492591924,-0.1266150726255367,-1.5416333777460534,0.06874462467352492,1.9618872540074086,0.18424873820411536,-0.12551753964868567,-0.7546797820844806,-0.01989013159366952,-1.1541479181940906,-0.07650233379366533,0.4098814479162723,0.44945835034047826,0.615569790789469,0.7880651054304434,0.0028229721078379625,0.0,0.7880367341796357,-0.6155067384440492,-0.011415227315788134,0.0,-0.007258523712389275,0.009251652934122695,-0.9999308579854425,0.0,0.6383125576311123,0.23088857510388283,0.30397128798381234,1.0,-0.1640657142856993,-0.21562922448977623,-0.6566451728142184,1.1509999999999843
0.4461258477677558,0.41588646236004867,-0.1269307077712341,-1.5597925895100868,0.06755035131863171,1.9683178427286991,0.19134723935323922,-0.15208771810198113,-0.8637176666515392,-0.026727620990147406,-1.1936140840273775,-0.08699342848602723,0.46291326831800184,0.4800654176699592,0.6235105043235472,0.781797013992547,0.0029709950760237894,0.0,0.7817715971669614,-0.623447354576883,-0.011283298955218214,0.0,-0.006969124587811015,0.009358075159705381,-0.9999319265488951,0.0,0.6358239474431857,0.2275841834246354,0.304089943984691,1.0,-0.17847428571426913,-0.23456620408161089,-0.7213106900956399,1.1659999999999826
0.44317138987316623,0.4003385601201404,-0.12727549030433125,-1.583236299822496,0.06596793960830294,1.9765773282141261,0.20082427297955424,-0.1764054828458326,-0.9021265197825448,-0.01847552042413876,-1.317783090170406,-0.07862739745463218,0.45093957669886725,0.5383728655714105,0.6333250704859026,0.7738675630018903,0.00301611152812501,0.0,0.7738438970535195,-0.6332620277315184,-0.011205986239319544,0.0,-0.006762090551087452,0.009431213103831007,-0.9999326609081078,0.0,0.6327115069716281,0.2235184987760155,0.30411817258427565,1.0,-0.1948039999999816,-0.25602811428569017,-0.7945982763479175,1.1829999999999807
0.4405518344044977,0.3873490782817681,-0.12760379478836975,-1.6026648065191214,0.06465857020704593,1.9833758118562457,0.20887181374303723,-0.20372091641603537,-0.9515014474774861,-0.02294798453025142,-1.4038320495075651,-0.10081467069419753,0.4692468668242722,0.5961511776422852,0.6433918039645875,0.7655176592614464,0.0032321589190560645,0.0,0.765497644869313,-0.6433281597457937,-0.011089701476320936,0.0,-0.006410146881850376,0.009609418089735422,-0.9999332823248408,0.0,0.6295566511325051,0.21931742604970933,0.3042313385941705,1.0,-0.210173142857123,-0.2762275591836474,-0.8635748281147679,1.1989999999999792
0.4368090605258644,0.3696508713458974,-0.12798215488596332,-1.6290083886582407,0.06268799345167034,1.9923042286459183,0.22009586396632944,-0.21437581229125927,-1.007444796831285,-0.02936813813481242,-1.487476967425623,-0.11585572771543419,0.5079844330172626,0.6502345534653905,0.6548135468179904,0.7557708093188975,0.00323258198815981,0.0,0.7557525500753345,-0.654750839501167,-0.010962122438396175,0.0,-0.00616843513810672,0.009621363596482496,-0.9999346877524009,0.0,0.6258968374885261,0.21450415215125637,0.30430770015098785,1.0,-0.22650285714283547,-0.29768946938772667,-0.9368624143670456,1.2159999999999773
0.43282582956002164,0.3520404188400482,-0.128314216703827,-1.6552257694753592,0.06074965747109729,2.0011026195681456,0.23166050319292916,-0.24211997124705412,-1.0638431315361836,-0.021998602668127927,-1.596521700595501,-0.12309805865233714,0.5176787399740701,0.685448531330723,0.6663217761384187,0.7456445845421639,0.003192348335526018,0.0,0.7456268321174636,-0.6662589329060898,-0.010973078443279915,0.0,-0.006055202502907808,0.009692088297199752,-0.9999346968412928,0.0,0.6221913523407746,0.20967413355292241,0.30429799341802855,1.0,-0.24187199999997663,-0.3178889142856836,-1.0058389661338951,1.2319999999999756
0.4283202269808088,0.3334608229971325,-0.12873686514142657,-1.6825153618834863,0.05864570518747607,2.0101433583979476,0.24408138424505985,-0.2686526976262897,-1.1058616855702625,-0.025989050205100412,-1.606054570601109,-0.11907888194058423,0.5394382048300097,0.7351768423267336,0.6793655819411609,0.7337797816566379,0.0032225776783119512,0.0,0.7337640093543588,-0.6793032199222454,-0.010874781868812406,0.0,-0.005790699160836854,0.009752751801176865,-0.9999356737488334,0.0,0.6180298566305119,0.20407702047075751,0.3043503153701206,1.0,-0.2582017142856891,-0.3393508244897629,-1.0791265523861726,1.2489999999999737
0.4236960974002842,0.3150892177785067,-0.12903414199236654,-1.7092552490296824,0.05650648531289871,2.0188740865668575,0.2564642083174418,-0.29622684954887407,-1.1530625282422453,-0.01361749030975509,-1.705893668795626,-0.13354135865136776,0.5356339245090698,0.7918034224094315,0.6929169097147301,0.7209968207734226,0.003238451360418611,0.0,0.7209826903148484,-0.6928547424663928,-0.010817255169416225,0.0,-0.0055555371646371365,0.009830515665765246,-0.9999362464520213,0.0,0.6135407876925442,0.1981991791198932,0.3043834220346083,1.0,-0.2745314285714018,-0.36081273469384245,-1.1524141386384512,1.265999999999972
0.4179863754484069,0.29361107255805596,-0.12932535376714285,-1.740323145034465,0.0538752437515094,2.028707408853411,0.27142821643581944,-0.32754473069510937,-1.217265261020178,-0.01666046469744543,-1.7360144152731993,-0.14548978915293384,0.5469874079479868,0.8350620023686002,0.707974680326914,0.7062173241014869,0.0031128855018293087,0.0,0.7062033992462808,-0.7079131491050252,-0.010792549208260154,0.0,-0.0054183369634646095,0.00983937133687518,-0.999936912208088,0.0,0.6084650557718113,0.1916381321135187,0.3043871938422055,1.0,-0.2918217142856856,-0.383537110204044,-1.230012759376157,1.28399999999997
0.4119855971319292,0.2724214283628342,-0.1296036855296686,-1.7705623223750258,0.051299598247368426,2.0381700707073698,0.28637779301413846,-0.37917014064766263,-1.2720293099958002,-0.018365078996896583,-1.7530195375087656,-0.15368184815471056,0.5481302691552695,0.8793703907961072,0.7228241902676127,0.6910107667942643,0.003171283585734136,0.0,0.6909989320489682,-0.7227624552946544,-0.010754349112621919,0.0,-0.005139385264917418,0.009965049118228028,-0.9999371402819129,0.0,0.603418577902421,0.1850625659263808,0.3044422457062936,1.0,-0.3081514285713981,-0.4049990204081233,-1.3033003456284347,1.3009999999999682
0.40536213527936965,0.2503325134354943,-0.12993452805231584,-1.8016481100937192,0.04848964429885345,2.047792697302946,0.30205692753203084,-0.4057427441271459,-1.301584346373909,-0.02377596469252618,-1.8160456475695512,-0.1712883724456046,0.5814637671791413,0.930995855350645,0.7372554308952537,0.6755915023776836,0.0033613139880924285,0.0,0.6755836755819997,-0.7371941982057978,-0.010590482521338077,0.0,-0.00467698887365442,0.010078933664224007,-0.9999382685302467,0.0,0.5984535168449715,0.17849513924865343,0.3045550178897506,1.0,-0.32352057142853924,-0.42519846530608024,-1.3722768973952841,1.3169999999999664
0.39891448105828337,0.2302628168657323,-0.1302828915580881,-1.8296815898664358,0.04585059215152939,2.056239317344616,0.31663164485145767,-0.4344394175188829,-1.3444648372719388,-0.018441724699463556,-1.8522467175915223,-0.18711617008356404,0.5859045148195839,0.9812349218947879,0.7531665374107517,0.6578058870887065,0.003511230175761109,0.0,0.6578019727810906,-0.7531066738366952,-0.01037541946831081,0.0,-0.004180761621143725,0.010124307815934472,-0.9999400080122386,0.0,0.5929263260981704,0.17108857513653428,0.3046431190524885,1.0,-0.33985028571425174,-0.4466603755101595,-1.4455644836475618,1.3339999999999645
0.391141938029256,0.20685209804596233,-0.1305128702881609,-1.8620839600625176,0.042779650113511626,2.065554133187386,0.33369637153370824,-0.4741564854224891,-1.3849467565589872,-0.013524279852676969,-1.9007197347577696,-0.1836426596482252,0.5292029589547974,1.0121396168980243,0.7692003960608885,0.6389839729043928,0.0033136041252148063,0.0,0.6389791139086795,-0.769140216007221,-0.010476975233926903,0.0,-0.004146072891116459,0.01017641325472031,-0.999939623523766,0.0,0.5869896799473552,0.16347436149328148,0.30459190553923404,1.0,-0.35617999999996425,-0.4681222857142388,-1.5188520698998396,1.3509999999999627
0.3825255354193702,0.18264302244809263,-0.13083158850656318,-1.8952501759531055,0.03945658283877778,2.0747683250460205,0.35164371532563987,-0.5327266858417725,-1.410939283261377,-0.020819609264572072,-1.9131819495638707,-0.19481237832897702,0.5228033085074455,1.0725497917043558,0.7857454893244693,0.6185258507475837,0.0032472857029755765,0.0,0.6185221085361767,-0.7856860157824643,-0.010422703922094993,0.0,-0.0038954398437138216,0.010198306942385521,-0.9999404082663791,0.0,0.5808389953825778,0.15538327236832322,0.3046289803283939,1.0,-0.3725097142856767,-0.4895841959183181,-1.592139656152117,1.3679999999999608
0.37299268394606294,0.15770989305107566,-0.13124937264985106,-1.928639294841899,0.03604039141883245,2.083910537899258,0.3701703139897805,-0.5724671254689936,-1.4952328823087722,-0.021055787803601796,-1.9197384621677573,-0.20197121717131652,0.5301965547762292,1.1058796485702511,0.8015785424179862,0.5978635180876806,0.0034352548794069865,0.0,0.5978636399331156,-0.8015194330216078,-0.01031568882112291,0.0,-0.003414016197258396,0.010322847542377014,-0.9999408899090095,0.0,0.5748751732243722,0.14733086136844267,0.3047388459070205,1.0,-0.3878788571428179,-0.509783640816275,-1.6611162079189667,1.383999999999959
0.36026274801879693,0.12606844230386618,-0.13156795675088212,-1.9706828527766782,0.03146391598833788,2.094927728382279,0.39391491082164676,-0.625881166538599,-1.527536434682789,-0.015784878904345618,-2.006307821724653,-0.21834102346584164,0.5055108936609124,1.149629745447812,0.8222442087362439,0.5691074733884688,0.0034484539013008857,0.0,0.5691102078663813,-0.8221864243179523,-0.010188320310655407,0.0,-0.002963034295125566,0.010340036766522634,-0.999942150360426,0.0,0.5665835841271835,0.1364827333017416,0.30474524410790815,1.0,-0.40805085714281564,-0.5362954122448436,-1.7516479321129568,1.4049999999999567
0.3516187694052455,0.10588535786993558,-0.13185493196309309,-1.9969664416959503,0.028467006128084373,2.101462973020092,0.4090151439276809,-0.6872716880834451,-1.5446920796578771,-0.026433632270677618,-2.021847511370456,-0.2274649721811299,0.4843910933823568,1.164892797435901,0.8351080708645162,0.5500573198423999,0.0034931026252010677,0.0,0.550062158816031,-0.8350514631671511,-0.010070859062450083,0.0,-0.0026226797809476565,0.010331878175246376,-0.9999431853081147,0.0,0.5612567141668464,0.12939181656046025,0.30480110497416096,1.0,-0.42053828571424284,-0.5527074612244336,-1.807691380423522,1.4179999999999553
0.3402436604467738,0.08060791634037792,-0.13211950805408423,-2.029474656137524,0.024724910226916374,2.1091051781149592,0.42807931841407093,-0.7379257111849911,-1.6000252388336762,-0.017231495214582424,-1.9610339465576134,-0.23288078052228778,0.46476571000312633,1.23323221727229,0.8518368329269562,0.5237771185088993,0.0035052955219377104,0.0,0.5237839131049554,-0.8517806842089231,-0.010041179325564076,0.0,-0.0022736407301741646,0.010389663833834148,-0.9999434411221717,0.0,0.5540392692648477,0.1198979267171889,0.304867842679687,1.0,-0.42998,-0.5651165714285715,-1.850065695,1.4349999999999534
0.3265861016119011,0.05228272188230446,-0.132375089402811,-2.065522513928417,0.020401271606210733,2.1172438719622635,0.44943012231077045,-0.7888418479605048,-1.577494582861206,-0.018653091896793816,-1.99022712929031,-0.23999696044208518,0.4427917851328183,1.1709510968697467,0.8679359778923378,0.4966453762318055,0.003354914134254033,0.0,0.49665249081214047,-0.8678809715087472,-0.009983464545850758,0.0,-0.0020466147709825022,0.010331433436703188,-0.9999445348873717,0.0,0.546695541174248,0.1102196603635286,0.30479787804841063,1.0,-0.42998,-0.5651165714285715,-1.850065695,1.4519999999999516
0.3137091624375072,0.027232521684449236,-0.1325440216970604,-2.0966084508160754,0.016546749332535485,2.1235820714821267,0.46802951758720296,-0.8058410841307652,-1.6029241295322112,0.0043919264220575165,-1.918352718521513,-0.2362093959809927,0.37844866979178615,1.1712654372907008,0.8823771752789862,0.47051128957947,0.003223945742349612,0.0,0.4705187016680806,-0.8823227239349882,-0.009975425290898232,0.0,-0.001849025227981027,0.01031921303215598,-0.9999450459640786,0.0,0.5397585504081663,0.10102845586898218,0.3048464684856416,1.0,-0.42998,-0.5651165714285715,-1.850065695,1.4679999999999498
0.29948659157879287,0.0010015687775027189,-0.1327238376473688,-2.128529043524141,0.012449608316748994,2.129946797471628,0.4873201711797511,-0.8472041291240493,-1.5775233515658513,-0.023321579491259972,-1.8407390084241466,-0.23898545618594366,0.3577007348457377,1.1289943123465913,0.8968264913948991,0.4423473659440835,0.0034349782901617115,0.0,0.4423588614165168,-0.8967733165471035,-0.009849028205856002,0.0,-0.0012763193835370057,0.010352561813828973,-0.9999455962564772,0.0,0.5324817015411705,0.09128913341580255,0.3049574657764703,1.0,-0.42998,-0.5651165714285715,-1.850065695,1.4849999999999481
0.28295938410389,-0.027881002786240124,-0.13281859067264623,-2.162742899049883,0.007996092505836709,2.1362957888861756,0.508435886680095,-0.8667771037911675,-1.5117056459690335,-0.005438741212348407,-1.7407706756868078,-0.22138710984760848,0.32491919790404683,1.1004185151180828,0.9119063567448893,0.41035567034784953,0.003970798765714304,0.0,0.41037471189834474,-0.9118544909048214,-0.009732941604046428,0.0,-0.00037318427434257506,0.010505248976639445,-0.9999447487123656,0.0,0.5244318826321519,0.08052210089199908,0.305204092379493,1.0,-0.42998,-0.5651165714285715,-1.850065695,1.503999999999946
0.26745337530245455,-0.05333500240625499,-0.1329730417310726,-2.192516893427152,0.003974428109852989,2.1412537806981033,0.5267531023853074,-0.9248098097826345,-1.5200637193885218,-0.009899589045754052,-1.7211731280428313,-0.23794016733748496,0.2872679447885248,1.0690000097889052,0.9237509949167496,0.38294588722927614,0.00415857496095378,0.0,0.3829684437310513,-0.9237002171375133,-0.00968642697466282,0.0,0.0001319017620394214,0.010540652476192063,-0.9999444370800317,0.0,0.5175948939360977,0.07135559769269575,0.3053095995870825,1.0,-0.42998,-0.5651165714285715,-1.850065695,1.5199999999999443
0.2534897376336688,-0.07538996026020932,-0.13298393666236918,-2.21809182786006,0.00042812030181290273,2.1450687616191346,0.5424822716410066,-0.9302098481351306,-1.4830448171027013,-0.0036039796212066896,-1.6729967448820076,-0.2358411215556103,0.2536598542060991,1.0462297182989875,0.9346289300742465,0.35557329841557866,0.004139978664650358,0.0,0.3555971218201089,-0.9345793873577084,-0.00963340960167009,0.0,0.00044376404086166055,0.01047602950255315,-0.9999450264286222,0.0,0.5106967277865737,0.06236902555288803,0.30532331179973987,1.0,-0.42998,-0.5651165714285715,-1.850065695,1.5359999999999425
0.2350238626017082,-0.10296211993933434,-0.13307343186832404,-2.249559405898046,-0.004070755873756737,2.1493170001438817,0.5618549057520708,-0.9624521512010055,-1.4694896082959668,0.0024793950150850848,-1.6481178333649389,-0.248182823397958,0.23306434187842023,1.0020509783019134,0.9465487667230972,0.3225053046024385,0.0040629569872277175,0.0,0.322529996670988,-0.9465007749824901,-0.009561961418388748,0.0,0.0007618233247571604,0.010361487782342547,-0.9999460281415982,0.0,0.5024923106399344,0.05161706021513846,0.30529249894732774,1.0,-0.42998,-0.5651165714285715,-1.850065695,1.5549999999999404
0.2209876412325444,-0.12281524412709083,-0.13312994143989657,-2.271940800108512,-0.007293435982135641,2.1519149188641746,0.5756430208446511,-1.003354012426373,-1.4017729531109309,-0.009313651498136911,-1.5794092378035112,-0.22152565213522674,0.1889984068340797,0.987495299688743,0.9551162551410577,0.2961738163732145,0.0038414270077792,0.0,0.29619754555030814,-0.9550687523053211,-0.009562388882416662,0.0,0.0008367137997748464,0.010271212063351708,-0.9999468996465595,0.0,0.49601504204841906,0.04316274068553136,0.30520508049781786,1.0,-0.42998,-0.5651165714285715,-1.850065695,1.5699999999999388
0.20230566074228606,-0.1481799571464535,-0.13321675207835298,-2.2999426134168695,-0.011449209896740632,2.1546968738786427,0.5929158062793862,-1.0342753637430462,-1.3994961241351496,-0.003961339084834379,-1.5133439046143313,-0.2298767071922709,0.15382043622211253,0.9486064259500777,0.9639458837627115,0.26603749729124143,0.003623549799042956,0.0,0.26606045135399015,-0.9638992426329855,-0.009530644158516833,0.0,0.000957246617398877,0.01015130394530419,-0.9999480160023937,0.0,0.48865112835945457,0.03361229813848586,0.30513928254028566,1.0,-0.42998,-0.5651165714285715,-1.850065695,1.586999999999937
0.18502801735101637,-0.17041037266809259,-0.1333857031573108,-2.3240255019110516,-0.015059064424575113,2.1566831768085626,0.6075732359303124,-1.0906797051130248,-1.39690169724276,-0.005142257375669646,-1.484934118018556,-0.2357934398207284,0.12108271384951555,0.9199300170488678,0.9709687331334196,0.23914120917069365,0.0034566247799042325,0.0,0.2391637849470531,-0.9709223646829217,-0.009549483207559599,0.0,0.0010724599920932665,0.01009914351743452,-0.9999484272350148,0.0,0.48215200986250495,0.02510778158631417,0.30507555446045287,1.0,-0.42998,-0.5651165714285715,-1.850065695,1.6019999999999353
0.16606827007617894,-0.1936654656959416,-0.13359629279953703,-2.348715174262848,-0.01886963702993384,2.1582529234095986,0.6226161191771514,-1.1456972118054043,-1.3733123172139166,-0.025713820464226055,-1.4034081145414705,-0.22524828210736111,0.10505778705780784,0.8691226745874923,0.9784036339296163,0.2066307231194754,0.003289419044820141,0.0,0.20665310072094029,-0.9783582462818962,-0.00950709187089495,0.0,0.0012537971194099828,0.00998173405908088,-0.9999493952085561,0.0,0.47435816650449897,0.01491248599665347,0.30503078545669815,1.0,-0.42998,-0.5651165714285715,-1.850065695,1.6199999999999333
0.14650699561996486,-0.21652531468800962,-0.13374931013309885,-2.3724509480194773,-0.022494501218545255,2.1592690150865628,0.6369800163913737,-1.1619842251292218,-1.3393224327424629,-0.007478102733448363,-1.325533284822304,-0.2060490557908725,0.046040368531924905,0.8239104375652984,0.9844150333227801,0.17577775995031764,0.003157241860674751,0.0,0.1758003166764372,-0.9843696480012387,-0.009559898095183806,0.0,0.0014275030703800873,0.00996614340000692,-0.9999493178260159,0.0,0.4670110698946998,0.00536343911738581,0.3050113884953502,1.0,-0.42998,-0.5651165714285715,-1.850065695,1.6369999999999314
0.12628363577351737,-0.23901131940451406,-0.13402337237317288,-2.395328318508772,-0.026181547523018434,2.1598121166154933,0.6506080081018296,-1.2010602216011321,-1.3066169999399566,-0.011735585143010782,-1.2975664873878843,-0.19933656999615326,0.016247079589893163,0.7758402093643554,0.9894473820307025,0.14479428449194193,0.003039781614498456,0.0,0.14481703239897115,-0.9894028843266531,-0.009523996769367594,0.0,0.0016285797545907421,0.009863895733031269,-0.9999500243956949,0.0,0.4596603190368756,-0.004241879729892854,0.30500017882711145,1.0,-0.42998,-0.5651165714285715,-1.850065695,1.6539999999999295
0.10533788504220414,-0.26116266671335875,-0.13430040569573365,-2.4173918500103473,-0.029734452077917153,2.160084521685124,0.6636645376378162,-1.23719841646627,-1.292642893170436,-0.012574616621511013,-1.2649552833146493,-0.21472111266182684,0.00642939403437406,0.7465257292775888,0.9933154654310524,0.11530446025681695,0.003164566571321537,0.0,0.11532972139758779,-0.9932720324795856,-0.00951166428320384,0.0,0.0020465775568544453,0.00981324075080281,-0.9999497546508377,0.0,0.45275760889244254,-0.01329865521927144,0.3050241118759183,1.0,-0.42998,-0.5651165714285715,-1.850065695,1.6699999999999278
0.08506889850196551,-0.28156518992125906,-0.13458380494483121,-2.437088234366228,-0.03302219961306073,2.159999030157533,0.675240575322957,-1.297292180102069,-1.2542876264225387,-0.022000947437290242,-1.2163329404048773,-0.21316232729838697,-0.002490362546752207,0.7042120282399786,0.9965978087206078,0.08222342552530515,0.003586481475733054,0.0,0.08225407962952369,-0.9965568640896691,-0.009456739463091435,0.0,0.0027966210632380806,0.00971975569487,-0.9999488513218366,0.0,0.4451028056547487,-0.023425864094276518,0.30516120754820264,1.0,-0.42998,-0.5651165714285715,-1.850065695,1.687999999999926
0.06293669505222148,-0.3029049439228338,-0.13483241680532965,-2.457065569270846,-0.036365491272963096,2.1596619212852097,0.6867573587712326,-1.3351763869877582,-1.238840955300958,-0.024466482296835852,-1.1551715398947027,-0.18595489611593186,-0.04268109807300591,0.6631101238425406,0.9985828040075461,0.052858985737210595,0.004365554772162973,0.0,0.0528982070494165,-0.9985458470768729,-0.00941901681151586,0.0,0.0038614012565714173,0.00963678377681125,-0.9999461095372966,0.0,0.4383705486834489,-0.032386640574351686,0.3054163613570924,1.0,-0.42998,-0.5651165714285715,-1.850065695,1.7039999999999242
0.04010302747405247,-0.3235600652512557,-0.13509620468499678,-2.4760548382523755,-0.03966394784519709,2.1588170978424936,0.6976773685527718,-1.3536525460056201,-1.2079895332440125,-0.013375059869108873,-1.0857383563198693,-0.20016588788545928,-0.041014360007040056,0.6290635532362528,0.9997468973218053,0.021494787067818488,0.00498621354745845,0.0,0.021540708825853183,-0.9997146539758598,-0.00934641056315518,0.0,0.004783983752855603,0.009451633509013159,-0.9999438884874808,0.0,0.43121531778687294,-0.041924925751961856,0.30564077377598386,1.0,-0.42998,-0.5651165714285715,-1.850065695,1.7209999999999224
0.01803681189562428,-0.34267052921858276,-0.13541968312754257,-2.4931618176854937,-0.04265269602837941,2.1577242612228087,0.7071871775314537,-1.3663193163353498,-1.1780833580431593,-0.015981238836059574,-1.0443830442216768,-0.18676239465658817,-0.08089915954598671,0.5862372461754288,0.9999258321054063,-0.009805664373624234,0.005738129983799002,0.0,-0.009751965601243917,-0.9998994569305106,-0.009312470037010459,0.0,0.005828980236202097,0.009255999511169899,-0.9999401729415892,0.0,0.4240420964698785,-0.05146313930388548,0.3059182164167951,1.0,-0.42998,-0.5651165714285715,-1.850065695,1.7379999999999205
-0.006205534688273993,-0.36232059648891346,-0.13583419036435132,-2.5103530214629024,-0.04582624953349292,2.1561798139848207,0.7165051044338009,-1.426074096520483,-1.135519810352136,-0.026293414922350555,-1.0012430135280084,-0.17766747409812375,-0.10323133529413486,0.515220729956533,0.9991948269134827,-0.03935239493437359,0.006467904102012789,0.0,-0.039291702640478876,-0.9991752678946376,-0.009257053121787462,0.0,0.00682698846490587,0.008995637820973595,-0.999936233331253,0.0,0.41730388499767135,-0.06053236407196923,0.30620473399402,1.0,-0.42998,-0.5651165714285715,-1.850065695,1.7539999999999187
-0.03407758804969071,-0.3833460475742694,-0.13633502655072927,-2.528635866380642,-0.04914170912403774,2.154071534374081,0.7260353605632628,-1.4538050191545326,-1.0867394709942069,-0.025040157507782528,-0.9291455394338816,-0.16814498072779877,-0.10968871061599374,0.4818680230284612,0.9973273265858926,-0.07260335393996303,0.006906775145676596,0.0,-0.07253807074032287,-0.997312866424372,-0.009274786190683101,0.0,0.007561741889766771,0.00874916202058583,-0.9999331338762258,0.0,0.40964216065772885,-0.07071095338598365,0.3063821156446521,1.0,-0.42998,-0.5651165714285715,-1.850065695,1.7719999999999168
-0.056772164683039354,-0.39924216158134507,-0.136741813615117,-2.5423242340998957,-0.05177811658820016,2.1522387626471633,0.7329408710778789,-1.5202393048927874,-1.046981483363593,-0.02878965153653414,-0.8999093892142507,-0.17469652030012636,-0.09554154720201816,0.44994859258457715,0.9947359152188779,-0.10212550203199561,0.00718245846369143,0.0,-0.10205807677572132,-0.9947262195870596,-0.009200213697847586,0.0,0.008084311845677705,0.008418917185856092,-0.9999318805475699,0.0,0.4028071431620291,-0.0797860786652429,0.3064862468555551,1.0,-0.42998,-0.5651165714285715,-1.850065695,1.787999999999915
-0.08610344176802734,-0.41823192948822396,-0.13734459531492021,-2.558643860440336,-0.0547371108398667,2.149644492397973,0.7407551339894309,-1.5585422754445533,-1.0046723258048855,-0.03881928892017805,-0.8124803012216201,-0.1519306500534085,-0.13011978084677975,0.39236912640392657,0.9907782034799684,-0.13523788791072044,0.0070719222041979645,0.0,-0.13517015123020348,-0.9907689215136054,-0.009312426127463733,0.0,0.008266192725909338,0.008270795273217252,-0.9999316296644319,0.0,0.39508344950293606,-0.08993792712143046,0.3064429770633737,1.0,-0.42998,-0.5651165714285715,-1.850065695,1.805999999999913
-0.1131361879874223,-0.4343282313044934,-0.1379046350373778,-2.5726494510329565,-0.05745641468072601,2.1470986096020597,0.7469601661228672,-1.6090640696345913,-0.9189884397685086,-0.03848289380402802,-0.7916190188456143,-0.14892582974747032,-0.15980909682951203,0.3398961817559262,0.9854174763444541,-0.16997404854627562,0.006478197042661193,0.0,-0.16991100277010696,-0.9854058895036212,-0.009286063237007815,0.0,0.007962196579611447,0.008050087033647332,-0.9999358977076372,0.0,0.3867531087426265,-0.10066327160673762,0.3062274783891874,1.0,-0.42998,-0.5651165714285715,-1.850065695,1.824999999999911
-0.1458213902741587,-0.4522373023688318,-0.1386466305379558,-2.58742186571631,-0.0602433930400539,2.144178804648286,0.7532106040382436,-1.6947792301138611,-0.8709712782672926,-0.04260686561289193,-0.7202785628823644,-0.13094915817802305,-0.14403870025476254,0.2881640716823913,0.9787945087254564,-0.2046893767490468,0.006656999037705135,0.0,-0.2046234669820779,-0.978785621300649,-0.009417600360261435,0.0,0.008443620253186623,0.007855868545016381,-0.9999334930916272,0.0,0.37859851897193886,-0.11145605420611822,0.3062735356799593,1.0,-0.42998,-0.5651165714285715,-1.850065695,1.8439999999999088
-0.17590352254231822,-0.46696925355806224,-0.1392532949272191,-2.5997109634220004,-0.06268254640420978,2.1412920967485114,0.7579483971566929,-1.6845850977328733,-0.8376764311977751,-0.03815665717728006,-0.6473715122641179,-0.1311561767322254,-0.16558399784396982,0.24259587476421185,0.9714466916335125,-0.2371382983616896,0.0061236970560215286,0.0,-0.23707614052759407,-0.9714354433325134,-0.009424963188872688,0.0,0.00818395366364949,0.0077042151748121235,-0.999936831990387,0.0,0.3707674836232947,-0.1216089193168,0.3061117999066678,1.0,-0.42292800000008934,-0.5558482285715461,-1.8184163930464012,1.8619999999999068
-0.19594939868194663,-0.4760990836313784,-0.1394445899489357,-2.6068564469335977,-0.06410442059741994,2.1397118167482345,0.7605320620067513,-1.6917873329222322,-0.7449171180375332,-0.014141574962115173,-0.5734060099929146,-0.10832068663774455,-0.127113213944277,0.2113617009341579,0.9661028355973569,-0.2580388223037356,0.006482602568077639,0.0,-0.25797412706674644,-0.9660963094581578,-0.009381765115682858,0.0,0.008683845229214893,0.007391548452761715,-0.9999349758076799,0.0,0.36582521416419783,-0.12823292089237462,0.30621603166595207,1.0,-0.41140114285723345,-0.5406986448980784,-1.766683979221264,1.8739999999999055
-0.22407855394354884,-0.48746834835721065,-0.13968774088789165,-2.616192817301636,-0.06575428132877698,2.1373492721415914,0.7634517649997452,-1.6377884563434764,-0.6438800021589728,-0.013238803644207863,-0.5252078903762553,-0.08483795218478388,-0.1466695268261504,0.14100389600091798,0.9579987798988137,-0.2866737054112194,0.006105017558874306,0.0,-0.2866108903889257,-0.957990322046814,-0.009459771472765558,0.0,0.008560580295466524,0.00731282580519968,-0.9999366175132041,0.0,0.3588720305667274,-0.13730616490408187,0.3060746789764481,1.0,-0.395071428571521,-0.5192367346939991,-1.6933963929689864,1.8909999999999036
-0.2500409190545402,-0.49732039105651527,-0.13973850260750956,-2.6239015133371275,-0.06709468240541293,2.1352471364720307,0.7654431884367511,-1.621099141975102,-0.6023524966077861,0.0011065388229455578,-0.4558282096213696,-0.07613251101910537,-0.12343295883527389,0.11586292312534409,0.949985428393886,-0.3122035007707084,0.0061161137176525245,0.0,-0.3121400812643666,-0.9499784908347779,-0.00949650044808923,0.0,0.008775186113758604,0.007112589752963805,-0.9999362015527167,0.0,0.35257806241452827,-0.14548968796608924,0.30609400161267114,1.0,-0.3797022857143796,-0.4990372897960419,-1.6244198412021358,1.906999999999902
-0.2754713324826194,-0.5057389785579226,-0.13966425677886019,-2.630420034225932,-0.06823115645990058,2.1333884167887693,0.7667393960815219,-1.5964806985814304,-0.5133960426590712,0.006639346262585433,-0.36788497219426014,-0.06935324772195085,-0.13236753975827312,0.05853470564388019,0.9411601827646908,-0.3378761136592604,0.006163529675177132,0.0,-0.3378124687377263,-0.9411555968102235,-0.009467072373381223,0.0,0.008999711343479433,0.006828045850509584,-0.9999361894569061,0.0,0.3462274936725243,-0.15387649791706465,0.3061298070753542,1.0,-0.3633725714286671,-0.4775753795919626,-1.551132254949858,1.9239999999999002
-0.3001814679979689,-0.5131743746583549,-0.13946667963608597,-2.635994664247742,-0.06911508119562083,2.1319018176819515,0.7676048264289356,-1.5381404610639284,-0.4375930208686633,0.02174322699691917,-0.34010067681787526,-0.05743851258735384,-0.1011834608576142,0.03758351125499013,0.9326005873499494,-0.3608254326479071,0.006472907398390323,0.0,-0.36075981154974834,-0.9326005399639213,-0.009451885039545969,0.0,0.00944729933339511,0.006479793442325771,-0.9999343782530181,0.0,0.34054440866017477,-0.1614269710260708,0.3062083847965752,1.0,-0.34800342857152594,-0.4573759346940056,-1.4821557031830086,1.9399999999998985
-0.32566858932484194,-0.5197659278707066,-0.13927382118012493,-2.6412025587448804,-0.06984957987781604,2.1301856750089225,0.7679637044088272,-1.470054446210612,-0.37040795347483074,0.0232747100303697,-0.2848045883428026,-0.03749865346811153,-0.09994386100848263,0.008304286453846593,0.9244401157611564,-0.38125179216091565,0.006187911343756123,0.0,-0.38118742511516174,-0.9244384302077086,-0.009512233722367315,0.0,0.009347079163230854,0.00643486034248697,-0.9999356102687258,0.0,0.3353306918508649,-0.1681762274759093,0.3061404735653582,1.0,-0.3335948571429561,-0.438438955102171,-1.4174901859015872,1.9549999999998968
-0.3488288775116813,-0.5251075555933593,-0.13904695937345302,-2.645200383567788,-0.0703597193496186,2.1289952293775865,0.7679918977232982,-1.419834253132491,-0.3199264741895433,0.015170321397926316,-0.2303364814333195,-0.023440999184245838,-0.06800811826923969,-0.003606588029396912,0.914534027909508,-0.4044358218677394,0.006318598498511619,0.0,-0.40437048592861347,-0.9145351261105569,-0.009526810642263982,0.0,0.009631749207579754,0.006157656318535348,-0.999934654202896,0.0,0.3294220054304633,-0.17596380857577307,0.3061858435999977,1.0,-0.3163045714286723,-0.41571457959196945,-1.3398915651638814,1.9729999999998948
-0.3752891912544199,-0.5301152624921832,-0.13862951335123933,-2.6489946245045632,-0.07074090787840326,2.1277768247721394,0.7677478099951663,-1.3578629841057324,-0.23238878120933132,0.015937082203163883,-0.1818431690666311,-0.01314537086847874,-0.05952517442506574,-0.023899450899027494,0.9050845775675678,-0.42516143825565444,0.006356553384435906,0.0,-0.425095465438542,-0.9050872603681265,-0.009573049885857552,0.0,0.009823516279196476,0.005962392586966431,-0.9999339720214286,0.0,0.32414319289317506,-0.18296908153132987,0.30620159452611045,1.0,-0.2999748571429596,-0.39425266938788983,-1.2666039789116028,1.9899999999998932
-0.39394183967696633,-0.5329306334875236,-0.1382529324574463,-2.6513319180613553,-0.07096427216942536,2.1270262763378276,0.7671428124674652,-1.3180210725963564,-0.18122470790922876,0.03503048918269325,-0.1490755700027213,-0.010968129356302243,-0.04222355977400867,-0.04980926112795707,0.8964402537041294,-0.4431007763138614,0.006109048218620678,0.0,-0.4430371148993737,-0.8964423008938571,-0.009490147047045119,0.0,0.009681687167729824,0.005800926414793073,-0.9999363050646359,0.0,0.3193950002945844,-0.18918118061973174,0.30610977182530225,1.0,-0.28460571428581843,-0.3740532244899329,-1.1976274271447533,2.0059999999998914
-0.41806215199303187,-0.5362629019970476,-0.1377147918419464,-2.65381151897924,-0.07107657839819208,2.126287828651859,0.7660535054468941,-1.2398720929256442,-0.16608346360207693,0.03748551588373267,-0.12671563891632384,-0.008806527142629902,-0.02321029731882604,-0.05610531027911299,0.886891189718866,-0.46191540179123786,0.006239077520102967,0.0,-0.461851138639219,-0.8868958977045946,-0.009483631879525108,0.0,0.009914238767929795,0.005529530964375806,-0.9999355640024843,0.0,0.31437950703052503,-0.19578214054190293,0.30614217944034516,1.0,-0.2673154285715346,-0.3513288489797313,-1.1200288064070476,2.0239999999998894
-0.43616416648378503,-0.5380314306383117,-0.1373327803571287,-2.6552567730478307,-0.07107750322939582,2.1258084897995726,0.765082494852525,-1.2019398146690292,-0.10729562466589557,0.023499975029082097,-0.0793764217545859,0.0011137644510171647,-0.026273243227279603,-0.06528317643400945,0.8785452197652948,-0.4776000381134655,0.006103058477051096,0.0,-0.47753664166059084,-0.878549737320022,-0.009479547861214983,0.0,0.009889463244489638,0.005413881644015683,-0.9999364421813421,0.0,0.3101582893398473,-0.20135298498657134,0.30609422225030064,1.0,-0.2519462857143935,-0.3311294040817744,-1.0510522546401981,2.0399999999998877
-0.4555403456576984,-0.5396533131370196,-0.13668724513905883,-2.6564856955113223,-0.07103610633604213,2.1254346571418514,0.7637397894811657,-1.1082882178616014,-0.07910754455881591,0.039787309348170596,-0.0651864813381339,0.0019224059835103585,-0.021365803249320352,-0.08415324998270159,0.8706243191492374,-0.4918903136696784,0.00616126002380784,0.0,-0.491827949703337,-0.8706311029234646,-0.009354005243300496,0.0,0.009965521050282311,0.005113643014642427,-0.9999372675549777,0.0,0.30621269581329047,-0.20654372678557315,0.3061090373780331,1.0,-0.2365771428572523,-0.3109299591838174,-0.9820757028733484,2.055999999999886
-0.4697069517388307,-0.5403902534589144,-0.13623726681060225,-2.657178416805208,-0.07098059258983717,2.125149636103969,0.762601989444891,-1.0282621813328332,-0.06141825744845828,0.039730043762777986,-0.046282486079507516,0.021469974396566515,-0.018672503706477682,-0.09092569034534519,0.8615399315289386,-0.5076357184770774,0.005972487637595326,0.0,-0.5075751436025288,-0.8615463266447849,-0.009281570069667329,0.0,0.009857421061914173,0.004965052564633005,-0.999939087896377,0.0,0.30177853017370865,-0.21232835769404687,0.30605634038450913,1.0,-0.21832628571439716,-0.28694311836749353,-0.9001660476502147,2.074999999999884
-0.492948349356695,-0.5413177347178796,-0.13541502262874971,-2.6579683740741524,-0.07062770066150062,2.124869849272273,0.7605144169313198,-0.9671885741712686,-0.018655512015461895,0.04076493388725796,-0.019827526262517273,0.018127178447685723,-0.006039055851692587,-0.09158264249181643,0.8538207829804199,-0.5205156435546444,0.005855106045595223,0.0,-0.5204562876203946,-0.8538271976572248,-0.009225839713305619,0.0,0.009801631394377341,0.004829979923632877,-0.9999402978758012,0.0,0.29808609187683516,-0.2171248928879972,0.30602099023777823,1.0,-0.20199657142868468,-0.26548120816341425,-0.826878461397937,2.091999999999882
-0.5085927823043906,-0.541568980283608,-0.13466879216047198,-2.658174372710867,-0.07026708497101822,2.124794878639919,0.7588105636709421,-0.8979073877416915,-0.005085797061594459,0.04260996221548995,-0.00609889702734627,0.02120090739685713,-0.0014748434270986282,-0.09765652838579,0.846730080550161,-0.5319722554485908,0.005868306882349033,0.0,-0.5319135030586943,-0.8467376961207873,-0.00916766781128896,0.0,0.009846051139459966,0.004641197790935747,-0.9999407555250583,0.0,0.2947560172140357,-0.221490551708991,0.30603135326637343,1.0,-0.18566685714297135,-0.24401929795933386,-0.7535908751456555,2.108999999999881
-0.5239966475041848,-0.5415900669752866,-0.13397958926750997,-2.658197207510186,-0.06981394802763245,2.124813384718181,0.7571104878223923,-0.8242998305047541,0.0019362183178957845,0.04374465823360292,0.005526581615744448,0.03549492090937101,0.002224244710425489,-0.10066894143980146,0.8395536634261186,-0.5432267111565948,0.005927344682185846,0.0,-0.5431675631818697,-0.8395625420778338,-0.009191471486293703,0.0,0.009969621341441137,0.00449727877798517,-0.9999401887782594,0.0,0.29146994080536837,-0.2257884587667953,0.30604848899952997,1.0,-0.16837657142868756,-0.22129492244913224,-0.6759922544079497,2.126999999999879
-0.5348942616238058,-0.541434886808769,-0.13338329196123944,-2.658096211143301,-0.06942525438164893,2.124850883323432,0.755661406623379,-0.7633208470272824,0.01668951862607933,0.03634314262721085,0.008358485917954489,0.030555442748647924,0.0067316126931745305,-0.1029323694035238,0.834549321876747,-0.5508836667824818,0.005946589657752371,0.0,-0.5508245106841725,-0.834558930891674,-0.009192181443829776,0.0,0.010026795173610104,0.004395886086474232,-0.9999400679861074,0.0,0.28916276502650096,-0.22879430948591112,0.3060571526889475,1.0,-0.154928571428689,-0.20362040816341992,-0.6156377716119565,2.1409999999998774
-0.548457484132999,-0.54104926041958,-0.1325823604892155,-2.6578852490875295,-0.06886282744340493,2.124932798195293,0.7537319666743699,-0.6732391442910739,0.029022232656445296,0.04688298625811513,0.017791668994838212,0.02491214267877988,0.008289287783912958,-0.10222859706247069,0.8280106541230705,-0.5606640302026128,0.005911750743808508,0.0,-0.5606050103451072,-0.8280205520768243,-0.009205140713834303,0.0,0.010056236019534925,0.004307880436913991,-0.9999401553509393,0.0,0.2861567459804981,-0.23267653197745214,0.3060433401574805,1.0,-0.13571714285726255,-0.17837110204097373,-0.5294170819033945,2.1609999999998752
-0.5591910018752815,-0.5405657013098742,-0.13181705687674858,-2.657617784466285,-0.06836903471608703,2.125083117691422,0.7519770120232353,-0.620188429801223,0.032259608583599775,0.04339603768288097,0.018689467659874847,0.022679696561298777,0.005804879474277569,-0.10366227737596014,0.8234478133388403,-0.567344567135357,0.005881135152748419,0.0,-0.567285952966937,-0.8234579615902147,-0.009185856589932168,0.0,0.010054606977842884,0.004227869562559827,-0.9999405132294035,0.0,0.284044168842703,-0.23540651813095664,0.3060204561577772,1.0,-0.12034800000012141,-0.15817165714301673,-0.46044053013654485,2.1769999999998735
-0.5678605902250877,-0.5401040142463358,-0.13121915074350063,-2.657326814426754,-0.06792454435572884,2.1251971988141207,0.7504162074335942,-0.5656415427146813,0.031835342783338175,0.04283814174157232,0.0158882895539954,0.030816274892065287,0.004788357253987095,-0.1030231058115939,0.8195429829903895,-0.5729709278150577,0.005861894845079286,0.0,-0.5729122777605098,-0.8195532610714642,-0.009204409791039626,0.0,0.010078188290659595,0.004185138506012764,-0.9999404555954639,0.0,0.28222535805329807,-0.23775255245481794,0.30601072326334416,1.0,-0.10593942857155153,-0.13923467755118213,-0.3957750128551234,2.191999999999872
-0.5771006770677867,-0.5394023462148021,-0.1303206777714718,-2.6568969586251554,-0.06729047140676533,2.1253562056318915,0.7483762965450553,-0.46604804661227156,0.03277331939674664,0.042139214041080605,0.027991193474527443,0.0353187490340786,0.011595590618463098,-0.1005316319139193,0.8156335134216426,-0.5785231718453869,0.005801579321962446,0.0,-0.5784648187143075,-0.8156435717079089,-0.009206755269757375,0.0,0.010058535798759705,0.004153408583135676,-0.9999407857742011,0.0,0.280360977778611,-0.2401912903088584,0.3059884019969582,1.0,-0.0876885714286964,-0.11524783673485822,-0.31386535763198964,2.2109999999998697
-0.5834852573587375,-0.5388718954624094,-0.12965592981393914,-2.656554315927494,-0.06684769023735224,2.1254708440187904,0.7468010727058215,-0.40626949630750714,0.031031938261673282,0.04768254896220689,0.024033033585390013,0.02661391253873921,0.0013436031865187749,-0.09936125103438648,0.813025645621599,-0.5821827800285511,0.005766897000839376,0.0,-0.5821248412188196,-0.8130357096003678,-0.00918428286798665,0.0,0.010035817748513365,0.0041100826392044265,-0.9999411930622808,0.0,0.27908049493239556,-0.2418682700483594,0.30597851313841756,1.0,-0.07328000000012613,-0.09631085714302301,-0.24919984035056642,2.2259999999998685
-0.5892059616288623,-0.5383555524449571,-0.1289314731195679,-2.6562231792776463,-0.06632777615928799,2.1255913934599806,0.7452091592810228,-0.3344162959137551,0.026215145383637162,0.04672451051688914,0.028027000105973667,0.027831859284574607,0.008232261192448458,-0.09319848307962428,0.8108066776792754,-0.5852694109480889,0.00574412224638181,0.0,-0.5852114597384325,-0.810816674451925,-0.009198626133420222,0.0,0.010041297922196046,0.004096860206985409,-0.9999411923070687,0.0,0.277968544423996,-0.24333052011130507,0.3059704209402407,1.0,-0.057910857142984995,-0.07611141224506607,-0.18022328858371672,2.2419999999998668
-0.5935458981730252,-0.5379177130166491,-0.12829035818952028,-2.655949712252771,-0.06588839088770158,2.1256769364061565,0.7436385271871853,-0.26372265144156,0.025623669290558176,0.040019622806152,0.010982476960559255,0.029390010954682837,0.007014568343268921,-0.11394565211987907,0.8092843679491752,-0.5873731062414156,0.005691463662607019,0.0,-0.5873154246183658,-0.8092939985449381,-0.009195804788206956,0.0,0.010007628485783127,0.004099415594557454,-0.9999415193719449,0.0,0.2770959513921145,-0.2444754721974108,0.30595561700701035,1.0,-0.0425417142858438,-0.055911967347109126,-0.11124673681686725,2.257999999999865
-0.5977662888008372,-0.5375594361230377,-0.1273820700441526,-2.6557382247614565,-0.06531717534967273,2.125709246903496,0.7415300943679157,-0.17919797394123665,0.015524930185264338,0.0513500941498302,0.010638181114242994,0.02777799935651263,0.005494768288214837,-0.10843694172720172,0.8083939856427835,-0.5885984158954461,0.0056405392610019214,0.0,-0.5885411479896292,-0.8084032730981102,-0.009176713383349628,0.0,0.009961421149423999,0.0040987893695135225,-0.9999419833242267,0.0,0.27639095510388945,-0.2453686284782466,0.3059505051713761,1.0,-0.024290857142988675,-0.031925126530785164,-0.029337081593733494,2.276999999999863
-0.6000654870814424,-0.537393612649321,-0.12669876775427638,-2.6555898115455663,-0.06492250017242762,2.1257402988251823,0.7399107005206405,-0.13548291345666652,0.0043525025591091135,0.03848336075035812,0.008038248546413065,0.018678981307841992,0.003217674420396307,-0.09686954387216692,0.8082119510549594,-0.5888478492542176,0.005692056028075653,0.0,-0.5887907802351225,-0.8082219351291365,-0.009136059732603775,0.0,0.009980385815430648,0.0040325201900393015,-0.9999420636616365,0.0,0.27603460051494383,-0.24584633677027878,0.3059774958747389,1.0,-0.019749756097563766,-0.02595682229965524,-0.009874878048781883,2.292999999999861
-0.6018987004599597,-0.5371956394777357,-0.12615841501132866,-2.6554088440942856,-0.0646165547130094,2.125841574595351,0.7383921651469857,-0.10286024989372707,0.017624733491231247,0.029852399654709087,0.012601687251074885,0.005229157918246467,0.008152446350275087,-0.08475662950023842,0.808198037241997,-0.5888658171826534,0.005807654707197445,0.0,-0.5888087822413313,-0.8082093762643346,-0.009086747223523277,0.0,0.0100448692126342,0.003924368731401451,-0.999941848275469,0.0,0.27577425549529594,-0.24625316579633547,0.3060102416419119,1.0,-0.019409756097563804,-0.025509965156798146,-0.009704878048781902,2.3099999999998593
-0.603370573852185,-0.5370265994290492,-0.12583806955992327,-2.6552428897149567,-0.06445644915120291,2.125877589071484,0.7370949985863962,-0.09592648267718905,0.014073783712483386,0.019296412792681485,0.008259979165136915,0.012730920381425771,-0.0003850008513955365,-0.0858455778364704,0.8082013941615739,-0.5888606752910022,0.00586161004516135,0.0,-0.5888039809186699,-0.8082134879308567,-0.009031992148678726,0.0,0.010056210908606589,0.003848403411125745,-0.9999420295263854,0.0,0.275531879099908,-0.2466129118437103,0.3060353965566321,1.0,-0.019109756097563838,-0.025115679442512476,-0.009554878048781919,2.3249999999998576
-0.6052872604045221,-0.5367597504619807,-0.12564052446685509,-2.6550637713602616,-0.06428070114398543,2.1258870606510682,0.7354339628083688,-0.09209259438925901,0.016537575335100096,0.0063346387928632075,0.010698641786363396,0.008257714905698803,0.0016731178559712839,-0.07908162230864783,0.8080900589360792,-0.5890139962263807,0.005806530747487566,0.0,-0.5889573466477612,-0.8081015446911333,-0.009048988818711594,0.0,0.010022440495295382,0.003892673911591038,-0.9999421972175873,0.0,0.2751520104810234,-0.24711907928108434,0.30602539702241993,1.0,-0.018689756097563882,-0.024563679442512535,-0.009344878048781941,2.3459999999998553
-0.6065428356127253,-0.5366015667906342,-0.1255741039204745,-2.6549637940899076,-0.06424647656886957,2.125889385576564,0.7343434087487892,-0.08884959115878083,0.013531395068423262,0.004481357298779916,0.006301732382894311,0.0003369577896921798,-0.0001507452890919899,-0.08667521162985106,0.8080124078624847,-0.5891209499840195,0.00576211171395136,0.0,-0.5890647088819337,-0.8080235481286295,-0.00902559253852094,0.0,0.009973279618820441,0.0038986091604195083,-0.9999426656265145,0.0,0.27487863529268275,-0.24746831140684963,0.3060150251881038,1.0,-0.018409756097563915,-0.024195679442512576,-0.009204878048781957,2.3599999999998538
-0.607918556114338,-0.5364492174239753,-0.12555524753583064,-2.6548455095815755,-0.06419907023589849,2.12590523493077,0.7331425529313832,-0.08184104226550395,0.008631948120015708,0.000199832615394171,0.009300616725977085,0.004077942919388865,0.005677992203093235,-0.07848693921930042,0.8078865044653407,-0.5892936622175344,0.005755212787339132,0.0,-0.5892373296033424,-0.8078975406535731,-0.009037704854578662,0.0,0.00997567651131065,0.003910328855191936,-0.9999425959555808,0.0,0.27455273016707504,-0.24789167080854355,0.3060162147709835,1.0,-0.01806975609756395,-0.02374882229965548,-0.009034878048781975,2.376999999999852
-0.6094239833886556,-0.5362575199842319,-0.12557464427373163,-2.654681768653658,-0.06414862076578232,2.125942592353474,0.7318754403083477,-0.08070095432643958,0.011956253453323478,-0.0019640451265693516,0.011377940540465717,0.002615157973390102,0.007087062604455803,-0.07103832597418007,0.8077197927964804,-0.5895219704766077,0.00577317515725671,0.0,-0.5894653497131356,-0.807730937842098,-0.009059825688392045,0.0,0.010004331090467888,0.0039147891865957685,-0.999942292227435,0.0,0.27422038118377257,-0.24834622954605537,0.30602113616205107,1.0,-0.01770975609756399,-0.02327567944251268,-0.008854878048781996,2.39499999999985
-0.6108983142337068,-0.5360723341479464,-0.12559340610057423,-2.654510381894077,-0.06409858962698056,2.125991786781703,0.7305170076843401,-0.08498732056445021,0.015139074077354717,-0.0009296781777140393,0.010963559887204542,0.0010897494654717014,0.0014412469756522476,-0.07062310448533357,0.807626957424183,-0.5896486218895098,0.005826426586437566,0.0,-0.5895915593462129,-0.8076385539676756,-0.009083292019488251,0.0,0.010061791085238303,0.0039007746625805972,-0.9999417704632547,0.0,0.273918924135456,-0.24876957849483722,0.306037497713373,1.0,-0.017369756097564026,-0.02282882229965558,-0.008684878048782013,2.411999999999848
-0.612027178093395,-0.5359436548972122,-0.12558844413540513,-2.65438875851569,-0.06406515050319368,2.1260123686181207,0.7295035871117515,-0.07929110042421711,0.005268919246654014,-0.0011609090451865603,0.009627033900879578,-0.00018447357706461977,0.002521965914752229,-0.06767170365457632,0.8075332226451757,-0.5897767244894013,0.005852903216192407,0.0,-0.5897194899240354,-0.8075450676592436,-0.009090313755393365,0.0,0.010087932818927003,0.0038892341423300003,-0.9999415520265309,0.0,0.27365160102507824,-0.24912962042196793,0.30604919586295337,1.0,-0.01706975609756406,-0.02243453658536991,-0.00853487804878203,2.4269999999998464
-0.6132570570741864,-0.5357992858543337,-0.12557439460455178,-2.654256431239007,-0.06402978577908312,2.126028104248422,0.7284285489866253,-0.07790376963115947,0.007980385846373636,0.001246384379348539,0.005328062637509041,0.001725327486490937,0.0025641279297997518,-0.07346899370354991,0.8074391469214964,-0.589905341461547,0.005870181856652784,0.0,-0.5898480703523047,-0.8074511864912798,-0.00908747691582862,0.0,0.010100830950425688,0.0038751437763477337,-0.9999414765249133,0.0,0.27338554773775875,-0.2494894947203277,0.3060594857251586,1.0,-0.016749756097564097,-0.022013965156798532,-0.008374878048782048,2.4429999999998446
-0.614498817987604,-0.5356457880187105,-0.1255530673044226,-2.6541270987534893,-0.06399409613397053,2.126046388009001,0.7272360049290332,-0.07182264443691297,0.00842468347833578,-0.0002474586121657606,0.007582835613500703,0.0038151692137157623,-0.0003995057300566127,-0.07445216713210502,0.8074116760035219,-0.5899429414402816,0.005870110661731768,0.0,-0.5898856729921702,-0.807423718220997,-0.009087296295525715,0.0,0.01010084735579797,0.0038745695515471357,-0.9999414785843646,0.0,0.2731284955279504,-0.24982999201595676,0.3060625533826862,1.0,-0.01642975609756413,-0.021593393728227148,-0.008214878048782065,2.458999999999843
-0.6160760732350915,-0.5354211363368966,-0.12549074953921205,-2.653971232856116,-0.06393829251904232,2.126083034658283,0.7258392546146932,-0.07548470659678186,0.014536671717654995,0.004252283061572909,0.006378494553841807,0.00027236947238905285,0.001886638821561439,-0.06125447000289291,0.8073169052887772,-0.5900728183340614,0.0058506751283291004,0.0,-0.5900157777702659,-0.8073288184578503,-0.009072363022269712,0.0,0.010076967468885145,0.0038723559573248245,-0.999941728095178,0.0,0.2728056528957042,-0.2502588232109928,0.3060563838639789,1.0,-0.01600975609756418,-0.02104139372822721,-0.00800487804878209,2.4799999999998406
-0.6171447293473142,-0.5352546004216563,-0.12543849616723168,-2.653854964100817,-0.0639067289987428,2.1261183659994587,0.7248720172686707,-0.07144236648308289,0.00833064481949393,0.004571383690038283,0.011632536713360356,0.00024378938207763335,0.0003257700262844907,-0.06441791387043143,0.8072660134631343,-0.5901424713881904,0.005847552683453305,0.0,-0.5900856292082189,-0.8072779712185274,-0.009053965343827498,0.0,0.01006392371247844,0.0038584759922207224,-0.9999419131142202,0.0,0.2725647475100464,-0.25058836129411777,0.3060528835729206,1.0,-0.015689756097564213,-0.020620822299655825,-0.007844878048782106,2.495999999999839
-0.6181971152682453,-0.5350814235838512,-0.12540687768542086,-2.653744151507648,-0.063873482519409,2.126149370789846,0.723876589348789,-0.07213953451984405,0.01182683959210747,0.001068353688694369,0.007406230524879744,0.0025535367030955825,0.004769144777693935,-0.06097172391866041,0.8072339449102255,-0.5901865469409151,0.005826224836259259,0.0,-0.59012987125902,-0.8072457234182442,-0.009045660394722677,0.0,0.010042015495821455,0.003863809202502677,-0.9999421127761486,0.0,0.27233752072859263,-0.2508935950069351,0.3060436216691427,1.0,-0.015389756097564246,-0.020226536585370155,-0.007694878048782123,2.510999999999837
-0.6193642355360672,-0.5349006856281338,-0.12539470957938376,-2.6536351787257226,-0.06383733121182597,2.1261698637175144,0.722829403419075,-0.07023403764696147,0.009021464972790216,0.0024954191976275858,0.0007074854682154518,0.0035193809485843074,0.0007542671312644405,-0.05763693557337684,0.8071541027693515,-0.5902961369628196,0.005785496571923375,0.0,-0.5902395748408932,-0.8071654628047352,-0.009050240221558191,0.0,0.010012367628506158,0.0038901843871276265,-0.9999423078157588,0.0,0.2720750419746124,-0.25123189009967306,0.3060293344991648,1.0,-0.015049756097564284,-0.019779679442513062,-0.007524878048782142,2.5279999999998353
-0.6205937113705131,-0.5347073791647603,-0.12539381598879515,-2.6535097056818056,-0.06379118490387631,2.126191248153654,0.7217583698541512,-0.0649477753660516,0.012032813858061443,-0.00035560558245842274,0.01076696240114407,0.00023844158880235723,-4.1203092319670485e-06,-0.05863486071429447,0.8070397087724743,-0.5904529251556655,0.005744435635159955,0.0,-0.5903963572009958,-0.8070506032918131,-0.009067085051053164,0.0,0.009989929473055548,0.003926079395037474,-0.9999423919455097,0.0,0.271782906112189,-0.25161193419406175,0.3060159131394644,1.0,-0.014669756097564325,-0.019280250871084544,-0.007334878048782163,2.546999999999833
-0.6216775914318465,-0.5345359022841197,-0.12538729319153571,-2.653403414712863,-0.06375546258624784,2.126212071252784,0.7207640773317896,-0.060073781034669205,0.00837579138730149,0.0018485151330451966,0.004447427171727782,0.0012577431217874746,-0.00020210059374878045,-0.06530701286659778,0.8069787230769716,-0.5905364927072799,0.005721729044038093,0.0,-0.5904799380852677,-0.8069893663493212,-0.009074812347812617,0.0,0.009976574431497909,0.003944690216447222,-0.9999424520349703,0.0,0.27154169665080113,-0.25192727259407555,0.3060077700276129,1.0,-0.014349756097564361,-0.018859679442513162,-0.0071748780487821805,2.5629999999998314
-0.6227668029787654,-0.534381438294806,-0.12537936032969782,-2.6532986308189894,-0.0637228680071918,2.1262321704768743,0.7197717741734864,-0.06975054394265803,0.01003571562526033,-0.0015414603121213302,0.003879228863494822,0.0005496645713446884,0.0022685629947820675,-0.054099562593039205,0.8069154678388982,-0.5906231416411283,0.005699054439461428,0.0,-0.5905666533237596,-0.80692588145669,-0.00907726382376918,0.0,0.009960148367852473,0.00395898930044325,-0.9999425592743862,0.0,0.2713232892169474,-0.25220674403319554,0.3060004862760724,1.0,-0.014049756097564384,-0.01846539372822748,-0.007024878048782192,2.57799999999983
-0.6236322417831983,-0.5342517715563266,-0.12536930758582104,-2.6532005121846445,-0.06369100806245544,2.1262624946843522,0.7190315172136189,-0.06607783682143983,0.012361744117055783,0.0016320669401154973,0.003083373030279804,0.0028453340630159862,0.004818007906306742,-0.054505740974230985,0.8068253634887745,-0.590746221304205,0.005699276025803316,0.0,-0.5906896737649368,-0.8068357641090733,-0.009083279320182429,0.0,0.009964484509800697,0.003962192927290054,-0.9999425033849001,0.0,0.2711067732785033,-0.25249849068909574,0.3059970001994429,1.0,-0.013729756097564421,-0.0180448222996561,-0.0068648780487822105,2.5939999999998284
-0.6249164370135856,-0.5340434322895422,-0.12532469708082725,-2.6530400157641916,-0.06364487761460554,2.1263034235317817,0.7178202794744802,-0.06124233113863398,0.006391537541658949,0.0027630279873532685,0.0026720248575735,0.009038333137952008,0.0015825747931943817,-0.05873060191426999,0.8067865175529867,-0.5907991873044631,0.0057080886747298285,0.0,-0.5907426953165011,-0.8067970453241788,-0.009074276146282928,0.0,0.009966535936521692,0.0039490679943545715,-0.99994253486058,0.0,0.2708487393711375,-0.25285683924105073,0.30600088475809967,1.0,-0.013329756097564465,-0.01751910801394187,-0.0066648780487822325,2.6139999999998262
-0.6259326758071856,-0.5338834789357348,-0.12530343300264454,-2.6529131880049195,-0.0636138907926698,2.126324206367975,0.71690594297916,-0.0666340740801336,0.004829002542747599,0.0021970318650856918,0.003436922869800624,0.0032406389049166044,-0.00017066402301108097,-0.04381747305869403,0.8067226663199031,-0.5908864034343583,0.005704803530613346,0.0,-0.5908299750265972,-0.8067331870611208,-0.009069311191331243,0.0,0.0099613787926921,0.003945925949733808,-0.9999425986530165,0.0,0.27062818261688204,-0.25315610461930776,0.3060026027486658,1.0,-0.012989756097564501,-0.017072250871084778,-0.006494878048782251,2.6309999999998244
-0.6268467389128611,-0.5337557110252309,-0.1252938100218459,-2.652814064623436,-0.06358005060430433,2.1263365819433746,0.7161004578330399,-0.053813332487008474,0.007161048585319593,0.00040322580503671205,0.006553253709363427,-0.0001231979088044474,0.003391204134089905,-0.050654519332976336,0.8066491284534003,-0.5909868655765818,0.0056969450186092905,0.0,-0.5909303937256885,-0.8066595478833429,-0.009076920240455835,0.0,0.009960027496416557,0.003955467993140449,-0.999942574413764,0.0,0.2704238905927846,-0.25342227720687355,0.3060024287279329,1.0,-0.012669756097564537,-0.016651679442513393,-0.0063348780487822685,2.6469999999998226
-0.6279716019176118,-0.5336066891719751,-0.1252891849142776,-2.6526946518890524,-0.06353214653599665,2.126358399864024,0.7150679114312471,-0.05882433898928771,0.011277412649154462,0.004330818001319625,0.007182241639177898,0.0019237896975806052,0.004171100061618768,-0.05205573188141912,0.8065866770356914,-0.5910721482266639,0.005691653577497148,0.0,-0.5910155960565596,-0.8065970090247949,-0.00908719711313887,0.0,0.009962251675252276,0.0039658324459669325,-0.9999425112048039,0.0,0.2701854242459795,-0.25373074331818296,0.30600072239061565,1.0,-0.012289756097564579,-0.016152250871084878,-0.006144878048782289,2.6659999999998205
