nelsonifechukwu/NELSON_IML_WORK/CNN-GradCAM/train2dof/data_sample_2022-02-21-08-09-20/robot_state.csv
position_joint1,position_joint2,position_joint3,position_joint4,position_joint5,position_joint6,position_joint7,velocity_joint1,velocity_joint2,velocity_joint3,velocity_joint4,velocity_joint5,velocity_joint6,velocity_joint7,ee_T_00,ee_T_10,ee_T_20,ee_T_30,ee_T_01,ee_T_11,ee_T_21,ee_T_31,ee_T_02,ee_T_12,ee_T_22,ee_T_32,ee_T_03,ee_T_13,ee_T_23,ee_T_33,v_x,v_y,time
0.465078339659,0.547533629214,-0.123990679903,-1.35574434342,0.0794135228329,1.89410583478,0.159148042222,0.000461086971179,-0.000640262857283,-0.00092165603855,-0.000714855910988,-7.80262126509e-05,0.000563497184582,0.00089880563903,0.573766143222,0.819004492229,0.00219123315952,0.0,0.818965369714,-0.573707516229,-0.0116685874321,0.0,-0.00829965838557,0.00848974793632,-0.999929517441,0.0,0.661709168326,0.260892484099,0.303432324734,1.0,0.0,0.0,0.0
0.465075928983,0.54753645462,-0.123993753666,-1.35573743799,0.0794142349097,1.89410349655,0.159143368692,0.000302647975789,0.00195067839413,-0.00152893781185,0.00250525740087,0.000302592981853,-0.000188773840412,0.000402762857219,0.573766238056,0.819004423137,0.00219222504007,0.0,0.818965326095,-0.573707620265,-0.0116665335409,0.0,-0.00829740611262,0.00848938280265,-0.999929539233,0.0,0.661711505119,0.260889849452,0.30343351012,1.0,-0.00026,-0.000341714285714,0.014
0.465073096609,0.547530127638,-0.123991336799,-1.35574832264,0.0794135228329,1.89410298157,0.159143390062,-0.000986407151171,-0.000334531764002,-0.000361476105101,-0.00216162540597,-0.000636979514658,-0.00036524404028,-1.92142626407e-05,0.57376727828,0.819003704034,0.00218861949799,0.0,0.818964543282,-0.573708656434,-0.011670530472,0.0,-0.00830273758637,0.008488733707,-0.999929500489,0.0,0.661709297964,0.260888013673,0.303432684865,1.0,-0.00058,-0.000762285714286,0.03
0.465075070601,0.547493383951,-0.123986047122,-1.35577902988,0.0794123394515,1.89411111276,0.159145321464,0.00115019069647,-0.00579086493066,0.000979813192591,-0.000986229052053,-6.97641580933e-05,-0.0038925827352,0.00136685427383,0.573764898317,0.819005333072,0.0022028980098,0.0,0.8189663214,-0.573706186747,-0.0116671591149,0.0,-0.00829180896291,0.00849846926457,-0.999929508478,0.0,0.661703187816,0.260889580805,0.303444627182,1.0,-0.00096,-0.00126171428571,0.049
0.465077532675,0.547375686951,-0.123986047471,-1.35589294966,0.0794112915471,1.89412515841,0.15914105589,-0.00213172378501,-0.00825186981097,0.000237806188799,-0.00960152337302,0.000384227082439,0.00182056136978,-0.000552817346451,0.573762481211,0.819006989012,0.00221675553733,0.0,0.818968073678,-0.573703632988,-0.0116697340802,0.0,-0.0082859925974,0.00851127146149,-0.999929447804,0.0,0.661679635316,0.260880250259,0.303471329605,1.0,-0.00128,-0.00168228571429,0.065
0.465074269094,0.547228635258,-0.123988578127,-1.35609340143,0.0794107666148,1.89416849763,0.159142862954,-0.000914036516474,-0.0110018622365,0.000285823204109,-0.0145552730167,0.000287490655264,0.00285920248881,-7.33804264528e-05,0.573781976744,0.818993316331,0.00222213171503,0.0,0.818954340039,-0.573722971905,-0.0116827796762,0.0,-0.00829339013294,0.00852335692968,-0.999929283533,0.0,0.661650427636,0.260857384612,0.303487592768,1.0,-0.00162,-0.00212914285714,0.082
0.465052134155,0.547078887535,-0.123986758433,-1.35629141441,0.079401534831,1.89426834733,0.159137270755,-0.00102149204572,-0.00835999158932,0.00178282730396,-0.00684987126772,0.000153972653259,0.0138921192041,0.000684062057233,0.573803026251,0.818978445161,0.00226722911607,0.0,0.818940055476,-0.573743854019,-0.0116585768126,0.0,-0.00824747312921,0.0085466159438,-0.999929464784,0.0,0.66163476998,0.260827547121,0.30350800899,1.0,-0.00194,-0.00254971428571,0.098
0.465032488012,0.546891772084,-0.123984343514,-1.35649846756,0.0793978856659,1.89437785981,0.159125252734,7.19687725324e-06,-0.00943473001535,-0.000306137082346,-0.0103421793436,-0.000130673365533,0.013946244243,0.00242898425484,0.573822097275,0.818964844402,0.00235185336833,0.0,0.818927535857,-0.573762600097,-0.011615362556,0.0,-0.008163325254,0.00859131459554,-0.999929772251,0.0,0.661618779477,0.260798627979,0.303552716206,1.0,-0.00228,-0.00299657142857,0.115
0.464992601269,0.546644526276,-0.123986874667,-1.35680150619,0.0793895988712,1.89453242765,0.159111719031,-0.00338504854886,-0.0142631502519,-3.77724214725e-05,-0.0176380316766,0.000497812895308,0.0056852027133,0.000329500731724,0.573856594849,0.818940422372,0.0024372226961,0.0,0.818904171376,-0.573796741633,-0.011576022416,0.0,-0.00808175784394,0.00863899496535,-0.99993002403,0.0,0.661598141082,0.260749269023,0.303595783231,1.0,-0.00266,-0.003496,0.134
0.46496798564,0.54646234242,-0.123986027124,-1.35708145362,0.0793752414435,1.89463239525,0.159093061649,-0.00179906548111,-0.0114417599133,0.000919599409051,-0.0218901297235,-0.00118533257911,0.00104896400763,-0.000917809497114,0.573872708578,0.81892912071,0.0024405946905,0.0,0.818892882835,-0.573812809012,-0.011578150034,0.0,-0.00808139532365,0.00864313634941,-0.999929991171,0.0,0.661565695151,0.26070709847,0.303600179799,1.0,-0.00292,-0.00383771428571,0.147
0.464927428559,0.546152489785,-0.123989234628,-1.35754258397,0.0793491408961,1.89479206137,0.158963676555,-0.00384896080978,-0.0128600137873,3.6452004866e-05,-0.0275652563092,-0.000243488572667,0.00137797841867,-0.00735744841771,0.573820975402,0.818965344694,0.00244934277278,0.0,0.818929198237,-0.573761028396,-0.0115757276381,0.0,-0.00807493781458,0.0086484001459,-0.999929997827,0.0,0.661512675385,0.260634355982,0.303614029019,1.0,-0.0033,-0.00433714285714,0.166
0.464893662755,0.545900141677,-0.123991828008,-1.3579701774,0.0793137584079,1.89494013265,0.158929368769,-0.000738905040244,-0.012671633777,-0.00079285070763,-0.0327653141057,-0.00708957305644,0.0149344720494,-0.000949342883838,0.573836843911,0.818954314284,0.0024196252134,0.0,0.818917862614,-0.573777083439,-0.0115818700495,0.0,-0.00809685283608,0.0086277441747,-0.999929999052,0.0,0.661462100767,0.26056739652,0.303602058481,1.0,-0.0036,-0.00473142857143,0.181
0.464838186015,0.545593076441,-0.123983962813,-1.35847139783,0.0792715176612,1.89511021207,0.158895921987,-0.00170942075608,-0.0204315112737,0.00242723521054,-0.0355152964299,-0.00248216761947,0.008118825337,0.000419685205406,0.573866107594,0.818933883709,0.00239406955498,0.0,0.818897146469,-0.573806481334,-0.0115901848715,0.0,-0.00811801877933,0.00861187681085,-0.999929964222,0.0,0.661404057423,0.260484496648,0.303595320406,1.0,-0.00392,-0.005152,0.197
0.464784328788,0.545243797832,-0.123989696989,-1.35908405241,0.0792453473674,1.89531504814,0.158795549294,-0.000411154136861,-0.01922069668,0.0011554281658,-0.0377869546557,7.57412468723e-05,0.00523773756462,-0.00952660520643,0.573859237711,0.81893882997,0.00234839567272,0.0,0.818901399818,-0.573799667575,-0.0116269414739,0.0,-0.00817440257301,0.00859549776481,-0.999929645806,0.0,0.661330213963,0.260387085118,0.303568900592,1.0,-0.00426,-0.00559885714286,0.214
0.464714951546,0.544836301574,-0.123992781723,-1.3597685371,0.0792112320549,1.89553443324,0.158712625332,-0.00350811235666,-0.0283624503282,-0.00509140826387,-0.0412541297653,-0.00614765898778,0.0164785482583,-0.00175774376963,0.573879278877,0.81892491584,0.00230269258573,0.0,0.818886797111,-0.573819771159,-0.0116632176582,0.0,-0.00823012746201,0.00857908866937,-0.999929329623,0.0,0.6612481053,0.260272887061,0.303550632544,1.0,-0.0046,-0.00604571428571,0.231
0.464657804298,0.544447017179,-0.124000277141,-1.36043735268,0.0791794903491,1.89576072563,0.158649642161,-0.00376070534031,-0.0272499441072,3.10336025213e-05,-0.0457128933361,-0.000709635579695,0.0106042052466,-0.00757896861224,0.57390854811,0.818904524452,0.00225945549149,0.0,0.818865773829,-0.57384912246,-0.0116951273642,0.0,-0.00828076559194,0.0085622891856,-0.999929055546,0.0,0.661168110619,0.260166701182,0.303527650046,1.0,-0.00492,-0.00646628571429,0.247
0.464577676277,0.543961774588,-0.123998118717,-1.36123118005,0.0791393224697,1.89604265309,0.158535132945,-0.00420043380252,-0.0287999290061,0.00069870526525,-0.0462591374113,-0.00154937974769,0.0181601880192,-0.0101547339351,0.573912409546,0.8189018685,0.00224116885895,0.0,0.818862778344,-0.573852946268,-0.0117172182258,0.0,-0.00830931052591,0.00856003151086,-0.999928838078,0.0,0.661077136114,0.260039754386,0.303517531343,1.0,-0.00528,-0.00693942857143,0.265
0.464501586942,0.543432976941,-0.124003797946,-1.36210195101,0.079088101118,1.89635134925,0.158437300475,-0.00305979408915,-0.0263265818875,-0.000625806667922,-0.0472068138707,-0.00382086649562,0.01626912733,-0.00446687398645,0.573933403466,0.818887235953,0.00221135276511,0.0,0.818847749655,-0.573874040837,-0.0117343529844,0.0,-0.00834023450946,0.00854566291173,-0.999928703525,0.0,0.660976187113,0.259902410808,0.303504115935,1.0,-0.00564,-0.00741257142857,0.283
0.464436836991,0.542993405618,-0.124011954863,-1.36279742644,0.0790484636872,1.89659499563,0.158338018073,-0.0104050620125,-0.0297300682209,-0.00167461061349,-0.0504670962321,-0.00288829985267,0.0191129746889,-0.00548229749453,0.573938899725,0.818883413225,0.00220041576389,0.0,0.818843779528,-0.573879572468,-0.011740865964,0.0,-0.00835178753476,0.00854050088493,-0.999928651199,0.0,0.660897130332,0.259788229573,0.303505409855,1.0,-0.00592,-0.00778057142857,0.297
0.464361906564,0.542395271595,-0.124005915086,-1.36375393085,0.0789888711099,1.89692507962,0.158211813751,-0.00179773400902,-0.0326892610017,0.00135234423907,-0.0589892886959,-0.00247615963844,0.0200971974253,-0.00269501762772,0.573929839296,0.818889826025,0.00217699327826,0.0,0.818849833235,-0.573870546728,-0.0117598091268,0.0,-0.00838083708419,0.00853210021452,-0.99992847986,0.0,0.660779751885,0.259649288076,0.303501567223,1.0,-0.00628,-0.00825371428571,0.315
0.464285594712,0.541779006565,-0.124013768037,-1.364738921,0.0789278756696,1.89730010734,0.158090190496,-0.00365612743109,-0.0267228057,-6.15001360162e-05,-0.0569578567784,-0.003777799196,0.0246453233702,-0.0133893907346,0.573936771811,0.818884963894,0.00217824969303,0.0,0.818845043532,-0.573877530706,-0.0117525033448,0.0,-0.00837406094871,0.00852900700495,-0.99992856302,0.0,0.660668713384,0.259501070481,0.303501268146,1.0,-0.00664,-0.00872685714286,0.333
0.464203651834,0.541218296895,-0.124012031948,-1.36558151214,0.0788764696659,1.89760770437,0.157961542363,-0.00456824273789,-0.0342724823372,0.000405693574436,-0.0576690652156,-0.00409264835687,0.0194551654397,-0.00849496008719,0.573930266837,0.81888946239,0.00220093105441,0.0,0.818849819085,-0.573870922008,-0.011742468182,0.0,-0.0083528939423,0.00854175434797,-0.999928631251,0.0,0.660574182289,0.259367849508,0.303523224451,1.0,-0.00694,-0.00912114285714,0.348
0.464121828987,0.540584157932,-0.124016605183,-1.36655443372,0.0788230320532,1.89797121546,0.157850603971,-0.00770675833462,-0.0358486456416,0.000206803077994,-0.0610550834958,-4.70501916984e-05,0.0196887497236,-0.00954442993695,0.573949291389,0.818876067757,0.00222339156746,0.0,0.818836688702,-0.573889830863,-0.0117339749747,0.0,-0.00833284990905,0.00855546592994,-0.999928681264,0.0,0.660464044467,0.259220016097,0.303540042164,1.0,-0.00726,-0.00954171428571,0.364
0.464009678456,0.539738918253,-0.124015787868,-1.36784948819,0.0787520290877,1.89845235932,0.157688160073,-0.00552444361908,-0.0430221118798,0.000856806439796,-0.068091720048,-0.00369382113921,0.0235086180067,-0.00436375256578,0.573960235919,0.81886831287,0.00225403258234,0.0,0.818829255486,-0.573900580017,-0.0117269568905,0.0,-0.00830940277941,0.00857663989164,-0.999928694995,0.0,0.660315918586,0.259024964653,0.303562628817,1.0,-0.00766,-0.0100674285714,0.384
0.463922445634,0.539081007662,-0.124021218275,-1.36887107518,0.0786842894895,1.89883102575,0.157553635433,-0.000590775021102,-0.0419809537298,0.000608371056998,-0.0627214214892,-0.00294370399654,0.0237881596486,-0.00973496555623,0.57396367805,0.818865878686,0.00226183649577,0.0,0.818826992596,-0.573904064749,-0.01171441687,0.0,-0.0082946188019,0.00857586768049,-0.999928824363,0.0,0.660200178744,0.258866333041,0.303574186922,1.0,-0.00796,-0.0104617142857,0.399
0.463810924775,0.53831955732,-0.124028624483,-1.3700429309,0.0786258671967,1.89928571749,0.157411035415,-0.00715734605705,-0.0468488055842,-0.00120066640716,-0.0701126078277,0.000375511248398,0.0263573422813,-0.0108386199855,0.573990721274,0.818846839802,0.0022916672995,0.0,0.81880825556,-0.573930904903,-0.0117091385398,0.0,-0.00827289168195,0.00859753850902,-0.999928818264,0.0,0.660061652774,0.258671776911,0.303585592538,1.0,-0.00832,-0.0109348571429,0.417
0.463695013898,0.537492302533,-0.124029364995,-1.37136075549,0.0785460219598,1.89978791599,0.157252858497,-0.00704045887158,-0.054116257749,0.000404273583215,-0.0726976380879,-0.00563024451787,0.0248448462366,-0.00641727433376,0.574009963817,0.81883329578,0.00231129016454,0.0,0.818795007801,-0.573950115706,-0.011693877986,0.0,-0.0082489302118,0.00860504100162,-0.999928951686,0.0,0.659924938081,0.258479376609,0.30359443714,1.0,-0.00866,-0.0113817142857,0.434
0.463594491698,0.536707317744,-0.124036084547,-1.37257959708,0.0784629367672,1.9002341824,0.15710571406,-0.00664783968512,-0.0550022231177,-0.000912805132703,-0.0789095555332,-0.0050250851145,0.0296868558357,-0.00338819083206,0.574021304287,0.818825336084,0.00231475987054,0.0,0.818787189369,-0.573961542467,-0.0116804621339,0.0,-0.00823583375195,0.00860029541955,-0.999929100467,0.0,0.659784235698,0.258291623299,0.303607373593,1.0,-0.00898,-0.0118022857143,0.45
0.463482793288,0.535873029345,-0.124041404748,-1.37390575302,0.0783964141523,1.90073591551,0.1569356464,-0.00347999408998,-0.0529547558626,4.75886139495e-06,-0.0815886253111,-0.000347754189643,0.0286914727827,-0.0122112674282,0.574032453308,0.818817482619,0.00232800494651,0.0,0.81877941332,-0.573972542814,-0.0116850040693,0.0,-0.00823183318586,0.0086138599206,-0.999929016651,0.0,0.659632380038,0.258091660735,0.303608701707,1.0,-0.00932,-0.0122491428571,0.467
0.463377493972,0.535078473513,-0.124045013173,-1.37515314051,0.0783247673481,1.90118184743,0.156801150517,-0.00142596439074,-0.0526731088425,-0.00342791325342,-0.0893743509564,-0.0039992005965,0.0378239153952,-0.0106716223981,0.574060255957,0.818798004727,0.00232312014959,0.0,0.818759824002,-0.574000309747,-0.0116936697556,0.0,-0.00824144045167,0.00861511436545,-0.999928926706,0.0,0.659484573913,0.257901151964,0.303614412348,1.0,-0.00962,-0.0126434285714,0.482
0.463248571685,0.53419321736,-0.124048849748,-1.37659295453,0.0782378641983,1.9017078358,0.156613663408,-0.00565971778352,-0.0526858362494,-2.49140721785e-05,-0.0865057198146,-0.0143413647556,0.0333020686558,-0.0131621204955,0.574070628239,0.818790807074,0.00229672485706,0.0,0.818752272223,-0.57401076633,-0.011709131801,0.0,-0.00826914388888,0.00860248296898,-0.999928806739,0.0,0.659317098929,0.257676264276,0.303599321211,1.0,-0.00996,-0.0130902857143,0.499
0.463107892303,0.533160507778,-0.124049972954,-1.37824471237,0.078143213322,1.90232004129,0.156405230952,-0.00428050539943,-0.0575956904919,0.000897230514666,-0.0950865932958,-0.0055605233892,0.0302965097061,-0.0160757602977,0.574080962759,0.818783574016,0.0022921650637,0.0,0.818744919312,-0.574021053479,-0.0117189660269,0.0,-0.00827970529261,0.00860449946264,-0.999928701993,0.0,0.659123840831,0.25742659627,0.303594541985,1.0,-0.01034,-0.0135897142857,0.518
0.462983686071,0.532268156768,-0.124058512218,-1.3796805383,0.078073152591,1.90286272415,0.156230252113,-0.0122236990729,-0.050927970836,-0.00228666771918,-0.0902974132706,-0.00513500915353,0.0414269240329,-0.00778173883986,0.574105171869,0.81876658636,0.00229686609481,0.0,0.818727883098,-0.574045128116,-0.0117299286485,0.0,-0.00828572837209,0.0086148868816,-0.999928562663,0.0,0.658958964386,0.25720653642,0.303587605821,1.0,-0.01066,-0.0140102857143,0.534
0.462860425008,0.531305018352,-0.124057661355,-1.38126224696,0.0779603295137,1.90343306755,0.156029852706,-0.00182324716009,-0.0549497531926,-0.00217115433903,-0.0913897642365,-0.00628564997133,0.034712954836,-0.00937374300664,0.574097254187,0.818772281184,0.0022452617973,0.0,0.818733008372,-0.574037509819,-0.011745008477,0.0,-0.00832778322789,0.00858121227788,-0.999928502855,0.0,0.658767044013,0.256971186921,0.303562974552,1.0,-0.011,-0.0144571428571,0.551
0.462736559615,0.530393587221,-0.124052187477,-1.38271006905,0.0778830159987,1.90394215921,0.155848073964,-0.00880612310158,-0.0648653437628,0.0002419434999,-0.0970633693668,-0.00301240998433,0.0353336215643,-0.0140907743049,0.574103837548,0.818767708871,0.00222924296328,0.0,0.818728054919,-0.574043975418,-0.0117742632835,0.0,-0.00836086405203,0.00858495877771,-0.99992819464,0.0,0.658589515386,0.256754936984,0.303560008618,1.0,-0.0113,-0.0148514285714,0.566
0.462593356747,0.529352160408,-0.124058442929,-1.38434878294,0.0777803182538,1.90454737178,0.155625356391,-0.00582267387132,-0.0685782561006,-0.000982392340916,-0.0978080453941,-0.00414744527275,0.0379139163016,-0.0163248375399,0.5741045015,0.818767235736,0.00223202708165,0.0,0.818727653839,-0.574044665479,-0.011768507819,0.0,-0.00835454622716,0.00858394087813,-0.999928256185,0.0,0.658398638568,0.25650062402,0.303566239189,1.0,-0.01164,-0.0152982857143,0.583
0.462457380109,0.528266854212,-0.124060846925,-1.38603070964,0.0776625871563,1.90518599781,0.155392388491,-0.00892649451318,-0.0701644360162,-0.00143932632738,-0.103628303482,-0.0135662889067,0.0360804719091,-0.0113060592771,0.574086268313,0.818779949931,0.00225765977445,0.0,0.818740849902,-0.574026490589,-0.0117369376551,0.0,-0.00831417278193,0.00858661834139,-0.999928569707,0.0,0.658203099561,0.256248623341,0.303585292614,1.0,-0.01198,-0.0157451428571,0.6
0.462305852274,0.527158610624,-0.124062020647,-1.38775732842,0.0775646193642,1.90585306926,0.155143701342,-0.00795588713142,-0.0700854589868,-9.90921569427e-06,-0.105560291188,-0.0027854549789,0.0465835952686,-0.0169249477548,0.574074737798,0.818787913323,0.00230115616369,0.0,0.818749337803,-0.574014756724,-0.0117186949716,0.0,-0.00827438751475,0.00861164262915,-0.999928684518,0.0,0.658005496186,0.25598722641,0.303601424771,1.0,-0.01232,-0.016192,0.617
0.462139781059,0.525856137539,-0.124064878429,-1.38978003577,0.0774292795592,1.90661258159,0.154877193529,-0.00671801922352,-0.0645590065755,0.000710051563329,-0.10453184405,-0.00841705994066,0.0382750490768,-0.0203658475544,0.574067170387,0.818793148582,0.00232607409634,0.0,0.818755007123,-0.574007213431,-0.0116920546118,0.0,-0.00823834951245,0.00861667541802,-0.999928938726,0.0,0.657767606702,0.255682983944,0.303621013157,1.0,-0.0127,-0.0166914285714,0.636
0.461989552726,0.524768173201,-0.124074412558,-1.39150588793,0.077325043051,1.90723213963,0.154648604191,-0.0125753596546,-0.0667341127162,-0.00120761511712,-0.109487117058,-0.00242871376982,0.0371802033201,-0.0132794760981,0.574074449367,0.818788095248,0.0023083683998,0.0,0.818749713131,-0.574014545485,-0.0117028082426,0.0,-0.00825724200969,0.00860842490191,-0.999928853957,0.0,0.657560938735,0.255413272425,0.303618790131,1.0,-0.01302,-0.017112,0.652
0.461847449595,0.523580232325,-0.124083987893,-1.39340216763,0.0772072465532,1.90791536145,0.154385759467,-0.0116632800446,-0.0708783771551,0.000146105412071,-0.113584965242,-0.00576410970908,0.0378487030277,-0.0175812978631,0.574052338041,0.818803668878,0.00228296351645,0.0,0.818764968111,-0.573992542821,-0.0117147206714,0.0,-0.00828181168217,0.00859423880738,-0.999928772791,0.0,0.657327675405,0.255132129409,0.303610984066,1.0,-0.01336,-0.0175588571429,0.669
0.461682728561,0.522366152647,-0.124085104412,-1.39532649258,0.0770893657232,1.90865003357,0.154129012494,-0.00779819272618,-0.0734763417806,-0.00251560606321,-0.114939143165,-0.00838699960233,0.0431514699602,-0.0184137339136,0.574049231402,0.818805796423,0.0023009937757,0.0,0.818767343194,-0.573989383569,-0.0117035110579,0.0,-0.00826231576899,0.0086025357134,-0.999928862728,0.0,0.657102003415,0.254841541958,0.303612073683,1.0,-0.0137,-0.0180057142857,0.686
0.461526256963,0.521205102139,-0.12409081648,-1.39719702742,0.0769752378141,1.90937706381,0.153885277366,-0.00883986947272,-0.0717184552732,0.000698978391033,-0.114655798106,-0.000894681884718,0.0421529612417,-0.0173936356842,0.574051281883,0.818804329916,0.00231127238985,0.0,0.818766055741,-0.573991443396,-0.0116925521299,0.0,-0.00824742052501,0.00860468158382,-0.999928967232,0.0,0.656884196195,0.254559503775,0.303600692807,1.0,-0.01402,-0.0184262857143,0.702
0.461362769077,0.519927536125,-0.124097510929,-1.39923257626,0.0768448416054,1.91012857225,0.153607175123,-0.0109067706009,-0.0734441381849,-0.000438694225918,-0.119656513248,-0.00395658577679,0.0503046654239,-0.0151103647694,0.574035467378,0.818815450177,0.00229948784728,0.0,0.81877707418,-0.573975727571,-0.0116924701769,0.0,-0.00825428394194,0.00859482599154,-0.999928995361,0.0,0.656637647147,0.254253341397,0.30359440194,1.0,-0.01436,-0.0188731428571,0.719
0.461183321002,0.518494579858,-0.124102863575,-1.40143500862,0.0766999573028,1.91090662958,0.153315982611,-0.00944431662111,-0.0826426746455,-0.00060042706653,-0.121732405768,-0.00805819737258,0.0423201149395,-0.0186599601126,0.57402532412,0.818822556153,0.00230123996053,0.0,0.818784239576,-0.573965617304,-0.0116870045792,0.0,-0.00824890916583,0.00859302104498,-0.999929055227,0.0,0.656364826595,0.253919264391,0.303619561582,1.0,-0.01472,-0.0193462857143,0.737
0.461027585963,0.517313305644,-0.124103192413,-1.40330451548,0.076576197115,1.91158229755,0.153052062747,-0.0120417102396,-0.0786172246037,0.000180922471894,-0.125587985971,-0.0129638106231,0.0482928065209,-0.0223775168953,0.574002475698,0.818838618717,0.00228501442063,0.0,0.818800124367,-0.573942865658,-0.0116914583174,0.0,-0.00826210892595,0.00858206134178,-0.999929040372,0.0,0.65613465878,0.253636389336,0.303617171013,1.0,-0.01502,-0.0197405714286,0.752
0.460843251831,0.515971944019,-0.124106380277,-1.40544971501,0.0764511929857,1.91237317738,0.152756176534,-0.0125321724602,-0.0817268869879,-0.000292457200403,-0.127036001496,-0.00481228940522,0.045853226877,-0.0218782873083,0.573993113785,0.818845208412,0.00227527788748,0.0,0.818806509692,-0.573933460069,-0.0117059813827,0.0,-0.00827968806406,0.00858233028584,-0.999928892658,0.0,0.655873687344,0.253310096056,0.303605634779,1.0,-0.01536,-0.0201874285714,0.769
0.460639060852,0.514500265928,-0.124106800585,-1.40779001939,0.0763067524659,1.91325040659,0.152441819368,-0.00928601905696,-0.0842126942836,0.000999631846057,-0.133381968596,-0.00944707902246,0.0458345528072,-0.0199163075735,0.573987618767,0.818849047654,0.00227981563309,0.0,0.818810398243,-0.573927938903,-0.0117046818099,0.0,-0.00827607700589,0.0085852444795,-0.999928897536,0.0,0.655591697815,0.252953734244,0.303599551253,1.0,-0.01572,-0.0206605714286,0.787
0.460466229432,0.513273681253,-0.124109587935,-1.40978098583,0.0761887231306,1.91394467125,0.152166525061,-0.0128129313873,-0.0814802450089,-0.000621137453527,-0.129696648056,-0.0068993404696,0.0462037429443,-0.0208719148399,0.57397826499,0.818855764069,0.00222168202377,0.0,0.81881624502,-0.573918686497,-0.0117492588393,0.0,-0.00834604418242,0.00856313340269,-0.999928505591,0.0,0.655340041921,0.252646757012,0.303571782206,1.0,-0.01602,-0.0210548571429,0.802
0.460248295047,0.511696413986,-0.1241159742,-1.41233441071,0.076042370785,1.9148543452,0.151799818079,-0.0105284231475,-0.0820223713332,0.00146009876601,-0.133332908359,-0.00610126203382,0.0450097975492,-0.0148968022485,0.573955171723,0.818872092883,0.0021686978014,0.0,0.818831728761,-0.573895640156,-0.0117958079519,0.0,-0.00841481374304,0.00854622808992,-0.999928073861,0.0,0.65501967337,0.25225607772,0.303540362832,1.0,-0.0164,-0.0215542857143,0.821
0.4600561904,0.510299520679,-0.12411646857,-1.41453358069,0.0758953257991,1.91569207947,0.151491112052,-0.00948379290308,-0.0882802134251,-0.00120255342303,-0.144387517794,-0.00335701201547,0.0539502649093,-0.0223222558815,0.573935166843,0.818886057183,0.00219009425051,0.0,0.818846076554,-0.573875662182,-0.0117717530081,0.0,-0.0083830440183,0.00854973772002,-0.999928310709,0.0,0.654755825385,0.2519204791,0.303544234064,1.0,-0.01672,-0.0219748571429,0.837
0.459858378405,0.508799063769,-0.124122599396,-1.41688686257,0.0757457634168,1.91656178089,0.151175681715,-0.0132412083525,-0.0914516445003,0.000216849951049,-0.142531150654,-0.0137977608268,0.04601350374,-0.0129151034468,0.573925218859,0.818893004665,0.00219931101715,0.0,0.818853176892,-0.573865713794,-0.0117628281791,0.0,-0.00837054968328,0.00855206120416,-0.99992839551,0.0,0.65446625305,0.251562777978,0.30354971551,1.0,-0.01706,-0.0224217142857,0.854
0.459653816998,0.507388141089,-0.124120269013,-1.41912312684,0.0756088441196,1.91736109846,0.150856310114,-0.0149004484505,-0.091291582167,0.00130221796003,-0.14473470598,-0.00927080960325,0.0559634351881,-0.014692354809,0.573908386256,0.818904858059,0.00217819524034,0.0,0.818864661537,-0.573848868446,-0.0117851249819,0.0,-0.00840110297382,0.00854739373222,-0.999928179185,0.0,0.654186412462,0.25121568282,0.30354143047,1.0,-0.01738,-0.0228422857143,0.87
0.459401311961,0.505521492648,-0.124138917871,-1.42200379275,0.0754227505346,1.91844195305,0.150466950167,-0.015214464091,-0.0980125988461,-0.00157580003531,-0.148571042242,-0.00468802783466,0.0572349407055,-0.0159507429113,0.573908193496,0.818904867903,0.0022247842849,0.0,0.818865417436,-0.573848640852,-0.0117436119455,0.0,-0.00834037212889,0.00856171886855,-0.99992856503,0.0,0.653838840167,0.250765717986,0.303569481809,1.0,-0.01778,-0.023368,0.89
0.459231657291,0.504283352975,-0.124132358265,-1.42388302749,0.0753151717067,1.91917371779,0.150204707692,-0.00637741049479,-0.100807889936,0.00112706616111,-0.140805888278,-0.0146802600366,0.0552031751406,-0.0222720803694,0.573895683155,0.8189134087,0.00230668763035,0.0,0.818874944114,-0.57383574432,-0.0117094553699,0.0,-0.00826552933479,0.00860906034437,-0.999928780016,0.0,0.653613463103,0.250484203661,0.303603327034,1.0,-0.01804,-0.0237097142857,0.903
0.458985953135,0.502523116676,-0.124140857344,-1.42650672703,0.0751393079377,1.92016703951,0.149843128041,-0.0147149120691,-0.0996500322413,-0.000312442349048,-0.144991881578,-0.0152699314324,0.0529076048884,-0.0201561866548,0.573893840703,0.818914409291,0.00240764606457,0.0,0.818877413533,-0.573833701925,-0.011636624993,0.0,-0.00814796830174,0.00864992092987,-0.999929392248,0.0,0.653300499337,0.250069603539,0.303670048801,1.0,-0.0184,-0.0241828571429,0.921
0.458751536776,0.500810553431,-0.124141940949,-1.4290772624,0.0749764177194,1.92106349515,0.149479771669,-0.00774732579837,-0.103223899538,0.000933354683793,-0.155876524157,-0.00664893415962,0.0580242836737,-0.0186550944334,0.57387591984,0.818926868164,0.00244133725856,0.0,0.818890241843,-0.573815591873,-0.0116269187266,0.0,-0.00812087510719,0.00867176289551,-0.999929423467,0.0,0.652973315988,0.249668133437,0.303719483171,1.0,-0.01874,-0.0246297142857,0.938
0.458525121999,0.49921007235,-0.124141952792,-1.43151709615,0.0748291347446,1.92195538269,0.149139047835,-0.0121059315356,-0.0984101770584,0.0005859137699,-0.147169513293,-0.0101198379364,0.0578656267578,-0.0294770329127,0.573866756487,0.818933146922,0.00248868898701,0.0,0.818897056215,-0.573806179314,-0.011611494496,0.0,-0.0080811681965,0.00870159830244,-0.999929485968,0.0,0.652669613668,0.249288771499,0.303751929601,1.0,-0.01906,-0.0250502857143,0.954
0.458272000264,0.49753752279,-0.12414694989,-1.43416557781,0.0746624069564,1.92294077963,0.148754067548,-0.0186713871853,-0.103004511359,0.000138957495401,-0.154381819826,-0.00939641999773,0.0507082073033,-0.0316154926107,0.573848281142,0.818946093626,0.00248854712089,0.0,0.81891001431,-0.573787720995,-0.0116097631199,0.0,-0.00808002793948,0.00870030627707,-0.999929506425,0.0,0.652325117832,0.248842300635,0.30374055181,1.0,-0.01942,-0.0255234285714,0.972
0.458026251143,0.495963728164,-0.124142755153,-1.43669236492,0.0745078008852,1.92382900597,0.148374638755,-0.0101238663798,-0.102884473933,-0.000337878352299,-0.159541146898,-0.010978923227,0.0495473271634,-0.0243385332048,0.573825196501,0.818962415474,0.00243983665744,0.0,0.818925549433,-0.573764645094,-0.0116543308541,0.0,-0.00814472374435,0.00868576049549,-0.999929108007,0.0,0.652019708622,0.248467305523,0.303714041422,1.0,-0.01972,-0.0259177142857,0.987
0.457774156717,0.494402118328,-0.12414237902,-1.43927725243,0.074346357896,1.92471735831,0.148020460555,-0.0202560150329,-0.100201956138,0.00127728274995,-0.159142075498,-0.0108823623604,0.0515485833132,-0.0284544078692,0.573827693382,0.818961002006,0.00232430694257,0.0,0.818922491764,-0.573767411227,-0.0117327404729,0.0,-0.00827520463997,0.00863616490859,-0.999928466263,0.0,0.651682861697,0.248051698692,0.303648527708,1.0,-0.0201182857143,-0.0264411755102,1.003
0.457484000621,0.492539167287,-0.124143737063,-1.44227099375,0.0741531348852,1.92582150393,0.14759627407,-0.0134319723459,-0.107120002216,0.00134176445557,-0.172083076424,-0.00653926870271,0.061604096917,-0.0233732522592,0.573816894037,0.818968651219,0.00229506868347,0.0,0.818929766237,-0.573756728136,-0.0117474163227,0.0,-0.00830411448233,0.00862053197963,-0.999928361489,0.0,0.651308057142,0.247575327868,0.303616256748,1.0,-0.0213628571429,-0.0280768979592,1.021
0.457206012499,0.490795854894,-0.124146591681,-1.4450753539,0.0739692705432,1.92681714119,0.147192995341,-0.0151105798055,-0.114971008982,0.000761415371096,-0.185594299359,-0.0119599817909,0.0639783015512,-0.0214501468926,0.573806437783,0.818976148156,0.00223329605779,0.0,0.818936438468,-0.573746485544,-0.0117824859895,0.0,-0.00836839034453,0.00858995921684,-0.999928088736,0.0,0.650949777435,0.24712127968,0.303580756404,1.0,-0.0224691428571,-0.0295308734694,1.037
0.456865970747,0.488726096941,-0.124155740408,-1.44838382671,0.0737673659163,1.92799103814,0.146725427263,-0.0200929200174,-0.122132867144,-0.000304182284279,-0.181117693158,-0.00956419472032,0.0741120167109,-0.0251248927135,0.573818466667,0.818967868047,0.00217837560798,0.0,0.81892731149,-0.57375859083,-0.0118272923843,0.0,-0.00843647313787,0.0085708150756,-0.99992768091,0.0,0.650528996693,0.246577067338,0.303547181773,1.0,-0.0237137142857,-0.0311665959184,1.055
0.456563205161,0.486880889769,-0.124165754417,-1.4512454986,0.0735839869257,1.92910592494,0.146302891994,-0.0226844835869,-0.122062049734,0.000972292332358,-0.194357724327,-0.015995745298,0.0772359054102,-0.0353502696576,0.573820015891,0.81896657807,0.00225394484418,0.0,0.818927125957,-0.573759971731,-0.0117730247582,0.0,-0.00834865120713,0.00860157943423,-0.999928153846,0.0,0.650187930966,0.246105547017,0.303564089201,1.0,-0.0247508571429,-0.0325296979592,1.07
0.456141108816,0.484274762379,-0.124198289004,-1.45520028275,0.073333060402,1.9305558028,0.145707304502,-0.0255810166779,-0.137479691465,-0.0027973915341,-0.206025513048,-0.0199654875223,0.0682134992825,-0.037367912905,0.573828185202,0.818960635395,0.00233204695251,0.0,0.818922299161,-0.573767950931,-0.0117197833436,0.0,-0.0082601464458,0.00863507351106,-0.999928600194,0.0,0.649702399878,0.245436002696,0.303617612698,1.0,-0.0261337142857,-0.0343471673469,1.09
0.455809012347,0.482254362985,-0.124231024518,-1.45834006045,0.0731409449829,1.93161856211,0.145245203746,-0.0208244288545,-0.135872131631,-0.00121419553384,-0.215285949526,-0.0160088779648,0.0757838589619,-0.0239006758122,0.573846823242,0.818947713896,0.0022830373681,0.0,0.818908650479,-0.573786676127,-0.0117566734255,0.0,-0.00831828455466,0.00861629463758,-0.999928280233,0.0,0.649296375613,0.244897304365,0.303617908793,1.0,-0.0271708571429,-0.0357102693878,1.105
0.455410826586,0.479851694562,-0.124250490243,-1.46205463396,0.0729110222233,1.93298610337,0.144691379602,-0.0202159097883,-0.143330789427,-0.000794444010861,-0.215302339356,-0.0168007773583,0.0876530587772,-0.0315710239611,0.573852446935,0.818943648222,0.0023274631479,0.0,0.818905150086,-0.573792119773,-0.0117347923183,0.0,-0.00827481293477,0.00864017719478,-0.999928434844,0.0,0.648833311146,0.244275109184,0.303634574225,1.0,-0.0283462857143,-0.0372551183673,1.122
0.455036890093,0.477654369374,-0.12426442129,-1.46539794262,0.0727084436224,1.93421285574,0.144205570242,-0.0241017486642,-0.149864842789,-0.00247816460816,-0.222137870956,-0.00983081930825,0.0840593374183,-0.0359657537514,0.573878347314,0.818925295533,0.00239785787553,0.0,0.81888764763,-0.573817689446,-0.011705842117,0.0,-0.00821043502572,0.00868147266834,-0.999928607846,0.0,0.648417289157,0.243708271827,0.303671961382,1.0,-0.0293834285714,-0.0386182204082,1.137
0.454542004497,0.474795286343,-0.124272859288,-1.4698078525,0.0724235464335,1.93581853158,0.143580158398,-0.0250588247305,-0.152230555835,-0.000214250107824,-0.240442579316,-0.0185715072269,0.0811199924875,-0.0376737300083,0.573912758133,0.81890105942,0.00243881842985,0.0,0.818863938182,-0.573851941586,-0.0116853234557,0.0,-0.0081697603596,0.00870358424908,-0.99992874878,0.0,0.647861063921,0.242961710632,0.303691100021,1.0,-0.0306971428571,-0.0403448163265,1.156
0.45415203161,0.472449585146,-0.124273704423,-1.47344132188,0.0721994738456,1.93706143218,0.143041488628,-0.0255033942588,-0.155570209125,4.95393464972e-05,-0.24499983101,-0.0158292021601,0.0843122627831,-0.0377355557222,0.573904544888,0.818906908291,0.00240744918826,0.0,0.818869130764,-0.573843579623,-0.0117319950658,0.0,-0.00822607092484,0.00870459870352,-0.999928278287,0.0,0.64737762078,0.242358432862,0.303691434923,1.0,-0.0317342857143,-0.0417079183673,1.171
0.453689431423,0.469711484843,-0.124269149189,-1.47761327283,0.0719310603054,1.93861707711,0.142397721415,-0.0310098960219,-0.170231341896,0.00175555442128,-0.248048353442,-0.0159580174823,0.0946136018151,-0.0370076837494,0.573878753109,0.81892467802,0.00250905585587,0.0,0.818888201556,-0.573817402281,-0.0116811426185,0.0,-0.00812639250265,0.00875836442389,-0.999928623851,0.0,0.64684955732,0.241666996729,0.30373199386,1.0,-0.0329097142857,-0.0432527673469,1.188
0.453162475294,0.466536855778,-0.124276572703,-1.48243153599,0.0716069491871,1.94041649162,0.141635798961,-0.0257223429329,-0.17715183192,-0.000833826089296,-0.254507196624,-0.0113112263271,0.0887103569105,-0.0407107564335,0.573831256478,0.818957583264,0.00262922146169,0.0,0.818922815568,-0.573769655203,-0.0115996470187,0.0,-0.0079912052531,0.00880953907654,-0.999929263828,0.0,0.646238491338,0.240864403503,0.30378571687,1.0,-0.0342234285714,-0.0449793632653,1.207
0.452691353551,0.463785521346,-0.12427969212,-1.48673367773,0.0713151664199,1.94185509621,0.14099165231,-0.0253286411213,-0.173804554967,0.000317923643492,-0.268831155376,-0.0210810776345,0.0825050397078,-0.0462221957339,0.573813285807,0.818970491567,0.0025286113615,0.0,0.818934284905,-0.573751890757,-0.0116684087095,0.0,-0.00810544292183,0.00876642325966,-0.999928723269,0.0,0.645652980197,0.240137705373,0.303759880527,1.0,-0.0353297142857,-0.0464333387755,1.223
0.45215495481,0.46080702995,-0.124281138242,-1.49142347815,0.0710025825914,1.94351578577,0.140293899303,-0.0312861340799,-0.176745439591,-0.000977875388587,-0.274661905222,-0.0199455977383,0.0972335561169,-0.0345641411691,0.573815268098,0.818969255918,0.00247847950377,0.0,0.818932324857,-0.573753973329,-0.011703516328,0.0,-0.00816293975754,0.00874553172015,-0.999928438484,0.0,0.645033739675,0.239339117118,0.30372347872,1.0,-0.0365051428571,-0.0479781877551,1.24
0.451663210101,0.458122419273,-0.124284356743,-1.49559587226,0.0707164867747,1.94499984868,0.13966038422,-0.0327629113662,-0.184051775166,-0.0019312038807,-0.280335169198,-0.0236969724324,0.0971807666505,-0.0417372884714,0.573816028009,0.81896876398,0.00246506090276,0.0,0.818931680957,-0.57375480566,-0.0117077669825,0.0,-0.00817411229238,0.0087369890296,-0.999928421894,0.0,0.644486054479,0.238618313118,0.30371372346,1.0,-0.0375422857143,-0.0493412897959,1.255
0.451071752531,0.455031163076,-0.124307320086,-1.50055968604,0.0703851160141,1.94670881219,0.138895119315,-0.0338727451801,-0.187766957395,-0.00457563548255,-0.296341091617,-0.0209056643723,0.0924838787486,-0.0425520040285,0.573827621732,0.818961076558,0.00231571186309,0.0,0.81892195926,-0.573766855994,-0.0117968854206,0.0,-0.00833267169875,0.0086659328468,-0.999927731484,0.0,0.643821613527,0.23774252991,0.303625508242,1.0,-0.0387177142857,-0.0508861387755,1.272
0.45039926887,0.451303407778,-0.12435621071,-1.50612402516,0.0700067491748,1.94873839356,0.138004424162,-0.0387901034953,-0.204716870986,0.000403218475468,-0.297312309186,-0.0231145058898,0.114029889713,-0.0438518158074,0.573834402476,0.818955902979,0.00246057159525,0.0,0.818918948796,-0.573773394097,-0.0116873620135,0.0,-0.00815978069666,0.0087217870232,-0.999928671661,0.0,0.643108969618,0.236751551476,0.303713591425,1.0,-0.0400314285714,-0.0526127346939,1.291
0.449812876504,0.448117382725,-0.124381205894,-1.51093073118,0.0696797920841,1.95043500957,0.137296449571,-0.0398281888325,-0.199481461791,-0.00430006424048,-0.309693024848,-0.0202157171022,0.100007820237,-0.0448642703378,0.573880174638,0.818923666776,0.00251397173723,0.0,0.818887478054,-0.573819047749,-0.0116509925305,0.0,-0.00809886458458,0.00874510197423,-0.999928963269,0.0,0.642474098604,0.235898897173,0.30375829946,1.0,-0.0411377142857,-0.0540667102041,1.307
0.449187096045,0.444655412545,-0.12438825369,-1.51621068775,0.0693173435176,1.95222875807,0.136494207282,-0.0359558378779,-0.206858787905,0.000362625954886,-0.311938575163,-0.0200016860813,0.114089402225,-0.0448610164657,0.573876843897,0.818926082739,0.00248715684256,0.0,0.818889442176,-0.573815700949,-0.0116777453989,0.0,-0.00813619729476,0.00873846239522,-0.999928718244,0.0,0.641748276867,0.234981591046,0.303772265558,1.0,-0.0423131428571,-0.0556115591837,1.324
0.448617802635,0.441589979206,-0.124388721088,-1.52094625289,0.0689839372734,1.95392950926,0.135740644034,-0.0397775997196,-0.204381606362,-0.000529742814953,-0.316655007835,-0.0205122547148,0.111459435016,-0.0512454794844,0.573844494003,0.818948714958,0.00249917417515,0.0,0.818912303237,-0.573783390585,-0.0116622123312,0.0,-0.00811692544626,0.00873906906826,-0.999928869567,0.0,0.641111527944,0.234162037294,0.303763279655,1.0,-0.0433502857143,-0.0569746612245,1.339
0.447764197455,0.437235557602,-0.124394420225,-1.52772839791,0.0685326530024,1.95631654758,0.134622901252,-0.0355891238343,-0.21140714377,-0.00158564428333,-0.324482305933,-0.0292891129396,0.112297083296,-0.0510373869103,0.57380657604,0.818975398878,0.00246094020079,0.0,0.818938297129,-0.573745407008,-0.011705568522,0.0,-0.0081747769021,0.00873225849464,-0.999928457783,0.0,0.640190604138,0.232962687599,0.303718201661,1.0,-0.0448022857143,-0.0588830040816,1.36
0.447203880754,0.434380697781,-0.124409145605,-1.53197744996,0.068237152726,1.95781660699,0.133947827969,-0.0403145240882,-0.227465116005,-0.00235475729852,-0.327621685828,-0.0187113708177,0.12084616397,-0.0522898076896,0.573826589839,0.81896112908,0.00254180067576,0.0,0.818925146802,-0.5737652041,-0.0116551019372,0.0,-0.00808683435519,0.00876972073471,-0.999928845023,0.0,0.639622653113,0.232189158457,0.303774213653,1.0,-0.0457011428571,-0.0600643591837,1.373
0.446320926842,0.429958610128,-0.124435916817,-1.53877321351,0.0677403513591,1.96015193742,0.132879293998,-0.0488334736597,-0.228986447131,-0.0007233715684,-0.350757779493,-0.0240474864511,0.110053764896,-0.0532775087944,0.573848712331,0.818945813289,0.00248136103194,0.0,0.818909216375,-0.57378772124,-0.0116658986865,0.0,-0.00813012092549,0.00872663837247,-0.999928870929,0.0,0.638689645318,0.23095045527,0.303756964064,1.0,-0.047084,-0.0618818285714,1.393
0.44570306906,0.426804700559,-0.124466741588,-1.54365354326,0.0673887703069,1.96173505561,0.132089295129,-0.048524241024,-0.230469411031,-0.00264322632504,-0.350308629252,-0.025975520625,0.120828751147,-0.0589262542864,0.57384024491,0.818952146327,0.0023456873545,0.0,0.818913744218,-0.573779704081,-0.0117421300046,0.0,-0.00827049400625,0.00865918908809,-0.999928306117,0.0,0.637993441873,0.230060158635,0.303719148373,1.0,-0.048052,-0.0631540571429,1.407
0.444911733798,0.422898497059,-0.124474850441,-1.5495533076,0.0669662463111,1.96382380738,0.131092011299,-0.0461806687488,-0.224621692621,0.000312233563177,-0.345681627679,-0.029145392708,0.13234779657,-0.0653724504614,0.573809289171,0.818973648267,0.00241039549756,0.0,0.8189361897,-0.573748622218,-0.0116954095207,0.0,-0.00819542889485,0.00868506194246,-0.99992869978,0.0,0.637187568976,0.228986644499,0.303747625678,1.0,-0.0492274285714,-0.0646989061224,1.424
0.444136074557,0.419158652365,-0.124493471891,-1.55524358359,0.0665859950347,1.96578296122,0.130195372764,-0.0472620528975,-0.231178666593,-0.00208792291489,-0.354894042159,-0.0243947480536,0.128181805626,-0.0533979556554,0.573856906919,0.818940262048,0.0024175356875,0.0,0.818902708296,-0.573796008771,-0.0117150145111,0.0,-0.00820688273296,0.00870263606643,-0.999928453041,0.0,0.636396256467,0.227938702423,0.303748512925,1.0,-0.0503337142857,-0.0661528816326,1.44
0.443289730849,0.415040945757,-0.124497338258,-1.56128924018,0.0661598991202,1.96799584356,0.129203661419,-0.0496977833443,-0.242602991866,0.000448987103013,-0.36440872636,-0.0252881994887,0.126527534745,-0.0637553076881,0.57387251131,0.818928619036,0.00264661812543,0.0,0.818894204711,-0.57381098714,-0.0115749483479,0.0,-0.00796055117211,0.00881001454178,-0.99992950415,0.0,0.635582060194,0.226828732994,0.303853568672,1.0,-0.0515091428571,-0.0676977306122,1.457
0.442443341497,0.410915182576,-0.124512961947,-1.56761151495,0.0657099315564,1.97006378166,0.128114015046,-0.045260174715,-0.244655754862,-0.000781460133952,-0.373077911293,-0.0266836775941,0.118807926472,-0.0594228783458,0.573817141036,0.818967783754,0.00253075608291,0.0,0.818931652616,-0.573755789495,-0.0116614435703,0.0,-0.00809846656235,0.00876422120962,-0.999928799098,0.0,0.634663045553,0.225669228476,0.303817007312,1.0,-0.0526845714286,-0.0692425795918,1.474
0.441612476111,0.406938533722,-0.124538005462,-1.57363015631,0.0652835128029,1.97208619536,0.127157543957,-0.0539582364192,-0.245887762196,-0.00284574464739,-0.376309409461,-0.0203114948798,0.127751132637,-0.0630973845906,0.57385678865,0.818940083421,0.00250455343828,0.0,0.818903525049,-0.573795431422,-0.0116861645917,0.0,-0.00813332387669,0.00875734112949,-0.999928576459,0.0,0.633801293235,0.224549380585,0.303816120479,1.0,-0.0537908571429,-0.070696555102,1.49
0.440695365378,0.40273668214,-0.1245456174,-1.5800922846,0.0648462449147,1.97430479818,0.126060784807,-0.0489517951007,-0.253963978054,-0.00275965404527,-0.383643631021,-0.0258849025528,0.12676780025,-0.0686660050241,0.573852193473,0.818943403333,0.00247165651958,0.0,0.818906114783,-0.573790631228,-0.0117402550029,0.0,-0.00819654884251,0.00876139440687,-0.999928024687,0.0,0.632876996529,0.223349670017,0.303769199447,1.0,-0.0549662857143,-0.0722414040816,1.507
0.439718812371,0.398323930651,-0.124559848366,-1.58651759955,0.0643678256841,1.97664142991,0.124941403152,-0.0602361336709,-0.260126934755,0.000163427902987,-0.385281074639,-0.0357902691456,0.134582312401,-0.0647129782172,0.573864738012,0.818933821209,0.00272136883096,0.0,0.818900149583,-0.573802713082,-0.0115645308964,0.0,-0.00790920893578,0.00886517651797,-0.999929424039,0.0,0.632000808834,0.222118273559,0.303886252138,1.0,-0.0561417142857,-0.0737862530612,1.524
0.438736293619,0.39385553279,-0.124574100037,-1.59322179761,0.0638600665016,1.97882437497,0.123838416938,-0.0525807868612,-0.26786272913,-0.00148363386514,-0.406881291001,-0.0284760420122,0.126639477249,-0.0676597936982,0.573893093677,0.818914159277,0.00265775577742,0.0,0.818879640489,-0.573831253724,-0.0116005837616,0.0,-0.00797493251053,0.00883404708169,-0.999929177524,0.0,0.631015594451,0.22084045086,0.303890630177,1.0,-0.0573171428571,-0.0753311020408,1.541
0.437748086772,0.389376741831,-0.124580032746,-1.6000064168,0.0633516818581,1.98103008403,0.122683582488,-0.0586758554951,-0.266665587687,0.000871329710631,-0.399675297062,-0.0376106665476,0.131147615954,-0.0656477461182,0.573876909301,0.818925814762,0.00255925552179,0.0,0.818889876887,-0.573815257872,-0.0116690302213,0.0,-0.00808768592729,0.00879250472007,-0.999928638052,0.0,0.630004979095,0.219558671414,0.303860857143,1.0,-0.0584925714286,-0.0768759510204,1.558
0.436730153893,0.384867340059,-0.124582562768,-1.60685525045,0.0628404541135,1.98334550256,0.121413163235,-0.0575786065623,-0.266416056164,9.93603980025e-05,-0.393396747153,-0.0351702174356,0.133292819527,-0.068699607886,0.573786367169,0.818989367211,0.00252351874267,0.0,0.818952912117,-0.573724796653,-0.0116932604853,0.0,-0.00812900723662,0.00877624544726,-0.999928445819,0.0,0.628997562397,0.21826201297,0.303825627917,1.0,-0.059668,-0.0784208,1.575
0.435738371365,0.380465663968,-0.124590761119,-1.61327178032,0.062387121389,1.98562098189,0.120287586583,-0.0647886789013,-0.269791976743,0.000569220160652,-0.407367777876,-0.0297181039584,0.144404518635,-0.068509697257,0.573795471938,0.818982292412,0.00274007299733,0.0,0.818948658581,-0.573733163881,-0.0115800765581,0.0,-0.0079119592256,0.00888874573523,-0.999929193043,0.0,0.628080410057,0.217034548349,0.303914435679,1.0,-0.0607742857143,-0.0798747755102,1.591
0.434632336236,0.375807849502,-0.124609167072,-1.62038971338,0.0618236218551,1.98787502045,0.119051234991,-0.0601631995102,-0.277311614278,-0.00059240656096,-0.422031399928,-0.0378061366639,0.130489390594,-0.0696721773338,0.573802118005,0.818978287307,0.00253795085107,0.0,0.818941997107,-0.573740469533,-0.0116887080478,0.0,-0.00811682925898,0.00878560912329,-0.999928462519,0.0,0.62699953106,0.215638287197,0.303835492092,1.0,-0.0619497142857,-0.0814196244898,1.608
0.433505267138,0.371001278828,-0.124671730171,-1.62755942376,0.0612688508526,1.99017975959,0.117783729103,-0.0672072674412,-0.283859715138,-0.00563865943207,-0.425929432667,-0.0293114058729,0.125831166236,-0.0761945525396,0.573834903839,0.818955549406,0.00246132761865,0.0,0.818918361302,-0.573773632245,-0.0117167983569,0.0,-0.00818344970452,0.00873930249718,-0.999928325303,0.0,0.625922471296,0.214206066324,0.303830250008,1.0,-0.0631251428571,-0.0829644734694,1.625
0.432351241479,0.366157045538,-0.124700688678,-1.63469386447,0.060722532917,1.99260220088,0.116564684069,-0.0637731839624,-0.285745723232,-0.00191433899335,-0.40816992114,-0.0280633424461,0.152486994733,-0.0654853708364,0.573901836963,0.818908376852,0.00254926522878,0.0,0.818872501592,-0.57384042655,-0.0116506606838,0.0,-0.0080781077122,0.00877402769063,-0.999928877778,0.0,0.624868815721,0.212792696627,0.303869916239,1.0,-0.0643005714286,-0.084509322449,1.642
0.431151319576,0.361226238182,-0.124710000159,-1.64182277059,0.0601684971972,1.99507596602,0.115175712963,-0.0724142516837,-0.286584630038,-0.000829838895819,-0.431746165738,-0.0381136188896,0.147954564125,-0.0839135063078,0.573845271183,0.818947337545,0.00275861744664,0.0,0.818914445466,-0.57378346115,-0.0115072854876,0.0,-0.00784116271259,0.00886264367113,-0.999929982406,0.0,0.623825964976,0.211369018039,0.303966934453,1.0,-0.065476,-0.0860541714286,1.659
0.429750856488,0.355697765803,-0.124735855286,-1.6501709782,0.0595525172889,1.99763029197,0.113665736344,-0.0726068107853,-0.297045062575,-0.000498506785088,-0.442932081771,-0.0325187999854,0.13460365774,-0.0762224742321,0.573886480966,0.818919170576,0.00253888336801,0.0,0.818882824624,-0.573824745083,-0.0116973658037,0.0,-0.00812247938335,0.0087921773581,-0.999928358907,0.0,0.622517416942,0.209681706672,0.303882802244,1.0,-0.0667897142857,-0.0877807673469,1.678
0.428483319094,0.350707945001,-0.124770238472,-1.65768897191,0.0589779258351,2.00004345747,0.112282140021,-0.0767085934575,-0.292611265444,-0.00133170073196,-0.432565735212,-0.0332269050739,0.144943322127,-0.082944906657,0.573906846936,0.81890523528,0.00242766816652,0.0,0.818867258733,-0.57384531715,-0.0117775830183,0.0,-0.00825177725597,0.00874734192464,-0.999927693477,0.0,0.621355398839,0.208159494926,0.303817781261,1.0,-0.0679651428571,-0.0893256163265,1.695
0.427252499864,0.345815056315,-0.124764750564,-1.66464341701,0.058462596527,2.00245351686,0.110933497011,-0.0781845042858,-0.311552805606,0.00135103469885,-0.432806187027,-0.0377476211715,0.154037705674,-0.0817339955065,0.573890423606,0.818915826154,0.00271997610476,0.0,0.818881668913,-0.57382787669,-0.0116244205841,0.0,-0.00795877710448,0.00889865355192,-0.999928733377,0.0,0.620318391165,0.206756858052,0.303946824315,1.0,-0.0690714285714,-0.0907795918367,1.711
0.426008888866,0.340935479831,-0.124767942858,-1.67176135194,0.0578747156285,2.00472086269,0.109645077702,-0.0768402421356,-0.307870656188,0.00203845841306,-0.456956933149,-0.0406193753755,0.141414204957,-0.0814623324636,0.573916306981,0.818897696533,0.00271700116769,0.0,0.818863604331,-0.573853882748,-0.0116131674786,0.0,-0.0079509875093,0.00889001072105,-0.999928872224,0.0,0.619204851505,0.205307390332,0.303972028602,1.0,-0.0701777142857,-0.0922335673469,1.727
0.424830335736,0.336330426716,-0.124775099782,-1.67862360212,0.0573149792897,2.00679896914,0.108299252844,-0.075984079868,-0.301265461977,0.00268002454825,-0.461915922935,-0.0362873295328,0.144039204487,-0.0920215756256,0.573840721001,0.818951201655,0.0025501233471,0.0,0.818914722411,-0.573778648006,-0.011725502627,0.0,-0.0081395648519,0.00881707419049,-0.999928000751,0.0,0.618094195258,0.203917225138,0.303917054315,1.0,-0.0712148571429,-0.0935966693877,1.742
0.423481711453,0.331054368312,-0.12476294502,-1.68637257398,0.0566756243928,2.00930250083,0.106834023517,-0.0771039946273,-0.323365050677,0.000343886382939,-0.45746708247,-0.0370062913761,0.149623037553,-0.0952714043865,0.57379230685,0.818985126305,0.00254919422329,0.0,0.81894869564,-0.573730309037,-0.0117180759351,0.0,-0.00813453652524,0.00881157075676,-0.999928090183,0.0,0.616863307736,0.202361437688,0.303910686182,1.0,-0.0723902857143,-0.0951415183673,1.759
0.421896568048,0.325056923794,-0.124767803811,-1.69493280166,0.0560067243115,2.01218702573,0.10510177995,-0.0897274618322,-0.309693371233,-0.000968219761693,-0.459220521554,-0.0347396448855,0.153493751298,-0.0890353948236,0.573745568178,0.819017029081,0.00280641637962,0.0,0.81898404984,-0.573682814469,-0.0115715768937,0.0,-0.00786747715535,0.00893772329059,-0.99992910744,0.0,0.615540377105,0.200592673456,0.304014948075,1.0,-0.073704,-0.0968681142857,1.778
0.420491029415,0.319981844451,-0.124798724018,-1.70246805263,0.0553821126204,2.01444597079,0.103708242026,-0.0908536331341,-0.318817306641,-0.0033432948804,-0.470630853128,-0.0423419251534,0.146106594293,-0.0895831341466,0.573821936661,0.818964159752,0.00261475627059,0.0,0.818928511841,-0.57375962567,-0.0116932180083,0.0,-0.0080762403746,0.00885129387967,-0.999928211892,0.0,0.614310803219,0.198994660117,0.303944001938,1.0,-0.0748102857143,-0.0983220897959,1.794
0.418999859925,0.31450428065,-0.124846207927,-1.71047137431,0.0547238802543,2.01688655257,0.102062396361,-0.0912626707533,-0.322879914977,-0.00089530005082,-0.468109744325,-0.0399137894593,0.14875966837,-0.106709722972,0.573773949901,0.818998070324,0.00252232481659,0.0,0.818961112161,-0.573711859524,-0.0117535488372,0.0,-0.0081792036313,0.00880973569341,-0.999927741982,0.0,0.613005978367,0.197298937762,0.303921161985,1.0,-0.0759857142857,-0.0998669387755,1.811
0.417625217653,0.309558331722,-0.1248598381,-1.71741169037,0.0541228267735,2.01922144242,0.100632636758,-0.0934538657916,-0.330427270372,-7.58141355213e-05,-0.463075178646,-0.0326772836341,0.154256254173,-0.0944463364625,0.573761237719,0.819006183074,0.00276786527404,0.0,0.81897299299,-0.573698936074,-0.01155484322,0.0,-0.00787571831068,0.00889669934425,-0.999929408409,0.0,0.611926186805,0.195809284918,0.304038520198,1.0,-0.0770228571429,-0.101230040816,1.826
0.41601949184,0.30400603576,-0.124876642486,-1.72547871276,0.0534619970602,2.02170694239,0.0989664670516,-0.0994638803234,-0.333229668254,-0.00271856713244,-0.481977409598,-0.0386113653677,0.144440005025,-0.101373654932,0.57375761481,0.819008847465,0.00273022395029,0.0,0.818974984305,-0.573695230488,-0.0115976074493,0.0,-0.00793237937486,0.00889037187167,-0.999929016803,0.0,0.610607999326,0.194067867508,0.304021813393,1.0,-0.0781982857143,-0.102774889796,1.843
0.414187047756,0.297756013962,-0.124945570256,-1.73470152744,0.0527161051734,2.02440717019,0.0971748109183,-0.0981740201154,-0.329862726784,-0.00395096439587,-0.485512827017,-0.0363422314401,0.140743264477,-0.0978815923294,0.573878428616,0.81892495496,0.00249283272873,0.0,0.818887492983,-0.57381630466,-0.0117842795363,0.0,-0.00822017078775,0.00880426287568,-0.999927454242,0.0,0.609062568705,0.192049014387,0.303919510071,1.0,-0.079512,-0.104501485714,1.862
0.412598872946,0.292313707293,-0.124983260784,-1.7423108749,0.0521012448492,2.02687758638,0.0955393788936,-0.106188749607,-0.340669554343,4.46447834753e-05,-0.469936794165,-0.0486377916036,0.151625887576,-0.0955989909472,0.573892534244,0.818914296291,0.00273520955488,0.0,0.818880125734,-0.573829698964,-0.0116431596307,0.0,-0.00796535875789,0.00892190290553,-0.999928473796,0.0,0.607843054355,0.190370883219,0.304028993445,1.0,-0.0806182857143,-0.105955461224,1.878
0.410884404826,0.286534400538,-0.124998910511,-1.75053531598,0.0513978898304,2.02943232192,0.0937844651191,-0.102344531891,-0.34023015183,-0.00227668238569,-0.485863401981,-0.0386815061037,0.140861512749,-0.103185317844,0.573876602349,0.818925231607,0.00280307253358,0.0,0.818892019953,-0.573813628371,-0.0115985539815,0.0,-0.00789005919265,0.00895172482863,-0.99992880426,0.0,0.606482598992,0.188565975975,0.304062864289,1.0,-0.0817937142857,-0.107500310204,1.895
0.409159574818,0.280720300242,-0.1250192145,-1.75896495851,0.0506368839204,2.03183899642,0.09200867413,-0.101812312764,-0.344715540887,-0.000787774579504,-0.491870522854,-0.0437534871216,0.145571455439,-0.108443711313,0.573833910187,0.818955835335,0.00259426128144,0.0,0.818919799521,-0.573771537685,-0.0117188478996,0.0,-0.00810886170691,0.00884933461876,-0.999927965225,0.0,0.605024912485,0.186721142805,0.304001125796,1.0,-0.0829691428571,-0.109045159184,1.912
0.407362750865,0.274823973776,-0.125029221496,-1.76728114145,0.0499401349641,2.0344433426,0.0902336141511,-0.108507215136,-0.354032399246,-0.00141852167549,-0.479294177574,-0.0385708719499,0.158082778415,-0.105737295361,0.573857747178,0.818938671376,0.00273595144049,0.0,0.818904462232,-0.573794859798,-0.0116484980651,0.0,-0.00796968409689,0.00892523553918,-0.99992840959,0.0,0.603638361339,0.184878367235,0.304052042155,1.0,-0.0841445714286,-0.110590008163,1.929
0.405526686694,0.268901153057,-0.125063573152,-1.7756276117,0.0492059831639,2.03702411152,0.0883530896702,-0.111768256401,-0.351665747345,-0.00889970326985,-0.509554785474,-0.0421346374502,0.146716370679,-0.116540954292,0.57382731954,0.81895965099,0.00283624763062,0.0,0.818926969834,-0.573764356447,-0.0115684160687,0.0,-0.00784687926634,0.00896112539128,-0.999929059842,0.0,0.602238382965,0.182995023701,0.304094435291,1.0,-0.08532,-0.112134857143,1.946
0.403752367298,0.263249320174,-0.125131887289,-1.78372101133,0.0484929666013,2.03928838983,0.0866350092342,-0.113207212674,-0.358120733929,-0.00174251798898,-0.51068358831,-0.0434781519018,0.148150162127,-0.113859851848,0.573899384603,0.818909716821,0.00266813613686,0.0,0.8188746066,-0.573836704246,-0.0116859927694,0.0,-0.00803885335516,0.00889162417959,-0.999928155347,0.0,0.600821975744,0.181144728872,0.304049443571,1.0,-0.0864262857143,-0.113588832653,1.962
0.401716776422,0.256856753864,-0.125153481018,-1.79275023007,0.0476804040125,2.04194311398,0.0846225808903,-0.110488147439,-0.364550509578,0.000287973105201,-0.496828448518,-0.0457448196779,0.155411030768,-0.11838922095,0.573891579011,0.818915232139,0.00265424407566,0.0,0.81887995221,-0.573828960333,-0.0116916659232,0.0,-0.00805155621262,0.00888342691328,-0.999928126001,0.0,0.599256245678,0.179092488158,0.304053513271,1.0,-0.0876708571428,-0.115224555102,1.98
0.399991366184,0.251439137039,-0.125135754846,-1.80019321928,0.0470101776205,2.04424844109,0.0829500105483,-0.118882345834,-0.351402807635,0.000235998786618,-0.509731420499,-0.0436500584547,0.152268811485,-0.11328935583,0.57385816446,0.818937904114,0.00287457645817,0.0,0.818905777172,-0.573795138708,-0.0115418287552,0.0,-0.00780277328041,0.00897755277817,-0.999929257635,0.0,0.597897132121,0.17730125455,0.304154792636,1.0,-0.0887771428571,-0.116678530612,1.996
0.39788829072,0.244999326085,-0.125151687219,-1.80944643855,0.046219283893,2.04684196585,0.080826510407,-0.114173982009,-0.364973737112,-0.000938332409938,-0.509249771617,-0.0429906149975,0.14353249139,-0.11649324573,0.573831945793,0.818956912811,0.00268697757416,0.0,0.818921588847,-0.57376869994,-0.0117327401001,0.0,-0.00806706029756,0.00893321701743,-0.999927557462,0.0,0.596320550933,0.175312587856,0.304053112401,1.0,-0.0899525714286,-0.118223379592,2.013
0.395842003,0.238803902772,-0.125147579598,-1.81814402847,0.0454495031843,2.04931324912,0.078786236178,-0.115580734856,-0.370720197742,0.00162487516446,-0.504722391077,-0.0418439268395,0.155534920798,-0.119681590207,0.573775816775,0.818996336566,0.00265700538683,0.0,0.818960241282,-0.573712265542,-0.0117943404823,0.0,-0.0081353216973,0.00894346130555,-0.99992691285,0.0,0.594762595576,0.173321490765,0.304042126892,1.0,-0.091128,-0.119768228571,2.03
0.393887814026,0.232833411678,-0.125146135362,-1.82622130035,0.04471943479,2.05179921315,0.0769458075639,-0.116172766624,-0.359720645559,-0.00178855454115,-0.512131201206,-0.0530376969508,0.155847982369,-0.116697777063,0.573802900298,0.818976361053,0.00294932983451,0.0,0.818944430798,-0.573738745473,-0.0116025043979,0.0,-0.00781018240187,0.00907306260137,-0.999928337725,0.0,0.593357547527,0.171456958858,0.304172291648,1.0,-0.0922342857143,-0.121222204082,2.046
0.391737126141,0.226542953259,-0.125164050549,-1.83508849046,0.0438578365213,2.0542148258,0.074797058981,-0.132358857746,-0.368774588037,-0.000583330008243,-0.51780108705,-0.0471150488617,0.148093054955,-0.128151033263,0.573716369359,0.819037587585,0.00277570786028,0.0,0.819003355115,-0.573652757239,-0.0116946707115,0.0,-0.00798623617962,0.00898291102073,-0.999927761061,0.0,0.591735485697,0.169376872841,0.304115398568,1.0,-0.0934097142857,-0.122767053061,2.063
0.389652909531,0.220585459145,-0.12520412358,-1.84344522983,0.0430963943402,2.05649736361,0.0728141370992,-0.130854565104,-0.371337233238,-0.00320172648777,-0.516534716685,-0.0446266258506,0.153048519376,-0.124437254811,0.573747681479,0.819016007902,0.00266902572705,0.0,0.818980015584,-0.573684031076,-0.0117946370643,0.0,-0.00812897563291,0.00895319677787,-0.999926877338,0.0,0.590206200851,0.16738574042,0.304070604671,1.0,-0.094516,-0.124221028571,2.079
0.387520623482,0.214494852819,-0.125274758128,-1.85159731973,0.0423544784116,2.05898260254,0.0708038300685,-0.1311552872,-0.369956599685,-0.00619013615111,-0.514356100065,-0.047908089345,0.151037578511,-0.116872555402,0.573817618505,0.818965883962,0.0029947455558,0.0,0.818934627353,-0.573753413019,-0.0115690998842,0.0,-0.00775660196814,0.00909122921388,-0.999928589789,0.0,0.588782838424,0.165391358717,0.3042099422,1.0,-0.0956222857143,-0.125675004082,2.095
0.384902892133,0.207286307471,-0.125329008214,-1.8616345739,0.0413851821502,2.0616353319,0.068338809176,-0.136130997768,-0.390879652172,-0.00291314722134,-0.534156997574,-0.0582996167004,0.133314954761,-0.12698494473,0.573848064957,0.818945178036,0.00281791032656,0.0,0.818911396077,-0.57378417929,-0.0116870814563,0.0,-0.00795435978602,0.00901440151342,-0.999927731752,0.0,0.586915744986,0.162939827258,0.30415543343,1.0,-0.096936,-0.1274016,2.114
0.382545457894,0.200801132038,-0.125376324386,-1.87062337128,0.040515748288,2.06403976506,0.066076618858,-0.13951731539,-0.397717380253,-0.00100637940034,-0.521460285751,-0.0498421885371,0.144957312043,-0.13794315324,0.573832049781,0.818956767863,0.0027088590434,0.0,0.81892141556,-0.573768378713,-0.0117605113808,0.0,-0.00807724823942,0.00896707367845,-0.999927172173,0.0,0.585234909343,0.160750482391,0.30411472108,1.0,-0.0981114285714,-0.12894644898,2.131
0.380245684857,0.1945828858,-0.125405528898,-1.87892669715,0.0397382023069,2.06647168116,0.0639577077794,-0.147163138519,-0.381553447499,-0.00438455311897,-0.525310896316,-0.0504738247556,0.142928437971,-0.130931250839,0.573885858198,0.818918135966,0.00297577673214,0.0,0.818886576079,-0.573821638095,-0.011586633341,0.0,-0.00778108890879,0.00908640357932,-0.999928443403,0.0,0.583733278543,0.158691286296,0.304221630905,1.0,-0.0992177142857,-0.13040042449,2.147
0.377576725042,0.187615482272,-0.125505305084,-1.88854303979,0.0388428733357,2.06895727934,0.0614436204806,-0.147106327595,-0.397491675506,-0.0053771578479,-0.538994086891,-0.0451444077336,0.131764936309,-0.140085060226,0.573949416063,0.818874075458,0.00283958520147,0.0,0.818840176974,-0.573884990192,-0.0117272974908,0.0,-0.00797373808411,0.009056216356,-0.999927199573,0.0,0.581913162563,0.156259488773,0.304163758171,1.0,-0.100462285714,-0.132036146939,2.165
0.375027627808,0.180917604899,-0.125576203074,-1.89755503727,0.0379673791159,2.07136966888,0.0590689446396,-0.148156139761,-0.40222638648,-0.00220120149125,-0.522186605243,-0.0517490781076,0.140735995911,-0.139969528141,0.573992837313,0.818843431226,0.00289909522293,0.0,0.818810336834,-0.573928234851,-0.0116944617222,0.0,-0.00791221289358,0.00908652134445,-0.999927413374,0.0,0.580216540281,0.153978803007,0.304204378195,1.0,-0.101637714286,-0.133580995918,2.182
0.372614423808,0.174591249818,-0.125549819411,-1.90602266322,0.0370787784392,2.07369469268,0.0568637438323,-0.152213722951,-0.398007802496,-0.00030571904299,-0.541218802847,-0.05122103673,0.137230845932,-0.144596753796,0.573961939683,0.81886473049,0.0029986423313,0.0,0.818833442373,-0.573897606672,-0.0115791885946,0.0,-0.00776102491443,0.00910157740189,-0.999928461332,0.0,0.578610628816,0.151883864749,0.30425441522,1.0,-0.102744,-0.135034971429,2.198
0.369875452419,0.167465803712,-0.125546529676,-1.91577772808,0.0361169720122,2.076080164,0.0542120307328,-0.156534022098,-0.387674681331,-0.00117187581531,-0.541548344093,-0.0503575118753,0.128890526492,-0.151575541566,0.573838420844,0.818952011488,0.00279580851235,0.0,0.818917362458,-0.573773959274,-0.0117704726068,0.0,-0.00803544480517,0.00904405967229,-0.999926815628,0.0,0.576673738627,0.149484885336,0.304176631422,1.0,-0.103988571429,-0.136670693878,2.216
0.367361758485,0.161033530605,-0.125557103832,-1.92431943277,0.0352838553188,2.07834774962,0.0518254985982,-0.153110982722,-0.414781343707,-0.000292125675571,-0.524759274355,-0.0527228119709,0.14536278967,-0.145072686604,0.573779580416,0.818992808908,0.00291872496302,0.0,0.818959695287,-0.573714623121,-0.01171732106,0.0,-0.00792203901949,0.00911365313383,-0.999927088654,0.0,0.575022714216,0.147333642777,0.304226298928,1.0,-0.105094857143,-0.138124669388,2.232
0.364778548047,0.154531627527,-0.125557810087,-1.93287004518,0.0343764111936,2.08063328754,0.0494662881629,-0.162574122143,-0.396378074995,-0.00130743357465,-0.540129014111,-0.0581817674185,0.136835276677,-0.153639757363,0.573755304038,0.819009282513,0.00306482428573,0.0,0.818978626197,-0.57369051852,-0.0115734909858,0.0,-0.00772068456192,0.00915055359892,-0.999928326631,0.0,0.573370370738,0.145150140268,0.304302252078,1.0,-0.106201142857,-0.139578644898,2.248
0.361431158043,0.146447386644,-0.125599516589,-1.9438522284,0.0332622631362,2.08316589788,0.0464476373346,-0.17048764085,-0.39841567027,-0.00341028447631,-0.548378374585,-0.0541831838146,0.131522814188,-0.151278017563,0.573799713461,0.818979245831,0.00276235968729,0.0,0.818943727068,-0.573734891462,-0.011840317437,0.0,-0.00811226829588,0.00905636225348,-0.999926083971,0.0,0.571144092937,0.142308923817,0.304191597335,1.0,-0.107584,-0.141396114286,2.268
0.35888551102,0.140282998229,-0.125638440521,-1.95186769017,0.0324788772108,2.08528196435,0.0441281092116,-0.164880281713,-0.410791710388,-0.000317694808651,-0.529436226818,-0.058282704545,0.146393644608,-0.147425459817,0.573833554766,0.81895477907,0.00297794617336,0.0,0.818922138334,-0.573768042857,-0.0117265188096,0.0,-0.00789499027642,0.0091679525332,-0.999926806209,0.0,0.569580151302,0.140203605618,0.304276203202,1.0,-0.108621142857,-0.142759216327,2.283
0.355933512812,0.133290330578,-0.125673498531,-1.96105656326,0.0315087898938,2.08762699246,0.0413728886133,-0.176136971011,-0.406292104313,-0.00188597210624,-0.544949059835,-0.0644726984501,0.122266511384,-0.155720719245,0.573776380564,0.818994512915,0.00306591328705,0.0,0.818963286439,-0.573710897269,-0.0116485501681,0.0,-0.00778130062234,0.00919471040242,-0.999927451699,0.0,0.567757168369,0.137775780534,0.304309368515,1.0,-0.109796571429,-0.144304065306,2.3
0.353083552214,0.126673132919,-0.125766849239,-1.96989671014,0.0305327498027,2.08963845648,0.0388030250771,-0.183073980063,-0.399770707521,-0.00855898899426,-0.55225200798,-0.0586923832304,0.123071220881,-0.152080219086,0.57381788217,0.818966208149,0.00285217687524,0.0,0.818932064157,-0.57375296437,-0.0117710268292,0.0,-0.0080037823689,0.0090903397991,-0.999926649905,0.0,0.565943571307,0.135397170379,0.304243481036,1.0,-0.110902857143,-0.145758040816,2.316
0.349996326495,0.11951428231,-0.125871537437,-1.97905380775,0.0295580367367,2.09198955987,0.0360515522811,-0.180845792721,-0.419499957604,-0.00465134893128,-0.528221109809,-0.0534759637919,0.146527943516,-0.165909988835,0.573912487355,0.818899007582,0.00310147397481,0.0,0.818868742871,-0.573847464968,-0.0115678779662,0.0,-0.00769329892809,0.00917882643264,-0.999928278576,0.0,0.564128447761,0.132887193948,0.30436033192,1.0,-0.112078285714,-0.147302889796,2.333
0.346995198357,0.112849019265,-0.12588553968,-1.98780535104,0.0286226144721,2.09409018403,0.0333282659406,-0.182911516235,-0.421958353397,-0.00145779257112,-0.552658805944,-0.0612836624791,0.119717483525,-0.175212594016,0.573888282214,0.818915997707,0.00309437202733,0.0,0.818885557195,-0.57382318587,-0.0115819893221,0.0,-0.0077092023522,0.00918088127887,-0.999928137227,0.0,0.56233677135,0.130514469842,0.304343301294,1.0,-0.113184571429,-0.148756865306,2.349
0.343996074886,0.106128225626,-0.125892654733,-1.99667967884,0.0276436535177,2.09602126271,0.0306539731607,-0.190151570017,-0.418481187144,0.000637088831102,-0.556797525898,-0.0595576720425,0.127788651409,-0.158611879495,0.573872067307,0.818928090242,0.00289487117837,0.0,0.818894600233,-0.573807104576,-0.01173828557,0.0,-0.00795186723366,0.00910704392186,-0.999926912108,0.0,0.560455002551,0.128139229361,0.304273744276,1.0,-0.114290857143,-0.150210840816,2.365
0.340601253761,0.0984025430373,-0.125886254094,-2.00640858963,0.0266308326982,2.09839487809,0.0274874904172,-0.183658761685,-0.420625178497,0.000219554989487,-0.5359274729,-0.0481131197422,0.133632870987,-0.17236331605,0.573754888556,0.819009071335,0.0031962211605,0.0,0.818979668586,-0.573689146991,-0.0115677123271,0.0,-0.007640571044,0.00925484982838,-0.999927982121,0.0,0.558445354429,0.125523151797,0.304407878719,1.0,-0.115535428571,-0.151846563265,2.383
0.337469411998,0.0916094559617,-0.125893436448,-2.01530124284,0.0257189427336,2.10035047836,0.0246807800562,-0.201351732552,-0.431215259004,-0.00115393135293,-0.556246484386,-0.0615117904642,0.125737093167,-0.176342630793,0.573759044556,0.819006535496,0.00309846840826,0.0,0.818974950634,-0.573692530156,-0.0117327737129,0.0,-0.00783180095604,0.00926953151441,-0.999926366629,0.0,0.556425518956,0.122964744458,0.304340903762,1.0,-0.116710857143,-0.153391412245,2.4
0.334039514094,0.0843562528221,-0.125969676044,-2.02475310332,0.0246460795877,2.10231443746,0.0215636962532,-0.202510079524,-0.426749780578,-0.00415423767104,-0.541453452603,-0.0665633395896,0.122350583885,-0.181573537048,0.573723932961,0.8190318807,0.00289379433522,0.0,0.818997213786,-0.573657666159,-0.0118824563377,0.0,-0.00807221867217,0.00918743596775,-0.999925212356,0.0,0.554504513855,0.1204612291,0.304271299722,1.0,-0.117817142857,-0.154845387755,2.416
0.330557081969,0.0768989079969,-0.12603578803,-2.0339425141,0.0236008445603,2.10454075602,0.0184687749688,-0.202867975529,-0.435466184072,-0.00122897823406,-0.547937913302,-0.0619668093628,0.121628615175,-0.184082490581,0.573750528875,0.819011924617,0.00324728381152,0.0,0.818982892203,-0.573684272331,-0.0115812288304,0.0,-0.00762239561812,0.0093043851925,-0.999927661134,0.0,0.552595722897,0.117837861578,0.304440045045,1.0,-0.118992571429,-0.156390236735,2.433
0.326954735272,0.0695580657731,-0.126105926965,-2.04344847849,0.0225603354392,2.10650068504,0.015299282735,-0.215891703343,-0.435538852801,-0.00684752599837,-0.56032511009,-0.0651129298344,0.109541325405,-0.181174504907,0.573813354028,0.818968518192,0.00308995957998,0.0,0.818936686895,-0.573746700964,-0.0117546965849,0.0,-0.00785402354312,0.00927566171927,-0.999926135479,0.0,0.550518725611,0.11513104693,0.304358808194,1.0,-0.120168,-0.157935085714,2.45
0.323479935063,0.0625744104303,-0.126232162905,-2.05239569469,0.0215144304469,2.10827334225,0.012214823463,-0.21903615659,-0.430337510704,-0.0054762038617,-0.551824917729,-0.0645314649525,0.119269806684,-0.189295140555,0.57387086966,0.818928864914,0.00291308568668,0.0,0.818894381383,-0.573804434281,-0.0118831914918,0.0,-0.00806010221739,0.00920510416381,-0.999925147603,0.0,0.548550061484,0.112511569702,0.304302921422,1.0,-0.121274285714,-0.159389061224,2.466
0.319748857488,0.0550549656113,-0.126294261246,-2.06157804978,0.0204490540544,2.11045280176,0.00892325243544,-0.21718314366,-0.441539561557,0.0033217256475,-0.540877580311,-0.0568073877312,0.126426406334,-0.20198704464,0.573902826393,0.818905068167,0.00328360913908,0.0,0.818876515415,-0.573836446227,-0.01156427191,0.0,-0.00758593233029,0.00932581829501,-0.999927738761,0.0,0.546604965648,0.109807209793,0.304456271246,1.0,-0.122449714286,-0.160933910204,2.483
0.315989301249,0.0475630735997,-0.126288977698,-2.07110508403,0.0193943511827,2.11227597653,0.00559486298407,-0.221607059637,-0.435682995526,-0.00146507357244,-0.560200744955,-0.055770082333,0.107304170869,-0.195016632682,0.573869918783,0.818928691418,0.0031403167754,0.0,0.818897283946,-0.573802810487,-0.0117609491149,0.0,-0.00782960682113,0.0093210312502,-0.999925905072,0.0,0.544445728933,0.107108780751,0.304388457512,1.0,-0.123625142857,-0.162478759184,2.5
0.312372291527,0.0404625050061,-0.12629279232,-2.08001815622,0.0183550829997,2.11401059507,0.00237450382672,-0.23002715539,-0.44719868249,-0.000839527068585,-0.542850561643,-0.0571251389286,0.116042478703,-0.210185926496,0.573810137034,0.818970837938,0.00307248201176,0.0,0.81893817747,-0.57374283744,-0.0118391245432,0.0,-0.00793323593959,0.0093097617373,-0.999925193254,0.0,0.542428386136,0.104539541866,0.304362429112,1.0,-0.124731428571,-0.163932734694,2.516
0.308173979279,0.032375803569,-0.126356196232,-2.089845279,0.0171488897856,2.11613204496,-0.00132026388033,-0.231156293886,-0.438454131059,-0.00682996740109,-0.55781107036,-0.0667025207648,0.110036192026,-0.195834221301,0.573812216308,0.818968425019,0.00331755006395,0.0,0.818940027202,-0.573745391019,-0.0115846895298,0.0,-0.0075842118995,0.00936449120945,-0.999927390381,0.0,0.540262498492,0.101585040291,0.304475032727,1.0,-0.125976,-0.165568457143,2.534
0.304136320438,0.0247100001754,-0.126445138726,-2.09939596076,0.016030849192,2.11778234445,-0.00491115589358,-0.240841419787,-0.451372928342,-0.00258044153583,-0.568801639937,-0.0691111586448,0.100945303171,-0.218241770298,0.573814075819,0.818967799254,0.00314596224456,0.0,0.818936287965,-0.5737467446,-0.0117803317474,0.0,-0.00784287776889,0.0093362425687,-0.999925659158,0.0,0.538041697018,0.0987364238552,0.304424760658,1.0,-0.127151428571,-0.167113306122,2.551
0.300476381757,0.0179163699635,-0.126519399606,-2.10767978605,0.0150371524578,2.1193623014,-0.00809394624554,-0.249177582725,-0.464346574058,-0.00201653652647,-0.544019789345,-0.0688410921028,0.112582984293,-0.204739465342,0.573869435385,0.818928777078,0.00320563642978,0.0,0.818898111446,-0.573801974886,-0.0117440873652,0.0,-0.00777832034649,0.00936484270595,-0.999925895981,0.0,0.536148310109,0.0962049371859,0.304457727637,1.0,-0.128188571429,-0.168476408163,2.566
0.295996637493,0.00974152034727,-0.126621039157,-2.11758897873,0.0138323007324,2.12122786643,-0.0120211994656,-0.251383975669,-0.452304945115,-0.00364736581066,-0.563974959776,-0.0694198108211,0.0947500309826,-0.224009012885,0.5739148591,0.818896601368,0.0032920621119,0.0,0.818867244116,-0.573847328627,-0.0116801902213,0.0,-0.00767587481135,0.00939937752129,-0.999926363613,0.0,0.533868663465,0.0931372492432,0.304502400654,1.0,-0.129433142857,-0.170112130612,2.584
0.291964652879,0.00248798458546,-0.126640829123,-2.12656973118,0.0127996701349,2.12275805957,-0.0155640109663,-0.249020997882,-0.456422421257,0.0006368083851,-0.563453763266,-0.0639233082935,0.0976789321577,-0.220295277801,0.573904178605,0.81890454975,0.00317475665752,0.0,0.818872602728,-0.57383576791,-0.0118709254196,0.0,-0.0078995180016,0.00941267617259,-0.999924496721,0.0,0.531733542579,0.0904350783947,0.304428117134,1.0,-0.12998,-0.170830857143,2.6
0.287662094212,-0.00530840045485,-0.126635799533,-2.13581930525,0.0116536940834,2.12448307125,-0.0194446151053,-0.252943183372,-0.459607425936,-4.12380386031e-06,-0.533544934658,-0.0625656555305,0.110692397997,-0.225498368412,0.573760886754,0.81900417964,0.00336830302804,0.0,0.8189753012,-0.573692496504,-0.0117099265805,0.0,-0.00765825608474,0.00947743731562,-0.999925761892,0.0,0.529567101429,0.0876058762747,0.304521148923,1.0,-0.12998,-0.170830857143,2.617
0.283256430965,-0.0130077383518,-0.126650755773,-2.14509289354,0.0104764990726,2.12611347159,-0.0232415599617,-0.26544352485,-0.456205367829,0.0004398240431,-0.544656326199,-0.0724616009917,0.0816773065823,-0.227069506741,0.573764457822,0.819001609735,0.00338483278103,0.0,0.818973140343,-0.57369625384,-0.0116769271488,0.0,-0.00762170298669,0.00947207527359,-0.999926091986,0.0,0.527360415958,0.084726717946,0.30452481081,1.0,-0.12998,-0.170830857143,2.634
0.278741213558,-0.0206211096414,-0.126708245885,-2.15439505628,0.00930396811758,2.12745656252,-0.0272422870475,-0.258806992088,-0.444498713986,-0.00451335275313,-0.541975597381,-0.0659851921088,0.0713534500954,-0.231514615002,0.573733499302,0.819024342385,0.00312174000446,0.0,0.81899132663,-0.573664858514,-0.0119408505635,0.0,-0.0079891685586,0.00940772509397,-0.999923831046,0.0,0.52494103653,0.0816088318904,0.304424457793,1.0,-0.12998,-0.170830857143,2.652
0.274182562015,-0.0283800445423,-0.126817011397,-2.16329024913,0.00816446607724,2.12908588572,-0.0311235488728,-0.274899921168,-0.450695391571,-0.00411494847247,-0.518303907836,-0.0709874598197,0.0959911227698,-0.229785443503,0.57385300565,0.818939180022,0.0034776762885,0.0,0.818912077016,-0.573784695035,-0.0116138176902,0.0,-0.00751571760836,0.00951271845052,-0.999926508388,0.0,0.522973600495,0.0788492990847,0.304597579293,1.0,-0.12998,-0.170830857143,2.668
0.269541378211,-0.0359463510896,-0.126909363474,-2.17237061601,0.00702384252953,2.13044882223,-0.0351032588912,-0.272977106837,-0.443152386746,-0.00202759810765,-0.54027451011,-0.0609704052711,0.0684964398374,-0.233710594544,0.573952331091,0.818870006293,0.00337362255957,0.0,0.818840913487,-0.57388354571,-0.0117465426906,0.0,-0.00768297293165,0.00950459873095,-0.999925314476,0.0,0.520733573363,0.0758886790444,0.304541481366,1.0,-0.12998,-0.170830857143,2.685
0.264907150682,-0.0434808311617,-0.126917061279,-2.18140743056,0.00592335629668,2.13174479453,-0.0392313880092,-0.27626681353,-0.44387170848,5.72665090455e-05,-0.531978470584,-0.0649089633253,0.0769460130486,-0.24204065952,0.573864219454,0.818932229062,0.00325710547938,0.0,0.818900516345,-0.573794510502,-0.0119394701845,0.0,-0.0079088599579,0.00951906336847,-0.999923415751,0.0,0.518464664028,0.0730072502121,0.30446537573,1.0,-0.12998,-0.170830857143,2.702
0.260814177285,-0.0502088782204,-0.126919054588,-2.1890291306,0.00490223804016,2.13303584566,-0.0427432734577,-0.270497958548,-0.447769143009,-0.000119088987326,-0.501541967754,-0.0700930211061,0.0906762021053,-0.238607259243,0.57386494361,0.818930616235,0.00352408706035,0.0,0.818903580489,-0.573795805315,-0.0116639001388,0.0,-0.00752996353068,0.00957957534359,-0.999925762937,0.0,0.516600994512,0.0705005110058,0.30459774343,1.0,-0.12998,-0.170830857143,2.717
0.255779411332,-0.0581721469745,-0.126946364544,-2.19833822909,0.00366372645607,2.13429915364,-0.0471688286699,-0.281317425006,-0.445365623147,-0.000907811355525,-0.516388409583,-0.0653422055079,0.0621441359926,-0.24131473884,0.573798754062,0.81897730223,0.00345183574157,0.0,0.818949089987,-0.573729559842,-0.0117271937916,0.0,-0.00762403211973,0.00955611091033,-0.999925274647,0.0,0.514235145261,0.067424973013,0.304582071701,1.0,-0.12998,-0.170830857143,2.735
0.250982530191,-0.065623515034,-0.127009061613,-2.20716269351,0.00253440423117,2.13542430387,-0.0513443466277,-0.28571839304,-0.434078895586,-0.00869565450291,-0.510558411259,-0.0720733478897,0.0724185916654,-0.249493844511,0.573813514002,0.818967617428,0.00329236288665,0.0,0.818936287531,-0.573743590251,-0.0119330009235,0.0,-0.00788392102204,0.00954373637863,-0.999923377507,0.0,0.511956589582,0.0645091804348,0.304492746959,1.0,-0.12998,-0.170830857143,2.752
0.246381777782,-0.0726788125607,-0.127115430961,-2.21505967255,0.00145580836679,2.13661030234,-0.0552862507911,-0.28502318842,-0.436067323104,-0.00728361710497,-0.483437229047,-0.0686302165419,0.0784831123003,-0.247955647793,0.573914683215,0.81889574362,0.00352765811469,0.0,0.818868501203,-0.573845204622,-0.0116963999148,0.0,-0.00755394785014,0.0096016086257,-0.999925370707,0.0,0.509971423202,0.0617387035102,0.304610572534,1.0,-0.12998,-0.170830857143,2.768
0.241169186662,-0.0805551053992,-0.127170701619,-2.22410921687,0.000306173225043,2.13772366852,-0.0598905578583,-0.280610194132,-0.439523547043,0.00217848021818,-0.512679669004,-0.0649255895359,0.0567020990849,-0.247490606956,0.573885873303,0.818915929919,0.00352860452543,0.0,0.818887984779,-0.573815488832,-0.0117898287585,0.0,-0.00763025755679,0.00965573392486,-0.999924270118,0.0,0.507608274321,0.0586602756083,0.304599597348,1.0,-0.12998,-0.170830857143,2.786
0.236843042348,-0.0870400970818,-0.127157729671,-2.23166391387,-0.000678007936598,2.13859631617,-0.0636709193454,-0.285930656665,-0.432984302421,0.00091406609118,-0.505703091774,-0.0611830993854,0.064964213025,-0.248872029156,0.573827398031,0.818957421246,0.00340681016159,0.0,0.818927029437,-0.573756377143,-0.0119535369796,0.0,-0.00783490960994,0.00964938172826,-0.999922748828,0.0,0.505599404123,0.056151129662,0.304525322111,1.0,-0.12998,-0.170830857143,2.801
0.232167756751,-0.0940259244246,-0.127166702704,-2.23941682454,-0.00172507073004,2.1395681606,-0.0677877673828,-0.29641192368,-0.435788106702,-0.00146878826614,-0.475980851322,-0.0644841224384,0.0624802202843,-0.255987360529,0.573760894667,0.819003354017,0.00356212877423,0.0,0.818975450994,-0.573689914208,-0.0118253924571,0.0,-0.00764162585899,0.00970243057718,-0.999923731289,0.0,0.503561597015,0.0534673078683,0.304607969923,1.0,-0.12998,-0.170830857143,2.817
0.226470969204,-0.102215750634,-0.127206428282,-2.24860396686,-0.00302722350344,2.14061941734,-0.0726969829211,-0.295913938319,-0.422346725785,-0.00456411991536,-0.495387874099,-0.0595529735127,0.048388594396,-0.260979166978,0.573773183267,0.818994674535,0.00357828852485,0.0,0.818967312,-0.573702566518,-0.0117751410715,0.0,-0.00759105067029,0.00968694801456,-0.999924266626,0.0,0.501111442902,0.0502135789413,0.304632860215,1.0,-0.12998,-0.170830857143,2.836
0.22160102584,-0.109080177671,-0.127347207101,-2.25643560634,-0.00409070533661,2.14136306071,-0.0768827130663,-0.305100185627,-0.425401845258,-0.0100970027179,-0.484594040972,-0.0654845499486,0.0416689257888,-0.267372243685,0.573894711286,0.818910094663,0.00344443298581,0.0,0.818880011847,-0.573823318611,-0.0119612756868,0.0,-0.00781886397567,0.00968527665269,-0.99992252739,0.0,0.498973068319,0.0474094626377,0.304565261272,1.0,-0.12998,-0.170830857143,2.852
0.21636518563,-0.11637316085,-0.127453946504,-2.26447768242,-0.00523785881187,2.14225241487,-0.0813873944762,-0.303911480252,-0.431264585441,-0.00132145155844,-0.459506411639,-0.0642692144326,0.059495612875,-0.258497688461,0.57398049392,0.818849578174,0.00353664032668,0.0,0.818821180966,-0.573909364444,-0.011860097246,0.0,-0.0076820725285,0.00970352730709,-0.999923410727,0.0,0.496800921941,0.0444552950019,0.304612150978,1.0,-0.12998,-0.170830857143,2.869
0.21116381959,-0.123598844788,-0.127449662188,-2.27239136653,-0.00630277222788,2.14309876192,-0.0860114264649,-0.308686585936,-0.422917107734,0.000165593540185,-0.475259148208,-0.056096872778,0.0377944597884,-0.270613590146,0.573883802462,0.818916717236,0.00367945711425,0.0,0.818890314217,-0.573812372534,-0.0117796990395,0.0,-0.00753541953126,0.00977343843805,-0.999923845777,0.0,0.4945043238,0.041446576762,0.304662165607,1.0,-0.12998,-0.170830857143,2.887
0.205555251098,-0.131224513048,-0.127463825225,-2.28089594481,-0.00749817115206,2.14377804444,-0.0908746298818,-0.31758985018,-0.43023054232,-0.00245628800292,-0.469863358068,-0.061284916656,0.037523663529,-0.278585337297,0.573861280687,0.81893308555,0.00354666347039,0.0,0.818904179764,-0.573789326545,-0.0119373367927,0.0,-0.00774099144678,0.00975494073278,-0.999922456085,0.0,0.492102578399,0.0383850293931,0.304610110942,1.0,-0.12998,-0.170830857143,2.905
0.200209292796,-0.138420583191,-0.127493970919,-2.28879389614,-0.00863223805149,2.14447789251,-0.0955953656636,-0.314640878145,-0.422770265997,-0.00273861276697,-0.453781813537,-0.064334308921,0.0353201342971,-0.284071747391,0.573784567621,0.818986819448,0.00355055382516,0.0,0.818958048418,-0.573712716647,-0.0119239502964,0.0,-0.00772870904949,0.00974972100896,-0.999922602003,0.0,0.490016186641,0.0356720948844,0.304611430751,1.0,-0.12998,-0.170830857143,2.921
0.195735266852,-0.144380367404,-0.127560813497,-2.29502137898,-0.00949832692875,2.14512807623,-0.0994845471154,-0.322818894244,-0.407945749362,-0.00392888985276,-0.451232450711,-0.0597946801208,0.042354589733,-0.270576724601,0.573841523682,0.818945591024,0.00384337632959,0.0,0.81892162436,-0.57376997174,-0.0116678869639,0.0,-0.00735029217355,0.00984313153115,-0.999924540136,0.0,0.488288888997,0.0332763689973,0.304744989599,1.0,-0.12998,-0.170830857143,2.935
0.190219487788,-0.15143100185,-0.127682211783,-2.30279836579,-0.0106183579002,2.14564028472,-0.104255862219,-0.325961552637,-0.413200484608,-0.0034348100351,-0.45933336045,-0.0700385663669,0.0183923866347,-0.282249348577,0.573931854051,0.818882880771,0.00371502185681,0.0,0.8188564156,-0.573859614998,-0.0118346865959,0.0,-0.00755946678336,0.00983456244743,-0.999923064962,0.0,0.486038905528,0.0303158713972,0.304680101657,1.0,-0.12998,-0.170830857143,2.952
0.184450703179,-0.15895923267,-0.127672266491,-2.31096393413,-0.0118217053404,2.14613984088,-0.10936233811,-0.318751525678,-0.419758284395,0.000738522408908,-0.445270272046,-0.0637896587105,0.0205542491615,-0.279066909446,0.573797886837,0.818977193925,0.00361770546187,0.0,0.818949080944,-0.573725518078,-0.0119239099796,0.0,-0.00768998845143,0.0098048196854,-0.99992236178,0.0,0.483646711657,0.02731177118,0.304653103514,1.0,-0.12998,-0.170830857143,2.97
0.179217342523,-0.165605592834,-0.127687142223,-2.31793387182,-0.012787521561,2.14667066803,-0.113946863664,-0.330458205524,-0.415238306932,-0.00222104057766,-0.429094762562,-0.0567579197729,0.0354271934166,-0.285848655022,0.573792695512,0.818979993699,0.00380255164131,0.0,0.818954658309,-0.573720168531,-0.0117975741705,0.0,-0.00748052067453,0.00988366955517,-0.999923174492,0.0,0.481624507889,0.0246229237541,0.304730116188,1.0,-0.12998,-0.170830857143,2.986
0.173220642698,-0.173001090157,-0.127713676744,-2.32581390258,-0.0138872672221,2.1471702172,-0.119240281485,-0.33017156017,-0.404593664782,0.000782855284154,-0.443065971795,-0.0546883295691,0.0212854833425,-0.284160341964,0.573760250743,0.819002447005,0.00386178310897,0.0,0.818977588893,-0.573687140397,-0.0118118895963,0.0,-0.00745865477674,0.00994009793363,-0.999922778479,0.0,0.479296236706,0.0215667603344,0.304734891989,1.0,-0.12998,-0.170830857143,3.004
0.167443947437,-0.179963357205,-0.127872675672,-2.3332869565,-0.0150386888759,2.14748864039,-0.124250456623,-0.343284666155,-0.417064832688,-0.0109554661461,-0.434390123019,-0.0619816896246,0.0173120167717,-0.309928688411,0.573863411851,0.818930763647,0.00373306749814,0.0,0.818903636804,-0.573789954715,-0.0119443877431,0.0,-0.00763977703443,0.00991166048357,-0.999921693331,0.0,0.477039494966,0.0185773714445,0.304683961987,1.0,-0.12998,-0.170830857143,3.021
0.161984661645,-0.186504834874,-0.127955219224,-2.34019149433,-0.016047215831,2.1478292228,-0.129002376296,-0.336417271494,-0.420942527293,-0.00110419447481,-0.430183449425,-0.0586560770809,0.025235007795,-0.305184771762,0.573925580307,0.818887115519,0.00375062772905,0.0,0.818859944132,-0.573851695396,-0.0119737416647,0.0,-0.00765298603639,0.00994346688859,-0.999921276537,0.0,0.474950311182,0.0158221760348,0.304679194853,1.0,-0.12998,-0.170830857143,3.037
0.156220920604,-0.193432210318,-0.127947160108,-2.34724054237,-0.0171037882682,2.14825577788,-0.134131320113,-0.338388194327,-0.406058019639,-0.000271088267306,-0.4044969228,-0.0679654178363,0.0255410450407,-0.299750832625,0.573825279301,0.81895640235,0.00396317888691,0.0,0.818933131333,-0.573752186243,-0.0117346532397,0.0,-0.00733642809815,0.00997941130325,-0.999923291144,0.0,0.472825146802,0.0129869227699,0.304784831031,1.0,-0.12998,-0.170830857143,3.054
0.151002497987,-0.199455217507,-0.127980450791,-2.35362395497,-0.0180917380221,2.14844954211,-0.138759728299,-0.350349375198,-0.400775924028,-0.00227744199029,-0.43196522008,-0.0657900866253,0.0043713205388,-0.310297904869,0.573761031402,0.819001957613,0.00384956773274,0.0,0.818976768787,-0.573687733839,-0.0118398957262,0.0,-0.00748859216742,0.0099461688211,-0.999922494353,0.0,0.470838256143,0.0104186798459,0.304733204147,1.0,-0.12998,-0.170830857143,3.069
0.145065691457,-0.206287190267,-0.128068691564,-2.36081084009,-0.0191219595814,2.14862809591,-0.143965879246,-0.348309508689,-0.401825653715,-0.00498632902448,-0.414613894916,-0.0623052381314,0.0118992332584,-0.308647588566,0.5738153817,0.818964126862,0.00379651670715,0.0,0.818937182814,-0.573740862374,-0.0120025142477,0.0,-0.00765155914769,0.00999652845522,-0.999920758391,0.0,0.468577426851,0.00751360598415,0.304680897559,1.0,-0.12998,-0.170830857143,3.086
0.13827185028,-0.213889141095,-0.128230720977,-2.36850733086,-0.0202547519068,2.14887022152,-0.149891359893,-0.356876427731,-0.403885636192,-0.00228575449724,-0.38633320277,-0.0612552364651,0.0112226838919,-0.308577242671,0.573977651348,0.818849621411,0.00396234397011,0.0,0.818824974174,-0.573902689815,-0.0119210399169,0.0,-0.00748768332146,0.0100870708995,-0.999921089686,0.0,0.46615665374,0.00419992064141,0.304743789274,1.0,-0.12998,-0.170830857143,3.105
0.132626376768,-0.220261452865,-0.128225186095,-2.37489477041,-0.021241282574,2.14905529818,-0.154901570563,-0.351555368471,-0.386770746376,0.00072439775158,-0.404660707643,-0.0575654112268,0.00482506077524,-0.316863448784,0.57390419052,0.818900524886,0.00408134113036,0.0,0.818878156657,-0.573829831782,-0.0117743623389,0.0,-0.00730017675626,0.0100996714385,-0.999922349013,0.0,0.464127821755,0.00153149473013,0.304811391852,1.0,-0.12998,-0.170830857143,3.121
0.126553422278,-0.226919106311,-0.128242793423,-2.38190013648,-0.0223573406275,2.14909151663,-0.16034476463,-0.357089532502,-0.390848176382,-0.00627764097203,-0.411985142763,-0.0590827775652,-0.000513887237592,-0.311595604051,0.57376801036,0.818996972866,0.00386983532268,0.0,0.81897094335,-0.573693176004,-0.0119783411229,0.0,-0.00759027313898,0.010042264983,-0.999920767195,0.0,0.461840523297,-0.00132799783931,0.304704158699,1.0,-0.12998,-0.170830857143,3.138
0.119959778385,-0.234000443078,-0.128280751735,-2.38906094817,-0.0234425500029,2.14912109398,-0.166147073469,-0.363030363562,-0.394977374047,-0.0027228880592,-0.396265331013,-0.0553381004773,-0.000331685099449,-0.326962956653,0.573784397259,0.818985444908,0.0038798701364,0.0,0.818959211681,-0.573709081117,-0.0120186000805,0.0,-0.00761728845971,0.010073734542,-0.999920245214,0.0,0.459488367147,-0.00439780805748,0.304704822119,1.0,-0.12998,-0.170830857143,3.156
0.114363314764,-0.239903404346,-0.128433352659,-2.39483670259,-0.0243773885217,2.14916251249,-0.171063136255,-0.378201051088,-0.38795035234,-0.0121882813204,-0.383428533951,-0.0620338655464,0.00275622736408,-0.336030958273,0.573897638574,0.818905471426,0.0040095146843,0.0,0.818881581069,-0.573822717356,-0.0118824296345,0.0,-0.00742997908022,0.0101028105422,-0.999921361223,0.0,0.457582450105,-0.00703712242662,0.304780187074,1.0,-0.12998,-0.170830857143,3.171
0.107299890956,-0.247291275636,-0.128490374194,-2.40211830176,-0.0255133079965,2.14922391687,-0.177361783163,-0.374327257662,-0.379875839045,0.00115476404016,-0.386699640936,-0.0509583124556,-0.0067543280656,-0.325410498389,0.573867576028,0.818925832439,0.00415127089161,0.0,0.818904453265,-0.573793107033,-0.0117351457197,0.0,-0.00722838252302,0.0101341089613,-0.999922522159,0.0,0.455029247187,-0.0104388245115,0.304839442962,1.0,-0.12998,-0.170830857143,3.191
0.10209664023,-0.252643320711,-0.128495782979,-2.40761254406,-0.0263219512472,2.14918335465,-0.182026397572,-0.374859840157,-0.377228493616,0.000345424508667,-0.397215962844,-0.0521154020023,-0.00164021775175,-0.335011059951,0.573808204337,0.818967793079,0.00407988181006,0.0,0.818944557019,-0.573732694943,-0.0118892465527,0.0,-0.0073962908262,0.0101635398966,-0.999920995549,0.0,0.453294418136,-0.0126066583238,0.304762373972,1.0,-0.12998,-0.170830857143,3.204
0.0956285826429,-0.259149335937,-0.128562440895,-2.41407942099,-0.0273411803152,2.14913538497,-0.187742786121,-0.380842738675,-0.378209906931,-0.00300296706725,-0.372862810639,-0.0639105170018,-0.00522752842008,-0.337120998176,0.573842103609,0.818943916947,0.0041046219224,0.0,0.81892093281,-0.573766406428,-0.0118896409306,0.0,-0.00738199707093,0.0101843334563,-0.999920889606,0.0,0.450953235431,-0.0156876773244,0.304750916674,1.0,-0.12998,-0.170830857143,3.222
0.0887141948784,-0.2660008874,-0.128730943307,-2.42068113829,-0.0284075593494,2.14903460422,-0.193900279515,-0.382961872511,-0.384329342528,-0.00924127534834,-0.355451564701,-0.0618010777231,0.00101286284165,-0.351289716105,0.573932328844,0.81887998756,0.00424202582626,0.0,0.818859324356,-0.573856901655,-0.011764788102,0.0,-0.00719977235513,0.0102260115181,-0.999921792925,0.0,0.448793656928,-0.0186459430637,0.304817977381,1.0,-0.12998,-0.170830857143,3.239
0.0821474792731,-0.272441133086,-0.128788033048,-2.42684221856,-0.0294053269309,2.14895359631,-0.199757770468,-0.384935710488,-0.380455106991,3.72293660808e-05,-0.375823200307,-0.0605358033929,-0.0140992592107,-0.338264199157,0.57393307246,0.818878711796,0.00438527148997,0.0,0.818860777678,-0.573858454428,-0.0115865423555,0.0,-0.00697158198328,0.0102410238473,-0.999923256293,0.0,0.446641732402,-0.0215424062834,0.304887543746,1.0,-0.12998,-0.170830857143,3.256
0.0759775145653,-0.278402098291,-0.128782171969,-2.43280484477,-0.0303626365943,2.14872047626,-0.205363021779,-0.392006111813,-0.371867236652,-0.00112785867245,-0.372436321428,-0.0705413127514,-0.0150682182105,-0.351797235411,0.573782177335,0.818985209348,0.00424107816051,0.0,0.818964502412,-0.573706732068,-0.0117675940593,0.0,-0.00720448910104,0.0102255250798,-0.999921763926,0.0,0.444370175268,-0.0243791890714,0.30479927468,1.0,-0.12998,-0.170830857143,3.273
0.0684596760427,-0.285455325511,-0.128834944002,-2.43965968528,-0.0314857183484,2.14847402701,-0.212063698706,-0.388748563293,-0.36261119502,-0.00453298915297,-0.355815401074,-0.0550227662492,-0.0145402208252,-0.350289345472,0.57378699955,0.818981795954,0.00424781630372,0.0,0.818961265638,-0.57371165809,-0.0117526872259,0.0,-0.00718835355478,0.0102225329717,-0.999921910647,0.0,0.442031817822,-0.0274541007393,0.304795304793,1.0,-0.12998,-0.170830857143,3.291
0.0624344226973,-0.291026598664,-0.128984310379,-2.44493999497,-0.0322828494843,2.14825771082,-0.217473246373,-0.408051206453,-0.379395133139,-0.0111421239889,-0.344454725314,-0.0533308549953,-0.0114758346539,-0.361151230088,0.573866435408,0.818925437498,0.00438052876791,0.0,0.818906484168,-0.573790442223,-0.0117237153666,0.0,-0.0070874796527,0.0103152887605,-0.999921678158,0.0,0.44022548349,-0.0298925384032,0.304829189263,1.0,-0.12998,-0.170830857143,3.305
0.0552015802271,-0.297637495807,-0.129050540458,-2.45107471434,-0.0332690278953,2.14802651215,-0.223948441853,-0.398524944354,-0.364395664686,0.000547293872617,-0.339431171626,-0.0559011129946,-0.00772410840353,-0.363108563176,0.573924396549,0.81888371551,0.0045819667416,0.0,0.818868324661,-0.573849199612,-0.0115112932974,0.0,-0.00679718354523,0.0103588389283,-0.99992324343,0.0,0.437835366185,-0.0331388270727,0.304920677783,1.0,-0.12998,-0.170830857143,3.324
0.0487684228411,-0.30346415527,-0.129062438731,-2.45667085368,-0.0342202478459,2.14765792889,-0.229785053521,-0.406673048175,-0.357870133008,-0.00174711150565,-0.347377312364,-0.0604923475215,-0.0207215848048,-0.360675619403,0.573815690165,0.81896035029,0.0044994748321,0.0,0.818943626367,-0.573740351017,-0.0115798682469,0.0,-0.00690205557216,0.0103297252051,-0.999922826225,0.0,0.43572204062,-0.0358250665848,0.30489026634,1.0,-0.12998,-0.170830857143,3.34
0.0422071800186,-0.309187150851,-0.129112254244,-2.4622090044,-0.0351509176093,2.14725685937,-0.235677031766,-0.414149447229,-0.357071729046,-0.00495320358289,-0.338176007405,-0.0583478650372,-0.0294223311651,-0.369921326867,0.573804174335,0.818969008853,0.00439078075474,0.0,0.81895015066,-0.573728102839,-0.0117244039171,0.0,-0.00708294551161,0.01032354123,-0.999921625118,0.0,0.433597504549,-0.0385548066332,0.304827042624,1.0,-0.12998,-0.170830857143,3.356
0.0351466800247,-0.315282292358,-0.129268942188,-2.46790866026,-0.0360384868476,2.14688992879,-0.242002265071,-0.418306446724,-0.361452615243,-0.00845751345047,-0.336175603053,-0.0540884004529,-0.0284623530615,-0.37957942883,0.573940084594,0.818873137027,0.00450684504744,0.0,0.818855525965,-0.573863237432,-0.0117200350358,0.0,-0.00701104415062,0.0104172534361,-0.999921159938,0.0,0.431393188821,-0.0415017886308,0.304841439443,1.0,-0.12998,-0.170830857143,3.373
0.0272970322049,-0.32200579213,-0.129301103635,-2.47402331625,-0.0370849834456,2.14648190876,-0.249157738477,-0.410006564901,-0.353551415072,0.00115383264321,-0.312079280248,-0.0510102216938,-0.0235576088366,-0.381163185841,0.573855207203,0.818931894369,0.00463685794726,0.0,0.818917076571,-0.573779653991,-0.0115098770011,0.0,-0.00676540088278,0.0104024052845,-0.999923006694,0.0,0.429002061469,-0.044704113669,0.30492362106,1.0,-0.12998,-0.170830857143,3.392
0.0214317441785,-0.326931825372,-0.129316545785,-2.47851161234,-0.0378820796761,2.14615016028,-0.25452437075,-0.430934297752,-0.350650056061,-0.00194465091603,-0.324539137229,-0.0592035736734,-0.0271647199401,-0.387892402655,0.573762115079,0.81899683803,0.00468630963501,0.0,0.818983432007,-0.573687638421,-0.0113744680428,0.0,-0.00662730305004,0.0103644483382,-0.999924325669,0.0,0.427220766173,-0.0470755539213,0.304968205153,1.0,-0.12998,-0.170830857143,3.406
0.014196813005,-0.332821409393,-0.129377820379,-2.48412907892,-0.0387810732699,2.14557151036,-0.261041228398,-0.423207445578,-0.350042807719,-0.00842962068381,-0.32851557315,-0.054490603671,-0.0305678057008,-0.377623234944,0.573797535666,0.818972725831,0.00456172218206,0.0,0.818956189565,-0.573721081537,-0.0116459037862,0.0,-0.00692065462868,0.0104184420965,-0.999921777242,0.0,0.424799298727,-0.0501441197403,0.304866506335,1.0,-0.12998,-0.170830857143,3.424
0.00728421257077,-0.338337501051,-0.129541332354,-2.4892121103,-0.0396039901555,2.14509547647,-0.267262224711,-0.427272470744,-0.343788681708,-0.00907660499573,-0.31331132522,-0.0534347272344,-0.0356849123994,-0.387405014967,0.573939116961,0.818873026909,0.00464787313118,0.0,0.818857287705,-0.57386188763,-0.0116628984211,0.0,-0.00688332820952,0.0104999405632,-0.999921182414,0.0,0.422843772044,-0.0527623342538,0.304874340804,1.0,-0.12998,-0.170830857143,3.439
1.30821930816e-05,-0.344150485126,-0.129567122464,-2.4944756036,-0.0404771892337,2.14457023822,-0.273955975101,-0.426615341535,-0.337694745944,0.000593936532674,-0.303039356464,-0.0538758645872,-0.0332180906348,-0.399616966857,0.573848383946,0.818936272853,0.00470745680318,0.0,0.818921477607,-0.573771249081,-0.0116152547906,0.0,-0.00681128123473,0.0105206352265,-0.999921458257,0.0,0.42065590635,-0.0556171155934,0.304899162575,1.0,-0.12998,-0.170830857143,3.456
-0.00827845067756,-0.350533742341,-0.129618857039,-2.50019145219,-0.041513624975,2.14394927737,-0.281477070541,-0.433330088705,-0.343434803174,0.000320144112234,-0.295240478965,-0.0519634017084,-0.0309460796522,-0.3991048632,0.573842286807,0.818940407841,0.00473129775255,0.0,0.818926539322,-0.573766041848,-0.0115151776886,0.0,-0.00671571562674,0.010482683017,-0.999922503257,0.0,0.418225266933,-0.0588678347396,0.304938635743,1.0,-0.12998,-0.170830857143,3.475
-0.0153127130485,-0.355927062802,-0.12974481475,-2.50496676529,-0.042331346013,2.14341981685,-0.287926102286,-0.436176280785,-0.328060317987,-0.0145435909384,-0.308228694239,-0.0572368440043,-0.0369290051233,-0.402177920755,0.57387160154,0.818919235981,0.00483908948578,0.0,0.818907102624,-0.573795588094,-0.0114248526117,0.0,-0.00657951005062,0.0105193657462,-0.999923023533,0.0,0.416165385963,-0.061624299173,0.304984444443,1.0,-0.12998,-0.170830857143,3.491
-0.0228438376181,-0.361516340561,-0.129836740867,-2.51013666876,-0.0432074257764,2.14272031705,-0.294828565383,-0.435854307447,-0.329192977141,-0.000789853875922,-0.299533072049,-0.0532780114638,-0.0406369968453,-0.406543530415,0.573867271115,0.818922797433,0.00474909334732,0.0,0.818908276396,-0.573789594336,-0.0116397243765,0.0,-0.00680718636199,0.0105689321967,-0.999920976821,0.0,0.41389103643,-0.0645213166413,0.304909887373,1.0,-0.12998,-0.170830857143,3.508
-0.0303856452332,-0.36709197927,-0.129842175133,-2.51509532011,-0.0441011103793,2.14210888345,-0.301801955556,-0.449078613476,-0.326419633055,-0.00170894836993,-0.287287654762,-0.0470885056408,-0.0361221509094,-0.412287670837,0.573744110648,0.819009079914,0.00475072810866,0.0,0.818994999815,-0.573667102235,-0.0115755342312,0.0,-0.00675526127235,0.010532419941,-0.999921714223,0.0,0.411693442109,-0.0673786959426,0.304924560166,1.0,-0.12998,-0.170830857143,3.525
-0.0380817942668,-0.372516020961,-0.129886744888,-2.5199314846,-0.0449409902908,2.14144308885,-0.30880797768,-0.454806097378,-0.315416993664,-0.00396201439724,-0.287084959117,-0.0417451136132,-0.0395797896611,-0.404750951642,0.573776914058,0.818986110358,0.00474877195048,0.0,0.818971816049,-0.573699611992,-0.0116045947084,0.0,-0.00677976378857,0.0105477620061,-0.99992138667,0.0,0.409491709224,-0.0702843834689,0.304916960898,1.0,-0.12998,-0.170830857143,3.542
-0.0454060691507,-0.377589133283,-0.130043336777,-2.52438393779,-0.0456778573013,2.1407884279,-0.315473784757,-0.456693586531,-0.318524089535,-0.00810136781041,-0.270383390402,-0.0468487538205,-0.0395746275145,-0.42636290736,0.573927645224,0.818879978658,0.00483585590444,0.0,0.818866403278,-0.573849410142,-0.011636793547,0.0,-0.00675421423271,0.0106388022796,-0.999920595086,0.0,0.407416809483,-0.0730663639053,0.304928455479,1.0,-0.12998,-0.170830857143,3.558
-0.0531007497543,-0.382971763224,-0.130065171269,-2.52900392661,-0.0464986360264,2.14014768108,-0.322657381222,-0.454105073653,-0.307648714941,-0.00032910749646,-0.280233361683,-0.0449508677696,-0.0430368035955,-0.426731592889,0.57380814884,0.818963195069,0.0049234488631,0.0,0.81895156143,-0.573730960966,-0.0114835257039,0.0,-0.00657997653854,0.0106216112593,-0.999921939595,0.0,0.405258216656,-0.0759192213681,0.304986340407,1.0,-0.12998,-0.170830857143,3.575
-0.0609948400249,-0.388248886937,-0.130107930734,-2.53372020625,-0.0473848365926,2.13940373223,-0.329885155859,-0.459243679957,-0.306874828523,-0.00381409407337,-0.275426764615,-0.0510275031393,-0.0444047534349,-0.42411768819,0.573797179654,0.818971465237,0.00482520985498,0.0,0.818958161135,-0.573719643884,-0.0115778854931,0.0,-0.0067137694278,0.0105952070228,-0.99992133035,0.0,0.403005219779,-0.0788270633282,0.304939184764,1.0,-0.12998,-0.170830857143,3.592
