nelsonifechukwu/NELSON_IML_WORK/CNN-GradCAM/train2dof/data_sample_2022-02-21-17-40-14/robot_state.csv
position_joint1,position_joint2,position_joint3,position_joint4,position_joint5,position_joint6,position_joint7,velocity_joint1,velocity_joint2,velocity_joint3,velocity_joint4,velocity_joint5,velocity_joint6,velocity_joint7,ee_T_00,ee_T_10,ee_T_20,ee_T_30,ee_T_01,ee_T_11,ee_T_21,ee_T_31,ee_T_02,ee_T_12,ee_T_22,ee_T_32,ee_T_03,ee_T_13,ee_T_23,ee_T_33,v_x,v_y,time
0.465036090328,0.547878919108,-0.124021171722,-1.35589632735,0.0794825377334,1.89409233073,0.159165191548,-0.000949318290849,-0.000385858710923,0.0006775061531,-0.00119266235154,6.55171161858e-05,-0.000300618011597,0.00140541687211,0.573863195136,0.818937486037,0.00178160950083,0.0,0.818892393592,-0.57380556651,-0.0119652187977,0.0,-0.00877663773064,0.00832550545012,-0.999926825617,0.0,0.661676587835,0.260834473886,0.303115342986,1.0,0.0,0.0,0.0
0.465033587154,0.547878919108,-0.124024804544,-1.35589104068,0.0794777702651,1.89409044275,0.159160517047,-0.00068331971605,-0.000254815293035,-0.00102466975593,0.000564077198552,-0.000191079149549,-0.000347074495163,-0.000388384802835,0.573862390532,0.81893805127,0.00178095910545,0.0,0.81889301665,-0.5738048277,-0.0119580053251,0.0,-0.00877111151648,0.00832082469792,-0.999926913069,0.0,0.661679178925,0.260830442562,0.303117806554,1.0,-0.00016,-0.000210285714286,0.009
0.465037877192,0.547879342712,-0.124019322232,-1.35589736088,0.0794782660222,1.89409236693,0.15915899115,0.000275553471719,0.0021419205648,0.00134386779994,-0.00104123337612,4.9747162927e-05,0.00306027489739,-0.00158894681427,0.573854287196,0.818943734691,0.00177858898169,0.0,0.818898631263,-0.573796699593,-0.0119635343144,0.0,-0.00877708196991,0.0083219697627,-0.99992685115,0.0,0.661675695515,0.260835908033,0.303114485062,1.0,-0.0005,-0.000657142857143,0.026
0.465035406699,0.547853147952,-0.124019412281,-1.35591455351,0.0794788552267,1.89409109595,0.159167059292,-0.000882265434288,-0.0019919143753,0.00142106866714,-0.00263578312424,-0.00174733981726,-0.000251264891335,0.00149733847194,0.573864021466,0.818936895975,0.00178666702672,0.0,0.818891874225,-0.573806375491,-0.0119619678903,0.0,-0.00877106479321,0.00832779044408,-0.999926855489,0.0,0.661672827993,0.260832536267,0.30312475266,1.0,-0.00086,-0.00113028571429,0.044
0.465039671422,0.547777285285,-0.124024939731,-1.3559906044,0.0794782616231,1.89410601876,0.159162758658,0.000741941080621,-0.0080531649071,0.000430904574314,-0.00797234798192,-0.000130468340552,0.00199610865152,0.000739786019728,0.573864836205,0.818936293052,0.00180127477536,0.0,0.818891435702,-0.57380710267,-0.011957105029,0.0,-0.0087586916401,0.00833697111839,-0.999926887444,0.0,0.661660569284,0.26082505007,0.303143776398,1.0,-0.00116,-0.00152457142857,0.059
0.465037883858,0.547642018521,-0.124016907236,-1.35617321589,0.0794760290805,1.89414064359,0.159153275308,0.000484552250489,-0.010671023299,0.000372836982991,-0.0125301024865,-9.00467987873e-06,2.54606119018e-05,-0.00103072156303,0.573862298798,0.818938076319,0.00179890908485,0.0,0.81889301989,-0.573804415681,-0.0119775382434,0.0,-0.00877680913258,0.00834673242378,-0.999926647149,0.0,0.66162792746,0.260810604533,0.303155422993,1.0,-0.00152,-0.00199771428571,0.077
0.465019372237,0.547494123684,-0.124019641213,-1.35637922138,0.0794730968481,1.8942155239,0.159152609483,-0.00172340078708,-0.00952676247356,0.000259055475869,-0.0131885944311,0.000259342210002,0.0059536162027,0.0020471374141,0.573889552034,0.818918936375,0.00181785971419,0.0,0.818874052606,-0.573831513032,-0.0119761230017,0.0,-0.00876449746392,0.008361731005,-0.999926629828,0.0,0.661605154748,0.260778877813,0.303168727054,1.0,-0.00186,-0.00244457142857,0.094
0.465010792813,0.547328599131,-0.124014447743,-1.35657798459,0.0794713004997,1.89433625792,0.159134873207,0.000694495657911,-0.0113623754923,0.0014695866194,-0.0121634442584,9.59788433523e-05,0.00725652070514,-0.00190554918829,0.573889351977,0.818918894223,0.00189822891895,0.0,0.818875000769,-0.573830915702,-0.0119398577081,0.0,-0.00868867991676,0.0084067312659,-0.999926914185,0.0,0.661589184394,0.260762714055,0.3032016809,1.0,-0.00218,-0.00286514285714,0.11
0.464985352057,0.547097740076,-0.124016281765,-1.35685117589,0.0794646334996,1.89447402192,0.159122486008,0.000620454764643,-0.0147092460435,0.00136199249612,-0.0205350900809,-0.00485277901789,0.00257802955858,-0.00409394682702,0.573915014738,0.818900705799,0.0019841374519,0.0,0.818857903605,-0.573856190342,-0.0118976221089,0.0,-0.00860452724682,0.00845311335091,-0.999927250847,0.0,0.66156754077,0.260723718499,0.303247182735,1.0,-0.00254,-0.00333828571429,0.128
0.464953418128,0.546899357521,-0.124021543761,-1.35716731942,0.0794577082188,1.89459820503,0.159102796593,0.000343441377236,-0.0162923100387,-0.000479083144804,-0.02033569443,0.000303531496095,0.00375994043108,-7.34201577769e-06,0.573944640539,0.818879917743,0.00199419525264,0.0,0.818837171959,-0.57388569779,-0.0119012012248,0.0,-0.0086013801491,0.00846371481266,-0.999927188245,0.0,0.661534940735,0.260671935405,0.303248164518,1.0,-0.00286,-0.00375885714286,0.144
0.464919206395,0.546651577859,-0.124021780669,-1.35755183316,0.0794470433743,1.89473860841,0.159008939174,-0.00297713884994,-0.0159466476983,-0.000517220052359,-0.0291870962383,-0.000259815174667,0.00911163793013,-0.00372055170803,0.57390707174,0.818906196195,0.00201537614709,0.0,0.818863585448,-0.573847907713,-0.011906054844,0.0,-0.00859358815194,0.00848345054204,-0.999927087997,0.0,0.66148842765,0.260611669573,0.303261466899,1.0,-0.0032,-0.00420571428571,0.161
0.464871289508,0.546341038284,-0.124019862434,-1.35803513993,0.0794353082741,1.89490466936,0.158920698846,-0.00371106671096,-0.0199487413,0.000588205802909,-0.0274837883849,5.84115915591e-07,0.009702034166,-0.00359084769665,0.57390412036,0.818908278607,0.00200966785823,0.0,0.818865420011,-0.57384480913,-0.0119292014018,0.0,-0.0086158501984,0.00849202884977,-0.999926823608,0.0,0.661433904238,0.260540078194,0.303257024363,1.0,-0.00354,-0.00465257142857,0.178
0.464815088238,0.54603321967,-0.124020103539,-1.35856296776,0.0794050922309,1.89509781086,0.158898692415,-0.00588159678235,-0.0176886334028,-2.5869975162e-06,-0.0373118466844,-0.00838535347086,0.00610507790914,-0.000124114005737,0.573953823888,0.818873500915,0.00198606267004,0.0,0.818830316035,-0.573894586309,-0.0119442139857,0.0,-0.00864117607712,0.00848183891587,-0.999926691555,0.0,0.661375734847,0.260452366304,0.303240488662,1.0,-0.00388,-0.00509942857143,0.195
0.464760762948,0.545699547424,-0.124023554037,-1.35912426171,0.0793226797441,1.89528359448,0.158815854388,-0.00449783617602,-0.0260533119045,-0.00171048474209,-0.0356556318077,-0.00536010560769,0.0128330204933,-0.00741814687849,0.573942249982,0.818881763926,0.00192283549018,0.0,0.818838180137,-0.573883693231,-0.0119284657313,0.0,-0.00866468594845,0.00842090370262,-0.999927003135,0.0,0.66131220875,0.260351453036,0.303225677846,1.0,-0.0042,-0.00552,0.211
0.464686578229,0.545324487516,-0.124020813143,-1.35979786267,0.0792970779992,1.8954920381,0.158715428128,-0.00512903371279,-0.0195240294564,-0.000255146006393,-0.0383012534794,-0.000637182769903,0.00987198601649,-0.00518698239181,0.573949468915,0.818876860612,0.00185504382405,0.0,0.818832174628,-0.573890987907,-0.0119896077178,0.0,-0.00875358792881,0.00840056028743,-0.999926399934,0.0,0.661228978752,0.260238940741,0.303188561367,1.0,-0.00454,-0.00596685714286,0.228
0.464626556453,0.544868832064,-0.124023280601,-1.36054671149,0.0792755758136,1.89574459814,0.158658460735,-0.0044971436779,-0.0241763412409,0.000712395757436,-0.0407553790161,-0.0020688733971,0.0076765912099,-0.00474088032392,0.573989641401,0.818848753194,0.00183244579497,0.0,0.818803526201,-0.573931017587,-0.0120299390885,0.0,-0.0087991725552,0.00840563533652,-0.999925957187,0.0,0.661136578337,0.260128576824,0.30317665244,1.0,-0.0049,-0.00644,0.246
0.46455503697,0.544473375565,-0.124028639196,-1.3612002524,0.0792488763106,1.89598747274,0.158548204495,-0.00237936973533,-0.0265196453591,-0.00080701535869,-0.0448089029853,-0.000339666105964,0.0202261080987,-0.00184920110339,0.57399106962,0.818847769708,0.0018245387692,0.0,0.818802340498,-0.573932385709,-0.0120453614085,0.0,-0.00881632517761,0.00840802837396,-0.999925785981,0.0,0.661066438117,0.260017967219,0.303166702156,1.0,-0.0052,-0.00683428571429,0.261
0.464489947286,0.543976424538,-0.124031746099,-1.36201909801,0.0792080225551,1.89626390236,0.158454503745,-0.00100927556405,-0.028547653099,0.00017238842049,-0.0498447772506,-0.000790849795341,0.0127475895176,-0.00270083992316,0.574004435349,0.818838477561,0.00178962769646,0.0,0.818792481578,-0.573945798436,-0.0120764013638,0.0,-0.00886164342406,0.00839740332457,-0.99992547467,0.0,0.660966133947,0.259894611785,0.303152673246,1.0,-0.00554,-0.00728114285714,0.278
0.464406308467,0.543415482159,-0.124032934684,-1.36291596171,0.0791553493949,1.89658075987,0.158334554402,-0.00559437197939,-0.0310969990442,-0.000447735795553,-0.053439031426,-0.0111931581985,0.0158062146135,-0.00728170897394,0.574011359582,0.818833658001,0.0017738366457,0.0,0.818787416873,-0.573952755365,-0.0120891471931,0.0,-0.00888107317603,0.00839186451097,-0.999925348788,0.0,0.66086253848,0.25975252929,0.303150151562,1.0,-0.0059,-0.00775428571429,0.296
0.464335397758,0.542887864737,-0.124038577534,-1.36374597022,0.0791116730535,1.89688369895,0.158243382874,-0.000932858131141,-0.0317969890013,-0.00153917929993,-0.0512346457156,-0.000370676888925,0.0230282103953,-0.00451423109348,0.574033236071,0.818818317213,0.0017760019991,0.0,0.818772060688,-0.573974578177,-0.0120931032057,0.0,-0.00888284544077,0.0083961456357,-0.999925297107,0.0,0.660767773486,0.259624296442,0.303154759874,1.0,-0.00622,-0.00817485714286,0.312
0.464265683236,0.542287972795,-0.124038594901,-1.36466857883,0.0790567350834,1.89721469683,0.158110396756,-0.00077060815402,-0.0360192927031,0.000297936531233,-0.0591345242599,-1.51099194793e-05,0.0192666256845,-0.00619123889174,0.574017979667,0.818828995206,0.00178396509912,0.0,0.818782810669,-0.57395925778,-0.0120924051839,0.0,-0.00887785962845,0.00840209971741,-0.999925291374,0.0,0.660658065342,0.25949016239,0.303168573901,1.0,-0.00656,-0.00862171428571,0.329
0.46417767044,0.541669961514,-0.124041753291,-1.36562361526,0.0789921726018,1.89757437223,0.15798567947,-0.00221794973282,-0.0407490721556,0.00113299086573,-0.0541614477163,-0.00562493299621,0.0147733423941,-0.00287945230629,0.574025966181,0.818823365209,0.00179823225882,0.0,0.818777448312,-0.573967256817,-0.012075808015,0.0,-0.00885599782518,0.00840434119321,-0.999925466398,0.0,0.660552928615,0.259338904227,0.303182261204,1.0,-0.0069,-0.00906857142857,0.346
0.464102005511,0.541038207473,-0.124046495953,-1.36658676666,0.078945864736,1.89794030019,0.157861066026,-0.00511545622015,-0.038568105863,-0.00115363215526,-0.0619743388668,-0.00528895775916,0.022809733181,-0.00292494448093,0.574030322181,0.818820235109,0.00183267396476,0.0,0.818774687109,-0.573971382947,-0.0120669055125,0.0,-0.00882889398227,0.0084274789662,-0.99992551134,0.0,0.660443513307,0.259197485546,0.30320234197,1.0,-0.00722,-0.00948914285714,0.362
0.464012074149,0.540327131805,-0.124042470178,-1.36768905036,0.078875464916,1.89833174259,0.157728469334,-0.00772202350017,-0.0422046887176,0.000878637733849,-0.0706911995304,-0.000391654671822,0.0226357548279,-0.00746218323237,0.574034690522,0.818817174081,0.00183205056532,0.0,0.81877159887,-0.573975735293,-0.0120694274858,0.0,-0.0088312719657,0.00842846331619,-0.999925482044,0.0,0.660311983964,0.25903409899,0.303214062827,1.0,-0.00756,-0.009936,0.379
0.463904289885,0.539497715087,-0.124050436678,-1.36896150932,0.0787984109478,1.89882381119,0.157576643054,-0.00410152482219,-0.044961484442,-0.000946947053365,-0.0688433841259,-0.00724728888065,0.0233730409241,-0.00283668844462,0.574054145169,0.81880344774,0.00187063712886,0.0,0.818758439021,-0.573995078376,-0.0120422353805,0.0,-0.00878665651306,0.00844465765873,-0.999925738455,0.0,0.660171820423,0.258839084609,0.303237411043,1.0,-0.00794,-0.0104354285714,0.398
0.463807472754,0.53883159929,-0.124042885344,-1.3699930628,0.0787398981793,1.89922286658,0.157446724506,-0.00792480049761,-0.045178126237,0.00157922664126,-0.0669068685897,-0.0012590517672,0.0305604342422,-0.0121156375966,0.57406319993,0.818797026723,0.00190221359966,0.0,0.818752371374,-0.574003938225,-0.0120324632496,0.0,-0.00876043570094,0.00846499922917,-0.999925796524,0.0,0.660056862143,0.258683462128,0.303251356714,1.0,-0.00824,-0.0108297142857,0.413
0.46369910803,0.538060219431,-0.12405624134,-1.3712240459,0.0786802430911,1.8996916505,0.157280145962,-0.00498655221564,-0.0399963170919,-0.00060802653931,-0.0748618608827,-0.00447021988606,0.021826367427,-0.0104532618031,0.574077023379,0.818787308519,0.00191351470175,0.0,0.81874273596,-0.57401764847,-0.0120340541173,0.0,-0.00875510813478,0.00847531340507,-0.999925755816,0.0,0.659920024878,0.25849034797,0.303251378288,1.0,-0.00858,-0.0112765714286,0.43
0.463566336835,0.537092459593,-0.124065882799,-1.37274044591,0.0785823391867,1.90025805731,0.157112200144,-0.00256559197841,-0.0474778975279,-0.000492614707217,-0.0766724880012,-0.00473537203681,0.0365286006301,-0.00838882528755,0.574112357716,0.81876251432,0.00192165617389,0.0,0.818718147756,-0.57405303994,-0.0120186842911,0.0,-0.00873748382429,0.00847353310008,-0.999925925063,0.0,0.659748958827,0.258252445201,0.303262360178,1.0,-0.00898,-0.0118022857143,0.45
0.463476829146,0.536441976077,-0.12406191304,-1.3737381664,0.0785325490317,1.90063202835,0.156986534847,-0.00405175327112,-0.0486066498047,0.000398526560758,-0.0798098321566,-0.0036179713833,0.0244665544094,-0.0137937789103,0.574121542683,0.818756004542,0.00195093701464,0.0,0.818711900736,-0.574061982091,-0.0120171216206,0.0,-0.00871929958814,0.00849670734283,-0.999925887143,0.0,0.659634195649,0.258103127069,0.303278968578,1.0,-0.00924,-0.012144,0.463
0.463367793699,0.535562453549,-0.124070565421,-1.37513909591,0.0784491844778,1.90113691793,0.156820497268,-0.00557518882532,-0.0549970041319,-0.000324242633929,-0.0785357843894,-0.00651864609141,0.0226744056294,-0.0103879812829,0.574135510529,0.818746247902,0.00193494134872,0.0,0.818701929349,-0.574076011024,-0.012026277361,0.0,-0.00873583424637,0.00848901654766,-0.999925808147,0.0,0.659467524519,0.257892213971,0.303276948825,1.0,-0.00958,-0.0125908571429,0.48
0.46324725263,0.534679374826,-0.124071233584,-1.37656823087,0.0783732732446,1.90165967209,0.156642330276,-0.00767649091736,-0.0490644478731,0.000366051543997,-0.0877780331788,-0.00836045393636,0.0264584998316,-0.00488734612968,0.574146858436,0.818738326407,0.00191956306249,0.0,0.818693683452,-0.574087303976,-0.0120485264371,0.0,-0.00876276229775,0.00848932120263,-0.999925569941,0.0,0.659298338619,0.257677474455,0.303265153664,1.0,-0.00992,-0.0130377142857,0.497
0.463126204878,0.533834330445,-0.124071972078,-1.37796876701,0.0782890312599,1.90217008094,0.156461931204,-0.000391222493899,-0.0471504636789,0.00111552912508,-0.0870355242458,-0.0089893888964,0.0332125417459,-0.0137177216397,0.574152896486,0.818734184639,0.00187969717438,0.0,0.818688983755,-0.574093479235,-0.0120736026165,0.0,-0.00880611884819,0.00847114437852,-0.999925343205,0.0,0.659132588963,0.257463094163,0.303238898318,1.0,-0.01024,-0.0134582857143,0.513
0.462993287974,0.532892766717,-0.124076931268,-1.37948690421,0.0782059520998,1.90275025577,0.156270655861,-0.0120119451738,-0.055977897089,-0.000323196038872,-0.0884548645571,-0.0102515789452,0.0337151435006,-0.0134607319221,0.574169492084,0.818722535965,0.00188424101287,0.0,0.818677342156,-0.574110002496,-0.0120773083367,0.0,-0.00880637244645,0.00847717062965,-0.9999252899,0.0,0.658959523092,0.25723067821,0.303230756863,1.0,-0.01058,-0.0139051428571,0.53
0.462848653136,0.531855783881,-0.124071612501,-1.38114672857,0.0781131994741,1.90335633819,0.156066109159,-0.0114477813201,-0.0595848828651,0.00139904658671,-0.0904053578376,-0.0030337474527,0.0376344246309,-0.0102095895268,0.574182335556,0.818713551003,0.0018745241949,0.0,0.81866809509,-0.57412275722,-0.0120977942098,0.0,-0.00882859103529,0.00848111617406,-0.999925060516,0.0,0.658761878564,0.256981179704,0.303224137581,1.0,-0.01094,-0.0143782857143,0.548
0.462718854483,0.530902484405,-0.124074347419,-1.38269125359,0.0780093610972,1.90389345747,0.155870025188,-0.00918433456413,-0.0613833830257,0.00306974554964,-0.100151581674,-0.00833811648051,0.0300305872901,-0.0150099651066,0.574185955252,0.81871113079,0.0018220904774,0.0,0.818665021745,-0.574126640621,-0.0121214521211,0.0,-0.00887802801769,0.00845181202904,-0.999924870924,0.0,0.65857334066,0.256742943121,0.303207449201,1.0,-0.01126,-0.0147988571429,0.564
0.462586370926,0.529864728656,-0.124082606655,-1.38432348718,0.0779108237981,1.90449156342,0.15565512505,-0.0119626304705,-0.0638424144808,-0.000889439042841,-0.0978074105977,-0.00487063684522,0.0387621769932,-0.0139784616233,0.574186477579,0.818710762436,0.00182300225946,0.0,0.818664671244,-0.574127164449,-0.0121203135259,0.0,-0.00887656691117,0.00845191040148,-0.999924883064,0.0,0.658379949243,0.256495428661,0.303213771936,1.0,-0.0116,-0.0152457142857,0.581
0.462451444128,0.528799996419,-0.124080390745,-1.38600433091,0.0778045060214,1.90512811139,0.155426577068,-0.00895235483017,-0.0662466525114,0.000167319945442,-0.104164426875,-0.00428169592333,0.0351624441724,-0.013810679945,0.574170912664,0.818721646662,0.00183718211065,0.0,0.818675765751,-0.574111561908,-0.012109994068,0.0,-0.00886013737848,0.0084574256493,-0.999924982145,0.0,0.658181769899,0.256248351587,0.303218700467,1.0,-0.01194,-0.0156925714286,0.598
0.462321657621,0.527746069631,-0.124091382435,-1.38761940287,0.0777020994359,1.9057590073,0.155190698041,-0.00879614754166,-0.0710301134858,-0.00240205128503,-0.104885647327,-0.00761661982997,0.0356266651991,-0.0170001172388,0.574151841251,0.818734899947,0.00189042252443,0.0,0.818689838639,-0.57409237662,-0.0120680618723,0.0,-0.00879543560908,0.00847673285917,-0.999925389873,0.0,0.657998595299,0.256004907801,0.303246990065,1.0,-0.01226,-0.0161131428571,0.614
0.462172002239,0.526585340545,-0.12408879279,-1.3894004265,0.0775982560347,1.90643060548,0.15495045078,-0.0108085244345,-0.0654651370503,-0.000579301732969,-0.102270474771,-0.000769076591692,0.0348109052872,-0.0112950321249,0.574144128714,0.818740200346,0.00193667290781,0.0,0.818695686977,-0.574084409412,-0.0120503068843,0.0,-0.00875442550003,0.0085043224381,-0.999925515493,0.0,0.657789034017,0.255740557048,0.303274293473,1.0,-0.0126,-0.01656,0.631
0.462014962068,0.525336343767,-0.124081928313,-1.39134276991,0.0774660735801,1.90712622938,0.154691874284,-0.0104743125074,-0.0670922345328,0.00292149328461,-0.107131614988,-0.00675317609036,0.0402081279473,-0.0108075002657,0.574124914818,0.81875368236,0.00193305683007,0.0,0.818709156066,-0.574065246886,-0.0120481115651,0.0,-0.008754903522,0.00849989600132,-0.999925548945,0.0,0.657550596648,0.255452977825,0.303288512433,1.0,-0.01296,-0.0170331428571,0.649
0.461881293298,0.524288357745,-0.124098496441,-1.39299917249,0.0773575115271,1.90772132019,0.154451833338,-0.0106377470676,-0.0707581232497,0.000332969389546,-0.112717950288,-0.00842093242868,0.0432200637371,-0.00958862809001,0.574115486121,0.818760338096,0.00191422515978,0.0,0.818715665994,-0.574055998003,-0.0120464232848,0.0,-0.00876442990944,0.00848340761861,-0.999925605514,0.0,0.657337517637,0.255178296585,0.303291716589,1.0,-0.01328,-0.0174537142857,0.665
0.461714443026,0.523017431681,-0.12410236369,-1.39503620643,0.0772469999671,1.90849521485,0.154190409954,-0.0104967693169,-0.0716914540663,0.000850808655496,-0.114047856828,-0.00162762301613,0.0380672865827,-0.0165819448012,0.574114193635,0.818761220799,0.0019242878367,0.0,0.818716571028,-0.574054556365,-0.0120536111565,0.0,-0.00876455192992,0.00849575915854,-0.999925499578,0.0,0.657109487944,0.254893041013,0.303280359985,1.0,-0.01362,-0.0179005714286,0.682
0.461554036489,0.521771532896,-0.12410319263,-1.39698974988,0.0771132015912,1.90926196619,0.153931264482,-0.0128227581033,-0.063028327651,0.00124484628441,-0.112699471232,-0.00868755863118,0.0394603334051,-0.0147359548493,0.574102548928,0.818769292646,0.00196357703562,0.0,0.818725330848,-0.574042914271,-0.0120129973211,0.0,-0.00870886350781,0.00850448637815,-0.999925911959,0.0,0.656883344015,0.254602035409,0.303292500947,1.0,-0.01396,-0.0183474285714,0.699
0.461402187567,0.52064555928,-0.124110355904,-1.39878797551,0.0770190021384,1.90991551866,0.153684317461,-0.013511243217,-0.0767599528714,-0.000654786575197,-0.119897994314,-0.00342355517576,0.0384432678447,-0.0192042156248,0.574092049839,0.818776710382,0.00194003850831,0.0,0.818732274715,-0.574032355297,-0.0120442647256,0.0,-0.00874808700446,0.00850305247616,-0.999925581767,0.0,0.656645962381,0.254312601603,0.303276860107,1.0,-0.01428,-0.018768,0.715
0.461225696561,0.519236371621,-0.124114331172,-1.40096372239,0.0768694618203,1.91069717377,0.153383523022,-0.00556890369437,-0.0759886857463,-0.000999864556103,-0.11867792441,-0.00674076336313,0.0393210188218,-0.0103729784859,0.574076511622,0.818787563456,0.00195745652107,0.0,0.818743474472,-0.574016860227,-0.012021401191,0.0,-0.00871952862221,0.00850402254252,-0.999925822959,0.0,0.656397502262,0.253999572665,0.303306155036,1.0,-0.01462,-0.0192148571429,0.732
0.461030952977,0.517795694268,-0.124120002352,-1.40321206088,0.0767193420034,1.91150663533,0.153084544371,-0.0128280555055,-0.0855871419716,-0.00252814811492,-0.120943407721,-0.00651273502512,0.0407827174668,-0.00912690029273,0.574073689706,0.818789557614,0.00195090519646,0.0,0.818745461327,-0.574014142951,-0.0120158291372,0.0,-0.00871875611236,0.0084954297061,-0.999925902738,0.0,0.656123877193,0.253651239983,0.303317436004,1.0,-0.01498,-0.019688,0.75
0.460875306794,0.516615163658,-0.124121570276,-1.40509396488,0.0765982598735,1.91219371907,0.152824636138,-0.0108689760725,-0.0736782916946,0.000765422629873,-0.118239385759,-0.012251934564,0.0400820457933,-0.0182421634426,0.574056230517,0.818801837785,0.00193430786852,0.0,0.818757540189,-0.573996772018,-0.0120226036053,0.0,-0.00873401161118,0.00848554303208,-0.999925853551,0.0,0.655892570914,0.253367446982,0.303309507664,1.0,-0.01528,-0.0200822857143,0.765
0.460672306934,0.515154023119,-0.124125815319,-1.40741474798,0.0764609729777,1.91306906786,0.152506010425,-0.0146584795714,-0.07851951367,-7.57375633294e-05,-0.129082974123,-0.0122595864845,0.0378314273603,-0.0188749198627,0.57405014087,0.818806076496,0.00194724439468,0.0,0.81876190969,-0.573990590584,-0.012020152404,0.0,-0.00872464184505,0.00849466326858,-0.999925857912,0.0,0.65561489601,0.253012799173,0.303305536251,1.0,-0.01564,-0.0205554285714,0.783
0.460482286379,0.513741000291,-0.12413897632,-1.40968524107,0.0763300898671,1.91385894924,0.152192898291,-0.0136740371854,-0.0887048160474,0.00467138953845,-0.131403055683,-0.00611726867173,0.0449786863966,-0.0142200621736,0.574042589727,0.818811500611,0.00189170485211,0.0,0.818766479412,-0.573983155656,-0.012063835065,0.0,-0.00879236945246,0.00847418279887,-0.999925438453,0.0,0.65532827635,0.252662164581,0.303284197016,1.0,-0.01598,-0.0210022857143,0.8
0.460300156513,0.512430624927,-0.124138945092,-1.41181469547,0.076197067168,1.91461414429,0.151893354718,-0.0110809419429,-0.0839108841816,-0.00171933455471,-0.135582528034,-0.012671844266,0.0550510313357,-0.0200106343993,0.574021990379,0.818826069627,0.00183552785368,0.0,0.818780242631,-0.573962737709,-0.0121011115471,0.0,-0.00885535150718,0.00844936075385,-0.999925092721,0.0,0.655059867431,0.252337157949,0.303254215891,1.0,-0.0163,-0.0214228571429,0.816
0.460099502199,0.510974856262,-0.124137659558,-1.41411801344,0.0760565208003,1.91549202685,0.151563304797,-0.0118750340981,-0.0836784604902,8.27719746793e-06,-0.13928447598,-0.0100873363773,0.0458733774465,-0.0200044719681,0.573997787949,0.818842980636,0.00185994446981,0.0,0.818797455392,-0.573938413466,-0.0120901403002,0.0,-0.00883260299657,0.00846279452238,-0.999925180318,0.0,0.654782351408,0.251989130671,0.303253448526,1.0,-0.01664,-0.0218697142857,0.833
0.459897095059,0.509489057525,-0.124142950808,-1.41647174412,0.075909011694,1.91637683879,0.151247582283,-0.0130374679333,-0.0877023052589,-0.00112119909193,-0.137950243717,-0.00946370191275,0.052416117925,-0.0203210371207,0.573991676863,0.818847242649,0.0018694915306,0.0,0.818801874163,-0.57393229171,-0.0120814858397,0.0,-0.00882009962272,0.00846557847374,-0.999925267119,0.0,0.654496342544,0.251629969172,0.303250026601,1.0,-0.01698,-0.0223165714286,0.85
0.459700363601,0.508064654587,-0.124144044744,-1.41871972647,0.0757574139373,1.91717929762,0.150916979008,-0.0165623087468,-0.090160976048,0.000511001511648,-0.138923041928,-0.0149512498114,0.0446770263666,-0.0186075547872,0.573958289044,0.818870702543,0.00184441203906,0.0,0.818825048154,-0.573899058864,-0.0120895678786,0.0,-0.00884145683429,0.00844932114722,-0.99992521601,0.0,0.654214441851,0.251282627911,0.303246188192,1.0,-0.0173,-0.0227371428571,0.866
0.459482332811,0.506523931634,-0.124152531094,-1.42114607165,0.0756103630267,1.91807255754,0.150587636068,-0.0164936085825,-0.0926028676494,-0.001078796684,-0.145413607416,-0.00570171976905,0.0594717794281,-0.0246710438443,0.573959105666,0.818870119122,0.00184930617213,0.0,0.818824499609,-0.573899825914,-0.012090308442,0.0,-0.00883924600678,0.00845376258274,-0.999925198016,0.0,0.653916895486,0.250904307595,0.30324644857,1.0,-0.01764,-0.023184,0.883
0.459248723024,0.504810303983,-0.124156376059,-1.42375217966,0.0754466488373,1.91908174042,0.150237007653,-0.0159845727868,-0.100873648206,-0.000898365742634,-0.147361476457,-0.0102707401107,0.05847514208,-0.0156586096549,0.57395643423,0.81887177167,0.00194423999134,0.0,0.818827473493,-0.573896818871,-0.0120314938161,0.0,-0.008736625718,0.00849771401645,-0.999925727356,0.0,0.653606660628,0.250504671416,0.303291216538,1.0,-0.018,-0.0236571428571,0.901
0.459034373116,0.503241863468,-0.124162357314,-1.42608424687,0.0752947206714,1.91995858499,0.149906488162,-0.0119928816853,-0.0961469237118,0.00336268179467,-0.148666455786,-0.015566971725,0.0519560649764,-0.017995725041,0.573944261835,0.81888008165,0.00203545712719,0.0,0.818837071715,-0.573884356975,-0.0119725396503,0.0,-0.00863612351392,0.00853844257696,-0.999926253465,0.0,0.653325916281,0.250140050467,0.303352881641,1.0,-0.01832,-0.0240777142857,0.917
0.458797452239,0.501543019558,-0.124168477417,-1.42862363571,0.0751364226692,1.92086768893,0.149556377589,-0.0138120634757,-0.101813841406,0.000744086778871,-0.151492276787,-0.00741998581129,0.0491408931221,-0.0251322162483,0.573942895182,0.818880891711,0.00209407750787,0.0,0.81883861557,-0.573882716732,-0.0119455426486,0.0,-0.00858038692588,0.00857093587681,-0.999926455305,0.0,0.653010148235,0.249739037537,0.303409125973,1.0,-0.01866,-0.0245245714286,0.934
0.458561022698,0.499809857908,-0.124165385558,-1.43121998785,0.0749700671069,1.92178872642,0.14918904377,-0.015670503799,-0.105941596761,-0.000370779965805,-0.157506596392,-0.0041583674107,0.0592044836842,-0.0211005877746,0.573920527552,0.818896439956,0.00214373118821,0.0,0.818854760253,-0.573860097639,-0.0119254706717,0.0,-0.00853568802732,0.00859984248099,-0.999926589675,0.0,0.652681018142,0.249337083647,0.303462266833,1.0,-0.019,-0.0249714285714,0.951
0.458329041928,0.498239436704,-0.124164151409,-1.43369288252,0.0748146957524,1.92272037394,0.148831505187,-0.0169185454726,-0.0962060132862,0.00111368347853,-0.153241900786,-0.012234270218,0.0591135151628,-0.0178174965452,0.573900670544,0.818910298263,0.00216579065018,0.0,0.818868901706,-0.573840149253,-0.0119143537564,0.0,-0.00851413328177,0.00861132001552,-0.999926674663,0.0,0.652377126925,0.248951950634,0.303461175371,1.0,-0.01932,-0.025392,0.967
0.458068177612,0.49655362565,-0.124166412509,-1.4363626142,0.0746520536577,1.92366343547,0.148434852399,-0.0173268868902,-0.0979702829886,-0.000191462950323,-0.156964558416,-0.0120217165731,0.0595374565809,-0.0234689131921,0.573882169545,0.818923349857,0.00213294138293,0.0,0.818881392295,-0.573821650459,-0.0119467869956,0.0,-0.00855973968332,0.0086028396808,-0.999926358291,0.0,0.652038155068,0.248523928252,0.303447358851,1.0,-0.01966,-0.0258388571429,0.984
0.457765670012,0.494686299468,-0.12416926149,-1.43942470555,0.074455524168,1.9247246078,0.148003925831,-0.0139283725706,-0.0943190410939,-0.00458400842003,-0.160031956975,-0.0213560204487,0.0617118099136,-0.0225321677046,0.5738799688,0.818925190807,0.00201498706663,0.0,0.81888158377,-0.573819832865,-0.012020735202,0.0,-0.00868801059823,0.00854865953122,-0.999925716687,0.0,0.651643363628,0.248027075787,0.303382942734,1.0,-0.0208131428571,-0.0273544163265,1.003
0.457539270351,0.493065085023,-0.124212877345,-1.44192286615,0.0743098043919,1.92564916829,0.147643176683,-0.0146803088002,-0.130425201359,-0.00369272386005,-0.192723680097,-0.013018599615,0.0727218608864,-0.0235387893602,0.573887657932,0.818919713869,0.00205066115616,0.0,0.818876651813,-0.573827448563,-0.011993135233,0.0,-0.00864485565458,0.00856211567897,-0.999925975583,0.0,0.651337874569,0.247618408119,0.3034040633,1.0,-0.0266451428571,-0.0350193306122,1.017
0.457206923013,0.490599560272,-0.124247180612,-1.44581162202,0.0740953310991,1.92710858939,0.147066735391,-0.0238820417298,-0.15086026082,-0.000735756898899,-0.246342064537,-0.0102056645074,0.0847936300487,-0.0385128777031,0.573849802232,0.818946151163,0.0020863546062,0.0,0.818903421266,-0.573789315345,-0.011989793023,0.0,-0.00862203286924,0.00858902864547,-0.999925941826,0.0,0.650849530291,0.247017734806,0.303396170483,1.0,-0.0337268571429,-0.0443267265306,1.034
0.456671306768,0.487133047102,-0.124267969047,-1.4513369425,0.0737762030054,1.92913206433,0.14626599714,-0.0316813153689,-0.203832123637,0.000726293609295,-0.309376102259,-0.0209788377842,0.11110553874,-0.0416389775245,0.573836515447,0.818955519771,0.00206326839579,0.0,0.818912207197,-0.573775847977,-0.0120341216442,0.0,-0.00867172373026,0.00859541959526,-0.999925457206,0.0,0.650150286479,0.246133808118,0.30335196853,1.0,-0.0416417142857,-0.0547291102041,1.053
0.456178282745,0.483822887244,-0.124359693076,-1.45645841593,0.07346094961,1.93102576791,0.145486245548,-0.0348987042032,-0.232274508414,-0.00554073239232,-0.358488178543,-0.0244504270729,0.12398856868,-0.0502880719576,0.573835471898,0.818956118455,0.00211521588157,0.0,0.818913769472,-0.573774871029,-0.0119742409426,0.0,-0.00859288560384,0.00860358925851,-0.999926067551,0.0,0.649519942653,0.245274095026,0.303379354542,1.0,-0.0478902857143,-0.0629415183673,1.068
0.455492266419,0.479524516725,-0.124462027846,-1.46325773417,0.0730651736636,1.93337791337,0.144454238325,-0.0422181289287,-0.269499669647,-0.0115565604239,-0.426583107264,-0.0201763980597,0.150346017919,-0.0626044030674,0.573851510529,0.818945199187,0.00198783616234,0.0,0.818900974341,-0.57379123636,-0.0120647503436,0.0,-0.00873993467485,0.00855138081959,-0.99992524092,0.0,0.648643064961,0.244116250487,0.303330745536,1.0,-0.054972,-0.0722489142857,1.085
0.454699707416,0.474582431723,-0.124549707343,-1.47084750242,0.0725985146108,1.93613521598,0.143377921546,-0.0504753837583,-0.305521983497,-0.00182925260515,-0.461443683076,-0.0362570945477,0.171913621116,-0.0661731450833,0.573923711543,0.818894399047,0.00206964709035,0.0,0.818851339225,-0.573863174215,-0.0120120118996,0.0,-0.00864904153792,0.00858887710665,-0.999925709876,0.0,0.647686704066,0.242829786529,0.303381163551,1.0,-0.0620537142857,-0.0815563102041,1.102
0.45384238411,0.469438982721,-0.124598754763,-1.47872295894,0.0721385288239,1.9389968174,0.142173135034,-0.0551450546281,-0.336609072752,-0.00251031132332,-0.506116782854,-0.0370061424169,0.190067474739,-0.0814555473635,0.573927675891,0.818891299169,0.0021931466107,0.0,0.818849526338,-0.573866297237,-0.0119863677529,0.0,-0.00855712408786,0.00867533227718,-0.999925754362,0.0,0.646681952162,0.241502425806,0.303436772341,1.0,-0.0687188571429,-0.0903162122449,1.118
0.452759342616,0.463034530841,-0.12464116215,-1.48848682854,0.0715079675237,1.94254031982,0.140605909616,-0.0644503231279,-0.369484261618,-0.000943974236599,-0.562052381204,-0.036160057268,0.191948959762,-0.0900325405317,0.57385110631,0.818944552628,0.00233974571868,0.0,0.818904712952,-0.57378916729,-0.011908379703,0.0,-0.00840994385826,0.00874983412447,-0.999926353912,0.0,0.645424711519,0.239847498207,0.303515009894,1.0,-0.0762171428571,-0.100171102041,1.136
0.451688994797,0.456860092818,-0.12470866869,-1.49811903891,0.0708734462837,1.94579776146,0.139175249152,-0.062685901384,-0.399573166631,-0.00456479562961,-0.617289124405,-0.0369622625365,0.219682547358,-0.0922920298093,0.573878512426,0.818925851977,0.00215611701042,0.0,0.818883391153,-0.573817087367,-0.0120286674359,0.0,-0.00861353578242,0.00866876908448,-0.999925326934,0.0,0.64412285939,0.23818204937,0.30346453416,1.0,-0.0828822857143,-0.108931004082,1.152
0.450517254767,0.450086399815,-0.124808918333,-1.50824032192,0.0701693318987,1.94951534618,0.137540114194,-0.0758940628234,-0.446761249126,-0.0087286783377,-0.641663480817,-0.0468859051762,0.260286697794,-0.10194652398,0.573842084356,0.818950628148,0.00242441310178,0.0,0.81891240818,-0.573780361983,-0.0118030009882,0.0,-0.00827515376855,0.00875860929071,-0.999927401661,0.0,0.642823310291,0.236404194558,0.30362298554,1.0,-0.0895474285714,-0.117690906122,1.168
0.449073373122,0.44203796527,-0.124845449074,-1.52047872627,0.0693852804264,1.95386989771,0.13567038325,-0.0792701554595,-0.460244512588,0.000362493530232,-0.712916689376,-0.0493465774306,0.245736587265,-0.117868971776,0.57385563319,0.818940694419,0.00256869278329,0.0,0.818904010216,-0.573793006819,-0.0117709081643,0.0,-0.00816593496984,0.00885848533238,-0.999927419738,0.0,0.641179930918,0.234291046644,0.303688717856,1.0,-0.0970457142857,-0.127545795918,1.186
0.447574698082,0.433879590221,-0.1248981533,-1.53288550664,0.0685372517705,1.95814842011,0.133651969856,-0.0937943327399,-0.505481357299,-0.00524714426361,-0.721728285071,-0.0528013524019,0.264980828125,-0.124106196428,0.573779954853,0.818993692876,0.00257707977247,0.0,0.818957000011,-0.573717179572,-0.0117803606823,0.0,-0.00816968345172,0.00887002311511,-0.999927286838,0.0,0.639473496069,0.232105599179,0.303727518039,1.0,-0.104127428571,-0.136853191837,1.203
0.446034304003,0.425797122029,-0.12492914835,-1.54520278744,0.0676729543384,1.96248852684,0.131632317452,-0.0943415521508,-0.517166501564,-0.00176447304558,-0.77341890158,-0.0576386179747,0.270966937712,-0.130221171212,0.57370093308,0.819048853096,0.00263866003107,0.0,0.819013043175,-0.57363803374,-0.0117383243,0.0,-0.00810078126836,0.00889555585266,-0.999927620595,0.0,0.637778926532,0.229922763182,0.30374608135,1.0,-0.110792571429,-0.145613093878,1.219
0.444236267289,0.416723158461,-0.125043699274,-1.55896251302,0.066685590274,1.96718256622,0.129375184761,-0.111408346495,-0.540215091066,-0.0100768861688,-0.816366753691,-0.0664983929427,0.293739352917,-0.135809915719,0.573712842145,0.819040638163,0.00259897994432,0.0,0.819004586685,-0.573650384079,-0.0117247915352,0.0,-0.00811233108554,0.00885541046439,-0.999927883295,0.0,0.635859581323,0.227382502892,0.303767137094,1.0,-0.117874285714,-0.154920489796,1.236
0.442312108755,0.407189191303,-0.12510773148,-1.57341653907,0.0657127696481,1.97219379228,0.126956991545,-0.121150581647,-0.566505493516,0.00019591800924,-0.868755356802,-0.0568721995302,0.287009696386,-0.144058379777,0.573679194689,0.819063963265,0.00267442746386,0.0,0.819028499274,-0.573616038839,-0.0117347460177,0.0,-0.00807756861142,0.00892258374485,-0.999927567569,0.0,0.63381567001,0.224748472703,0.303774627095,1.0,-0.124956,-0.164227885714,1.253
0.440269611169,0.397714967125,-0.125206776608,-1.58761087083,0.0647424132834,1.97699987153,0.124572775457,-0.128048681228,-0.604198863541,-0.00761254656569,-0.889044959745,-0.0677462063222,0.307924142698,-0.152060981589,0.573761895103,0.819005752522,0.00275897911354,0.0,0.818971077379,-0.573698082872,-0.0117316250629,0.0,-0.00802560190252,0.00899085662765,-0.999927374468,0.0,0.631668411419,0.221871259845,0.303834464976,1.0,-0.132037714286,-0.173535281633,1.27
0.437852034339,0.38671706318,-0.125340434844,-1.60430831311,0.0634473290457,1.98261190226,0.121698501801,-0.132302697662,-0.62132519506,-0.00431047241316,-0.951918026861,-0.0735552477402,0.304835473812,-0.170866606748,0.573773476206,0.818998222133,0.00258012538598,0.0,0.818961847678,-0.573710993599,-0.0117445635322,0.0,-0.0081386870487,0.00885191372448,-0.999927700085,0.0,0.629369882754,0.218830266945,0.303756174926,1.0,-0.139119428571,-0.182842677551,1.287
0.435389419778,0.375745942089,-0.125454550483,-1.62053354399,0.0622679967031,1.98802684819,0.118765137054,-0.148156860261,-0.655117780388,-0.00541824662699,-0.961527366574,-0.0616847044963,0.321057483181,-0.174155693502,0.573747521171,0.819016042778,0.00269267982527,0.0,0.818981024515,-0.573684522671,-0.0117002920435,0.0,-0.00803813290752,0.00891843894651,-0.999927922335,0.0,0.62698282663,0.215672097794,0.303843896472,1.0,-0.146201142857,-0.192150073469,1.304
0.432851311529,0.365147596031,-0.125577473305,-1.63629709281,0.0610740459757,1.99324990181,0.115998158899,-0.162785412804,-0.681237482058,-0.0120008661716,-0.985217904715,-0.0703846543715,0.335136450419,-0.170071136703,0.573882409942,0.818921524571,0.00269500559231,0.0,0.818886682961,-0.573819548622,-0.0116821654103,0.0,-0.00802048423476,0.00891126499852,-0.999928128012,0.0,0.624643564655,0.212509859163,0.303857265667,1.0,-0.152866285714,-0.20090997551,1.32
0.430002876368,0.353469254627,-0.125710665176,-1.65363705883,0.0597490769978,1.99893233851,0.112763603041,-0.173139318762,-0.693670664061,-0.0133519559265,-1.04590637885,-0.0663267484395,0.332751050091,-0.19020019635,0.573891875362,0.818914979338,0.00266812867664,0.0,0.818879801903,-0.573829121764,-0.0116942700472,0.0,-0.00804571788379,0.00889629453178,-0.999928058596,0.0,0.622016483513,0.209010095885,0.303846783404,1.0,-0.159948,-0.210217371429,1.337
0.426951255586,0.341265207643,-0.125848447391,-1.67139400907,0.0584265441177,2.00472224689,0.109418638414,-0.180523232773,-0.731373553203,-0.0109400326537,-1.04356757138,-0.0746426596047,0.349548920085,-0.191083351248,0.573972367457,0.81885793305,0.00285548234065,0.0,0.818824898639,-0.573908633265,-0.0116367063569,0.0,-0.00789017525778,0.00901746154928,-0.999928212684,0.0,0.619295162807,0.20536873283,0.303956527867,1.0,-0.167029714286,-0.219524767347,1.354
0.423743868086,0.328827846287,-0.125919112598,-1.68970949456,0.0569490959937,2.01054427963,0.105853319536,-0.184135713359,-0.754744088412,-0.00463401113446,-1.07895177384,-0.0855329388642,0.349827216971,-0.213689171811,0.573887862221,0.818917490319,0.00275908425005,0.0,0.818883083458,-0.573824332579,-0.0116994815201,0.0,-0.00799783434927,0.00897373062899,-0.999927750792,0.0,0.616394790381,0.201614421603,0.303917543592,1.0,-0.174111428571,-0.228832163265,1.371
0.420554531513,0.316704969994,-0.125930789943,-1.70738107342,0.055464145029,2.01613566205,0.102421863735,-0.205324961888,-0.773132322061,-0.000727069553701,-1.1242759196,-0.08949291894,0.336215459688,-0.215848537471,0.573798441856,0.818980231915,0.00273400020019,0.0,0.818945600002,-0.573735124288,-0.011698645071,0.0,-0.00801252137458,0.00895183409848,-0.999927829479,0.0,0.613545446325,0.197982428839,0.303917290684,1.0,-0.180776571429,-0.237592065306,1.387
0.41674620451,0.302621648321,-0.126045921358,-1.72763281634,0.0537710520111,2.02252263889,0.0982124469323,-0.219964487561,-0.803101636652,-0.00340186475446,-1.14012857478,-0.101782802499,0.354938123299,-0.230050471621,0.573643361716,0.819088458932,0.00285252618795,0.0,0.819055628394,-0.573579956661,-0.0116042153918,0.0,-0.0078688785554,0.00899323190438,-0.999928598716,0.0,0.610258085738,0.193699123679,0.303991622863,1.0,-0.188274857143,-0.247446955102,1.405
0.413312861436,0.290557257487,-0.12617981969,-1.74489402415,0.05238430337,2.02774739858,0.094699061865,-0.231617615582,-0.807996361906,-0.00554866299937,-1.13499115813,-0.0826898347699,0.370463189082,-0.234783769234,0.573745218276,0.819017055626,0.00286949486517,0.0,0.818983839686,-0.573681050647,-0.0116734469499,0.0,-0.00791472970391,0.00904782848967,-0.999927744316,0.0,0.607392173023,0.18993744137,0.304033897362,1.0,-0.194523428571,-0.255659363265,1.42
0.408972314183,0.275859734771,-0.126323955062,-1.7660447975,0.0505765694353,2.0340359355,0.0901664693498,-0.251939973812,-0.807247778452,-0.00902573942301,-1.16423097086,-0.105478543316,0.344066461856,-0.247987337809,0.573702868057,0.819047346633,0.00268515510489,0.0,0.819011285962,-0.573638857493,-0.0118203866933,0.0,-0.00814130379607,0.00898073498992,-0.999926530087,0.0,0.603802671782,0.185273634243,0.303968864887,1.0,-0.202021714286,-0.265514253061,1.438
0.404276356389,0.260666838375,-0.126532552628,-1.78753027418,0.0486816690808,2.04051457403,0.0854672682737,-0.268576636427,-0.843514976125,-0.0121124436881,-1.20698155902,-0.112616294844,0.349312840638,-0.251735926389,0.57380467867,0.818975764937,0.00276298440716,0.0,0.818941079141,-0.573740776431,-0.0117378557426,0.0,-0.00802793712915,0.00899813121661,-0.999927290287,0.0,0.600159008395,0.180371505019,0.304016357549,1.0,-0.20952,-0.275369142857,1.456
0.399837036512,0.24682710019,-0.126687100631,-1.80687944881,0.0469426669656,2.04619863344,0.081111216243,-0.28402597423,-0.880272388914,-0.00754473321359,-1.22199962601,-0.120430994653,0.359934394312,-0.280053932861,0.573892636196,0.818913834201,0.00284976768976,0.0,0.81888042005,-0.573828583013,-0.0116774088664,0.0,-0.0079276661451,0.00903537188,-0.999927754473,0.0,0.596806066324,0.175881603928,0.304089259172,1.0,-0.216185142857,-0.284129044898,1.472
0.394968446494,0.231818458295,-0.126808578831,-1.82774863977,0.0450939629563,2.0522595592,0.0762317589609,-0.2883658933,-0.887303011571,-0.000351660132831,-1.23529765529,-0.100531867318,0.359202695685,-0.289121032548,0.573841771393,0.818948964322,0.00299368351913,0.0,0.81891702514,-0.573776783838,-0.0116556924068,0.0,-0.00782786183415,0.00914027755789,-0.999927587331,0.0,0.593099859859,0.171065970284,0.304152509049,1.0,-0.223266857143,-0.293436440816,1.489
0.389822352909,0.216542269216,-0.126920586077,-1.84897221132,0.0430477825725,2.05826802472,0.0711100815504,-0.312014897317,-0.930111450892,-0.00974392806929,-1.24980293501,-0.127836632328,0.369580815672,-0.306306116735,0.573704994255,0.819044936094,0.00295281692085,0.0,0.819012788286,-0.573640535521,-0.0116333801366,0.0,-0.00783455645026,0.00909269816669,-0.999927968688,0.0,0.589248286527,0.166081669248,0.304146998939,1.0,-0.230348571429,-0.302743836735,1.506
0.384961766127,0.202862135545,-0.127052926114,-1.8679593657,0.0412825370228,2.06343009063,0.0664487660113,-0.33164920718,-0.902506870398,-0.0126889359605,-1.27712518614,-0.121320304331,0.334011663638,-0.309114937758,0.573742956042,0.819018838167,0.00281247583101,0.0,0.81898411044,-0.573678114266,-0.0117980913653,0.0,-0.0080495582304,0.00907261950823,-0.999926443388,0.0,0.585728425044,0.161499843991,0.30407760164,1.0,-0.236597142857,-0.310956244898,1.521
0.378402848181,0.185029354298,-0.127316750221,-1.89219944781,0.0389315075235,2.07001287962,0.0602051220403,-0.356894071247,-0.932320590884,-0.0149253553893,-1.28546499733,-0.125765713264,0.340818933595,-0.335805520257,0.573830702629,0.818957092154,0.00289012649295,0.0,0.81892344213,-0.57376564945,-0.0117525461698,0.0,-0.00796672911661,0.0091109395759,-0.999926758321,0.0,0.58121109218,0.155450589699,0.304133486206,1.0,-0.244512,-0.321358628571,1.54
0.372149396935,0.168790661594,-0.127531719518,-1.91407406745,0.0367839013036,2.07579113921,0.0543810101288,-0.374387677666,-0.954587217575,-0.0150561173729,-1.29244587936,-0.135154045994,0.329571756312,-0.355804591575,0.573952076498,0.818871761909,0.00296619834931,0.0,0.818838884714,-0.573886492381,-0.0117440046104,0.0,-0.00791472496379,0.00916951092224,-0.999926635908,0.0,0.577049044314,0.149875003656,0.304178662531,1.0,-0.251593714286,-0.33066602449,1.557
0.36648190323,0.15418719434,-0.127669622311,-1.93353387572,0.0348124902796,2.08081351264,0.0489718929005,-0.387475089737,-0.980146124248,-0.00857153711774,-1.29176472706,-0.135807738522,0.326460727894,-0.365608533751,0.573852906215,0.81894091111,0.00306154211623,0.0,0.818909178393,-0.573786897089,-0.0117090210715,0.0,-0.00783247443275,0.00922655834968,-0.999926758801,0.0,0.57325177157,0.144935568416,0.304237026383,1.0,-0.257842285714,-0.338878432653,1.572
0.359695075769,0.137426062664,-0.127867515121,-1.95583009462,0.0324747141919,2.08637852316,0.0426945666039,-0.412606116892,-1.01311166424,-0.0147407390341,-1.31125323127,-0.137747839353,0.34431860464,-0.379212560241,0.573869202586,0.818929643733,0.00302056943071,0.0,0.818897292425,-0.573803230578,-0.0117398440694,0.0,-0.00788104555829,0.00921084842038,-0.999926521997,0.0,0.568815600218,0.139142497837,0.304229176862,1.0,-0.264924,-0.348185828571,1.589
0.352512341581,0.1203763432,-0.128105053848,-1.97822094079,0.0301081784007,2.09179032515,0.0360320983377,-0.429919963169,-1.02519765205,-0.0149776517644,-1.30735294395,-0.140227985379,0.320709530161,-0.397772872691,0.573867116785,0.818931049796,0.00303559800721,0.0,0.818898607461,-0.573800757909,-0.0117689346946,0.0,-0.00789626963488,0.00923982949711,-0.99992613451,0.0,0.564279826194,0.133173451882,0.304249481826,1.0,-0.272005714286,-0.35749322449,1.606
0.345318630315,0.104054269602,-0.128360845852,-1.99951197557,0.0277606299297,2.09677824342,0.0294725404936,-0.450826038925,-1.02063651164,-0.012102060172,-1.33646291419,-0.135344989587,0.303866759458,-0.418675378685,0.573917611266,0.818895851623,0.00298438851533,0.0,0.818862740584,-0.573851422694,-0.0117942213348,0.0,-0.00794579630998,0.00921289327057,-0.999925990721,0.0,0.559890550288,0.127343777325,0.304238788235,1.0,-0.278670857143,-0.366253126531,1.622
0.336988494081,0.0854165481618,-0.128557225752,-2.02355488009,0.0251564567129,2.10223822746,0.02175609623,-0.47506627802,-1.04023094563,-0.0155666551378,-1.35027082021,-0.134840267166,0.290140790196,-0.441107112905,0.573780419815,0.818991835379,0.00302494977235,0.0,0.818958417928,-0.573713135009,-0.011878355255,0.0,-0.00799297644398,0.00929305466489,-0.999924872909,0.0,0.554797120501,0.120805647104,0.304232835025,1.0,-0.286169142857,-0.376108016326,1.64
0.328627128975,0.0674322232956,-0.128794984843,-2.04625276122,0.0225396520001,2.10724946964,0.0141176158022,-0.499801979858,-1.06135821213,-0.0127783286209,-1.36032946386,-0.161058457421,0.297702563775,-0.461024331519,0.573690642806,0.81905405612,0.00320100166312,0.0,0.819023346055,-0.573623241526,-0.0117423293536,0.0,-0.00778158335478,0.00935833974478,-0.999925931476,0.0,0.549922409255,0.114415957884,0.304337154512,1.0,-0.28998,-0.381116571429,1.657
0.320853096939,0.0516889020137,-0.129091082086,-2.0660185221,0.0202188493595,2.11131594464,0.00720564225084,-0.515858533192,-1.0560462962,-0.012655129513,-1.31951661085,-0.151768559801,0.259569020499,-0.462198015531,0.573814165414,0.818967541199,0.0031963939389,0.0,0.818936620922,-0.57374658238,-0.0117650763858,0.0,-0.00780144578331,0.00936879191708,-0.999925678829,0.0,0.545588764421,0.108610311675,0.304368665083,1.0,-0.28998,-0.381116571429,1.672
0.311319415512,0.0329382998373,-0.129267864437,-2.08935976605,0.0174983132506,2.11595749179,-0.00119945508586,-0.54005644144,-1.0390093246,-0.00823962399553,-1.27909423283,-0.155773363295,0.255105894932,-0.472997122159,0.573865961052,0.818931065173,0.00324286017379,0.0,0.818899967108,-0.573797267308,-0.0118442729346,0.0,-0.00783904967053,0.00945278515563,-0.999924594234,0.0,0.540342729593,0.101775668505,0.304381874058,1.0,-0.28998,-0.381116571429,1.69
0.302058957825,0.0153485828202,-0.129506780435,-2.110823834,0.0147989557695,2.1200632895,-0.00940985811606,-0.555143564198,-1.05834062382,-0.0233337936194,-1.24656598237,-0.159190005888,0.242025515542,-0.489441771194,0.573850362789,0.81894157025,0.00334851385552,0.0,0.818912496504,-0.573782102069,-0.0117119304544,0.0,-0.00767021707357,0.00946321757746,-0.999925804889,0.0,0.535442217654,0.0952761966336,0.304472829153,1.0,-0.28998,-0.381116571429,1.707
0.293017012776,-0.000959670248221,-0.129739072364,-2.13071487009,0.0123613398263,2.12352378379,-0.0173264607886,-0.56322148594,-1.01847899128,-0.0147960400984,-1.23633989669,-0.156922500654,0.199248374066,-0.496248263352,0.57395295344,0.818869999286,0.00326778331884,0.0,0.818838866799,-0.573883725332,-0.0118796851709,0.0,-0.00785274131245,0.0094943511752,-0.999924092994,0.0,0.530771563038,0.0891098972528,0.304446692312,1.0,-0.28998,-0.381116571429,1.723
0.283327105041,-0.0181480360184,-0.129894697228,-2.15133360271,0.00971696234065,2.12718117057,-0.0258971298475,-0.580863824859,-1.00122244401,-0.0148033904023,-1.21195679744,-0.16515769892,0.191264489508,-0.510831322242,0.573856058348,0.818937356146,0.00340263240365,0.0,0.818908374117,-0.573786858485,-0.0117670188719,0.0,-0.00768421351216,0.00953920289696,-0.999924975421,0.0,0.525871468674,0.0827038522537,0.304488909372,1.0,-0.28998,-0.381116571429,1.74
0.272653168759,-0.0362552878807,-0.130151490399,-2.17266984377,0.00687449390775,2.1306206141,-0.0351757376502,-0.601576596384,-1.00180074022,-0.0142577839,-1.18262813852,-0.160492484919,0.190546499765,-0.515183105148,0.573932203673,0.818883548578,0.00350804187546,0.0,0.818856497439,-0.573863352325,-0.0116463024579,0.0,-0.00752397367356,0.00955695491828,-0.99992602448,0.0,0.520686579113,0.0757987295172,0.304573499352,1.0,-0.28998,-0.381116571429,1.758
0.262929607622,-0.0522234462309,-0.130340631303,-2.19124999082,0.00452479300702,2.1333901198,-0.0436954778795,-0.605882881061,-0.994666263451,-0.00492284732886,-1.14672567684,-0.156294544051,0.184302858128,-0.524085215329,0.573975495805,0.818852391767,0.00369291408762,0.0,0.818827054431,-0.573905169332,-0.0116558331476,0.0,-0.00742516732365,0.00971420760315,-0.999925247736,0.0,0.516059536542,0.0697121365107,0.30464782332,1.0,-0.28998,-0.381116571429,1.774
0.25242810112,-0.0687925168359,-0.130529128949,-2.21071221515,0.00186967416651,2.1360372536,-0.0529741338077,-0.624293700469,-0.964545095688,-0.0139692590816,-1.12839525038,-0.153819207631,0.153438444513,-0.548634553429,0.573856430771,0.818936720239,0.00349170577965,0.0,0.818907966421,-0.573785763456,-0.0118485057757,0.0,-0.00769983363876,0.00965891287774,-0.999923706072,0.0,0.511081267299,0.0632715484703,0.304537570477,1.0,-0.28998,-0.381116571429,1.791
0.241507059415,-0.0853336879969,-0.130819060215,-2.22963956832,-0.000737126100415,2.13849788987,-0.0624612453958,-0.645356536279,-0.959124391856,-0.00624821358622,-1.12020906149,-0.154711644254,0.13199686368,-0.574970519629,0.573944039705,0.818875117791,0.00353944222732,0.0,0.818846775671,-0.573872929225,-0.0118560523134,0.0,-0.00767758397311,0.00970315823107,-0.999923448782,0.0,0.505875570156,0.0563521168167,0.304544946328,1.0,-0.28998,-0.381116571429,1.809
0.23187404992,-0.0999020914861,-0.130938926664,-2.24603162503,-0.00299953596356,2.1404043351,-0.0710412969352,-0.648946211212,-0.960098674579,-0.00812503148806,-1.08625218438,-0.153342888495,0.129564376198,-0.571531068318,0.573783195735,0.818987371784,0.00364363169028,0.0,0.818960184941,-0.573711491654,-0.0118358238939,0.0,-0.00760314331576,0.00977537434717,-0.999923314194,0.0,0.501813883218,0.0511312359181,0.304600025973,1.0,-0.28998,-0.381116571429,1.823
0.219074949553,-0.117998347016,-0.131272098186,-2.26637730451,-0.00598531480311,2.14247571246,-0.0820760484319,-0.689032896957,-0.946817580539,-0.0286359352352,-1.04835260786,-0.159503148271,0.109777043157,-0.584470434792,0.573947047017,0.818873221417,0.00349018160194,0.0,0.818843577662,-0.573875283511,-0.0119624913079,0.0,-0.00779298487631,0.00972393656669,-0.999922354208,0.0,0.496280003676,0.0438015468743,0.304544438248,1.0,-0.28998,-0.381116571429,1.842
0.208129313673,-0.133172967154,-0.131447340197,-2.28317802179,-0.00836569524719,2.14400768861,-0.0917370043826,-0.692748639954,-0.947073733842,-0.0123555498329,-1.04508563213,-0.157185939186,0.0930785837661,-0.59722651216,0.573862526384,0.81893248465,0.00348328826155,0.0,0.818901770646,-0.573789582304,-0.0120893412984,0.0,-0.00790183192543,0.00979027935812,-0.999920852609,0.0,0.491596354755,0.0377539786092,0.304518738252,1.0,-0.28998,-0.381116571429,1.858
0.19546237714,-0.150080625658,-0.131752150006,-2.30151127025,-0.0110958862026,2.1455933251,-0.102863973661,-0.710747195682,-0.913364332983,-0.0213623640482,-1.0070170552,-0.157870206553,0.0815694622995,-0.625202928066,0.573879149906,0.818920254658,0.00361728013613,0.0,0.818891589949,-0.573806075448,-0.0119957739074,0.0,-0.00774811407955,0.00984647438954,-0.999921503754,0.0,0.486409399799,0.0308743703942,0.304566991097,1.0,-0.28998,-0.381116571429,1.876
0.184625370619,-0.163967739676,-0.131998294207,-2.31647495617,-0.0133784670145,2.14651717334,-0.112318448536,-0.719720772239,-0.920992617382,-0.00898933294168,-0.977516743513,-0.144917667363,0.0554917261373,-0.644873224209,0.573939310702,0.818878461177,0.00353275432584,0.0,0.818848004978,-0.573865681117,-0.0121190626658,0.0,-0.00789686495837,0.00984858492033,-0.999920319275,0.0,0.482034549903,0.0251269738555,0.304548178071,1.0,-0.28998,-0.381116571429,1.891
0.171477311785,-0.180560712325,-0.132222700258,-2.33401027631,-0.0160061297941,2.14751861161,-0.123978201376,-0.74475529732,-0.926297672171,-0.0201606829952,-0.9616988772,-0.149015790547,0.0469075530853,-0.648934669874,0.573838378999,0.818948679861,0.00364985527245,0.0,0.818919360749,-0.573763816157,-0.0121206748859,0.0,-0.00783220660153,0.00994443703666,-0.999919879146,0.0,0.47681342345,0.018357847369,0.304592352618,1.0,-0.28998,-0.381116571429,1.909
0.160098339847,-0.194259438919,-0.132515932793,-2.34821382328,-0.0182778375913,2.14825548811,-0.133970045758,-0.75249774647,-0.917849394933,-0.00705748128683,-0.952506264735,-0.161474092203,0.0495022610363,-0.670926095252,0.573903963856,0.81890198241,0.00381187318996,0.0,0.818875720379,-0.573830006951,-0.011934177755,0.0,-0.00758570065117,0.00997071429053,-0.999921517921,0.0,0.472513165451,0.0125789498217,0.304676626019,1.0,-0.28998,-0.381116571429,1.924
0.143186229588,-0.213920826021,-0.132857773586,-2.36857823179,-0.021357616386,2.14880255036,-0.149031603276,-0.781163587876,-0.867655518528,-0.0307399184388,-0.898840518477,-0.136162042225,0.0195346102875,-0.692392992181,0.573859731408,0.818932690372,0.003873526784,0.0,0.818905521727,-0.573783303706,-0.012133168366,0.0,-0.00771383173278,0.0101349843415,-0.999918886156,0.0,0.46611603516,0.00426965405189,0.304658987561,1.0,-0.28998,-0.381116571429,1.946
0.132877167668,-0.225436170092,-0.133091277788,-2.3802802212,-0.023353071731,2.14905840258,-0.158084303287,-0.795832304908,-0.859019594909,-0.0166825311367,-0.911483175518,-0.14834581719,0.0075087724204,-0.701795074506,0.573897607535,0.818906079677,0.00388788323015,0.0,0.818879871518,-0.573822139223,-0.012027279907,0.0,-0.00761840584356,0.0100863306769,-0.999920109722,0.0,0.462366050287,-0.00071176938378,0.304686411165,1.0,-0.28998,-0.381116571429,1.959
0.118417867869,-0.241165150775,-0.133359551689,-2.39610994417,-0.0259340776335,2.14916325785,-0.171040667304,-0.816452637467,-0.871665765008,-0.0192375933261,-0.822907219407,-0.133362106452,0.00829483183657,-0.726838276507,0.573777054406,0.818990247984,0.0039512587614,0.0,0.818964759778,-0.57370122885,-0.0120153718028,0.0,-0.00757377614415,0.0101302813623,-0.999920004458,0.0,0.457158064692,-0.0075104473661,0.304704399143,1.0,-0.28998,-0.381116571429,1.977
0.107626438351,-0.252373432495,-0.133652861586,-2.40726620698,-0.0277447190909,2.14916635642,-0.180591197007,-0.829887135817,-0.823548305501,-0.015126796224,-0.876294955208,-0.141834921381,-0.00194685449223,-0.734271099686,0.573853002756,0.818936535089,0.00405334747618,0.0,0.818912125362,-0.573776449428,-0.0120109915362,0.0,-0.00751066907212,0.0102120755698,-0.999919648453,0.0,0.452820473683,-0.0132573306961,0.304700434836,1.0,-0.28998,-0.381116571429,1.992
0.0882494579886,-0.2719816903,-0.134117510113,-2.42641452481,-0.0309818947317,2.14894617734,-0.197950756954,-0.856755725064,-0.84503371123,-0.0342413040682,-0.797896348679,-0.137402324469,-0.0059420142971,-0.772761506136,0.573919184867,0.818888868154,0.00430554941167,0.0,0.818868761809,-0.57384316814,-0.0117777848005,0.0,-0.00717412487377,0.0102853745932,-0.999921368409,0.0,0.446790830814,-0.021285506583,0.304789357509,1.0,-0.28998,-0.381116571429,2.013
0.0779047853601,-0.281931286921,-0.134282360772,-2.43617249461,-0.0326792623119,2.14859066599,-0.207234813765,-0.864674471438,-0.805445944605,-0.00727681881957,-0.786762714154,-0.143722245998,-0.0210801919181,-0.773986131799,0.573855340543,0.818934043771,0.00422220136619,0.0,0.818912434549,-0.57377901881,-0.0118662974624,0.0,-0.00729524486445,0.0102673490495,-0.999920677327,0.0,0.443292603858,-0.0258298028057,0.304740017955,1.0,-0.28998,-0.381116571429,2.025
0.0602909260783,-0.298454876464,-0.134750832288,-2.45182143961,-0.035379360502,2.14789260391,-0.223117651483,-0.888179088979,-0.8100555169,-0.0315647494568,-0.770087453145,-0.140488729925,-0.0295254668824,-0.795546891017,0.573921924023,0.8188861633,0.00445236824753,0.0,0.818868006772,-0.573845493252,-0.011716836653,0.0,-0.00703991949992,0.0103706510148,-0.99992144148,0.0,0.437538958627,-0.033485715498,0.304826704093,1.0,-0.28998,-0.381116571429,2.045
0.0468857007064,-0.310530806549,-0.134967414527,-2.46330897488,-0.0373747802067,2.14716370547,-0.23526796614,-0.893195034925,-0.798073651275,-0.0175929328,-0.749041192963,-0.138810270853,-0.0535134780024,-0.806764738543,0.573833303728,0.818948328781,0.00444085814752,0.0,0.818929472015,-0.573756116222,-0.0117977058799,0.0,-0.00711387895456,0.0104068665239,-0.999920541771,0.0,0.433174448179,-0.0391242152526,0.304794991349,1.0,-0.28998,-0.381116571429,2.06
0.0284839400734,-0.326421531743,-0.135390416203,-2.47795717324,-0.0400141085257,2.14606756267,-0.25192398863,-0.926392586061,-0.800213005172,-0.0125156771239,-0.714938332754,-0.122198491171,-0.0561289088883,-0.849565534205,0.573885983846,0.818910411535,0.00462193969047,0.0,0.818894623536,-0.57380928128,-0.0116297532668,0.0,-0.00687174644429,0.0104592353309,-0.999921688682,0.0,0.427421089779,-0.0467680877915,0.304879295812,1.0,-0.28998,-0.381116571429,2.08
0.0164317155598,-0.336442888666,-0.13556811745,-2.48730142846,-0.0416550914024,2.14524812626,-0.263047845359,-0.934969788193,-0.796553871466,-0.00837972221161,-0.732743849328,-0.132633464695,-0.0732332288516,-0.862195886932,0.573702583395,0.819038919,0.00461972616825,0.0,0.819022505888,-0.573625012655,-0.0117143760561,0.0,-0.00694467312649,0.0105044297519,-0.999920711092,0.0,0.423645316398,-0.0516223005924,0.304833502782,1.0,-0.28998,-0.381116571429,2.093
0.000164396396562,-0.349325807067,-0.135966646663,-2.49906133666,-0.0438667700341,2.1439099108,-0.277806357026,-0.949733889713,-0.75873876909,-0.0150422678325,-0.66431609194,-0.128214091068,-0.0837121115281,-0.882659286877,0.573802907351,0.818968879326,0.00457658314024,0.0,0.818951167938,-0.573724354459,-0.0118362381948,0.0,-0.00706794960201,0.0105398689213,-0.999919474384,0.0,0.418689180123,-0.0581442201364,0.304813663969,1.0,-0.28998,-0.381116571429,2.11
-0.0153570440155,-0.361267110566,-0.136330492017,-2.50963061616,-0.0458331367383,2.14274908315,-0.292076918655,-0.987397281259,-0.725345154605,-0.0347995750779,-0.66285212181,-0.116718945934,-0.0827594079122,-0.899624752424,0.57380498112,0.81896617537,0.00479522077463,0.0,0.818952305972,-0.573727256806,-0.0116147424005,0.0,-0.00676106247228,0.010591858081,-0.999921047172,0.0,0.414116961782,-0.0642458866532,0.304904732973,1.0,-0.28998,-0.381116571429,2.126
-0.0331103029796,-0.374250878055,-0.136667144608,-2.52134226901,-0.0480382895028,2.14110149404,-0.308484977808,-0.993188861468,-0.715600755288,-0.0151981595691,-0.644056672802,-0.125129605204,-0.100893885821,-0.913090343805,0.573695347363,0.819043551413,0.00469640329826,0.0,0.819026903721,-0.573615658288,-0.0118639980117,0.0,-0.00702333581691,0.0106530062158,-0.999918589792,0.0,0.408837201039,-0.0710436469467,0.304820891174,1.0,-0.28998,-0.381116571429,2.144
-0.0493181559977,-0.385559579226,-0.137051041485,-2.53105325807,-0.0500039256602,2.13971163154,-0.323301032096,-1.01098662514,-0.701886690143,-0.0189162576866,-0.603876871934,-0.130125177363,-0.0822845932837,-0.926781267426,0.573834089136,0.818945489352,0.00484463798853,0.0,0.818932261718,-0.573756211948,-0.0115977096964,0.0,-0.00671838025174,0.0106227960466,-0.999921006665,0.0,0.404267971409,-0.0772047036365,0.304927663911,1.0,-0.28998,-0.381116571429,2.16
-0.0667241449517,-0.397166588114,-0.137399107463,-2.54119261655,-0.0519553474879,2.13805434542,-0.339528353634,-1.03847259498,-0.678414895678,-0.027804103577,-0.586497841028,-0.105735707708,-0.107694153138,-0.958242199019,0.573747115211,0.819006298767,0.00486592931531,0.0,0.818992631836,-0.573668057155,-0.0116951314595,0.0,-0.00678708878619,0.0106954141131,-0.999919768553,0.0,0.399323526958,-0.0836463491892,0.304898488817,1.0,-0.28998,-0.381116571429,2.177
-0.0843662479553,-0.408401303799,-0.137745809342,-2.55088545043,-0.053761261075,2.1362248304,-0.356025728757,-1.03763139252,-0.651276081722,-0.015420058365,-0.547959218033,-0.105320326546,-0.105818220012,-0.98170217984,0.573702542384,0.819037207107,0.00491865208889,0.0,0.819022634091,-0.573620813796,-0.011909396642,0.0,-0.00693293123036,0.0108611476325,-0.999916981522,0.0,0.394372515574,-0.0900434440687,0.304865122094,1.0,-0.28998,-0.381116571429,2.194
-0.102515482731,-0.419346559648,-0.138133864289,-2.55997075779,-0.0556654587779,2.13462255349,-0.372895162504,-1.07904395308,-0.634566227504,-0.0173778878711,-0.529981199887,-0.10791564698,-0.0980572277714,-1.00388687777,0.5737712969,0.818987942967,0.00509853211636,0.0,0.818977570769,-0.573691960712,-0.0115766874691,0.0,-0.00655630679935,0.0108181627133,-0.999919987897,0.0,0.389515804341,-0.09658319069,0.304970582821,1.0,-0.28998,-0.381116571429,2.211
-0.119754243934,-0.429184881277,-0.138455196227,-2.56835552896,-0.0574294089443,2.13276556315,-0.389096387757,-1.0899108356,-0.619487525028,-0.0321181888048,-0.515586102015,-0.114925646809,-0.112067349751,-1.02022751747,0.573678033424,0.819054046473,0.00497290895699,0.0,0.819040587144,-0.573596762527,-0.0118329003554,0.0,-0.00683947212053,0.010861498395,-0.999917621344,0.0,0.384812895859,-0.102642801518,0.304899170313,1.0,-0.28998,-0.381116571429,2.227
-0.138284817597,-0.439252311044,-0.138751444267,-2.57675720546,-0.0590977761913,2.13091064035,-0.406582438337,-1.09162405268,-0.588814579111,-0.0115108608328,-0.480566648841,-0.0849833880939,-0.103423032665,-1.03953194349,0.57360368226,0.819105736468,0.00503538322904,0.0,0.819092335174,-0.573521003522,-0.0119227463269,0.0,-0.00687822429534,0.0109635860863,-0.999916241398,0.0,0.379889808892,-0.109034932015,0.304880374352,1.0,-0.28998,-0.381116571429,2.244
-0.157300047914,-0.448947292395,-0.139140411912,-2.58445664733,-0.0607555134616,2.12918680041,-0.424444104163,-1.114993081,-0.561399910922,-0.0105847427655,-0.453703516646,-0.0905220125894,-0.104423793088,-1.05288158284,0.573716477895,0.81902533642,0.00525815514502,0.0,0.819016683222,-0.573636081105,-0.0115786856125,0.0,-0.00646709387942,0.0109496103289,-0.999919138096,0.0,0.375050428254,-0.115579445991,0.305012617927,1.0,-0.28998,-0.381116571429,2.261
-0.176495954012,-0.458098206728,-0.139533467378,-2.59202798527,-0.062452148363,2.12720842869,-0.442651378135,-1.13492782399,-0.527542562191,-0.0239098477546,-0.432350796494,-0.0935008779323,-0.117213262375,-1.07395765098,0.573680475831,0.819051129716,0.0051677329325,0.0,0.819039838851,-0.573597943088,-0.0118274664229,0.0,-0.00672322819784,0.0110179778438,-0.999916697714,0.0,0.370057338704,-0.122048904601,0.304941884257,1.0,-0.28998,-0.381116571429,2.278
-0.1958801991,-0.466746640335,-0.13984576973,-2.5990933157,-0.0639901518189,2.12540610731,-0.46119458301,-1.15623297194,-0.499712495161,-0.0251531040553,-0.405796735298,-0.0897342458503,-0.101770400307,-1.10296461543,0.573552974607,0.819140324104,0.0051828223286,0.0,0.819128578262,-0.573469346133,-0.0119175593929,0.0,-0.0067900944621,0.0110809628681,-0.999915549874,0.0,0.365135946391,-0.12846680957,0.304899401097,1.0,-0.28998,-0.381116571429,2.295
-0.215593908808,-0.474939241925,-0.140142169037,-2.60546056894,-0.0653609879632,2.12366158061,-0.479875422162,-1.15066815746,-0.464594473627,-0.00740656355327,-0.358313104291,-0.0636697181649,-0.105418795639,-1.11071019062,0.573673219617,0.819054983659,0.00535889352842,0.0,0.819046367864,-0.573590352056,-0.0117431774953,0.0,-0.0065446244302,0.0111261429352,-0.999916684947,0.0,0.36029572938,-0.134931439777,0.304982437702,1.0,-0.283854857143,-0.373066383674,2.312
-0.234100991541,-0.482012966972,-0.140309444651,-2.61103576583,-0.0665743497262,2.12206712083,-0.497463252646,-1.14433766219,-0.42919561509,-0.00172829582119,-0.340726910036,-0.0766148234669,-0.104304136572,-1.09624228343,0.573714288513,0.819025843017,0.00541576651848,0.0,0.819018027397,-0.573631327277,-0.0117182791419,0.0,-0.0064910450894,0.0111587694322,-0.999916670627,0.0,0.355788533269,-0.140887025294,0.30499701068,1.0,-0.277189714286,-0.364306481633,2.328
-0.253584563729,-0.488846080384,-0.140454165066,-2.6165544833,-0.0676642734169,2.12034900814,-0.516014728872,-1.15865855121,-0.375769910649,-0.0206091654315,-0.305520252265,-0.0582402854737,-0.0989211810228,-1.08597084194,0.57380348553,0.818963002041,0.00546883747564,0.0,0.818953919896,-0.573716972515,-0.0120024762707,0.0,-0.00669214796347,0.0113660074379,-0.999913010732,0.0,0.351039760812,-0.147040588871,0.30492136511,1.0,-0.270108,-0.354999085714,2.345
-0.273965969203,-0.495476855315,-0.14038728528,-2.62173336708,-0.0687148384064,2.1188034065,-0.535460389969,-1.12756171899,-0.357094860715,0.00601054462862,-0.275509044234,-0.0527502386876,-0.0821378484803,-1.08178795265,0.573775161429,0.818982450418,0.0055278327466,0.0,0.818974387477,-0.573688856369,-0.0119497127958,0.0,-0.00661547638914,0.011383821,-0.999913318289,0.0,0.346215194069,-0.153373077918,0.30493017612,1.0,-0.262609714286,-0.345144195918,2.363
-0.291836441455,-0.500723562683,-0.14032683247,-2.62575852362,-0.0695182172193,2.11746378536,-0.552435753598,-1.10235338313,-0.315235109881,-0.00153054606846,-0.236491193356,-0.0358849151347,-0.0711983375626,-1.05423015924,0.573888171718,0.818902795622,0.0055968371814,0.0,0.818895556445,-0.573801452761,-0.0119460179712,0.0,-0.00657128072514,0.0114391237494,-0.999912978572,0.0,0.342045367765,-0.158882551856,0.304950955625,1.0,-0.255944571429,-0.336384293878,2.379
-0.309407713946,-0.505442757565,-0.140218742487,-2.62935497046,-0.0702220210121,2.11629901334,-0.569218134203,-1.08855799804,-0.286591006043,0.0123810864164,-0.211189654351,-0.0461527995713,-0.0746896057806,-1.04306273034,0.573946515237,0.818861338245,0.00567919673581,0.0,0.818855563354,-0.573860164447,-0.0118669678838,0.0,-0.0064584607749,0.0114616673785,-0.999913455488,0.0,0.338000548349,-0.164249657421,0.304978326903,1.0,-0.249279428571,-0.327624391837,2.395
-0.328779811387,-0.510196231848,-0.140046749868,-2.63291013568,-0.0708588071057,2.11511374841,-0.58780274484,-1.07878767868,-0.253202625681,0.00563733488057,-0.190651087159,-0.0265662243419,-0.0715109076048,-1.02657120897,0.5739880648,0.818831249154,0.00581668092672,0.0,0.818827951154,-0.573902453099,-0.0117263650208,0.0,-0.00626382726338,0.0114938757839,-0.999914323974,0.0,0.333590420975,-0.170105498798,0.305030449787,1.0,-0.241781142857,-0.317769502041,2.413
-0.344542009239,-0.513646111346,-0.139820123087,-2.63561615707,-0.0713370132062,2.11409818677,-0.603055221667,-1.03105208927,-0.222285549057,0.0168206580928,-0.173903100325,-0.0178367810487,-0.067083853045,-1.0089012423,0.573877487038,0.818908654399,0.00583031071494,0.0,0.818904495978,-0.573789953496,-0.0118853958872,0.0,-0.00638780282396,0.01159545203,-0.999912366894,0.0,0.32974090758,-0.175090707175,0.304993086379,1.0,-0.235116,-0.3090096,2.429
-0.363155796733,-0.517227297843,-0.139557987273,-2.63850256288,-0.0718296895652,2.11308036014,-0.620954541254,-1.02299698892,-0.186645462494,0.0270307560478,-0.146464034217,-0.0266128857643,-0.0487560881096,-0.99267473405,0.573900878274,0.818892134719,0.00584812042265,0.0,0.818887094412,-0.573811257763,-0.0120546244689,0.0,-0.00651584527952,0.0117073353131,-0.999910237001,0.0,0.325744186273,-0.180287993066,0.304925536928,1.0,-0.228034285714,-0.299702204082,2.446
-0.380250495436,-0.520099235242,-0.139290434908,-2.64078170987,-0.0721608363358,2.1122810725,-0.637440705398,-1.00045836702,-0.156306891775,0.00793378102347,-0.123688903972,-0.0161429907936,-0.0444905477566,-0.968239329103,0.573934246588,0.818868164122,0.00592935758726,0.0,0.818863536589,-0.573843110205,-0.012138377873,0.0,-0.00653733606891,0.0118221930968,-0.99990874533,0.0,0.321909139534,-0.185313579716,0.304885310521,1.0,-0.220952571429,-0.290394808163,2.463
-0.395934127954,-0.522406081528,-0.13897675302,-2.64255716308,-0.072446789055,2.11157833746,-0.652634387189,-0.965397513305,-0.145466789251,0.0270106454155,-0.106029410865,-0.00853413716085,-0.040209279875,-0.938335991805,0.573886370765,0.818901551181,0.00595229577819,0.0,0.818896874831,-0.573794514461,-0.0121864870982,0.0,-0.00656426490464,0.0118682037637,-0.999908023853,0.0,0.318421902565,-0.189897660017,0.30487368781,1.0,-0.214287428571,-0.281634906123,2.479
-0.413227577389,-0.524687212213,-0.138715818635,-2.64420504843,-0.0727087863542,2.11089902314,-0.669317887375,-0.959347058643,-0.118155410198,0.0150212075171,-0.0842724369931,-0.0182177072449,-0.0339356016772,-0.919930003525,0.57399136064,0.818827260757,0.00604829338096,0.0,0.818824233432,-0.573899786053,-0.0121102111117,0.0,-0.00644518080418,0.0119038749314,-0.999908374505,0.0,0.314588989277,-0.194963983789,0.304909696002,1.0,-0.206789142857,-0.271780016327,2.497
-0.428958929883,-0.526374029902,-0.138356245629,-2.64544864134,-0.0728608740999,2.1103946359,-0.684583110059,-0.922161694891,-0.0890995584614,0.0175990093294,-0.0716671984913,-0.00483014402366,-0.0279123181514,-0.878723362707,0.573980200494,0.818834668824,0.00610421780495,0.0,0.818832683538,-0.57388896911,-0.0120513238091,0.0,-0.00636502102318,0.011915783718,-0.999908746139,0.0,0.31114038738,-0.19952578641,0.304928181013,1.0,-0.199707428571,-0.262472620408,2.514
-0.442559470901,-0.527575309597,-0.138118586324,-2.64636760419,-0.0730139489363,2.11001239414,-0.697711980881,-0.884472276047,-0.0757965715654,0.028534182014,-0.0595952911832,-0.00673481618731,-0.0291047678095,-0.859933092768,0.574079061415,0.818765111469,0.00613762054185,0.0,0.818763542292,-0.573987629916,-0.0120502870824,0.0,-0.0063435585113,0.0119433073798,-0.999908554156,0.0,0.308137914994,-0.203478028324,0.304923185069,1.0,-0.193458857143,-0.254260212245,2.529
-0.459106078842,-0.52876130485,-0.137695939001,-2.6472384371,-0.0730496731387,2.10962545731,-0.713798933745,-0.868573194986,-0.0549839692357,0.0152489961377,-0.0343658932519,0.000987852162226,-0.0217688301962,-0.830553589433,0.574090233478,0.818756705778,0.00621349099759,0.0,0.818756379112,-0.573998957749,-0.0119972942102,0.0,-0.00625644818519,0.0119750953828,-0.999908722808,0.0,0.304525176711,-0.20823337115,0.304938600347,1.0,-0.185544,-0.243857828572,2.548
-0.472608796296,-0.529416993977,-0.137302941367,-2.64775150935,-0.0730679422599,2.10934552084,-0.726923801656,-0.827851293409,-0.0350119706251,0.0265088017248,-0.0321670381334,-0.000440648366982,-0.0103386757383,-0.813631079,0.574084448902,0.818760692281,0.00622263647192,0.0,0.818760281742,-0.573992746915,-0.0120280685011,0.0,-0.0062764823329,0.0120002057089,-0.999908296211,0.0,0.301583323583,-0.212096709139,0.304931067954,1.0,-0.178878857143,-0.235097926531,2.564
-0.485648104208,-0.529826849217,-0.136932660216,-2.64809088642,-0.0730743388952,2.10915312663,-0.73959038341,-0.824525735787,-0.0235209491832,0.017333250695,-0.0149631204243,-0.000367024575516,-0.0168236582734,-0.771609568853,0.574106034914,0.818745549002,0.00622362960921,0.0,0.818745023516,-0.574014079657,-0.0120486399003,0.0,-0.00629244041665,0.0120129939374,-0.999908042357,0.0,0.2987446436,-0.215829612631,0.304919557098,1.0,-0.172213714286,-0.22633802449,2.58
-0.49895455971,-0.530049381525,-0.136468655196,-2.64826895263,-0.0730710367032,2.10898973397,-0.75261635984,-0.757970746866,-0.0129211003194,0.0257999629367,-0.00807415857732,0.00035330835143,-0.00695622919824,-0.760059445304,0.573999582932,0.818820585587,0.00617043865063,0.0,0.818819337698,-0.573907825959,-0.0120601167498,0.0,-0.00633393077592,0.0119752070336,-0.999908233658,0.0,0.295861567944,-0.219616777757,0.304917887245,1.0,-0.165132,-0.217030628572,2.597
-0.512531877437,-0.530119836471,-0.136016086057,-2.648360551,-0.07305620101,2.10888849348,-0.765833973316,-0.750945355253,-0.000783465864534,0.0200515311311,-0.00182957025191,0.000428798578242,-0.00881216774645,-0.718093118149,0.573997640082,0.81882232076,0.00612071133775,0.0,0.818820272218,-0.573905813041,-0.0120924135098,0.0,-0.00638894928404,0.0119530094737,-0.999908149228,0.0,0.292732759364,-0.223682950922,0.304900516844,1.0,-0.157217142857,-0.206628244898,2.616
-0.523368949222,-0.530051538231,-0.135576701011,-2.64833765026,-0.0730251615752,2.10882677491,-0.776402785173,-0.704765767601,0.00504120088533,0.0283807657009,0.00621461293336,0.00308014729722,-0.000841870715795,-0.686148846558,0.573900985697,0.818890621005,0.0060461844874,0.0,0.818887624198,-0.573809546411,-0.0121000117531,0.0,-0.0064393517379,0.0118955833492,-0.999908510738,0.0,0.290537890157,-0.226520852184,0.304896611648,1.0,-0.151385142857,-0.198963330612,2.63
-0.535816346573,-0.529823285132,-0.13512606276,-2.64819864281,-0.0729533433029,2.10883016532,-0.788539071264,-0.690613277575,0.0101157172668,0.0209271785199,0.0125607457846,0.00792671517204,0.00121148702902,-0.661010073496,0.573876895905,0.818907815911,0.00600368945525,0.0,0.818904349022,-0.573785799504,-0.0120942276276,0.0,-0.00645935014011,0.0118572735036,-0.999908836775,0.0,0.28781789972,-0.230034778191,0.304888460153,1.0,-0.143886857143,-0.189108440816,2.648
-0.547108923116,-0.529489881067,-0.134694026887,-2.64795498522,-0.0728325246887,2.10884785404,-0.79949829475,-0.647136157114,0.0245780905826,0.0285349567898,0.0167126926481,0.0110837754053,0.00296817704453,-0.640925140574,0.573910763768,0.818884205623,0.00598664457755,0.0,0.818880601029,-0.573819888264,-0.0120848662882,0.0,-0.00646097480168,0.0118382098735,-0.99990905216,0.0,0.285351339312,-0.233210482715,0.304890227595,1.0,-0.136805142857,-0.179801044898,2.665
-0.556456448447,-0.52904142913,-0.134238109637,-2.64765086557,-0.0726559152127,2.10889433198,-0.808729419988,-0.618530631345,0.0306697072684,0.028960949058,0.0221984459693,0.0129519461947,-9.44225037905e-05,-0.607808370227,0.573777377793,0.818977762228,0.00597432927381,0.0,0.818973821479,-0.573686261804,-0.0121119631518,0.0,-0.00649216284464,0.0118426177404,-0.999908797954,0.0,0.283335318969,-0.235813711118,0.304880510061,1.0,-0.130556571429,-0.171588636735,2.68
-0.567383206155,-0.528405957957,-0.133809449526,-2.6471900423,-0.0724331005604,2.10899361876,-0.819260788362,-0.594302010511,0.038413296563,0.0259653708806,0.0320431774351,0.0100501466678,0.00515662883479,-0.572616997475,0.573920052574,0.818877517079,0.00601100476248,0.0,0.818874039032,-0.573828720062,-0.0121101252173,0.0,-0.00646754662061,0.0118727280367,-0.999908600408,0.0,0.280960174668,-0.238886186669,0.304877444991,1.0,-0.123058285714,-0.161733746939,2.698
-0.576882449074,-0.527635840499,-0.133274626891,-2.64666286485,-0.0721500984355,2.10913442787,-0.828665086406,-0.547765706518,0.0433115576561,0.0312229291766,0.0291862330857,0.015071719943,0.00904978239142,-0.539463534105,0.573771143818,0.818981787081,0.00602111723572,0.0,0.818978226058,-0.573679404224,-0.0121389173102,0.0,-0.00648748614756,0.011896353424,-0.999908190435,0.0,0.278943174971,-0.241525394532,0.304861434829,1.0,-0.115976571429,-0.152426351021,2.715
-0.585488216982,-0.526892930147,-0.132832887102,-2.64613895449,-0.0719165784118,2.10925083176,-0.83704953967,-0.525665123817,0.0487539961258,0.0284112842392,0.0316004726466,0.0166954123123,0.00834661007798,-0.518360349669,0.573769815687,0.818982671132,0.00602742833694,0.0,0.818978928131,-0.573677564287,-0.0121784404597,0.0,-0.00651625674882,0.0119241879143,-0.999907671808,0.0,0.277092328915,-0.243922974043,0.304849175896,1.0,-0.109311428572,-0.14366644898,2.731
-0.594178957698,-0.526051228789,-0.132410272014,-2.64552265968,-0.0716310150503,2.10938692236,-0.845389498359,-0.50035581739,0.0536225717042,0.0304858750229,0.0418380655057,0.0141906877067,0.00873992842677,-0.478200703528,0.573920262656,0.818876930292,0.00607058886623,0.0,0.818873573036,-0.573827459801,-0.012201010729,0.0,-0.00650778091855,0.0119736826081,-0.999907135544,0.0,0.27511989653,-0.24649164998,0.304845098073,1.0,-0.101813142857,-0.133811559184,2.749
-0.602043682297,-0.525136709903,-0.13185703351,-2.64488313358,-0.0713065889796,2.10954966901,-0.85320120519,-0.453794894156,0.0528593098694,0.0327253616757,0.0335991310884,0.0221751419325,0.00593449770918,-0.443683589095,0.573741813445,0.81900187251,0.00608368563322,0.0,0.818998310497,-0.57364829826,-0.0122533345472,0.0,-0.0065457340537,0.0120130099268,-0.9999064161,0.0,0.273577944431,-0.248516146537,0.304827558253,1.0,-0.0951480000001,-0.125051657143,2.765
-0.609586059663,-0.524289569151,-0.131385542529,-2.6442600263,-0.0710223248671,2.10970650034,-0.860467299059,-0.43792395393,0.048230040552,0.0307533422606,0.0366199659287,0.0175295287874,0.016563349678,-0.418124269634,0.573790661659,0.818967566661,0.00609493648268,0.0,0.81896407601,-0.57369694504,-0.0122639454422,0.0,-0.00654725317103,0.0120287029845,-0.999906217493,0.0,0.27197235585,-0.250600033292,0.30482568403,1.0,-0.0880662857144,-0.115744261225,2.782
-0.61620743177,-0.523496113088,-0.130933641751,-2.64362728165,-0.0707235089672,2.10986446681,-0.866816079732,-0.40225508297,0.0469562912011,0.0249800418492,0.0369977483179,0.020489152622,0.0100727463236,-0.384076931359,0.573870362745,0.818911540083,0.00611908343575,0.0,0.818908695112,-0.573777127117,-0.0122108299461,0.0,-0.00648872437059,0.0120186354382,-0.999906720079,0.0,0.27050028514,-0.252541183109,0.304847692944,1.0,-0.0809845714287,-0.106436865306,2.799
-0.62301438427,-0.522560077666,-0.130441966506,-2.64291575801,-0.070384118334,2.11005166694,-0.873433960482,-0.358685688447,0.0472957141607,0.0326509601259,0.0405907483715,0.0170603762453,0.00884532508578,-0.365275253872,0.57384719286,0.818927577446,0.00614565270066,0.0,0.818925132973,-0.573753940494,-0.0121979200504,0.0,-0.00646324510032,0.0120328033035,-0.999906714703,0.0,0.269169266507,-0.254312266095,0.30485548707,1.0,-0.0739028571429,-0.0971294693879,2.816
-0.62844690603,-0.521826104133,-0.129929283938,-2.64236536408,-0.0700740759482,2.11019779598,-0.878768435302,-0.33574772295,0.0403244621983,0.0322137240314,0.0363715810126,0.0249725565537,0.00855529980736,-0.32603149191,0.573726883511,0.819011869209,0.0061455783338,0.0,0.819009465424,-0.573633734903,-0.0121893653726,0.0,-0.00645804820295,0.0120268849879,-0.999906819484,0.0,0.268055387215,-0.2557729342,0.30486141529,1.0,-0.0672377142858,-0.088369567347,2.832
-0.634204389999,-0.521060626203,-0.129405007856,-2.64176885116,-0.0697433157356,2.11036331038,-0.884211884644,-0.311759632792,0.0394299888868,0.0309796004779,0.0303354531106,0.0210185410436,0.0117616266444,-0.283023048792,0.57378616474,0.818970291653,0.00615186505911,0.0,0.818968252182,-0.573693501956,-0.0121455602147,0.0,-0.00641769154245,0.0120073677684,-0.999907313882,0.0,0.266867563494,-0.257324669462,0.304878442241,1.0,-0.0597394285715,-0.0785146775511,2.85
-0.638725514342,-0.520357059441,-0.128956893614,-2.64122560193,-0.0694378332433,2.11051810729,-0.88852180861,-0.270176359469,0.0386226938377,0.0272572099298,0.0354130956712,0.0197442481794,0.00806111296649,-0.259149610455,0.573803732879,0.818957857186,0.00616856450104,0.0,0.818956208866,-0.573711317043,-0.0121160867057,0.0,-0.00638371204806,0.012004271097,-0.999907568576,0.0,0.265903852345,-0.258616911362,0.304889534154,1.0,-0.0526577142858,-0.0692072816328,2.867
-0.642817308686,-0.519726826389,-0.128554706959,-2.64078418357,-0.0691365066465,2.11064317184,-0.892386248557,-0.243654800895,0.0295691382894,0.0315092182763,0.0298922931127,0.0151704553678,0.00173295385109,-0.224485271984,0.573849779495,0.818925235929,0.00621574067274,0.0,0.818924088259,-0.573756927051,-0.0121273752931,0.0,-0.00636521195546,0.012049743396,-0.999907139569,0.0,0.265072491489,-0.259698154501,0.30488362592,1.0,-0.0459925714287,-0.0604473795919,2.883
-0.646679691795,-0.519155897229,-0.128074417601,-2.64037275098,-0.0688416813988,2.1107726138,-0.895953612228,-0.218708361902,0.0316057996243,0.0333665815231,0.0250145456195,0.0212038159114,0.00511562406976,-0.193943355984,0.573904028482,0.818887232995,0.00621390625412,0.0,0.81888604094,-0.573811133832,-0.0121318401249,0.0,-0.00636912302317,0.0120512250352,-0.999907096808,0.0,0.264348904071,-0.260636317547,0.30488013396,1.0,-0.0393274285715,-0.0516874775511,2.899
-0.650066107981,-0.518631410765,-0.127476057056,-2.640009923,-0.0685208650742,2.11087114895,-0.899147227619,-0.176222019853,0.0305834439475,0.0346269607786,0.019451689331,0.0147412373623,0.00237427088079,-0.167650393289,0.573786060801,0.818970121176,0.00618416947811,0.0,0.818968340712,-0.573692947998,-0.0121657400122,0.0,-0.00641568667502,0.0120454029658,-0.999906869279,0.0,0.263679223485,-0.261507866035,0.30487436704,1.0,-0.0314125714287,-0.0412850938777,2.918
-0.652449861741,-0.518253591494,-0.126985317269,-2.63973868621,-0.0682636796781,2.11095085032,-0.901407438905,-0.153097967178,0.022996931808,0.0250528711895,0.0183052326425,0.0104077266629,0.0111993285541,-0.137512579241,0.573663047092,0.819056573181,0.00614696928632,0.0,0.819054328276,-0.573570168199,-0.0121661984763,0.0,-0.00643921059995,0.0120142316004,-0.999907093087,0.0,0.263257338883,-0.262070559587,0.304875666427,1.0,-0.0251640000001,-0.0330726857144,2.933
-0.654798863547,-0.517861354441,-0.126473082117,-2.63948951483,-0.0679554383561,2.111036422,-0.903492952033,-0.121216554886,0.0200760953487,0.0265684991366,0.0140520559454,0.020518461819,0.000311454732616,-0.0968600242885,0.573668615498,0.819052640303,0.00615133374736,0.0,0.819050277538,-0.573575389669,-0.0121927081713,0.0,-0.00645834051209,0.0120330573024,-0.999906743336,0.0,0.262869393876,-0.262580605235,0.304866212241,1.0,-0.0198888888889,-0.0261396825397,2.95
-0.656466798139,-0.517598408878,-0.126199941582,-2.63932153613,-0.0677490833068,2.11105655538,-0.904881016245,-0.0997290659125,0.0132379068667,0.0166724564726,0.0071864843278,0.0118970148748,-0.000599001059156,-0.0942354973545,0.573801125158,0.818959513563,0.00619118840001,0.0,0.818957296345,-0.573706987358,-0.0122468902254,0.0,-0.00647790393625,0.012097831225,-0.999905835187,0.0,0.262545322541,-0.262980393912,0.304853987414,1.0,-0.0195888888889,-0.0257453968254,2.965
-0.658127514485,-0.517336434,-0.125970802865,-2.63911756209,-0.067594857308,2.11110803775,-0.906530250989,-0.0944013814348,0.0152015162582,0.00633289873015,0.0100108042112,0.00875319270996,0.00912941908225,-0.0926497214035,0.573724418337,0.819013164901,0.00620277550456,0.0,0.819011149489,-0.573630337428,-0.0122360082242,0.0,-0.00646347605769,0.0121004719688,-0.9999058966,0.0,0.262221289869,-0.263406444354,0.304860028393,1.0,-0.0192488888889,-0.0252985396825,2.982
-0.659850977636,-0.517025931771,-0.125786460858,-2.63887120266,-0.0674903031228,2.11123367966,-0.908176555839,-0.0909950675389,0.0181459536556,0.00887721355217,0.0126909690313,0.00192207711358,0.00659729566782,-0.0841395357017,0.573714206088,0.819020481841,0.00618117775931,0.0,0.81901867977,-0.573621155041,-0.0121622193051,0.0,-0.00641557590946,0.0120403698552,-0.999906930609,0.0,0.261885823778,-0.263883893354,0.304872630405,1.0,-0.0188688888889,-0.0247991111111,3.001
-0.661160813863,-0.516802471997,-0.12569102528,-2.63869358877,-0.0674516976309,2.11125233615,-0.909486861196,-0.0832805746435,0.0131917884943,0.00536786825585,0.00675200413805,0.000983987691367,-0.000487451993774,-0.0863343514868,0.573671834908,0.81905029523,0.00616332847178,0.0,0.819048145319,-0.573578658798,-0.0121821476751,0.0,-0.00644276201442,0.0120368495104,-0.999906798192,0.0,0.261602792805,-0.264247041258,0.304874794602,1.0,-0.0185688888889,-0.0244048253968,3.016
-0.662648228066,-0.516562294728,-0.125649063859,-2.63848195185,-0.0674136824007,2.11127140683,-0.910922819973,-0.0836058347729,0.0142212877264,0.00350957626161,0.0132066313899,0.00246014420692,0.00211215980758,-0.0778572912496,0.573711359244,0.819022572713,0.00616835159439,0.0,0.819020483352,-0.573618142403,-0.0121828344985,0.0,-0.00643986205796,0.0120416686834,-0.999906758849,0.0,0.261267775728,-0.26467651598,0.304884999277,1.0,-0.0182088888889,-0.0239316825397,3.034
-0.664000531026,-0.516300329491,-0.125617647075,-2.63826730454,-0.0673781171055,2.11136877055,-0.912346585362,-0.077372981786,0.0168664608145,0.000401141395341,0.0126594094613,0.0025972630637,0.00977101109871,-0.0897076215729,0.573656823729,0.819060780323,0.00616714091851,0.0,0.819059043146,-0.573564313601,-0.0121247228961,0.0,-0.00639375614827,0.0120069137351,-0.999907472672,0.0,0.260977753528,-0.265084407959,0.304894942378,1.0,-0.0178688888889,-0.0234848253968,3.051
-0.665288675855,-0.516055684126,-0.125616893418,-2.63808398886,-0.0673523288312,2.11142401007,-0.913612954718,-0.0774401890642,0.0176907403077,-3.09419482309e-06,0.00840110542,0.00134752156807,0.00151107718308,-0.0814624751524,0.573694756613,0.819034112377,0.00618028306757,0.0,0.819032547346,-0.573602181218,-0.0121231593003,0.0,-0.00638438008772,0.0120170772743,-0.999907410486,0.0,0.260683177299,-0.265468994072,0.304892698746,1.0,-0.0175488888889,-0.0230642539683,3.067
-0.66639940525,-0.515861141053,-0.125617997844,-2.63792238911,-0.067318743684,2.11143442894,-0.914709820095,-0.0770882616807,0.015960080447,-0.000306397105945,0.0110556776072,0.00242753182433,0.000164808536442,-0.0798008512289,0.573737778163,0.819003811618,0.00620204518849,0.0,0.819002467665,-0.573644977939,-0.0121302986051,0.0,-0.00637711149749,0.0120393326786,-0.999907189152,0.0,0.260444253342,-0.265773222701,0.304897568926,1.0,-0.0172888888889,-0.0227225396825,3.08
-0.668011144902,-0.515558913512,-0.125611617818,-2.63768302761,-0.0672870335442,2.11149429363,-0.916320629686,-0.0719770703168,0.0159731183488,-0.00130687599826,0.0115615796908,-0.00019222371003,0.00333315346702,-0.0716371823473,0.573751892106,0.818993800094,0.00621840928176,0.0,0.818992650119,-0.57365897858,-0.0121310447093,0.0,-0.00636812669476,0.0120532734152,-0.999907078464,0.0,0.260056839346,-0.26627612558,0.304897658688,1.0,-0.0168488888889,-0.0221442539683,3.102
-0.669135079709,-0.515350574836,-0.125588194048,-2.63750996394,-0.0672619092227,2.11154255599,-0.917383382174,-0.0760492755393,0.0138598079229,0.000825436180753,0.0125898742191,0.00395531098666,0.00199769973267,-0.0741670798066,0.573805044408,0.818956565118,0.00621790665894,0.0,0.818955535135,-0.573712361367,-0.0121121751828,0.0,-0.00635217777083,0.0120424481484,-0.999907310344,0.0,0.259806743463,-0.266609201605,0.304904047118,1.0,-0.0165488888889,-0.021749968254,3.117
-0.670454033658,-0.515098295753,-0.1255263441,-2.63728610704,-0.0672293697669,2.11159293449,-0.918779524481,-0.0763384727853,0.0126970330562,0.00604616945338,0.0129462185011,0.000356563205874,0.00118382020623,-0.0741222990641,0.573723274437,0.819013967724,0.00620257548218,0.0,0.819012927096,-0.573631035646,-0.0120833395704,0.0,-0.00633855612422,0.0120127139276,-0.999907754451,0.0,0.259524210613,-0.266996484652,0.304918361283,1.0,-0.0161888888889,-0.0212768253968,3.135
-0.671657480801,-0.514866474704,-0.12547858068,-2.63710362727,-0.0672007269315,2.11165342317,-0.920004348802,-0.0722069425462,0.0172972670742,0.00277295587943,0.00948610100881,8.62087686435e-05,-0.000212505563128,-0.0666426452603,0.5736935301,0.819034874221,0.00619316013767,0.0,0.819033827664,-0.573601560279,-0.0120659060092,0.0,-0.0063301133669,0.0119947708017,-0.999908023339,0.0,0.259261232734,-0.26734792474,0.304921943896,1.0,-0.0158488888889,-0.020829968254,3.152
-0.672770078705,-0.514637512152,-0.125429581651,-2.63693059486,-0.0671816761151,2.11167161121,-0.921100390184,-0.0696568120344,0.0132359432894,0.00568681204144,0.00925516552099,-0.000397717092398,0.000486640103741,-0.0617457615516,0.57368945436,0.819037823701,0.00618063142728,0.0,0.819036417714,-0.573597169663,-0.0120987732122,0.0,-0.00636428271989,0.0120033319273,-0.999907703705,0.0,0.259012902961,-0.267667753437,0.304918689388,1.0,-0.0155288888889,-0.0204093968254,3.168
-0.67393084684,-0.514397622449,-0.125401454391,-2.63673385612,-0.0671520674103,2.11171644097,-0.922314518445,-0.0638463368236,0.0105516402159,0.00307159970488,0.00976261997784,4.47006408034e-05,-0.00016368134311,-0.0624361978763,0.573648575684,0.81906644675,0.00618177357777,0.0,0.819065103707,-0.57355638537,-0.0120903098445,0.0,-0.00635729381363,0.0119990950582,-0.999907799016,0.0,0.258756749792,-0.268013115596,0.304923935129,1.0,-0.0151888888889,-0.0199625396825,3.185
-0.675134926946,-0.514152314277,-0.125395559639,-2.63652825802,-0.0671264559531,2.11181224572,-0.923467175074,-0.0646973381921,0.0180848591846,-1.88920652514e-05,0.0154721387099,0.000303413197689,0.00406677675311,-0.0696225839805,0.573708005739,0.819024822515,0.00618151733132,0.0,0.81902387628,-0.573616561066,-0.0120282108251,0.0,-0.00630570392679,0.0119637214698,-0.999908549552,0.0,0.258492900136,-0.268384183702,0.304935006124,1.0,-0.0148288888889,-0.0194893968254,3.203
-0.676126786971,-0.513954493532,-0.125388290064,-2.6363614722,-0.0671007736823,2.11183008213,-0.924445459191,-0.0676179754294,0.0158738465308,0.000569360237341,0.0116668733126,4.05208299434e-05,0.00208872821969,-0.0622617428109,0.573733536453,0.819006852543,0.00619286189996,0.0,0.819006000803,-0.573641936375,-0.0120352142501,0.0,-0.00630455903293,0.0119772276906,-0.99990839508,0.0,0.258266216401,-0.268679270206,0.304939362799,1.0,-0.0145288888889,-0.0190951111111,3.218
-0.677279611745,-0.513725578932,-0.125381283274,-2.63618021016,-0.0670705139234,2.11184981374,-0.925641450597,-0.0692666741022,0.00835154173507,-0.00225961590031,0.00729132334022,9.03030981804e-05,0.00157576386771,-0.0658629253822,0.573715547236,0.819019323583,0.00621010128517,0.0,0.819018550237,-0.573623598359,-0.0120552343515,0.0,-0.00631133075148,0.0120026946135,-0.999908046985,0.0,0.257999107836,-0.269018842392,0.304938947097,1.0,-0.0141688888889,-0.018621968254,3.236
-0.678412381147,-0.513484621971,-0.125370623989,-2.63599182768,-0.0670424147858,2.11190701126,-0.926746923591,-0.060497372812,0.0125807879266,0.00212466021926,0.0139746824014,-0.000232729853799,0.0114190133096,-0.0636177512761,0.573752094457,0.818993669217,0.00621697593772,0.0,0.818993052702,-0.573660235877,-0.0120440981287,0.0,-0.00629772948675,0.0120022177089,-0.999908138467,0.0,0.257744688875,-0.269359508325,0.304940577778,1.0,-0.0138088888889,-0.0181488253968,3.254
-0.679380977721,-0.513277970254,-0.125355357355,-2.6358242166,-0.0670171358041,2.11199307602,-0.927721325409,-0.0561753296775,0.0089634781099,0.00111652043436,0.0128941307529,-0.00082942412756,0.00133951247408,-0.065350633062,0.573755897397,0.818991021144,0.00621485227119,0.0,0.818990707435,-0.573664678183,-0.0119918739948,0.0,-0.00625611634996,0.0119705451536,-0.999908779368,0.0,0.257535465897,-0.269656277568,0.304948011536,1.0,-0.0134888888889,-0.0177282539683,3.27
-0.680317588851,-0.513074840214,-0.125334283355,-2.63566009377,-0.0669895539098,2.11201292817,-0.928720482246,-0.0592169374677,0.0122134325156,0.00138560252769,0.00853668863902,0.00254033111371,8.3300238166e-05,-0.0602122219566,0.573709957479,0.819023149911,0.00622185671511,0.0,0.81902283359,-0.573618538717,-0.0120048740129,0.0,-0.00626341796149,0.0119833891938,-0.999908579811,0.0,0.257325191292,-0.269932730154,0.304949640153,1.0,-0.0131688888889,-0.0173076825397,3.286
-0.681260672564,-0.512878644595,-0.125298191735,-2.63550836928,-0.0669615920637,2.11202720225,-0.929651359106,-0.0595014630599,0.0145711696634,0.00249365047387,0.0117419059441,0.00120742086849,0.00106891929075,-0.0541580425352,0.57371411226,0.819020226527,0.00622357087858,0.0,0.819019776445,-0.57362238687,-0.0120295459211,0.0,-0.00628258280231,0.0119989789062,-0.999908272622,0.0,0.257112864201,-0.270203487569,0.304948067942,1.0,-0.0128488888889,-0.0168871111111,3.302
-0.682236638601,-0.512680423797,-0.125264425765,-2.63534037477,-0.0669419505017,2.11207123814,-0.930579746299,-0.0608618365729,0.0093580813433,0.00187458595426,0.0132937690086,0.00257415727322,0.00350511979517,-0.0534831199577,0.5737460585,0.818997932641,0.00621237365815,0.0,0.818997463536,-0.573654616625,-0.012011762911,0.0,-0.00627397295575,0.0119798505437,-0.999908556041,0.0,0.256898202753,-0.270492430171,0.304955602657,1.0,-0.0125088888889,-0.0164402539683,3.319
-0.683238034727,-0.512460563363,-0.125252215175,-2.63515896525,-0.0669151002557,2.11211926887,-0.931633509316,-0.0565203937686,0.0163792622734,-0.00162709770017,0.0124224661152,-8.53133095641e-05,0.00609670392415,-0.0555181128547,0.57371528043,0.819019451827,0.00621783167213,0.0,0.819019143114,-0.573623992547,-0.0119960530054,0.0,-0.00625842382188,0.0119750726394,-0.999908710716,0.0,0.256675224487,-0.270795364455,0.304961048747,1.0,-0.0121488888889,-0.0159671111111,3.337
-0.684094972209,-0.512263200852,-0.125237327832,-2.63500169505,-0.0668954406789,2.11216145259,-0.932493927004,-0.0517949272096,0.0128625681306,0.000322030691871,0.0102377818092,0.0023056367621,0.000157510169598,-0.0494091383582,0.573718348838,0.819017307434,0.00621717236087,0.0,0.819017031775,-0.573627142793,-0.0119895627681,0.0,-0.00625344099616,0.0119708326833,-0.999908792661,0.0,0.256485255982,-0.271054370597,0.304963402636,1.0,-0.0118288888889,-0.0155465396825,3.353
-0.684921750912,-0.512083095508,-0.125215279357,-2.63485142981,-0.0668765178261,2.11219109575,-0.93330484846,-0.0496249675601,0.0149033001373,0.00162588281604,0.00982706473929,0.000528744514331,0.00024770746968,-0.0571277825083,0.573731444185,0.819008160814,0.00621364428371,0.0,0.81900786787,-0.573640305149,-0.011985807329,0.0,-0.00625219758757,0.0119658884855,-0.999908859616,0.0,0.256301686891,-0.271300691396,0.30496804864,1.0,-0.0115088888889,-0.015125968254,3.369
-0.685846741023,-0.511878662433,-0.125182093732,-2.6346878159,-0.0668549326032,2.11224079519,-0.934224516269,-0.0500137259853,0.00813594507751,-0.000752674952522,0.00167314626038,0.000620287410987,0.00541938944357,-0.0523119857406,0.57372982213,0.819009365458,0.00620462665803,0.0,0.819009045821,-0.573638895076,-0.0119727950276,0.0,-0.00624673634689,0.0119510250147,-0.999909071509,0.0,0.256099497487,-0.271575447564,0.304971715377,1.0,-0.0111488888889,-0.0146528253968,3.387
-0.686680384746,-0.511688816329,-0.125158163919,-2.6345353692,-0.0668367292099,2.11227171752,-0.935078930857,-0.0427256712233,0.0166785822022,0.00172949788466,0.00683556782634,-0.000484123169857,0.00368420186956,-0.0457492827785,0.573711237079,0.819022421904,0.00619965886698,0.0,0.819022082313,-0.573620420371,-0.0119661572184,0.0,-0.00624442036494,0.0119430063156,-0.999909181783,0.0,0.255925885278,-0.27180975859,0.304977186879,1.0,-0.0108288888889,-0.0142322539683,3.403
-0.687443130891,-0.511513056954,-0.125146924004,-2.63440046371,-0.0668138451358,2.11231087047,-0.935826099252,-0.0452792037596,0.010333020093,-0.00106718196682,0.0121551627437,0.00035678684527,0.00406115795953,-0.0516600199558,0.573732913723,0.8190071921,0.00620563457001,0.0,0.819006887418,-0.573641985282,-0.0119723842343,0.0,-0.00624577651037,0.0119516384507,-0.999909070173,0.0,0.255743613715,-0.272052411715,0.304973683852,1.0,-0.0104888888889,-0.0137853968254,3.42
-0.688227701373,-0.511333321461,-0.125137328331,-2.63425732233,-0.0667898766366,2.11234719034,-0.936602141766,-0.0417207079711,0.00910616809862,-0.00034533092951,0.00976034262735,0.000124399422254,0.00325879671124,-0.0461289311279,0.573750678372,0.818994696755,0.00621229875294,0.0,0.818994502272,-0.573659763028,-0.0119678081932,0.0,-0.00623794571132,0.0119546067578,-0.999909083572,0.0,0.255567697277,-0.272288706125,0.304975469495,1.0,-0.0101488888889,-0.0133385396825,3.437
-0.68899161949,-0.511168205179,-0.125121644132,-2.63412980959,-0.0667716545816,2.11237391818,-0.937352121742,-0.0443734116231,0.00928841318101,-0.000229890092795,0.00682325149453,-0.0001814680578,0.00313476190431,-0.0445047346401,0.573765302046,0.818984438484,0.00621406390128,0.0,0.818984224459,-0.573674294679,-0.0119745820054,0.0,-0.00624226777715,0.0119600502342,-0.999908991504,0.0,0.255393470434,-0.272513591346,0.304974883774,1.0,-0.00980888888889,-0.0128916825397,3.454
-0.689817057477,-0.51097349606,-0.125090059186,-2.63398807887,-0.0667482964091,2.11241516667,-0.938211272182,-0.0438705477953,0.00774856593086,-0.000242960758294,0.00636389825777,-7.6468490336e-05,0.0029974306461,-0.0399898398674,0.573732541153,0.819007411026,0.00621118399319,0.0,0.819007113523,-0.573641464872,-0.0119818478806,0.0,-0.00625034986616,0.0119616102041,-0.999908922356,0.0,0.255211096875,-0.272755576161,0.304971398938,1.0,-0.00942888888889,-0.0123922539683,3.473
-0.690447853209,-0.510832228198,-0.125074128439,-2.63387690269,-0.0667300733694,2.11244164985,-0.93882841049,-0.0443428835203,0.0122550963594,0.00135656959178,0.00656534728198,0.00187378842129,0.00445597362009,-0.0437502121322,0.573745892351,0.818998048255,0.00621247656101,0.0,0.81899776704,-0.573654806725,-0.0119819533448,0.0,-0.00624949968502,0.0119628312667,-0.999908913062,0.0,0.255069756608,-0.272942280702,0.304972196382,1.0,-0.00912888888889,-0.011997968254,3.488
-0.691108600226,-0.510677612611,-0.125055308728,-2.63377822672,-0.0667066307202,2.11247018905,-0.939475568515,-0.0423790297297,0.0134741561735,0.00314383769241,0.00734340671377,7.22132974581e-05,-0.00021598680858,-0.0407242940502,0.573758849499,0.818988912319,0.00622021078276,0.0,0.818988581922,-0.573667441393,-0.0120048435621,0.0,-0.00626362196096,0.0119823975371,-0.999908590417,0.0,0.254918535599,-0.27313216792,0.304962611607,1.0,-0.00880888888889,-0.0115773968254,3.504
-0.691817811035,-0.5105163788,-0.125032139366,-2.63368561408,-0.0666866861218,2.11250899053,-0.940170154828,-0.0386892012166,0.0089597364206,0.00298152520998,-0.00131570406828,0.0001289082018,6.29662517746e-05,-0.0356689014559,0.573767802351,0.818982614504,0.00622358639364,0.0,0.818982164907,-0.57367606592,-0.0120304553259,0.0,-0.00628253215644,0.0119999252075,-0.999908261584,0.0,0.254754691518,-0.273333514112,0.304948789165,1.0,-0.00844888888889,-0.0111042539683,3.522
-0.692453491927,-0.510361702846,-0.125021184871,-2.63359059513,-0.0666688293143,2.11252762343,-0.940814663595,-0.0364983529795,0.0060556684952,-2.92855017469e-05,0.00291152579288,0.00198429329058,0.000496875684128,-0.0325498162437,0.573765455437,0.8189841892,0.0062327272451,0.0,0.818983617873,-0.573673220033,-0.0120671941253,0.0,-0.00630741392559,0.0120284722269,-0.999907761939,0.0,0.25460540224,-0.273516624644,0.304936474606,1.0,-0.00810888888889,-0.0106573968254,3.539
-0.693013657455,-0.510218256701,-0.125002704993,-2.63349511274,-0.0666432074117,2.11254901726,-0.941416439743,-0.0370441182534,0.010172707868,0.000356404404904,0.0087353891571,0.000840351229408,0.000421268577711,-0.0388833000806,0.573734179713,0.819006022599,0.00624282603664,0.0,0.819005430925,-0.57364161667,-0.012089112512,0.0,-0.00632003281518,0.0120490774609,-0.999907434175,0.0,0.254479874414,-0.27367882421,0.304928941955,1.0,-0.00778888888889,-0.0102368253968,3.555
-0.693591898818,-0.510078811482,-0.124980340317,-2.63340733408,-0.066626283965,2.11256886377,-0.941992262282,-0.0370501588045,0.00601661675646,-0.000240925344229,0.00254362840932,0.00322623948466,0.000219800861075,-0.0274099895059,0.573732104263,0.819007461289,0.00624482128704,0.0,0.819006713289,-0.573639185479,-0.0121175646392,0.0,-0.00634222376309,0.0120670187439,-0.999907077311,0.0,0.254347540616,-0.27384337876,0.304919342149,1.0,-0.00744888888889,-0.00978996825398,3.572
