nelsonifechukwu/NELSON_IML_WORK/CNN-GradCAM/train2dof/data_sample_2022-02-21-15-59-17/robot_state.csv
position_joint1,position_joint2,position_joint3,position_joint4,position_joint5,position_joint6,position_joint7,velocity_joint1,velocity_joint2,velocity_joint3,velocity_joint4,velocity_joint5,velocity_joint6,velocity_joint7,ee_T_00,ee_T_10,ee_T_20,ee_T_30,ee_T_01,ee_T_11,ee_T_21,ee_T_31,ee_T_02,ee_T_12,ee_T_22,ee_T_32,ee_T_03,ee_T_13,ee_T_23,ee_T_33,v_x,v_y,time
0.465063682377,0.547858045261,-0.123895853537,-1.35583916145,0.0795150571598,1.89409220133,0.159176540631,-0.000518896267664,-0.000277485567502,0.000347671399923,0.000646317785008,-9.10162345516e-05,-0.000216708967006,0.000253853705747,0.573767805882,0.819004064716,0.00189573559705,0.0,0.818959568256,-0.573708843882,-0.0120056201094,0.0,-0.00874521976396,0.00844113163248,-0.999926131486,0.0,0.661652430237,0.260937596342,0.303153236133,1.0,0.0,0.0,0.0
0.465060683458,0.547862556695,-0.123895852563,-1.35584401684,0.0795186058437,1.89409231907,0.159175725371,-0.000902726565317,0.00250403627012,0.000975107963636,-0.000149220555715,0.000139139773624,-0.000341057767558,-0.00673392274002,0.573770807221,0.819001975712,0.0018898312184,0.0,0.818957363672,-0.573711833094,-0.0120131576549,0.0,-0.00875474987739,0.00844065286603,-0.999926052133,0.0,0.66165180237,0.260935558011,0.303147746229,1.0,-0.0002,-0.000262857142857,0.011
0.465060946224,0.547853135117,-0.123900709286,-1.35584760174,0.0795158875281,1.8940923322,0.159176539175,-0.000161775977318,0.000259784202259,0.000170323027202,-0.00142097152377,0.00411160361394,-0.000155465782909,-0.00369133179323,0.573774110867,0.818999655159,0.00189247191735,0.0,0.818955124921,-0.573715170618,-0.0120063845828,0.0,-0.00874765340351,0.00843896469044,-0.999926128489,0.0,0.661652433513,0.260932181292,0.303152871147,1.0,-0.00054,-0.000709714285714,0.028
0.465062676456,0.547832693511,-0.123900608318,-1.35586679256,0.0795157692366,1.8940943619,0.159181625333,0.0012033735991,-0.00556410425878,0.00040068167577,-0.00340018812988,9.2733251962e-05,-0.000299556016376,0.000189703402824,0.57377778267,0.81899707412,0.00189620634645,0.0,0.818952576596,-0.573718810455,-0.0120062783023,0.0,-0.00874538592694,0.00844200135026,-0.99992612269,0.0,0.661648512497,0.260931494838,0.30315839141,1.0,-0.0009,-0.00118285714286,0.046
0.465059725662,0.54774792496,-0.12389654512,-1.35597029712,0.0795115064348,1.8941146299,0.159179574079,-0.000156355971531,-0.00265774353338,-0.000126726567648,-0.00968607156961,-0.000130386820942,0.000388354119227,0.00153581196555,0.573780189927,0.818995377219,0.00190069518815,0.0,0.818950875529,-0.573721137525,-0.0120111085932,0.0,-0.0087467418096,0.00844847481764,-0.999926056157,0.0,0.661631144237,0.260921408299,0.303170798352,1.0,-0.00124,-0.00162971428571,0.063
0.465058784444,0.547621425615,-0.123893760123,-1.35613564255,0.0795123142653,1.89414416565,0.159166809184,0.000403805147244,-0.0138427480541,0.000472371581583,-0.0128787424842,-0.000174742354633,0.00436944708548,-0.00109973771569,0.573777777179,0.81899706658,0.00190111817701,0.0,0.818952412864,-0.573718571108,-0.0120288624301,0.0,-0.00876106491815,0.00845898212695,-0.999925841932,0.0,0.661602029578,0.260906568331,0.303184189129,1.0,-0.00154,-0.002024,0.078
0.465046266148,0.547472441721,-0.123896573521,-1.3563412714,0.0795088301468,1.89422328529,0.159162047375,0.000209785506378,-0.00950569369532,0.000486221942607,-0.0100398399821,-0.000160289209478,0.00426765587392,-0.00111800051096,0.573796680469,0.818983768293,0.00192448862491,0.0,0.818939358561,-0.5737373121,-0.0120237517323,0.0,-0.00874327490702,0.00847539148835,-0.999925858693,0.0,0.661578707313,0.260879020936,0.303198813659,1.0,-0.00188,-0.00247085714286,0.095
0.465023574978,0.547285619602,-0.123893769049,-1.35655389758,0.0795078365981,1.89435596945,0.159147720261,-0.00147292739395,-0.010738567986,0.000837822331916,-0.0126243052525,-0.00118578391768,0.0137515637311,-0.00141619343941,0.573813504923,0.818971746338,0.00202167504251,0.0,0.81892856459,-0.573753681984,-0.0119777046568,0.0,-0.00864962473254,0.00852874033535,-0.999926219568,0.0,0.661566692162,0.260851719759,0.303241374428,1.0,-0.00222,-0.00291771428571,0.112
0.465000628575,0.547087399004,-0.123893789358,-1.35679970394,0.079502756373,1.89447888657,0.159132882643,0.000234955243075,-0.00852918196956,-2.71160508824e-05,-0.0183905758251,0.000470663367026,0.00245729316568,-0.00039308069144,0.57383272243,0.818958107888,0.00209071611608,0.0,0.818915788823,-0.573772572503,-0.0119462446503,0.0,-0.00858404362028,0.00856743147748,-0.999926453952,0.0,0.661546349517,0.260817492856,0.303275447452,1.0,-0.00254,-0.00333828571429,0.128
0.464961975738,0.546823449445,-0.123897284788,-1.35721201229,0.0794923607274,1.89462756809,0.159038128416,-0.00227019818167,-0.0148681496234,-0.000176837079148,-0.0262114908535,-0.000150162647688,0.0084174849154,-0.0174918688705,0.573809516199,0.81897434761,0.00209856547772,0.0,0.818932005764,-0.573749211834,-0.0119565360874,0.0,-0.00858821140273,0.00857952180602,-0.9999263145,0.0,0.661499849726,0.260752837348,0.303279157877,1.0,-0.00294,-0.003864,0.148
0.464917885698,0.546544877474,-0.123899709831,-1.35762177058,0.0794846272411,1.89478201737,0.158973989946,-0.00320576306398,-0.018040462817,-3.05461850349e-05,-0.0288421507066,-0.00415691448571,0.0156729130764,-1.40735986135e-05,0.573815658414,0.818969969607,0.00212742623837,0.0,0.818927866448,-0.573755096348,-0.0119576699709,0.0,-0.00857251601373,0.00860387254904,-0.999926239953,0.0,0.661456467315,0.260686527883,0.303294891721,1.0,-0.00328,-0.00431085714286,0.165
0.46486859309,0.546256972598,-0.123902246027,-1.35809197038,0.079469102937,1.8949456794,0.158951081332,-0.00322324582512,-0.0156268609101,-0.0007964146101,-0.0247180826524,8.04662274664e-05,0.00819177448484,-0.00643409209536,0.573861169951,0.818938105834,0.00211738917247,0.0,0.818895752744,-0.573800524329,-0.0119771164647,0.0,-0.00859372350939,0.0086072887843,-0.999926028512,0.0,0.661403073988,0.260609018657,0.303289239175,1.0,-0.00362,-0.00475771428571,0.182
0.464819936119,0.545957944264,-0.123902246135,-1.3586068839,0.0794476934313,1.89512628963,0.158882858121,-0.00559983816529,-0.0168305424113,-0.000804456191728,-0.0289593656816,-0.00229768809877,0.00699133595946,-0.00443237913971,0.57386823746,0.818933218603,0.00209198588831,0.0,0.818890423548,-0.573807586518,-0.0120031153429,0.0,-0.00862951865239,0.00860147946111,-0.999925770224,0.0,0.661342624378,0.260528433506,0.303271540884,1.0,-0.00394,-0.00517828571429,0.198
0.464759478595,0.545629894126,-0.12389695676,-1.359171402,0.0793816404126,1.89531337697,0.158766479394,-0.00169739389519,-0.0202738347132,0.000262579581262,-0.0324703581824,-0.00249564245579,0.0125138849138,-0.000763427316878,0.573832638207,0.818958310261,0.00203378584222,0.0,0.818914974982,-0.573772454467,-0.0120075453951,0.0,-0.00866691565762,0.00855598386378,-0.999925837106,0.0,0.661277145384,0.260430811742,0.303251064926,1.0,-0.00426,-0.00559885714286,0.214
0.464700222986,0.545264709133,-0.123905678609,-1.35982310562,0.0793284970831,1.89551242751,0.158726894757,-0.00145153736876,-0.0232061066771,-0.000549590116472,-0.0447344891503,-0.000257803428169,0.0260021095815,-0.00431007196136,0.573876899357,0.818927501604,0.00194894880345,0.0,0.818883161441,-0.573817172997,-0.0120402152196,0.0,-0.00874189138435,0.00850572649707,-0.999925613209,0.0,0.661197104741,0.260318912712,0.303216885199,1.0,-0.00458,-0.00601942857143,0.23
0.464625329657,0.544785473594,-0.123905415898,-1.36061493427,0.0793066182228,1.89578873794,0.158631329924,-0.00117748284228,-0.0309833833281,-0.000823811460236,-0.0413264838312,-0.00119601126307,0.0160957743038,-0.00556829650782,0.573898080235,0.818912698818,0.00193186910874,0.0,0.818867861716,-0.573838159453,-0.0120805093266,0.0,-0.00878447141034,0.00851509057884,-0.999925160347,0.0,0.661103447839,0.260197063819,0.303203176373,1.0,-0.00496,-0.00651885714286,0.249
0.464574251307,0.544385982732,-0.123906189343,-1.36128172936,0.0792829490491,1.8960364339,0.158512742389,-0.00135380383568,-0.0278682054652,0.000707713029804,-0.0426427753837,-0.00522041657794,0.0179419510851,-0.00798130510738,0.57387427494,0.81892940112,0.00192339393603,0.0,0.818884292024,-0.573814238222,-0.0121030240445,0.0,-0.00880802098796,0.00852081528178,-0.999924904417,0.0,0.661024786279,0.260101926197,0.303190040223,1.0,-0.00526,-0.00691314285714,0.264
0.464497054003,0.543844980647,-0.123907019158,-1.36214891037,0.0792437581511,1.89634100524,0.158430789614,-0.00142752133703,-0.0287887225961,-8.33270725247e-05,-0.0506217881081,-0.00108907183603,0.0197872924026,-0.00416573585151,0.57390874979,0.818905269078,0.00191156807653,0.0,0.818859857319,-0.573848617984,-0.0121261952031,0.0,-0.0088334245176,0.00852480001996,-0.999924646359,0.0,0.660922665901,0.259968917965,0.303186535326,1.0,-0.00562,-0.00738628571429,0.282
0.464431497206,0.543402328224,-0.123910048441,-1.36285288252,0.0792078522819,1.89657505471,0.158336959396,-0.00798490226343,-0.0305893295016,0.000249601079188,-0.0507712229858,-0.00733316091176,0.0140955095317,-0.00992607988373,0.573915453249,0.818900613304,0.00189339725265,0.0,0.818854898987,-0.573855339022,-0.0121429478749,0.0,-0.00885750187414,0.00851960707831,-0.999924477626,0.0,0.660832734,0.259846831643,0.303187212366,1.0,-0.00592,-0.00778057142857,0.297
0.464345081766,0.542806352475,-0.123910181373,-1.3637947156,0.079142909908,1.89692086319,0.15821305815,-0.00685352282598,-0.0363901072578,0.00151240924336,-0.056887483799,-0.00877325036175,0.0179347633101,-0.00713385279412,0.57392162131,0.818896305633,0.00188682673365,0.0,0.818850540949,-0.573861569891,-0.0121423675706,0.0,-0.00886073319028,0.0085139602943,-0.999924497093,0.0,0.660732428591,0.25970797663,0.303188260668,1.0,-0.00626,-0.00822742857143,0.314
0.464265064776,0.542178635521,-0.123910432214,-1.36477244657,0.079092355793,1.89728171069,0.158082339624,-0.00585482003567,-0.0335852717937,0.00101499175316,-0.0540052451466,-0.00280578388128,0.0259482372417,-0.00926670784726,0.5739211095,0.818896632972,0.0019003890864,0.0,0.818850958299,-0.573860913437,-0.0121452469568,0.0,-0.00885531331472,0.00852671319877,-0.999924436439,0.0,0.660619178306,0.259563464854,0.303198117577,1.0,-0.00662,-0.00870057142857,0.332
0.464190836438,0.541582599565,-0.123916433244,-1.36567955915,0.079033982566,1.89761381935,0.157964087298,-0.00563799957628,-0.0362230386765,-0.00105894216989,-0.0570268430019,-0.00842422611499,0.0228919941854,-0.00370257733258,0.573923977483,0.818894588797,0.00191504845895,0.0,0.818849160011,-0.573863767918,-0.012131608396,0.0,-0.00883570165909,0.00853092101254,-0.999924574037,0.0,0.660515747364,0.259424205607,0.303216772049,1.0,-0.00694,-0.00912114285714,0.348
0.464107247985,0.540911938645,-0.123913619683,-1.36671415409,0.0789811236179,1.89800209209,0.157829899254,-0.00502234804269,-0.0433266556121,8.92873679269e-05,-0.0620593439856,-0.00111239419823,0.0157441147057,-0.0102606451475,0.573923844469,0.818894620088,0.00194135047579,0.0,0.818849432279,-0.573863418535,-0.0121297578639,0.0,-0.00881909323196,0.00855139564153,-0.999924545767,0.0,0.66039600089,0.259274429384,0.303232025004,1.0,-0.00728,-0.009568,0.365
0.464015718354,0.540182645622,-0.123921752806,-1.36782419208,0.0789102512379,1.89840875815,0.157690908885,-0.0076106694064,-0.0481213931293,-0.00370528859548,-0.0661659670818,-0.00580591240433,0.0218913464492,-0.00303366842572,0.573933150729,0.818888054459,0.0019595051556,0.0,0.818843169333,-0.573872706878,-0.0121131019547,0.0,-0.00879493729517,0.00855680292687,-0.999924712267,0.0,0.66026941492,0.259103223945,0.303254628023,1.0,-0.00762,-0.0100148571429,0.382
0.463912396862,0.539455184031,-0.123918613118,-1.36896377779,0.0788457471804,1.89885533629,0.157569905732,-0.00783093659972,-0.0402835197633,-0.000464443425437,-0.0643464794409,-0.00352275070872,0.028666312342,-0.00133082223326,0.573962428508,0.818867459983,0.00199011116743,0.0,0.818822948738,-0.573901821171,-0.0121006271719,0.0,-0.00876685020217,0.00857501914818,-0.999924802865,0.0,0.66014380992,0.258930980964,0.303264869348,1.0,-0.00796,-0.0104617142857,0.399
0.463811444024,0.538746079513,-0.123919559791,-1.37007851899,0.0787860899698,1.8992873783,0.157415111692,-0.0136556043198,-0.0431523625231,0.000199934652653,-0.0737794775813,0.000300821261811,0.029483029349,-0.00464689853763,0.573964771757,0.818865755847,0.0020153373155,0.0,0.818821526271,-0.573904007083,-0.0120932076388,0.0,-0.00874627184558,0.00859144215071,-0.999924842101,0.0,0.660020395645,0.258760448273,0.303272731521,1.0,-0.00828,-0.0108822857143,0.415
0.463706072248,0.538004389254,-0.123925065211,-1.37122833383,0.0787159389283,1.89972719686,0.157279759375,-0.00513100315078,-0.0400913023947,-1.43640023825e-06,-0.0705951117376,-0.00502181441902,0.0299739121129,-0.0100199550859,0.573988826532,0.818848834752,0.0020395445561,0.0,0.818804969524,-0.573928001251,-0.0120755191747,0.0,-0.00871764091628,0.00860136790193,-0.999925006792,0.0,0.659893816503,0.258579465934,0.303287603348,1.0,-0.0086,-0.0113028571429,0.431
0.463602475999,0.53724157337,-0.123927837746,-1.37243255003,0.0786416715755,1.90016691358,0.1571230067,-0.00515273553713,-0.0449553838311,0.00194368214686,-0.0753487106635,-9.39408755768e-05,0.0262290215497,-0.0112541671791,0.573993662957,0.818845452911,0.00203618106447,0.0,0.818801549042,-0.573932856808,-0.012076674327,0.0,-0.00872046653964,0.00859932830672,-0.999924999695,0.0,0.659754061354,0.258394403506,0.303291275763,1.0,-0.00892,-0.0117234285714,0.447
0.463465199165,0.536299255245,-0.123931936231,-1.37390604379,0.0785653642797,1.90072284438,0.156954267514,-0.00881120795963,-0.0517741787938,-0.00168051484274,-0.0796948061233,-0.0100060130501,0.0351012754752,-0.0102405541046,0.574031476349,0.81881888058,0.00206200571032,0.0,0.818775222769,-0.573970463856,-0.0120742743794,0.0,-0.00870328102227,0.00861949868472,-0.999924975757,0.0,0.659588587543,0.258164310715,0.303303494247,1.0,-0.0093,-0.0122228571429,0.466
0.463340143036,0.535362649809,-0.123932894288,-1.37540542301,0.0784752151019,1.90126314886,0.156763927126,-0.00789123122525,-0.0535194514005,8.35112098921e-05,-0.0786431120166,-0.00315021940544,0.0314493772636,-0.010463203085,0.574036785382,0.818815208077,0.00204229051922,0.0,0.818771250292,-0.573975815407,-0.0120892483267,0.0,-0.00872680303609,0.00861200781689,-0.99992483529,0.0,0.659410331649,0.257937686007,0.303297688013,1.0,-0.00966,-0.012696,0.484
0.463226266794,0.534519695964,-0.123932798582,-1.37677344702,0.0784041346852,1.90177022372,0.156595901947,-0.00529372283821,-0.0556095949232,0.00223578222557,-0.0883237589721,-0.00173903413653,0.0434956364823,-0.0138993986972,0.574048387463,0.818807100148,0.0020318708906,0.0,0.81876287917,-0.573987336083,-0.012109195274,0.0,-0.00874899535294,0.00861505034741,-0.999924615152,0.0,0.659248961744,0.2577342451,0.303285258405,1.0,-0.00998,-0.0131165714286,0.5
0.46311406002,0.533713641561,-0.123940385105,-1.37807681677,0.0783212868767,1.90224335735,0.156430011297,-0.00549887335082,-0.0525787082617,0.000161845890384,-0.0849240929352,-0.00516264188512,0.0259685750666,-0.0103683449948,0.574058838099,0.818799836285,0.00200634026776,0.0,0.818755321881,-0.573997936638,-0.0121176948534,0.0,-0.00877050024755,0.00859913715977,-0.999924563737,0.0,0.659096546715,0.257530456505,0.30327469749,1.0,-0.01028,-0.0135108571429,0.515
0.4629868823,0.532763543052,-0.123938442205,-1.37959727824,0.0782451812962,1.9028281297,0.156246288609,-0.00614927252779,-0.0607575037398,-0.000351498795349,-0.0897561493759,-0.0115122846205,0.0401210729647,-0.00849169017169,0.574074045017,0.818789127172,0.00202557743434,0.0,0.818744721894,-0.574012917487,-0.0121242661458,0.0,-0.00876467842966,0.0086188232814,-0.999924445294,0.0,0.658920631927,0.257307121234,0.303271627823,1.0,-0.01062,-0.0139577142857,0.532
0.462847658888,0.531725107671,-0.123939191144,-1.38126102544,0.0781409246709,1.90342406131,0.156039683264,-0.00967070923392,-0.0633826851168,0.000275779398663,-0.0901637898473,-0.00328591379127,0.0306242205668,-0.00804340636384,0.574072916712,0.818789985122,0.00199836499391,0.0,0.818745192211,-0.574011877898,-0.0121417117913,0.0,-0.00879459609732,0.00860654533563,-0.999924288362,0.0,0.65870960857,0.257043852054,0.303263263362,1.0,-0.011,-0.0144571428571,0.551
0.46271626041,0.530716366861,-0.123944480892,-1.38289825409,0.0780559026673,1.90399715767,0.155818665787,-0.00723592250602,-0.057504184308,0.000140517178541,-0.0949157325065,-0.00407262784836,0.0338060441085,-0.0157632808638,0.574078486363,0.818786179731,0.001957109533,0.0,0.818740674413,-0.574017462273,-0.0121822809678,0.0,-0.00885143866414,0.00859611609927,-0.999923876513,0.0,0.658519090225,0.256809123551,0.303244906768,1.0,-0.01132,-0.0148777142857,0.567
0.462580685297,0.529727103056,-0.123949907922,-1.38444076125,0.0779518629635,1.90457092889,0.155609252982,-0.0132139873073,-0.06265182342,-0.00140868426011,-0.0937234308272,-0.00468869805348,0.0459687703236,-0.0154958945397,0.574077634283,0.818786753529,0.00196696798001,0.0,0.818741488531,-0.574016674388,-0.0121646777491,0.0,-0.00883137461472,0.0085940731784,-0.999924071482,0.0,0.658340960041,0.256568714618,0.303257513521,1.0,-0.01164,-0.0152982857143,0.583
0.462436273856,0.528575394595,-0.123944635698,-1.38622953299,0.0778351708923,1.90525266108,0.155364212167,-0.00958658193767,-0.0648346198953,0.00085748037837,-0.0972986182212,-0.000662093276891,0.0349420944744,-0.00870082110268,0.574057158884,0.818801027609,0.00200060534467,0.0,0.818756261519,-0.57399610976,-0.0121407209549,0.0,-0.00879266439485,0.00860764165476,-0.999924295913,0.0,0.658131117495,0.256306912595,0.303276079996,1.0,-0.012,-0.0157714285714,0.601
0.462306810103,0.527520828527,-0.123945557783,-1.38785466459,0.0777366543039,1.90587944216,0.155141010735,-0.0129689452935,-0.0625589546029,0.00136960541732,-0.1025363207,-0.011106482494,0.0353379783722,-0.00860593979523,0.574042580162,0.818811133365,0.00204717854503,0.0,0.818767002547,-0.573981354391,-0.0121139280705,0.0,-0.00874414521083,0.00863023892531,-0.999924526602,0.0,0.657942137986,0.256068721193,0.303299310465,1.0,-0.01232,-0.016192,0.617
0.462167396456,0.526426537406,-0.123948418959,-1.38954488285,0.077629484307,1.90652051755,0.154907460361,-0.00889391850379,-0.0621380054562,-0.00177513997125,-0.106712804318,-0.00257990979952,0.0422191874463,-0.0107548831224,0.57403429607,0.818816882257,0.00207054758989,0.0,0.818773141471,-0.573973053596,-0.0120922889873,0.0,-0.00871309959931,0.00863686363783,-0.999924740409,0.0,0.657731129549,0.2557938268,0.303316621784,1.0,-0.01266,-0.0166388571429,0.634
0.462013805176,0.525166218714,-0.123956904144,-1.39150077588,0.0775082498034,1.9072160513,0.154652820464,-0.0085059876146,-0.0699085510521,-0.000157539636557,-0.105679488802,-0.0114785900526,0.0390350057403,-0.00652932785745,0.574025626163,0.81882293868,0.00207906237466,0.0,0.818779283453,-0.573964322524,-0.012090837813,0.0,-0.00870711536075,0.00864291035063,-0.999924740289,0.0,0.657505434121,0.255521324279,0.303336752797,1.0,-0.013,-0.0170857142857,0.651
0.461858077132,0.524055828169,-0.123960344056,-1.39328355101,0.0774024023352,1.907853158,0.154394191339,-0.0104087014147,-0.0639431792314,0.000109717873314,-0.110806409978,-0.0017746435287,0.0401408425319,-0.0163934898451,0.57401095076,0.818833301096,0.00204946952418,0.0,0.818789184948,-0.573949703959,-0.0121142411417,0.0,-0.00874341997554,0.00863195674865,-0.999924518116,0.0,0.657289079204,0.255246050795,0.303324400215,1.0,-0.01332,-0.0175062857143,0.667
0.461692143897,0.522848955045,-0.123966160282,-1.39519974614,0.0772817170986,1.90859162647,0.154148410695,-0.0138865163663,-0.0735756253345,-0.000904258785195,-0.120077009185,-0.0107508883091,0.0430629453504,-0.0139824814085,0.574020053445,0.818826873122,0.0020680902137,0.0,0.818783083687,-0.573958807026,-0.0120953133836,0.0,-0.00871713687737,0.00863643599557,-0.999924708915,0.0,0.657067490568,0.254952606908,0.303324926083,1.0,-0.01366,-0.0179531428571,0.684
0.461522828646,0.521543002742,-0.123964043844,-1.39729872849,0.0771532941266,1.90940437506,0.153853614149,-0.0100860175115,-0.072013878236,0.000622432379443,-0.121942098059,-0.00709591149456,0.0483983603061,-0.0164596952709,0.573993670552,0.818845332505,0.00208194656065,0.0,0.818801736382,-0.573932379819,-0.0120866370101,0.0,-0.00870235730452,0.00864252099626,-0.999924785075,0.0,0.656819064503,0.254644989612,0.303313938927,1.0,-0.01402,-0.0184262857143,0.702
0.461367765903,0.520321537416,-0.123970200005,-1.39920326453,0.0770335033117,1.91010347059,0.15359683319,-0.0106829750452,-0.0802910337663,-0.000818977082434,-0.122625599395,-0.0064541161078,0.0399757662195,-0.014663543164,0.573983882562,0.818852168464,0.00209180858553,0.0,0.818808731195,-0.57392258048,-0.0120780890738,0.0,-0.00868980055327,0.00864558604864,-0.999924867782,0.0,0.656588672427,0.254357652435,0.30332615088,1.0,-0.01434,-0.0188468571429,0.718
0.4612026477,0.519080514075,-0.123970102407,-1.40115010415,0.0769110175564,1.91079622928,0.15333650934,-0.0103248579875,-0.0797750045128,-3.63558175436e-05,-0.123808242275,-0.0153890331969,0.0390462241834,-0.0218331465033,0.573976100304,0.818857655799,0.00207911517594,0.0,0.818814015348,-0.57391481674,-0.0120887674144,0.0,-0.00870591235709,0.00864123859422,-0.999924765213,0.0,0.656348169557,0.254061793767,0.303330873801,1.0,-0.01466,-0.0192674285714,0.734
0.461014887997,0.517642674187,-0.123975983212,-1.40339958938,0.0767636394874,1.91160091653,0.15303755287,-0.0136200435521,-0.0800019326527,-0.00193073919195,-0.125568414129,-0.00329188538824,0.0403709918914,-0.0156395006446,0.573968439248,0.818863057242,0.00206667212577,0.0,0.818819299463,-0.57390725526,-0.0120898341103,0.0,-0.00871400816556,0.00863158042199,-0.999924778111,0.0,0.656071319245,0.253717894785,0.303339174142,1.0,-0.01502,-0.0197405714286,0.752
0.460832589533,0.516293642672,-0.123981161941,-1.4055471524,0.0766207377904,1.91239973799,0.152731235175,-0.0148796710273,-0.087563589309,-0.00201353464078,-0.13025950639,-0.0125298625581,0.0474202695516,-0.0202119328944,0.573945485738,0.818879167765,0.00205788797026,0.0,0.818835394579,-0.573884440973,-0.0120827105467,0.0,-0.0087134578305,0.00862005464467,-0.999924882334,0.0,0.655812475046,0.253389275016,0.303332735963,1.0,-0.01536,-0.0201874285714,0.769
0.460660117136,0.515006971716,-0.123982825958,-1.40761269675,0.0765004791899,1.9131778567,0.152449739199,-0.011792589623,-0.0776632697128,0.000143520476847,-0.134059865657,-0.00893413755533,0.0515159457733,-0.0199586753614,0.573934018347,0.818887204738,0.00205800919996,0.0,0.818843368975,-0.57387291105,-0.0120899110392,0.0,-0.00871940560148,0.00862416445279,-0.999924795049,0.0,0.655562026302,0.253080331883,0.303319350543,1.0,-0.01568,-0.020608,0.785
0.460484287978,0.513660452369,-0.123988508483,-1.40976056982,0.0763706422603,1.91391316742,0.15215519575,-0.00868703065911,-0.083193686854,3.57478151513e-05,-0.13387785459,-0.0143839351243,0.0509946348803,-0.0220183817424,0.573918335363,0.818898333509,0.0020026511264,0.0,0.818853653412,-0.573857352924,-0.0121317636449,0.0,-0.00878561410737,0.00860268541579,-0.999924400537,0.0,0.655286537613,0.252753553887,0.303304734332,1.0,-0.016,-0.0210285714286,0.801
0.460304542925,0.512343269999,-0.123986516703,-1.41190341821,0.0762458747414,1.91466951272,0.151850292584,-0.0168564248248,-0.0844846414866,2.08878364941e-05,-0.132444814971,-0.0091258450284,0.0468882357526,-0.0146218067407,0.573892936826,0.818916266486,0.00194742068601,0.0,0.818870687409,-0.573832031436,-0.0121796510969,0.0,-0.0088567925558,0.00858466673481,-0.999923927468,0.0,0.655013853937,0.252431172658,0.3032731833,1.0,-0.01632,-0.0214491428571,0.817
0.460073745067,0.510627175323,-0.123989625088,-1.4146402604,0.0760770006752,1.91571346858,0.151459511768,-0.00978076729511,-0.0934994114183,4.28746337621e-06,-0.138369757198,-0.00621370864002,0.0492450195194,-0.0196527251841,0.573861758901,0.818938078051,0.0019628780887,0.0,0.81889272342,-0.573800809723,-0.0121690259155,0.0,-0.00883954784696,0.00859089060102,-0.99992402661,0.0,0.654683029925,0.252019533137,0.30326285682,1.0,-0.01672,-0.0219748571429,0.837
0.459905568982,0.509397942411,-0.123995587759,-1.41656758721,0.0759511137652,1.91642374199,0.151199017383,-0.0145309122261,-0.0927839629609,-0.000137129681687,-0.137846941335,-0.0123807661106,0.0475562023119,-0.0177610478478,0.573856652475,0.818941646305,0.00196704301406,0.0,0.818896410199,-0.57379574761,-0.0121596171382,0.0,-0.00882950595608,0.00858884701112,-0.999924132888,0.0,0.654447501068,0.251721317476,0.303267606758,1.0,-0.017,-0.0223428571429,0.851
0.459705098592,0.507974331217,-0.123996430394,-1.41881439537,0.075810768827,1.91723080123,0.150879896031,-0.0112972014848,-0.0936131657659,-0.000304326768342,-0.138254498493,-0.0154919909619,0.0514469270032,-0.0252672460007,0.573838634781,0.818954307513,0.00195200938845,0.0,0.818908821333,-0.573777747582,-0.0121731517349,0.0,-0.00884940587763,0.00858410775074,-0.999923997667,0.0,0.654167055333,0.25137392206,0.303264162179,1.0,-0.01732,-0.0227634285714,0.867
0.459488541,0.506419974004,-0.12400450984,-1.42124221128,0.075658275984,1.91812671656,0.150564253433,-0.0132635911487,-0.0937929307787,-0.00191623516191,-0.14943240842,-0.00796879239914,0.0572068321963,-0.0132566687553,0.573839814214,0.81895341359,0.00198012466158,0.0,0.818908340704,-0.573778845557,-0.0121537161931,0.0,-0.00881734348297,0.00859599234276,-0.99992417881,0.0,0.65385551579,0.250975249094,0.303279860441,1.0,-0.01768,-0.0232365714286,0.885
0.459244039608,0.50460017039,-0.124008811608,-1.42399706821,0.0754843818957,1.91919318147,0.150174199797,-0.00995455390252,-0.099920372476,0.000269307161931,-0.148041761874,-0.0116233253015,0.0501986655368,-0.0261685462991,0.573826723371,0.818962354599,0.00207369148698,0.0,0.818918597703,-0.573765437095,-0.0120954715402,0.0,-0.00871609116186,0.0086390556547,-0.999924695401,0.0,0.653541534994,0.250575132235,0.30332649336,1.0,-0.01804,-0.0237097142857,0.903
0.459032508878,0.503031160903,-0.124025351945,-1.4263241675,0.075333507549,1.9200735291,0.149848914862,-0.0129782248653,-0.0972979731182,-0.00358699713805,-0.14745441829,-0.0177566214829,0.0583653204804,-0.0219256244183,0.573824065316,0.818963966744,0.00217028579155,0.0,0.818921635133,-0.573762531569,-0.0120274593735,0.0,-0.00860499284117,0.00867910672195,-0.999925310813,0.0,0.653264256462,0.250207191187,0.303391483058,1.0,-0.01836,-0.0241302857143,0.919
0.458782584487,0.501214347,-0.124027223554,-1.42903382375,0.07515860649,1.92103706376,0.149465117554,-0.0150613559063,-0.101794727358,-0.000760618130333,-0.15402603492,-0.00750656795156,0.0516127912007,-0.0323573946998,0.573806648485,0.81897601239,0.00222894288838,0.0,0.818934444134,-0.573744870757,-0.0119977661294,0.0,-0.00854720267298,0.00870992377036,-0.999925538505,0.0,0.652924550647,0.24978259598,0.303453497249,1.0,-0.01872,-0.0246034285714,0.937
0.458543267628,0.499507773993,-0.124024446333,-1.43163857961,0.0749932406181,1.92197522506,0.149106153082,-0.00898228445364,-0.100512004232,0.00131657291149,-0.154036547233,-0.011055726146,0.0575881440662,-0.0213870618748,0.573794458106,0.818984461392,0.00226246452282,0.0,0.818943289015,-0.573732501743,-0.0119855213263,0.0,-0.00851807029637,0.00873022393599,-0.999925610067,0.0,0.652596705151,0.249378552518,0.303485529846,1.0,-0.01906,-0.0250502857143,0.954
0.458314136071,0.498036803998,-0.124029017062,-1.43397061515,0.0748488960051,1.92284351552,0.148764148523,-0.0125391262595,-0.105315347578,-0.000682899828786,-0.16007935509,-0.0163481475048,0.060515000868,-0.0317461048858,0.57378597092,0.818990407369,0.00226254568132,0.0,0.818949217416,-0.573723996211,-0.0119875921668,0.0,-0.00851981027493,0.00873139033185,-0.999925585059,0.0,0.652291060826,0.24897633733,0.303476716218,1.0,-0.01938,-0.0254708571429,0.97
0.458036537595,0.496261486704,-0.124033962687,-1.43680507935,0.0746781735339,1.92384594909,0.148345006838,-0.0194903130003,-0.104894232167,-0.000268613528761,-0.162905997777,-0.009977847308,0.0505975052147,-0.025237944044,0.573769658682,0.819001952339,0.00221985177153,0.0,0.818960060913,-0.573707715222,-0.0120259313882,0.0,-0.00857588030996,0.00871825234336,-0.99992522038,0.0,0.65195190121,0.248548691086,0.303452096047,1.0,-0.01972,-0.0259177142857,0.987
0.457797216563,0.494775311107,-0.124031850322,-1.43923352674,0.0745328853193,1.92467710237,0.148007428782,-0.0176996224865,-0.104642320238,0.000624721361353,-0.164003244861,-0.0136251580468,0.0654604060064,-0.0266890232458,0.573770611506,0.819001525316,0.00212927296002,0.0,0.818958224727,-0.573708823723,-0.0120978773456,0.0,-0.00868676456097,0.00868535930588,-0.999924549481,0.0,0.651635150403,0.248158671875,0.303403610478,1.0,-0.0203091428571,-0.0266920163265,1.002
0.457518737892,0.492864242516,-0.124090100025,-1.44223619905,0.0743470198455,1.92578703314,0.147577409168,-0.0141543928814,-0.127465670895,-0.00861277420816,-0.194403364892,-0.0131097128634,0.0775405225264,-0.0255983131466,0.573789097215,0.818988570583,0.00213074459711,0.0,0.818945501416,-0.57372751302,-0.0120728379096,0.0,-0.00866521629618,0.00867239343791,-0.999924848985,0.0,0.651270160991,0.247657658182,0.303402961567,1.0,-0.0259045714286,-0.0340460081633,1.019
0.45718280239,0.490505028001,-0.124093010478,-1.4459613886,0.0741364613886,1.92716945974,0.147028102869,-0.0191441820833,-0.148432144851,0.00139049008616,-0.230894003769,-0.0188763963112,0.0878445087226,-0.0323215403636,0.573746260404,0.819018519971,0.00215395382722,0.0,0.818975513825,-0.573684341667,-0.0120884565467,0.0,-0.00866514703718,0.00869990968034,-0.999924610557,0.0,0.650796953826,0.247086550184,0.303391234805,1.0,-0.0315,-0.0414,1.036
0.456742953438,0.487659566421,-0.124118549146,-1.45051333718,0.0738732905986,1.92881906797,0.146375950239,-0.024236459205,-0.177771896568,-0.00200309347981,-0.281860000232,-0.0138515798497,0.10485369291,-0.0407094516308,0.573746224941,0.819018660344,0.00210956745621,0.0,0.818974852387,-0.57368427651,-0.0121362656179,0.0,-0.00872977040324,0.00869098660764,-0.999924126052,0.0,0.650219001861,0.24635301598,0.303346544588,1.0,-0.0370954285714,-0.0487539918367,1.053
0.456223708235,0.484281237623,-0.124183931404,-1.45569398921,0.073551662453,1.93076560481,0.145579682928,-0.0288420174749,-0.210914165139,-0.00882782443929,-0.327482965613,-0.0158791251313,0.114991029757,-0.0454207880768,0.573735499026,0.819025888544,0.00221764582106,0.0,0.81898375745,-0.573673354943,-0.0120512971489,0.0,-0.00859828558086,0.00873064098274,-0.999924919878,0.0,0.649588225581,0.245488083768,0.303397186297,1.0,-0.0426908571429,-0.0561079836735,1.07
0.455613595786,0.480464366372,-0.124250847231,-1.46169860577,0.0731942137341,1.93285226584,0.144673434718,-0.0343328779982,-0.236710235862,-0.00430853955887,-0.36910756282,-0.0175743870598,0.135425867832,-0.0584452675823,0.57373832677,0.819024136686,0.00213138984908,0.0,0.818980675805,-0.573676346095,-0.0121181471503,0.0,-0.0087024946173,0.00869838003936,-0.999924299521,0.0,0.648813822175,0.244476145559,0.303369409962,1.0,-0.0482862857143,-0.0634619755102,1.087
0.454875354824,0.475872568547,-0.124326219896,-1.46877300011,0.0727696146243,1.9353926251,0.143666660107,-0.0422740589448,-0.260497540671,-0.00565378397505,-0.404427356342,-0.018621003401,0.15840757737,-0.0588401399746,0.573801199864,0.818979968048,0.00217758408857,0.0,0.818937047106,-0.573738947911,-0.0121028686368,0.0,-0.0086628089514,0.00872811287213,-0.999924385035,0.0,0.64791634889,0.243280415703,0.303404742731,1.0,-0.0542108571429,-0.071248555102,1.105
0.45412961459,0.471396394088,-0.12437338565,-1.47570667009,0.0723624726796,1.93788670865,0.14262868696,-0.048552320548,-0.28872247313,-0.00337729714893,-0.443312624392,-0.0222904264129,0.15929573925,-0.0668268337553,0.573819040224,0.818967361442,0.0022174017506,0.0,0.818924675142,-0.573756326366,-0.0121161586131,0.0,-0.00865065671959,0.00876853633631,-0.999924136577,0.0,0.647027305203,0.242112323981,0.303417457038,1.0,-0.0594771428571,-0.0781699591837,1.121
0.453209131297,0.465817684976,-0.124410680481,-1.48408253032,0.0718235576431,1.94101976332,0.14128204155,-0.0554916738514,-0.318650393862,-0.00300420297002,-0.480039917416,-0.0300787655082,0.174610523806,-0.0789118409334,0.573748147629,0.819016239348,0.00249192254397,0.0,0.818977374225,-0.573684558359,-0.0119513559612,0.0,-0.00835893806577,0.00889806784159,-0.999925473494,0.0,0.645973432653,0.240704402493,0.303553998691,1.0,-0.0654017142857,-0.0859565387755,1.139
0.452410832078,0.461168206302,-0.124446318127,-1.4913118259,0.0713543130939,1.94348584937,0.140191407831,-0.0626617994021,-0.341482685401,-0.006808096919,-0.526441270278,-0.0352179668514,0.182936909674,-0.0777856775399,0.573744671332,0.819018976445,0.00239065717612,0.0,0.818978550484,-0.573681237453,-0.0120299020227,0.0,-0.00848140616757,0.00886015971648,-0.99992477883,0.0,0.645003495635,0.239468102801,0.303531939359,1.0,-0.0700097142857,-0.0920127673469,1.153
0.451356747633,0.455175834905,-0.12450444675,-1.50061891025,0.0707408128546,1.94667025037,0.138779935458,-0.0673021755771,-0.35277006557,-0.00363338871026,-0.56354388803,-0.036894918232,0.1889921961,-0.089848690304,0.573756246547,0.819011218107,0.0022673915761,0.0,0.818968990724,-0.573693129115,-0.0121133290107,0.0,-0.00862033134825,0.00880719114275,-0.999924058752,0.0,0.64375261537,0.23785378136,0.303501727878,1.0,-0.0756051428571,-0.0993667591837,1.17
0.450078116993,0.447818464218,-0.124567730041,-1.51148046048,0.0699889963061,1.9507864402,0.137047138628,-0.0722277631374,-0.390637407473,-0.000488827037719,-0.589689354552,-0.0438081266328,0.217058843597,-0.0887790638462,0.573718781963,0.819036003034,0.00274442302308,0.0,0.819000877986,-0.573654735842,-0.0117708455815,0.0,-0.00806655035911,0.00900101335254,-0.999926953594,0.0,0.642375530741,0.235969342064,0.30373830327,1.0,-0.0818588571429,-0.107585926531,1.189
0.448913150688,0.441380674399,-0.124593990333,-1.52144030817,0.0693346652224,1.95418957449,0.135520497579,-0.0703274937273,-0.406148961022,-0.000244522888893,-0.636957799091,-0.0452545113267,0.214253986418,-0.101288663872,0.573707098917,0.819044519447,0.00264323993885,0.0,0.81900765367,-0.573642959536,-0.0118728726729,0.0,-0.00820829334664,0.00897655790395,-0.999926019928,0.0,0.641000997161,0.234246106391,0.303700911751,1.0,-0.0871251428571,-0.114507330612,1.205
0.447566188282,0.434068141616,-0.124631611384,-1.5325609907,0.0685747047945,1.95801300805,0.133710432869,-0.079745849145,-0.452007487873,-0.00055177283778,-0.656901673589,-0.0489767224028,0.233195156681,-0.115668941677,0.573633472023,0.819096088264,0.00264288981916,0.0,0.819059067921,-0.573569179626,-0.0118905988714,0.0,-0.0082238212113,0.00898570138951,-0.999925810216,0.0,0.639467459103,0.232290152859,0.303733990761,1.0,-0.0927205714286,-0.121861322449,1.222
0.446273983535,0.42735851246,-0.124656647294,-1.54280567108,0.0678501916171,1.9616640938,0.132043397071,-0.0906367880849,-0.446317317572,-0.00238690305038,-0.69042665126,-0.0469941185153,0.236538068397,-0.112442454578,0.573585693871,0.819129321529,0.00271169666303,0.0,0.819093403689,-0.573521376616,-0.0118310396193,0.0,-0.0081360920982,0.00900742133954,-0.99992633247,0.0,0.638071358409,0.230469218311,0.303745822426,1.0,-0.0976577142857,-0.128350138775,1.237
0.444684402762,0.419390193938,-0.124760108199,-1.5550502282,0.0669680425578,1.96574930264,0.130033008431,-0.095028089516,-0.471897472467,-0.0103710318611,-0.721942386302,-0.0466190592473,0.24398507274,-0.119017706081,0.573588188441,0.819128226614,0.00250705940651,0.0,0.819089736394,-0.573524749809,-0.0119210733921,0.0,-0.00832718741226,0.00889146470788,-0.99992579715,0.0,0.636347361528,0.228205435066,0.303689141626,1.0,-0.103253142857,-0.135704130612,1.254
0.442763256596,0.409954426168,-0.124855745701,-1.56915619895,0.0659901032068,1.97076317355,0.127674507327,-0.105503635576,-0.498043136702,-0.00292323609902,-0.753793257221,-0.0493858266293,0.259184734788,-0.120450619299,0.573611803775,0.819110848713,0.00276821106722,0.0,0.819076061755,-0.573547718497,-0.0117544276234,0.0,-0.00804063285187,0.00901002732136,-0.999927081157,0.0,0.634409802355,0.225590401002,0.303802510348,1.0,-0.109506857143,-0.143923297959,1.273
0.440986042633,0.401734173885,-0.124938731575,-1.58177148299,0.0651313401296,1.97487816822,0.125587277454,-0.11231863336,-0.515496359944,-0.0107844496222,-0.800306122916,-0.0557355552985,0.261787960295,-0.133416080574,0.573687948763,0.819058283299,0.00253237131693,0.0,0.819019722237,-0.573623969158,-0.0119575705929,0.0,-0.00834147895538,0.00893414820827,-0.999925297572,0.0,0.632578064937,0.22320030347,0.303707503937,1.0,-0.114773142857,-0.150844702041,1.289
0.438997095459,0.392521710054,-0.125068816525,-1.59534963733,0.0641176880252,1.97968145318,0.123253935258,-0.118988797753,-0.531484022896,-0.00582618446096,-0.805649376256,-0.0691468497333,0.277833689618,-0.136211508346,0.573750553274,0.819013428837,0.00283776380902,0.0,0.818979765814,-0.57368645405,-0.0116936960995,0.0,-0.00794946053296,0.00903350966972,-0.999927598269,0.0,0.630688608364,0.220578190631,0.303862695457,1.0,-0.120368571429,-0.158198693878,1.306
0.436869586178,0.38309172276,-0.125121509712,-1.60962882046,0.063046672016,1.98431845189,0.120722992067,-0.126977207064,-0.577281952344,-0.00762493798092,-0.85078199948,-0.0629773018337,0.276160370274,-0.152102453735,0.573699561127,0.819049853821,0.00262629385618,0.0,0.819013181358,-0.573635938793,-0.0118306968499,0.0,-0.00818355154254,0.008938406969,-0.999926564486,0.0,0.628565033961,0.217829149044,0.303794015985,1.0,-0.125964,-0.165552685714,1.323
0.434767962777,0.373832409981,-0.125191467355,-1.62333998262,0.0620610351788,1.98898945637,0.118281458364,-0.13632578652,-0.574575078411,-0.00334010316403,-0.869643138997,-0.0602345462069,0.290203759206,-0.158988793428,0.573704074274,0.81904612855,0.00279667124446,0.0,0.81901158623,-0.573639734687,-0.0117568410467,0.0,-0.00802526790385,0.00903562772498,-0.999926973587,0.0,0.626554974792,0.215173845421,0.303861610617,1.0,-0.131230285714,-0.172474089796,1.339
0.432344640014,0.363706266916,-0.125305486928,-1.63837643836,0.0608815772785,1.99393850576,0.115651536844,-0.144582751245,-0.613160059383,-0.00633714032642,-0.895542534707,-0.0653557333071,0.299753627765,-0.160357708012,0.573822027974,0.81896360361,0.00276461137213,0.0,0.818929056604,-0.573758249659,-0.011722546593,0.0,-0.00801427471905,0.00899084914357,-0.999927465386,0.0,0.624312224656,0.212152728851,0.303878149953,1.0,-0.136825714286,-0.179828081633,1.356
0.429648664104,0.352658573741,-0.125412215181,-1.65486441633,0.0596208518221,1.99927010296,0.112572212627,-0.155118054349,-0.622113993088,-0.00641026677109,-0.948691102641,-0.065927185371,0.300658099437,-0.170957797248,0.573798605241,0.818980437805,0.00263628855355,0.0,0.818944022481,-0.573735071927,-0.0118111042567,0.0,-0.00816068925076,0.00893633995354,-0.999926769808,0.0,0.621786676226,0.208841617681,0.303821315155,1.0,-0.142750285714,-0.187614661224,1.374
0.427073060811,0.342416569906,-0.125515785739,-1.66973503763,0.0585114052442,2.00411245733,0.109774799559,-0.160812985106,-0.646850130566,-0.00592794643157,-0.925810481612,-0.0720399800702,0.314375944705,-0.171472696069,0.573874952615,0.8189263758,0.00280654265674,0.0,0.818891946648,-0.573810538484,-0.0117555323615,0.0,-0.0080166461045,0.00904463489367,-0.999926961315,0.0,0.619509667173,0.205786439173,0.303927140544,1.0,-0.148016571429,-0.194536065306,1.39
0.424249348366,0.33143929707,-0.125562021209,-1.68603771212,0.0571995092003,2.00926392514,0.106644543024,-0.170579101923,-0.652418577611,-0.000257919486352,-0.959472426897,-0.076715219339,0.305904115472,-0.183791419416,0.573800321129,0.818979293131,0.00261835747514,0.0,0.818942144383,-0.573736308812,-0.0118810355248,0.0,-0.00822823374186,0.00896179782732,-0.999925988436,0.0,0.616917983356,0.202468596692,0.303834645936,1.0,-0.153612,-0.201890057143,1.407
0.421627962303,0.321315251108,-0.125569425095,-1.70062428273,0.0559586489568,2.01396228943,0.103763073162,-0.180870513702,-0.667271481111,7.35739821553e-05,-0.987620240464,-0.0776495395242,0.310334563185,-0.200170857446,0.573675762403,0.819066107634,0.00275279107624,0.0,0.819031200587,-0.573611813833,-0.0117527187292,0.0,-0.00804737503821,0.00899704487842,-0.999927143815,0.0,0.614598562355,0.1994771822,0.303926850664,1.0,-0.158549142857,-0.208378873469,1.422
0.418494195002,0.309644169109,-0.125643763885,-1.71748757333,0.0546097886159,2.01925871138,0.100356034574,-0.189113928571,-0.704623173161,-0.00884701196148,-0.99193828358,-0.0865297172627,0.317611931291,-0.206441285027,0.573612374781,0.819110277314,0.0028185100321,0.0,0.819075923261,-0.573547861612,-0.011757094708,0.0,-0.00801396099837,0.00905276301645,-0.999926909284,0.0,0.611868604073,0.195941765894,0.30396880448,1.0,-0.164144571429,-0.215732865306,1.439
0.414769187144,0.296309930406,-0.125718596657,-1.73684595223,0.0529547860098,2.0251572639,0.0964206382104,-0.203448165218,-0.709373348607,-0.00332879601737,-1.02808090576,-0.0828705286785,0.298453301093,-0.203292834757,0.573546869614,0.819156712034,0.00264884618332,0.0,0.819120065157,-0.573482889673,-0.0118507810482,0.0,-0.00818873653356,0.00896687407108,-0.999926267163,0.0,0.608657080617,0.191814239339,0.30391639146,1.0,-0.170398285714,-0.223952032653,1.458
0.411408096787,0.284701162442,-0.12584247414,-1.75327689746,0.0516204660067,2.03028270049,0.0929601993375,-0.214741133636,-0.726349150136,-0.00688140557037,-1.04279216043,-0.0827347828015,0.318707514169,-0.211531493169,0.573604058912,0.819115870914,0.00288453088316,0.0,0.819082188733,-0.573539101678,-0.0117479294849,0.0,-0.00796867766167,0.00910150313771,-0.999926828731,0.0,0.605953475827,0.188200345704,0.304030377518,1.0,-0.175664571429,-0.230873436735,1.474
0.407430769048,0.271426858463,-0.125981346079,-1.7721659222,0.0499767582783,2.03592770102,0.0888542156085,-0.22819599637,-0.763790717496,-0.00861542508911,-1.05279304962,-0.0959270572026,0.325265114469,-0.230540469597,0.573585095923,0.819129261967,0.00285251224316,0.0,0.81909518029,-0.573520273384,-0.0117613155625,0.0,-0.00799821812539,0.00908276921662,-0.999926763223,0.0,0.6027533737,0.183980813062,0.304050532962,1.0,-0.181589142857,-0.238660016327,1.492
0.404132273416,0.260951106224,-0.126125577156,-1.78715012757,0.0486538049134,2.04035048753,0.0855989924323,-0.239132506563,-0.759104765199,-0.0108353645976,-1.08557863134,-0.0919423034985,0.312632182391,-0.232387239915,0.573686760637,0.819058480951,0.00272989980041,0.0,0.819022778254,-0.573622338819,-0.0118257350815,0.0,-0.0081201934426,0.00902029143849,-0.999926345688,0.0,0.600185583315,0.180546525958,0.303994744185,1.0,-0.186197142857,-0.244716244898,1.506
0.400174847063,0.248645733999,-0.126293844946,-1.80436734086,0.0471021294373,2.04540567656,0.0817437821158,-0.253245780647,-0.764153689595,-0.010100221534,-1.08213326045,-0.101580938173,0.316762677657,-0.250112511965,0.573805078567,0.818975461662,0.00276982092859,0.0,0.818940685105,-0.573740950576,-0.0117568198381,0.0,-0.0080395420482,0.00901461553907,-0.999927048574,0.0,0.597025239335,0.176270751484,0.304050434952,1.0,-0.191792571429,-0.252070236735,1.523
0.395829922001,0.235368673063,-0.126395772345,-1.82288190062,0.0454692985444,2.05077543229,0.0774273076011,-0.262726093971,-0.814496286111,-0.00121277707112,-1.08680536933,-0.0978427733479,0.326884811146,-0.251760714794,0.573800852341,0.818978048422,0.00287836000377,0.0,0.81894414516,-0.573735730194,-0.0117705525977,0.0,-0.00798856002134,0.00911134460746,-0.999926580459,0.0,0.593939831473,0.172234171881,0.304099944269,1.0,-0.197058857143,-0.258991640816,1.539
0.391038242717,0.221140232888,-0.126470148677,-1.84286846901,0.0435786680234,2.05640919064,0.0726853733063,-0.272021599446,-0.774430255392,-0.00268146013069,-1.1167347163,-0.109144990732,0.300147148659,-0.272659223172,0.573692033488,0.819054863392,0.00270709569039,0.0,0.819018572029,-0.573627372584,-0.0118727838471,0.0,-0.00817175449533,0.0090286569847,-0.999925850142,0.0,0.59030977694,0.167579889667,0.30401254431,1.0,-0.202983428571,-0.266778220408,1.557
0.385899433577,0.206482813067,-0.126636987713,-1.86292162617,0.0417020891157,2.06210383436,0.0677421171041,-0.285453015229,-0.791827416162,-0.0121886505587,-1.12086342881,-0.0961762099939,0.306216145313,-0.278267481108,0.573746624352,0.819015954458,0.00290246246512,0.0,0.818982407865,-0.573681473704,-0.0117528395384,0.0,-0.00796082741835,0.00912039330595,-0.999926719141,0.0,0.586676011295,0.162720557615,0.304104729659,1.0,-0.208908,-0.2745648,1.575
0.381141572612,0.19320699942,-0.126780563946,-1.88099059601,0.0399686738061,2.06702558337,0.0631487632556,-0.30170182025,-0.81891800537,-0.00737758113363,-1.12807765283,-0.103796130031,0.313034297346,-0.28928040068,0.573731614102,0.819026242524,0.00296579463426,0.0,0.818993457939,-0.573666174025,-0.0117296007314,0.0,-0.00790562696039,0.00915878549844,-0.999926806177,0.0,0.583311626887,0.158301596633,0.304159145085,1.0,-0.214174285714,-0.281486204082,1.591
0.375695788191,0.178927559015,-0.127021673694,-1.90037125458,0.0381179678566,2.07219352571,0.0580581368786,-0.326500124936,-0.843884545347,-0.0162008027833,-1.13271227942,-0.10523613819,0.320925374527,-0.301876779632,0.57390163152,0.818907019951,0.00299281068815,0.0,0.818874244276,-0.57383567763,-0.0117615492521,0.0,-0.00791438607524,0.00920088504105,-0.999926350392,0.0,0.579673438769,0.153359913324,0.304177463568,1.0,-0.219769714286,-0.288840195918,1.608
0.370779570761,0.166174933546,-0.127118505458,-1.91771968114,0.0363394256008,2.07668070752,0.0534421501763,-0.331955280184,-0.836946300607,-0.00746875312003,-1.17984789899,-0.120003828497,0.29423189364,-0.311959911264,0.573856094869,0.818939609712,0.00280087971888,0.0,0.818904114551,-0.573790587535,-0.0118810659656,0.0,-0.00812291349659,0.0091118494754,-0.999925493462,0.0,0.576078055544,0.14871490565,0.30409694885,1.0,-0.225036,-0.2957616,1.624
0.365043361516,0.15136523469,-0.127233696628,-1.93732559822,0.0343328276968,2.08178403585,0.0479735005054,-0.343479259461,-0.863281481709,-0.00385810155403,-1.1764780481,-0.120323924434,0.304714812958,-0.321377965414,0.573735384345,0.819023333528,0.00303887934563,0.0,0.81899130904,-0.573669471318,-0.0117183742396,0.0,-0.00785446084835,0.0092122390857,-0.999926718363,0.0,0.572484928851,0.144038893068,0.304221755365,1.0,-0.230302285714,-0.302683004082,1.64
0.358223045235,0.134550979224,-0.127396832433,-1.95947341295,0.0320821147426,2.08726199532,0.0416262147331,-0.363172337299,-0.895453205307,-0.00725442470497,-1.17328557181,-0.120797141296,0.296758660371,-0.350049632197,0.573716751203,0.819035999806,0.00314122775391,0.0,0.819004784483,-0.573649875302,-0.01173586217,0.0,-0.00781027906877,0.00930592044415,-0.999926196969,0.0,0.568059984052,0.1382814574,0.304292267133,1.0,-0.236556,-0.310902171429,1.659
0.352135320111,0.120238420836,-0.127604423638,-1.97824078594,0.0300598161074,2.09179001453,0.036058053757,-0.384997087746,-0.921995883501,-0.0188850817023,-1.15722426948,-0.121846984722,0.287132316242,-0.351446464792,0.573770138296,0.818998606986,0.00313959475318,0.0,0.818967486131,-0.573703398606,-0.0117223712917,0.0,-0.00779955974406,0.00929735162253,-0.999926360349,0.0,0.564261898579,0.133235961431,0.304315447871,1.0,-0.241822285714,-0.31782357551,1.675
0.345310866542,0.104840640213,-0.127788316635,-1.99835895721,0.0278406535176,2.09652790383,0.0298638357655,-0.392242286113,-0.9150025919,-0.00413882522898,-1.18349747294,-0.125795755498,0.266228324087,-0.374672086903,0.573796239415,0.818980522431,0.00308648870693,0.0,0.818948766703,-0.573729743151,-0.0117407938342,0.0,-0.00784482213215,0.00926467784354,-0.99992630954,0.0,0.560118079112,0.127742871836,0.304294588558,1.0,-0.247417714286,-0.325177567347,1.692
0.338790574016,0.0901005726869,-0.127900889167,-2.01723240346,0.0257652632057,2.10089442879,0.0238192531557,-0.408344765157,-0.920096610055,-0.00976159484079,-1.18259202118,-0.120852641331,0.260018161257,-0.37391859713,0.573642810361,0.819087395983,0.00324203079655,0.0,0.819057690381,-0.573575848452,-0.0116615951479,0.0,-0.00769246314159,0.00934518039397,-0.999926744124,0.0,0.556148963346,0.122629611773,0.304371168564,1.0,-0.252684,-0.332098971429,1.708
0.331454228538,0.0742370478649,-0.12808602775,-2.03741728227,0.0234801159633,2.10534470093,0.0170817938669,-0.432139792725,-0.925420219729,-0.00694796921968,-1.18248998493,-0.149622928592,0.265018644745,-0.397997279243,0.573537682508,0.819160768619,0.003302847425,0.0,0.819131827422,-0.57347050694,-0.0116350279698,0.0,-0.00763701990381,0.00937877499514,-0.999926854578,0.0,0.551828329482,0.116987544163,0.304418421282,1.0,-0.258279428571,-0.339452963265,1.725
0.322748815212,0.0563309354099,-0.128375903752,-2.0600173943,0.020865406249,2.11013226586,0.00930276028553,-0.463527703436,-0.960359169486,-0.0213682487618,-1.17813494547,-0.135843786726,0.253271167716,-0.424147985252,0.57362399816,0.819100218671,0.00332977612961,0.0,0.819071563519,-0.573556646302,-0.0116316043222,0.0,-0.00761778107984,0.00939967328977,-0.999926805098,0.0,0.54691206985,0.110446937729,0.304445245994,1.0,-0.25998,-0.341688,1.744
0.315689801476,0.0424214028933,-0.128517602887,-2.07772739528,0.0188398365805,2.1136391226,0.00311138337861,-0.46834294303,-0.936781126096,-0.011317828275,-1.17785844191,-0.133295850555,0.216170305209,-0.416789720326,0.573711340778,0.819039909596,0.0031097995611,0.0,0.819007074077,-0.573643142547,-0.0119039708648,0.0,-0.00796606539946,0.00937657145298,-0.99992430799,0.0,0.542938787383,0.105314939709,0.304310185939,1.0,-0.25998,-0.341688,1.759
0.307007627571,0.0256357196425,-0.12871299188,-2.09836200798,0.0163224016,2.11770191016,-0.00457252917998,-0.490005804936,-0.915569383487,-0.0138362125739,-1.14546199095,-0.143095219574,0.21191526927,-0.432339758341,0.573718510016,0.819034442395,0.00322495549031,0.0,0.81900347939,-0.573650343138,-0.0118038750097,0.0,-0.00781793388248,0.00941353259007,-0.999925129854,0.0,0.538282031888,0.0991519350791,0.304391713613,1.0,-0.25998,-0.341688,1.777
0.29907993212,0.010820235175,-0.128898621606,-2.11630731132,0.0141260974381,2.12105434698,-0.0115605561719,-0.49862313707,-0.911211629866,-0.0134298030303,-1.1187800625,-0.138221868274,0.197501187307,-0.446391439614,0.573756251959,0.819007379068,0.00337983298743,0.0,0.818978565104,-0.573687718484,-0.0117157356424,0.0,-0.00765645267734,0.00949017005664,-0.999925654939,0.0,0.53415569403,0.0936659856925,0.304494017447,1.0,-0.25998,-0.341688,1.793
0.289884913866,-0.00561409643197,-0.129085932607,-2.13616906271,0.0117179532008,2.12458048392,-0.0196364967111,-0.507529839109,-0.906431138005,-0.00257082750681,-1.08198870389,-0.127235961481,0.2022498077,-0.453508316069,0.573818363664,0.818963440097,0.00348083437925,0.0,0.81893534787,-0.57374874765,-0.0117480841306,0.0,-0.00762427381918,0.00959202940155,-0.999924928893,0.0,0.529495138811,0.0874806525848,0.304532120657,1.0,-0.25998,-0.341688,1.811
0.281138716576,-0.0209568653607,-0.129232115456,-2.15471279559,0.00930156213572,2.12766537591,-0.0273710418141,-0.524794669599,-0.894944408906,-0.00894190316789,-1.08158705046,-0.135853772993,0.162725111125,-0.466779589174,0.57371473344,0.819036614706,0.00334294875783,0.0,0.819006510266,-0.573645332391,-0.0118370464608,0.0,-0.00777745725015,0.00952916821713,-0.999924350194,0.0,0.525026722512,0.0817102706839,0.304473830406,1.0,-0.25998,-0.341688,1.828
0.272593847905,-0.0354143427335,-0.129437094235,-2.17166740956,0.0070402784939,2.1304461455,-0.0347560438617,-0.539047305831,-0.905831156744,-0.0160849484949,-1.0757974857,-0.142721938488,0.16778006237,-0.456976952422,0.573814913102,0.818965751357,0.00350578185608,0.0,0.818938607918,-0.57374600542,-0.011654382316,0.0,-0.00753325667276,0.00955866252267,-0.999925938265,0.0,0.52091927048,0.0761966414782,0.304577516335,1.0,-0.25998,-0.341688,1.844
0.263846849502,-0.0496973712288,-0.129593573861,-2.18835071608,0.00495726160851,2.13291682476,-0.0423793267208,-0.547617188524,-0.902451490605,-0.00709890338602,-1.01483838029,-0.128603722685,0.160027310912,-0.473669982486,0.573893650851,0.818910049284,0.00362706437473,0.0,0.81888361047,-0.573823227187,-0.0117167975429,0.0,-0.00751385413353,0.00969452593842,-0.999924776252,0.0,0.516768901786,0.0707207995796,0.304622596172,1.0,-0.25998,-0.341688,1.86
0.25392356284,-0.0655106765309,-0.129752311317,-2.20689490863,0.00243912950444,2.13552533362,-0.0511557646646,-0.556808646107,-0.85469611125,-0.00675270293825,-1.03158624258,-0.138014699399,0.12239983612,-0.49431989884,0.573760912274,0.819003569655,0.00350932188783,0.0,0.818975227961,-0.573690427518,-0.0118159325128,0.0,-0.00766417409176,0.00965375377566,-0.999924029851,0.0,0.512054649202,0.064618373818,0.304553497521,1.0,-0.25998,-0.341688,1.878
0.2459424743,-0.077833574892,-0.129942445555,-2.22091038269,0.00051818235185,2.13740486431,-0.0580980942835,-0.580349292356,-0.868455656577,-0.0170999678891,-1.00274513768,-0.135582328769,0.128411286612,-0.504307014435,0.573824945693,0.818958118796,0.0036439345677,0.0,0.818931852568,-0.573754416742,-0.0117148205433,0.0,-0.00750336830476,0.00970657722994,-0.999924738079,0.0,0.508456196936,0.0598031777569,0.304629578465,1.0,-0.25998,-0.341688,1.892
0.235525602839,-0.0934215227491,-0.130082192239,-2.23877794589,-0.00185842172368,2.13949441985,-0.067233507892,-0.576763252328,-0.858416322356,-0.00512495508825,-0.976559392718,-0.131333747187,0.103806792499,-0.514579130548,0.573788545456,0.818983939018,0.00357206319428,0.0,0.818955312986,-0.573716445647,-0.0119324024055,0.0,-0.00772324322095,0.00977222409694,-0.999922424566,0.0,0.503728248795,0.0537014899013,0.304569980524,1.0,-0.25998,-0.341688,1.91
0.226063097598,-0.107204623492,-0.130266081485,-2.25429071519,-0.00411462774497,2.14124339163,-0.0754994772869,-0.599606130904,-0.829701401855,-0.00943925040584,-0.978747047811,-0.126302252678,0.0987903741523,-0.52487398074,0.5737619267,0.819002688126,0.00354897358633,0.0,0.818974042859,-0.57369026935,-0.011905413822,0.0,-0.00771470284273,0.00973757789721,-0.999922828491,0.0,0.499571273554,0.0482385636688,0.304573997238,1.0,-0.25998,-0.341688,1.926
0.215660700525,-0.121778403688,-0.130507736283,-2.27046151256,-0.00647922594458,2.14290687385,-0.0845052051969,-0.610432253202,-0.850660352455,-0.0128307626984,-0.953504877699,-0.128503789145,0.0974931016968,-0.541484958513,0.573879954837,0.818919820367,0.00358777751324,0.0,0.818891795213,-0.573808288478,-0.0118752982092,0.0,-0.00766636820331,0.00975318494764,-0.99992304813,0.0,0.494897480353,0.0420111136376,0.304598607871,1.0,-0.25998,-0.341688,1.944
0.203953669837,-0.137855841433,-0.130687096892,-2.28824527522,-0.00899107512743,2.14442016726,-0.0948500185102,-0.623704206584,-0.858677364607,-0.0161215626052,-0.908013760082,-0.130022406534,0.073807106029,-0.555765760588,0.573765310592,0.819000468938,0.00351385002939,0.0,0.818970266465,-0.573692403656,-0.0120613238978,0.0,-0.00786251223662,0.00979829659486,-0.999921084029,0.0,0.490161936791,0.0359290991663,0.304551318598,1.0,-0.25998,-0.341688,1.962
0.194393929039,-0.150486759348,-0.130910355495,-2.30181350091,-0.0110431975828,2.145641913,-0.103190484857,-0.647717407272,-0.823982493936,-0.0188168407214,-0.919968934614,-0.140289969763,0.0670819038158,-0.564277870263,0.573823811489,0.818958650906,0.00370248237699,0.0,0.818931948846,-0.57375153569,-0.0118484325447,0.0,-0.00757921730594,0.00983118311228,-0.999922948683,0.0,0.486331759869,0.0307614298495,0.304638758325,1.0,-0.25998,-0.341688,1.977
0.182794699452,-0.165461868253,-0.131079849653,-2.31786519082,-0.0134340203847,2.14663836845,-0.113384421862,-0.644721510641,-0.816131492223,-0.00531247080228,-0.879013259583,-0.121624052771,0.0576482086737,-0.565467331153,0.573774268899,0.81899342627,0.00368822149721,0.0,0.818965950278,-0.573701290012,-0.0119310110529,0.0,-0.00765562958491,0.00986642492668,-0.999922019457,0.0,0.48163447095,0.0246663300902,0.304653889158,1.0,-0.25998,-0.341688,1.995
0.17295316191,-0.177801151672,-0.131250918909,-2.33096379601,-0.0153622945733,2.1474066416,-0.122134172697,-0.665336612126,-0.808628199709,-0.00723308986187,-0.871089778381,-0.138316761183,0.036830085875,-0.582291740958,0.573704072045,0.819042263982,0.00376223756714,0.0,0.819015259802,-0.57363019896,-0.0119643618356,0.0,-0.00764133204004,0.00994552456514,-0.9999213452,0.0,0.477741805777,0.0195954592483,0.304665421444,1.0,-0.25998,-0.341688,2.01
0.161368498499,-0.191690938503,-0.131526975604,-2.34551161793,-0.0176833753779,2.14811845067,-0.132253543249,-0.67570581731,-0.809328752674,-0.008376700956,-0.828165603283,-0.133093450971,0.0497465489829,-0.598930216394,0.573797801945,0.818976469647,0.00379098263922,0.0,0.818950261061,-0.573724362498,-0.0118984320565,0.0,-0.00756970252227,0.0099321116066,-0.999922023341,0.0,0.473338355008,0.0136957934835,0.304694560984,1.0,-0.25998,-0.341688,2.027
0.149790663874,-0.205421870064,-0.131690663386,-2.35982381686,-0.0198311477601,2.14862571699,-0.142621317939,-0.690077972166,-0.80649856815,-0.0091923810414,-0.875320270941,-0.127082097502,0.0244621735866,-0.607474393788,0.573650980477,0.819079124234,0.00383245926633,0.0,0.81905259656,-0.573576285824,-0.0119931358992,0.0,-0.00762526630755,0.0100190527787,-0.999920733806,0.0,0.468893278347,0.00798801787684,0.304678326787,1.0,-0.25998,-0.341688,2.044
0.138434419282,-0.218223961454,-0.132010958424,-2.3728713278,-0.0218958464175,2.14896040242,-0.152525213825,-0.713712200002,-0.830387387846,-0.0194650357672,-0.808353082143,-0.144864224961,0.0273701146035,-0.615837198498,0.573870441595,0.818924800377,0.00395404751928,0.0,0.818899891707,-0.573795319653,-0.0119434253013,0.0,-0.00751209785163,0.0100921421422,-0.999920855394,0.0,0.464762744672,0.00242420317862,0.304728457399,1.0,-0.25998,-0.341688,2.06
0.12493834392,-0.233225459368,-0.132193415635,-2.38818967582,-0.0243882179431,2.14914100761,-0.164597125469,-0.718364376995,-0.79473743515,-0.014135918714,-0.813241803616,-0.129254992207,0.00500048645107,-0.650254529752,0.573687059061,0.819053606699,0.00388516673578,0.0,0.819027461243,-0.573611763074,-0.0120129053054,0.0,-0.00761078260731,0.0100739005173,-0.999920293082,0.0,0.459782663721,-0.00397051977577,0.30469112302,1.0,-0.25998,-0.341688,2.079
0.113136082735,-0.245763385589,-0.132502360032,-2.40054269506,-0.0263727008733,2.14921787306,-0.175034327704,-0.746981568526,-0.779120659907,-0.0246556720974,-0.781335809604,-0.124409529705,-0.00130970186061,-0.650056512146,0.573835756914,0.818948184903,0.00414022128814,0.0,0.818925992311,-0.573760393687,-0.0118311730116,0.0,-0.0073137634795,0.0101798809413,-0.999921436358,0.0,0.455690119701,-0.00950360097819,0.304799084145,1.0,-0.25998,-0.341688,2.095
0.0990014733024,-0.260338021353,-0.132705737635,-2.41513244036,-0.0287389120188,2.14911135331,-0.187705472048,-0.75015950031,-0.766668510522,-0.0220146351932,-0.769628661022,-0.119854790898,-0.0109796129821,-0.670129587872,0.573728946124,0.819023043278,0.00413495600039,0.0,0.819000196962,-0.573652805412,-0.0119114701325,0.0,-0.00738388157054,0.0102206817644,-0.999920504819,0.0,0.450723117301,-0.0159227410787,0.304742435583,1.0,-0.25998,-0.341688,2.114
0.087527701616,-0.271744469617,-0.132993818855,-2.42608815026,-0.03064142953,2.14894224158,-0.197921670148,-0.773219044931,-0.771765912549,-0.0159182236021,-0.720061938013,-0.116403144562,-0.0217251640726,-0.688898191959,0.573810737798,0.818964730266,0.00433066612511,0.0,0.818945760393,-0.573735826205,-0.0116529036625,0.0,-0.00705879470118,0.0102333389344,-0.99992272311,0.0,0.446908194364,-0.0210997665384,0.304849929217,1.0,-0.25998,-0.341688,2.129
0.0728368278787,-0.285899722442,-0.133205301816,-2.43991332037,-0.0329434525395,2.14845002187,-0.211207380306,-0.779404712716,-0.737700785197,-0.00852005406952,-0.736922368658,-0.114761174707,-0.0362981016015,-0.705218777575,0.573670205679,0.8190632799,0.00431109454631,0.0,0.819043360194,-0.573594374405,-0.0117564737357,0.0,-0.00715661414572,0.0102755099047,-0.999921595311,0.0,0.441945335751,-0.0275146515994,0.304799683868,1.0,-0.25998,-0.341688,2.148
0.0609009809933,-0.29692736169,-0.133496275318,-2.45034291953,-0.0347343557967,2.14798576926,-0.221904219926,-0.813000828208,-0.754950564564,-0.0243522823441,-0.690378486014,-0.119342851868,-0.0297978467346,-0.711339581439,0.573773189824,0.818990309271,0.0044661908131,0.0,0.818972851257,-0.573697506876,-0.0116355665533,0.0,-0.00696730785761,0.0103340641239,-0.999922328854,0.0,0.438101075216,-0.0326864224728,0.304860852368,1.0,-0.25998,-0.341688,2.163
0.0472698817764,-0.309247508794,-0.133690687185,-2.46205318911,-0.0367578959681,2.14729428976,-0.234226702309,-0.809746807986,-0.734741564894,-0.0117005864218,-0.696407661804,-0.113051546965,-0.0474657400222,-0.721212995593,0.573696614805,0.819043901723,0.00447527783379,0.0,0.819026375487,-0.573620640037,-0.0116578077074,0.0,-0.00698127898608,0.0103536147404,-0.999922029163,0.0,0.433674598355,-0.0384251130474,0.304844069004,1.0,-0.25998,-0.341688,2.18
0.0349147166058,-0.319906227633,-0.133991256046,-2.47208996516,-0.0385306029271,2.14649968271,-0.245375811323,-0.83100914666,-0.71759679002,-0.0253575547972,-0.651424666981,-0.112941295515,-0.0545377150518,-0.757068500482,0.573773610975,0.818990089802,0.00445230910198,0.0,0.818971506323,-0.573696577574,-0.011775211776,0.0,-0.00708964375335,0.0104028203591,-0.999920756,0.0,0.429749525961,-0.043590344024,0.304813566831,1.0,-0.25998,-0.341688,2.195
0.0183162166981,-0.333916807309,-0.134224016451,-2.48495343889,-0.0407361359584,2.14553070446,-0.260586155874,-0.846322100521,-0.707942930768,-0.0123002278834,-0.65300783751,-0.10141817223,-0.0538928681594,-0.755732555052,0.573636241233,0.819085052202,0.00467834430523,0.0,0.819070067281,-0.573559518221,-0.0115952940315,0.0,-0.00681435430871,0.0104835745103,-0.999921826565,0.0,0.424624909091,-0.050323804116,0.304876780492,1.0,-0.25998,-0.341688,2.215
0.0063168191914,-0.343523083825,-0.134520479986,-2.4937834176,-0.0424247273679,2.14456477635,-0.271406714774,-0.857012264073,-0.683193239683,-0.0194274461268,-0.633350862533,-0.124280786245,-0.0771235661573,-0.772750895712,0.573742098299,0.819011403893,0.00459040668599,0.0,0.818994859794,-0.573664991183,-0.0116895005701,0.0,-0.00694061228996,0.0104664795775,-0.999921137243,0.0,0.420944231186,-0.0551731074048,0.30485042983,1.0,-0.25998,-0.341688,2.229
-0.010050838874,-0.356335479649,-0.134746236563,-2.5051711041,-0.0445175223664,2.14331203839,-0.286484352147,-0.866913109709,-0.65321399394,-0.0115640247289,-0.598668153146,-0.107545314026,-0.0648021443057,-0.792951524393,0.573592159287,0.819115520766,0.00474819409226,0.0,0.819102114745,-0.573516288545,-0.0114690581333,0.0,-0.00667144531843,0.0104680191836,-0.999922953228,0.0,0.416087588718,-0.0616004746644,0.304952056819,1.0,-0.25998,-0.341688,2.248
-0.0250528418558,-0.367480766829,-0.135080084232,-2.51522945562,-0.046354322591,2.14200497961,-0.300280532514,-0.87583190869,-0.654065659959,-0.00951028139066,-0.588366772592,-0.109454767211,-0.0790399741596,-0.811301524188,0.573610165376,0.819102923747,0.00474609188221,0.0,0.819088496248,-0.573532745826,-0.0116177312941,0.0,-0.00679420937071,0.0105517211851,-0.999921246849,0.0,0.411630875815,-0.0674197303896,0.304907601008,1.0,-0.25998,-0.341688,2.265
-0.0402489898686,-0.37839524442,-0.13533614327,-2.52491617327,-0.048181013685,2.14058791039,-0.314257661896,-0.909051217737,-0.649712058048,-0.0279299722053,-0.548455937148,-0.101392626936,-0.0796115058981,-0.824986239443,0.573586245635,0.819119827439,0.00471953551782,0.0,0.819104479118,-0.573508022662,-0.0117109833926,0.0,-0.00688613979254,0.0105832554393,-0.999920284714,0.0,0.407188948427,-0.0731882685925,0.304889279102,1.0,-0.25998,-0.341688,2.282
-0.0539247462398,-0.387791557303,-0.135580296081,-2.5329936774,-0.0497699462574,2.13945535265,-0.326867546419,-0.907681057624,-0.620316519763,-0.0111501657213,-0.540587648448,-0.104069875678,-0.0834752491955,-0.841850956206,0.573591109292,0.819115669735,0.00484828183563,0.0,0.819103301823,-0.573514551918,-0.0114711194493,0.0,-0.00661574087933,0.0105511789324,-0.999922449291,0.0,0.403364847056,-0.0783301126593,0.304968738559,1.0,-0.25998,-0.341688,2.297
-0.0677716855434,-0.396958437419,-0.135868927214,-2.54100867964,-0.051354107236,2.13808848659,-0.339720177859,-0.929822045206,-0.603231457704,-0.027153986051,-0.524527207422,-0.104782649216,-0.0847816122535,-0.86048227289,0.573568257705,0.819131973036,0.00479702027923,0.0,0.819118282616,-0.573490811112,-0.0115877330011,0.0,-0.00674096532984,0.0105758864596,-0.999921351913,0.0,0.399429490842,-0.0834580736696,0.304934717578,1.0,-0.25998,-0.341688,2.312
-0.0836345054981,-0.407069622163,-0.136132929875,-2.54975401011,-0.0529175001165,2.1364772574,-0.354535483075,-0.929177407487,-0.589471600838,-0.0161643900653,-0.497739934313,-0.0797211102461,-0.0868127061836,-0.882863414628,0.573538066908,0.819152699689,0.00486696010431,0.0,0.81913847272,-0.573458139919,-0.011775872429,0.0,-0.00685537179008,0.01074083217,-0.999918815906,0.0,0.394986541404,-0.0891963352773,0.304902059411,1.0,-0.25998,-0.341688,2.329
-0.101833412424,-0.418024278411,-0.136508066556,-2.55886928209,-0.0548344433698,2.13486990031,-0.371402638266,-0.954206998443,-0.560408528991,-0.00802631739125,-0.479106607901,-0.106756181404,-0.0868341648259,-0.883408684183,0.573638948001,0.819081203889,0.00500856010461,0.0,0.819070648523,-0.573561511186,-0.0114548031685,0.0,-0.00650982200138,0.01067349131,-0.999921846346,0.0,0.390127424434,-0.0957709659856,0.305002812174,1.0,-0.25998,-0.341688,2.348
-0.117244441689,-0.426886709157,-0.136745075704,-2.56646317447,-0.0563187054255,2.13320822502,-0.385927616101,-0.970522116633,-0.544668666927,-0.0244840162409,-0.462556599386,-0.0942466430706,-0.108135857368,-0.910962301989,0.573526264252,0.819160571468,0.00493247070242,0.0,0.819147334999,-0.573446343397,-0.0117337850161,0.0,-0.006783477354,0.0107702614776,-0.99991898967,0.0,0.385913128318,-0.101173145798,0.304927842673,1.0,-0.25998,-0.341688,2.364
-0.133886800848,-0.436003135934,-0.137037221822,-2.5741304347,-0.0579012301151,2.1315701462,-0.401520587625,-0.982127708174,-0.519409632166,-0.00994450180415,-0.447179693908,-0.0809958819757,-0.0928813718037,-0.928878137072,0.573533918744,0.81915528173,0.00492091103701,0.0,0.819141398992,-0.573453250181,-0.0118103858746,0.0,-0.00685275947727,0.0108047868693,-0.999918144784,0.0,0.381478522447,-0.10696030481,0.304895382064,1.0,-0.25998,-0.341688,2.381
-0.149863156151,-0.444301605921,-0.137394609807,-2.58076110901,-0.0592495985678,2.13006403493,-0.416531082932,-1.01145307931,-0.512965772535,-0.0229213652989,-0.403579334849,-0.085736597116,-0.0966426621257,-0.937910673002,0.573666709063,0.819060952982,0.00513897989732,0.0,0.819050800972,-0.573586764591,-0.0116084371976,0.0,-0.00656049309096,0.0108686688212,-0.999919412737,0.0,0.377384799259,-0.112493465845,0.304997894506,1.0,-0.25998,-0.341688,2.397
-0.165914922393,-0.452241847051,-0.137591658154,-2.58731620996,-0.060603305226,2.12850787086,-0.431743868779,-1.00212831724,-0.490361606988,-0.0177264296213,-0.415051153395,-0.0864316353222,-0.103272669977,-0.959800040778,0.573574255234,0.819125701372,0.00513867561798,0.0,0.819115150212,-0.573493674613,-0.0116671664483,0.0,-0.0066100052003,0.010901363242,-0.999918730753,0.0,0.373228726529,-0.117902564012,0.304973932174,1.0,-0.25998,-0.341688,2.413
-0.183222078804,-0.460348450812,-0.137908997368,-2.59395013264,-0.0620819043274,2.12674418397,-0.44818186676,-1.0032287802,-0.469884584004,-0.00412077668731,-0.377495646284,-0.0841853878408,-0.0858771593261,-0.985815584192,0.573530394905,0.819156780699,0.00507953299366,0.0,0.819144512757,-0.573448470259,-0.0118264990237,0.0,-0.00677503688281,0.0109439389393,-0.999917161107,0.0,0.368765455796,-0.123701784643,0.304937873596,1.0,-0.25998,-0.341688,2.43
-0.198720088198,-0.467103646966,-0.138185814448,-2.59949484983,-0.063219397905,2.12534918712,-0.462919047172,-1.04285367788,-0.442230272132,-0.0249216089862,-0.366291309245,-0.0772960236635,-0.0850349951256,-0.987935401276,0.573569459105,0.81912900978,0.00514663192844,0.0,0.819116781322,-0.573485940596,-0.0119298531833,0.0,-0.00682069909206,0.0110585049279,-0.999915590204,0.0,0.364855789491,-0.128828635755,0.304890923405,1.0,-0.25998,-0.341688,2.445
-0.220649673196,-0.476213399238,-0.138466083569,-2.60650824625,-0.0648471514145,2.12340338142,-0.483800304413,-1.04588091066,-0.416831812659,-0.0119130507382,-0.31783617877,-0.0713448905705,-0.0918355796379,-1.009672145,0.573547171548,0.819144005277,0.00524285500434,0.0,0.819134781621,-0.573466224716,-0.0116381076552,0.0,-0.00652681151378,0.0109698198199,-0.999918528573,0.0,0.35947977824,-0.136011320206,0.305012332459,1.0,-0.257785714286,-0.338804081633,2.466
-0.237399157031,-0.482561078329,-0.138656779908,-2.61158167766,-0.0658996879937,2.12194961733,-0.499796351016,-1.03868154005,-0.391377033083,-0.00531497167564,-0.312374331781,-0.0680267777428,-0.099011770808,-0.999538749108,0.573570303173,0.819127381913,0.00530908836669,0.0,0.819118356572,-0.57348802325,-0.0117197277141,0.0,-0.00655537749787,0.0110710726684,-0.999917225762,0.0,0.355373526663,-0.141389052098,0.304989066415,1.0,-0.252519428571,-0.331882677551,2.482
-0.25515621686,-0.488774257065,-0.138798522649,-2.61660967001,-0.0669010936442,2.12035133676,-0.516696640557,-1.04553101751,-0.350421689686,-0.00284678831436,-0.281816533397,-0.0670598271348,-0.09276242214,-0.991253135116,0.573664460174,0.81906128197,0.00533389280081,0.0,0.819050532392,-0.573578647148,-0.0120211407928,0.0,-0.00678677463824,0.0112650458689,-0.999913515476,0.0,0.351033659601,-0.146995448813,0.304912264616,1.0,-0.246924,-0.324528685714,2.499
-0.270669997865,-0.493852743405,-0.138803378226,-2.62060352364,-0.0677126302793,2.11920790744,-0.531499569363,-1.03048292946,-0.331369740921,-0.000101453115984,-0.258496018126,-0.0488931666992,-0.0646189993267,-0.988313708249,0.573676966985,0.819052117315,0.00539569956994,0.0,0.819042367938,-0.573591240792,-0.0119764314786,0.0,-0.00671452482455,0.0112901268083,-0.999913720374,0.0,0.347355125095,-0.151841099843,0.3049101358,1.0,-0.241986857143,-0.318039869388,2.514
-0.28809980532,-0.499106406809,-0.138789460515,-2.62465047639,-0.0685574930154,2.11790350733,-0.548105296113,-1.00358700422,-0.296464335709,0.0112962515191,-0.228647216849,-0.0453289267669,-0.0742805387846,-0.967452526554,0.573749236202,0.819001149306,0.0054477789479,0.0,0.818992144817,-0.573663411742,-0.0119542318275,0.0,-0.00666546647902,0.0113206375028,-0.999913703638,0.0,0.343269840934,-0.157245362922,0.304928180123,1.0,-0.236391428571,-0.310685877551,2.531
-0.306243634679,-0.504149139384,-0.138770453007,-2.62848791902,-0.0692421969523,2.11664348686,-0.565465245758,-1.00135005761,-0.260186673336,0.00322716964345,-0.207531271845,-0.0387166741998,-0.0683658013973,-0.957220275412,0.573864279498,0.81891936935,0.00562157636376,0.0,0.818912644917,-0.573777807853,-0.0119102523404,0.0,-0.00652812625942,0.0114386685765,-0.999913266453,0.0,0.339062537957,-0.162812374887,0.304958608056,1.0,-0.230466857143,-0.302899297959,2.549
-0.323047194834,-0.508417448667,-0.13868339319,-2.6316902217,-0.0698904680106,2.1156079299,-0.58168135497,-0.981504115524,-0.243303481266,0.00477803182439,-0.183044386769,-0.0378091619726,-0.0599979591573,-0.947654662455,0.573820468973,0.818949466908,0.00570849713469,0.0,0.818944672466,-0.57373510675,-0.0117642519009,0.0,-0.00635928504579,0.0114257318399,-0.999914502418,0.0,0.335216801374,-0.167930346252,0.305003595018,1.0,-0.224871428571,-0.295545306123,2.566
-0.338738714353,-0.512049452168,-0.138625694789,-2.63446654873,-0.0704623781777,2.11460126654,-0.596690484111,-0.970665879573,-0.217724102561,0.0117132627912,-0.169805685265,-0.0337939649022,-0.0606612632499,-0.935928002984,0.573932486385,0.818870665523,0.00575161880777,0.0,0.818866114724,-0.573846377273,-0.0118054372143,0.0,-0.00636670319089,0.0114855508122,-0.999913769889,0.0,0.331602221397,-0.172669367812,0.305003005967,1.0,-0.219605142857,-0.288623902041,2.582
-0.354034418194,-0.515192107079,-0.138483804585,-2.63697945087,-0.0708640995317,2.11368099154,-0.611504340549,-0.963654548338,-0.189631178031,-0.000138245042648,-0.149310912945,-0.0300559707401,-0.051427180198,-0.925838059761,0.573908968679,0.818886651733,0.00582187122061,0.0,0.818881715864,-0.573820255827,-0.0119915106594,0.0,-0.00647910512275,0.0116496837026,-0.999911149086,0.0,0.328095243634,-0.177215016033,0.304947286537,1.0,-0.214338857143,-0.281702497959,2.598
-0.370051363928,-0.518114856187,-0.138310692354,-2.63932019881,-0.0712698063889,2.11288176966,-0.626926639295,-0.914191289827,-0.164414083335,0.0105947662093,-0.128333685714,-0.0196536272698,-0.0432421851269,-0.898294886622,0.573963796712,0.818847853851,0.0058736026425,0.0,0.818842867284,-0.573873556383,-0.0120932577469,0.0,-0.00653195867531,0.0117508760009,-0.99990962113,0.0,0.32446766845,-0.181962175853,0.304897027478,1.0,-0.208743428571,-0.274348506123,2.615
-0.385806092247,-0.520656291103,-0.1381653384,-2.64128890472,-0.0716246462878,2.11213581659,-0.642076535451,-0.91420133635,-0.143883257247,0.00938493959069,-0.111878208553,-0.0214878316991,-0.0414842896123,-0.892684610001,0.574089427381,0.818759281743,0.0059426282628,0.0,0.818754708444,-0.573997985999,-0.0121567418397,0.0,-0.00654251452629,0.0118448398821,-0.999908443445,0.0,0.320926520952,-0.186629530563,0.304877035968,1.0,-0.203148,-0.266994514286,2.632
-0.400122971874,-0.522746670592,-0.137911078127,-2.64285879415,-0.0718712234665,2.11151284273,-0.65608154828,-0.895587450458,-0.125583513625,0.0153092846813,-0.0872403275257,-0.0219562910989,-0.0373034153757,-0.866577344314,0.573967213107,0.818844575495,0.00599552849668,0.0,0.818840651952,-0.573875492146,-0.0121512602769,0.0,-0.00650943202315,0.0118840362644,-0.999908194274,0.0,0.317741843277,-0.190818994939,0.304884342691,1.0,-0.197881714286,-0.260073110204,2.648
-0.416981351329,-0.524907582548,-0.137683838867,-2.64440578739,-0.0721413267772,2.11086539981,-0.672307381722,-0.87413830446,-0.098415184723,0.0211527961271,-0.0709920872316,-0.0155178113566,-0.0332728382584,-0.848845643863,0.574117625389,0.818738492841,0.00608107387619,0.0,0.818736156206,-0.574026371271,-0.0120655918729,0.0,-0.00638799072325,0.0119060932351,-0.999908715093,0.0,0.314004296387,-0.195767526167,0.30492378653,1.0,-0.191628,-0.251853942857,2.667
-0.431530852972,-0.526452072431,-0.137446703784,-2.64554590636,-0.072324645525,2.11042047848,-0.686496733673,-0.854061868559,-0.0900164970861,0.00327096854643,-0.0647323051203,-0.0161231106647,-0.0239588026708,-0.833466147085,0.574099556281,0.818750702432,0.00614277188853,0.0,0.818749519929,-0.57400870171,-0.0119992032549,0.0,-0.00629847284202,0.0119183582644,-0.99990913686,0.0,0.310793801487,-0.200013015515,0.304938967673,1.0,-0.186032571429,-0.24449995102,2.684
-0.444927348947,-0.527618682822,-0.137188003487,-2.64643978718,-0.0724544406219,2.11002344458,-0.699543393787,-0.812398183391,-0.0719197756529,0.0260033150336,-0.0493586764189,-0.00504593787629,-0.0179377548405,-0.816391753985,0.574095522412,0.818753271522,0.00617725011093,0.0,0.818752354476,-0.574004174393,-0.0120223425731,0.0,-0.00629768621307,0.0119598413766,-0.999908646499,0.0,0.307835108629,-0.203892592798,0.30493195574,1.0,-0.180766285714,-0.237578546939,2.7
-0.457950768682,-0.528547087239,-0.136913474007,-2.64714568822,-0.0725179136167,2.10972049988,-0.712192470528,-0.819232343035,-0.0570053993453,0.01418865468,-0.041223126752,-0.00780949596745,-0.0165102440312,-0.780807665082,0.574139783425,0.818721808661,0.00623345908417,0.0,0.818721670331,-0.574048274425,-0.0120063342112,0.0,-0.0062516615937,0.0119970131368,-0.999908490015,0.0,0.304974809333,-0.207650995894,0.304931503932,1.0,-0.1755,-0.230657142857,2.716
-0.470690463545,-0.529215572084,-0.1366112059,-2.64767414504,-0.072575392603,2.10944736962,-0.724576546524,-0.770280801663,-0.0370143444112,0.0202367123464,-0.0265844139967,-0.00208502263872,-0.0159625354845,-0.767832020605,0.574162388316,0.818705851859,0.00624714944084,0.0,0.818705660739,-0.574070371939,-0.0120414300106,0.0,-0.00627220657076,0.0120285444111,-0.999907982538,0.0,0.302180293182,-0.211314792397,0.304919836428,1.0,-0.170233714286,-0.223735738776,2.732
-0.486056272047,-0.529736984438,-0.136249428757,-2.64810455318,-0.0725916864367,2.10919611402,-0.739577912382,-0.764013639776,-0.0224749452925,0.0107024670682,-0.0192105539564,0.000244613420891,-0.0127698261264,-0.737052134965,0.574173761924,0.818697605201,0.00628245627196,0.0,0.818697562222,-0.574080988573,-0.0120858211208,0.0,-0.0062881151669,0.0120830256492,-0.999907225746,0.0,0.298816139935,-0.215729480292,0.304902376127,1.0,-0.163650857143,-0.215083983674,2.752
-0.497920830571,-0.529947981059,-0.135892082439,-2.6482852179,-0.0725953468645,2.10904953657,-0.751232405844,-0.732596949029,-0.0109929720282,0.0285050169786,-0.0109499615395,0.000356438850366,-0.00587092978607,-0.714891515301,0.574081858036,0.818762224318,0.00625996849539,0.0,0.818761757756,-0.573988955368,-0.0121082638267,0.0,-0.00632075794027,0.0120767899197,-0.999907095267,0.0,0.296232595547,-0.219118602877,0.304893941026,1.0,-0.158384571429,-0.208162579592,2.768
-0.509436617659,-0.530048478204,-0.135578207479,-2.64839481409,-0.0725991614203,2.10894308412,-0.76249392187,-0.723283537647,-0.00372724409057,0.014953376279,-0.00493641729969,-0.00472510603735,-0.00442253386221,-0.696508574549,0.574061025716,0.81877695032,0.00624429977832,0.0,0.818776113136,-0.573967881196,-0.0121365075185,0.0,-0.00635318741879,0.0120800120341,-0.999906850821,0.0,0.293702876207,-0.222404203229,0.304879777126,1.0,-0.153118285714,-0.20124117551,2.784
-0.522044051357,-0.530021173884,-0.135229304288,-2.64837735268,-0.0725889544336,2.10886402467,-0.774773112202,-0.670568855826,0.00698940878307,0.0205171888941,0.00454379817143,0.00249102065577,-0.00213602182996,-0.669943509875,0.574089227698,0.818757345538,0.00622211140815,0.0,0.818756271759,-0.573996277412,-0.0121321009727,0.0,-0.0063619004886,0.0120595334002,-0.999907042618,0.0,0.290932062568,-0.2259989851,0.304879978456,1.0,-0.147193714286,-0.193454595918,2.802
-0.531379760759,-0.529874534708,-0.134921289875,-2.64828801893,-0.0725633324366,2.10886556922,-0.783986958847,-0.668586249682,0.0154052107011,0.0203744315303,0.00854979254655,0.000103273197866,-0.000615027363411,-0.64160709702,0.573988113221,0.818828513852,0.0061852797368,0.0,0.818827078298,-0.573895573748,-0.0121174741395,0.0,-0.0063725513693,0.0120201920796,-0.999907448503,0.0,0.288889512441,-0.228648079043,0.304875138377,1.0,-0.142585714286,-0.187398367347,2.816
-0.542572945644,-0.529633558201,-0.134632655352,-2.64810595137,-0.0725237039344,2.10886640199,-0.794827306579,-0.648184767369,0.0250399350291,0.0185196373149,0.0149450408603,-0.00184427039893,0.000987713788461,-0.624958449151,0.574100907366,0.818749480176,0.00617930217135,0.0,0.818748112127,-0.574008644641,-0.0120975893503,0.0,-0.00635804453978,0.0120047601388,-0.999907726245,0.0,0.28641107606,-0.231834315105,0.30487745245,1.0,-0.136990285714,-0.18004437551,2.833
-0.554244572136,-0.529128320127,-0.134139293248,-2.64774057095,-0.0724192049703,2.10891344518,-0.806443307432,-0.6040327384,0.0278718855251,0.0219823403208,0.0204513832289,0.00931740115328,0.00558018381836,-0.590333971343,0.573864140593,0.818915980269,0.00610837971128,0.0,0.818913703602,-0.573772269936,-0.012102694171,0.0,-0.00640639411132,0.0119477680732,-0.999908100253,0.0,0.283877485334,-0.235119968524,0.304875801783,1.0,-0.130736571429,-0.171825208163,2.852
-0.563898637484,-0.528600554707,-0.133819426609,-2.64738357554,-0.0723048554638,2.10898509665,-0.815820332593,-0.595665589063,0.0335830893918,0.0182462607917,0.022229061982,0.00594762277203,0.00457595421766,-0.575085263217,0.573934751541,0.818866510239,0.00610624955164,0.0,0.818864009904,-0.573842510432,-0.0121348014732,0.0,-0.00643288081563,0.0119650026252,-0.999907724121,0.0,0.281754690944,-0.237849683141,0.304859683695,1.0,-0.125470285714,-0.164903804082,2.868
-0.573103495915,-0.52796677461,-0.133471961743,-2.64689844386,-0.0721374722531,2.10910898135,-0.824872609333,-0.55815959655,0.0454186517177,0.0283301417575,0.0330312244307,0.0185834668776,0.0118500524284,-0.557931106819,0.57391336399,0.818881420937,0.00611686016611,0.0,0.818879305879,-0.573821541142,-0.0120941401413,0.0,-0.00639380363697,0.0119501889382,-0.999908151912,0.0,0.279761275106,-0.240458524786,0.304868155934,1.0,-0.120204,-0.1579824,2.884
-0.581813207092,-0.52722087568,-0.133103134849,-2.64637937253,-0.0719646452063,2.10921426704,-0.833487120054,-0.547530073927,0.0451526146085,0.0196181243357,0.035482768058,0.01642947112,0.004012615748,-0.523093887829,0.57383431238,0.818936863241,0.00611088052883,0.0,0.818934287495,-0.573741819558,-0.0121533598927,0.0,-0.00644689083732,0.0119786551352,-0.999907470429,0.0,0.277871404683,-0.242911751171,0.304849861287,1.0,-0.114937714286,-0.151060995918,2.9
-0.591386078894,-0.526364962146,-0.132751836581,-2.64573378875,-0.0717467172765,2.10936208637,-0.842728366261,-0.521955359273,0.0505679999426,0.0185879546832,0.0381593389163,0.0138669263665,0.0129902846448,-0.504099147251,0.573987077493,0.818829543112,0.00614500605619,0.0,0.818827417223,-0.573894408119,-0.0121497339176,0.0,-0.00642210010447,0.0120057208488,-0.999907305352,0.0,0.27578343181,-0.245622315497,0.30485182908,1.0,-0.109013142857,-0.143274416327,2.918
-0.59932562004,-0.525477100897,-0.132369878234,-2.645086048,-0.0715281332579,2.10952244375,-0.850576759424,-0.47821443321,0.0618786078098,0.0270912878867,0.0387502851072,0.0245830646837,0.00974313890296,-0.476563699616,0.57392154829,0.818875460313,0.00614685342755,0.0,0.818873204793,-0.573828597495,-0.0121721842782,0.0,-0.00644038671993,0.0120196038273,-0.999907020949,0.0,0.274082632147,-0.247862351981,0.304844664586,1.0,-0.103746857143,-0.136353012245,2.934
-0.607303587089,-0.524518360533,-0.131955981923,-2.64440154794,-0.0712933737826,2.10967520684,-0.858540234485,-0.471023649811,0.062208321729,0.0258386366175,0.0372291390462,0.0178414494046,0.00642991661616,-0.463924064637,0.573779448409,0.818975046426,0.00614530840729,0.0,0.818972345797,-0.573685744443,-0.0122356178236,0.0,-0.0064953149016,0.0120536157572,-0.999906256222,0.0,0.272368111573,-0.250099249757,0.304828118465,1.0,-0.0981514285715,-0.128999020408,2.951
-0.615038041707,-0.523616760545,-0.131578187247,-2.6436801591,-0.071037576596,2.10984848197,-0.865987443991,-0.444457433667,0.0570784089056,0.0194777835347,0.0429384900872,0.0205541204506,0.00862638338449,-0.431305251623,0.573896419223,0.818892904559,0.0061690978015,0.0,0.818890815657,-0.573803141749,-0.0121874301137,0.0,-0.00644047634381,0.0120463719623,-0.999906698241,0.0,0.270704562373,-0.252277212344,0.304849825697,1.0,-0.0925560000001,-0.121645028572,2.968
-0.621880786692,-0.522685082423,-0.131239035932,-2.64295204706,-0.0707934767437,2.11001716725,-0.872649676911,-0.407013425571,0.0616776187103,0.024851803095,0.0482416900605,0.0218033390008,0.00856321361553,-0.413956435969,0.573948535659,0.818856199525,0.00619272271501,0.0,0.818854493818,-0.573855279686,-0.012173037117,0.0,-0.00641436378102,0.0120578678033,-0.999906727531,0.0,0.269241546159,-0.254214543388,0.3048619031,1.0,-0.0872897142858,-0.11472362449,2.984
-0.628527944483,-0.521754170976,-0.130805992964,-2.64223218927,-0.0705134043582,2.11020572901,-0.879299328005,-0.389988095765,0.0480713339979,0.0249022056768,0.0434612633265,0.0159708655354,0.0142404552083,-0.380237996944,0.573798941521,0.818960979632,0.00619963304655,0.0,0.818959522401,-0.573705984599,-0.0121445792675,0.0,-0.00638929296669,0.0120460271711,-0.999907030761,0.0,0.267839511451,-0.256067295049,0.304874258923,1.0,-0.0816942857144,-0.107369632653,3.001
-0.635380451381,-0.520799239087,-0.130399477567,-2.64148729617,-0.0702510588835,2.11039339403,-0.885883766658,-0.376371058346,0.051616713749,0.0189417416733,0.0403473655328,0.0103023213158,0.00548845217563,-0.351870812741,0.573883160631,0.818901950336,0.00620165949001,0.0,0.818900694844,-0.573790507424,-0.012118270272,0.0,-0.00636534436739,0.0120332461879,-0.999907337395,0.0,0.266369837602,-0.257980582361,0.304888103537,1.0,-0.0757697142858,-0.0995830530613,3.019
-0.641326937707,-0.519870131201,-0.130031268999,-2.64074394471,-0.0699679912952,2.11058677232,-0.891688388893,-0.343754689314,0.0622146795955,0.01460421442,0.0435332300286,0.0159204165927,0.0120053425712,-0.332695769804,0.573899484438,0.818890294244,0.00623014096299,0.0,0.818889721268,-0.573807292652,-0.0120649161372,0.0,-0.00630506379881,0.0120260790869,-0.999907805546,0.0,0.265116783723,-0.259652507935,0.304909981598,1.0,-0.0701742857144,-0.0922290612246,3.036
-0.646551066532,-0.519008962706,-0.12973677256,-2.64012262051,-0.0697003480391,2.11076256982,-0.896718667421,-0.322230123659,0.0540988771995,0.0156356308759,0.0375586254711,0.0170661342925,0.0122761406215,-0.306027554106,0.573997601222,0.818821062024,0.00629039572687,0.0,0.818821090118,-0.573904768496,-0.0120866032142,0.0,-0.00628679821711,0.0120886226817,-0.999907166376,0.0,0.263995538185,-0.261112683204,0.304897812773,1.0,-0.0649080000001,-0.085307657143,3.052
-0.651294180065,-0.51821258451,-0.129327837933,-2.63953837872,-0.0694439207635,2.11092760452,-0.901420391601,-0.290087828496,0.0478353448855,0.0279167233978,0.0349922358835,0.0144661096497,0.00646435997104,-0.289714361217,0.573879775084,0.818903715335,0.00628137416492,0.0,0.818903598588,-0.573786956006,-0.012090171138,0.0,-0.00629663673206,0.0120823772243,-0.999907179955,0.0,0.262950041016,-0.262486170351,0.304896346681,1.0,-0.0593125714286,-0.0779536653062,3.069
-0.656796173028,-0.517288107174,-0.128811733975,-2.63884669499,-0.0691283119293,2.11114036424,-0.906686549249,-0.26606024831,0.0458885251417,0.0250533977247,0.0345043459003,0.00892165546506,0.0121419858756,-0.249974053946,0.573881514177,0.818902595337,0.00626848761604,0.0,0.818902430137,-0.573788981315,-0.0120731825872,0.0,-0.00629009253483,0.0120620882787,-0.9999074661,0.0,0.261872346039,-0.263901407584,0.304898813072,1.0,-0.0530588571429,-0.0697344979593,3.088
-0.660798552776,-0.516530816154,-0.12844798707,-2.63831182215,-0.0688934717073,2.11129655919,-0.910580939461,-0.240805407321,0.0539673709076,0.0261091425561,0.03578010385,0.017015092351,0.0126888217754,-0.227101434851,0.573840883313,0.818931083706,0.00626639288914,0.0,0.818930670662,-0.573747946403,-0.0121077474819,0.0,-0.00632020239856,0.0120798944167,-0.999907061277,0.0,0.261044367391,-0.264993802263,0.304884888845,1.0,-0.0477925714286,-0.0628130938777,3.104
-0.664378307247,-0.515850069028,-0.128097300244,-2.63782923657,-0.0686507549993,2.11144376373,-0.913988700521,-0.218783785701,0.0413575127762,0.0232081133679,0.0279378048836,0.0125035547127,0.00643343901609,-0.203423149261,0.573862272463,0.81891600761,0.00627786793404,0.0,0.818915605602,-0.573769014192,-0.0121283203486,0.0,-0.00633015145816,0.0121012624843,-0.999906739966,0.0,0.260310753363,-0.265962053499,0.3048741716,1.0,-0.0425262857144,-0.055891689796,3.12
-0.667655448936,-0.515282646419,-0.127766207533,-2.63742764799,-0.068427786287,2.11155937137,-0.917068179746,-0.198758318737,0.0349698454325,0.0205100451532,0.0290231713533,0.00751739234162,0.00978089607605,-0.176847177729,0.573905671391,0.818885499541,0.00629014205185,0.0,0.818885110607,-0.573812066595,-0.0121505043795,0.0,-0.00634063451541,0.0121243804754,-0.999906393495,0.0,0.259627673161,-0.266832162164,0.304865146972,1.0,-0.0372600000001,-0.0489702857144,3.136
-0.670743812541,-0.514747547857,-0.127389608523,-2.63701460056,-0.0681913704714,2.11167757683,-0.91993889596,-0.171455619412,0.028757799231,0.0237021949606,0.0260434536123,0.00954505725009,0.00388445727312,-0.164624865412,0.573939073387,0.818862127792,0.00628511002501,0.0,0.818861825749,-0.573845776051,-0.0121277590971,0.0,-0.00632440054407,0.0121074645948,-0.999906701277,0.0,0.259007433861,-0.267644485315,0.304874456566,1.0,-0.0316645714286,-0.0416162938777,3.153
-0.673615111192,-0.514210992346,-0.126961399259,-2.6366108711,-0.0679158532662,2.11179978082,-0.922670856536,-0.142935310242,0.0248836086013,0.0214802540591,0.018506737181,0.00800762139544,0.00510750745444,-0.12569299528,0.573887770808,0.818898065783,0.00628739006944,0.0,0.818897899016,-0.573794676587,-0.0121097897522,0.0,-0.00630913392407,0.0120986237,-0.999906904733,0.0,0.258456742636,-0.268382460517,0.304880470858,1.0,-0.0254108571429,-0.0333971265307,3.172
-0.675651591808,-0.513863280961,-0.126573282596,-2.63634252831,-0.0676861663913,2.11186275971,-0.924453131965,-0.118157341688,0.0212282754487,0.0267038503464,0.0162348859536,0.0157161079572,0.000707900225296,-0.10368871475,0.573932156147,0.818867022285,0.00627908078928,0.0,0.818866789242,-0.573839170274,-0.0121051657249,0.0,-0.00630945997785,0.0120895073508,-0.99990701294,0.0,0.258080195947,-0.268876160076,0.304888625517,1.0,-0.0201445714287,-0.0264757224491,3.188
-0.677578854712,-0.513540974729,-0.126234137327,-2.63608185741,-0.0674679521119,2.11194413864,-0.926225574845,-0.104491060749,0.0181309106996,0.0188692223962,0.012367241593,0.00795817858307,0.00825802215347,-0.0974031521638,0.573924499951,0.818872363768,0.00628228576496,0.0,0.818872425041,-0.573831986277,-0.0120644077665,0.0,-0.00627435438708,0.0120686821333,-0.999907485415,0.0,0.257721745398,-0.269353864912,0.304903016647,1.0,-0.01963,-0.0257994285714,3.206
-0.678909785001,-0.513282273221,-0.126057424415,-2.63588687074,-0.0673453531707,2.11200218025,-0.927493211698,-0.0960071164866,0.0205074003096,0.00572960333109,0.0114015708521,0.0054859843485,-1.5688024082e-05,-0.0820779430914,0.573913210117,0.81888022408,0.00628909897349,0.0,0.818880413247,-0.573820744078,-0.0120569219887,0.0,-0.00626448013793,0.0120698791516,-0.999907532878,0.0,0.257460937427,-0.269702100834,0.304905143744,1.0,-0.01935,-0.0254314285714,3.22
-0.680455909295,-0.512967999912,-0.125894339784,-2.63563583313,-0.0672466906071,2.11207200752,-0.929031360642,-0.0929459162079,0.0194494817853,0.00483933609447,0.0159737995102,0.00233615047945,0.00200957426021,-0.0910399763236,0.573858900423,0.818918370002,0.00627794391107,0.0,0.818918531633,-0.57376672212,-0.0120388552736,0.0,-0.00625688490223,0.012049960858,-0.999907820669,0.0,0.25714929819,-0.270126212029,0.304912814766,1.0,-0.01901,-0.0249845714286,3.237
-0.682018912136,-0.512635468969,-0.125775433623,-2.63539097872,-0.067189043919,2.11214520744,-0.930524600313,-0.0902014720921,0.0191668384619,0.00744219267038,0.0132102254091,0.0019547593456,0.0016762763806,-0.086408751006,0.573868864754,0.818911560765,0.00625528681779,0.0,0.818911409081,-0.573776748531,-0.0120454897324,0.0,-0.006275173482,0.0120352889769,-0.999907882766,0.0,0.256817347862,-0.270566279521,0.304910106351,1.0,-0.01865,-0.0245114285714,3.255
-0.683521384143,-0.512324343648,-0.125709642686,-2.63514327604,-0.0671446079526,2.11218255545,-0.932077835984,-0.0840660640256,0.0181908456955,0.00303214100951,0.0202277532534,-0.000911426319259,-5.73324433653e-05,-0.094226633365,0.573812316769,0.818951214128,0.00625147207788,0.0,0.818950900813,-0.573720015064,-0.0120628883192,0.0,-0.00629244352921,0.0120417144233,-0.999907696874,0.0,0.256483369155,-0.270998934345,0.304912255258,1.0,-0.01829,-0.0240382857143,3.273
-0.68471451204,-0.512063216756,-0.125683788052,-2.63493422198,-0.0671023653803,2.1122413068,-0.933263363244,-0.0773510997329,0.0184419239393,0.00445876036109,0.0121293944545,0.000712600010937,0.00518110855276,-0.0848231147705,0.573829003966,0.81893944753,0.00626118101093,0.0,0.818939344361,-0.573736816306,-0.0120483515309,0.0,-0.0062747210947,0.0120414528657,-0.999907811395,0.0,0.256219166068,-0.271354419082,0.304916208311,1.0,-0.01799,-0.023644,3.288
-0.686292713919,-0.511716676617,-0.125665786578,-2.63465922666,-0.0670454234751,2.11232872835,-0.934865940109,-0.0785860907708,0.0217245815922,0.00141559130507,0.0132654216917,0.00608151115235,-0.000593002265765,-0.0717254741574,0.573834784342,0.818935236755,0.00628213184919,0.0,0.818935556449,-0.573742792549,-0.0120212013806,0.0,-0.00624037767496,0.0120430765099,-0.999908006766,0.0,0.255866488107,-0.271828585082,0.304920736265,1.0,-0.01759,-0.0231182857143,3.308
-0.687231553755,-0.511507882985,-0.125664820677,-2.6345040067,-0.0670171688796,2.11233970066,-0.935799210095,-0.0803433437294,0.0196067613975,5.92130430619e-05,0.0155601893893,0.00539173304092,-0.000914957404132,-0.0759920354953,0.573871624714,0.818909245714,0.00630496108116,0.0,0.818909630191,-0.573779075668,-0.0120555716307,0.0,-0.00625488475541,0.0120817764376,-0.999907449265,0.0,0.255625104731,-0.272128154666,0.304915074427,1.0,-0.01733,-0.0227765714286,3.321
-0.688596505606,-0.511227644455,-0.125658463238,-2.63429340965,-0.0669867649339,2.11238141993,-0.937138991582,-0.0768737164412,0.0109680932966,0.00151668398217,0.00916992701636,0.0039823099981,0.00120741377767,-0.0687622042162,0.573898915397,0.818890026814,0.00631710317048,0.0,0.818890430298,-0.573806037433,-0.0120764842818,0.0,-0.00626464121277,0.0121039296028,-0.999907120266,0.0,0.25532461904,-0.272506240223,0.304910491849,1.0,-0.01699,-0.0223297142857,3.338
-0.68986107289,-0.510964191689,-0.125634990981,-2.63408575194,-0.0669576821397,2.11246937169,-0.938451582188,-0.0780868127933,0.0209511006446,0.00437589476804,0.0105916505484,0.00103155788492,0.00597616572557,-0.0755349130011,0.573866012357,0.818913105759,0.00631442633685,0.0,0.818913716816,-0.573773622529,-0.0120374998191,0.0,-0.00623473512688,0.0120791149214,-0.999907607262,0.0,0.255041220767,-0.272884515936,0.304915287457,1.0,-0.01665,-0.0218828571429,3.355
-0.691166191768,-0.510693076685,-0.125605256089,-2.63386585053,-0.066922575912,2.1125216195,-0.939791771744,-0.0714266984918,0.008531698929,0.00439239655776,0.0114303986817,5.71427270975e-05,0.000911097314626,-0.0799406091106,0.573842451447,0.818929589885,0.0063178025734,0.0,0.81893029358,-0.573750146244,-0.0120287506998,0.0,-0.00622597959635,0.0120766802191,-0.999907691226,0.0,0.254745286333,-0.27326880851,0.304919888733,1.0,-0.01629,-0.0214097142857,3.373
-0.692234988748,-0.510462397664,-0.125570841745,-2.63368703646,-0.0668906434139,2.11255325009,-0.940858472989,-0.0727865235792,0.012149832621,0.00109499688387,0.011963265401,0.00334499800936,-0.000161658237968,-0.0739864542437,0.573842569781,0.818929485108,0.00632063524115,0.0,0.818930136329,-0.573750078789,-0.0120426659978,0.0,-0.00623574935481,0.0120869857948,-0.999907505825,0.0,0.254502971502,-0.273578713971,0.304919143507,1.0,-0.01599,-0.0210154285714,3.388
-0.693404588153,-0.510190405378,-0.125544147448,-2.63348203372,-0.0668588909334,2.11261593854,-0.942087603798,-0.0670323542954,0.0187675076653,0.000811843750139,0.00519437802018,0.00145551706178,0.00426686566861,-0.073864736817,0.573799002548,0.81895999646,0.00632263976625,0.0,0.818960682914,-0.573706529894,-0.0120401120792,0.0,-0.00623315043319,0.0120868303914,-0.999907523907,0.0,0.254240444942,-0.273926503624,0.304917429052,1.0,-0.01565,-0.0205685714286,3.405
-0.694551199058,-0.509931787646,-0.125516129313,-2.63327493583,-0.0668142540321,2.11268249678,-0.943199697451,-0.063388910702,0.012755850865,0.00138615044715,0.0111550168857,0.00632059287706,0.00138180059793,-0.0727046341904,0.573837039925,0.818933277606,0.00633129849585,0.0,0.818934213852,-0.573744787058,-0.0120174709179,0.0,-0.006209076884,0.0120812194962,-0.999907741494,0.0,0.253986613776,-0.27426805458,0.30492196968,1.0,-0.01531,-0.0201217142857,3.422
-0.695691983078,-0.509656387546,-0.125506470541,-2.63307891682,-0.0667903832348,2.11271994146,-0.944352672307,-0.0671977383097,0.0129742035044,0.001261628414,0.00932993621929,-0.000118364557705,-0.000648683126415,-0.0680129947589,0.573840628883,0.818930694996,0.00634005812708,0.0,0.818931517361,-0.573747893332,-0.0120528698661,0.0,-0.0062329901065,0.0121087329766,-0.99990725991,0.0,0.253720560083,-0.274606228278,0.304912310207,1.0,-0.01497,-0.0196748571429,3.439
-0.696957343475,-0.509371594219,-0.125482364066,-2.6328601025,-0.0667490059633,2.11276941332,-0.945644471076,-0.0613674886698,0.0152583080603,-0.000224410172412,0.0120599186434,0.00114146070974,0.00487128285696,-0.0696819995662,0.573830804363,0.818937480962,0.00635272702808,0.0,0.818938406164,-0.573737893504,-0.0120608195231,0.0,-0.00623237692805,0.0121235953322,-0.99990708364,0.0,0.253431391043,-0.274978693639,0.30491087006,1.0,-0.01459,-0.0191754285714,3.458
-0.698058823779,-0.509099611274,-0.125457901033,-2.63265746045,-0.0667231568359,2.1128368061,-0.946741111269,-0.0599094814561,0.019206223703,-0.00045087837246,0.0162474045204,0.000282410050808,0.00743568766059,-0.06284813871,0.573838872901,0.81893185591,0.00634903337621,0.0,0.818932758066,-0.573746025549,-0.012057480455,0.0,-0.00623164215938,0.012118715731,-0.999907147372,0.0,0.253184901494,-0.275309352256,0.304908341291,1.0,-0.01425,-0.0187285714286,3.475
-0.699066167233,-0.508868300736,-0.125431802487,-2.63246664667,-0.0666974707347,2.1128806759,-0.947745732115,-0.0611113755759,0.0132802157723,0.00127964191442,0.013140439645,5.2408473566e-05,-0.000292057146653,-0.0624834024528,0.573843249482,0.81892881378,0.0063458558456,0.0,0.818929730059,-0.573750523307,-0.0120491133135,0.0,-0.006226547841,0.0121113455327,-0.999907268406,0.0,0.252959058228,-0.275609741891,0.304913540787,1.0,-0.01393,-0.018308,3.491
-0.699935826483,-0.508674559352,-0.125388679159,-2.63231158599,-0.0666713497765,2.11292297104,-0.948619490238,-0.0608868094563,0.0144994622732,0.0026396811883,0.012053308883,0.00125545383111,0.000823051517524,-0.0568337957976,0.573828266618,0.81893937973,0.0063371649342,0.0,0.818940237202,-0.573735688066,-0.0120413883067,0.0,-0.00622542924584,0.0120996812904,-0.999907416586,0.0,0.252767655074,-0.275862389202,0.304916696103,1.0,-0.01365,-0.01794,3.505
-0.700941207621,-0.508421737399,-0.125350634881,-2.6321241379,-0.0666441235906,2.11296419151,-0.94961148127,-0.0589440615025,0.0139277189316,0.00149547976488,0.00653531170769,0.00677067373172,0.00170031065382,-0.0543331811091,0.573833453574,0.818935782411,0.00633235713694,0.0,0.818936461374,-0.573740670296,-0.012060778672,0.0,-0.00624399260616,0.0121069095196,-0.999907213344,0.0,0.252543056637,-0.276157609656,0.304912408715,1.0,-0.01331,-0.0174931428572,3.522
-0.701902935077,-0.508164981087,-0.125329315073,-2.6319207634,-0.0666172223556,2.11301217084,-0.950587258037,-0.0573207300005,0.0182182702479,0.0038818756661,0.0100857776359,0.000891807058919,0.00473176223266,-0.0568414477744,0.573828688311,0.81893912944,0.00633132255682,0.0,0.818939792254,-0.573735905513,-0.0120612722838,0.0,-0.00624506098057,0.0121063091173,-0.999907213942,0.0,0.252330661351,-0.276450392365,0.304914055886,1.0,-0.01297,-0.0170462857143,3.539
-0.702874442216,-0.507928734933,-0.125315479576,-2.63173236444,-0.0665898357914,2.11306051535,-0.951595988089,-0.058119949257,0.0134514749817,0.000451467957954,0.0100877509106,0.000521307990926,0.00627678528164,-0.0556063803403,0.573809705325,0.818952395982,0.00633577858821,0.0,0.818953149553,-0.573716970264,-0.0120550308959,0.0,-0.0062376728345,0.0121062326383,-0.999907260984,0.0,0.25211079108,-0.2767434113,0.304916354225,1.0,-0.01263,-0.0165994285714,3.556
-0.70384194336,-0.507706207742,-0.125305764868,-2.63154914949,-0.0665694618657,2.11310956563,-0.952523752674,-0.058529593176,0.0116408360018,0.00172532490271,0.00817000006273,-1.08457260799e-05,0.00194280087437,-0.0537275162724,0.573853379264,0.818921799373,0.00633502329788,0.0,0.818922637375,-0.573760821075,-0.0120408095797,0.0,-0.0062258131442,0.0120977861732,-0.999907437126,0.0,0.251889358429,-0.277035751725,0.304921335556,1.0,-0.01229,-0.0161525714286,3.573
-0.704731141448,-0.507493740734,-0.125309056037,-2.63138447664,-0.066547072795,2.11315353697,-0.953378674429,-0.0598205712159,0.0115627823542,-0.000423219055052,0.0123847599536,-0.000115323112112,0.00453352366787,-0.0623826120374,0.573901834721,0.818887765221,0.00634499612664,0.0,0.81888873875,-0.573809232728,-0.0120393058298,0.0,-0.00621814260519,0.0121054586476,-0.999907391999,0.0,0.25168191473,-0.277305182869,0.304920883185,1.0,-0.01197,-0.015732,3.589
