nelsonifechukwu/NELSON_IML_WORK/CNN-GradCAM/train2dof/data_sample_2022-02-21-14-15-42/robot_state.csv
position_joint1,position_joint2,position_joint3,position_joint4,position_joint5,position_joint6,position_joint7,velocity_joint1,velocity_joint2,velocity_joint3,velocity_joint4,velocity_joint5,velocity_joint6,velocity_joint7,ee_T_00,ee_T_10,ee_T_20,ee_T_30,ee_T_01,ee_T_11,ee_T_21,ee_T_31,ee_T_02,ee_T_12,ee_T_22,ee_T_32,ee_T_03,ee_T_13,ee_T_23,ee_T_33,v_x,v_y,time
0.465093555595,0.54782040888,-0.123985197669,-1.35576975021,0.0794954721283,1.89408837757,0.15915736138,6.76990649017e-05,-0.000703179424381,0.00104014938801,-0.000254988301984,0.00017908590417,0.000484396106457,-0.000757489356623,0.573780990044,0.818994700181,0.00195024134581,0.0,0.818951626625,-0.573722488404,-0.0118948076541,0.0,-0.008623053131,0.00842232999059,-0.999927351017,0.0,0.661682422126,0.260910981096,0.303215521828,1.0,0.0,0.0,0.0
0.46508863031,0.547819355614,-0.123984952712,-1.35576454048,0.0794939193376,1.89408681251,0.15916204074,-0.00128000145179,8.24144092177e-05,0.000291009453199,0.000667591899479,4.20027176616e-05,-8.69153018232e-05,0.00116412477084,0.573787976307,0.818989798239,0.00195333745326,0.0,0.818946782236,-0.573729477872,-0.0118912147158,0.0,-0.00861826219201,0.00842287761608,-0.999927387708,0.0,0.661684648885,0.260908139191,0.303218600617,1.0,-8e-05,-0.000105142857143,0.005
0.465087912841,0.547828110611,-0.123982904272,-1.35576488518,0.0794912530894,1.89408685176,0.159156547576,-0.000621267096022,0.00262119756356,0.00128292891217,-0.00107173722402,0.000359464659044,5.42947573814e-05,-0.001028624765,0.573781961953,0.818994032967,0.00194447986692,0.0,0.818950914314,-0.573723513217,-0.011894419998,0.0,-0.0086260312612,0.00841739926866,-0.999927366849,0.0,0.661684210951,0.260908262485,0.303212164999,1.0,-0.00034,-0.000446857142857,0.018
0.465082334653,0.547808361849,-0.123985361012,-1.35577922561,0.0794906029583,1.89409014841,0.159157359916,-0.0016218103118,-0.00379370146872,5.99904642929e-05,-0.00327436806653,0.000158031294199,0.000147427393991,-0.000500670750329,0.573789511143,0.818988726707,0.00195175056004,0.0,0.818945711566,-0.573731040101,-0.0118895767058,0.0,-0.00861781532816,0.00842065428058,-0.999927410286,0.0,0.661684161046,0.260901827351,0.303219696589,1.0,-0.00074,-0.000972571428571,0.038
0.465087510185,0.547779777624,-0.123990653653,-1.35580951833,0.0794905896518,1.89409458357,0.159154665996,-0.00169160780376,-0.0018627152948,-0.00173306282312,-0.00558432278756,7.1613763388e-05,0.00279586679457,-0.000918173202669,0.573788394951,0.818989502689,0.00195427906307,0.0,0.818946521906,-0.573729915027,-0.0118880512483,0.0,-0.00861512668689,0.00842183803289,-0.999927423484,0.0,0.661678723877,0.260899268259,0.303226088742,1.0,-0.00098,-0.001288,0.05
0.465094844584,0.547671570542,-0.123985364051,-1.35594045319,0.0794880061878,1.89411807401,0.159153022843,0.00117102028493,-0.00769322688073,-0.000393881504066,-0.0124059236029,-0.000103067745722,0.00283316904749,-0.000196549297121,0.573783782122,0.818992719206,0.00196065359565,0.0,0.818949713005,-0.57372517044,-0.0118971960719,0.0,-0.00861900658608,0.00843225720531,-0.999927302239,0.0,0.661653270207,0.26089423791,0.303242284724,1.0,-0.00132,-0.00173485714286,0.067
0.465080789031,0.547536303285,-0.123982859366,-1.35612818995,0.079487121377,1.89416269738,0.159146968573,0.000412265786503,-0.00464596166756,0.000213262850207,-0.00719047717781,-0.000119551103217,0.00304907192888,-0.00136554609806,0.573798669011,0.818982287259,0.00196150386329,0.0,0.818939151556,-0.573739914471,-0.0119131646991,0.0,-0.00863144399705,0.00844227289755,-0.999927110445,0.0,0.661625843079,0.260868764364,0.303252542585,1.0,-0.00166,-0.00218171428571,0.084
0.465067297074,0.547377987719,-0.123985679248,-1.35632695918,0.0794799803886,1.89427282335,0.159142054263,-0.000459293750926,-0.0142500061393,0.000191950956599,-0.0131391655762,-0.000401077350829,0.00851711197196,-0.00121162441307,0.573817106126,0.818969222722,0.00202184365724,0.0,0.818926894374,-0.573758122508,-0.011878780584,0.0,-0.00856847145063,0.00847215276135,-0.999927399327,0.0,0.661610989946,0.260843025423,0.303279725523,1.0,-0.00198,-0.00260228571429,0.1
0.465042200602,0.547189866552,-0.123982488263,-1.3565715718,0.0794775415242,1.89440497974,0.159134508046,-0.00199204732791,-0.00953740106619,0.00111802882532,-0.013745786237,-0.000573549917511,0.0115256518324,0.000271745731189,0.573842532642,0.818951229019,0.00209263459415,0.0,0.818909753221,-0.573783191667,-0.0118495544373,0.0,-0.008503652335,0.00851362112166,-0.999927600455,0.0,0.661592179449,0.260810295736,0.30330791887,1.0,-0.00234,-0.00307542857143,0.118
0.465017968381,0.546970911113,-0.123983433257,-1.35686183065,0.0794696870133,1.89453428033,0.159122074584,-0.00144828512436,-0.0108475023528,0.000908005097112,-0.0175653106667,-0.00374217324583,0.00141941335918,0.000669387322787,0.573867113317,0.818933864699,0.00214671922873,0.0,0.81889304289,-0.573807504557,-0.0118270419649,0.0,-0.0084539243449,0.00854524839543,-0.999927752337,0.0,0.66156415778,0.260769654756,0.303336095758,1.0,-0.00268,-0.00352228571429,0.135
0.464987028025,0.546764130549,-0.123982806589,-1.35719508299,0.0794656971127,1.89465187622,0.15909621962,-0.00377363297765,-0.0145399642906,0.00132106956038,-0.0260442410401,-0.00321320625139,0.00958711668984,-0.00051622957439,0.573888410663,0.818918937122,0.00214788986423,0.0,0.818877974274,-0.573828636707,-0.0118450768254,0.0,-0.0084678000428,0.00855677675898,-0.999927536341,0.0,0.661524764629,0.260720041843,0.303334113911,1.0,-0.00298,-0.00391657142857,0.15
0.464942348229,0.546452204071,-0.123983225235,-1.35763703327,0.0794533478135,1.89481111203,0.158950808984,-0.000580313491814,-0.0157487250814,-0.000871406224905,-0.0262187761357,-0.000457523738394,0.0100634590174,-0.00821031028919,0.573827586314,0.818961467483,0.00218239859267,0.0,0.818920813999,-0.573767541845,-0.0118429399264,0.0,-0.00844688461427,0.00858318251765,-0.99992748693,0.0,0.661475780506,0.260650692979,0.303358480825,1.0,-0.00334,-0.00438971428571,0.168
0.464902613443,0.546170351706,-0.123982832811,-1.35812930179,0.0794336353613,1.89498205149,0.158917512048,-0.00724094801792,-0.019293357262,0.00133673673135,-0.0290367991284,-0.00063893887434,0.00884123826107,-0.0021848780318,0.573854877149,0.818942421748,0.00215330783524,0.0,0.818901278341,-0.573794832064,-0.0118715596876,0.0,-0.00848673032866,0.00857606408086,-0.999927210617,0.0,0.661415679939,0.260578308972,0.303338558644,1.0,-0.00368,-0.00483657142857,0.185
0.464853652564,0.545856052675,-0.123986048114,-1.35864427131,0.0793871196172,1.8951527558,0.158874960016,-0.000526674650361,-0.0255934186677,-0.000477032475095,-0.0338789542749,-0.00434796646635,0.0160531223177,-0.00343671869493,0.573878705099,0.818925815582,0.00211832674247,0.0,0.81888434122,-0.573818922687,-0.011875460944,0.0,-0.00850974940878,0.00854990336013,-0.999927239012,0.0,0.661355866948,0.260491112039,0.303330835272,1.0,-0.004,-0.00525714285714,0.201
0.46479005639,0.545497913542,-0.12398605017,-1.35925555949,0.0792978702282,1.89536686912,0.15877741842,-0.00279637481626,-0.0222666057603,-0.000627007165295,-0.0322819903588,-0.00136867227542,0.0123147561025,-0.0121138951326,0.573861321524,0.818938156876,0.00205566841934,0.0,0.818896313573,-0.573802239903,-0.0118559689432,0.0,-0.00852992243821,0.00848722470157,-0.999927601099,0.0,0.661289155154,0.260381268477,0.303311868729,1.0,-0.00434,-0.005704,0.218
0.464730141279,0.545100024985,-0.123992459399,-1.35996263722,0.0792857208227,1.89558667806,0.158698633908,-0.00429447132885,-0.0215594810574,-0.00497363504504,-0.035707925239,-0.00121298720777,0.0132831956161,-0.00269914102323,0.57388641263,0.818920725206,0.00199452458906,0.0,0.818877775788,-0.573827271176,-0.011924683474,0.0,-0.00862102381758,0.00847684888549,-0.999926907819,0.0,0.661198726026,0.26027216938,0.30327627054,1.0,-0.00468,-0.00615085714286,0.235
0.46465846293,0.544688464912,-0.123987456851,-1.36063938403,0.0792637057271,1.8958217142,0.158619268769,-0.0059751851352,-0.0239133969928,0.000794304449928,-0.0417967761138,-0.00286413701672,0.0186264942032,-0.00686788866925,0.573908455481,0.818905312519,0.00198009020444,0.0,0.818861950095,-0.573849150729,-0.0119585030905,0.0,-0.00865677529813,0.00848466992088,-0.99992653261,0.0,0.661119586906,0.260165132095,0.303265675698,1.0,-0.005,-0.00657142857143,0.251
0.464588837952,0.544196177437,-0.124000596462,-1.36145816584,0.0792237337661,1.89611762959,0.15850378878,-0.00450630960597,-0.0311074715576,-0.00322080404706,-0.0505883104562,-0.00589358911867,0.0183450854619,-0.0121115973066,0.573915126823,0.818900696925,0.00195516768961,0.0,0.818856969159,-0.57385588675,-0.011976318385,0.0,-0.00868559820846,0.00847455613476,-0.99992636843,0.0,0.661026585264,0.260034373373,0.303250422048,1.0,-0.00536,-0.00704457142857,0.269
0.464515246318,0.54367813598,-0.123993129403,-1.36228798634,0.0791837098901,1.89640175609,0.158412260495,-0.00170743220737,-0.0319954538049,0.000661667082562,-0.0502052471943,-0.000168448932732,0.0169852734951,-0.00328056433954,0.573930645095,0.818889859288,0.00193904053594,0.0,0.818845751009,-0.573871305934,-0.0120044650361,0.0,-0.00871774280316,0.00847766868745,-0.999926062314,0.0,0.660925560741,0.259911157636,0.303246376489,1.0,-0.0057,-0.00749142857143,0.286
0.464442916652,0.543196133109,-0.12400412023,-1.36304247096,0.0791329947764,1.8966660092,0.15832505534,-0.00562107604085,-0.0293479483069,-0.00114911880618,-0.0515450571789,-0.00964333070336,0.0250349246141,-0.00235484766379,0.573954539817,0.818873141114,0.00192662592582,0.0,0.81882894842,-0.57389532612,-0.012002282663,0.0,-0.00872283323232,0.00846650470987,-0.99992611251,0.0,0.66084136196,0.259783482588,0.303251494276,1.0,-0.006,-0.00788571428571,0.301
0.46436895566,0.542589852515,-0.12400194977,-1.36400460722,0.0790817093125,1.89701075983,0.15819064543,-0.00561839083277,-0.0350900087836,-6.70049938186e-05,-0.0504626308048,-0.00174484251482,0.0150716267035,-0.00596021499759,0.573943292718,0.818881036535,0.00192136631608,0.0,0.818836673953,-0.57388400475,-0.0120165461793,0.0,-0.00873764862159,0.00847026436377,-0.999925951317,0.0,0.660725965553,0.259644714051,0.303252186266,1.0,-0.00636,-0.00835885714286,0.319
0.464287667579,0.541995359187,-0.1239995233,-1.36493419045,0.0790300021094,1.89735924896,0.158066991824,-0.00400010438197,-0.036711276353,0.000683028911594,-0.0568761433385,-0.000143497153536,0.024465509247,-0.00479389633258,0.573944784223,0.818879958444,0.00193525763497,0.0,0.818835721363,-0.573885382282,-0.0120156699884,0.0,-0.00872894333232,0.00848115248881,-0.999925935058,0.0,0.660620224808,0.25950515767,0.303260268437,1.0,-0.0067,-0.00880571428571,0.336
0.464218847597,0.54138509942,-0.124008370623,-1.36585978772,0.0789699566826,1.89770242094,0.157931509307,-0.00591125096978,-0.0368266225685,-0.00129630967945,-0.0609481350063,-0.00139234537741,0.013996112336,-0.0117975984316,0.573931712024,0.818889074091,0.00195478103965,0.0,0.818845167401,-0.573872301924,-0.0119966582693,0.0,-0.00870230523366,0.00848608901019,-0.99992612536,0.0,0.660514424734,0.259366283801,0.303281204664,1.0,-0.00702,-0.00922628571429,0.352
0.464130709806,0.540691484523,-0.12400523673,-1.366918861,0.0789038082152,1.89809771845,0.15780880822,-0.000301162804557,-0.0412840824687,-0.0002123555389,-0.0640389573565,-0.00173879035866,0.0234638632354,-0.00892346549636,0.573942247944,0.818881630466,0.00197944698267,0.0,0.818838047249,-0.573882733594,-0.011983628887,0.0,-0.0086773701827,0.00849892103439,-0.999926233073,0.0,0.660392843779,0.259209402714,0.30330157146,1.0,-0.00736,-0.00967314285714,0.369
0.464028689022,0.539958940018,-0.124003509499,-1.36802399539,0.078846711756,1.89850197929,0.157670192644,-0.00577754131034,-0.0389457870025,0.00079382624365,-0.0665981639993,-0.00114295425729,0.0178765217919,-0.00807747848952,0.573956930791,0.818871258512,0.0020125806519,0.0,0.818827997143,-0.573897166599,-0.0119791554575,0.0,-0.00865453839838,0.00852364079062,-0.999926220535,0.0,0.660266647931,0.259039665181,0.303328257294,1.0,-0.0077,-0.01012,0.386
0.463937975817,0.539256479869,-0.124015838771,-1.36910581045,0.0787844425595,1.89892870198,0.157532020885,-0.00737785141975,-0.0513175585358,-0.00691455189481,-0.0678406890101,-0.00215683189183,0.0275294896405,-0.00653520876826,0.573970068485,0.818861956352,0.00205032288958,0.0,0.818819249582,-0.573910206708,-0.0119523240731,0.0,-0.00861076802406,0.00853928452433,-0.999926464943,0.0,0.660149900666,0.258872308056,0.303347073585,1.0,-0.00802,-0.0105405714286,0.402
0.463815203182,0.538398832056,-0.124016503801,-1.37044538993,0.0787082569138,1.89944206527,0.157376301374,-0.00992274902702,-0.0486032421858,-0.000617333811765,-0.0680833948439,-0.00696668233637,0.0218414968375,-0.00551329763474,0.573997279158,0.818842812767,0.00207807607742,0.0,0.8188004417,-0.573937273261,-0.0119411027037,0.0,-0.00858536610285,0.00855585479887,-0.999926541721,0.0,0.660001034011,0.258665630797,0.303359832181,1.0,-0.0084,-0.01104,0.421
0.463722897557,0.537653708178,-0.124023174286,-1.37161320498,0.0786337514925,1.89988993162,0.157234677088,-0.00773564694184,-0.0469168084021,-0.00115287858261,-0.0789158071535,-0.00065544661075,0.0295655311591,-0.00538428940401,0.574006141784,0.818836558471,0.00209442255391,0.0,0.81879447952,-0.573946146584,-0.0119234235842,0.0,-0.00856141421251,0.0085591847842,-0.999926718586,0.0,0.659869030618,0.25849033373,0.303369231202,1.0,-0.00872,-0.0114605714286,0.437
0.463611053195,0.536823642605,-0.12402370354,-1.37292012044,0.0785677808036,1.90037110242,0.157072224291,-0.00423557790259,-0.0540925001086,5.44426810554e-06,-0.0756604429328,-0.000325959232094,0.0219066735058,-0.013267047198,0.574019386633,0.81882724776,0.00210451814662,0.0,0.818785168003,-0.573959216005,-0.0119337304532,0.0,-0.00856392095902,0.00857350594578,-0.999926574431,0.0,0.659716574045,0.25829395969,0.303374977566,1.0,-0.00906,-0.0119074285714,0.454
0.463505142229,0.536021918185,-0.124029692396,-1.3741729204,0.0784925850714,1.90083605471,0.156916498658,-0.00460078339253,-0.0553988809207,-0.00120218191835,-0.083542299534,-0.00390432119482,0.0265235830169,-0.0117989560456,0.574031551675,0.81881869369,0.00211457958993,0.0,0.818776758846,-0.573971352168,-0.0119269847527,0.0,-0.00855249463039,0.00857799934043,-0.99992663369,0.0,0.659572629877,0.258101810318,0.303385073681,1.0,-0.00938,-0.012328,0.47
0.463387584155,0.535121987945,-0.124030813555,-1.37558825544,0.0784043056062,1.90134768291,0.156747784098,-0.00434191853433,-0.0524686421062,-0.0011108819684,-0.0826533061817,-0.00267759932465,0.0312992538143,-0.0202911639768,0.574042646532,0.818810919699,0.00211297078289,0.0,0.818768939605,-0.573982427863,-0.0119307562343,0.0,-0.00855639012199,0.00857896290282,-0.999926592097,0.0,0.659395401323,0.257874615546,0.303393023973,1.0,-0.00974,-0.0128011428571,0.488
0.463263110183,0.534281468708,-0.124032982218,-1.376982092,0.0783267167042,1.90185846069,0.156580056465,-0.00804885995612,-0.0553518132455,-0.000284829079237,-0.0919472335372,-0.00666539690561,0.0348787524325,-0.00652466114686,0.574066160904,0.818794532726,0.00207436353076,0.0,0.818751991251,-0.574006040214,-0.0119578226113,0.0,-0.00860046816687,0.00856313545753,-0.999926349617,0.0,0.659242019128,0.25767221731,0.30336474198,1.0,-0.01004,-0.0131954285714,0.503
0.463111755189,0.53319959599,-0.124033895334,-1.3787236063,0.0782487571964,1.90249999223,0.156357989928,-0.00290921255228,-0.054077040718,0.000553507854498,-0.0894484749281,-0.0135809077147,0.0314857590017,-0.015637229687,0.574083364821,0.818782475479,0.0020724345383,0.0,0.818739635869,-0.574022978381,-0.0119906567338,0.0,-0.00862828067805,0.00858058606625,-0.999925960417,0.0,0.65903668809,0.257410292994,0.303354523606,1.0,-0.01044,-0.0137211428571,0.523
0.462997387923,0.532354434731,-0.124036106275,-1.38009380088,0.0781567721757,1.90301766706,0.15619310754,-0.0111454478806,-0.0591316185291,-0.00261140688286,-0.0929544250613,-0.00267638634801,0.0351461308237,-0.0205225539916,0.574093780665,0.818775207088,0.00205867939223,0.0,0.818732275628,-0.574033537557,-0.011987723144,0.0,-0.00863366571037,0.00856774952064,-0.999926024006,0.0,0.658878006623,0.257202333593,0.303343163089,1.0,-0.01074,-0.0141154285714,0.538
0.462877744347,0.531496241618,-0.124036851631,-1.38147603109,0.0780638602088,1.90351783141,0.156010282273,-0.0093671039252,-0.0555177820941,-0.000545859474539,-0.0936982326682,-0.00286273063566,0.0318995865181,-0.0100585920717,0.57409289332,0.818775894869,0.00203241770792,0.0,0.818732669819,-0.574032809216,-0.0119956748834,0.0,-0.00865526163148,0.00855080310681,-0.999925982367,0.0,0.658714105525,0.256989184577,0.303333527314,1.0,-0.01104,-0.0145097142857,0.553
0.462731151145,0.53041205219,-0.124036118973,-1.38323201556,0.0779736056418,1.90413647608,0.155785833023,-0.00838465323946,-0.0623800365429,-0.000540925884688,-0.098379818969,-0.00533176079186,0.0291477464997,-0.00609131986759,0.574099813547,0.818771132533,0.00199587491294,0.0,0.818727205213,-0.574039662125,-0.012040625079,0.0,-0.00871297262343,0.00854676225395,-0.999925515708,0.0,0.658498591215,0.256726226619,0.303315327441,1.0,-0.0114,-0.0149828571429,0.571
0.462588058715,0.529368260995,-0.124035048504,-1.3848725039,0.077862250387,1.90474200175,0.155564665283,-0.00965693704714,-0.0610311355727,3.64106298218e-05,-0.0975794830064,-0.0109107139679,0.0386667706451,-0.0130118092619,0.574094198154,0.818775068271,0.00199652804391,0.0,0.818731227981,-0.574034121659,-0.0120312260778,0.0,-0.00870496032861,0.00854184140193,-0.99992562754,0.0,0.658306072232,0.256474694749,0.303322170548,1.0,-0.01174,-0.0154297142857,0.588
0.462459408504,0.528330039798,-0.124038232748,-1.38647187066,0.0777573583515,1.9053583156,0.155347959873,-0.00661304669841,-0.0683278634798,0.000418875889402,-0.0990971979475,-0.00644251133082,0.0405013889188,-0.0146025371737,0.574082888209,0.818782897824,0.00203730138524,0.0,0.818739694082,-0.574022742867,-0.011997954272,0.0,-0.00865442906219,0.0085560044836,-0.99992594508,0.0,0.658121641003,0.256236794605,0.303345490391,1.0,-0.01206,-0.0158502857143,0.604
0.462313623882,0.527198660713,-0.12404345501,-1.38823555551,0.0776528079486,1.90603158725,0.155094590027,-0.00938383413431,-0.0740547227302,0.000563720912919,-0.108143015275,-0.00807068165744,0.0321817389229,-0.0180519656911,0.574065849688,0.81879475898,0.00207118071637,0.0,0.818752005853,-0.574005572963,-0.0119792328738,0.0,-0.00861982977828,0.00857281691761,-0.999926099942,0.0,0.657916899594,0.25597208728,0.303360950925,1.0,-0.0124,-0.0162971428571,0.621
0.462165353801,0.525964797518,-0.124049275002,-1.39015306462,0.0775202592841,1.9067418579,0.15484610768,-0.0109517365242,-0.0700742839937,-0.000647659553568,-0.107197874231,-0.00593385992811,0.0363918393725,-0.0160749142408,0.574052613013,0.81880398407,0.00209286062971,0.0,0.818761651414,-0.573992385252,-0.0119518511836,0.0,-0.00858510259115,0.00857471051742,-0.999926382467,0.0,0.657676239618,0.255670433587,0.303384848529,1.0,-0.01278,-0.0167965714286,0.64
0.462013856173,0.524869908217,-0.124055156325,-1.39188319935,0.0774211518013,1.90736146653,0.154605304797,-0.015431466493,-0.0691939262238,-0.00206301835957,-0.112373783132,-0.00755691134155,0.0300102199503,-0.0193595910039,0.574052905653,0.818803832326,0.00207185459929,0.0,0.818761155728,-0.573992695123,-0.0119709113034,0.0,-0.00861276446869,0.00856845545255,-0.999926198206,0.0,0.657479539545,0.255418513393,0.303378737426,1.0,-0.01308,-0.0171908571429,0.655
0.461855949015,0.523602138011,-0.124055877757,-1.39389788424,0.0772993157272,1.90809011871,0.15433327327,-0.00387724681359,-0.0714762318647,0.0003574430967,-0.111171649834,-0.00205880585499,0.0391596925378,-0.0168210779086,0.574035216891,0.818816273092,0.00205611032993,0.0,0.818773330589,-0.573975014187,-0.0119859545341,0.0,-0.00863430490239,0.00856401319732,-0.999926050494,0.0,0.657231723816,0.255121545897,0.303374395006,1.0,-0.01344,-0.017664,0.673
0.461688653669,0.522307490622,-0.124053832004,-1.39595183428,0.0771691380164,1.90888589141,0.154054513968,-0.0041068607981,-0.0718582518352,0.000595961732041,-0.116071833515,-0.00195144985855,0.0476898459966,-0.0122893734016,0.574017624107,0.818828540603,0.00208211650419,0.0,0.818785993197,-0.573957370721,-0.0119658197137,0.0,-0.00860307421488,0.00857356430008,-0.999926237834,0.0,0.656990297859,0.254818929958,0.303375615329,1.0,-0.0138,-0.0181371428571,0.691
0.461540953531,0.52127812724,-0.124056466522,-1.39759946575,0.0770741297902,1.90952152969,0.153832278513,-0.0116181363679,-0.0783570900034,9.80638795152e-05,-0.117449868952,-0.00666971289051,0.0433563844707,-0.0135932391689,0.574021106023,0.818826061891,0.00209692845789,0.0,0.81878368297,-0.573960766197,-0.0119610312908,0.0,-0.00859061487964,0.00858298046538,-0.999926264173,0.0,0.6567992151,0.254566059003,0.303369807762,1.0,-0.01408,-0.0185051428571,0.705
0.461377133496,0.519986328986,-0.124065927668,-1.39963568703,0.0769400506756,1.91026576923,0.153558337505,-0.00725505740863,-0.0828463717289,-0.00147508814838,-0.124321865321,-0.00473481965394,0.0450860818607,-0.0190654362299,0.574009862576,0.818833965255,0.00208851878359,0.0,0.818791566716,-0.573949648843,-0.0119548220533,0.0,-0.00859047511663,0.00857241237636,-0.99992635603,0.0,0.656552228673,0.254257090256,0.303372667881,1.0,-0.01442,-0.018952,0.722
0.461204281549,0.518626781257,-0.124074421658,-1.40171831806,0.0768086853979,1.91100380039,0.153278605565,-0.00967477239641,-0.0809050493726,-0.000832260123704,-0.122587386272,-0.0045865636993,0.0454181922647,-0.0116589940275,0.574003289776,0.818838547544,0.00209840025892,0.0,0.818796283966,-0.573943042197,-0.0119489153799,0.0,-0.00858003547834,0.00857704420628,-0.999926405944,0.0,0.656296015094,0.253938218431,0.303400006513,1.0,-0.01476,-0.0193988571429,0.739
0.461031752947,0.517367566092,-0.12407785878,-1.40372659473,0.0766698273821,1.91172130226,0.152998441203,-0.011787877466,-0.0778333800401,-0.00150721043893,-0.128600592342,-0.00924226037315,0.0487631413486,-0.0199987439439,0.57398627621,0.818850566965,0.00206169939635,0.0,0.81880791449,-0.57392627186,-0.011957446998,0.0,-0.00860826454127,0.00855171090532,-0.999926380301,0.0,0.656049090347,0.253627476919,0.303390025154,1.0,-0.01508,-0.0198194285714,0.755
0.460825180869,0.515924936311,-0.124078350679,-1.40599598798,0.0765288965747,1.91258367667,0.152676943001,-0.0142887991555,-0.0767118658133,-8.73452059567e-05,-0.131687658192,-0.0125012707432,0.0541237547613,-0.0204329702859,0.573974537853,0.818858726133,0.00208888327445,0.0,0.818816447132,-0.573914441599,-0.0119409602093,0.0,-0.0085792843656,0.00856438398986,-0.999926520904,0.0,0.655781357897,0.253277024681,0.303396502665,1.0,-0.01544,-0.0202925714286,0.773
0.460636673985,0.514517735588,-0.124084431369,-1.40822379619,0.0764018713251,1.91340275384,0.152380939608,-0.0138366461807,-0.0822923816997,0.000439706881368,-0.138973644553,-0.0085559895658,0.0443801124089,-0.0114665537561,0.573973988793,0.818859107464,0.00209026622141,0.0,0.818816748088,-0.573913788677,-0.0119516994054,0.0,-0.00858729063326,0.00857167460192,-0.999926389708,0.0,0.655508960623,0.252939013388,0.303393923039,1.0,-0.01578,-0.0207394285714,0.79
0.460472676813,0.513294520561,-0.12409146047,-1.4102196628,0.0762816606755,1.91409350368,0.152117632263,-0.0109115938681,-0.0815485741151,-0.000795523093043,-0.1332442181,-0.00512628556073,0.0450348989525,-0.0135781441403,0.573969843795,0.818862189177,0.00202001280538,0.0,0.818818817616,-0.573909842581,-0.0119993086748,0.0,-0.00866664179864,0.00854143027161,-0.999925963904,0.0,0.65525405629,0.252634135976,0.303361323629,1.0,-0.01608,-0.0211337142857,0.805
0.460262525784,0.511779024387,-0.124102126001,-1.41263812971,0.0761382305601,1.91496833156,0.151758224722,-0.00958711741285,-0.0838169487736,-0.00029404193653,-0.134665048015,-0.00377082083467,0.0516916225487,-0.0168463401782,0.573943126586,0.818880974709,0.00199589732373,0.0,0.818837219305,-0.573883163097,-0.0120195796461,0.0,-0.00869736067794,0.00853303442425,-0.999925768865,0.0,0.654955954538,0.252259348977,0.303347990348,1.0,-0.01644,-0.0216068571429,0.823
0.460046165741,0.510136261532,-0.124106618576,-1.41524584333,0.0759751827426,1.91596231161,0.151393661823,-0.012625715709,-0.0791041806463,-0.000810140584838,-0.136921253518,-0.00238210346582,0.0503086130629,-0.0187929271932,0.573917255965,0.81889905927,0.00201517556472,0.0,0.818855600484,-0.573857258051,-0.0120041592536,0.0,-0.00867393859624,0.00853969635175,-0.999925915443,0.0,0.654640048762,0.251868268965,0.303343258552,1.0,-0.01682,-0.0221062857143,0.842
0.459872930043,0.508890785341,-0.124112086707,-1.41721109473,0.0758474093167,1.9166762218,0.15112061644,-0.0118904721863,-0.0876316947167,-0.00390467038409,-0.139756410643,-0.0173035881065,0.0470612626155,-0.0261542275945,0.5739070062,0.818906268256,0.00200473138434,0.0,0.818862709263,-0.573847089322,-0.0120053469811,0.0,-0.00868101176198,0.008531716779,-0.999925922178,0.0,0.654397649701,0.251562696338,0.303341485469,1.0,-0.0171,-0.0224742857143,0.856
0.45966591621,0.507369362132,-0.124109997239,-1.41959399523,0.0756950451876,1.91752836988,0.150785947825,-0.01314249122,-0.0865423721649,-0.00235100909628,-0.13814577888,-0.0121125326671,0.057561710049,-0.0165058652838,0.573892886018,0.818916172569,0.00200114558383,0.0,0.818872555672,-0.573832975209,-0.0120083733242,0.0,-0.00868569502379,0.00853036745792,-0.999925893021,0.0,0.654083336535,0.2511718872,0.30335065085,1.0,-0.01746,-0.0229474285714,0.874
0.459449661725,0.505811684574,-0.124118898647,-1.42204063554,0.0755469240573,1.91844627074,0.150459866658,-0.0143821875748,-0.0924674944502,-0.000234796751422,-0.144756529753,-0.0031339180757,0.0626021342338,-0.018232026882,0.573886160306,0.818920847196,0.00201691294185,0.0,0.818877404094,-0.573826152048,-0.012003799031,0.0,-0.00867297086114,0.00854058300175,-0.999925916265,0.0,0.653799885277,0.250820919113,0.303349624102,1.0,-0.01778,-0.023368,0.89
0.459233738023,0.504264014053,-0.124119203897,-1.42437479944,0.0754003596068,1.91934776394,0.150136872533,-0.00742359611304,-0.0971344991045,-0.000451239462645,-0.146451460335,-0.00233385113148,0.052197838015,-0.0231569533326,0.573868784582,0.818932765166,0.00211922674317,0.0,0.818890735736,-0.573808430795,-0.0119412970715,0.0,-0.0085632541276,0.00858831813538,-0.999926453031,0.0,0.653504337644,0.250441492304,0.303403167101,1.0,-0.01812,-0.0238148571429,0.907
0.45898733753,0.502497004622,-0.12412596691,-1.42699421318,0.0752227099639,1.9203421924,0.149768859222,-0.0123315093,-0.0967116795036,3.47191368615e-05,-0.147404631832,-0.00394180426631,0.0536960678786,-0.0208107227678,0.573870959603,0.818930965918,0.00222299025605,0.0,0.818890454115,-0.573810355233,-0.0118679100556,0.0,-0.00844358678196,0.00863120060972,-0.999927101452,0.0,0.653210733494,0.250046835887,0.303471669844,1.0,-0.01846,-0.0242617142857,0.924
0.458753114665,0.50078456242,-0.12413203065,-1.42956591072,0.0750641058188,1.92123838354,0.14940901557,-0.014786904401,-0.100588340094,-0.000414170174216,-0.152704638815,-0.00920114955123,0.0564487113085,-0.0218515022612,0.573860597255,0.818938135248,0.00225664713782,0.0,0.818897978018,-0.573799775705,-0.0118602656174,0.0,-0.00841812226165,0.00865426951055,-0.999927116762,0.0,0.652883884555,0.249643105559,0.303520617598,1.0,-0.0188,-0.0247085714286,0.941
0.458526225366,0.499190348219,-0.124132283451,-1.43202315683,0.0749042364189,1.92213803511,0.149058856035,-0.0186839111901,-0.1020388278,-0.0001790211042,-0.15342230918,-0.00687620780829,0.0556602627775,-0.0249115848389,0.573841607675,0.818951366813,0.00228363681709,0.0,0.818911582051,-0.573780704655,-0.0118435910573,0.0,-0.00838917986,0.00866660883079,-0.99992725313,0.0,0.652578035727,0.249259673875,0.303541106665,1.0,-0.01912,-0.0251291428571,0.957
0.458272608072,0.497505059006,-0.124132400575,-1.4346667619,0.0747474063757,1.92311892662,0.148663574101,-0.0139428680416,-0.0988543827468,-0.000460465257791,-0.152577045223,-0.00680617388268,0.0591789066647,-0.0253927646917,0.57381765588,0.818968087556,0.00230570317521,0.0,0.818928489742,-0.573756566229,-0.0118439140218,0.0,-0.00837703656297,0.00868462020535,-0.999927198665,0.0,0.65225116252,0.248844036132,0.303542916818,1.0,-0.01946,-0.025576,0.974
0.458007784477,0.495831339601,-0.124135329797,-1.43737190761,0.0745831004195,1.9240502145,0.148277427734,-0.0116500689536,-0.100552005498,0.000494012558347,-0.16224832676,-0.0139565648432,0.0495735527523,-0.0240219147639,0.573812517877,0.818971917203,0.00222262504677,0.0,0.818931059292,-0.573751573607,-0.0119079306475,0.0,-0.00847718938635,0.00865326295364,-0.999926626458,0.0,0.65190171434,0.248407707679,0.303502598452,1.0,-0.0198,-0.0260228571429,0.991
0.457745752101,0.494241685893,-0.124130580502,-1.43995702445,0.0744142634538,1.92495822824,0.147914384507,-0.0200370493036,-0.103103376001,-0.000206626488268,-0.164299820287,-0.0145207261767,0.0561294506981,-0.0203562024658,0.573810621861,0.818973454281,0.00214437035905,0.0,0.818931497529,-0.573749915763,-0.0119575673995,0.0,-0.00856276282481,0.00861763753107,-0.999926204985,0.0,0.651571071863,0.247988655925,0.303457988211,1.0,-0.0210908571429,-0.0277194122449,1.007
0.457465036555,0.492331391271,-0.124162385896,-1.44296682017,0.074226913075,1.92608230876,0.147490838721,-0.0190159733064,-0.114407257654,-0.000618370603382,-0.185552479215,-0.0102103649796,0.0676910608358,-0.0269628359332,0.573817053173,0.818968917871,0.00215591041663,0.0,0.81892722274,-0.573756410995,-0.0119386598235,0.0,-0.00854058832622,0.00861630621932,-0.999926406101,0.0,0.65120145887,0.247501555735,0.30345358205,1.0,-0.0242382857143,-0.0318560326531,1.024
0.457121170067,0.490070641684,-0.12417287045,-1.44663234536,0.0740114305991,1.92738130257,0.146951664419,-0.0198785892115,-0.130278196632,0.000842183432743,-0.213961592448,-0.00401493141903,0.0770382495701,-0.0296618474337,0.573789482276,0.818988456391,0.00207007952928,0.0,0.81894540249,-0.573728960308,-0.0120106097304,0.0,-0.00864905266837,0.00858700897883,-0.999925725824,0.0,0.650726904484,0.246920365628,0.303394607501,1.0,-0.0275708571429,-0.0362359836735,1.042
0.456777299832,0.487900875287,-0.124194770765,-1.45004187418,0.0738062172895,1.92863161717,0.146464880459,-0.0221988358937,-0.154549677368,-0.000806335151071,-0.233782214293,-0.0217833279626,0.0881578801002,-0.0311384953397,0.573802277075,0.818979473935,0.00207725750149,0.0,0.818936469747,-0.573741679552,-0.0120121007204,0.0,-0.00864602118375,0.00859387812961,-0.999925693027,0.0,0.650302479049,0.246360125471,0.303389048423,1.0,-0.030348,-0.0398859428571,1.057
0.456320113436,0.485001052191,-0.124227817364,-1.45448553213,0.073531417021,1.93033581046,0.145803033007,-0.0291329367293,-0.165411534694,-0.00432500579327,-0.254091675666,-0.0158753853577,0.0893547280289,-0.0380377610648,0.573804153857,0.81897782489,0.0022050524315,0.0,0.818936644275,-0.573743185932,-0.0119279571723,0.0,-0.00850376233691,0.0086502761558,-0.999926426668,0.0,0.649766721951,0.245626478755,0.303436539891,1.0,-0.0336805714286,-0.0442658938775,1.075
0.455830940389,0.482012599815,-0.124273158669,-1.45914388539,0.0732534720371,1.93192333233,0.145083201996,-0.0295743753792,-0.182047804873,-0.00122299041066,-0.28799857943,-0.0173963532726,0.0998598519403,-0.0399967146876,0.573800914297,0.81898027203,0.00213814874219,0.0,0.818938005921,-0.573740005686,-0.0119872947009,0.0,-0.00859078180274,0.00862949807121,-0.999925862367,0.0,0.649164338434,0.244833032098,0.303431726798,1.0,-0.036828,-0.0484025142857,1.092
0.45532588043,0.478937631485,-0.124317260132,-1.46392296302,0.072954381167,1.9336539204,0.144383220225,-0.0354789693231,-0.193880829753,-0.00221518364152,-0.29749602622,-0.0128604771538,0.107546021886,-0.046213234965,0.573825029289,0.818963339663,0.00215196450505,0.0,0.818921305319,-0.573764112242,-0.0119743934408,0.0,-0.00857203427709,0.0086336624731,-0.999925987311,0.0,0.648563969119,0.244023456111,0.303439640306,1.0,-0.0397902857143,-0.0522958040816,1.108
0.454735557515,0.475395529858,-0.124354264645,-1.46930162655,0.0726233340029,1.93564847828,0.143616717133,-0.0366236109514,-0.214452381174,6.18490006505e-06,-0.325748707717,-0.0217268369363,0.123646703717,-0.0508005336781,0.573878255772,0.818925689774,0.00228234101724,0.0,0.818885398441,-0.573816847843,-0.0119027833701,0.0,-0.00843801181126,0.00869989179242,-0.999926553223,0.0,0.647897197523,0.24311115621,0.303505640145,1.0,-0.0429377142857,-0.0564324244898,1.125
0.454061010798,0.471412472747,-0.124391181109,-1.47546909447,0.0722487221341,1.93781761134,0.142702296405,-0.0393616171285,-0.226624524705,-0.00129063946574,-0.355389913895,-0.0231080122457,0.118397486389,-0.0497981814312,0.573902599201,0.818908654333,0.00227362923325,0.0,0.818868005964,-0.573840972267,-0.0119362580884,0.0,-0.00847016651614,0.00871221951545,-0.99992617403,0.0,0.647098489735,0.242062818453,0.303513290113,1.0,-0.0462702857143,-0.0608123755102,1.143
0.453432430349,0.467563409821,-0.124397861723,-1.48119981059,0.0718896175719,1.93999276486,0.141785012149,-0.0418045453114,-0.243382512119,-6.84576472705e-05,-0.366598623576,-0.0205601027953,0.138132727896,-0.0617516215265,0.573846180677,0.818947456805,0.00252404742101,0.0,0.818910109812,-0.573783632084,-0.0118034953351,0.0,-0.00821834361791,0.00884052887499,-0.999927149285,0.0,0.646381116929,0.241115211895,0.303631766834,1.0,-0.0492325714286,-0.0647056653061,1.159
0.452703746206,0.463311828428,-0.124407411104,-1.48775593576,0.0714567689862,1.94227975497,0.140769524515,-0.0455623913933,-0.246349454473,-0.00162102019575,-0.402243827927,-0.0218048983507,0.135805906239,-0.0599778135904,0.573807996308,0.818974273273,0.00250399510959,0.0,0.818936527497,-0.573745379949,-0.0118300388752,0.0,-0.00825200074162,0.00883895414038,-0.999926886014,0.0,0.64551267649,0.240006489242,0.3036414018,1.0,-0.05238,-0.0688422857143,1.176
0.45193606854,0.458812996334,-0.124429114752,-1.49469842988,0.0709869896289,1.94468186873,0.139744309828,-0.0423650339946,-0.270150241555,-0.0019811678901,-0.411364295938,-0.025039879121,0.149313101589,-0.0634722940769,0.573806735687,0.818975303418,0.00245547836817,0.0,0.818936879349,-0.573744254543,-0.0118602244138,0.0,-0.0083045741708,0.00881652819303,-0.999926648749,0.0,0.644582881836,0.238826416744,0.303643325804,1.0,-0.0555274285714,-0.0729789061224,1.193
0.45113605901,0.454438267972,-0.124431627564,-1.50154816215,0.0705262493389,1.94711015137,0.138666572552,-0.0507347414891,-0.275120134264,-0.00334390904199,-0.434940095233,-0.0217576107935,0.158398934534,-0.0678340482439,0.573770026494,0.819001170774,0.00240538316233,0.0,0.818961997418,-0.573707641968,-0.0118968581946,0.0,-0.00836371511522,0.00879614739376,-0.999926335317,0.0,0.643672982843,0.237650593592,0.303601362691,1.0,-0.0584897142857,-0.0768721959184,1.209
0.450263977853,0.449426804378,-0.124480535554,-1.50903386061,0.0700097891858,1.94993726329,0.137473905912,-0.0505724618327,-0.29346737741,0.000614848974702,-0.451686961041,-0.0250948530426,0.172166704658,-0.0611132794673,0.573742455795,0.819019651845,0.00267417476188,0.0,0.818984515785,-0.573679658896,-0.011694390743,0.0,-0.008043971041,0.00889984753603,-0.999928041033,0.0,0.64272017679,0.236353476372,0.30372389157,1.0,-0.0616371428571,-0.0810088163265,1.226
0.449310469957,0.444244115767,-0.124511615533,-1.51701718587,0.0694798035954,1.95260542915,0.136294195544,-0.057984858218,-0.30462707684,0.000145910198276,-0.480371695183,-0.038100461607,0.15778935612,-0.0715256914848,0.573792142478,0.818985211435,0.00255882458436,0.0,0.818948258798,-0.573729408828,-0.0117924449895,0.0,-0.00818992281835,0.00886212783691,-0.999927191277,0.0,0.641618877061,0.234948542917,0.303707076434,1.0,-0.0647845714286,-0.0851454367347,1.243
0.448369542827,0.439184028874,-0.124532829996,-1.52490289764,0.0689236182089,1.95526111768,0.13502798886,-0.0620679881905,-0.317167688321,-0.00276423619306,-0.495257412533,-0.0365760808127,0.161890704252,-0.0759526153836,0.573736148619,0.819024932633,0.00239549457221,0.0,0.818985747401,-0.573673929985,-0.0118875780304,0.0,-0.00836215100737,0.0087823782362,-0.999926469428,0.0,0.640521654558,0.233564655674,0.303645432055,1.0,-0.0677468571429,-0.0890387265306,1.259
0.447309682059,0.433511939084,-0.124555993712,-1.53337773302,0.0683692931544,1.95836262345,0.133634085059,-0.0602392483829,-0.34409077374,-0.00155572090502,-0.507322626249,-0.0293269770251,0.190608517263,-0.0937523465608,0.573698299733,0.819050672436,0.00264646305218,0.0,0.819014759827,-0.573635148357,-0.0117595346861,0.0,-0.00811370678066,0.00891408898,-0.999927350751,0.0,0.639395284416,0.232073822496,0.303752369994,1.0,-0.0708942857143,-0.0931753469388,1.276
0.446079283118,0.427411086757,-0.124607334828,-1.54279206496,0.0676893217024,1.96162333715,0.132141308759,-0.0664085012873,-0.340387212511,-0.0020751827111,-0.532333376575,-0.0360140773511,0.177758740018,-0.0848185944069,0.573737418873,0.819023469941,0.0025839449329,0.0,0.818986974222,-0.573674741073,-0.0117632652872,0.0,-0.00815220336822,0.00886541339224,-0.999927470383,0.0,0.638183653581,0.230446868306,0.303722030502,1.0,-0.0740417142857,-0.0973119673469,1.293
0.444997508545,0.422059980042,-0.124705353815,-1.55101842611,0.0670919243446,1.96431091097,0.130760503819,-0.0762149211493,-0.354422519352,-0.00425078424839,-0.555795414652,-0.0342622986844,0.179081166828,-0.0867915683453,0.573745496442,0.819018456982,0.00237051398682,0.0,0.818979321872,-0.57368376749,-0.0118554698647,0.0,-0.00835008400551,0.00874359272173,-0.999926910171,0.0,0.63694978484,0.228796528197,0.303669531196,1.0,-0.077004,-0.101205257143,1.309
0.443641258586,0.415378928181,-0.124767879044,-1.56098052383,0.0663991115308,1.96787267206,0.12918526603,-0.0770897557556,-0.374791343064,-0.000865731996103,-0.551144064159,-0.0324896157828,0.206709914014,-0.0916084652112,0.573835598399,0.818954684775,0.00258402705018,0.0,0.818918587925,-0.57377334083,-0.0117152296164,0.0,-0.00811175252057,0.0088388937565,-0.999928034125,0.0,0.63559560698,0.226951973563,0.303769440259,1.0,-0.0803365714286,-0.105585208163,1.327
0.44228357454,0.408924237096,-0.12478164897,-1.5707318695,0.0657321371136,1.97123149357,0.127512460316,-0.079809928566,-0.387424750331,-0.00211499689708,-0.580448033452,-0.0417680226495,0.190612534944,-0.0919212178311,0.573801302852,0.818978546389,0.0026367216103,0.0,0.818942833821,-0.573738532221,-0.0117251217354,0.0,-0.00808999012593,0.00888738550514,-0.999927780612,0.0,0.634220810582,0.225152336001,0.303787348257,1.0,-0.083484,-0.109721828571,1.344
0.440667264343,0.401538342389,-0.124878389282,-1.58210712841,0.0649252657708,1.97500304327,0.125619641091,-0.0860687207674,-0.39745118947,-0.00321226876248,-0.588074450579,-0.0364960405586,0.21201954838,-0.106808917302,0.573877294766,0.818925946917,0.00242712140378,0.0,0.818887337336,-0.573815108183,-0.0118531545334,0.0,-0.00831429694529,0.00878996447584,-0.999926801816,0.0,0.632587434572,0.222975005378,0.303688838201,1.0,-0.0870017142857,-0.114345110204,1.363
0.439420616221,0.395782788785,-0.12491267022,-1.59050157037,0.0643001393457,1.97802002396,0.124174690152,-0.0920811499437,-0.408178672998,0.00165728526916,-0.611040516331,-0.0458847498113,0.212055200499,-0.0989696055098,0.57389477482,0.818912794091,0.00271477611763,0.0,0.818878411261,-0.573832068497,-0.0116469582555,0.0,-0.00798017117562,0.00890737153402,-0.999928485243,0.0,0.631427602596,0.221373866883,0.30382995843,1.0,-0.0895937142857,-0.117751738776,1.377
0.437747747988,0.388326564548,-0.124955779998,-1.60184674577,0.0634434405392,1.98172905223,0.122264215668,-0.0941102115759,-0.415185508446,-0.00134880751315,-0.638369366189,-0.0452715003831,0.207254376827,-0.10803578,0.5739263667,0.818891250189,0.00252841296632,0.0,0.818854376917,-0.57386424089,-0.011751141781,0.0,-0.00817209873484,0.00881486184448,-0.999927754897,0.0,0.629753771615,0.219196896062,0.303761505218,1.0,-0.0929262857143,-0.122131689796,1.395
0.436319675791,0.381871755946,-0.125002886951,-1.61141834268,0.0627226208982,1.98486634565,0.120511666491,-0.090000880844,-0.447077373551,-0.00123111760881,-0.629503578559,-0.0467755501565,0.223858338751,-0.113710636648,0.573851860418,0.818943480831,0.0025227765236,0.0,0.818906531969,-0.573789762199,-0.0117536205312,0.0,-0.00817816502363,0.00881092481994,-0.99992774,0.0,0.628334969137,0.217351588827,0.303802686639,1.0,-0.0957034285714,-0.12578164898,1.41
0.434499492194,0.37402762842,-0.125022165787,-1.62313178573,0.0618812438112,1.98887665549,0.118429384614,-0.101345730049,-0.435475767373,-0.00112426309384,-0.654748249304,-0.0446170490016,0.224361228787,-0.123393680443,0.57384694171,0.818946576522,0.00263423497437,0.0,0.818910849222,-0.573784193455,-0.0117246436385,0.0,-0.00809053014635,0.00888552556842,-0.999927792772,0.0,0.626614818788,0.215093252633,0.303816558598,1.0,-0.099036,-0.1301616,1.428
0.432782686247,0.366875245169,-0.125107926574,-1.6338847884,0.0610416265835,1.99228422676,0.116600628893,-0.107866750929,-0.466906259844,-0.00467337043261,-0.663884428695,-0.0579917311242,0.216310879435,-0.118536549899,0.57397600872,0.818856671761,0.002457524584,0.0,0.818818667946,-0.573913916572,-0.0118132252074,0.0,-0.00826308980713,0.0087929441524,-0.99992720009,0.0,0.624886073351,0.212795374905,0.30378176881,1.0,-0.102183428571,-0.134298220408,1.445
0.430925379144,0.35900357348,-0.125159677055,-1.64536622949,0.0601469832325,1.99617596417,0.114455797102,-0.117496265922,-0.453981239697,-0.00272120311049,-0.701561747903,-0.0511398024339,0.218478626964,-0.125651663485,0.573915759911,0.818898369215,0.00262836899895,0.0,0.818862967745,-0.573853465432,-0.0116784916772,0.0,-0.00805535422144,0.00885491494892,-0.999928348308,0.0,0.62327222259,0.210657007059,0.303863447134,1.0,-0.105145714286,-0.138191510204,1.461
0.428573519806,0.349657024488,-0.125189143433,-1.65941324425,0.059100179649,2.00057853684,0.111862476839,-0.123650292869,-0.472237997948,-0.00339076509842,-0.709351461372,-0.062094209452,0.217614045496,-0.127160225252,0.573919189209,0.818896725231,0.00238003453321,0.0,0.81885719463,-0.573856856918,-0.0119142550224,0.0,-0.00839090683575,0.00878689715844,-0.999926188836,0.0,0.62107290349,0.207839374272,0.303749617107,1.0,-0.108848571429,-0.143058122449,1.481
0.426870738992,0.342834592613,-0.125243094598,-1.66912050164,0.058361063385,2.0038952674,0.110025093107,-0.117632680787,-0.486709178605,0.000311609189267,-0.709190125318,-0.0587690150414,0.230425632802,-0.131520256934,0.573959937292,0.818867092154,0.00272445811922,0.0,0.81883233949,-0.573896635982,-0.0117046108502,0.0,-0.00802111773358,0.00894902442166,-0.999927785709,0.0,0.619620174802,0.205850161353,0.303918640661,1.0,-0.111440571429,-0.14646475102,1.495
0.424884457772,0.335036431284,-0.125241286506,-1.68069239434,0.0574351927216,2.0075547218,0.10780462415,-0.123816508077,-0.485643311846,-0.00113119338068,-0.743410020335,-0.0620880601024,0.218869692787,-0.139806759508,0.573870244806,0.818930338873,0.00260559036692,0.0,0.818893748781,-0.57380706115,-0.0117996476156,0.0,-0.00816814053143,0.00890533978452,-0.999926985536,0.0,0.617776708946,0.203525872256,0.303860677084,1.0,-0.114402857143,-0.150358040816,1.511
0.422687260087,0.326456286939,-0.125249345572,-1.69306895846,0.056380015708,2.01150342227,0.105383694459,-0.130290044125,-0.505058470552,-0.00172628831464,-0.739200529764,-0.0603033223746,0.240540354002,-0.142934767998,0.573761846361,0.819006020826,0.00268857068459,0.0,0.818970904653,-0.573698811136,-0.0117080457072,0.0,-0.00804668504451,0.00891966281916,-0.999927842634,0.0,0.615696626427,0.200844889247,0.30394416477,1.0,-0.117735428571,-0.154737991837,1.529
0.420223042005,0.317301876536,-0.125262495063,-1.70643551272,0.0553247277814,2.01576080015,0.102789144734,-0.136606491984,-0.514049594058,-0.00124411179197,-0.745396976042,-0.0654250167713,0.240142470582,-0.150107704702,0.573767539249,0.819001987833,0.00270217150382,0.0,0.818966693134,-0.573704060939,-0.0117453352528,0.0,-0.00806936151496,0.00895225292505,-0.999927368648,0.0,0.613665811902,0.198227118938,0.303930023914,1.0,-0.120882857143,-0.158874612245,1.546
0.417936879022,0.308940448963,-0.125344111629,-1.71841001526,0.0543241320027,2.01954441165,0.100298814184,-0.146158159864,-0.540414483342,-0.0130009749544,-0.743292457222,-0.0727044875766,0.252921553739,-0.151898408161,0.573716751821,0.819037231806,0.0028015168826,0.0,0.819003523921,-0.573653264314,-0.0116579177841,0.0,-0.00794132230083,0.00898296787323,-0.999928118261,0.0,0.61174514784,0.195662091551,0.304004643845,1.0,-0.123845142857,-0.162767902041,1.562
0.415384362244,0.299986165874,-0.125399579785,-1.73145174877,0.0532397966381,2.02355442423,0.0976301818132,-0.154660476725,-0.543754549487,-0.00212052100305,-0.797729117327,-0.0627322946549,0.233498314094,-0.153382841494,0.573710214531,0.819042135451,0.00270499538046,0.0,0.819006984913,-0.573646852802,-0.0117300398796,0.0,-0.00805583992491,0.00894522602984,-0.999927540562,0.0,0.60960117095,0.192856525159,0.303957807972,1.0,-0.126992571429,-0.166904522449,1.579
0.412706940478,0.290777118659,-0.125497853773,-1.74456719231,0.0522059332997,2.02756317035,0.094944983964,-0.155541691497,-0.556152171175,-0.00926268804034,-0.762460693402,-0.0693641371482,0.25081751616,-0.16669020235,0.573831661686,0.818956754042,0.00279391435137,0.0,0.818922275881,-0.573767427847,-0.0117469872212,0.0,-0.00801737183266,0.00902896573172,-0.999927097106,0.0,0.607439535791,0.189967229292,0.304017535207,1.0,-0.13014,-0.171041142857,1.596
0.410128551646,0.282096842658,-0.125581025596,-1.75708094082,0.0511377765538,2.03139608276,0.092286384673,-0.167112006301,-0.554292741195,-0.0043341926056,-0.779339528426,-0.0718328148892,0.237092584042,-0.165423998201,0.573836588686,0.818953434581,0.00275470055044,0.0,0.818918458949,-0.573772507918,-0.0117649330951,0.0,-0.00805451599687,0.00900719761952,-0.999926994917,0.0,0.605350593707,0.187204556722,0.303986884658,1.0,-0.133102285714,-0.174934432653,1.612
0.407238100303,0.272585397507,-0.125627617571,-1.77056667281,0.0499537491391,2.03545231789,0.0893720070891,-0.174777140923,-0.570413222959,-0.00763243052095,-0.812266924991,-0.0655457879355,0.254000771564,-0.177735761258,0.573831060919,0.818957217263,0.00278149577627,0.0,0.818922654296,-0.573766957408,-0.0117435841413,0.0,-0.0080217170634,0.00901683685289,-0.999927171702,0.0,0.603068690162,0.184194960469,0.304022467297,1.0,-0.136249714286,-0.179071053061,1.629
0.404052569998,0.262426510889,-0.125785093111,-1.78499429519,0.0486894125334,2.03978514533,0.086208554327,-0.176312559608,-0.56960635751,-0.00586167582926,-0.784791720373,-0.0653984822685,0.242626574736,-0.185439056028,0.573932490657,0.818886134166,0.00278250601643,0.0,0.818851789481,-0.57386860116,-0.0117184626642,0.0,-0.00799944776827,0.00900423985388,-0.999927463619,0.0,0.600622450457,0.180875985008,0.304024518504,1.0,-0.139582285714,-0.183451004082,1.647
0.4013003691,0.253785641737,-0.125893108862,-1.79709316497,0.0475997925911,2.04331510216,0.0835356421552,-0.183357984522,-0.586780252117,-0.00261065418736,-0.787860578073,-0.0682139492882,0.233517017586,-0.172477199052,0.574022497091,0.818822988313,0.00279884698546,0.0,0.818789011951,-0.573958714932,-0.0116916364719,0.0,-0.00796711148674,0.00900310085812,-0.999927732043,0.0,0.598532709919,0.178067091661,0.304070793243,1.0,-0.142359428571,-0.187100963265,1.662
0.397912461186,0.243335715835,-0.125897038782,-1.81189962256,0.0462673038619,2.04763058796,0.0801331623982,-0.192773465257,-0.586140043052,-0.000978604140747,-0.843439435891,-0.0647361899695,0.242205201275,-0.188606753818,0.573922611508,0.818893221621,0.00273395036284,0.0,0.818858086405,-0.573858717081,-0.0117624003145,0.0,-0.00806340388523,0.00898959794614,-0.999927081665,0.0,0.595912868163,0.174713344968,0.304020233782,1.0,-0.145692,-0.191480914286,1.68
0.394596440454,0.233210599418,-0.125914662416,-1.82575340758,0.0450586656625,2.05171834738,0.0768992686023,-0.197211913626,-0.595296336375,-0.00342917952384,-0.802058349951,-0.0765452750178,0.239069192205,-0.194019940974,0.573914812436,0.818897644921,0.00303019986769,0.0,0.818866174366,-0.573849687596,-0.0116392193517,0.0,-0.0077926001001,0.00916142495017,-0.999927669222,0.0,0.593468683573,0.171514544339,0.30416409848,1.0,-0.148839428571,-0.195617534694,1.697
0.391394926087,0.223671639308,-0.125908606814,-1.83917207242,0.043765149451,2.05545486466,0.0736917443294,-0.203305133026,-0.602228542311,-0.0018482037237,-0.819185887334,-0.078392503912,0.219365835748,-0.200591181918,0.573754466226,0.81901061364,0.00285904371148,0.0,0.818976815239,-0.573689823965,-0.0117349427408,0.0,-0.00797099183793,0.00907464103687,-0.999927054429,0.0,0.591011366687,0.168425606265,0.304092835316,1.0,-0.151801714286,-0.19951082449,1.713
0.387798847724,0.213266638346,-0.125992739835,-1.85335939219,0.0424791717634,2.05948280989,0.0702329838364,-0.215226842007,-0.612667298057,-0.00482367395184,-0.855916523763,-0.0698707595092,0.238535252834,-0.206146167839,0.573788204434,0.818986297181,0.00304768483484,0.0,0.818954833953,-0.573722779905,-0.0116575582362,0.0,-0.00779900439333,0.0091850624772,-0.999927402444,0.0,0.588446467025,0.165025356846,0.304192670547,1.0,-0.154949142857,-0.203647444898,1.73
0.38408415035,0.202894359588,-0.126102064022,-1.86785134948,0.0410972803301,2.06331771704,0.0666351450499,-0.217141284001,-0.60842547159,-0.00210260161089,-0.839192740415,-0.0744439809688,0.212196877912,-0.217380974874,0.573776019679,0.818995789252,0.00277908785897,0.0,0.818960274279,-0.573710899775,-0.0118583107453,0.0,-0.00811766986225,0.00908015171586,-0.999925824389,0.0,0.585733383871,0.161514881891,0.304084756134,1.0,-0.158096571429,-0.207784065306,1.747
0.380421437001,0.192848935591,-0.126187340598,-1.88138255235,0.0398035368638,2.06711295937,0.0631858431383,-0.233788635067,-0.618491404708,-0.00903858124326,-0.857194820288,-0.0801104275479,0.236248890671,-0.215448937243,0.573818342852,0.818965361212,0.00299890705318,0.0,0.818932998724,-0.573752767708,-0.0117154619901,0.0,-0.00787407793903,0.00917862764789,-0.999926873172,0.0,0.583243880568,0.158172907334,0.304191975872,1.0,-0.161058857143,-0.211677355102,1.763
0.376081493344,0.181514647042,-0.12637405541,-1.89688639387,0.0383350171259,2.07117197639,0.0591182975632,-0.242819673067,-0.63566911513,-0.00876261473403,-0.86006976748,-0.089064268469,0.230067243755,-0.224260245499,0.5739450715,0.818876932396,0.0028933355946,0.0,0.818842604374,-0.573879169651,-0.0118420777273,0.0,-0.00803693398989,0.00916606507669,-0.999925692711,0.0,0.580316517765,0.154227106857,0.304151010509,1.0,-0.164391428571,-0.216057306122,1.781
0.371908391478,0.17065078342,-0.126463765398,-1.91153641035,0.0368338147925,2.07507024214,0.0552632609843,-0.247628292007,-0.629996342049,-0.00418981761491,-0.878547152035,-0.0893794932854,0.222476750868,-0.229240801828,0.573979222352,0.818852903574,0.00291916383769,0.0,0.818819291585,-0.573913657806,-0.0117825300038,0.0,-0.00797296441348,0.00915337130526,-0.999926321102,0.0,0.577522590788,0.150528661436,0.304174257049,1.0,-0.167538857143,-0.220193926531,1.798
0.368128545083,0.16094115648,-0.126477635046,-1.92460420996,0.0355318807918,2.07838710173,0.0516315228176,-0.255066266396,-0.653430646958,-0.00144898837163,-0.862569552466,-0.0781986384842,0.23206837429,-0.248288534946,0.573842106712,0.818949159758,0.00287353395827,0.0,0.818914459835,-0.573776161367,-0.0118646964348,0.0,-0.00806797322544,0.0091618173003,-0.999925481679,0.0,0.574957978112,0.14725995684,0.304163271923,1.0,-0.170316,-0.223843885714,1.813
0.363431549719,0.149172091402,-0.126548342264,-1.94025341588,0.0338812114848,2.0824739947,0.0472868211891,-0.259271504749,-0.649940660984,-0.00605553341998,-0.902511378282,-0.0920858560073,0.211736686397,-0.244500059284,0.573806987146,0.818973425074,0.00296941525862,0.0,0.818940540263,-0.573741353852,-0.0117472250232,0.0,-0.00791714121122,0.00917259093484,-0.999926588531,0.0,0.571903387014,0.143246512386,0.30420793064,1.0,-0.173648571429,-0.228223836735,1.831
0.35878973551,0.137856333656,-0.126648725099,-1.95514932045,0.0323897900166,2.08617053217,0.043032397707,-0.275913037234,-0.678406483324,-0.00737002063656,-0.86194409777,-0.0855684035815,0.226932416185,-0.258517326771,0.573852397235,0.81894126535,0.00306218795664,0.0,0.818909170505,-0.573785949902,-0.0117558946337,0.0,-0.00787049833261,0.00925398028447,-0.99992620683,0.0,0.568937612316,0.139350873617,0.304262871623,1.0,-0.176796,-0.232360457143,1.848
0.354271686998,0.127177213338,-0.126791007584,-1.96929654261,0.0308566184886,2.08962326629,0.0388186436024,-0.282679494977,-0.676222967022,-0.013198166876,-0.887331829665,-0.0970704254274,0.213719998388,-0.263627568619,0.573814291067,0.818968238339,0.00298845471948,0.0,0.818935363663,-0.573748314886,-0.0117681013422,0.0,-0.00792323291216,0.00920023311435,-0.999926286329,0.0,0.56608825807,0.13557887007,0.304236584063,1.0,-0.179758285714,-0.236253746939,1.864
0.34922554041,0.115603604658,-0.126978142165,-1.98425608687,0.0292548417971,2.09328947294,0.0343472994128,-0.294927484993,-0.68370647658,-0.00744979945339,-0.892769106247,-0.0944944947023,0.208049220106,-0.274045844368,0.573999558555,0.818837751773,0.00316068852734,0.0,0.818807494106,-0.573933422915,-0.0116387524305,0.0,-0.00771637365243,0.00926881266329,-0.9999272707,0.0,0.562894400109,0.131225094806,0.304329668319,1.0,-0.183090857143,-0.240633697959,1.882
0.343768112296,0.103341617175,-0.127067189443,-2.00032378773,0.0275152672021,2.09691717913,0.0293598839976,-0.311015879815,-0.694767850149,-0.00447327593881,-0.871182417894,-0.100578471545,0.204036113644,-0.278242578659,0.573949420481,0.818873486855,0.00300369060425,0.0,0.818840585195,-0.573883110887,-0.0117905884695,0.0,-0.00793138568771,0.00922692283818,-0.999925975768,0.0,0.55971351612,0.127115917803,0.304274279046,1.0,-0.186238285714,-0.244770318367,1.899
0.339118696815,0.0929530775566,-0.12708752326,-2.01363407482,0.0260735201643,2.10003628325,0.0250829555514,-0.312122643475,-0.683452806822,0.00087826879899,-0.906706208314,-0.0906944485365,0.203255877983,-0.296365934505,0.573833005966,0.818954525248,0.00314860948835,0.0,0.818923483996,-0.573766182415,-0.0117235736339,0.0,-0.00779465810484,0.00930602292073,-0.999926317907,0.0,0.556922522047,0.12351733212,0.304330199859,1.0,-0.189015428571,-0.248420277551,1.914
0.333646357959,0.0810836898017,-0.127194199578,-2.02886990127,0.0244280738435,2.1032999142,0.0200732135949,-0.329907890682,-0.718460623864,-0.00897915595966,-0.869406131632,-0.0983953160162,0.194199875729,-0.307341749603,0.573776684857,0.818994244891,0.0030805277603,0.0,0.818961387853,-0.573709007242,-0.0118729573262,0.0,-0.00795671038815,0.00933543912008,-0.999924767338,0.0,0.553644656575,0.119300232119,0.30431650854,1.0,-0.192162857143,-0.252556897959,1.931
0.327606971801,0.0683829377093,-0.127360895209,-2.0449529929,0.0225944747166,2.10691505616,0.0146771136318,-0.33726438661,-0.707222372291,-0.0102293664312,-0.915390334648,-0.0972826219244,0.193795368637,-0.308557675811,0.573823556752,0.818960868967,0.00321989425158,0.0,0.818930239792,-0.573755874494,-0.0117560937208,0.0,-0.0077804972858,0.00938297293522,-0.999925709081,0.0,0.55020790506,0.114722656356,0.30436700767,1.0,-0.195495428571,-0.25693684898,1.949
0.321942093569,0.0569376776448,-0.12754470629,-2.05929374961,0.0208709544049,2.10987226065,0.00967633455234,-0.355505638104,-0.719695671823,-0.00459770618415,-0.893950566147,-0.102028394014,0.192109466081,-0.316110229278,0.573907251114,0.818902276805,0.00320547393186,0.0,0.818871830977,-0.573840053363,-0.0117159929583,0.0,-0.00775497328377,0.00934894561669,-0.999926226081,0.0,0.547079071303,0.110496175481,0.304414810981,1.0,-0.198457714286,-0.260830138775,1.965
0.315881436073,0.044802542333,-0.127626010207,-2.07464058077,0.0191498107608,2.11303593415,0.00427754644039,-0.351004981279,-0.716202257881,-0.0067270663139,-0.923240069748,-0.099726896188,0.180721892825,-0.314971653725,0.573892620867,0.81891261338,0.00318406400341,0.0,0.8188810824,-0.573824530502,-0.0118291159303,0.0,-0.00786006953932,0.00939619302716,-0.999924962616,0.0,0.543658405154,0.106106148366,0.304359676093,1.0,-0.19998,-0.262830857143,1.982
0.309626632583,0.0326130492732,-0.127689661891,-2.08966518988,0.0173498500106,2.11607559102,-0.00128014335818,-0.374811427801,-0.721980939606,-0.0075128243505,-0.885815280543,-0.113017062239,0.17400434134,-0.327941898508,0.57383238318,0.818954321361,0.00331095746967,0.0,0.818924757143,-0.57376424715,-0.0117293533943,0.0,-0.00770624399816,0.00944228964649,-0.999925725727,0.0,0.540288319712,0.101682621444,0.304426219536,1.0,-0.19998,-0.262830857143,1.999
0.303607727811,0.0212748515165,-0.127795471722,-2.10378631913,0.0156426378378,2.11867217473,-0.00658830354666,-0.378935779726,-0.715526039598,-0.00619416534438,-0.891181040225,-0.0955437918075,0.14755080224,-0.326177295624,0.573830419256,0.8189563348,0.00314936948049,0.0,0.818924024695,-0.573762071949,-0.0118858517124,0.0,-0.00792715741825,0.00939973857564,-0.999924399687,0.0,0.537034084671,0.0974643154515,0.304361004683,1.0,-0.19998,-0.262830857143,2.015
0.297000458297,0.0092230097083,-0.128002206218,-2.11837504543,0.0138136671012,2.12141023419,-0.012323595966,-0.387516018189,-0.689021037593,-0.00892175234568,-0.878942669568,-0.104566245306,0.149800056077,-0.337197998234,0.5739727168,0.818856189831,0.00325693813631,0.0,0.818825821596,-0.573904620365,-0.0117689214712,0.0,-0.00776803190832,0.00942208628033,-0.999925438205,0.0,0.533490855032,0.0926285929592,0.304441239009,1.0,-0.19998,-0.262830857143,2.033
0.289958765915,-0.00343052516227,-0.128080889392,-2.13369815056,0.0120284600801,2.12408801789,-0.0185344975232,-0.392891701584,-0.703653080718,-0.000947656885719,-0.830503943869,-0.0964949482759,0.156030695796,-0.343971372941,0.573969752418,0.818857996123,0.00332451433048,0.0,0.818827459713,-0.573900145848,-0.0118726878742,0.0,-0.00781425659078,0.00953695095956,-0.999923989091,0.0,0.530072885714,0.0881956771803,0.304453362597,1.0,-0.19998,-0.262830857143,2.05
0.283619978362,-0.0146106345164,-0.128099793135,-2.14707080025,0.0103206680244,2.12646488013,-0.024116102539,-0.400523869179,-0.683537033945,-0.00274281630007,-0.863495387585,-0.110914332846,0.139895109419,-0.354161219232,0.57388539083,0.818916582948,0.00345474524576,0.0,0.818888234358,-0.573815956481,-0.0117496645928,0.0,-0.00763975432044,0.00957219538582,-0.999925000802,0.0,0.527104664469,0.0843182014613,0.304510081926,1.0,-0.19998,-0.262830857143,2.065
0.276744228471,-0.0264471901295,-0.128214892109,-2.16112220342,0.00848632527817,2.12864634901,-0.0301572859165,-0.4086908429,-0.708153981128,-0.00783272379259,-0.794082772297,-0.103578997396,0.146313259617,-0.352130003134,0.573834834163,0.818952318705,0.00338078241184,0.0,0.818922845164,-0.573765455197,-0.0118035161047,0.0,-0.00772688948993,0.00954205237214,-0.999924619367,0.0,0.52347395662,0.0795811248347,0.304529675965,1.0,-0.19998,-0.262830857143,2.083
0.269628210727,-0.038172887939,-0.128397308128,-2.17497909114,0.00670321646969,2.13087845151,-0.036259669912,-0.423744617545,-0.683526310747,-0.00744010647148,-0.824136323651,-0.0980493436411,0.121790360305,-0.369033266921,0.574004658357,0.818833003965,0.00345118866356,0.0,0.818804471979,-0.573935047402,-0.0117705111358,0.0,-0.00765747229235,0.00958236142468,-0.999924767904,0.0,0.520097965627,0.0750260995929,0.304549353024,1.0,-0.19998,-0.262830857143,2.1
0.262960187505,-0.0491263738538,-0.128450318495,-2.18783387052,0.00512117293526,2.13278473515,-0.0421417951309,-0.412212102184,-0.686510249318,-0.0023828972598,-0.7994476487,-0.102145303462,0.129374127405,-0.365426376293,0.573953581054,0.818868546914,0.00351234563974,0.0,0.81883997234,-0.573882715426,-0.0118522375301,0.0,-0.0076898981251,0.00967886952864,-0.999923589556,0.0,0.516883601049,0.0708873349091,0.304554679678,1.0,-0.19998,-0.262830857143,2.116
0.255275271143,-0.061337010266,-0.12850822849,-2.20209092467,0.00317467443452,2.13487756034,-0.0488817840192,-0.433141704426,-0.678895290216,-0.00456821994016,-0.799971086529,-0.0990146983501,0.108554755135,-0.381708779713,0.573852628815,0.818939300134,0.00351141001421,0.0,0.818911143018,-0.573782322246,-0.0117954830278,0.0,-0.00764514681596,0.00964458742017,-0.999924263964,0.0,0.513493376433,0.0664537566158,0.304553088838,1.0,-0.19998,-0.262830857143,2.133
0.24832540361,-0.0721583919262,-0.128646676224,-2.21458324361,0.00148590966074,2.13650550364,-0.0549496316391,-0.442918063647,-0.684846256618,-0.0112575483164,-0.770747076448,-0.110868441774,0.112448889364,-0.375344602794,0.573865974764,0.818930128492,0.00346908594849,0.0,0.818901053615,-0.573795351973,-0.0118619282964,0.0,-0.00772369377611,0.00964818094006,-0.999923625663,0.0,0.510073697253,0.0619697940868,0.30454547566,1.0,-0.19998,-0.262830857143,2.15
0.241160534613,-0.0828833126476,-0.128814814711,-2.22687609238,-0.000145744397629,2.13809133255,-0.0611761954005,-0.452267085967,-0.668690529282,-0.00555375244115,-0.753862156702,-0.103377698747,0.0936695246919,-0.385110317366,0.573964504708,0.818860871333,0.00351676496367,0.0,0.818831969383,-0.57389313782,-0.0119003857433,0.0,-0.00772666172114,0.00971022554197,-0.999923002145,0.0,0.506686119518,0.0574352365032,0.304545325896,1.0,-0.19998,-0.262830857143,2.167
0.233127680383,-0.0948966004679,-0.128869945515,-2.24053493766,-0.00196244778644,2.13968072263,-0.068243477774,-0.453932649984,-0.669725049596,-0.00287822294297,-0.732191506842,-0.110366154998,0.092337984818,-0.39843058766,0.573874968003,0.818923628228,0.00351555549838,0.0,0.818893998299,-0.573802725585,-0.0119916037885,0.0,-0.00780312259012,0.00976073646317,-0.999921916602,0.0,0.503260041084,0.053043743521,0.304537072583,1.0,-0.19998,-0.262830857143,2.184
0.225347845775,-0.106164216279,-0.128995244795,-2.25319628774,-0.00380152965199,2.14111256643,-0.0749870042585,-0.454500792824,-0.658835053292,-0.0112086261595,-0.756832576694,-0.09886694769,0.081272200915,-0.400879394183,0.573883821504,0.818917474228,0.00350381518448,0.0,0.81888810252,-0.573812135381,-0.0119438578925,0.0,-0.00777065187398,0.00972380659224,-0.999922529277,0.0,0.499868685816,0.0485703483618,0.304550003515,1.0,-0.19998,-0.262830857143,2.201
0.217798965084,-0.116715966095,-0.129195716859,-2.2650088387,-0.00546844116196,2.14226092908,-0.0814970611523,-0.472729800604,-0.666999230544,-0.00589806572439,-0.704778344917,-0.0975897812136,0.085114274973,-0.401942792193,0.574024351043,0.81881922884,0.00344409537007,0.0,0.818788452325,-0.57395208853,-0.0120506145899,0.0,-0.00789068113487,0.00973751921477,-0.999921455851,0.0,0.496640437811,0.044273199316,0.304528550859,1.0,-0.19998,-0.262830857143,2.217
0.209781525945,-0.127858876088,-0.12927308313,-2.27725294031,-0.00714718330559,2.14349417014,-0.0885606872586,-0.472191694702,-0.648333814449,-0.00269762759706,-0.714485768932,-0.0976907945892,0.0587843609372,-0.421126889864,0.573952382452,0.818869095482,0.0035796708259,0.0,0.818839952313,-0.573879451673,-0.0120105930243,0.0,-0.0077809537227,0.0098248751286,-0.99992146121,0.0,0.493064539124,0.0396045117838,0.304570737787,1.0,-0.19998,-0.262830857143,2.235
0.201111779627,-0.139528750949,-0.129372622329,-2.29008191875,-0.00902588529573,2.14458216064,-0.0961658954337,-0.492381987433,-0.651189068716,-0.00610620797646,-0.700292111266,-0.100294705524,0.0624988604752,-0.423246486743,0.573907675617,0.818900601831,0.00353992788615,0.0,0.818870723616,-0.573834628421,-0.0120542163034,0.0,-0.00784002272699,0.00981693957626,-0.999921077756,0.0,0.489651535257,0.0351443359638,0.304560150583,1.0,-0.19998,-0.262830857143,2.252
0.193772283434,-0.149270062,-0.129544773402,-2.30050441356,-0.0105389745859,2.14555056463,-0.102601263593,-0.498185905207,-0.643952459691,-0.0147746530576,-0.696510684832,-0.0953096534365,0.0592765522657,-0.43406434032,0.573956385914,0.818865463372,0.00376388974153,0.0,0.818839254004,-0.573883478678,-0.0118649022253,0.0,-0.00755586999431,0.00989214752309,-0.999922524122,0.0,0.486714563561,0.031185747815,0.304648882342,1.0,-0.19998,-0.262830857143,2.267
0.183830155564,-0.162074680404,-0.129653587123,-2.31440487194,-0.0126077582127,2.1463872983,-0.111316898108,-0.493208492972,-0.635035842614,0.000932852355213,-0.679610920053,-0.101603364838,0.0489554904304,-0.43433428964,0.573901731972,0.818904398142,0.00362431293001,0.0,0.818875449002,-0.573828150159,-0.0120415949107,0.0,-0.00778133206351,0.00987874324924,-0.999920927525,0.0,0.482448822066,0.0256982247379,0.304605087328,1.0,-0.19998,-0.262830857143,2.288
0.176234035822,-0.171645485607,-0.129724366203,-2.32442009262,-0.0140142938634,2.1471016823,-0.118023885705,-0.511229735047,-0.625589978617,-0.0061597446018,-0.68111514876,-0.103206919327,0.0445349747562,-0.448143075197,0.573878337452,0.818919715559,0.00386007425639,0.0,0.818894155558,-0.573804311655,-0.0119046553943,0.0,-0.00753417481391,0.00999300849056,-0.999921684929,0.0,0.479713787914,0.0220574829534,0.304692675155,1.0,-0.19998,-0.262830857143,2.302
0.167986876674,-0.181734194061,-0.129895482426,-2.33520353003,-0.0156913488261,2.1476246886,-0.125244581754,-0.521508332787,-0.625404149298,-0.0143657564173,-0.676355454128,-0.10712042919,0.0323570289875,-0.45355622036,0.573904670393,0.818901814481,0.00374091452904,0.0,0.818874232252,-0.573830455675,-0.012014441061,0.0,-0.00769214499358,0.00995867408527,-0.999920824724,0.0,0.476467775263,0.0178159983698,0.30464358142,1.0,-0.19998,-0.262830857143,2.318
0.159575841437,-0.191826479997,-0.130018154259,-2.3456337096,-0.0172579845221,2.14814942224,-0.132619645399,-0.526511584948,-0.629389242679,-0.000497081184497,-0.649637009905,-0.108748774284,0.0463136915753,-0.465852346667,0.573942785056,0.818874313108,0.00390969510666,0.0,0.818849366817,-0.573868532564,-0.0118898569306,0.0,-0.00749279169285,0.0100257419898,-0.999921668217,0.0,0.473308687146,0.013595683028,0.304724104879,1.0,-0.19998,-0.262830857143,2.334
0.150072427565,-0.202989412308,-0.130126531683,-2.35728835654,-0.0190197193767,2.14857939797,-0.141069470898,-0.532250717844,-0.620428449653,-0.00985185905279,-0.659729589923,-0.0929846550542,0.0199756240714,-0.480051579956,0.573857893416,0.818933775379,0.00391619829046,0.0,0.818908474983,-0.573783044354,-0.0119446437897,0.0,-0.00753496912838,0.010061729812,-0.999920989795,0.0,0.469697047801,0.00891271749017,0.304709074793,1.0,-0.19998,-0.262830857143,2.352
0.14143371473,-0.212850150589,-0.130314603404,-2.36747961938,-0.0205562416553,2.14878749352,-0.148674934846,-0.539377239549,-0.615714670952,-0.0120087180712,-0.615660703679,-0.0977244293106,0.0202585037094,-0.485244350554,0.573938718092,0.818877153504,0.00391180834882,0.0,0.818850872647,-0.573862644104,-0.0120690085965,0.0,-0.00763834178462,0.0101302540414,-0.999919513605,0.0,0.466468780253,0.00468614899232,0.304693495279,1.0,-0.19998,-0.262830857143,2.368
0.132160088116,-0.223231401798,-0.130408613842,-2.37796930232,-0.0222313747769,2.14908129111,-0.156871115059,-0.537179224548,-0.600280759628,-0.00170561305601,-0.621024825682,-0.0957731915831,0.0172667420643,-0.487953161662,0.57389885429,0.818904465193,0.00404089495848,0.0,0.818880762011,-0.573823522081,-0.0119000006738,0.0,-0.00742634609034,0.0101386030951,-0.999921025937,0.0,0.463128964545,0.000258221946389,0.304759317138,1.0,-0.19998,-0.262830857143,2.385
0.122170109649,-0.234079524853,-0.130529601215,-2.38911666447,-0.0239755650607,2.1491483234,-0.165770984981,-0.566748558046,-0.59589800081,-0.00850652378945,-0.615689094423,-0.102738315191,-0.000596384542535,-0.50232553358,0.573831258852,0.818952323138,0.00394026552127,0.0,0.818926288792,-0.5737549284,-0.01207321676,0.0,-0.0076267889906,0.0101549717066,-0.999919351068,0.0,0.459475457866,-0.00443980146449,0.304686112874,1.0,-0.19998,-0.262830857143,2.403
0.113048920395,-0.243747116483,-0.130735627316,-2.39859709179,-0.025546258266,2.14922715535,-0.173835504324,-0.576302275246,-0.611523096343,-0.0139077499687,-0.582526065173,-0.0980874853369,0.00893233001309,-0.50974746356,0.573910056327,0.818896176875,0.00412863740682,0.0,0.818873771372,-0.573834634337,-0.0118450789898,0.0,-0.00733087590492,0.0101790388122,-0.999921319618,0.0,0.456341365886,-0.00871236263432,0.304794270066,1.0,-0.19998,-0.262830857143,2.419
0.102820165528,-0.254389448845,-0.130843300343,-2.40928396797,-0.0271675966044,2.14919529294,-0.18302262122,-0.570339465317,-0.589525905129,-0.0136396762958,-0.592341554412,-0.0956036823599,-0.00648787303994,-0.515381460822,0.573833625018,0.818949465645,0.00418215497791,0.0,0.818926997118,-0.573756972778,-0.011927132142,0.0,-0.00736831977752,0.0102692668059,-0.999920121821,0.0,0.452731095046,-0.013356903533,0.304757023128,1.0,-0.19998,-0.262830857143,2.437
0.0928448147571,-0.264352825863,-0.131022643048,-2.41916370611,-0.028803571594,2.14904193966,-0.191840278893,-0.593497670929,-0.593371178764,-0.00910679820856,-0.558444129029,-0.0956150430401,-0.00085304242448,-0.528872468981,0.573911447815,0.818894990423,0.00417032705146,0.0,0.818872193649,-0.573834582945,-0.0119561191509,0.0,-0.00739787062523,0.0102769163755,-0.999919825036,0.0,0.449318526592,-0.0178641652734,0.304733800524,1.0,-0.19998,-0.262830857143,2.454
0.0839175926019,-0.273118768947,-0.131188199046,-2.42750216239,-0.0301949204292,2.14892487935,-0.199787971584,-0.590373514569,-0.582609228542,-0.00320167890593,-0.563576626662,-0.0939222696347,-0.0205371134529,-0.522958021681,0.573975594774,0.818848834544,0.00439882616525,0.0,0.81883030752,-0.573899801667,-0.011691536836,0.0,-0.00704925156832,0.0103127475432,-0.999921974601,0.0,0.446405470239,-0.0218450643351,0.304848312829,1.0,-0.19998,-0.262830857143,2.469
0.0738945104917,-0.282857304457,-0.131294657724,-2.43707932911,-0.0317990943405,2.1485651332,-0.208956654023,-0.600619614841,-0.573747047224,-0.0105827990752,-0.55416909433,-0.10041042283,-0.0267292008123,-0.5409916593,0.573749928136,0.819007476891,0.00430344754952,0.0,0.81898710945,-0.573673610375,-0.0118089040289,0.0,-0.00720294507978,0.0103000242146,-0.999921010422,0.0,0.442968856555,-0.0262121626486,0.304786304797,1.0,-0.19998,-0.262830857143,2.486
0.0634190821825,-0.292505842905,-0.13150163738,-2.44636363896,-0.0332591890144,2.14816090492,-0.218291441087,-0.623596450956,-0.560381454047,-0.0161873016693,-0.5381552109,-0.0825522063327,-0.0193520226051,-0.558542065778,0.573900746206,0.818901244867,0.00440812424567,0.0,0.818881554906,-0.573823065043,-0.0118674327659,0.0,-0.00718891050842,0.0104206607864,-0.999919861486,0.0,0.439566581146,-0.0307407182466,0.304781537408,1.0,-0.19998,-0.262830857143,2.503
0.0535761918365,-0.301575731927,-0.131615265323,-2.45477105719,-0.0347269596921,2.1477921057,-0.227160180809,-0.603137387963,-0.549600515658,-0.00501203078549,-0.524247755978,-0.0865230061325,-0.0280850264966,-0.558295372449,0.573855717093,0.818931780561,0.00459365306254,0.0,0.818916045139,-0.573779742282,-0.0115786554665,0.0,-0.00684651568394,0.0104064941917,-0.999922412041,0.0,0.436445252243,-0.0349215805944,0.304896633081,1.0,-0.19998,-0.262830857143,2.519
0.042358062651,-0.311513450044,-0.131788653563,-2.46432922466,-0.036322461529,2.14709095695,-0.23729658264,-0.634351685446,-0.548601064127,-0.00711203406697,-0.526082878938,-0.0874914858139,-0.0431861383951,-0.573238063462,0.5738422332,0.818941822474,0.00448661350131,0.0,0.818923271289,-0.573764466861,-0.0118219799722,0.0,-0.00710739125943,0.0104583449492,-0.999920050809,0.0,0.432778748459,-0.039616066247,0.304809578321,1.0,-0.19998,-0.262830857143,2.537
0.0313908128611,-0.320822662192,-0.131985373791,-2.4729756821,-0.0378843198051,2.14646410578,-0.247066384231,-0.639383205986,-0.549016322161,-0.00422678215613,-0.492604510088,-0.0902924757962,-0.0341303356768,-0.586764724435,0.573976651932,0.818847421381,0.00452221579619,0.0,0.818829870606,-0.573899542372,-0.0117347846237,0.0,-0.00701383559169,0.0104386187404,-0.999920917548,0.0,0.429392739042,-0.0441739566382,0.304840020715,1.0,-0.19998,-0.262830857143,2.554
0.0212779247958,-0.329481623631,-0.132083331294,-2.48084037688,-0.0391909505875,2.14592745624,-0.256461036733,-0.639148583154,-0.528555742489,-0.00876326323557,-0.499287938485,-0.0877657951367,-0.0363604987954,-0.592577749905,0.573775645872,0.818986991818,0.00474998303196,0.0,0.818973403276,-0.573699417858,-0.0115017205912,0.0,-0.00669482594362,0.0104897188897,-0.999922569554,0.0,0.426284320918,-0.0482679633317,0.304929568081,1.0,-0.19998,-0.262830857143,2.57
0.0100544423506,-0.338463520396,-0.132303930875,-2.48926271391,-0.040606493472,2.14503504858,-0.266543190163,-0.67553417679,-0.531618093349,-0.012556776365,-0.484562937889,-0.0836092433614,-0.045134706954,-0.581906965016,0.573951135387,0.818864359643,0.00469058584669,0.0,0.818848490357,-0.573872723166,-0.0117470995206,0.0,-0.0069276152316,0.010583344009,-0.999919997288,0.0,0.422618698388,-0.0530617581676,0.304855060367,1.0,-0.19998,-0.262830857143,2.588
-0.0011595673639,-0.347387422117,-0.132413070932,-2.49739833954,-0.0420985984826,2.14417161356,-0.276819150931,-0.658297797933,-0.52010663795,-0.00631467934466,-0.468738440134,-0.0760742829334,-0.0527876598834,-0.623755779305,0.573819109808,0.818957129846,0.00464710606559,0.0,0.818940686679,-0.573740847536,-0.0117617376145,0.0,-0.00696625842814,0.0105550172569,-0.999920028229,0.0,0.419407607593,-0.0572207685122,0.304847355357,1.0,-0.19998,-0.262830857143,2.604
-0.011845944794,-0.355676827869,-0.132609279975,-2.5046727813,-0.0433693890992,2.14341404051,-0.286618542321,-0.677902644803,-0.507046929953,-0.0147786635957,-0.455070457462,-0.0728003759492,-0.0480160390339,-0.624320878633,0.573847241115,0.818936065765,0.00487964706292,0.0,0.818923704883,-0.57376991498,-0.0115237644215,0.0,-0.00663755941133,0.0106091433307,-0.999921691375,0.0,0.416292442145,-0.0614240647033,0.304955446776,1.0,-0.19998,-0.262830857143,2.62
-0.0235008127998,-0.364227518541,-0.132796822467,-2.51248451062,-0.0448618108976,2.14237427698,-0.297223214634,-0.673228361778,-0.502041128956,-0.00864839016882,-0.455457509167,-0.0823490274526,-0.0576086704941,-0.61578037422,0.573876589027,0.818916418336,0.00472305495699,0.0,0.818901219398,-0.573798466323,-0.0116987099399,0.0,-0.00687031622729,0.0105815349472,-0.999920411769,0.0,0.41283400947,-0.065942874557,0.304882589695,1.0,-0.19998,-0.262830857143,2.637
-0.0350437633933,-0.37269511102,-0.132921442321,-2.52008954729,-0.0461312413335,2.14135773115,-0.307960208643,-0.686682659856,-0.485844582108,-0.0048317975781,-0.446287751798,-0.082618853672,-0.0607165966609,-0.642178757717,0.573758573402,0.818998817893,0.00477311622492,0.0,0.818983347352,-0.573678886333,-0.0118135107946,0.0,-0.00693714893729,0.0106874115694,-0.999918824305,0.0,0.409419838993,-0.0703050165301,0.304849316883,1.0,-0.19998,-0.262830857143,2.654
-0.0470386638619,-0.381018135844,-0.133157144385,-2.52725931503,-0.0475296740149,2.14031861368,-0.318826340307,-0.705742927817,-0.484495007775,-0.00972082741745,-0.412076913989,-0.089051430153,-0.0573492697702,-0.631232740286,0.57394149525,0.818870112836,0.00486263670365,0.0,0.818856750827,-0.573862963539,-0.011647643722,0.0,-0.00674755013082,0.0106670743198,-0.999920338873,0.0,0.40606016233,-0.0748700105559,0.304926637228,1.0,-0.19998,-0.262830857143,2.671
-0.0588921848688,-0.389134468022,-0.133284714251,-2.53435915781,-0.0488260466197,2.13927570621,-0.329926478708,-0.701038301096,-0.475699229698,-0.00921895015898,-0.418125311646,-0.0908512732351,-0.0620095317029,-0.649369359441,0.57377814335,0.818984288737,0.00491161041809,0.0,0.818971680797,-0.573699677364,-0.0116109063593,0.0,-0.00669148940596,0.0106847598477,-0.99992052678,0.0,0.402691818117,-0.0792579422314,0.304931700098,1.0,-0.19998,-0.262830857143,2.688
-0.0711555144136,-0.397146386254,-0.133516234859,-2.54135541872,-0.050154149185,2.138049454,-0.341185166073,-0.723896178292,-0.458431736954,-0.0110721990531,-0.406845049034,-0.0802176389171,-0.070465942893,-0.670883106295,0.573883299046,0.818910794859,0.00488016812053,0.0,0.818896980977,-0.57380364917,-0.011741109258,0.0,-0.00681479404474,0.0107345881301,-0.999919160332,0.0,0.399231219345,-0.0837818978187,0.304902588135,1.0,-0.19998,-0.262830857143,2.705
-0.0825904270944,-0.404506457205,-0.133602106313,-2.54771047151,-0.0513438317511,2.13691984305,-0.351887901807,-0.714525758051,-0.460669689655,-0.0136598826272,-0.381514505087,-0.0723652889746,-0.0694515114322,-0.666474715214,0.573739419433,0.819011694811,0.00486510562266,0.0,0.818997425359,-0.57365943552,-0.011782028525,0.0,-0.0068588374592,0.0107445300502,-0.999918752411,0.0,0.396030700974,-0.0878962868604,0.30489307396,1.0,-0.19998,-0.262830857143,2.721
-0.0950936127392,-0.412118518003,-0.133835691677,-2.55406182537,-0.0524925727563,2.13582105561,-0.363478824018,-0.739729531943,-0.446818759561,-0.0153747895438,-0.363304725629,-0.0678981820994,-0.0663714309563,-0.67553809242,0.573866829559,0.81892111564,0.00508086537301,0.0,0.818910335995,-0.573787237095,-0.0116109883222,0.0,-0.00659327474707,0.0108241426246,-0.999919680107,0.0,0.39269621926,-0.0924152638789,0.304968427878,1.0,-0.19998,-0.262830857143,2.738
-0.107650076745,-0.419586310261,-0.13394698317,-2.56032813061,-0.0536805819137,2.13460849897,-0.375254195614,-0.736209969006,-0.424092174305,-0.00852462753374,-0.366676207869,-0.0697431197398,-0.0783885319979,-0.695459240797,0.573782737718,0.818979733943,0.00512954073797,0.0,0.818969716565,-0.573703227957,-0.0115739570862,0.0,-0.00653612805656,0.0108420840512,-0.999919860911,0.0,0.389114100386,-0.0971095571744,0.304989954938,1.0,-0.19998,-0.262830857143,2.756
-0.119613556689,-0.42638627398,-0.134155744193,-2.56618646729,-0.0548604030551,2.13331758634,-0.386431051397,-0.762097893843,-0.42120529685,-0.0189230044492,-0.359094229504,-0.0692807991412,-0.0775296608109,-0.697790942264,0.573783042361,0.818980155048,0.00502720968253,0.0,0.818967584695,-0.573701860577,-0.01179055941,0.0,-0.00677224501205,0.0108825543438,-0.99991784998,0.0,0.38604942488,-0.101054021988,0.304925239964,1.0,-0.19998,-0.262830857143,2.771
-0.133947725945,-0.43424221724,-0.134292073445,-2.57278686161,-0.0561149904467,2.13196746484,-0.399881539812,-0.755877292365,-0.406288112551,-0.00906918965254,-0.339338840071,-0.069584132849,-0.0756901782435,-0.718752062581,0.573741992038,0.819008652107,0.00506963965837,0.0,0.81899649345,-0.573660448462,-0.0117974780505,0.0,-0.00675411487412,0.0109209359229,-0.999917554147,0.0,0.382263046817,-0.106002002958,0.304911889451,1.0,-0.19998,-0.262830857143,2.79
-0.147009608126,-0.441036534129,-0.134524037493,-2.57830052124,-0.0572654861261,2.13070813124,-0.412107358928,-0.786864625003,-0.407151438818,-0.0173299262441,-0.316279839461,-0.0662139933602,-0.0744476903029,-0.715996271517,0.573825095354,0.818950013326,0.00513639129355,0.0,0.818939224108,-0.573744134736,-0.0117030754611,0.0,-0.00663738721672,0.0109221209777,-0.999918322847,0.0,0.378899991534,-0.110525834453,0.304962489822,1.0,-0.19998,-0.262830857143,2.807
-0.158579724576,-0.446956722843,-0.134604094729,-2.58302073417,-0.0581976527382,2.12962111825,-0.423024430306,-0.761897683326,-0.3887147746,-0.00724731170824,-0.315459476586,-0.0560702699205,-0.0721134999267,-0.729936165437,0.573772710966,0.818986004744,0.00524853160981,0.0,0.818977598922,-0.573692964036,-0.0115248592504,0.0,-0.00642777653124,0.0109112896274,-0.999919810509,0.0,0.375752000605,-0.114698719676,0.305038776222,1.0,-0.19998,-0.262830857143,2.823
-0.172582547848,-0.453745332968,-0.134856635616,-2.58873476094,-0.0592912082279,2.12817656802,-0.436315131011,-0.784181344262,-0.372892538798,-0.0238576638434,-0.312234390731,-0.0513795062851,-0.0812014643533,-0.750011341664,0.573783277954,0.818978708044,0.00523188420931,0.0,0.818968219369,-0.573700451677,-0.011815003576,0.0,-0.00667483054135,0.0110642113961,-0.999916511447,0.0,0.372280836607,-0.119147158998,0.304951149335,1.0,-0.19998,-0.262830857143,2.84
-0.185961698948,-0.459985486101,-0.134972097654,-2.59375732641,-0.0603153356902,2.12689614699,-0.449004268843,-0.783719566828,-0.365492904101,-0.00828395655937,-0.293954839239,-0.0556983675769,-0.0722674287644,-0.750952573371,0.573730654278,0.819015365214,0.00526448340296,0.0,0.819005418234,-0.573647921376,-0.0117870312941,0.0,-0.00663392750259,0.0110744348248,-0.999916670478,0.0,0.368891765535,-0.123584976816,0.304970799918,1.0,-0.19998,-0.262830857143,2.857
-0.198715759459,-0.465527413263,-0.135173396962,-2.59829209816,-0.0613046988531,2.12576861136,-0.461099667887,-0.806829707735,-0.34258972036,-0.0130402953418,-0.282170904821,-0.0600062876619,-0.0739519480029,-0.75256950012,0.573753365745,0.818999482361,0.00526023668416,0.0,0.818989302576,-0.573670347293,-0.0118153207769,0.0,-0.00665922800551,0.0110873711027,-0.999916358944,0.0,0.365693312406,-0.127818423814,0.304942916514,1.0,-0.19998,-0.262830857143,2.873
-0.212354969708,-0.47128415709,-0.135289994579,-2.60285701366,-0.0622591005918,2.12451620352,-0.47403161307,-0.804884061605,-0.345534155783,-0.0123126810801,-0.26097548371,-0.0541395727753,-0.0750988298232,-0.776838393159,0.573764209121,0.81899165369,0.00529626460862,0.0,0.818982079836,-0.57368129438,-0.0117844086054,0.0,-0.00661309167791,0.0110992313825,-0.999916533557,0.0,0.362314617385,-0.132268843997,0.30496526518,1.0,-0.19998,-0.262830857143,2.89
-0.226977656641,-0.47719990435,-0.135546199349,-2.60740756936,-0.0632295520279,2.12324842306,-0.487956379603,-0.822332421756,-0.324572898747,-0.0131501846801,-0.248257434901,-0.0580245860605,-0.0771556364954,-0.780005128142,0.573859555035,0.818923855483,0.00544765233446,0.0,0.818917032873,-0.573777465017,-0.0116215665575,0.0,-0.00639156100262,0.0111305365967,-0.999917626159,0.0,0.358738977744,-0.13705033265,0.30503970702,1.0,-0.19998,-0.262830857143,2.908
-0.239144601116,-0.481859523534,-0.135610614125,-2.61114643777,-0.0640603741015,2.12216600077,-0.499693227775,-0.808356611738,-0.310878388471,-0.00833097530976,-0.245752864945,-0.0441686940303,-0.0700964854499,-0.788165032943,0.573698987517,0.81903668067,0.00539762364889,0.0,0.819028924262,-0.573616595903,-0.011677715016,0.0,-0.00646843497845,0.0111205172763,-0.999917243298,0.0,0.355737739374,-0.140931376541,0.305016696344,1.0,-0.19998,-0.262830857143,2.923
-0.253183208658,-0.486873381678,-0.135815859729,-2.61517591906,-0.0648998588687,2.120938831,-0.51308377949,-0.834474264055,-0.285906082654,-0.0165144516719,-0.235574217516,-0.044752460553,-0.0757771520863,-0.783718260418,0.573798075611,0.818966990141,0.0054391529352,0.0,0.818958666054,-0.573713624785,-0.011837522229,0.0,-0.00657415037721,0.011247005447,-0.999915139107,0.0,0.352297549711,-0.145410560533,0.304972978005,1.0,-0.19998,-0.262830857143,2.94
-0.267202930802,-0.491573719229,-0.135898820547,-2.6189062205,-0.0656553476224,2.11982947306,-0.526585883702,-0.829499306298,-0.279378175358,-0.00539804233379,-0.205332053589,-0.0400355494889,-0.0572295828119,-0.795767877606,0.573752454969,0.818998599446,0.00549194171015,0.0,0.818990544592,-0.573667105698,-0.0118864044497,0.0,-0.00658452906385,0.0113179199709,-0.999914270658,0.0,0.348933609031,-0.149820703702,0.304952678509,1.0,-0.197840571429,-0.260019036735,2.957
-0.280543181719,-0.495743240133,-0.136023437846,-2.6221595496,-0.066363014677,2.11883003257,-0.539317377528,-0.840078505323,-0.258696411657,-0.00877954600618,-0.193764476447,-0.0414965282616,-0.0645839969385,-0.7957915273,0.573856477809,0.818925333628,0.00554866831317,0.0,0.818917935,-0.573770758405,-0.0118861026667,0.0,-0.00655029307914,0.0113650398205,-0.999913961064,0.0,0.345771978281,-0.154017781265,0.304951688322,1.0,-0.194878285714,-0.256125746939,2.973
-0.294406341959,-0.499976093888,-0.136010752355,-2.62539877067,-0.0670217955987,2.11773248553,-0.552726537157,-0.811456536184,-0.250975021178,-0.00040672371187,-0.186826859813,-0.0429932793277,-0.0624792761782,-0.785773197037,0.573755293577,0.818995938962,0.00559123928608,0.0,0.818988970889,-0.573669220908,-0.0118927476513,0.0,-0.00653271591935,0.0114029097703,-0.999913644907,0.0,0.342486900704,-0.158285726455,0.304970530277,1.0,-0.191730857143,-0.251989126531,2.99
-0.308434594056,-0.503820328455,-0.136056570285,-2.62833879428,-0.0676493112077,2.11676972815,-0.566061876406,-0.824111143961,-0.218898611663,0.0023098051291,-0.169509397922,-0.0293996811325,-0.0539739825642,-0.785577901982,0.573921172923,0.818879280665,0.00565312925031,0.0,0.818873248047,-0.573835067681,-0.0118602543901,0.0,-0.00646827731188,0.0114362676051,-0.999913682861,0.0,0.339223856025,-0.162619874219,0.304985221439,1.0,-0.188583428571,-0.247852506123,3.007
-0.321299084912,-0.507152126903,-0.135984083995,-2.63082694181,-0.068135020752,2.11599384945,-0.578571286451,-0.796468348412,-0.203412875626,0.00236273547919,-0.152798710534,-0.0346808599827,-0.0444480718624,-0.788805346909,0.573826111303,0.818945330465,0.00573468377474,0.0,0.818941178513,-0.573741201863,-0.0117100948506,0.0,-0.00629982442712,0.0114161466762,-0.99991498829,0.0,0.336098140298,-0.166784582222,0.305027828177,1.0,-0.185436,-0.243715885714,3.024
-0.335031884037,-0.510426893751,-0.135993179327,-2.63332274326,-0.0686731628727,2.11512147425,-0.591694836019,-0.801221712559,-0.185656543602,0.000266966168043,-0.141780525907,-0.0363840602671,-0.0518674189734,-0.772268277201,0.573944379668,0.818862130779,0.00577985503131,0.0,0.818858539353,-0.573859243579,-0.011705041158,0.0,-0.00626811238781,0.0114511467051,-0.999914787373,0.0,0.333113902951,-0.170723510882,0.305035418376,1.0,-0.182473714286,-0.239822595918,3.04
-0.34914167489,-0.513561796175,-0.135845596755,-2.6357665089,-0.0690888011768,2.1142186369,-0.605450404205,-0.786563678379,-0.16739174654,0.00954074413187,-0.131913495432,-0.0283828357335,-0.0464000228831,-0.76359822361,0.57381259187,0.818954163112,0.0058253785562,0.0,0.818950391387,-0.573725910001,-0.0118145478521,0.0,-0.00633352447551,0.0115502547516,-0.999913235277,0.0,0.329863545823,-0.174921749191,0.305011524129,1.0,-0.179141142857,-0.235442644898,3.058
-0.361813936529,-0.516016544462,-0.135816786719,-2.63775283213,-0.0695450902994,2.11351588735,-0.617567155628,-0.78123652389,-0.147277024341,0.00890529112737,-0.121874391076,-0.0377041974606,-0.0413030786825,-0.756137043191,0.573939143595,0.818865645672,0.00580178331397,0.0,0.81886073498,-0.573851019992,-0.0119520066854,0.0,-0.00645785273266,0.0116108005738,-0.999911738829,0.0,0.326951650753,-0.178726880051,0.304955718744,1.0,-0.176178857143,-0.231549355102,3.074
-0.374815759806,-0.518371145172,-0.135645316877,-2.63959699919,-0.0698743864254,2.11288738813,-0.630270238863,-0.764794588529,-0.129204143267,0.0112913386514,-0.106609812624,-0.0252819874228,-0.0378630464962,-0.746902291475,0.573815964197,0.818951756672,0.00583149883059,0.0,0.818947049449,-0.5737274175,-0.0119719467441,0.0,-0.00645888040607,0.0116456071395,-0.999911327418,0.0,0.324018438207,-0.182572520725,0.304935937322,1.0,-0.173031428571,-0.227412734694,3.091
-0.387864477265,-0.520503624384,-0.135589890952,-2.64118314662,-0.0702548500307,2.112263752,-0.642845618915,-0.756526575131,-0.117208929409,0.0134682124258,-0.0888847401749,-0.0160839071592,-0.0322361455281,-0.739824246602,0.573910345345,0.81888547383,0.0058517653319,0.0,0.81888111751,-0.573821856524,-0.0119557208611,0.0,-0.00643261914346,0.0116536363912,-0.99991140316,0.0,0.321079500395,-0.186472544774,0.304947507507,1.0,-0.169884,-0.223276114286,3.108
-0.399725057988,-0.522300570861,-0.135439101109,-2.64252895294,-0.0704734233679,2.11174854736,-0.654560246635,-0.743584461794,-0.10892037352,0.00556455174977,-0.0835675851557,-0.0140829035156,-0.0330908203314,-0.729676554592,0.573752114397,0.81899587125,0.00591785447947,0.0,0.818992394458,-0.573663430774,-0.0119362017957,0.0,-0.00638096613892,0.0116953239996,-0.999911247395,0.0,0.318425033456,-0.189958840945,0.304955648168,1.0,-0.166921714286,-0.21938282449,3.124
-0.412489782341,-0.524062723434,-0.135370960478,-2.64374536255,-0.0707449433934,2.11121064127,-0.666787162165,-0.74332224,-0.0978432901185,0.00510602498754,-0.0687492604764,-0.0188095670944,-0.0344151606563,-0.719968680635,0.573957414977,0.818851510358,0.00598637439981,0.0,0.818849439153,-0.57386937407,-0.0118441717643,0.0,-0.00626334159708,0.0117002147936,-0.999911933885,0.0,0.315572510512,-0.193745112994,0.305004790871,1.0,-0.163774285714,-0.215246204082,3.141
-0.424781292875,-0.525508012404,-0.135213230664,-2.64481445507,-0.0709457772726,2.11079566662,-0.678873831488,-0.722687156766,-0.0796350648643,0.000837512325808,-0.0585294310481,-0.0114153311089,-0.0251153108374,-0.702476190884,0.573866061504,0.818915203814,0.00603152693273,0.0,0.818913964873,-0.573778328519,-0.0117938441317,0.0,-0.00619751815045,0.0117076139244,-0.999912257423,0.0,0.31284369649,-0.197349175099,0.305016812777,1.0,-0.160626857143,-0.211109583674,3.158
-0.436384336489,-0.5266696458,-0.1351396932,-2.6457081889,-0.0711313759475,2.11039514911,-0.690081595625,-0.723652922195,-0.0705700431094,0.00238426942699,-0.0545093516119,-0.0161682216879,-0.0211362490117,-0.696477300699,0.57400711907,0.818815963089,0.00608216642263,0.0,0.818814996036,-0.573918431747,-0.0118483276515,0.0,-0.00621105198401,0.0117814203251,-0.999911306551,0.0,0.310242871854,-0.200756198934,0.305003237925,1.0,-0.157664571429,-0.207216293878,3.174
-0.448951698553,-0.527726364882,-0.134941322837,-2.64656049934,-0.071284408555,2.11004840024,-0.702491814521,-0.688062942824,-0.0581050974581,0.0111764563381,-0.0402519250997,-0.00250105237264,-0.0183544203691,-0.687589110095,0.573881616102,0.818903767966,0.00610380313659,0.0,0.818902741871,-0.573792223907,-0.0118966399267,0.0,-0.00624000862561,0.0118259117572,-0.999910601056,0.0,0.307450129247,-0.204403904174,0.304977556597,1.0,-0.154332,-0.202836342857,3.192
-0.460803063169,-0.528528489746,-0.13482296479,-2.64720044113,-0.0714312343419,2.10975143554,-0.713982690586,-0.696401967776,-0.046881090876,0.0036089970243,-0.0354685574215,-0.00106417040819,-0.016867550457,-0.666593985773,0.573993981334,0.818824786983,0.00613388254028,0.0,0.81882380512,-0.573903785394,-0.0119485639997,0.0,-0.00626364255735,0.0118812016132,-0.999909797847,0.0,0.304810070746,-0.207861962572,0.304957294676,1.0,-0.151184571429,-0.198699722449,3.209
-0.471655550248,-0.529074988578,-0.134605151521,-2.64765161723,-0.0715346225019,2.10952423601,-0.724618760402,-0.667332410914,-0.0311306245395,0.00906309651482,-0.0248845687049,-0.00181184338589,-0.016539360883,-0.65945042666,0.573947701644,0.81885736269,0.0061157376426,0.0,0.818855853872,-0.573857041244,-0.011997237019,0.0,-0.00631458833172,0.0118939231774,-0.999909326172,0.0,0.302419367132,-0.210999847958,0.304937853662,1.0,-0.148222285714,-0.194806432653,3.225
-0.4836179421,-0.529559886638,-0.134448435753,-2.64802190376,-0.0715963103342,2.10930531133,-0.736415401435,-0.667160029777,-0.0245877338644,0.00796911412984,-0.0162793902785,-0.00476633902925,-0.0081877081965,-0.652966359971,0.573925279908,0.818872650703,0.00617267479697,0.0,0.818871684146,-0.573834006804,-0.0120185040585,0.0,-0.00629965485228,0.0119525820368,-0.9999087209,0.0,0.299772076049,-0.214471365871,0.304931797676,1.0,-0.144889714286,-0.190426481633,3.243
-0.494770117859,-0.529841615983,-0.134266732737,-2.64821960175,-0.0716435585425,2.10912814174,-0.747327258487,-0.636610444369,-0.00893853741626,0.017003207268,-0.00820166483145,0.000886049560759,-0.00685669073713,-0.642218371738,0.573962309415,0.818846505415,0.00619797082413,0.0,0.818845757462,-0.573870709235,-0.0120325171437,0.0,-0.00629607192071,0.0119816241255,-0.999908395885,0.0,0.297314738011,-0.217701643168,0.304934204005,1.0,-0.141742285714,-0.186289861225,3.26
-0.504877217042,-0.529997424564,-0.134098304242,-2.64835263585,-0.0716699146954,2.10904140998,-0.757392729804,-0.637748759788,-0.0144036222668,0.0101918745027,-0.00688353472076,-0.00211787423699,-0.00751270566586,-0.616604644838,0.573858882262,0.818918771316,0.00622704880311,0.0,0.818918412408,-0.573767198472,-0.0120242537258,0.0,-0.0062741315371,0.0119999007582,-0.999908314625,0.0,0.295082109173,-0.220619809515,0.304927441827,1.0,-0.13878,-0.182396571429,3.276
-0.515692774971,-0.530052577153,-0.133960115765,-2.64840826297,-0.0716852985594,2.10892964255,-0.767872313733,-0.632315673255,0.00319665793643,0.00243416351183,0.00381573921542,-0.00584440315339,-0.00386532927287,-0.603713665039,0.574026928987,0.818800624366,0.00627449090932,0.0,0.818800607554,-0.573934472695,-0.012063706858,0.0,-0.00627674492283,0.0120626818126,-0.999907542816,0.0,0.292670761869,-0.223741727967,0.304916228832,1.0,-0.135632571429,-0.17825995102,3.293
-0.525956256175,-0.529967356889,-0.133725064321,-2.64835767433,-0.0716814268319,2.10891852983,-0.778140488225,-0.602652641705,0.0024928140454,0.0177293097156,0.00689737162418,-3.59232870622e-05,3.19731619637e-05,-0.596063481661,0.573862037926,0.818916201123,0.00627406301404,0.0,0.818916345936,-0.573769940874,-0.0120341268757,0.0,-0.00625519313215,0.0120440932173,-0.999907901948,0.0,0.290412555868,-0.226686340009,0.304913154567,1.0,-0.132485142857,-0.174123330612,3.31
-0.535600875141,-0.529831785185,-0.133582757121,-2.64825120111,-0.0716821467677,2.10890979456,-0.787556684402,-0.595002949622,0.00546161625658,0.00545187925414,0.00933443096529,0.000107537917225,-0.000168121549821,-0.591373706047,0.57392618102,0.818871087747,0.00629502127666,0.0,0.818871757707,-0.573834466587,-0.0119915089736,0.0,-0.00620731933063,0.0120372878426,-0.999908282238,0.0,0.288401116219,-0.229289905877,0.304921085984,1.0,-0.129708,-0.170473371429,3.325
-0.545637024364,-0.529584977983,-0.133399309513,-2.64801606621,-0.0716851087797,2.10892248383,-0.797390689489,-0.57234321471,0.0211926741524,0.0198173988102,0.0151209611895,0.000793524367886,0.000432609268389,-0.571808321531,0.574002570014,0.818817543072,0.00629505165597,0.0,0.81881855594,-0.573911504756,-0.0119375063814,0.0,-0.00616195571395,0.0120068956189,-0.999908928233,0.0,0.286035209251,-0.232356541119,0.304937478665,1.0,-0.126375428571,-0.166093420408,3.343
-0.555160102288,-0.529149418308,-0.133181245253,-2.64769893239,-0.0716826350926,2.10893211622,-0.807000552595,-0.562212088901,0.0286838655864,0.00954362934284,0.0142175546316,0.000468042026061,0.00387335788453,-0.557573155959,0.573796975591,0.818961910674,0.00625832002009,0.0,0.818962198883,-0.57370563189,-0.0119796343627,0.0,-0.00622055057003,0.0119994365173,-0.999908654965,0.0,0.283922608085,-0.235088620047,0.304928957791,1.0,-0.123228,-0.1619568,3.36
-0.564202530207,-0.528692638008,-0.133029446422,-2.64735370168,-0.0716666500745,2.10896967362,-0.815799967342,-0.56284061014,0.0364290629956,0.00942330182656,0.0195501759085,0.00229250463736,5.06844231281e-05,-0.532187563938,0.573915372805,0.818878972993,0.00625454629192,0.0,0.818879132172,-0.573823865765,-0.0119952020656,0.0,-0.00623373083513,0.0120061794612,-0.99990849194,0.0,0.281897382569,-0.23768980997,0.304926114127,1.0,-0.120265714286,-0.158063510204,3.376
-0.573958177907,-0.527993441839,-0.132797474605,-2.64682399187,-0.0716195975675,2.10912281944,-0.825508947534,-0.522883305389,0.0432121962683,0.00984000502034,0.0283894535277,0.00876480489924,0.00725252881079,-0.53096724904,0.573839988818,0.818932058764,0.0062207124129,0.0,0.818932105257,-0.573749271602,-0.0119468496323,0.0,-0.0062146486006,0.0119501512493,-0.999909281899,0.0,0.279754397795,-0.240506959922,0.304930383696,1.0,-0.116933142857,-0.153683559184,3.394
-0.582877252213,-0.527242609223,-0.132609164576,-2.64627147886,-0.0715871226158,2.10921603615,-0.834384765099,-0.527127898745,0.042529703992,0.0124179098889,0.0345614709282,-0.000117565915391,0.00423193265208,-0.523275742905,0.573787690803,0.818968965886,0.00618592760831,0.0,0.818968287498,-0.573696610305,-0.0119954282638,0.0,-0.00627515859634,0.0119491376816,-0.999908916098,0.0,0.277771114303,-0.243080984436,0.304919743695,1.0,-0.113785714286,-0.149546938776,3.411
-0.591199721489,-0.526472593889,-0.13242829883,-2.6456869642,-0.0715124265446,2.10934427942,-0.842518124339,-0.513327530351,0.0506672137015,0.0113444413364,0.0386495672081,0.00176500080395,0.00647138471293,-0.503997350764,0.573879588322,0.818904632433,0.00617802470316,0.0,0.818903836789,-0.573788494473,-0.0120006918119,0.0,-0.0062826635847,0.0119463902148,-0.9999089018,0.0,0.275925856519,-0.245483458681,0.30491928732,1.0,-0.110823428571,-0.14565364898,3.427
-0.599615885794,-0.525513133974,-0.132187870708,-2.64500053463,-0.0713998889016,2.10949784496,-0.850948652745,-0.477955267459,0.0607395136336,0.0178101746708,0.0366602886212,0.0125856365802,0.00609264828871,-0.481953240753,0.573784725229,0.81897122119,0.00616237441275,0.0,0.81896981731,-0.573692952962,-0.0120656934201,0.0,-0.00634626708599,0.0119701396931,-0.999908216113,0.0,0.274076378404,-0.247905771373,0.304899277534,1.0,-0.107676,-0.141517028571,3.444
-0.607776134709,-0.524537855828,-0.131956294308,-2.64430154094,-0.0712588524503,2.10966966189,-0.859164926343,-0.484840120367,0.0582975100848,0.00864842176254,0.0372414560336,0.00809116690551,0.0165808038569,-0.475502803082,0.57367460195,0.819048293075,0.00617183837468,0.0,0.819046666376,-0.573582159622,-0.0121165738844,0.0,-0.00638412568836,0.0120062255034,-0.99990754247,0.0,0.272276068779,-0.250248855219,0.304880245911,1.0,-0.104528571429,-0.137380408163,3.461
-0.615405112894,-0.523620430222,-0.131758428608,-2.64356925953,-0.0711100097121,2.10983164771,-0.866613274347,-0.476395413915,0.061244397736,0.0057987958228,0.0439566157967,0.00928239120988,0.00983604861714,-0.454138243587,0.573786618476,0.818969659115,0.00619361024315,0.0,0.818968467957,-0.573694341854,-0.0120912165976,0.0,-0.00634922262526,0.0120103810138,-0.999907714802,0.0,0.27059122146,-0.252449873463,0.304895576137,1.0,-0.101566285714,-0.133487118367,3.477
-0.623637543205,-0.522459358297,-0.131536965348,-2.64265230135,-0.070934296822,2.11004674205,-0.874766065276,-0.442654680631,0.0635847012156,0.0147991699152,0.0498962618391,0.014090960846,0.0177608435717,-0.449974914307,0.573820728398,0.818945634879,0.00621012675962,0.0,0.818944793597,-0.573728627056,-0.0120679094171,0.0,-0.00632015592222,0.0120107987944,-0.999907893929,0.0,0.268788599219,-0.25484377583,0.304910270247,1.0,-0.0982337142858,-0.129107167347,3.495
-0.630581488017,-0.521428784464,-0.131301868556,-2.64186312644,-0.0707708609979,2.11024122618,-0.88182247415,-0.441272808961,0.070529851491,0.00668208220995,0.0499628045945,0.00899130134493,0.0129512275824,-0.434442835705,0.573675461505,0.819047379803,0.00621300297619,0.0,0.81904654702,-0.573583323673,-0.0120694457065,0.0,-0.00632189470055,0.0120129147559,-0.999907857518,0.0,0.267268171746,-0.256845863104,0.304912989192,1.0,-0.0952714285715,-0.125213877551,3.511
-0.637524858589,-0.520389869594,-0.131100463886,-2.64104391714,-0.070604487526,2.1104214668,-0.888626949231,-0.425678834449,0.0724810073112,0.0140389872304,0.0500898518651,0.0099660299356,0.0078275559671,-0.416268729498,0.573762467429,0.818986301648,0.00623021537264,0.0,0.818985712247,-0.573670271655,-0.0120652167815,0.0,-0.00630727935983,0.0120252574485,-0.999907801455,0.0,0.265730672392,-0.258851490934,0.30492389774,1.0,-0.0923091428572,-0.121320587755,3.527
-0.64502551639,-0.519176616676,-0.13092195608,-2.64008154475,-0.0704061297828,2.11066965016,-0.896033685921,-0.420744918468,0.0677975177732,0.00558738857171,0.0519708387083,0.00925322493127,0.0198480461947,-0.403088471464,0.573850060897,0.818924617584,0.00627098277482,0.0,0.818924814682,-0.573758157822,-0.01201961449,0.0,-0.00624525091557,0.0120331515893,-0.999908095829,0.0,0.264070434898,-0.26104040631,0.304940606976,1.0,-0.0889765714286,-0.116940636735,3.545
-0.651720063181,-0.517961709815,-0.130671317861,-2.63918894554,-0.0702039392689,2.11090641637,-0.902851908251,-0.385039510458,0.0713238475896,0.0137620683772,0.0521006397298,0.00525873211328,0.00566039851906,-0.406995260049,0.573706297023,0.81902523747,0.00628426963333,0.0,0.819025321872,-0.573613816724,-0.0120606092587,0.0,-0.00627332025332,0.0120664557535,-0.999907518773,0.0,0.262603152855,-0.262971518653,0.304925358952,1.0,-0.0858291428572,-0.112804016327,3.562
-0.657856709057,-0.516884836811,-0.130434698116,-2.63837528969,-0.0700261072418,2.11111577212,-0.908921615788,-0.383017778719,0.0669391921908,0.0119004747509,0.0492905498778,0.0157217490529,0.0124187591194,-0.379196631471,0.573699980766,0.819029667281,0.00628355657501,0.0,0.819029594081,-0.573607220038,-0.012084206263,0.0,-0.00629315117868,0.0120793602568,-0.99990723835,0.0,0.261332890935,-0.264621834484,0.304919165936,1.0,-0.0830520000001,-0.109154057143,3.577
