nelsonifechukwu/NELSON_IML_WORK/CNN-GradCAM/train2dof/data_sample_2022-02-22-08-45-37/robot_state.csv
position_joint1,position_joint2,position_joint3,position_joint4,position_joint5,position_joint6,position_joint7,velocity_joint1,velocity_joint2,velocity_joint3,velocity_joint4,velocity_joint5,velocity_joint6,velocity_joint7,ee_T_00,ee_T_10,ee_T_20,ee_T_30,ee_T_01,ee_T_11,ee_T_21,ee_T_31,ee_T_02,ee_T_12,ee_T_22,ee_T_32,ee_T_03,ee_T_13,ee_T_23,ee_T_33,v_x,v_y,time
0.465075823305,0.547783517754,-0.124012329651,-1.35583520397,0.0794977735065,1.8941101315,0.159161231312,0.000241396719379,0.000624901960777,-0.00085621977616,-0.00096656229552,-0.000343501551439,-0.000187587924768,0.000296668491471,0.57382190799,0.818966053915,0.00194096551115,0.0,0.818922939766,-0.573763517933,-0.0118907995611,0.0,-0.00862467204621,0.00841286444775,-0.999927416738,0.0,0.661683458869,0.26087810983,0.303213295759,1.0,0.0,0.0,0.0
0.465067700955,0.547777459936,-0.124012355958,-1.35583269832,0.0794973263195,1.89411013143,0.159163118271,-0.00152230498546,0.000154430409929,-0.000603954277257,5.2549382455e-05,0.000100227675459,-0.000202559716655,0.000722999741809,0.573829857782,0.818960466803,0.00194808453745,0.0,0.818917453129,-0.573771444983,-0.0118861593282,0.0,-0.00861670521021,0.00841611558108,-0.999927458064,0.0,0.661686345003,0.260873026572,0.303218779747,1.0,-0.00024,-0.000315428571429,0.013
0.465072438802,0.547777207593,-0.124008037834,-1.3558310621,0.0794973133176,1.89411543915,0.159154562212,-0.000134850424145,-0.00180902779276,0.000412396193956,0.00224645247183,-2.26432506343e-05,0.000263578330283,-0.000841310197042,0.573815897761,0.818970231389,0.00195511577771,0.0,0.818927294867,-0.573757443653,-0.0118839587826,0.0,-0.00861101203198,0.00842046427279,-0.999927470496,0.0,0.661685559363,0.260879217971,0.303220055272,1.0,-0.0006,-0.000788571428571,0.031
0.465071534323,0.547748933221,-0.124012757113,-1.35586511255,0.0794967071914,1.89411604012,0.159157807345,0.000412546423917,-0.00177100810573,0.00230814593299,-0.00371818439533,-0.000196990670583,-0.000517603697727,-0.000754599462527,0.573824246026,0.818964392084,0.00195091586019,0.0,0.818921396617,-0.573765804021,-0.0118867657024,0.0,-0.0086156349179,0.0084187231943,-0.999927445335,0.0,0.661679974194,0.260872159349,0.303224086114,1.0,-0.00094,-0.00123542857143,0.048
0.465076879442,0.547647607404,-0.124010886361,-1.35596727309,0.0794986350967,1.89414401823,0.159156593148,0.00295876819488,-0.0103125921009,-0.000721678391328,-0.0094899066057,0.000254894511416,0.00285565072572,0.000924692433902,0.573823671595,0.818964724287,0.00198019993205,0.0,0.818922014707,-0.573765015896,-0.0118822247168,0.0,-0.00859511892628,0.00844009362953,-0.999927441743,0.0,0.66166288431,0.260868201055,0.303249613127,1.0,-0.00126,-0.001656,0.064
0.465062715613,0.547519230326,-0.124005224927,-1.35616098437,0.0794938455876,1.8941772114,0.159150770371,-0.000781338030767,-0.0103259803677,0.0065532511895,-0.011158169483,-0.000178688786695,0.00214341820015,-0.00111466459836,0.573835855706,0.818956237074,0.00195942993611,0.0,0.818913114031,-0.573777144001,-0.0119099786573,0.0,-0.00862964133952,0.0084391381445,-0.999927152465,0.0,0.661631143095,0.260842269028,0.303251041292,1.0,-0.0016,-0.00210285714286,0.081
0.465046805076,0.547356426353,-0.124016245007,-1.35636990051,0.0794897858724,1.89428446887,0.159152341211,-0.000304659159435,-0.00914999418936,-0.00103587456939,-0.0166358132274,-1.3280024373e-05,0.00230387866407,0.000549952209909,0.573868658158,0.81893312264,0.00201264221573,0.0,0.818890713942,-0.573809744679,-0.0118794963016,0.0,-0.00857380435799,0.00846556761152,-0.999927409387,0.0,0.66161584795,0.26080934069,0.303276601174,1.0,-0.00194,-0.00254971428571,0.098
0.465032921637,0.547174691975,-0.124013671518,-1.35657980126,0.0794896945015,1.89439932891,0.159139474049,0.00054709321969,-0.0111388950519,-0.000461819539706,-0.0132064204197,0.000332692020819,0.00503645456228,0.00126708275212,0.573879596025,0.818925254872,0.00209358555408,0.0,0.818883825352,-0.573820280634,-0.0118453793481,0.0,-0.00849930208939,0.00851238875211,-0.999927647933,0.0,0.661598465276,0.260786916007,0.303315313263,1.0,-0.00226,-0.00297028571429,0.114
0.465004958236,0.546971763137,-0.124010523459,-1.35684977918,0.079485622143,1.89452590272,0.159122046131,-0.00164837282332,-0.0146295093628,-0.00105512794238,-0.0184009766056,6.34279494674e-05,0.00511030611182,0.000573560132099,0.573898266714,0.818912011547,0.00215492624846,0.0,0.818871314016,-0.573838639528,-0.0118209038172,0.0,-0.00844386274705,0.00854876809063,-0.999927807267,0.0,0.661573730493,0.260745280531,0.303341889863,1.0,-0.00262,-0.00344342857143,0.132
0.464976061302,0.546719681,-0.124010899599,-1.35722337904,0.079479156331,1.89466850925,0.159082037404,-0.000272543475501,-0.00742392198228,0.00079127816587,-0.0188522650442,-0.000366004507393,0.0041639679441,-0.00640048453052,0.573910561556,0.818903334453,0.00217785613444,0.0,0.818862777159,-0.573850682475,-0.0118276501382,0.0,-0.00843610032894,0.00857154368401,-0.99992767781,0.0,0.661531321772,0.260697064956,0.303354524179,1.0,-0.00296,-0.00389028571429,0.149
0.464944092506,0.546471725386,-0.124007360021,-1.35757876841,0.0794706354539,1.89479834886,0.158960455307,-0.00132199286087,-0.0159604782998,0.00104433791526,-0.0242298985093,-0.000238036429144,0.00714351197108,-0.00240664911255,0.573852284833,0.818944097154,0.00220631600759,0.0,0.818903767692,-0.573792156339,-0.0118290948141,0.0,-0.00842156269433,0.00859507905984,-0.999927598328,0.0,0.661490211803,0.260646473115,0.303372110727,1.0,-0.00326,-0.00428457142857,0.164
0.464906910712,0.546187515988,-0.124008058105,-1.35805424166,0.0794600850971,1.8949566577,0.158937728207,-0.0064343983056,-0.0182980726883,0.000750013188125,-0.0271229640711,0.000394326357361,0.014061676972,-0.000212753943518,0.573895511304,0.8189138625,0.00218513439232,0.0,0.818873028351,-0.573835227801,-0.0118676735823,0.0,-0.00846485829513,0.00860031779846,-0.999927187703,0.0,0.661426751065,0.260570387387,0.30335918692,1.0,-0.00362,-0.00475771428571,0.182
0.46485150721,0.545840495044,-0.124010926881,-1.35863547162,0.0794432228042,1.89515903037,0.158864257699,-0.00399571798227,-0.0196739742158,-0.000918406160794,-0.0353091838714,-0.00173919342006,0.0120580106404,-0.00186643629781,0.573903538577,0.818908279005,0.00216930556576,0.0,0.818867110193,-0.573843186913,-0.0118911554649,0.0,-0.00849308795617,0.00860091477309,-0.999926943192,0.0,0.661362680597,0.260486054013,0.303347509287,1.0,-0.00396,-0.00520457142857,0.199
0.464796086043,0.545513891075,-0.124010926881,-1.35920113963,0.0793754383703,1.89534632921,0.158784402402,-0.000951951926197,-0.0203613563487,0.000314808061345,-0.0405685216866,-0.0118111892068,0.0210402502863,-0.00179637586357,0.573897051829,0.818912989285,0.00210636741796,0.0,0.81887126329,-0.573837219139,-0.0118931488888,0.0,-0.00853090633335,0.00855045145545,-0.999927054048,0.0,0.661296938726,0.260388270081,0.303325639838,1.0,-0.00428,-0.00562514285714,0.215
0.464723308108,0.545120570103,-0.124013950952,-1.35989688878,0.0792923646194,1.89555515311,0.158703712095,-0.00550475221421,-0.0235221847255,-0.0012902762536,-0.0426534144349,-0.000919542916526,0.0161137171448,-0.00878376955233,0.573909214522,0.81890472401,0.00200334253411,0.0,0.818861967689,-0.573850110785,-0.0119111345343,0.0,-0.00860463166913,0.00847653407363,-0.999927051681,0.0,0.661213350688,0.260261678083,0.303291002875,1.0,-0.00462,-0.006072,0.232
0.464649275763,0.544662218499,-0.124011582302,-1.36065779896,0.0792779648328,1.89581188309,0.158603111699,-0.00206007039328,-0.0272054158908,0.00036039569815,-0.0401785562352,-0.000237130376843,0.016278212916,-0.00700399900768,0.573924317144,0.818894190959,0.00198219740197,0.0,0.818850816274,-0.573864962632,-0.0119621173488,0.0,-0.00865836147078,0.00848863742419,-0.999926485203,0.0,0.661121210524,0.260144884968,0.303275453342,1.0,-0.00498,-0.00654514285714,0.25
0.464584505854,0.544253793937,-0.124017617529,-1.3613261373,0.0792510109378,1.89606432531,0.158533118583,-0.00936288592714,-0.0283825274812,9.70398548995e-05,-0.0427648344308,-0.000135852975954,0.0201046497194,-0.00674395683941,0.573954437493,0.818873084362,0.00198047727419,0.0,0.818829597048,-0.573894998068,-0.011973683317,0.0,-0.00866850788317,0.00849418562072,-0.999926350179,0.0,0.661048324534,0.260037366981,0.303268468469,1.0,-0.00528,-0.00693942857143,0.265
0.464504277462,0.543747151735,-0.124017345725,-1.36214460961,0.0792165886225,1.89635438978,0.158415627191,-0.00361258632472,-0.0264426952239,-0.00129880533062,-0.0459405518399,0.000148027542832,0.020606279792,-0.0154725839048,0.573960126451,0.818869121924,0.00197010284778,0.0,0.818825332881,-0.57390056735,-0.01199833023,0.0,-0.00869458639566,0.00849989690553,-0.999926075228,0.0,0.660953876612,0.259908101031,0.303262528452,1.0,-0.00562,-0.00738628571429,0.282
0.464423100782,0.54320931321,-0.124027927451,-1.36300310527,0.0791595976198,1.89663790918,0.158312077136,-0.00797580094998,-0.0325033726858,0.000171858603571,-0.0472471289851,-0.0066403440155,0.0182911790507,-0.00232123035836,0.573977857247,0.818856773493,0.00193669731819,0.0,0.818812578121,-0.573918467292,-0.0120125647993,0.0,-0.0087252316842,0.00848090161131,-0.99992596958,0.0,0.660846773985,0.259761177762,0.303260293998,1.0,-0.00598,-0.00785942857143,0.3
0.464347369707,0.542688492692,-0.124023942914,-1.36384735732,0.0791158780393,1.89694037708,0.158193507046,-0.00634055151265,-0.0324930058972,0.000222284605893,-0.051008701248,0.000323283461859,0.0172085116984,-0.00769372311562,0.573977863317,0.818856783588,0.00193062049591,0.0,0.818812426132,-0.573918419053,-0.0120252228726,0.0,-0.00873908491504,0.00848319111024,-0.999925829181,0.0,0.660750783491,0.259627403238,0.303258980055,1.0,-0.0063,-0.00828,0.316
0.464267156805,0.542054026142,-0.124029689055,-1.36481531419,0.0790593740918,1.89730672741,0.158075246994,-0.00446681692255,-0.0326766925958,0.000633388798915,-0.0505524655787,-0.00729046071463,0.0192374530016,-0.0134927579383,0.573990647215,0.818847782237,0.00194764918721,0.0,0.818803649871,-0.573931131004,-0.0120161026752,0.0,-0.00872171044589,0.00849203631273,-0.999925905798,0.0,0.660646221531,0.259488651807,0.303271843351,1.0,-0.00664,-0.00872685714286,0.333
0.464183634656,0.541407771144,-0.124027944563,-1.36578580503,0.0790012703763,1.8976653532,0.15794080744,-0.00524279275198,-0.0370970483013,0.000196159253697,-0.0507569873525,-0.00705884377965,0.0199886476223,-0.00932458723223,0.57398605325,0.818850929526,0.00197807743154,0.0,0.818807173308,-0.573926387351,-0.0120025723545,0.0,-0.00869321406628,0.00850913695214,-0.999926008571,0.0,0.660535384607,0.259342712922,0.303297864027,1.0,-0.00698,-0.00917371428571,0.35
0.464107263749,0.540761353272,-0.124036046584,-1.36678378257,0.0789441611429,1.89802564368,0.157811022609,-0.00453039197885,-0.0437002567117,0.000100331986889,-0.0621882095597,-0.00109620745241,0.0252815557409,-0.00805668898125,0.573988015919,0.818849535854,0.00198547585656,0.0,0.818805866422,-0.573928308808,-0.0119998484442,0.0,-0.00868671677457,0.00851365239302,-0.999926026601,0.0,0.660418710984,0.25919280665,0.303311298404,1.0,-0.0073,-0.00959428571429,0.366
0.464017942627,0.540026380856,-0.124040847731,-1.36789001692,0.0788839865771,1.89843228046,0.157666446214,-0.0060237635441,-0.0477365050842,-0.001687335789,-0.0679029074048,-0.00625986845605,0.0262683784407,-0.0115503156834,0.573991275544,0.818847170089,0.00201854827222,0.0,0.818803884425,-0.573931381322,-0.0119881310403,0.0,-0.00865810567426,0.00853404210018,-0.999926100935,0.0,0.660291195509,0.259027231991,0.303339601247,1.0,-0.00764,-0.0100411428571,0.383
0.463911036766,0.539245423931,-0.124035781082,-1.3691065489,0.0788084317554,1.89889892654,0.157528782484,-0.00374961502911,-0.0396769183353,-0.00088583502964,-0.069293981206,-0.00799098233882,0.0315509790379,-0.00510111602283,0.574009735766,0.818834167081,0.00204376325729,0.0,0.818791217245,-0.573949740266,-0.0119743522547,0.0,-0.00863215755988,0.00854697473462,-0.999926214817,0.0,0.660154282118,0.258844872168,0.303352642528,1.0,-0.008,-0.0105142857143,0.401
0.463814158531,0.538529320664,-0.124041404751,-1.37023068711,0.0787507078188,1.89933415136,0.157385503308,-0.00632336878951,-0.0448507728405,0.000147417605311,-0.0700106612296,-0.00257334832131,0.0313235904092,-0.0160153349751,0.574022503131,0.818825151483,0.00206980663736,0.0,0.818782493031,-0.573962349546,-0.0119665078644,0.0,-0.00861065231586,0.00856393111892,-0.999926255156,0.0,0.66002938508,0.258673807471,0.303361370019,1.0,-0.00832,-0.0109348571429,0.417
0.463708782743,0.537741367101,-0.124045337643,-1.37144714203,0.0786733058574,1.8998082474,0.157234501311,-0.00457388979572,-0.0469746174706,0.000185660840261,-0.0693980083851,-0.00349336536326,0.0311935369839,-0.0039007402989,0.574034442583,0.818816693663,0.0021042359186,0.0,0.818774562772,-0.573974223728,-0.0119395458409,0.0,-0.00856868724511,0.00857677051509,-0.999926505603,0.0,0.659895429004,0.258487570323,0.303380064408,1.0,-0.00866,-0.0113817142857,0.434
0.463596509387,0.536911306922,-0.124051013326,-1.3727550185,0.0786005089132,1.90028207084,0.15706686777,-0.00600792712117,-0.050025478744,-0.000851740173961,-0.0757796080037,-0.00768099573231,0.0283720337297,-0.0071733123587,0.574045608416,0.818808869803,0.00210263895845,0.0,0.81876666072,-0.573985337314,-0.0119471646678,0.0,-0.00857572557645,0.00857995327996,-0.999926417959,0.0,0.659742980197,0.258286211806,0.30338488225,1.0,-0.009,-0.0118285714286,0.451
0.463489586414,0.536114746172,-0.124052078717,-1.37399596894,0.0785287053676,1.90074334974,0.156909384008,-0.00942346177866,-0.0496674432726,-0.000584336184041,-0.0790929594506,-0.00294225440176,0.0200325950396,-0.012620093534,0.57405399456,0.818802950768,0.00211802859884,0.0,0.818760908859,-0.573993625637,-0.0119431467385,0.0,-0.00856351375043,0.00859033550398,-0.999926433478,0.0,0.659599895226,0.258097888799,0.303396513185,1.0,-0.00932,-0.0122491428571,0.467
0.463361407717,0.535172075861,-0.124049231385,-1.37548921465,0.0784453015832,1.90128368959,0.156730526445,-0.00646852309174,-0.051249540212,0.00147886844264,-0.0825344610798,0.000475011028695,0.0334452672972,-0.00681394347367,0.574070094215,0.818791675544,0.00211326529062,0.0,0.818749460325,-0.574009631385,-0.0119587288827,0.0,-0.00857883819799,0.00859554892357,-0.999926257318,0.0,0.659422768124,0.257873293864,0.303397744313,1.0,-0.00968,-0.0127222857143,0.485
0.463228074439,0.534276189932,-0.124052478864,-1.37695878364,0.0783645114436,1.90181460088,0.156553120231,-0.00903281061621,-0.0562696276686,0.000393163090247,-0.0919278326729,-0.00838244976519,0.0299765647897,-0.0147313829624,0.574095199204,0.818774160682,0.00207917079241,0.0,0.818731402179,-0.574034776351,-0.0119880577128,0.0,-0.00862216155453,0.00858473408168,-0.999925977596,0.0,0.659250216205,0.257643760391,0.303376445702,1.0,-0.01002,-0.0131691428571,0.502
0.463117236729,0.533465162553,-0.124060930924,-1.37826531201,0.078288382354,1.90229463595,0.156397900721,-0.0038945763277,-0.0570130924836,-0.000659137020713,-0.0886675211749,-0.00145474694892,0.0348024571161,-0.00926110717613,0.574115920818,0.8187596684,0.00206440424558,0.0,0.818716709457,-0.574055549488,-0.0119967770303,0.0,-0.00863756076944,0.00857786809307,-0.999925903616,0.0,0.659098001438,0.257441597717,0.303368475265,1.0,-0.01032,-0.0135634285714,0.517
0.462986535441,0.532514005187,-0.124059425036,-1.37978342012,0.0782009488044,1.90287562531,0.156202050122,-0.00604712187529,-0.0614769984235,-0.000220539704446,-0.0903779411316,-0.00557165613103,0.0393792038582,-0.0136920781986,0.574121174308,0.818755952078,0.00207726988892,0.0,0.818713119763,-0.574060707356,-0.0119949447378,0.0,-0.00862861950482,0.00858740520415,-0.999925898953,0.0,0.65892348262,0.257213884586,0.303366873416,1.0,-0.01066,-0.0140102857143,0.534
0.462838811433,0.531484358257,-0.124058746948,-1.38144264026,0.0781092164692,1.90348059045,0.155990720352,-0.00584373376882,-0.0598807863546,0.000255113496659,-0.093638984505,-0.00676822541487,0.0285963836768,-0.0136451488762,0.574134483983,0.818746662129,0.00206020756493,0.0,0.818703485787,-0.574073966588,-0.0120179094501,0.0,-0.00865707839481,0.00858676067727,-0.999925658504,0.0,0.658727280941,0.25695971984,0.303355335723,1.0,-0.01102,-0.0144834285714,0.552
0.46270813875,0.530531035266,-0.124060994446,-1.38299313532,0.0780124342217,1.90401704232,0.155793867144,-0.00894632733259,-0.0610850572057,0.00046798671497,-0.09457890008,-0.00512289384761,0.0272664272768,-0.0117197968936,0.574140058395,0.818742886836,0.00200636551355,0.0,0.818698962486,-0.574079725312,-0.0120509216251,0.0,-0.00871496038743,0.00856169104891,-0.999925370671,0.0,0.658536868288,0.25672157681,0.303335675779,1.0,-0.01134,-0.014904,0.568
0.462560786451,0.529426148115,-0.124067349916,-1.38472415824,0.0778929857286,1.90466371265,0.155557299426,-0.00771956409072,-0.0565460837732,-0.00107258510202,-0.0956257265744,-0.00393138910553,0.0377702394057,-0.0135420357947,0.574133390654,0.818747544913,0.00201353799476,0.0,0.818703863777,-0.57407317476,-0.0120299775083,0.0,-0.00869376378304,0.00855546783179,-0.999925608454,0.0,0.658336288337,0.256454457755,0.303346283341,1.0,-0.0117,-0.0153771428571,0.586
0.46242172781,0.528340964904,-0.124068066881,-1.38642433366,0.0777924649806,1.90531281276,0.155320155301,-0.00997166072427,-0.0637481259506,-0.000482834710444,-0.103504125215,-0.0102461725066,0.0392242470863,-0.0185134280042,0.574118848067,0.818757670625,0.00204254438801,0.0,0.818714353297,-0.574058496084,-0.0120165585671,0.0,-0.00866627639446,0.00857135819521,-0.999925710977,0.0,0.658137925445,0.256202714064,0.303357488613,1.0,-0.01204,-0.015824,0.603
0.462292668304,0.527341202641,-0.124073125034,-1.38795703315,0.0776910974025,1.9059029114,0.155106039096,-0.00875847586511,-0.0664369970104,-0.000426872826086,-0.101971809156,-0.00686939494982,0.0389151501826,-0.0103815503527,0.574108485493,0.818764830876,0.00208458811853,0.0,0.818722178841,-0.574048074018,-0.0119812140929,0.0,-0.0086133087688,0.00858538049882,-0.999926048342,0.0,0.657962771153,0.255969680369,0.30338301382,1.0,-0.01234,-0.0162182857143,0.618
0.462149134307,0.526116422633,-0.124079798718,-1.38988313642,0.0775844935476,1.90662217543,0.154857449113,-0.00490718522773,-0.0680545116306,-0.000699046554002,-0.108361768479,-0.00256654641604,0.0360803201629,-0.0117454651057,0.574102550258,0.818768945896,0.00210283753459,0.0,0.818726453247,-0.574041985005,-0.0119808641628,0.0,-0.00860260811588,0.0086000589644,-0.999926014323,0.0,0.657730948069,0.255690371824,0.303390678867,1.0,-0.0127,-0.0166914285714,0.636
0.461998686964,0.52493808402,-0.124083701238,-1.39172884828,0.0774616948962,1.90727690214,0.154603123357,-0.00814016817523,-0.0686091682458,0.000279802615357,-0.109141523064,-0.00599251133964,0.0400558845762,-0.0145522912348,0.574086308735,0.818780376952,0.00208598704566,0.0,0.818737710719,-0.574025861869,-0.011984066623,0.0,-0.00861507394214,0.00858793017386,-0.999926011241,0.0,0.657505287258,0.255410146704,0.303397876644,1.0,-0.01304,-0.0171382857143,0.653
0.461850916627,0.523820045785,-0.124089059648,-1.39351563732,0.0773506457856,1.90792296571,0.154349473137,-0.0152363264733,-0.0698164608816,-0.00166438837477,-0.114986379763,-0.00595588771323,0.0365032199943,-0.017592198198,0.574069394474,0.818792292551,0.00206370725865,0.0,0.81874932967,-0.574009037038,-0.0119961437385,0.0,-0.0086379297241,0.00857644302977,-0.999925912653,0.0,0.657288585678,0.25513836573,0.303389749269,1.0,-0.01336,-0.0175588571429,0.669
0.461696523178,0.522596895743,-0.124084824322,-1.39543960257,0.0772277733667,1.90866084314,0.154104525813,-0.00809034272153,-0.0720586818484,-0.0015299380455,-0.116757191624,-0.0147853070773,0.0396226696862,-0.0115164412338,0.574062381916,0.818797139872,0.00209100627329,0.0,0.818754575062,-0.574001952997,-0.0119770894568,0.0,-0.00860673061283,0.00858778279614,-0.999926084356,0.0,0.65706027883,0.254857247163,0.303397552108,1.0,-0.0137,-0.0180057142857,0.686
0.461530705512,0.521362256755,-0.124092166166,-1.39742747735,0.0771168480357,1.90943588446,0.153825939313,-0.0100713820859,-0.0733856147869,-0.00151328575305,-0.120290056024,-0.00952666729255,0.0485204838771,-0.0146444781967,0.574052009964,0.818804362275,0.00211023140598,0.0,0.818762014542,-0.573991468863,-0.0119709697538,0.0,-0.00859079283013,0.00859990214028,-0.999926117252,0.0,0.656828869125,0.254558900474,0.303386325313,1.0,-0.01404,-0.0184525714286,0.703
0.461374436625,0.520139334816,-0.12409291251,-1.39933304884,0.0769939880733,1.91013177785,0.153570931076,-0.0121091523585,-0.0802866407095,-0.000361389961169,-0.11955082342,-0.0137369602344,0.0451426438308,-0.0144452363377,0.574040028323,0.818812743389,0.00211755723964,0.0,0.818770514504,-0.573979481763,-0.0119643635162,0.0,-0.0085813041233,0.00860198261713,-0.999926180833,0.0,0.65659682022,0.254273095246,0.303398548438,1.0,-0.01436,-0.0188731428571,0.719
0.461186394894,0.518713957503,-0.124098240019,-1.40154297266,0.076849882626,1.91092112771,0.153264766274,-0.0125889183835,-0.0799298130531,-0.000216219582095,-0.125795472988,-0.0126609764801,0.0442059052395,-0.0182758666571,0.574025419795,0.818822988026,0.00211627267191,0.0,0.818780778644,-0.573964916714,-0.0119606774671,0.0,-0.00857917657032,0.00859866184112,-0.999926227651,0.0,0.656326404487,0.253933274678,0.303415902857,1.0,-0.01472,-0.0193462857143,0.737
0.46102294834,0.517457210662,-0.124105006284,-1.40353480609,0.0767178871882,1.91163293644,0.152999144136,-0.00926630527963,-0.0776021741758,-0.00107455109789,-0.126902968821,-0.00840138792474,0.0419436891267,-0.0122792190916,0.574016320698,0.818829436429,0.00208914111129,0.0,0.81878692862,-0.573955986454,-0.011968209362,0.0,-0.00860101267574,0.00858067414185,-0.999926194582,0.0,0.656080304639,0.253629179136,0.303411652803,1.0,-0.01504,-0.0197668571429,0.753
0.460847064041,0.516170541343,-0.12410637138,-1.40556130936,0.0765863262876,1.9123860368,0.152720151849,-0.00785241675717,-0.0818471660531,6.65776866921e-05,-0.127878817653,-0.0093260874152,0.041835762041,-0.0178933028425,0.574004474829,0.81883772581,0.00209489078465,0.0,0.818795341029,-0.573944166207,-0.0119595353996,0.0,-0.00859073382189,0.00858027884763,-0.999926286337,0.0,0.655836238905,0.253319243745,0.303414936407,1.0,-0.01536,-0.0201874285714,0.769
0.460653056363,0.514804321634,-0.124112878881,-1.40776228834,0.0764569809661,1.91321252076,0.152411809502,-0.012685009638,-0.0791511588262,-0.00160065706407,-0.136339995832,-0.00737862082194,0.0471511407141,-0.0252486208119,0.573996822675,0.818843109997,0.00208702456314,0.0,0.818800582292,-0.573936507352,-0.0119682441523,0.0,-0.00860246029839,0.00857875621163,-0.999926198586,0.0,0.655572391322,0.252980123171,0.303397156601,1.0,-0.0157,-0.0206342857143,0.786
0.460451347642,0.513319703923,-0.124115392193,-1.41016199336,0.0763077465023,1.91404045296,0.152092310319,-0.00673456894082,-0.0794898369287,-0.000826107548535,-0.138013965051,-0.00858233753324,0.0427237951979,-0.0184228827642,0.573987646042,0.818849731553,0.00201152383,0.0,0.818806114796,-0.573927546245,-0.0120193566899,0.0,-0.00868774532906,0.00854617480581,-0.999925740231,0.0,0.655265912647,0.25261330919,0.303367311827,1.0,-0.01606,-0.0211074285714,0.804
0.460268203454,0.51205680978,-0.124119430206,-1.4121826078,0.0761880384339,1.91476056681,0.151802267676,-0.0114528459822,-0.0878740896699,-0.00021305027416,-0.136340864837,-0.00657177094487,0.0457528669441,-0.0169379838152,0.573976453823,0.818857651532,0.0019808800878,0.0,0.818813536012,-0.573916389778,-0.0120464803771,0.0,-0.0087276611168,0.00853653187172,-0.999925475001,0.0,0.655015480685,0.252297320784,0.303352818489,1.0,-0.01636,-0.0215017142857,0.819
0.46005830539,0.510509731923,-0.124124785299,-1.41464197312,0.0760368206283,1.91570258836,0.151454727584,-0.0130952435259,-0.0874953032748,-0.00047873404745,-0.135497697985,-0.00598003595027,0.0442773514996,-0.0158979317016,0.573955475868,0.818872304225,0.00200199795242,0.0,0.818828496151,-0.573895354931,-0.0120317239447,0.0,-0.00870367575767,0.00854513133514,-0.999925610612,0.0,0.654720204821,0.251924679828,0.303347347614,1.0,-0.01672,-0.0219748571429,0.837
0.459864010693,0.509026818093,-0.124127788812,-1.41700217907,0.0758899196607,1.91656786395,0.151132853941,-0.0112013125373,-0.083806348429,-0.000205733158332,-0.140866506617,-0.0187816496306,0.0499695189445,-0.0227047671682,0.573936331272,0.818885754417,0.00198890917195,0.0,0.818841751153,-0.573876244999,-0.012041133511,0.0,-0.00871909284152,0.00853961027487,-0.999925523465,0.0,0.654425860931,0.251570174122,0.303336904391,1.0,-0.01706,-0.0224217142857,0.854
0.459666259629,0.507601790042,-0.124128169939,-1.41924358798,0.0757497327243,1.91736422709,0.150813773066,-0.0137572216798,-0.0876344100068,-0.0015039641739,-0.140219789674,-0.00901824878619,0.0441126879815,-0.0152097803094,0.573915465104,0.818900421429,0.00197119212138,0.0,0.818856120334,-0.573855392823,-0.0120577452918,0.0,-0.00874308180321,0.0085344135441,-0.999925358367,0.0,0.654143616964,0.251224795747,0.303335935289,1.0,-0.01738,-0.0228422857143,0.87
0.459448664041,0.50602643469,-0.124131576694,-1.42167764052,0.0755985913838,1.9182696933,0.150480044461,-0.0125658200892,-0.0934112402151,0.00027675548253,-0.140458432896,-0.0122034977977,0.0499803181545,-0.0146647326446,0.573909126496,0.818904751467,0.00201728797424,0.0,0.818861083132,-0.573848887217,-0.0120302981253,0.0,-0.00869421722778,0.00855634124024,-0.999925597038,0.0,0.653830015532,0.250826745774,0.303363432558,1.0,-0.01774,-0.0233154285714,0.888
0.459220359985,0.504395276704,-0.124135970485,-1.42415481823,0.0754395847112,1.91922766351,0.150148906569,-0.0127703747999,-0.0968776889742,-0.000295073888442,-0.150286924097,-0.00654045459979,0.0565215815914,-0.0172322926399,0.573907258914,0.818905836693,0.00210610935297,0.0,0.81886340572,-0.573846723622,-0.011975285431,0.0,-0.00859821272597,0.00859748464224,-0.999926074265,0.0,0.653534835582,0.250443159687,0.303407432022,1.0,-0.01808,-0.0237622857143,0.905
0.45900770642,0.502816241887,-0.124143096988,-1.42647860204,0.0752842224699,1.92011424447,0.149811498878,-0.0170915438355,-0.102091975765,-0.000204624276235,-0.150379547621,-0.0122413723016,0.0582302624096,-0.0270363774272,0.573891840678,0.818916365127,0.00221111555102,0.0,0.818875470486,-0.573831048057,-0.0119012193754,0.0,-0.00847745977487,0.00864080734314,-0.999926731878,0.0,0.653276303211,0.250101526641,0.303474995004,1.0,-0.01838,-0.0241565714286,0.92
0.458770897883,0.501108691149,-0.124149745074,-1.42903483348,0.0751215888087,1.92102104855,0.149463839001,-0.00831756322252,-0.0986520803995,0.000345001440293,-0.153578385103,-0.00870796802252,0.056288836991,-0.0161275306062,0.573893345661,0.818915199623,0.00225178427032,0.0,0.818874744214,-0.573832297975,-0.0118909205398,0.0,-0.00844567163053,0.00866821632999,-0.999926763646,0.0,0.652933946184,0.249676659825,0.303524284044,1.0,-0.01874,-0.0246297142857,0.938
0.458513368063,0.499314639066,-0.124147579414,-1.4317913205,0.0749515486847,1.9220188456,0.14907802045,-0.017402401669,-0.0955911141412,0.000457681475413,-0.155390477685,-0.0106229155646,0.0589616859064,-0.0214601339995,0.573880071611,0.818924393403,0.00229089463413,0.0,0.81888444518,-0.573818868821,-0.0118708941712,0.0,-0.00840696810098,0.00868861486127,-0.999926912759,0.0,0.652611034199,0.249267698569,0.303554922634,1.0,-0.01908,-0.0250765714286,0.955
0.458278406281,0.497733036299,-0.124147942893,-1.43427555697,0.0747903576281,1.92294323262,0.148699858193,-0.0165450588937,-0.0976422655256,6.69673575062e-05,-0.157430654668,-0.0022970178396,0.0614788681306,-0.0276007326097,0.573845639228,0.818948484035,0.00230428672423,0.0,0.818908740549,-0.573784419716,-0.0118600693391,0.0,-0.00839078353344,0.00869301697789,-0.99992701044,0.0,0.652304410985,0.248877113559,0.303555442914,1.0,-0.0194,-0.0254971428571,0.971
0.458011339429,0.496061756561,-0.124150439129,-1.43695533197,0.074629855981,1.92388588429,0.148314671521,-0.0161265894374,-0.0998492634544,0.000211575664287,-0.162058642924,-0.0119011716086,0.0567867851953,-0.0155644445242,0.573833331753,0.818957273824,0.00224453117032,0.0,0.818916536883,-0.57377212883,-0.0119162367691,0.0,-0.00847120244773,0.00867618458353,-0.999926478572,0.0,0.651939425667,0.248423886835,0.303522202398,1.0,-0.01976,-0.0259702857143,0.989
0.457747933548,0.494391047184,-0.124150379821,-1.43970004877,0.0744593603556,1.92482730657,0.147925918882,-0.0159841074593,-0.100248005184,0.000413378998389,-0.156990443462,-0.0113308610739,0.0493578871777,-0.01491200371,0.57383207279,0.818958439352,0.00213863347366,0.0,0.818916191524,-0.573771170242,-0.0119859234268,0.0,-0.00858905227877,0.00862943500699,-0.999925877769,0.0,0.65160483993,0.248005341217,0.303465579349,1.0,-0.0221765714286,-0.0291463510204,1.005
0.457459296203,0.492309782352,-0.124220380695,-1.44284249804,0.0742751110678,1.92598992996,0.147473174966,-0.0159861530067,-0.144970802718,-0.00377914221278,-0.219556095245,-0.0151487512333,0.0837342867358,-0.0251111264882,0.573856183892,0.818941338905,0.00221597460828,0.0,0.818900288019,-0.573795152432,-0.0119242706143,0.0,-0.00849392618856,0.00865764536185,-0.999926446492,0.0,0.651225672903,0.247480290711,0.303521416016,1.0,-0.0309628571429,-0.0406940408163,1.021
0.457052259809,0.489278064835,-0.124257617107,-1.44769414884,0.0740188955845,1.92781861856,0.14674026523,-0.0280722157263,-0.192055641438,-0.00101818297972,-0.294594773242,-0.0133774572851,0.107894754447,-0.0440819798666,0.573790478362,0.818987322816,0.0022358242214,0.0,0.818946240193,-0.57372907847,-0.01194768147,0.0,-0.00850240598847,0.00868665295083,-0.999926122848,0.0,0.650611938814,0.2467409264,0.30348064448,1.0,-0.0408474285714,-0.0536851918367,1.039
0.456483908181,0.485517701991,-0.124312602531,-1.45360566406,0.0736701886783,1.93005296675,0.145860667452,-0.0391583417253,-0.24293984852,-0.00953673998447,-0.370690462571,-0.0292757215661,0.142303505424,-0.0593810481339,0.573774816952,0.81899811453,0.00230102784306,0.0,0.818957915759,-0.573713192022,-0.0119101812276,0.0,-0.00843444832962,0.00871837487592,-0.999926422304,0.0,0.64988354389,0.245783323835,0.303474785653,1.0,-0.0501828571429,-0.0659546122449,1.056
0.455824664568,0.481268080742,-0.124431230882,-1.46030287942,0.0732731183327,1.93238361668,0.144842935217,-0.0444841279861,-0.286418605079,-0.00555381443749,-0.442519299634,-0.021585381326,0.155190070118,-0.0668053376102,0.57378834184,0.818988938176,0.00219198872117,0.0,0.818947287264,-0.573727124535,-0.011969718336,0.0,-0.00854562805409,0.00866337485004,-0.999925956347,0.0,0.649026848884,0.244642608318,0.303441211298,1.0,-0.0589691428571,-0.0775023020408,1.072
0.454987481742,0.475949235462,-0.124558280526,-1.46859809667,0.0727627338193,1.93532518952,0.14363182409,-0.0495012248883,-0.320321904784,-0.00536265009309,-0.502670370943,-0.0320152471487,0.173691583673,-0.0773701769406,0.573815193885,0.81897030072,0.00212525447134,0.0,0.818927903052,-0.573754373889,-0.0119897851056,0.0,-0.00860006944294,0.00862051702435,-0.999925859998,0.0,0.648098551621,0.243407594723,0.303420983031,1.0,-0.0672062857143,-0.0883282612245,1.087
0.454000490997,0.469910861075,-0.124654120135,-1.47795061991,0.0722239467161,1.93871420867,0.142248900794,-0.0624667173484,-0.376680129233,-0.00341112145484,-0.564190780072,-0.0324302527857,0.215323247662,-0.087868651788,0.573888041698,0.818919009965,0.00221756967827,0.0,0.81887749706,-0.57382650792,-0.0119804222922,0.0,-0.00853865969358,0.0086915063341,-0.999925771749,0.0,0.646774806915,0.241651587531,0.303455665378,1.0,-0.07764,-0.102041142857,1.106
0.452934894145,0.463470431251,-0.124701814907,-1.48770640776,0.0716097625598,1.94234672109,0.140645081374,-0.071032668513,-0.407587587948,-0.00548692814007,-0.644593336946,-0.0402494172359,0.226038942598,-0.108110482565,0.573776940871,0.818996098863,0.0024817479865,0.0,0.818958098037,-0.573714449664,-0.0118368411707,0.0,-0.00827067129746,0.00882432402293,-0.999926860976,0.0,0.645535984972,0.240014155187,0.303571000314,1.0,-0.0864262857143,-0.113588832653,1.122
0.451558048258,0.455557517429,-0.124801711564,-1.5001398636,0.0707978836374,1.94653084891,0.138788725433,-0.0713857014288,-0.447183437336,-0.00534571180613,-0.714147661504,-0.0417393640915,0.238608747615,-0.111414254421,0.573811882924,0.818972476844,0.00217992855831,0.0,0.81893017825,-0.573750216559,-0.0120332477253,0.0,-0.00860432987168,0.008690197131,-0.999925220195,0.0,0.643849938551,0.237858958779,0.303464455631,1.0,-0.0963108571428,-0.126579983673,1.14
0.450196600439,0.447627202574,-0.124932798371,-1.51187354495,0.0699814893889,1.95084440873,0.136928597196,-0.0879008508116,-0.506982389346,-0.00398979236442,-0.75126890304,-0.0431846271719,0.277403129905,-0.118898085863,0.573809928571,0.818972750236,0.00255873918062,0.0,0.818936328813,-0.573747769655,-0.011727449364,0.0,-0.00813654721461,0.00882494126029,-0.99992795591,0.0,0.642344320627,0.235789134719,0.303698204526,1.0,-0.105097142857,-0.138127673469,1.156
0.448587054387,0.438754384402,-0.124978266755,-1.52550441623,0.0691055081192,1.9555665406,0.134796128566,-0.0982998766703,-0.541626362856,-0.00831921851071,-0.832393291374,-0.0630481755601,0.276115726327,-0.135237200572,0.573783394305,0.818991407531,0.00253726473619,0.0,0.818954101279,-0.57372066307,-0.0118121829447,0.0,-0.00821855336165,0.0088557082857,-0.999927013242,0.0,0.640476947093,0.233423828529,0.303692126537,1.0,-0.114432571429,-0.150397093878,1.173
0.446802998603,0.429097617841,-0.125046181494,-1.53995351454,0.06812478837,1.96071332858,0.132424260463,-0.109338651923,-0.572356842541,-0.00161749385775,-0.883306323189,-0.0640380044516,0.30991908882,-0.137387001898,0.573711242432,0.81904103624,0.00281747465357,0.0,0.819007504188,-0.573647665705,-0.0116537812097,0.0,-0.00792883993462,0.00899361133585,-0.999928121643,0.0,0.638521256895,0.230866237549,0.303847678504,1.0,-0.123768,-0.162666514286,1.19
0.444823884593,0.418928478682,-0.125133201549,-1.55544235935,0.0670263229305,1.96599385324,0.129858975373,-0.118268050148,-0.603553457662,-0.00515909187502,-0.929780661549,-0.0596155533192,0.313987893157,-0.152025207365,0.573646760436,0.819086443079,0.00274588916261,0.0,0.819052013521,-0.573583474488,-0.0116851975834,0.0,-0.0079963442332,0.00895237414724,-0.999927954143,0.0,0.636351414741,0.228058191282,0.303846219977,1.0,-0.133103428571,-0.174935934694,1.207
0.442787514596,0.408705355443,-0.125250973753,-1.57075975696,0.0659334946052,1.97139354933,0.127310452636,-0.131474619432,-0.633483631484,-0.00395849494646,-0.975664366565,-0.0669444687922,0.328924138893,-0.158820590898,0.573642470515,0.819088718788,0.00295527955529,0.0,0.819057483356,-0.573579036304,-0.0115184622002,0.0,-0.00773970505998,0.00902819676901,-0.999929291815,0.0,0.634228171986,0.225234107811,0.303947893847,1.0,-0.141889714286,-0.18648362449,1.223
0.440375502593,0.397240055352,-0.125349722227,-1.58799896443,0.0647870545959,1.97722414801,0.124389160515,-0.152285328743,-0.691052996569,-0.00975751162116,-1.02527163613,-0.0742748881056,0.36032483505,-0.173239192803,0.573671540528,0.819068123684,0.00301981032836,0.0,0.819036970615,-0.573607013314,-0.0115836930093,0.0,-0.0077557986384,0.00911874688097,-0.999928345454,0.0,0.631752672289,0.222009249979,0.303982376042,1.0,-0.151225142857,-0.198753044898,1.24
0.437765450443,0.385317848991,-0.125483351697,-1.60610246219,0.0634019263376,1.98328577626,0.121267148685,-0.158480212027,-0.704758444656,-0.00692773434315,-1.09796657127,-0.0805005193379,0.352277106425,-0.203109327445,0.573659020229,0.819077545846,0.00283712919421,0.0,0.819044463076,-0.573595604627,-0.0116188105111,0.0,-0.00788949386072,0.00898914348044,-0.999928473035,0.0,0.629110910934,0.218539565426,0.303900645666,1.0,-0.160560571429,-0.211022465306,1.257
0.435104382241,0.373426872914,-0.125613446678,-1.6237005536,0.0620989402285,1.98917792147,0.11807726047,-0.17786986381,-0.754965920601,-0.0116629129825,-1.11233889466,-0.0861442085526,0.365530439512,-0.197437775413,0.573610232275,0.819111301848,0.00295355977134,0.0,0.819079834921,-0.573546563829,-0.0115459969879,0.0,-0.00776360203939,0.00904227735589,-0.99992897933,0.0,0.626518074202,0.21511592029,0.303986227456,1.0,-0.169346857143,-0.222570155102,1.273
0.431968646967,0.360300759915,-0.125793352773,-1.64310340003,0.0606060347289,1.99560679411,0.114651173799,-0.191479952213,-0.786921080347,-0.0121503004923,-1.162094243,-0.0908234767737,0.38819241424,-0.214355935047,0.573776067514,0.818994936682,0.00301080372747,0.0,0.818964650143,-0.573712713392,-0.0114617280241,0.0,-0.00765990831832,0.00904238114773,-0.999929778108,0.0,0.623632625464,0.211202063987,0.304044441497,1.0,-0.178682285714,-0.23483957551,1.29
0.428353375241,0.345874067714,-0.125984025445,-1.66448577994,0.0590137794336,2.00245888493,0.110598193398,-0.210936028011,-0.828474585812,-0.0113368233081,-1.1815975344,-0.0845462344337,0.390997059243,-0.225223566717,0.573838799755,0.818951372984,0.00290301314942,0.0,0.818919123158,-0.57377511774,-0.0115901204007,0.0,-0.00782621898253,0.00902836758661,-0.99992861689,0.0,0.620352399774,0.206815820819,0.304012435731,1.0,-0.188566857143,-0.247830726531,1.308
0.425173567021,0.33341560954,-0.126099519516,-1.68282428238,0.0575876313683,2.00842585765,0.107122834917,-0.2138628487,-0.810039229283,-0.00278332341047,-1.23923692001,-0.0976328742232,0.389209548522,-0.245066633096,0.57387107247,0.81892863476,0.00293772937634,0.0,0.818896734222,-0.573807155947,-0.0115859124072,0.0,-0.00780249551388,0.00905469130182,-0.999928564263,0.0,0.617500550254,0.203055938633,0.304004514978,1.0,-0.196804,-0.258656685714,1.323
0.421158887485,0.317847940158,-0.126207114564,-1.70534617111,0.055697370478,2.0156341692,0.102702545099,-0.22971697919,-0.870518109885,-0.00820802043582,-1.27285572662,-0.104126950915,0.400114151298,-0.240430843538,0.573760510829,0.819005667454,0.00305610746448,0.0,0.818975898985,-0.573696940249,-0.0114474683114,0.0,-0.00762240867857,0.00907115827207,-0.999929804023,0.0,0.613915851411,0.198400940232,0.30410006043,1.0,-0.206688571429,-0.271647836735,1.341
0.417074950576,0.302680156343,-0.126311287931,-1.72725700037,0.0538871946005,2.02249236764,0.0981661906766,-0.24723914068,-0.908500471528,-0.004376054227,-1.3009490249,-0.108866230399,0.397884026983,-0.271653984751,0.573572984754,0.819136842248,0.00310027962144,0.0,0.819107551995,-0.573509194241,-0.0114354399355,0.0,-0.00758929740836,0.00909869704511,-0.999929805675,0.0,0.610340066013,0.193797480145,0.304133222566,1.0,-0.216024,-0.283917257143,1.358
0.412875612349,0.287924371817,-0.126469114987,-1.74842372615,0.0521543401531,2.02895470616,0.0938289034439,-0.266054636368,-0.938848186055,-0.00536499902322,-1.33247730734,-0.108466612053,0.417943507877,-0.274190447326,0.573647460771,0.819084628051,0.00311604605475,0.0,0.819055093172,-0.573583074896,-0.0114872730616,0.0,-0.00762188425029,0.00914203442718,-0.999929162535,0.0,0.6068278891,0.189195196159,0.304159943797,1.0,-0.224810285714,-0.295464946939,1.374
0.408114656868,0.271891098174,-0.126636731715,-1.77137892304,0.0501921716866,2.03585769149,0.0888673401884,-0.287569054659,-0.966212036154,-0.015304754227,-1.35723095141,-0.115550535621,0.42597760975,-0.297567353977,0.573609531251,0.81911144612,0.00304817881674,0.0,0.819080751881,-0.573545028491,-0.0115572095556,0.0,-0.00771852343143,0.00912620586061,-0.99992856583,0.0,0.602942323253,0.184110651448,0.304133327125,1.0,-0.234145714286,-0.307734367347,1.391
0.402936038304,0.255356675856,-0.12685002477,-1.79472765746,0.0481309672529,2.04275289639,0.0837303430702,-0.319437871489,-0.989319795505,-0.0118163057465,-1.37204287055,-0.121003123964,0.415793005177,-0.30956000214,0.573733544342,0.819024589034,0.00304787738599,0.0,0.818993899929,-0.573669037036,-0.0115574532828,0.0,-0.00771751412622,0.00912726735051,-0.999928563932,0.0,0.598936643586,0.178752489716,0.304165824509,1.0,-0.243481142857,-0.320003787755,1.408
0.397760990251,0.239418607684,-0.127015810041,-1.81723722937,0.0461186132398,2.0492039488,0.0785990391022,-0.328031272293,-0.998493813332,-0.00397068397715,-1.40092866522,-0.11399679357,0.391268758557,-0.33422144226,0.573768688212,0.819000492715,0.00290383548302,0.0,0.818967400081,-0.573704030153,-0.0116974480535,0.0,-0.00791442597706,0.00908995103061,-0.999927364688,0.0,0.594959154166,0.173543521847,0.304107772763,1.0,-0.252267428571,-0.331551477551,1.424
0.391709555233,0.220995275091,-0.127166180783,-1.84281797961,0.0437854840895,2.05655618297,0.0725114573437,-0.349074957586,-1.01075566059,-0.00671382007826,-1.42260349749,-0.13051264235,0.39214200072,-0.345927291793,0.573635047243,0.81909369014,0.00301765605894,0.0,0.819061795312,-0.573569694521,-0.0116759534421,0.0,-0.00783301453667,0.00916955943605,-0.999927278887,0.0,0.590354772034,0.167614224367,0.304148160313,1.0,-0.262152,-0.344542628571,1.442
0.385525510923,0.203123546068,-0.12738214771,-1.86739087773,0.0413916259982,2.06337462239,0.0664574663702,-0.372556828855,-1.0269553972,-0.0134580718794,-1.45566388317,-0.151563398363,0.402917493462,-0.359422948852,0.57358200259,0.819130854257,0.00301277468028,0.0,0.819099287455,-0.573517131554,-0.0116277257542,0.0,-0.00779690115192,0.00913739174062,-0.9999278556,0.0,0.585843092318,0.161702719282,0.304183307654,1.0,-0.271487428571,-0.35681204898,1.459
0.379283901206,0.185845127127,-0.127608329278,-1.89082862189,0.0391414729911,2.06969459977,0.0604307593823,-0.402744790914,-1.08153253634,-0.0230917103291,-1.49586694818,-0.145632862205,0.399927346252,-0.392325580333,0.573581916056,0.819130583406,0.00310158085579,0.0,0.819099922354,-0.573516463156,-0.0116159626789,0.0,-0.00773633155173,0.00920338796208,-0.9999277208,0.0,0.581451529637,0.155925744023,0.304256730774,1.0,-0.280273714286,-0.368359738775,1.475
0.372158893201,0.167238978072,-0.127912884671,-1.91594606364,0.0366860446406,2.07628359461,0.0537619403214,-0.429084783997,-1.10370644008,-0.0179491401606,-1.51350875987,-0.161679858423,0.380405920318,-0.402279651668,0.573742439592,0.81901806959,0.00312435551408,0.0,0.818987282107,-0.573676388061,-0.0116610646937,0.0,-0.00775840308178,0.00924943321667,-0.999927124928,0.0,0.576662062334,0.149520899671,0.304279068628,1.0,-0.289609142857,-0.380629159184,1.492
0.364715220125,0.148195863738,-0.128117554727,-1.9413075915,0.0340500516059,2.08278014415,0.046712585853,-0.45218492918,-1.10721960135,-0.0131430148343,-1.52459613511,-0.157437747659,0.381584854642,-0.412977107149,0.573642972225,0.819087498505,0.00318702226711,0.0,0.819057718761,-0.573576963201,-0.011604633739,0.0,-0.00767735567957,0.00926745020447,-0.999927583666,0.0,0.571693248571,0.143043172422,0.304336083545,1.0,-0.298944571429,-0.392898579592,1.509
0.357261561829,0.129936751078,-0.128365246503,-1.96535649421,0.0315748559443,2.0887176444,0.0397238982773,-0.472489377483,-1.14268265989,-0.0129124344602,-1.48611067759,-0.147095323413,0.348073965252,-0.453879349655,0.573618400285,0.81910433765,0.00328051805304,0.0,0.819075329109,-0.573551558146,-0.0116173273494,0.0,-0.00763440396887,0.00935108417102,-0.999927133896,0.0,0.566879004328,0.136738841744,0.304391378787,1.0,-0.307730857143,-0.404446269388,1.525
0.348222966419,0.108995656468,-0.128778708271,-1.99273011083,0.0285521707702,2.09528040618,0.031488693916,-0.516299669676,-1.16278817755,-0.0213695634149,-1.53870183102,-0.16393054813,0.342190218094,-0.468031458587,0.573768702039,0.81899909683,0.00327152155654,0.0,0.818970476746,-0.573702487242,-0.0115568703621,0.0,-0.00758833243361,0.00931042933077,-0.999927863956,0.0,0.561309546852,0.129267369143,0.304409810653,1.0,-0.317615428571,-0.417437420408,1.543
0.339278081441,0.0888928102925,-0.129068448799,-2.01868409492,0.0256720627364,2.10121887869,0.0232389909687,-0.540195328322,-1.17641975314,-0.013952575876,-1.52096860011,-0.158276390513,0.327317589554,-0.494207603225,0.573697916879,0.819048620715,0.00328694019194,0.0,0.819019976934,-0.573631388945,-0.0115781648106,0.0,-0.00759773413079,0.00933461843365,-0.999927567044,0.0,0.555859498694,0.122153763556,0.304422448059,1.0,-0.326950857143,-0.429706840816,1.56
0.33036397385,0.0696682662097,-0.12938635408,-2.0431715878,0.0229203443689,2.10659522433,0.0150483934093,-0.56710358471,-1.18398029722,-0.0140965725659,-1.52086164041,-0.171558598834,0.316542842815,-0.51233688324,0.573645786749,0.819084870875,0.00335149956796,0.0,0.81905665278,-0.573578554884,-0.0116011988592,0.0,-0.00758016413237,0.00940022784828,-0.999927085756,0.0,0.550603981276,0.115270712202,0.304448592645,1.0,-0.32998,-0.433688,1.576
0.32032403063,0.0494197614168,-0.12979053539,-2.06880220459,0.0198784265099,2.11188845116,0.00617839100292,-0.603514336665,-1.17602282223,-0.0136119749058,-1.48945815398,-0.17454869959,0.291972235322,-0.52867311806,0.573853034976,0.818940245921,0.00321166023843,0.0,0.818909945955,-0.573785902865,-0.0117040586896,0.0,-0.00774226839461,0.00934665006485,-0.999926345994,0.0,0.544982871865,0.107748226125,0.304397926796,1.0,-0.32998,-0.433688,1.593
0.310057589421,0.0292603518793,-0.130033905645,-2.09382078479,0.0169347010358,2.11680623164,-0.00290459515171,-0.604815172518,-1.19374229784,-0.00890720738289,-1.45389661541,-0.170327044626,0.266779194239,-0.542810989835,0.573910053554,0.818900082227,0.0032638411771,0.0,0.818869630633,-0.573841732033,-0.0117873451357,0.0,-0.0077798794135,0.00943771800254,-0.99992519868,0.0,0.539338708978,0.100385255234,0.304421676042,1.0,-0.32998,-0.433688,1.61
0.300066511358,0.0104642010247,-0.130292423341,-2.11671505114,0.0140130700123,2.12114084164,-0.0117375711045,-0.631247667129,-1.17029465779,-0.0185401416685,-1.42961326257,-0.191403578411,0.263044498052,-0.55375457836,0.573896905956,0.818908910726,0.0033591917348,0.0,0.818880451067,-0.573829191966,-0.0116452655672,0.0,-0.00760895595791,0.00943413995751,-0.999926547699,0.0,0.53408601246,0.0934151643444,0.304507797237,1.0,-0.32998,-0.433688,1.626
0.289137710771,-0.0092993220071,-0.130557097766,-2.14044286898,0.0110743296786,2.12536463331,-0.0213983579578,-0.643130114763,-1.17704113102,-0.0127310658138,-1.38401346027,-0.184089388353,0.262942608449,-0.578755467697,0.573915030057,0.818895313888,0.00357072372285,0.0,0.818869346156,-0.573846331035,-0.0115814155259,0.0,-0.00743506334288,0.00957088890917,-0.999926556262,0.0,0.528508406606,0.0860449972725,0.304609669871,1.0,-0.32998,-0.433688,1.643
0.277281222227,-0.0299695841246,-0.130800319934,-2.16498180945,0.00784907729637,2.12938675824,-0.0318563236564,-0.670088446977,-1.17310726556,-0.0166987526143,-1.34444057617,-0.187209043711,0.235508706316,-0.588855064529,0.573834674452,0.818951313068,0.00364144498586,0.0,0.818926453854,-0.573766022508,-0.0115222174789,0.0,-0.00734693917944,0.00959410826147,-0.99992698512,0.0,0.522573791317,0.0782877542749,0.304678868835,1.0,-0.32998,-0.433688,1.661
0.266983996438,-0.0468879842106,-0.131108578414,-2.185061655,0.00526919485181,2.13236547663,-0.0408015249553,-0.689227333216,-1.14075114041,-0.015850561129,-1.31389766961,-0.167613746245,0.179218588818,-0.594384154543,0.574005579496,0.818831942487,0.00354846036379,0.0,0.818804528687,-0.573935457974,-0.0117465221761,0.0,-0.00758198632369,0.00964825044324,-0.999924709539,0.0,0.517590334608,0.0717124205211,0.304611544378,1.0,-0.32998,-0.433688,1.676
0.254443785211,-0.0670992891512,-0.13132760229,-2.20852360092,0.00207909944153,2.13574228485,-0.0518785087032,-0.70775348903,-1.09890826969,-0.0129995929672,-1.29350774607,-0.180343696688,0.165308582981,-0.610902482391,0.573860695999,0.818933154742,0.00362443838106,0.0,0.818906773247,-0.573790403561,-0.0117054009666,0.0,-0.00750641750158,0.00968553316165,-0.999924919253,0.0,0.511651324177,0.063989099429,0.304637651301,1.0,-0.32998,-0.433688,1.694
0.242088655191,-0.0859568414441,-0.131691647831,-2.23003822759,-0.000922533741642,2.13857313488,-0.0626743268351,-0.733573132003,-1.09625165578,-0.019664839802,-1.2702056742,-0.176697471885,0.161911326919,-0.647380871542,0.573950981957,0.81886933945,0.00374461233524,0.0,0.818844721206,-0.57388056078,-0.0116263241489,0.0,-0.00737162207577,0.00973938371881,-0.999925399014,0.0,0.506091398312,0.0565457279841,0.304688400174,1.0,-0.32998,-0.433688,1.711
0.230356557229,-0.103542103545,-0.131843291878,-2.24984656335,-0.00372483109991,2.14080902271,-0.0730769262518,-0.746124444388,-1.09792922308,-0.00589749459974,-1.23750498301,-0.173817712663,0.132343601428,-0.659785066627,0.573733261549,0.819021821136,0.0037613821996,0.0,0.818997133899,-0.573662440614,-0.0116552903861,0.0,-0.00738831571315,0.00976777706846,-0.999924998848,0.0,0.50079544016,0.049749120314,0.30471616798,1.0,-0.32998,-0.433688,1.727
0.216541911527,-0.123000484246,-0.13224689846,-2.2716730679,-0.00689441082268,2.14303523873,-0.0850715623628,-0.773864498484,-1.08448440194,-0.0284662379249,-1.19658157704,-0.174468043095,0.12364714282,-0.679898059631,0.573889231895,0.818912944895,0.00367220642738,0.0,0.818886377009,-0.573817734061,-0.0117922231616,0.0,-0.00754977238149,0.0097747379035,-0.999923724809,0.0,0.494835987926,0.0418695972344,0.304651087304,1.0,-0.32998,-0.433688,1.745
0.203239152776,-0.141198324969,-0.132488209238,-2.2917630793,-0.00984537039661,2.14471662576,-0.0968190427594,-0.798958327585,-1.08297273945,-0.0211885373421,-1.16453480823,-0.172698981776,0.1067080669,-0.695937522969,0.573764514041,0.819000835512,0.00355819587934,0.0,0.818971689636,-0.573692040168,-0.0119817161971,0.0,-0.00777187655566,0.00978893372987,-0.999921884305,0.0,0.489172855208,0.0345650026228,0.304593804584,1.0,-0.32998,-0.433688,1.762
0.191081529472,-0.157148458201,-0.13288122204,-2.30909634648,-0.0124883161761,2.14604872903,-0.107492460229,-0.820322652108,-1.04741331097,-0.0296513429452,-1.15244921545,-0.173399635289,0.0734166406665,-0.721722299977,0.573842229916,0.81894646051,0.00354074627793,0.0,0.818916717987,-0.573769345908,-0.0120371757344,0.0,-0.00782638146842,0.00980720490557,-0.999921280144,0.0,0.48419702117,0.0279795086426,0.304567328729,1.0,-0.32998,-0.433688,1.777
0.177069634097,-0.175029414372,-0.133162379015,-2.32808138138,-0.0153137192549,2.14722921369,-0.119840050268,-0.842617539529,-1.02937638956,-0.0155763016208,-1.12077440265,-0.164571261256,0.0625203958315,-0.729526999569,0.573828056511,0.818955731579,0.00369028132221,0.0,0.818927363752,-0.573753881171,-0.0120500473597,0.0,-0.00775129135617,0.00993691892846,-0.999920584409,0.0,0.478600303292,0.0206796734534,0.304617511233,1.0,-0.32998,-0.433688,1.794
0.161670226484,-0.193731173789,-0.133625054235,-2.34758528683,-0.0184800783646,2.14818312008,-0.133357998471,-0.857891266759,-1.04862809768,-0.0215651121439,-1.07029404268,-0.183297025841,0.061452332367,-0.75971703368,0.573930292015,0.818883641566,0.00378792611769,0.0,0.818857288472,-0.573856706194,-0.0119150649894,0.0,-0.00758347100816,0.00994037902152,-0.999921836861,0.0,0.472699835092,0.012784074085,0.304693207759,1.0,-0.32998,-0.433688,1.812
0.147778105395,-0.210074183636,-0.133887718466,-2.3646022516,-0.0210738705413,2.14867829236,-0.145761209815,-0.876052602499,-1.02009974684,-0.0132059816074,-1.06156727778,-0.159574696189,0.0188898261965,-0.77326188187,0.573820431572,0.818960594742,0.0037951906031,0.0,0.818932785523,-0.573744811884,-0.0121132379165,0.0,-0.00774294268538,0.0100590230885,-0.999919428201,0.0,0.467372006177,0.00593990675646,0.304652253324,1.0,-0.32998,-0.433688,1.828
0.132514648816,-0.227172039216,-0.134303296366,-2.38195841414,-0.0239787107466,2.1490464677,-0.1592254637,-0.894954622921,-0.992374824888,-0.0186499928793,-1.02698314609,-0.175297415245,0.00473506472709,-0.790980669275,0.573902793239,0.818902463474,0.00388408675462,0.0,0.818876408193,-0.573827606163,-0.0120022252706,0.0,-0.00760000196029,0.010068891476,-0.999920425531,0.0,0.461815526825,-0.00146981832098,0.304704338261,1.0,-0.32998,-0.433688,1.845
0.116011816449,-0.245086765735,-0.134680058459,-2.39983103731,-0.026927252239,2.14915609667,-0.173981539132,-0.938419843029,-0.983874899026,-0.0297961307271,-0.984760113763,-0.162877970771,0.00885359804744,-0.836073065309,0.57384043877,0.81894529801,0.00406160070246,0.0,0.818921894648,-0.573765084868,-0.0118871675967,0.0,-0.00740467790123,0.010147666586,-0.999921094691,0.0,0.455915766866,-0.00922821072524,0.304776338789,1.0,-0.32998,-0.433688,1.863
0.101917626779,-0.259714268557,-0.134996283653,-2.41445274659,-0.0293770813431,2.14905479736,-0.186645262063,-0.932256193851,-0.978725691114,-0.0187709743162,-0.978145346977,-0.163311148801,-0.0118439490974,-0.856498391336,0.573751714738,0.819007442286,0.00406524494703,0.0,0.81898360318,-0.57367570058,-0.0119496940814,0.0,-0.00745489967263,0.0101857225311,-0.99992033459,0.0,0.450942737234,-0.0156902294926,0.304729000906,1.0,-0.32998,-0.433688,1.878
0.0844987789249,-0.277038372009,-0.135485693843,-2.43126297106,-0.0323283752154,2.14874136489,-0.202193168261,-0.975866503323,-0.933082355186,-0.0271722303247,-0.929206745146,-0.165166777784,-0.0331877235028,-0.874987618011,0.573839675305,0.818944939241,0.00423797576938,0.0,0.818924317904,-0.573764409953,-0.0117520346217,0.0,-0.0071928080964,0.0102145618097,-0.999921960074,0.0,0.445056482199,-0.0235393092405,0.304794272937,1.0,-0.32998,-0.433688,1.896
0.0687580398921,-0.292137280721,-0.135817154609,-2.44582652581,-0.0347618610506,2.14810075726,-0.21648300499,-0.996359864867,-0.94187888379,-0.0238088508462,-0.894951702184,-0.15594024326,-0.0342679250682,-0.893573512473,0.573730640079,0.819020895823,0.00432108099611,0.0,0.819000384442,-0.57365373203,-0.011853814294,0.0,-0.0072298565593,0.0103400625375,-0.999920402973,0.0,0.439759211095,-0.0303889795183,0.304782000451,1.0,-0.32998,-0.433688,1.912
0.0524973244951,-0.30695171209,-0.136275981206,-2.45977106557,-0.0373208198444,2.14738974232,-0.231118033352,-1.01428046379,-0.922350842871,-0.0203409570827,-0.87344258617,-0.15264556802,-0.055746842752,-0.913982142441,0.573801698235,0.818970381662,0.00445779815338,0.0,0.818952598298,-0.573725716143,-0.011670101914,0.0,-0.00700004915324,0.0103472488938,-0.999921963831,0.0,0.434532024003,-0.0373855068315,0.304844788143,1.0,-0.32998,-0.433688,1.928
0.0338384065035,-0.323274844743,-0.13678302124,-2.47497240366,-0.0400359382951,2.14625887419,-0.247982171337,-1.05212648053,-0.908574227816,-0.0297408072807,-0.842903522627,-0.158361590484,-0.0589536503243,-0.954531437092,0.57390741535,0.818895554405,0.00459309080428,0.0,0.818879243812,-0.573830573051,-0.0116620918659,0.0,-0.00691451238151,0.0104543490035,-0.999921444967,0.0,0.42860304093,-0.0451988425451,0.304876274913,1.0,-0.32998,-0.433688,1.946
0.0159243618641,-0.338300779538,-0.137148943216,-2.48876394042,-0.0425943965349,2.14507930894,-0.264460680962,-1.06834396483,-0.888970093794,-0.0244179141789,-0.800285233877,-0.15165744905,-0.0727742056222,-0.97695498602,0.573703766941,0.819037691178,0.00468989649107,0.0,0.819023175835,-0.573627492253,-0.0115448897442,0.0,-0.0067655765362,0.0104646821312,-0.999922355687,0.0,0.423036635457,-0.0524825649431,0.304910926972,1.0,-0.32998,-0.433688,1.963
-0.00150530776247,-0.352101333084,-0.137604714423,-2.50124788019,-0.0450091710511,2.14368067175,-0.280303644216,-1.09191022289,-0.891712721842,-0.0186268278717,-0.755277906895,-0.14933763962,-0.0846883907385,-0.990010469834,0.573784529427,0.81898104304,0.00470232208967,0.0,0.818966695151,-0.573708215543,-0.0115404745493,0.0,-0.00675379910017,0.0104729925775,-0.999922348297,0.0,0.417755436204,-0.0594660746122,0.304932248067,1.0,-0.32998,-0.433688,1.979
-0.0203367868694,-0.366334753681,-0.138118469724,-2.51397767454,-0.0473798037889,2.14215713692,-0.297623699623,-1.11407634718,-0.820660573797,-0.0260179809692,-0.735463093564,-0.152352368375,-0.099725423469,-1.01600927401,0.573837200914,0.818943236202,0.00485691532129,0.0,0.818930602912,-0.573759977407,-0.0115283494755,0.0,-0.00665448832201,0.0105930763361,-0.999921749198,0.0,0.412173081704,-0.066843300168,0.304948757784,1.0,-0.32998,-0.433688,1.996
-0.0395218512166,-0.380158456263,-0.138539777294,-2.52623727984,-0.0498017122573,2.14036611904,-0.315339605292,-1.14463931662,-0.805641027148,-0.0351460003238,-0.688215511504,-0.137260534748,-0.102925977564,-1.05726667277,0.573759938636,0.818997645629,0.0048100075216,0.0,0.818983826344,-0.573681954584,-0.0116298784078,0.0,-0.00676555877636,0.0106122810057,-0.999920800217,0.0,0.406544783509,-0.0741661177899,0.304924670731,1.0,-0.32998,-0.433688,2.013
-0.0580301364107,-0.392777541197,-0.138988489846,-2.53721503581,-0.0520204162195,2.13875442859,-0.332442455713,-1.1547000934,-0.775276879427,-0.0260144235431,-0.688363266819,-0.128748370992,-0.108189239498,-1.0844804879,0.573779348103,0.818983545944,0.0048946976809,0.0,0.81897140458,-0.573702029174,-0.0115137788517,0.0,-0.00662162492627,0.0106151903338,-0.999921732846,0.0,0.401295637382,-0.0811189725176,0.304947014288,1.0,-0.32998,-0.433688,2.029
-0.0780142106419,-0.405720320185,-0.13945014991,-2.54845104965,-0.054213411276,2.13669744646,-0.351056171195,-1.16558857519,-0.742474302301,-0.0213031298963,-0.64441376542,-0.139921333922,-0.125010909411,-1.10889663009,0.573762747651,0.818995185069,0.00489317314358,0.0,0.818981360369,-0.573682792401,-0.0117614613257,0.0,-0.00682558237599,0.0107559130489,-0.999918857588,0.0,0.395636681306,-0.0884396204657,0.304893454026,1.0,-0.32998,-0.433688,2.046
-0.0984571055595,-0.418216466136,-0.139983175996,-2.55883596937,-0.0563676246759,2.1348175775,-0.370173388291,-1.21459523419,-0.707992070181,-0.0310907364482,-0.598023610285,-0.128182999547,-0.113794176689,-1.12777777098,0.573801999355,0.818966209228,0.00513425556305,0.0,0.818956892327,-0.573723537372,-0.0114742353034,0.0,-0.00645149193802,0.0107888808579,-0.999920986029,0.0,0.390117159398,-0.0958518208647,0.305008487575,1.0,-0.32998,-0.433688,2.063
-0.119242325496,-0.430142450243,-0.140361041443,-2.56898168296,-0.0584894813036,2.13261827588,-0.389701922669,-1.22810663671,-0.69789379454,-0.0284738344109,-0.586755672161,-0.118163547694,-0.134221261662,-1.14183864564,0.573681418879,0.819051319064,0.00503122972426,0.0,0.819039181959,-0.573600855048,-0.011731342839,0.0,-0.00672278358928,0.0108510365989,-0.999918526274,0.0,0.384448370054,-0.103153152321,0.304934415155,1.0,-0.32998,-0.433688,2.08
-0.14033390828,-0.44154413789,-0.140773143844,-2.5784067563,-0.0604544436455,2.1305091624,-0.409624135215,-1.25282535285,-0.668107802297,-0.0213482191317,-0.528685000645,-0.106898049982,-0.127488847594,-1.18945945387,0.573605893322,0.819103691706,0.00511549417403,0.0,0.819092320689,-0.573524531126,-0.0117528416113,0.0,-0.0066930634164,0.0109317716765,-0.99991784626,0.0,0.378863979174,-0.11045061553,0.304944731302,1.0,-0.32998,-0.433688,2.097
-0.161944706656,-0.452385504372,-0.141261078803,-2.58717541193,-0.0624789854897,2.12848446472,-0.429993674672,-1.2738477451,-0.619757123735,-0.0326867548945,-0.52101917645,-0.108660604341,-0.121278562821,-1.19910212355,0.5736404859,0.819079047897,0.00518200099063,0.0,0.819069607137,-0.573560670065,-0.0115707959952,0.0,-0.00650532985442,0.0108821060668,-0.999919626996,0.0,0.373297311473,-0.117864718347,0.305000374773,1.0,-0.32998,-0.433688,2.114
-0.182524085574,-0.462051381419,-0.141649347507,-2.5950346591,-0.0642736071459,2.1263646267,-0.449609755737,-1.27611249854,-0.597224945665,-0.0181571470152,-0.477644944616,-0.11881955582,-0.128264444432,-1.24724240287,0.573513035527,0.819168645603,0.00512591864795,0.0,0.819157522624,-0.573431839364,-0.0117313952439,0.0,-0.00667075462693,0.0109272533016,-0.999918044726,0.0,0.367985973416,-0.124755033497,0.304974559078,1.0,-0.32998,-0.433688,2.13
-0.204673226775,-0.47157397268,-0.142079077131,-2.6027150987,-0.0658516892254,2.12440608056,-0.470646522367,-1.31061128849,-0.542593726482,-0.019240886778,-0.431864495835,-0.102800571896,-0.111640469953,-1.20603578747,0.573634171569,0.819082539861,0.0053270070909,0.0,0.819073449514,-0.573551316964,-0.0117608677667,0.0,-0.0065779361545,0.011109859611,-0.999916647414,0.0,0.362439355884,-0.132062781214,0.304959310086,1.0,-0.320662285714,-0.421441861225,2.147
-0.228106028697,-0.480734041297,-0.142352545076,-2.60984034918,-0.067402234518,2.12235774694,-0.492792735855,-1.30348160919,-0.490161220658,-0.0244866570107,-0.381935489184,-0.0860613906465,-0.109520346336,-1.20086638883,0.573817006964,0.818953465034,0.00547827792749,0.0,0.818946828739,-0.573734458344,-0.0116451667797,0.0,-0.00639389596804,0.0111688281173,-0.999917184257,0.0,0.356745394504,-0.139664167408,0.305026857418,1.0,-0.310777714286,-0.408450710204,2.165
-0.24731127832,-0.487682036572,-0.142357928485,-2.61536920816,-0.0685408488995,2.12068831909,-0.511083504235,-1.27919270837,-0.448029669333,8.51314196612e-05,-0.363588412569,-0.073760823034,-0.111099649861,-1.20735525047,0.573765190395,0.818989705631,0.0054877375152,0.0,0.818982471282,-0.573681364913,-0.011753730689,0.0,-0.00647809641245,0.0112384587337,-0.999915862116,0.0,0.352083095067,-0.145711633761,0.304999883348,1.0,-0.302540571429,-0.397624751021,2.18
-0.270131223622,-0.495091992593,-0.14236136226,-2.62120047682,-0.0696880452973,2.11889882372,-0.532765363611,-1.25723054115,-0.396154883204,0.000729253960497,-0.311071308769,-0.0529537476786,-0.0921837841763,-1.22038032441,0.573870959726,0.818914897375,0.00559100541272,0.0,0.81890842192,-0.573785733514,-0.0118184358466,0.0,-0.00647037861149,0.0113609972756,-0.999914527318,0.0,0.346669394595,-0.152833016086,0.304983902133,1.0,-0.292656,-0.3846336,2.198
-0.291256683481,-0.50124780692,-0.142213777341,-2.62601043321,-0.0706661839179,2.11735537067,-0.552856114077,-1.2374819798,-0.342995793173,0.00492007555317,-0.269562048526,-0.0472385835518,-0.0924443758821,-1.14931437399,0.573912533453,0.818885659519,0.00560602181885,0.0,0.818879133502,-0.573826813235,-0.0118532708174,0.0,-0.00648971280261,0.0113936143363,-0.999914030895,0.0,0.341741279451,-0.159322330188,0.304972609079,1.0,-0.283320571429,-0.372364179592,2.215
-0.310726513955,-0.506391513154,-0.142051617023,-2.62992108851,-0.0713444091811,2.11607356718,-0.571468863604,-1.20590525697,-0.311154410226,0.0240864926034,-0.236696115078,-0.0461964797612,-0.0758805865852,-1.14980762814,0.573977796054,0.81883886799,0.00575715269593,0.0,0.818834549274,-0.573891947462,-0.0117796627525,0.0,-0.00634178424004,0.0114756413395,-0.99991404202,0.0,0.337280594862,-0.165243303801,0.305005540489,1.0,-0.274534285714,-0.360816489796,2.231
-0.330991426223,-0.511200794038,-0.141829497132,-2.63358332524,-0.0719719996109,2.11484439186,-0.59086181437,-1.19844494273,-0.266592893708,0.0013259158139,-0.204360399522,-0.0305784950051,-0.0690398352317,-1.12577334085,0.574048062851,0.81878871434,0.00588300161587,0.0,0.818786201679,-0.573962064474,-0.0117239663564,0.0,-0.00622295139823,0.0115472630439,-0.999913964095,0.0,0.332670573741,-0.171340002316,0.305025743134,1.0,-0.265198857143,-0.348547069388,2.248
-0.350594758562,-0.515318123228,-0.141405173789,-2.6368524165,-0.0724953359799,2.11363407899,-0.609779214344,-1.14502349191,-0.22848576407,0.0248335783962,-0.185328631197,-0.0265551081211,-0.0674967523496,-1.10196523969,0.573893633837,0.818897015477,0.00587554129548,0.0,0.818893116068,-0.573805322546,-0.0119274127821,0.0,-0.0063960290048,0.011656731012,-0.99991160181,0.0,0.327943547941,-0.177444482434,0.30496817212,1.0,-0.255314285714,-0.335555918367,2.266
-0.369813135463,-0.518777759463,-0.141089807863,-2.63962537862,-0.072942644202,2.11264640696,-0.628236421954,-1.10716726853,-0.187362507869,0.0133203042409,-0.151191817029,-0.021140788655,-0.0532724772672,-1.06841263577,0.573934577157,0.818868094395,0.00590694740715,0.0,0.818863613208,-0.573844329957,-0.0120753816389,0.0,-0.00649860159301,0.0117676899163,-0.999909640743,0.0,0.323870960526,-0.182761085058,0.304907775714,1.0,-0.246528,-0.324008228572,2.282
-0.388473833452,-0.521729869822,-0.140704556905,-2.64188020257,-0.0732968874576,2.11179816721,-0.646122614211,-1.07630268405,-0.160148972757,0.0337394556409,-0.119565457524,-0.021032266758,-0.0459453066103,-1.03293615594,0.574009844061,0.818815050493,0.00594633572025,0.0,0.818811004041,-0.573919272176,-0.0120812080792,0.0,-0.00647968308868,0.0118038847484,-0.999909336896,0.0,0.319721256204,-0.188221686442,0.304905587354,1.0,-0.237192571429,-0.311738808163,2.299
-0.406454205269,-0.524161038521,-0.140271682723,-2.64369455684,-0.0735097445712,2.11106064891,-0.663531147878,-1.06086686225,-0.132418376266,0.0135719198423,-0.0961222992924,-0.0103767420943,-0.0468153707868,-1.00290804973,0.573972166309,0.81884092806,0.00601944671055,0.0,0.818837850368,-0.573881320989,-0.0120644571236,0.0,-0.00642454693021,0.0118538416186,-0.999909101687,0.0,0.315759552696,-0.193441869291,0.30492099945,1.0,-0.227857142857,-0.299469387755,2.316
-0.422876917775,-0.526016902165,-0.139876975013,-2.64508464861,-0.0736607942333,2.11051228209,-0.679416101497,-1.00778158466,-0.10443163553,0.025290144464,-0.0837823652905,-0.000565219382887,-0.0336345997804,-0.976292795022,0.57398582675,0.818830868051,0.00608499124934,0.0,0.818828841567,-0.573895067518,-0.0120219215788,0.0,-0.00635189631179,0.0118832077207,-0.999909217273,0.0,0.312157662172,-0.198197844328,0.304932242307,1.0,-0.219070857143,-0.287921697959,2.332
-0.439791422841,-0.527582033806,-0.139459102811,-2.64626115927,-0.073795182273,2.11001967061,-0.695683717524,-0.98241902988,-0.0870035505259,0.0295302553969,-0.0653376038545,-0.00616624328929,-0.0270224840291,-0.942908952123,0.574092737755,0.818755634717,0.00612257929822,0.0,0.81875423556,-0.574002056924,-0.0119953032676,0.0,-0.00630697045839,0.011899533329,-0.999909307503,0.0,0.308450997305,-0.203079336711,0.304938684993,1.0,-0.209735428572,-0.275652277551,2.349
-0.456817165433,-0.528783499233,-0.138875344453,-2.6472011899,-0.0738210568544,2.10960765898,-0.712220166754,-0.94080073662,-0.0608927826875,0.02698067213,-0.0479549798309,-0.00216406757076,-0.0248659263296,-0.906542142784,0.574014505622,0.818810425689,0.00613033609558,0.0,0.818809040675,-0.573923644774,-0.0120063224494,0.0,-0.00631267869875,0.0119116071979,-0.999909127722,0.0,0.304750685087,-0.207927263299,0.304930472089,1.0,-0.199850857143,-0.262661126531,2.367
-0.470596446978,-0.529492498163,-0.138431078003,-2.64772970425,-0.0738263026082,2.10933269757,-0.725477621344,-0.888930929763,-0.0398080110375,0.0404877140466,-0.0288252948061,0.000919374043682,-0.0135789344028,-0.87213211631,0.574094661446,0.818754196316,0.00613454274427,0.0,0.818752961926,-0.574003947034,-0.0119917900292,0.0,-0.0062971978999,0.0119073269318,-0.999909276317,0.0,0.301762256398,-0.211860854154,0.304937233498,1.0,-0.191613714286,-0.251835167347,2.382
-0.485450483003,-0.529961284261,-0.137889946303,-2.64811453784,-0.0738178433518,2.10911788669,-0.739901344127,-0.873816024975,-0.0233914932898,0.0243746360528,-0.0191846744934,0.00616058442078,-0.00824422915495,-0.834225741835,0.57404643603,0.81878834551,0.00608945311572,0.0,0.818786508777,-0.573955891937,-0.0120014189384,0.0,-0.00633166636606,0.0118755624672,-0.999909436408,0.0,0.298552084031,-0.216082856263,0.304929198024,1.0,-0.182278285714,-0.239565746939,2.399
-0.499612153303,-0.530165824873,-0.137308416995,-2.64827836466,-0.0737800272702,2.10895909651,-0.753738853744,-0.814726449368,-0.00778093279884,0.0373321659099,-0.00515947776122,0.00139057589318,-0.00825667541406,-0.792182510259,0.573914516425,0.818881405261,0.00600989642301,0.0,0.818878640671,-0.573824531818,-0.0119968928219,0.0,-0.00637552920026,0.0118067940733,-0.999909972068,0.0,0.29533415104,-0.220316941771,0.30493268877,1.0,-0.172393714286,-0.226574595918,2.417
-0.513193574743,-0.530223732135,-0.136768528422,-2.64833715743,-0.0737257706852,2.10887579843,-0.76682306179,-0.800797106671,-0.00230792538704,0.0266165570988,-0.00222874984026,0.00235420503898,-0.00240617897992,-0.750548549188,0.57395466046,0.81885370369,0.00595034383303,0.0,0.818850337029,-0.573865231227,-0.0119820214642,0.0,-0.00639695037512,0.0117498043343,-0.999910506557,0.0,0.292565884633,-0.223926152003,0.304932399249,1.0,-0.163607428572,-0.215026906123,2.433
-0.525965763064,-0.530087946117,-0.136109103764,-2.64827019895,-0.0735671463923,2.10885839075,-0.779277753851,-0.723999302975,0.00527038446677,0.0381866386453,0.00691064747389,0.0137028496309,0.00172737091612,-0.723699135942,0.573821400496,0.81894754152,0.00588824873139,0.0,0.818943536622,-0.573732560027,-0.0119657967606,0.0,-0.00642120344878,0.0116885985376,-0.999911068451,0.0,0.289829816874,-0.227481475702,0.304929058275,1.0,-0.154272,-0.202757485714,2.45
-0.538140372862,-0.529816557411,-0.135544759509,-2.64810783553,-0.0733522086334,2.10885878776,-0.791005116303,-0.712411666678,0.0197486805597,0.0304357645949,0.00746839048713,0.0238145781478,0.000697016276884,-0.68027245997,0.573890908775,0.818898750192,0.00589988648811,0.0,0.818894777808,-0.573801790726,-0.0119831022872,0.0,-0.00642770580771,0.0117086051232,-0.999910792603,0.0,0.287198592273,-0.230870421967,0.304918630461,1.0,-0.144936571429,-0.190488065306,2.467
-0.548861264635,-0.529407442687,-0.134934847315,-2.64783956078,-0.0730823727885,2.10888458893,-0.801409082576,-0.640468540663,0.0340050641367,0.0442127484128,0.0204701492489,0.0230723065392,0.00531208544554,-0.641854745728,0.573850903745,0.818926739089,0.0059061981438,0.0,0.818922636009,-0.573761380657,-0.0120142082243,0.0,-0.00645013214746,0.0117313094641,-0.999910382071,0.0,0.284908728087,-0.233824449627,0.304909368836,1.0,-0.136150285714,-0.17894037551,2.483
-0.559557471181,-0.52885348061,-0.134289330851,-2.64748864462,-0.0727500237546,2.10895845766,-0.811826114185,-0.619040255686,0.0307245437419,0.0339914308623,0.0183812963362,0.0158574584355,0.00744906998511,-0.607264537401,0.573786204652,0.818971859561,0.00593561280656,0.0,0.818967807925,-0.573695969115,-0.0120586693169,0.0,-0.00647059827201,0.0117804007186,-0.999909672679,0.0,0.282631624517,-0.236757252841,0.304889709018,1.0,-0.126814857143,-0.166670955102,2.5
-0.569749404267,-0.528241501606,-0.133730455705,-2.64703044716,-0.0724354468813,2.1090680539,-0.821512494982,-0.583492414144,0.0393734749748,0.0361829204486,0.0259288065096,0.0201362462455,0.014148544617,-0.568514559163,0.573965938576,0.81884561776,0.00597515948946,0.0,0.818842261964,-0.573875831201,-0.0120261084905,0.0,-0.00641865019651,0.0117955168594,-0.99990982929,0.0,0.280457528155,-0.239577789764,0.304898263948,1.0,-0.117479428572,-0.154401534694,2.517
-0.578894918391,-0.52747869931,-0.133037956611,-2.64652651016,-0.0720407332731,2.10919862508,-0.830526886683,-0.528068923095,0.0459745844847,0.038571525909,0.0278741517165,0.0172855481283,0.00808779839388,-0.506484649246,0.573781599972,0.818974627474,0.00599849888626,0.0,0.818971197763,-0.573690738096,-0.0120772992892,0.0,-0.00644984261215,0.0118425579331,-0.999909072542,0.0,0.278553531181,-0.242059332325,0.30487751203,1.0,-0.108144,-0.142132114286,2.534
-0.587585888392,-0.526751737487,-0.132438246631,-2.64600823749,-0.0717052970965,2.10931731616,-0.83882113467,-0.497046068347,0.0432108710193,0.0344191963892,0.0268484426379,0.0215511180473,0.00888287294513,-0.472898231882,0.573855268557,0.818922913092,0.00601166061473,0.0,0.818919508181,-0.573764065352,-0.0120988980341,0.0,-0.00645891434355,0.0118663109978,-0.99990873238,0.0,0.276717366569,-0.244429869956,0.304872708749,1.0,-0.0988085714287,-0.129862693878,2.551
-0.595580100045,-0.525970037383,-0.131867378541,-2.64543287164,-0.0713357177406,2.10944926691,-0.846434821525,-0.448118621402,0.0489836586279,0.0390635935713,0.0328316834969,0.0295462562244,0.00224030127681,-0.43836845346,0.573953361367,0.818853852645,0.00605424520468,0.0,0.818850902186,-0.573861767511,-0.0121086200445,0.0,-0.00644101432901,0.0119075365809,-0.999908357754,0.0,0.275044665758,-0.246612719037,0.304874004896,1.0,-0.0894731428572,-0.11759327347,2.568
-0.602604318515,-0.525166663622,-0.131162295119,-2.64488947255,-0.0709140002296,2.10958649218,-0.853293895602,-0.399811295457,0.0459996648261,0.0381761394258,0.0301610808309,0.0256049803996,0.0040173942975,-0.394619300124,0.573800623415,0.818960782131,0.0060686737928,0.0,0.818957604711,-0.573708231789,-0.0121677181691,0.0,-0.00648336070231,0.0119520609383,-0.999907552863,0.0,0.273621071636,-0.248475583212,0.304856398997,1.0,-0.0801377142858,-0.105323853061,2.585
-0.608796940702,-0.524513852803,-0.130565487396,-2.64439734398,-0.0705779477739,2.10972360176,-0.859104408256,-0.374166928455,0.0397301280264,0.0466347154946,0.0311914612342,0.0190134873962,0.00995632190003,-0.344956162679,0.573862022216,0.818917826644,0.00605966699934,0.0,0.818914732417,-0.573770027727,-0.0121393251086,0.0,-0.00646437889196,0.0119288779023,-0.999907952602,0.0,0.272354506831,-0.250126678685,0.304867613224,1.0,-0.0713514285715,-0.0937761632654,2.601
-0.614610556955,-0.523799961159,-0.129895905726,-2.64385498538,-0.0701727668104,2.10987083949,-0.864615022626,-0.325334917963,0.0443779848504,0.0364943510175,0.0292303085624,0.0234095933245,0.0102202200832,-0.305541784811,0.573839049762,0.818933896602,0.00606340376078,0.0,0.818931032511,-0.573747378954,-0.0121101624286,0.0,-0.00643868445545,0.0119150230039,-0.999908283579,0.0,0.271206893668,-0.251658007503,0.304881745645,1.0,-0.0620160000001,-0.0815067428573,2.618
-0.619454254618,-0.523177944929,-0.129339921547,-2.64340122065,-0.0697778694616,2.10999476997,-0.869123878652,-0.288213562766,0.0360622034149,0.0400650312053,0.024916574558,0.0279419325734,0.010766100349,-0.26974739184,0.573913090569,0.818881623045,0.00611545699431,0.0,0.81887941001,-0.573821125082,-0.0121068233553,0.0,-0.0064050000623,0.0119563164204,-0.999908007005,0.0,0.270248915269,-0.252924489012,0.304884291549,1.0,-0.0532297142858,-0.0699590530614,2.634
-0.624066790208,-0.522581755101,-0.128604138458,-2.64297862412,-0.0693613072572,2.11012867821,-0.873455072772,-0.240388406903,0.0266270660118,0.0428007444854,0.0241483974528,0.0318316456715,0.00212479699923,-0.223962682978,0.573823420977,0.818944596266,0.00609726876274,0.0,0.818942205447,-0.573731664702,-0.0120990890793,0.0,-0.0064104108841,0.0119362812243,-0.999908211699,0.0,0.269378803167,-0.254076845263,0.304887209973,1.0,-0.0433451428572,-0.0569679020409,2.652
-0.627742590319,-0.522169001328,-0.127865729701,-2.64266034889,-0.0689690314969,2.11021129798,-0.876840133762,-0.198236357135,0.0209266580595,0.0446242667207,0.0185836899708,0.0190944035747,0.00300318921737,-0.183793330079,0.573723098013,0.819015148831,0.00606132762576,0.0,0.819012502792,-0.573631914718,-0.0120703598886,0.0,-0.00640896002124,0.0118895762896,-0.999908777443,0.0,0.268712821357,-0.254946156478,0.304905530829,1.0,-0.0340097142858,-0.0446984816328,2.669
-0.630449261374,-0.521846380989,-0.127288796737,-2.64241252034,-0.0686419787252,2.1103004989,-0.879186420322,-0.170853823089,0.0184431563722,0.0387349019297,0.016362713804,0.0186087476571,0.00422142979617,-0.139226076655,0.573762377996,0.818987751316,0.00604513778596,0.0,0.818985208199,-0.573671837805,-0.0120248975925,0.0,-0.00638044137889,0.0118505404257,-0.999909423228,0.0,0.268238416663,-0.255580840129,0.304921413862,1.0,-0.0257725714287,-0.0338725224491,2.684
-0.632992624608,-0.521510064042,-0.126688981706,-2.64219109515,-0.0682531645475,2.11038321063,-0.881379708853,-0.127561406768,0.0185067120298,0.0344021324426,0.0113376785581,0.016898221884,0.0045919624836,-0.0990400876031,0.573802022982,0.818959772613,0.00607257479795,0.0,0.818957576497,-0.57371133982,-0.0120222028344,0.0,-0.00636191796275,0.0118717740152,-0.999909289377,0.0,0.267807229881,-0.256151681981,0.304920198104,1.0,-0.0198309677419,-0.0260635576037,2.702
-0.63493217342,-0.521257885281,-0.126328837168,-2.64201908112,-0.0679855481562,2.11037357971,-0.883099538043,-0.104594306764,0.0122143972224,0.023857865004,0.00927497365958,0.0146959931562,-0.00147673245919,-0.106081514899,0.57385024688,0.818925593706,0.00612478808725,0.0,0.818923618464,-0.573758471078,-0.0120859789962,0.0,-0.00638349137836,0.011951505757,-0.999908202061,0.0,0.267443431829,-0.25660177517,0.304913661485,1.0,-0.0194909677419,-0.0256167004608,2.719
-0.636510036427,-0.521035087679,-0.126054545977,-2.64185100804,-0.0678293969642,2.11040598364,-0.884515240617,-0.0979117289409,0.016343838649,0.0188468341979,0.0135753964852,0.00974911686152,0.000637727202949,-0.0862296611818,0.573864238071,0.818915843368,0.00611756863644,0.0,0.818913743391,-0.573772433479,-0.0120922440389,0.0,-0.0063925610584,0.0119492975055,-0.99990817051,0.0,0.26715008289,-0.256990387894,0.304917555097,1.0,-0.0191709677419,-0.0251961290323,2.735
-0.638101556149,-0.520734804393,-0.12584651344,-2.64162884298,-0.0677021086025,2.11052445489,-0.886126642587,-0.0859783423365,0.0152871493968,0.0121314296668,0.010106447005,0.00554342000497,0.00805036086088,-0.0907762892592,0.573766598088,0.818984332524,0.00610744624621,0.0,0.818982451602,-0.57367551465,-0.0120372239845,0.0,-0.00635472783011,0.0119086776347,-0.999908896266,0.0,0.266860460131,-0.257424215265,0.30492325615,1.0,-0.0188109677419,-0.0247229861751,2.753
-0.639490832607,-0.520500948196,-0.125711883509,-2.64146497761,-0.0676649429115,2.11054201513,-0.887513957208,-0.0856417678757,0.0136945690912,0.00802935039979,0.0112959899913,0.000461236535243,0.00183738234541,-0.0853841398261,0.573697418289,0.819033064633,0.00607109441097,0.0,0.819030458547,-0.573606036283,-0.0120818050378,0.0,-0.00641310487761,0.0119039407855,-0.999908579961,0.0,0.266570387087,-0.257801476708,0.304916444428,1.0,-0.0184909677419,-0.0243024147465,2.769
-0.640920294355,-0.520296033065,-0.125638309102,-2.6413091889,-0.0676340433543,2.11054329852,-0.888913741418,-0.0833166936688,0.00941193449536,0.00630935989233,0.00975705057324,0.00143705119448,0.000123200754957,-0.0827927138989,0.573691012468,0.819037618647,0.00606204216375,0.0,0.819034649915,-0.573599218136,-0.012121307421,0.0,-0.00645074831642,0.0119191371885,-0.99990815679,0.0,0.266251881866,-0.258199341069,0.304913745215,1.0,-0.0181509677419,-0.0238555576037,2.786
-0.642285427108,-0.520089347334,-0.125599692253,-2.64112086781,-0.0675978942449,2.11058908511,-0.89033423341,-0.0783147564593,0.0124686185159,-0.000725296011128,0.0124578761356,0.00267254901591,0.00116692597941,-0.0769549324041,0.573643459219,0.819070895408,0.00606604421248,0.0,0.819068202038,-0.573552070559,-0.0120851011068,0.0,-0.0064194859615,0.0119012722669,-0.99990857078,0.0,0.265956918667,-0.2586013004,0.304928133339,1.0,-0.0178109677419,-0.0234087004608,2.803
-0.643627273701,-0.519882336381,-0.125588598419,-2.64093852624,-0.0675675306506,2.11067812672,-0.891614107618,-0.0758164902545,0.0135818351684,4.50801912507e-05,0.0126534134563,0.00171102519704,0.00388673926534,-0.0795662680424,0.573708737736,0.81902511933,0.00607330670126,0.0,0.8190229798,-0.573618158845,-0.0120130472272,0.0,-0.00635535079088,0.0118663963777,-0.999909394972,0.0,0.265666417058,-0.259007868279,0.304942705987,1.0,-0.0174709677419,-0.022961843318,2.82
-0.644918793494,-0.519693732052,-0.12559034205,-2.64078368927,-0.0675419826613,2.11069623919,-0.892926260036,-0.0805520577002,0.00671419774488,-0.000895951246799,0.00931177036568,0.000337061179876,-0.000791277357375,-0.0784338079047,0.573712081856,0.819022623308,0.0060939759656,0.0,0.819020683594,-0.573621285546,-0.0120202959463,0.0,-0.00634938223668,0.0118875102444,-0.999909182099,0.0,0.265367945875,-0.259387456474,0.304945181038,1.0,-0.0171509677419,-0.0225412718894,2.836
-0.646262142542,-0.519497737768,-0.125581546506,-2.6406117526,-0.067512927548,2.11071448725,-0.894194688835,-0.0825298891745,0.0111205380816,0.000508884431748,0.012912509163,0.000295209056726,0.00236349717523,-0.0813282237003,0.573788534224,0.818968947369,0.00610967590828,0.0,0.818967217377,-0.573697665346,-0.0120180089967,0.0,-0.0063373913873,0.0118996491493,-0.99990911378,0.0,0.26506187169,-0.259782049484,0.304952958867,1.0,-0.0168109677419,-0.0220944147465,2.853
-0.647610563938,-0.519287827091,-0.125572922921,-2.64043257338,-0.0674887816492,2.11078127215,-0.895544840448,-0.0689429576824,0.0121209451016,3.05285173518e-05,0.00848310239428,0.00213492148085,0.00900501627841,-0.0695214937585,0.573800605087,0.818960439801,0.00611641585607,0.0,0.818959068314,-0.573710214994,-0.0119741613235,0.0,-0.00629743541308,0.0118801039725,-0.999909598632,0.0,0.264762475056,-0.260186580673,0.304963027825,1.0,-0.0164509677419,-0.0216212718894,2.871
-0.64869851204,-0.519114290437,-0.125530454777,-2.64028622476,-0.0674569464249,2.11081028384,-0.896645706021,-0.0736780042958,0.0119961123202,0.00491769429978,0.00786248513629,0.00547253095672,-8.40380796803e-05,-0.0744719285541,0.573781107929,0.818974092546,0.00611741969998,0.0,0.818972786171,-0.573690815989,-0.0119653692861,0.0,-0.00628994105451,0.0118757317463,-0.999909697741,0.0,0.26452568599,-0.260500610058,0.304969141433,1.0,-0.0161509677419,-0.0212269861751,2.886
-0.649958005264,-0.51888021693,-0.125461921887,-2.64011165691,-0.0674310818595,2.11084226422,-0.897903946658,-0.0719625418977,0.0150036137801,0.00619391390162,0.00651314484493,-9.53750357273e-05,0.000931700616164,-0.0710382555126,0.573753774976,0.818993370022,0.00610020175906,0.0,0.818991723797,-0.573663342276,-0.0119863664757,0.0,-0.00631741417436,0.0118734663688,-0.999909551447,0.0,0.264254533421,-0.26086130618,0.304966642559,1.0,-0.0157909677419,-0.020753843318,2.904
-0.651122537731,-0.51867621569,-0.125388786634,-2.63995451541,-0.0674037015529,2.11088896515,-0.899155987455,-0.0684191786574,0.0103867306817,0.00564090978823,0.00760557402966,-0.00031946943264,-0.000419655747124,-0.0757168516662,0.573650144433,0.819066097186,0.00608170484677,0.0,0.819064260707,-0.573559905127,-0.0119799400884,0.0,-0.00632426247948,0.0118538296691,-0.99990974114,0.0,0.264007851971,-0.261193599097,0.30496864976,1.0,-0.0154509677419,-0.0203069861751,2.921
-0.652203892289,-0.518483629763,-0.12536872528,-2.63981064803,-0.0673837968085,2.11092420776,-0.900261167564,-0.0697496189323,0.00979257322205,-0.000916537244287,0.00434046329148,0.000616307148991,0.000713671732525,-0.0639682743104,0.573632464984,0.819078460201,0.00608424631779,0.0,0.819076606176,-0.573542123929,-0.0119871679645,0.0,-0.00632898137542,0.011859920873,-0.999909639053,0.0,0.263765644611,-0.261511220834,0.30496657839,1.0,-0.0151309677419,-0.0198864147465,2.937
-0.653348218039,-0.518288306009,-0.125361253309,-2.6396546324,-0.0673605952479,2.11095571276,-0.901388828803,-0.0636865559887,0.0100022343562,0.000994533046973,0.0111633764962,0.00280721112116,-1.13355465568e-05,-0.0654106394532,0.573658864554,0.819059892287,0.00609482291167,0.0,0.819058160466,-0.573568444898,-0.0119881480116,0.0,-0.00632333486354,0.0118693503406,-0.99990956289,0.0,0.263506241895,-0.261850180464,0.304968391903,1.0,-0.0147909677419,-0.0194395576037,2.954
-0.654478106754,-0.518084277619,-0.125372236598,-2.63949288478,-0.0673380080471,2.11099991233,-0.902533750649,-0.0665153292343,0.00739221760776,-0.00160564547958,0.00402964853469,0.000301135613322,0.00281186115619,-0.0631764674353,0.573672432651,0.819050259317,0.00611225244571,0.0,0.81904879303,-0.573582010218,-0.0119791106382,0.0,-0.0063057370348,0.011878547228,-0.999909564809,0.0,0.263249210681,-0.262192287098,0.3049702372,1.0,-0.0144509677419,-0.0189927004608,2.971
-0.655529494396,-0.517907331557,-0.125371533247,-2.6393545294,-0.0673190856846,2.11103003065,-0.903524603592,-0.064622702399,0.00935505068562,0.0006107263922,0.00706028468285,0.00115279444807,-0.0002899107441,-0.0647169249561,0.573736829106,0.819005071483,0.00612296610808,0.0,0.819003723884,-0.573646309335,-0.0119816089153,0.0,-0.00630070286411,0.0118892512553,-0.999909469326,0.0,0.263007636158,-0.262503772452,0.304970494564,1.0,-0.0141309677419,-0.0185721290323,2.987
-0.656610713502,-0.517727169918,-0.125364926003,-2.63919621931,-0.0672993039571,2.11105716647,-0.904544283024,-0.0619962888526,0.00943589495394,-0.000480511084471,0.0070261746331,0.000257158977315,0.00275935885502,-0.0554643529649,0.573799160467,0.818961355815,0.00612927655722,0.0,0.818960160276,-0.573708733384,-0.0119704645174,0.0,-0.00628704940589,0.0118885046927,-0.999909564144,0.0,0.262763242426,-0.262826184514,0.304978509068,1.0,-0.0137909677419,-0.0181252718894,3.004
-0.657641156036,-0.517543688834,-0.125358396046,-2.63904037357,-0.0672783347695,2.11110540586,-0.905640063616,-0.0647336176875,0.00699850017006,0.00332894627425,0.00876938115657,0.000238352329955,0.0100903176399,-0.0576583785538,0.57375802591,0.818990128097,0.00613552653337,0.0,0.818989171323,-0.573667879779,-0.0119435282941,0.0,-0.00626199783266,0.0118778536931,-0.999909847924,0.0,0.26253459544,-0.263137235999,0.304985970227,1.0,-0.0134509677419,-0.0176784147465,3.021
-0.658593559952,-0.517363887125,-0.125339684116,-2.6388997832,-0.0672608365609,2.11116192438,-0.906603271548,-0.0604966710275,0.0129869684384,0.00223542645954,0.00532787688389,0.00286071844218,0.00288290949605,-0.0606734288057,0.573750691067,0.818995290079,0.00613239181536,0.0,0.818994435014,-0.573660829757,-0.0119211878349,0.0,-0.00624560395899,0.0118624129169,-0.999910133758,0.0,0.262326431957,-0.263422620839,0.304988838839,1.0,-0.0131309677419,-0.017257843318,3.037
-0.659645574986,-0.517156671374,-0.125290442164,-2.63875678739,-0.0672429930144,2.11117990915,-0.907660298962,-0.0625550974101,0.0112075260131,-0.00026438815868,0.00992445930803,-2.39405131867e-05,0.00239597089663,-0.0608837460615,0.573726837909,0.819012083661,0.00612120745869,0.0,0.819010835978,-0.573636559421,-0.0119622384314,0.0,-0.00628599046162,0.0118766211292,-0.999909712021,0.0,0.262092363349,-0.263721985279,0.304980114874,1.0,-0.0127709677419,-0.0167847004608,3.055
-0.660619174624,-0.516958081966,-0.125256193338,-2.63862810628,-0.0672258455327,2.11121143679,-0.908629908544,-0.0604276619362,0.0114881867781,0.000643925354047,0.0051297103297,-0.000121191444621,0.000476368764839,-0.0612356623611,0.573719984763,0.819016922787,0.00611605864627,0.0,0.819015402821,-0.57362934204,-0.0119956156325,0.0,-0.00631638311509,0.011891499602,-0.999909343661,0.0,0.261874352558,-0.264002291371,0.304968856806,1.0,-0.0124309677419,-0.016337843318,3.072
-0.661490032404,-0.516783984022,-0.125229599211,-2.63849560876,-0.0672107358261,2.11126029899,-0.909517013128,-0.0559001332528,0.0165710446981,0.00120381133443,0.0120822522276,-0.000467046222474,0.00386489821764,-0.0574295934375,0.573701161718,0.819030167619,0.00610806633839,0.0,0.819028623184,-0.573610706157,-0.0119841181669,0.0,-0.00631182358754,0.0118782123703,-0.999909530385,0.0,0.261685444528,-0.264261272755,0.30496965087,1.0,-0.0121109677419,-0.0159172718894,3.088
-0.662386418293,-0.516612301147,-0.12521336471,-2.6383631435,-0.0671908685452,2.11129601775,-0.910405472378,-0.0539310733506,0.00913020658619,0.000325464759358,0.00303341794537,0.00507594815567,0.000831916936888,-0.0524560282372,0.573711517851,0.819022893569,0.00611072796488,0.0,0.819021391865,-0.57362106424,-0.0119825385054,0.0,-0.00630885254544,0.0118795659952,-0.999909533054,0.0,0.261485662159,-0.26452672772,0.304969948639,1.0,-0.0117709677419,-0.0154704147465,3.105
-0.6632748745,-0.516435860572,-0.12519373549,-2.63822356801,-0.0671774506404,2.11132752182,-0.911285623387,-0.0519109802939,0.0112271633337,0.00042607759394,0.00983010956205,-6.20126913285e-05,0.000559084060786,-0.0568401008003,0.57371737025,0.819018830689,0.00610581282135,0.0,0.819017263898,-0.573626933815,-0.0119837030929,0.0,-0.00631254134331,0.0118762533898,-0.999909549123,0.0,0.261288729709,-0.26479103912,0.304971428733,1.0,-0.0114309677419,-0.0150235576037,3.122
-0.66408738298,-0.516285701303,-0.125185215057,-2.63809769174,-0.067163409209,2.11135932787,-0.912138156166,-0.0468826367864,0.00970279081559,0.00121334900865,0.00710850544805,0.000130241196562,0.00306610559623,-0.061699532923,0.573691034435,0.819037266639,0.00610735352904,0.0,0.81903579128,-0.573600731479,-0.0119716477761,0.0,-0.00630216455621,0.0118703966687,-0.999909684124,0.0,0.261106787622,-0.265034654521,0.304976136893,1.0,-0.0111109677419,-0.0146029861751,3.138
-0.664950445526,-0.516113643014,-0.125170229151,-2.6379775103,-0.067145911672,2.11139051129,-0.912957332959,-0.0539282599532,0.0152976865511,4.60920901829e-05,0.00903844263929,0.000323960515042,0.00038198512602,-0.0468530819092,0.573730145378,0.819009847501,0.00611039133439,0.0,0.819008311284,-0.573639632539,-0.0119876990715,0.0,-0.00631300249352,0.011882394392,-0.999909473254,0.0,0.260911097418,-0.265287648984,0.304970271463,1.0,-0.0107709677419,-0.0141561290323,3.155
-0.665833899873,-0.515947728433,-0.125165576588,-2.6378645105,-0.0671290465838,2.11141796956,-0.913811974672,-0.047690035573,0.00958518027121,0.000788891205554,0.00413459836782,0.00264749477281,0.00530974438212,-0.0518909066518,0.573763621801,0.818986325786,0.0061197528119,0.0,0.818984776605,-0.573672808824,-0.0120079559881,0.0,-0.00632373772151,0.0119019418569,-0.999909172936,0.0,0.26070532991,-0.265545818057,0.304962840232,1.0,-0.0104109677419,-0.0136829861751,3.173
-0.666651253002,-0.515790840024,-0.125172686126,-2.63775430894,-0.0671115285346,2.11144634124,-0.914610382074,-0.0468554787419,0.00830975368387,-0.00180571108824,0.00818311852876,-0.00010969718136,0.000813282711557,-0.0489288702228,0.573797478209,0.818962494179,0.00613465811837,0.0,0.818961043836,-0.573706415552,-0.0120209955804,0.0,-0.00632537358631,0.0119218924991,-0.999908924917,0.0,0.26051403156,-0.265788641797,0.304957262344,1.0,-0.0100709677419,-0.0132361290323,3.19
-0.667372857889,-0.515641589462,-0.125161716394,-2.63764201165,-0.0670953132701,2.11147833065,-0.915344268029,-0.0467451109928,0.011177137612,0.00115112867633,0.00663794296004,0.000420000051929,0.000239396794858,-0.0468965999051,0.573792413633,0.818966020812,0.0061375658015,0.0,0.818964599595,-0.573701323202,-0.0120217830181,0.0,-0.00632442394458,0.0119246866004,-0.999908897606,0.0,0.26035309613,-0.266003832525,0.304956182527,1.0,-0.00975096774194,-0.0128155576037,3.206
-0.668114716279,-0.515487497099,-0.125142895874,-2.63752376317,-0.0670783286507,2.11150420464,-0.916062635713,-0.0403098388544,0.00779988464512,0.00395010323117,0.00509989381135,-0.000148006441577,0.00199308484179,-0.0450336463417,0.573811693767,0.818952515203,0.00613716866756,0.0,0.818951053051,-0.573720533534,-0.0120278430749,0.0,-0.00632933451559,0.0119279874009,-0.999908827164,0.0,0.260188699161,-0.266223022447,0.304955675504,1.0,-0.00941096774194,-0.0123687004608,3.223
-0.668820043834,-0.515324996705,-0.125103378727,-2.63740731445,-0.0670543661738,2.1115285338,-0.916731313975,-0.0404403266648,0.010194362346,0.00929942095081,0.0045168697333,0.0001480212513,0.000734876367396,-0.0334451591168,0.573829974985,0.818939738031,0.00613287725291,0.0,0.818938113293,-0.573738628397,-0.012045737095,0.0,-0.00634618638148,0.0119348817259,-0.999908638085,0.0,0.260038284213,-0.266426624538,0.304951599135,1.0,-0.00907096774194,-0.011921843318,3.24
-0.669461171335,-0.515199499419,-0.125061539775,-2.63731021467,-0.0670306418936,2.1115621803,-0.917381559616,-0.0382282569554,0.0108928955065,0.00153959397516,0.00378624253178,0.000248888254736,5.9916770915e-05,-0.0359080711308,0.573807942205,0.81895522075,0.00612688903503,0.0,0.818953579355,-0.573716741287,-0.0120367158966,0.0,-0.00634255462662,0.0119246304712,-0.999908783434,0.0,0.259903241137,-0.266609910572,0.304953238252,1.0,-0.00875096774194,-0.0115012718894,3.256
-0.670127252164,-0.515076408906,-0.125024084773,-2.63722609732,-0.0670071982799,2.11160729042,-0.918071818118,-0.0399687618029,0.00727872414812,0.00105339801515,0.000829107847204,-8.99194439169e-05,0.00469831530004,-0.0407444579719,0.573775949632,0.818977658738,0.0061238070356,0.0,0.8189760426,-0.573684891585,-0.0120263758658,0.0,-0.00633631956813,0.0119159259032,-0.999908926735,0.0,0.259759326785,-0.266798878874,0.304950738366,1.0,-0.00841096774194,-0.0110544147466,3.273
-0.67072455672,-0.514978850675,-0.124997299712,-2.63715176953,-0.0669862907943,2.11161537758,-0.918704534768,-0.034207932825,0.00209654429666,-0.000576926810345,0.00559613867857,0.00359450877766,0.000116886413767,-0.045950522249,0.573740712559,0.819002312056,0.00612817263273,0.0,0.819000675393,-0.573649497827,-0.0120372027123,0.0,-0.00634319582491,0.0119254403882,-0.999908769708,0.0,0.259623633571,-0.266965033632,0.304949805265,1.0,-0.00809096774194,-0.010633843318,3.289
-0.671377821022,-0.514853384692,-0.124973509341,-2.63707543401,-0.0669634284623,2.11163890815,-0.919341401594,-0.0366285133599,0.00460804270589,0.00234644387404,0.00156624531946,0.00446466707155,0.00229769590709,-0.0364270345331,0.573751081928,0.818994996652,0.00613500999693,0.0,0.818993308947,-0.573659572278,-0.0120582724903,0.0,-0.00635638000709,0.0119432089691,-0.999908473908,0.0,0.259474630588,-0.267148347249,0.304940721718,1.0,-0.00773096774194,-0.0101607004608,3.307
-0.671979663696,-0.514753643031,-0.124958642712,-2.63700637395,-0.0669392368454,2.11165105094,-0.919914479049,-0.0349908738975,0.00266097766651,-7.71654237671e-05,0.00243713401515,0.00753118279914,0.00445873329816,-0.0377848399976,0.573778042461,0.818976012707,0.0061478046172,0.0,0.818974393154,-0.573686286353,-0.0120720797351,0.0,-0.00635995497531,0.0119618191365,-0.999908228717,0.0,0.259334535376,-0.267316938154,0.30493665023,1.0,-0.00739096774194,-0.00971384331798,3.324
-0.672527565975,-0.514646229228,-0.124948609304,-2.6369313443,-0.0669184648758,2.11166854785,-0.920443513182,-0.0325470954798,0.00632279859002,-7.37657870562e-05,0.00743349559095,-0.000114214914566,0.000825343268715,-0.0331177031217,0.573799178106,0.818961125593,0.00615831740791,0.0,0.818959565628,-0.573707225965,-0.012082865703,0.0,-0.00636244859668,0.0119767819491,-0.999908033742,0.0,0.259209363187,-0.267475051297,0.304932794183,1.0,-0.00707096774194,-0.00929327188941,3.34
-0.673067454752,-0.514546092507,-0.124935823725,-2.63684571017,-0.0668972598018,2.11168581131,-0.920986443218,-0.0322847615721,0.0036282307008,0.000121444205,0.00717506123832,0.00478759868528,0.0011998496039,-0.0310099054737,0.57380104918,0.818959758278,0.00616580751785,0.0,0.818958331053,-0.573709130072,-0.0120761323787,0.0,-0.00635260869393,0.0119790674975,-0.999908068927,0.0,0.25908939833,-0.267633267937,0.304936484664,1.0,-0.00673096774194,-0.00884641474655,3.357
-0.673581587493,-0.514444957266,-0.124901899778,-2.63676171182,-0.0668726803513,2.11170208751,-0.921507397189,-0.0324924449131,0.003153081289,0.00163284831033,0.00322100374033,0.000698178508148,0.00112978660836,-0.0251592833966,0.573786582499,0.818969890246,0.00616632108428,0.0,0.818968482597,-0.573694688532,-0.0120737634695,0.0,-0.00635058535809,0.0119780167146,-0.999908094367,0.0,0.258973939256,-0.267786749956,0.304938915389,1.0,-0.00637096774194,-0.00837327188941,3.375
-0.674046325235,-0.514367103912,-0.124872452611,-2.63670617517,-0.0668480528679,2.11172517933,-0.921982020008,-0.0305958369322,0.00354403043132,0.00432847918079,0.00478212060454,0.00469378251161,0.0016080910084,-0.0234182369705,0.573770548091,0.818981094274,0.00617027280689,0.0,0.818979763823,-0.573678688811,-0.0120687760091,0.0,-0.0063444675197,0.0119782674104,-0.999908130201,0.0,0.258879452001,-0.267907392875,0.304938611903,1.0,-0.00607096774194,-0.00797898617512,3.39
-0.674527926412,-0.51428368795,-0.124849962911,-2.6366335767,-0.0668270071981,2.11175233569,-0.922451331502,-0.0237707978938,0.0103207843298,0.000125570973631,0.00144180315135,0.00482903117072,0.000140382143792,-0.025787716023,0.573777313776,0.818976342825,0.00617178992725,0.0,0.818975155708,-0.573685679977,-0.0120491419824,0.0,-0.00632741655618,0.0119682973634,-0.99990835763,0.0,0.25877600299,-0.268046618469,0.304943622589,1.0,-0.00571096774194,-0.00750584331798,3.408
-0.674945027741,-0.514196909747,-0.124820122366,-2.6365729712,-0.0668047737418,2.11177256171,-0.922860471008,-0.0240862765297,0.00402600127647,0.000572139188774,0.00505867431893,0.000377382914184,7.85999041497e-05,-0.0218019482312,0.57377528576,0.818977753163,0.00617318202417,0.0,0.818976564483,-0.573683609107,-0.0120519861891,0.0,-0.00632897707945,0.0119710537056,-0.999908314758,0.0,0.258687713131,-0.268163222716,0.304941523295,1.0,-0.00537096774194,-0.00705898617512,3.425
-0.675317842961,-0.514130219905,-0.12480557707,-2.636521429,-0.0667879201377,2.11179079906,-0.923245762623,-0.0222689257235,0.00460629311982,0.000546331381656,0.00157319245013,0.000258372753681,0.000276337525785,-0.0207959975926,0.573764587544,0.818985213347,0.00617780706699,0.0,0.818984117046,-0.573672953958,-0.0120459464164,0.0,-0.00632153287577,0.0119712938277,-0.999908358974,0.0,0.258605424083,-0.268269845112,0.304942196773,1.0,-0.00505096774194,-0.00663841474655,3.441
-0.675711872119,-0.514059087738,-0.124781813632,-2.63646711979,-0.0667698576466,2.11180350048,-0.923614873692,-0.0219063875255,0.00161979358683,0.00471744137405,0.00965737224202,0.00266318520907,-0.000285627109916,-0.0182121656897,0.573778626798,0.818975366262,0.00617930322772,0.0,0.818974280547,-0.573686966883,-0.012047353777,0.0,-0.00632162195666,0.0119734350476,-0.999908332773,0.0,0.25851925007,-0.268379680923,0.304942228635,1.0,-0.00471096774194,-0.00619155760369,3.458
-0.676090143894,-0.514007957701,-0.124751616942,-2.63642581723,-0.0667558266249,2.11181565516,-0.923972159486,-0.0286264769576,0.000744287577067,0.000123678553571,0.00726166741198,-0.000262240522513,4.30855509833e-05,-0.0189421734284,0.573782455736,0.818972715159,0.00617512889099,0.0,0.818971608224,-0.573690875841,-0.012042873424,0.0,-0.00632029132968,0.0119674751372,-0.999908412534,0.0,0.258435786743,-0.268481295073,0.304943845527,1.0,-0.00437096774194,-0.00574470046084,3.475
-0.676444374093,-0.513940895399,-0.124727179436,-2.63637195065,-0.0667371291139,2.11182599356,-0.924311498592,-0.0196293424697,0.000806730546469,0.000573295239136,0.00217651307627,0.00012273039238,0.000378786163913,-0.0204291542011,0.573788034243,0.81896879555,0.00617661535871,0.0,0.818967705408,-0.573696441874,-0.0120431300138,0.0,-0.00631956709915,0.0119688828423,-0.999908400262,0.0,0.258360050456,-0.268580201608,0.304944992196,1.0,-0.00403096774194,-0.00529784331798,3.492
-0.676760465003,-0.51388929793,-0.124713226874,-2.6363386326,-0.0667229997546,2.11183651847,-0.924625354298,-0.0230864133187,0.00449244058903,0.00234215477202,-0.00029451076381,0.00375424153282,0.00201233210128,-0.0218002003376,0.57378773908,0.818968964664,0.00618160976029,0.0,0.8189679015,-0.573696053037,-0.0120483170246,0.0,-0.00632095429663,0.0119759471326,-0.99990830691,0.0,0.258287521319,-0.268666834864,0.30494228764,1.0,-0.00369096774194,-0.00485098617512,3.509
-0.677043522443,-0.513829412959,-0.124697989104,-2.63629777389,-0.0667145654581,2.11185211924,-0.92491264584,-0.0152208408117,0.000795971027338,0.00327323444347,0.00391145836656,0.000328813890893,-7.79374710559e-05,-0.0122620846686,0.573779178436,0.818974979108,0.00617939229522,0.0,0.818973876524,-0.573687483872,-0.0120502000405,0.0,-0.00632389406325,0.0119751453005,-0.999908297925,0.0,0.258225891948,-0.268747774958,0.304940403521,1.0,-0.00335096774194,-0.00440412903227,3.526
-0.67729433763,-0.51378522867,-0.124674990936,-2.63627416455,-0.0666983002154,2.11186061381,-0.925148093837,-0.015579156923,0.00490542249165,0.00286817610377,0.00243284953527,0.000686151293071,-0.000130516429686,-0.00934308530852,0.57378363731,0.818971833288,0.00618229215072,0.0,0.818970703476,-0.573691806122,-0.0120600720247,0.0,-0.00633025082271,0.0119832188584,-0.999908160978,0.0,0.258170774247,-0.268812659106,0.304936067847,1.0,-0.00303096774194,-0.00398355760369,3.542
-0.677541227341,-0.513756500737,-0.124653573419,-2.63624693309,-0.0666871370401,2.11187725129,-0.925383709976,-0.0116958017803,-0.000142303906527,0.000533383225407,0.00330777503828,0.00147858159891,0.000739930891453,-0.013440650378,0.5737837718,0.818971764771,0.00617888566267,0.0,0.818970699361,-0.573692161362,-0.0120434414162,0.0,-0.00631858185219,0.0119708880304,-0.999908382485,0.0,0.258118272184,-0.26887976206,0.304939744683,1.0,-0.00269096774194,-0.00353670046084,3.559
-0.677765374799,-0.513722256931,-0.124626723815,-2.63623187501,-0.0666739823937,2.11188692252,-0.925599464646,-0.0113727768843,0.00147943159143,0.00262077885859,0.000220589034634,0.00357116565008,0.00058304657448,-0.0140897923866,0.573778009677,0.818975810655,0.00617770786695,0.0,0.818974681158,-0.573686313254,-0.0120512450791,0.0,-0.00632573354746,0.0119743562897,-0.999908295738,0.0,0.258069367965,-0.268935322307,0.304935387247,1.0,-0.00235096774194,-0.00308984331798,3.576
