nelsonifechukwu/NELSON_IML_WORK/CNN-GradCAM/train2dof/data_sample_2022-02-21-17-25-44/robot_state.csv
position_joint1,position_joint2,position_joint3,position_joint4,position_joint5,position_joint6,position_joint7,velocity_joint1,velocity_joint2,velocity_joint3,velocity_joint4,velocity_joint5,velocity_joint6,velocity_joint7,ee_T_00,ee_T_10,ee_T_20,ee_T_30,ee_T_01,ee_T_11,ee_T_21,ee_T_31,ee_T_02,ee_T_12,ee_T_22,ee_T_32,ee_T_03,ee_T_13,ee_T_23,ee_T_33,v_x,v_y,time
0.465061638011,0.547869384627,-0.124005700398,-1.35586226674,0.0794661593026,1.89409953762,0.159162842147,0.000923998526854,0.00263020249402,-0.000707265266299,-0.000274547496347,-7.87251519129e-05,0.00216412153841,-0.000597404867376,0.573823380159,0.818965303068,0.001818696122,0.0,0.818920809652,-0.573765707864,-0.01193176009,0.0,-0.00872836009842,0.00833625150551,-0.999927158667,0.0,0.661676799041,0.260862347168,0.303138389856,1.0,0.0,0.0,0.0
0.465057794236,0.54786586427,-0.124000951788,-1.35586055625,0.0794667404508,1.89409860883,0.159162568194,-0.00103352455453,0.000974810674217,0.0010490673723,0.000629764456494,0.000166406407764,-2.54273371086e-05,-0.00072320071683,0.573823034563,0.818965533535,0.00182394835947,0.0,0.818921079248,-0.573765312014,-0.0119322920972,0.0,-0.00872578566254,0.00834085440684,-0.999927142752,0.0,0.661676979647,0.260862833521,0.30314146084,1.0,-0.00026,-0.000341714285714,0.014
0.465059787884,0.547850721284,-0.124003070801,-1.3558639599,0.0794685478025,1.89409746687,0.159156606087,0.00019154922349,-0.00476638819255,0.000607449922475,0.000246735571439,0.000223452540817,-0.000192879198684,-0.00118650838378,0.57381863138,0.818968596029,0.00183409404385,0.0,0.818924262642,-0.573760855561,-0.0119281005462,0.0,-0.00871657621091,0.00834671114291,-0.999927174204,0.0,0.66167623994,0.260862939405,0.303150542545,1.0,-0.00058,-0.000762285714286,0.03
0.465057377539,0.547824144868,-0.124003091977,-1.35589338974,0.079466779538,1.8941022257,0.159164381886,-0.000632294277041,-0.0044987066734,0.000327950973589,-0.0061519213031,-1.9785399327e-05,-0.000143994027609,0.00137317751569,0.573828112453,0.818961948582,0.0018360378975,0.0,0.818917633502,-0.57377032053,-0.0119279385923,0.0,-0.00871523157435,0.00834831102875,-0.999927172569,0.0,0.661671878665,0.260858225326,0.303155773562,1.0,-0.00094,-0.00123542857143,0.048
0.46506199056,0.547702475996,-0.124004102133,-1.35603351374,0.0794639337887,1.89413228551,0.15915460905,0.000807943888484,-0.00602981807113,-0.00130009742148,-0.00695752769502,9.85181711209e-05,0.00304785033469,-0.000437752479945,0.573823927858,0.818964848261,0.00185041379401,0.0,0.818920644409,-0.573766002695,-0.0119289233759,0.0,-0.00870783204927,0.00836060469083,-0.99992713432,0.0,0.661648157401,0.260847241902,0.303177911729,1.0,-0.00134,-0.00176114285714,0.068
0.465056281706,0.547592144897,-0.123996694166,-1.3561886019,0.0794645881095,1.89415328645,0.159150890355,-0.000921899290004,-0.00698320248827,0.00127772583361,-0.0142105041706,3.70065665695e-05,-0.000764620726715,0.00232994775729,0.573828968152,0.81896134216,0.00183909159526,0.0,0.818916811307,-0.573770918365,-0.0119555969186,0.0,-0.00873612262261,0.00836669195306,-0.999926836637,0.0,0.661619451134,0.260832319503,0.30318383501,1.0,-0.0016,-0.00210285714286,0.081
0.465040768558,0.547429099799,-0.124006741269,-1.35639962533,0.0794618304317,1.89425408885,0.159150059854,-0.000400093055803,-0.00792934523383,-0.00171449465067,-0.0143078249974,0.000653519402578,0.00232253226408,0.000137354362457,0.5738592168,0.818940038812,0.00188653784558,0.0,0.818896118407,-0.573800954673,-0.011931411318,0.0,-0.008688780517,0.00839199044508,-0.999927037133,0.0,0.661601991128,0.260799743254,0.303207973767,1.0,-0.00194,-0.00254971428571,0.098
0.465027138144,0.54723796354,-0.123998839779,-1.35661495381,0.0794596644449,1.89437741949,0.159143578502,0.000947662415077,-0.0108824799898,0.00176552657765,-0.0128592369388,0.000211078355784,0.00293363950696,0.00435170214332,0.573871248614,0.818931391181,0.001978245045,0.0,0.818888586281,-0.573812526518,-0.0118917858589,0.0,-0.00860358059531,0.00844447886971,-0.999927331948,0.0,0.661584132122,0.260780293224,0.303251318055,1.0,-0.00228,-0.00299657142857,0.115
0.464995303138,0.547033786501,-0.123998810479,-1.35687432462,0.0794564666219,1.89451267346,0.159123587794,-0.00245364912314,-0.0201578928634,0.000306535976009,-0.0217108968304,0.000664130330294,0.00144480581817,-0.0018611045566,0.573894807192,0.81891469917,0.00205247700527,0.0,0.818872801975,-0.573835722021,-0.0118593937541,0.0,-0.00853421155424,0.00848692548784,-0.999927567041,0.0,0.661565492381,0.260739823494,0.303284224277,1.0,-0.0026,-0.00341714285714,0.131
0.464955848735,0.546787268186,-0.123998048298,-1.35724413539,0.0794464098632,1.89464135669,0.159099390327,-0.000768762059237,-0.0217589287075,0.000382566594584,-0.0216648402265,-7.13227321868e-05,0.00603164039783,0.000605983585418,0.573924727912,0.818893700531,0.00206417608809,0.0,0.818851830626,-0.573865467463,-0.0118680931882,0.0,-0.00853431168534,0.00850181020852,-0.999927439741,0.0,0.661523499768,0.260680612405,0.303293935099,1.0,-0.00296,-0.00389028571429,0.149
0.464912280889,0.546526102574,-0.124001345418,-1.35763044357,0.0794350100239,1.89478763188,0.15897739987,-0.00485449097982,-0.0203232362784,0.00071425679736,-0.0270370582382,-0.00115905231395,0.00440398830397,-0.00964631076282,0.573861283664,0.818938074469,0.00209861805567,0.0,0.818896539954,-0.573801779612,-0.0118626079615,0.0,-0.00851071440472,0.00852620665275,-0.999927433137,0.0,0.661479785125,0.260619019068,0.30331146332,1.0,-0.0033,-0.00433714285714,0.166
0.464868316854,0.546244688857,-0.12400516186,-1.35810689764,0.0794182990036,1.89495211677,0.158906064318,-0.0051998596379,-0.0200505259494,-0.000524116019172,-0.0291683221295,-0.000193433714782,0.00802357223371,0.00095187592833,0.573883841621,0.81892234406,0.00206824258562,0.0,0.818880320837,-0.573824364281,-0.0118897436692,0.0,-0.00855013338557,0.00851713890618,-0.99992717413,0.0,0.661427801485,0.260539849516,0.303294696496,1.0,-0.00362,-0.00475771428571,0.182
0.464809692168,0.545918149046,-0.124002031444,-1.3586538741,0.0793814805592,1.89513535282,0.15888954156,-0.00117065085487,-0.0216748586386,0.00112103166161,-0.031645611398,0.000132807931958,0.0137222340296,0.000940138366255,0.573936843629,0.818885283446,0.00203444875082,0.0,0.818842811911,-0.573877489604,-0.0119089549518,0.0,-0.00858470889164,0.00850104542322,-0.999927014837,0.0,0.661363973198,0.260448718336,0.303281309543,1.0,-0.00396,-0.00520457142857,0.199
0.464741155126,0.545570296513,-0.12400297583,-1.35926938936,0.0792823677309,1.89534769075,0.158812697168,-0.00457703362296,-0.0257133192599,0.00136416914431,-0.0396452630654,-0.00511715114892,0.014672167352,-0.00315573136341,0.573938723942,0.818884166493,0.0019519035679,0.0,0.818841161231,-0.573880241726,-0.0118898163147,0.0,-0.00861638932346,0.0084224871467,-0.999927407138,0.0,0.661297708234,0.260332705822,0.303252915563,1.0,-0.0043,-0.00565142857143,0.216
0.464683989504,0.54520857324,-0.124015517176,-1.35992395453,0.079270029588,1.89554981782,0.158691316621,-0.00925772246491,-0.0224195006758,-0.00166642066515,-0.0428297000074,0.000169191956032,0.0150328083407,-0.00902231172879,0.573928001716,0.818891834123,0.00188673110202,0.0,0.818847728753,-0.573869549297,-0.0119534265997,0.0,-0.00870599352243,0.00840551355184,-0.999926773828,0.0,0.661215560393,0.260226403226,0.303215387733,1.0,-0.00462,-0.006072,0.232
0.464619743293,0.544768318604,-0.124010918076,-1.36063088553,0.079249691594,1.89579270464,0.15864260038,-0.00390638055252,-0.0247443079484,0.000767397425706,-0.0407548469108,-0.000537169129509,0.0189117450086,0.000137282248039,0.573971428136,0.818861413155,0.00187952932336,0.0,0.818816955511,-0.573912751837,-0.0119872243222,0.0,-0.00873735782338,0.00841947684298,-0.999926382784,0.0,0.6611298663,0.26012164875,0.303211443859,1.0,-0.00496,-0.00651885714286,0.249
0.464560705851,0.544310878659,-0.124011716091,-1.36138657984,0.0792160555825,1.89607567832,0.158539839543,-0.00181556073383,-0.0324698928176,0.00156168057662,-0.0447976453088,-0.00242014035667,0.022323657167,-0.00626321342252,0.573969439599,0.818862824772,0.00187176775606,0.0,0.818818153974,-0.573910689138,-0.0120041041944,0.0,-0.00875565572021,0.00842278854081,-0.999926194839,0.0,0.66104194029,0.260012220916,0.303200046968,1.0,-0.0053,-0.00696571428571,0.266
0.464489569273,0.543801986249,-0.124017617545,-1.36221200675,0.0791810497514,1.89635893239,0.158439168152,-0.00549926398536,-0.0330979726771,-0.000837899268157,-0.042465386127,5.130008566e-05,0.018642128165,0.000851668246952,0.573985934611,0.818851311846,0.00185009658902,0.0,0.818806211566,-0.573927135165,-0.0120323864542,0.0,-0.00879108405313,0.00842145330266,-0.999925895237,0.0,0.660943662397,0.25988403779,0.303192009608,1.0,-0.00564,-0.00741257142857,0.283
0.464418012611,0.54326381328,-0.12402511062,-1.36306555489,0.0791276675408,1.89665634824,0.158316889794,-0.00949738421654,-0.0323403578224,-0.000944316811333,-0.048513575947,7.92919894478e-05,0.0181433584419,-0.00156364076036,0.57398282345,0.818853532766,0.00183225607563,0.0,0.818808219682,-0.573924121445,-0.0120394811607,0.0,-0.0088071652879,0.00841088366038,-0.999925842688,0.0,0.66084388712,0.259749697258,0.303192490537,1.0,-0.00598,-0.00785942857143,0.3
0.464343399929,0.542663329489,-0.124015868027,-1.36401887214,0.0790739907812,1.89699597869,0.158217383408,-0.00287182966396,-0.0351639327248,0.00877225746383,-0.0531780200774,-0.00493764430562,0.0171056787334,-0.00155388313391,0.573994592967,0.81884529887,0.00182501075441,0.0,0.818799780168,-0.57393581533,-0.0120559851729,0.0,-0.00882471764991,0.00841455071282,-0.999925657084,0.0,0.66072802242,0.259614835012,0.30319260884,1.0,-0.00634,-0.00833257142857,0.318
0.464277411321,0.542097681782,-0.124025423254,-1.36488582497,0.079023495504,1.89732020518,0.158083660139,-3.61012772164e-05,-0.0276922986353,-0.000652634232197,-0.0529728744879,-0.00283280551767,0.018490110455,-0.00648556751436,0.573980530634,0.81885511521,0.00184327099219,0.0,0.818809862141,-0.573921700672,-0.0120431748241,0.0,-0.00880389158761,0.00842199849261,-0.999925777963,0.0,0.660629833163,0.259484051098,0.303208398915,1.0,-0.00666,-0.00875314285714,0.334
0.464184145365,0.541455375992,-0.124018350846,-1.36586400583,0.0789674417006,1.89768542315,0.157950262431,-0.00679094943572,-0.0323668838711,0.0013463708667,-0.0627744500605,-0.000182303557768,0.0187390256866,-0.00710883623758,0.5739820377,0.818853994422,0.00187166172439,0.0,0.818809043941,-0.573923018526,-0.0120359988572,0.0,-0.00878170506961,0.00844114321511,-0.999925811627,0.0,0.66051961384,0.259334579517,0.303228378506,1.0,-0.007,-0.0092,0.351
0.464099181359,0.540767189948,-0.124021266013,-1.36692492867,0.0789005330563,1.89807556006,0.157816974803,-0.00579004235359,-0.037815289165,0.000782932566349,-0.060133475437,-0.00492452524205,0.0180620296353,-0.00627726140477,0.57398542226,0.818851593483,0.00188408705327,0.0,0.818806833307,-0.573926375815,-0.0120262951209,0.0,-0.00876659245329,0.00844578404445,-0.999925905049,0.0,0.660397029877,0.259175526517,0.303243790763,1.0,-0.00734,-0.00964685714286,0.368
0.464008728562,0.540126576731,-0.124021172678,-1.36789986195,0.0788479214051,1.89844105854,0.157705673417,-0.00587238028255,-0.0472745955914,0.000930869144552,-0.0664367299985,-0.00537140095695,0.0249086146515,-0.00184617783471,0.574008222112,0.818835542159,0.00191382994177,0.0,0.818791112236,-0.573948988523,-0.0120174871901,0.0,-0.00874207319143,0.00846532638668,-0.999925954461,0.0,0.660287897762,0.259024825748,0.303264188526,1.0,-0.00764,-0.0100411428571,0.383
0.463900172543,0.539345459156,-0.124029604211,-1.36911218751,0.0787762336716,1.89890529785,0.157550830598,-0.0109884158912,-0.0469208383657,-0.000208771421654,-0.0702771404299,-0.00372340141258,0.032095545066,-0.00741885155294,0.57402422313,0.81882426415,0.00193974232122,0.0,0.818780211828,-0.573964914864,-0.0119995051934,0.0,-0.00871230971289,0.0084763924721,-0.999926120486,0.0,0.660154781343,0.258834516218,0.303279605991,1.0,-0.008,-0.0105142857143,0.401
0.463794206912,0.538628316526,-0.124029986298,-1.37022954967,0.0787139018925,1.89934030739,0.157415709294,-0.00145932073985,-0.0456367301899,0.000357602642264,-0.0759990419251,-0.00717690707301,0.0312376203056,-0.0112621620346,0.574047816877,0.818807652591,0.00196949187987,0.0,0.818763952895,-0.573988344608,-0.0119881856387,0.0,-0.00868571998486,0.00849450429652,-0.999926198109,0.0,0.660024062402,0.258649308794,0.303290744313,1.0,-0.00834,-0.0109611428571,0.418
0.463682518073,0.537856761206,-0.124039237305,-1.37145306883,0.0786363757639,1.89980925288,0.157264629958,-0.00791742560718,-0.0426059474327,0.00136339967718,-0.0739330979045,-0.00430277263807,0.0232172413823,-0.00709129957762,0.574066919228,0.818794236129,0.00197940150896,0.0,0.818750765069,-0.574007500039,-0.01197169575,0.0,-0.00866633101883,0.00849335452039,-0.999926376108,0.0,0.659898636476,0.258465651551,0.303295616293,1.0,-0.00866,-0.0113817142857,0.434
0.463559043732,0.536973508681,-0.124045663066,-1.3728297939,0.07856959242,1.90032537967,0.157097385079,-0.0104303853526,-0.0446384029962,0.000723871988043,-0.0776421784823,-0.00133728741728,0.0306248104605,-0.00898450234398,0.574093605134,0.818775462544,0.00200533826005,0.0,0.81873220816,-0.574033954205,-0.0119723699836,0.0,-0.00865171709246,0.00851526001276,-0.999926316354,0.0,0.659742789632,0.258252837873,0.30330895204,1.0,-0.00902,-0.0118548571429,0.452
0.463444165941,0.536128380843,-0.12405456428,-1.37415875058,0.0784847878687,1.90081971148,0.156932850911,-0.00887036784022,-0.0477288268419,0.000250285356308,-0.0782279860444,-0.00297208057179,0.0292101343687,-0.0125233522699,0.574109579353,0.818764253261,0.00200882511671,0.0,0.818721118386,-0.574049984731,-0.0119621169233,0.0,-0.00864115407153,0.0085123973512,-0.999926432068,0.0,0.659591689236,0.2580450596,0.303316097199,1.0,-0.00936,-0.0123017142857,0.469
0.463343731891,0.535337760746,-0.124063458501,-1.37541449511,0.0784112047558,1.90126164668,0.156783852321,-0.00878616891425,-0.054210924202,0.000281712667164,-0.0864005438836,-0.00718577793859,0.0234469426875,-0.0130945507222,0.574125162702,0.818753376441,0.00198822049095,0.0,0.818709948343,-0.574065628482,-0.0119758749708,0.0,-0.00866408583297,0.00850359078202,-0.999926308565,0.0,0.659441044329,0.257853064061,0.30331493839,1.0,-0.00966,-0.012696,0.484
0.463221531316,0.534446839166,-0.124066284456,-1.3768773926,0.0783370138945,1.90179648548,0.156602873585,-0.0107062732315,-0.0499231571501,-0.00329736740168,-0.0936354532386,-0.00771630391768,0.021058947616,-0.0126792853025,0.574139390628,0.818743462103,0.00196221634591,0.0,0.818699545913,-0.574079819058,-0.0120067386491,0.0,-0.00870413754695,0.00850017089745,-0.999925989803,0.0,0.659267377155,0.257633172144,0.303293691153,1.0,-0.01,-0.0131428571429,0.501
0.463091228386,0.53345593515,-0.1240702818,-1.3784299216,0.0782365838498,1.90237695639,0.156407161084,-0.00715881774198,-0.0547979260172,-0.000260543261606,-0.0800512097467,-0.00195790880266,0.0292467891181,-0.013591257877,0.574146683064,0.81873832285,0.00197279589913,0.0,0.818694613664,-0.574087133035,-0.011993337438,0.0,-0.00868701548952,0.00850121596011,-0.999926129816,0.0,0.659088022213,0.257396819331,0.303304049246,1.0,-0.01036,-0.013616,0.519
0.462990298015,0.532617402062,-0.124068040538,-1.37977716805,0.0781791163516,1.90289405554,0.156242660962,-0.0112003847358,-0.062264416621,9.78109962446e-05,-0.08960580758,-0.00910169797081,0.0285905592236,-0.0128207676953,0.574151466124,0.818734922769,0.0019917547671,0.0,0.818691236433,-0.574091615002,-0.0120093244374,0.0,-0.00868917089826,0.00852596755711,-0.999925900348,0.0,0.658928082493,0.257208456544,0.30329885153,1.0,-0.01066,-0.0140102857143,0.534
0.462831701719,0.531469451093,-0.124060242285,-1.38164648534,0.0780537783468,1.90357119557,0.15599783138,-0.00957711547261,-0.0630878591055,0.000900434128246,-0.094958182739,-0.00992910325925,0.0372911932464,-0.0139960920405,0.574143547695,0.818740580972,0.00194797599396,0.0,0.818696342192,-0.574083903228,-0.0120298893079,0.0,-0.00873122500209,0.00850184783345,-0.999925739389,0.0,0.658703389536,0.256927360329,0.303276712319,1.0,-0.01106,-0.014536,0.554
0.462716943441,0.530574984636,-0.124068041537,-1.38309111332,0.0779640177226,1.90407062205,0.155812927572,-0.0125995403227,-0.0574754292329,0.00501968419021,-0.0945145261789,-0.0136068736582,0.0367116578658,-0.0170548044806,0.574145883711,0.818739051278,0.00190184932988,0.0,0.818694194942,-0.574086423706,-0.0120557117331,0.0,-0.00877882512621,0.00847893351854,-0.999925517184,0.0,0.658525508609,0.25670688933,0.303262945032,1.0,-0.01136,-0.0149302857143,0.569
0.462575948736,0.529530859887,-0.124065268208,-1.38473751618,0.0778676513003,1.90467966754,0.155587572183,-0.0127655142936,-0.0596618446053,0.000278522999411,-0.0966004349764,-0.0106257349554,0.0430016395751,-0.020766235483,0.574138375174,0.81874429874,0.00190953753996,0.0,0.818699472326,-0.574078814506,-0.0120596703964,0.0,-0.00877773033301,0.00848742035199,-0.999925454794,0.0,0.658330596693,0.256459678451,0.303267528678,1.0,-0.0117,-0.0153771428571,0.586
0.462434605707,0.528430919425,-0.124066230319,-1.38643947543,0.0777577110095,1.90532689579,0.155351763629,-0.00481540687441,-0.0582650328095,0.00052036225812,-0.10429727481,-0.00324871306985,0.0391036469443,-0.0195146085519,0.574124435529,0.81875399428,0.00194326538483,0.0,0.818709677702,-0.574064797851,-0.0120340519054,0.0,-0.00873753603927,0.00850017708898,-0.999925698466,0.0,0.658132992116,0.256204632763,0.303288122681,1.0,-0.01204,-0.015824,0.603
0.462284442071,0.527236939376,-0.124068689013,-1.38829367888,0.0776424086381,1.90603675322,0.155096623197,-0.0119153278803,-0.070128098255,0.000189048546061,-0.103873522176,-0.00446861118423,0.0423650046453,-0.0120721695123,0.574109579178,0.818764318402,0.00198214756143,0.0,0.818720555993,-0.57404982248,-0.0120083057324,0.0,-0.00869428819436,0.00851707228425,-0.999925931673,0.0,0.657917065405,0.255929480267,0.303307653782,1.0,-0.0124,-0.0162971428571,0.621
0.462144398994,0.526204799013,-0.124071287472,-1.38988274676,0.0775441817363,1.90662962717,0.154893387867,-0.0113423742641,-0.0715921849716,0.00052707792507,-0.107173588729,-0.00509677377919,0.0376248037976,-0.00997221242069,0.574118952733,0.818757675741,0.00201082767335,0.0,0.818714304708,-0.574059090222,-0.011991459509,0.0,-0.00866393241911,0.00853098180336,-0.99992607658,0.0,0.657731664509,0.255685118315,0.3033290562,1.0,-0.0127,-0.0166914285714,0.636
0.461993404282,0.525023646843,-0.124082628835,-1.39173247815,0.0774352208544,1.90728324323,0.154642348265,-0.00951180574389,-0.0658670279178,-0.000870459900429,-0.109987099945,-0.00687717639228,0.0355746040118,-0.0068531132884,0.57411509731,0.818760410381,0.0019980826863,0.0,0.818716825427,-0.574055242337,-0.0120035581869,0.0,-0.00868119552636,0.00852745207029,-0.999925956962,0.0,0.657505984539,0.255401914622,0.303336517352,1.0,-0.01304,-0.0171382857143,0.653
0.461832666796,0.523837074462,-0.124084020709,-1.39362857514,0.0772956660341,1.90797296879,0.154367553204,-0.0106148969137,-0.0774750103228,0.00100673477756,-0.110796142692,-0.0162704064956,0.0431086100472,-0.0121268764948,0.57408673227,0.818780374488,0.00196699933513,0.0,0.818736560621,-0.574027185901,-0.0119992103759,0.0,-0.00869577429272,0.00849920538095,-0.999926070776,0.0,0.65727804474,0.255110228955,0.303328189068,1.0,-0.01338,-0.0175851428571,0.67
0.461694010132,0.522690994739,-0.124092546727,-1.39545027638,0.0772003407179,1.90866940342,0.154128137413,-0.00739970064523,-0.0728586360773,-0.000123367804026,-0.112761346015,-0.0102908962487,0.0454899645144,-0.0164534040035,0.574082461719,0.818783315171,0.00198918215165,0.0,0.818739693595,-0.574022726609,-0.0119987653746,0.0,-0.00868272029819,0.0085170671291,-0.999926032232,0.0,0.657060869581,0.25484476601,0.303327382449,1.0,-0.0137,-0.0180057142857,0.686
0.461525377585,0.521459216234,-0.124093686919,-1.39743456579,0.0770713247872,1.90945257031,0.153856375909,-0.0087191039367,-0.0733859523039,0.000346933662985,-0.120651228445,-0.00729613981029,0.0487822514804,-0.0131331121166,0.574070437014,0.81879170307,0.00200679632526,0.0,0.818748426655,-0.574010742447,-0.011976155748,0.0,-0.00865422093307,0.00851838230316,-0.999926268093,0.0,0.656832139248,0.254546219497,0.303316357061,1.0,-0.01404,-0.0184525714286,0.703
0.461357831053,0.52016186017,-0.12409930532,-1.39946216055,0.0769467712733,1.91017925605,0.153580111376,-0.00931125494198,-0.0794376417418,-0.000445815315863,-0.122974214543,-0.0156432591064,0.0447934930403,-0.01842591708,0.574059709592,0.818799234904,0.0020024098559,0.0,0.818755872086,-0.574000006094,-0.0119817290398,0.0,-0.00866141406017,0.00851787671635,-0.999926210119,0.0,0.656583430119,0.254238488551,0.303325638342,1.0,-0.01438,-0.0188994285714,0.72
0.461193552569,0.518906618286,-0.124097200242,-1.40142744126,0.0768207795557,1.91088331271,0.153326704119,-0.0119347241553,-0.0827085421472,0.00164041604057,-0.126535132776,-0.0103464665922,0.0455526900256,-0.00990414153469,0.574055507259,0.818802199935,0.00199470997558,0.0,0.818758718499,-0.573995818888,-0.0119878139081,0.0,-0.00867086015542,0.00851502071787,-0.999926152576,0.0,0.656340614123,0.253942538638,0.303332422095,1.0,-0.0147,-0.01932,0.736
0.461016576306,0.517557843575,-0.12410782265,-1.4035374495,0.0766841039461,1.91164261292,0.153033206029,-0.0111768082253,-0.0757305571158,-0.00310344424604,-0.128120470661,-0.0168260571358,0.0500818776723,-0.0195765640281,0.574042409843,0.818811401917,0.00198662891406,0.0,0.81876787312,-0.573982814204,-0.0119852344626,0.0,-0.00867352276991,0.00850678458604,-0.999926199586,0.0,0.656083030805,0.253616960511,0.303340780689,1.0,-0.01504,-0.0197668571429,0.753
0.460834867443,0.516209370313,-0.124117709307,-1.40569109963,0.0765459184057,1.91245106711,0.152734769081,-0.0108806723413,-0.0786559028458,-0.00103280603797,-0.128304002658,-0.0152091639191,0.0467619794625,-0.0133128115279,0.574030485673,0.818819773635,0.00198159602355,0.0,0.818776264886,-0.573970996777,-0.011977888764,0.0,-0.00867052045589,0.00849832071421,-0.999926297594,0.0,0.655825245196,0.253286632832,0.303332023296,1.0,-0.01538,-0.0202137142857,0.77
0.460647777395,0.514824139523,-0.124119143212,-1.40789880094,0.0764097154075,1.91326546096,0.152446288806,-0.00771232868018,-0.0869872846728,0.00128464192693,-0.131625757768,-0.00450465478288,0.0415851467425,-0.0115146280734,0.574028093572,0.818821472938,0.00197234553762,0.0,0.818777818908,-0.573968619932,-0.011985553789,0.0,-0.00868213151916,0.00849512092672,-0.999926224035,0.0,0.65555530007,0.252952565278,0.303323146537,1.0,-0.01572,-0.0206605714286,0.787
0.460464718725,0.51342614268,-0.124116190997,-1.41015931823,0.0762783895921,1.91404963379,0.152124214595,-0.0106294691157,-0.0850540999857,0.00452665712355,-0.135782977145,-0.00678113943106,0.0457131287887,-0.0192759566775,0.573995270876,0.818844627867,0.00191084448956,0.0,0.818799968115,-0.573935867076,-0.0120407474854,0.0,-0.00876296791928,0.00847609471266,-0.999925680344,0.0,0.655263945647,0.252616443946,0.303294922025,1.0,-0.01606,-0.0211074285714,0.804
0.460221531562,0.511671424432,-0.124126999276,-1.41299134539,0.0761017486831,1.91508733369,0.151729404346,-0.0135053597077,-0.0796037843349,-0.00637905698282,-0.136827942678,-0.00279443479833,0.0567447105802,-0.0198657352518,0.573979412408,0.818855835871,0.00187112066486,0.0,0.818810665827,-0.573920191736,-0.0120604289733,0.0,-0.00880204818388,0.008454694272,-0.999925518273,0.0,0.654916264287,0.25217969199,0.303266473661,1.0,-0.01648,-0.0216594285714,0.825
0.460078472501,0.510630188745,-0.12412745595,-1.41462872184,0.0759979402827,1.91571635788,0.151492973134,-0.0132654248655,-0.0868375973838,-0.00162869923295,-0.138927605936,-0.00610976713902,0.0617790113617,-0.0161641497191,0.573960857831,0.818868785128,0.00189560600474,0.0,0.818823972974,-0.573901569407,-0.0120431232024,0.0,-0.00877401533179,0.00846461193421,-0.999925680738,0.0,0.654720537675,0.251931021934,0.303270711051,1.0,-0.01672,-0.0219748571429,0.837
0.459836044779,0.508859662518,-0.124130886048,-1.41741122571,0.0758218775812,1.91672725374,0.151103265246,-0.00914860273693,-0.0963536648916,-0.000462137497627,-0.140008642559,-0.0113827624111,0.0487087952618,-0.0182281357792,0.573944276785,0.818880404832,0.00189647815371,0.0,0.818835584386,-0.573884967652,-0.0120447726001,0.0,-0.00877503690566,0.00846609509485,-0.999925659217,0.0,0.654359657139,0.251481473369,0.303278757718,1.0,-0.01714,-0.0225268571429,0.858
0.459664828057,0.507612155332,-0.124136134472,-1.41938773151,0.0756992711171,1.91742208413,0.150825132602,-0.0103301077506,-0.0893374458928,0.00026627739442,-0.142853502076,-0.0114834970385,0.0427595434576,-0.0251024645383,0.573925141863,0.81889389802,0.00186070552201,0.0,0.818848560265,-0.573865943248,-0.0120690278584,0.0,-0.00881562746692,0.00845051726219,-0.999925433955,0.0,0.654125232134,0.251197827236,0.303265441383,1.0,-0.0174,-0.0228685714286,0.871
0.459460807523,0.506127950633,-0.124137571699,-1.42168445605,0.0755551900188,1.91828267162,0.15052595253,-0.0088675978244,-0.0983079089238,0.000586750122871,-0.146135286384,-0.0114194517581,0.0622041152381,-0.00758010237627,0.573928111499,0.818891729348,0.00189877287032,0.0,0.818846902327,-0.573868759149,-0.0120476024016,0.0,-0.00877620450325,0.00846942504017,-0.999925620771,0.0,0.653845227409,0.250845698628,0.303284622392,1.0,-0.01772,-0.0232891428571,0.887
0.459213924003,0.504307811817,-0.12414369466,-1.4244472716,0.0753806444217,1.91934307624,0.150134035176,-0.0117697711344,-0.102116478852,-0.00033521957411,-0.144661393643,-0.0128324162214,0.051767033293,-0.0124883542138,0.573909055774,0.818904857916,0.00199406200175,0.0,0.818861362478,-0.573849382949,-0.0119875615286,0.0,-0.00867254809446,0.00851279434318,-0.999926156895,0.0,0.653514570319,0.250420622607,0.30333355338,1.0,-0.0181,-0.0237885714286,0.906
0.45900237104,0.502735776147,-0.12414404522,-1.42676961474,0.0752311139751,1.92022648535,0.149808246166,-0.0114494419489,-0.0917657919814,-0.00114424003065,-0.141314656382,-0.00558323087606,0.0587209859908,-0.0205142070102,0.573894508986,0.818914776764,0.00210424695931,0.0,0.81887278889,-0.573834450581,-0.011921654344,0.0,-0.00855549422777,0.00856504744584,-0.999926719055,0.0,0.653235205568,0.250063156403,0.303402553519,1.0,-0.01842,-0.0242091428571,0.922
0.458787156741,0.501219256475,-0.1241518787,-1.42903096426,0.0750853673072,1.9210239195,0.149487463672,-0.0144447155725,-0.100369777027,0.000315706957634,-0.153682076,-0.0138435115895,0.0503466839016,-0.0240015305868,0.5738895216,0.818918161385,0.00214682386922,0.0,0.818876736635,-0.573829299435,-0.0118984120661,0.0,-0.00851207917956,0.00858652344974,-0.99992690539,0.0,0.652953322412,0.249700392384,0.303454069817,1.0,-0.01872,-0.0246034285714,0.937
0.458535964441,0.499412601652,-0.124147669936,-1.43178901618,0.0749143874094,1.92201929895,0.149100692886,-0.0123287931099,-0.0954232527571,0.000304596988881,-0.153254231146,-0.0113855019431,0.0506992279544,-0.0208304207572,0.573869636285,0.818931991872,0.00218635292743,0.0,0.81889099167,-0.573809166365,-0.0118882823757,0.0,-0.00848130870671,0.00861287482443,-0.999926940226,0.0,0.652605454345,0.249275521844,0.303487854931,1.0,-0.01908,-0.0250765714286,0.955
0.45827494188,0.497740847927,-0.124145394635,-1.43443278317,0.0747555947823,1.92300611152,0.148709464752,-0.0148776536019,-0.0989970922592,0.000890341930732,-0.156338288964,-0.0114968820399,0.0580356835578,-0.024254744623,0.573852914185,0.818943671505,0.00220061014795,0.0,0.818902767829,-0.573792298673,-0.0118912457834,0.0,-0.00847573050941,0.00862607786587,-0.999926873713,0.0,0.652280877186,0.24885633249,0.303480706142,1.0,-0.01942,-0.0255234285714,0.972
0.45800978752,0.496066068515,-0.124148317766,-1.43711794977,0.0745872887516,1.92394511433,0.148310477153,-0.0142243965509,-0.0993207716949,0.00160590778806,-0.160635219942,-0.00212829349981,0.0484645798098,-0.0348450067594,0.573835463282,0.818956062841,0.0021389524701,0.0,0.81891424831,-0.573774990474,-0.0119357078278,0.0,-0.00854770742654,0.00860091667947,-0.999926477762,0.0,0.651938234911,0.248422032129,0.303451366863,1.0,-0.01976,-0.0259702857143,0.989
0.457749650743,0.494485045819,-0.124156131986,-1.43970899187,0.074423952492,1.9248407658,0.14795826176,-0.01801419385,-0.100700349232,-0.00116661935943,-0.169273652857,-0.0110825206107,0.0647058188572,-0.0241964578355,0.573851790751,0.818944878505,0.00203841227229,0.0,0.818901656376,-0.573791637199,-0.011999215238,0.0,-0.00865723862887,0.00855519505209,-0.999925927685,0.0,0.651605605899,0.247996088573,0.303397372784,1.0,-0.0215251428571,-0.0282901877551,1.005
0.457445127896,0.492269953523,-0.124226590371,-1.44311222077,0.0742239422975,1.92610829033,0.147465592537,-0.0199697922416,-0.136180803576,-0.00684781333336,-0.204231229949,-0.013947970828,0.0729350107451,-0.037674068565,0.573865453955,0.818935159248,0.00209585433297,0.0,0.818892870863,-0.573805242497,-0.0119480807852,0.0,-0.00858225647178,0.00857303603283,-0.999926421257,0.0,0.651192374018,0.247435841711,0.303431448481,1.0,-0.0284782857143,-0.0374286040816,1.023
0.457104108247,0.489876966391,-0.12423790038,-1.44697480699,0.0740087594209,1.92753579731,0.146900025011,-0.0233947010169,-0.157846606856,0.00416105073527,-0.264424472375,-0.0138277361467,0.0948242435827,-0.040652638554,0.573825082873,0.818963517229,0.00206848107252,0.0,0.818920606166,-0.573764725699,-0.0119927995818,0.0,-0.00863501010242,0.00857585609944,-0.999925942904,0.0,0.650698331273,0.246843009235,0.303381773059,1.0,-0.0346588571429,-0.0455516408163,1.039
0.456584599352,0.486520052936,-0.124283909702,-1.45227888333,0.0736937033155,1.92950632136,0.146125172979,-0.0292068526104,-0.200279510766,-0.00771051894441,-0.308073540825,-0.0169025798095,0.117906537763,-0.0506223818601,0.57382765262,0.818961677638,0.00208387861119,0.0,0.818918944988,-0.5737672083,-0.0119874568009,0.0,-0.00862177251494,0.00858542716678,-0.999925975,0.0,0.65004011682,0.245976670705,0.303362278483,1.0,-0.041612,-0.0546900571429,1.057
0.456040919012,0.483002331673,-0.12437969264,-1.45774322235,0.0733689029793,1.93147972649,0.145282932971,-0.0355086261762,-0.23046130124,-0.00918087936588,-0.35706713387,-0.0202121959025,0.125291850569,-0.0500845868025,0.573833724477,0.818957391364,0.00209635005751,0.0,0.81891493176,-0.573773337502,-0.0119682334898,0.0,-0.00859880906267,0.00858467364472,-0.999926179206,0.0,0.649359944183,0.245047833544,0.303377066632,1.0,-0.0477925714286,-0.0628130938775,1.073
0.455399633019,0.478964343487,-0.124463863436,-1.4640732046,0.0729915725821,1.93369702733,0.144338173591,-0.0413278567433,-0.261974352133,-0.00224395132998,-0.416282159744,-0.0274899108497,0.145077446043,-0.0580361822389,0.573852898688,0.818944125218,0.00202912292998,0.0,0.818900672315,-0.57379267615,-0.0120166792761,0.0,-0.00867686007801,0.00855762112749,-0.999925736852,0.0,0.6485475163,0.243975758261,0.303358275089,1.0,-0.0539731428571,-0.0709361306122,1.089
0.45462560936,0.474133283191,-0.1245334604,-1.47149571296,0.0725444617012,1.93641289549,0.143281215111,-0.0477345761894,-0.294100276019,-0.00101357484185,-0.455103818823,-0.0227135599201,0.167686630831,-0.0697947040859,0.57390975981,0.818904018117,0.00213157398525,0.0,0.818861868202,-0.573849067551,-0.0119680983084,0.0,-0.00857768719719,0.00861423893213,-0.999926106355,0.0,0.647610755686,0.242730653723,0.303406755486,1.0,-0.06054,-0.0795668571429,1.106
0.453678126379,0.468453334773,-0.124577686127,-1.48013204776,0.0720326406216,1.93957343373,0.141938354397,-0.0503959270931,-0.328213425953,-0.00313817618651,-0.489653132354,-0.0215833382425,0.186582268877,-0.0755341146254,0.573892529334,0.81891558729,0.0023178803142,0.0,0.81887558249,-0.573830796038,-0.0119056633802,0.0,-0.00841982432094,0.00873079495794,-0.999926437183,0.0,0.646512951123,0.241276980733,0.303495642323,1.0,-0.0674931428571,-0.0887052734694,1.124
0.452750525681,0.462885863246,-0.124606119782,-1.4886397756,0.0714808204484,1.94260610894,0.140571742582,-0.0621315687505,-0.360058058982,-0.0033485377245,-0.552906414052,-0.0366609390087,0.193581889367,-0.0913754199571,0.573803900646,0.818977481137,0.00239079377141,0.0,0.818938335033,-0.57374179709,-0.0118785767959,0.0,-0.0083567494822,0.0087740552979,-0.999926587651,0.0,0.645399282817,0.239846487928,0.303549087957,1.0,-0.0736737142857,-0.0968283102041,1.14
0.451582706217,0.456146520018,-0.124668400259,-1.49914015169,0.0707841348589,1.94617458096,0.139025063173,-0.0692142386164,-0.376472204294,-0.0018807598889,-0.606511066551,-0.0385112440797,0.196722405596,-0.0894748765376,0.573834878592,0.818956280206,0.00221136245803,0.0,0.818914577598,-0.573773266573,-0.0119958352929,0.0,-0.00855540870648,0.00869471304234,-0.999925600706,0.0,0.643980773529,0.238037603426,0.3035002849,1.0,-0.0806268571429,-0.105966726531,1.158
0.450383184655,0.449115307891,-0.124764658453,-1.50953759022,0.0700613948833,1.95006804763,0.137340361243,-0.0729701249974,-0.418899321995,-0.00314014123332,-0.624206739761,-0.0501925549047,0.244474337162,-0.0939083169058,0.573784423359,0.818990452828,0.00261162573983,0.0,0.818954826847,-0.573722196786,-0.0116867189703,0.0,-0.00807311903747,0.00884463109744,-0.999928296054,0.0,0.642658053724,0.236224047041,0.303717536883,1.0,-0.0871937142857,-0.114597453061,1.175
0.449210352013,0.442631424749,-0.124787118489,-1.519406413,0.0694424433999,1.9535286784,0.135846429913,-0.0817068306682,-0.440600215148,-0.00449811574812,-0.681153164245,-0.0489326743528,0.241446435632,-0.102645233645,0.573804630429,0.818976068961,0.00268169141589,0.0,0.818940867404,-0.573741618472,-0.0117114401428,0.0,-0.00805294628096,0.00891639694542,-0.999927821356,0.0,0.641231009329,0.23439772432,0.30375519503,1.0,-0.0933742857143,-0.122720489796,1.191
0.447777061366,0.434860675818,-0.124819018081,-1.53136121573,0.0686317378071,1.95759736833,0.133902094209,-0.0867019654636,-0.482571795762,-0.00111043743787,-0.699750480358,-0.0489748770086,0.254007724819,-0.112060227243,0.573719510689,0.819036015038,0.00258380083981,0.0,0.818999188478,-0.573656478235,-0.0118034381983,0.0,-0.00818538448947,0.00888816470328,-0.99992699734,0.0,0.639660618278,0.232425601476,0.303733713615,1.0,-0.0995548571428,-0.130843526531,1.207
0.446207549933,0.42661333623,-0.124856673201,-1.54387909134,0.0677438681352,1.96204806903,0.131873252597,-0.0981417021083,-0.487152590398,-0.0015029821954,-0.757177098254,-0.0522330216934,0.257214394919,-0.122664612179,0.573664804707,0.81907395907,0.00269968804475,0.0,0.819038919436,-0.573601667336,-0.0117099350668,0.0,-0.00804291216282,0.00892889910118,-0.999927790555,0.0,0.63795338941,0.230201808008,0.303780471654,1.0,-0.106121714286,-0.139474253061,1.224
0.444694280998,0.418977473691,-0.124937409354,-1.55556397404,0.0669113643145,1.96595828435,0.129931901808,-0.106668353175,-0.515569520938,-0.0129441856584,-0.802905649605,-0.0500657094258,0.266861222895,-0.127043996269,0.573634364877,0.819095684524,0.0025733105839,0.0,0.819059025308,-0.57357171179,-0.0117707857394,0.0,-0.00816557885875,0.0088599910427,-0.999927409306,0.0,0.636201518358,0.227914605058,0.303757280072,1.0,-0.112302285714,-0.147597289796,1.24
0.442748673647,0.40932184519,-0.125042317624,-1.57005645202,0.0659088845527,1.97108309843,0.127518614258,-0.115017701586,-0.538352913152,-0.00182093877359,-0.812516864415,-0.0582078603915,0.274896726744,-0.140579834992,0.573649271758,0.819084618654,0.00276539284773,0.0,0.819050621897,-0.573586119629,-0.0116528554668,0.0,-0.00795863695187,0.00894982109592,-0.999928277828,0.0,0.634300461562,0.225382928588,0.303834200318,1.0,-0.118869142857,-0.156228016327,1.257
0.440700908192,0.39977713298,-0.125151412194,-1.58454500617,0.0649388961997,1.97590641587,0.12511183652,-0.125835744755,-0.578045372779,-0.0104730816245,-0.830662548974,-0.0508819199006,0.301244789166,-0.137909680428,0.573748895386,0.81901515669,0.00266928008704,0.0,0.818979247859,-0.573685332223,-0.0117846540195,0.0,-0.00812063977225,0.00894768949494,-0.999926994366,0.0,0.632217809309,0.2226362856,0.303800176179,1.0,-0.125436,-0.164858742857,1.274
0.438641236421,0.390403933677,-0.125285245396,-1.59855586029,0.0638543650007,1.98074961121,0.122707250706,-0.125564827888,-0.584713355806,-0.00868573636842,-0.87528749135,-0.0706813055347,0.300030317756,-0.150183013923,0.573805916473,0.818974908814,0.00275968398483,0.0,0.818941110619,-0.573743070446,-0.0116229667,0.0,-0.0079357213176,0.00892951764781,-0.999928641475,0.0,0.630237343953,0.219913651387,0.303857078913,1.0,-0.131616571429,-0.172981779592,1.29
0.436328845048,0.380016096503,-0.125383745902,-1.61408031213,0.0626975658423,1.98588600608,0.119927927157,-0.133476263083,-0.621582752468,-0.00518359115788,-0.904921398119,-0.0691657222379,0.319366466772,-0.163623760867,0.573757219446,0.819009155546,0.00272087621845,0.0,0.818974857041,-0.573694515474,-0.0116418791407,0.0,-0.00797400736452,0.00890811292569,-0.999928527811,0.0,0.627948356965,0.216912356141,0.30387472417,1.0,-0.138183428571,-0.181612506122,1.307
0.433654153525,0.368673486313,-0.125496670499,-1.6310713542,0.0614309715125,1.99152612436,0.116915394796,-0.153525839503,-0.632900269834,-0.00463078468905,-0.964516489302,-0.0866513192826,0.316540514502,-0.163725901543,0.573827752229,0.818959892533,0.0026743401642,0.0,0.818924935021,-0.57376513914,-0.0116731662359,0.0,-0.00802556632668,0.00888864172163,-0.999928288595,0.0,0.625427258654,0.213550606448,0.303847390969,1.0,-0.145136571429,-0.190750922449,1.325
0.431138031896,0.358144297747,-0.125643935961,-1.64654948003,0.0602124039304,1.99665730715,0.114114391495,-0.150950701341,-0.654979747907,-0.00609938925281,-0.991232988815,-0.0766867419061,0.316660560288,-0.180856252749,0.573902073951,0.818907532918,0.002758432003,0.0,0.818874255924,-0.573839825423,-0.011556584504,0.0,-0.00788102770025,0.00889132795419,-0.999929414354,0.0,0.623116435202,0.210419751825,0.303923305772,1.0,-0.151317142857,-0.198873959184,1.341
0.428070881344,0.34597227905,-0.12577884181,-1.66456155817,0.0589061784871,2.00242613705,0.110675925263,-0.174661044598,-0.702708297601,-0.00987034189879,-0.991335018193,-0.0717895592375,0.333170647184,-0.187086977627,0.573941342979,0.81888018512,0.00270631462728,0.0,0.81884538686,-0.573878319462,-0.0116899003886,0.0,-0.00801968690781,0.00892554222058,-0.999928007067,0.0,0.620344415149,0.206734796736,0.303905150969,1.0,-0.158270285714,-0.20801237551,1.359
0.425038162624,0.334125778692,-0.125870022515,-1.68206991325,0.0575248482946,2.00808892202,0.107396433209,-0.176875846449,-0.708913186419,-0.0069780665054,-1.0510702295,-0.0819142235483,0.329138856493,-0.194390949399,0.573978741795,0.818854115567,0.00266238389212,0.0,0.818818671443,-0.573915785253,-0.0117218443566,0.0,-0.00807065173641,0.00890827062855,-0.999927751038,0.0,0.617610556081,0.203153268111,0.303864554456,1.0,-0.164837142857,-0.216643102041,1.376
0.422262058582,0.323266285994,-0.125868002098,-1.69776680203,0.056204655732,2.01310570948,0.104297152056,-0.192091155042,-0.737242999509,0.00154803712041,-1.06320711026,-0.0764734263298,0.337957194351,-0.201687620877,0.573812231448,0.818970494456,0.00275665604258,0.0,0.818936528074,-0.573749249951,-0.0116407932925,0.0,-0.00795199000226,0.00893732797487,-0.999928442452,0.0,0.615103672769,0.199963024002,0.303943802654,1.0,-0.170631428571,-0.22425844898,1.391
0.41887698173,0.310723122495,-0.125929551381,-1.71597092464,0.0547748058897,2.01881726696,0.100652925141,-0.203226290621,-0.747835191298,-0.00787017648151,-1.06302209427,-0.082386697053,0.347711473281,-0.22264575958,0.573772540348,0.818998179383,0.00279302904008,0.0,0.818964038911,-0.573708710837,-0.0117032038728,0.0,-0.00798267126602,0.00900254068659,-0.99992761299,0.0,0.612156730547,0.196155742811,0.303957115154,1.0,-0.177198285714,-0.23288917551,1.408
0.41529862804,0.297829189664,-0.126046777965,-1.73467669753,0.0531527854561,2.0245629481,0.0968328514952,-0.214996503309,-0.777346271573,-0.00618045982409,-1.11748126589,-0.0914396311261,0.325526012219,-0.224443627216,0.573708974419,0.819043171896,0.00265370372123,0.0,0.819007528557,-0.573645988207,-0.0117343632822,0.0,-0.00808881936407,0.00890568431233,-0.999927627275,0.0,0.609074350904,0.192150013714,0.303921383583,1.0,-0.183765142857,-0.241519902041,1.425
0.411700232695,0.285261312745,-0.126174042544,-1.75247270247,0.0517136714569,2.03006562982,0.0931103423895,-0.224402779648,-0.781099309597,-0.00856114492172,-1.12927417337,-0.0994089052742,0.337935457615,-0.238126955134,0.57375720036,0.819008652066,0.00287224253184,0.0,0.818975527508,-0.573693085515,-0.0116651565397,0.0,-0.00790623067273,0.00904543805334,-0.999927833179,0.0,0.606131084738,0.18826107727,0.304040326028,1.0,-0.189945714286,-0.249642938775,1.441
0.407394758302,0.270916424476,-0.126320966071,-1.77290458704,0.0499534213153,2.03619594364,0.0886566850353,-0.242483542877,-0.794646471306,-0.00894427894382,-1.14341906646,-0.101163970917,0.358109748904,-0.249744942398,0.573734743144,0.819024436437,0.00285725909475,0.0,0.818990992979,-0.57367054047,-0.0116880844347,0.0,-0.00793385414928,0.00904610374972,-0.999927608362,0.0,0.602672925169,0.183700457909,0.304055389845,1.0,-0.196898857143,-0.258781355102,1.459
0.403038767799,0.257059581522,-0.126498831359,-1.7925892859,0.0482084550782,2.04195228742,0.0843673834947,-0.259637557629,-0.804842650557,-0.00977815733441,-1.15247561587,-0.102197806755,0.340455951989,-0.258223357321,0.573859858689,0.818937187931,0.0027370988056,0.0,0.818902084565,-0.57379595098,-0.0117613535075,0.0,-0.00806142876313,0.00899095768319,-0.999927085365,0.0,0.599280791796,0.179185627351,0.304027900066,1.0,-0.203465714286,-0.267412081633,1.476
0.398718634193,0.243727040121,-0.126636722554,-1.81137255321,0.0465011848376,2.04745532852,0.0801182482284,-0.275855374194,-0.831909686725,-0.00297242286906,-1.18267994404,-0.106787686966,0.33900963907,-0.268749338049,0.573912279297,0.818900521645,0.0027162884601,0.0,0.818865254916,-0.573848558882,-0.0117589396201,0.0,-0.00807081895885,0.00897304684077,-0.999927170504,0.0,0.596002716113,0.174833341696,0.304021529443,1.0,-0.209646285714,-0.275535118367,1.492
0.394008718436,0.229172362566,-0.126750828142,-1.83148075755,0.0447247859634,2.05333574375,0.0753870866436,-0.27685735451,-0.841484886379,-0.00793914610957,-1.18796877754,-0.108077446467,0.343487238051,-0.273207930375,0.573846302985,0.818945875265,0.00296998948611,0.0,0.818913623285,-0.573781388309,-0.0116680302293,0.0,-0.00785151170405,0.00912799660359,-0.999927514094,0.0,0.592428635746,0.170197413794,0.30413204865,1.0,-0.216213142857,-0.284165844898,1.509
0.388954778819,0.214337943479,-0.126852554061,-1.85194860841,0.0427508655057,2.05910707017,0.0703973091316,-0.301015441938,-0.882216571305,-0.00975228139347,-1.19591729639,-0.112987075288,0.341298992591,-0.293402351037,0.573735428925,0.819023440659,0.0030013578585,0.0,0.818991929365,-0.573670813849,-0.0116087843224,0.0,-0.00778622498121,0.00911863427772,-0.999928110021,0.0,0.58871268399,0.165348988327,0.304177144963,1.0,-0.22278,-0.292796571429,1.526
0.383924932714,0.20023901523,-0.12701338818,-1.87146080454,0.0409101018986,2.0643695678,0.0655608479701,-0.314011186637,-0.895392820982,-0.0119653837879,-1.21471621365,-0.11976395737,0.322995136999,-0.303186812459,0.573768207109,0.819001043306,0.00284296957653,0.0,0.818966875217,-0.57370343712,-0.0117630962986,0.0,-0.00800312080823,0.00907776335878,-0.999926769454,0.0,0.585085483278,0.160608882104,0.30411754723,1.0,-0.228960571429,-0.300919608163,1.542
0.37717575159,0.182157776298,-0.127283304482,-1.89607503155,0.0385757689417,2.07102143795,0.0591748079534,-0.346937334375,-0.911488076864,-0.0173404981655,-1.23558069193,-0.114396236304,0.316849952074,-0.325818271876,0.573906439135,0.818903956299,0.00290798519331,0.0,0.818870177131,-0.57384089906,-0.0117899309835,0.0,-0.00798625404925,0.00914775578138,-0.999926266437,0.0,0.580484375941,0.154432094915,0.30414150989,1.0,-0.236686285714,-0.311073404082,1.562
0.372203971367,0.169220052297,-0.127430520352,-1.91346079091,0.0368377921739,2.07562168393,0.0545633719342,-0.35952840232,-0.90000764505,-0.00474670465687,-1.24278141946,-0.133676237751,0.320985660024,-0.3303280466,0.57398432031,0.818849093294,0.00298485373732,0.0,0.818816390587,-0.573918588157,-0.0117439165233,0.0,-0.0079035845225,0.00918504794764,-0.999926581428,0.0,0.577170337805,0.150014255221,0.30419196364,1.0,-0.242094285714,-0.318181061224,1.576
0.366409732161,0.154230820073,-0.127570113368,-1.93344106551,0.0348146067537,2.08079423689,0.0490162495002,-0.360764464312,-0.937415629592,-0.005113532339,-1.2455297636,-0.125936232027,0.316504880215,-0.349534682928,0.573866932299,0.818930975054,0.00309014757779,0.0,0.818899582905,-0.573800787789,-0.0116993996256,0.0,-0.00780802195707,0.00924459712261,-0.999926783428,0.0,0.573272021392,0.144958000333,0.304251503654,1.0,-0.248274857143,-0.326304097959,1.592
0.359493570235,0.137108649866,-0.127753241603,-1.95617669652,0.0324504581545,2.08647344862,0.0426079641537,-0.396283062737,-0.974595813343,-0.0129972353696,-1.27012231521,-0.129002680326,0.325564612243,-0.358812533038,0.573866334006,0.818931398061,0.00308915298493,0.0,0.818899806576,-0.573799972371,-0.0117237109318,0.0,-0.00782850980951,0.00925772803518,-0.999926501752,0.0,0.568745734663,0.139067653249,0.304261090327,1.0,-0.255228,-0.335442514286,1.61
0.352567323899,0.120687879595,-0.127965395574,-1.97776592626,0.0301569942114,2.09169069455,0.0361713078393,-0.416997306957,-0.991264766801,-0.0167749641048,-1.2577792389,-0.132799670707,0.32243924982,-0.385978485106,0.573835930406,0.818952733139,0.00308103238703,0.0,0.818920818586,-0.573769343869,-0.0117549914667,0.0,-0.0078591317712,0.0092687364816,-0.99992615956,0.0,0.56437025753,0.133319366468,0.304269794453,1.0,-0.261794857143,-0.344073240816,1.627
0.345637413393,0.104969125517,-0.128209600348,-1.99824435489,0.0278902313701,2.09652949152,0.0298883076063,-0.437339001134,-0.982885423379,-0.0106565269776,-1.28148204531,-0.134146888757,0.291844125262,-0.398313912681,0.573911308636,0.8188999502,0.00307055108002,0.0,0.818868127859,-0.573845017394,-0.0117316703854,0.0,-0.00784519490073,0.00924749276064,-0.999926465694,0.0,0.560163045467,0.127704401153,0.304277260878,1.0,-0.267975428571,-0.352196277551,1.643
0.338098169435,0.0880113952015,-0.128352840806,-2.0200418693,0.0255071453759,2.1015236472,0.0229181303151,-0.462970471482,-0.989508394937,-0.00920548235329,-1.3040043325,-0.133565497686,0.293185326162,-0.414496162494,0.573764573844,0.819002375174,0.00317335178268,0.0,0.818971534097,-0.573697530542,-0.0117267509942,0.0,-0.0077838426992,0.00932745864697,-0.999926202431,0.0,0.555562318561,0.121792198625,0.304318702662,1.0,-0.274542285714,-0.360827004082,1.66
0.330117160787,0.0707645761602,-0.128563640395,-2.04190111912,0.0230392950946,2.10633170963,0.015588512159,-0.476153737837,-1.00539304515,-0.0123969015387,-1.29763805866,-0.146724268271,0.283356774217,-0.432256785504,0.573656933931,0.819077285793,0.00329680938233,0.0,0.819047963775,-0.57358939081,-0.0116786423431,0.0,-0.0076748435514,0.00939996014892,-0.999926366052,0.0,0.550869594469,0.115674949227,0.304392070014,1.0,-0.27998,-0.367973714286,1.677
0.321155826218,0.0524756552991,-0.128889990054,-2.0648871489,0.0203676734277,2.1111395632,0.00759576797549,-0.506795807842,-1.01321112423,-0.0144490821953,-1.26778269972,-0.142842846603,0.254821112007,-0.446131985724,0.573776307753,0.818993477302,0.00334360580757,0.0,0.818964647687,-0.573708453393,-0.0116731848972,0.0,-0.00764215450866,0.00943627355973,-0.99992627439,0.0,0.545849097777,0.108968368603,0.304436306374,1.0,-0.27998,-0.367973714286,1.695
0.312495905209,0.035409601425,-0.129058191421,-2.08621030148,0.0178973393295,2.11538473731,-7.33042791348e-05,-0.516758105111,-1.00504813639,-0.0156024815072,-1.23765921922,-0.140421908317,0.255623816484,-0.461011313682,0.57380739095,0.818971700627,0.00334343585229,0.0,0.818942019239,-0.573738486493,-0.0117841054797,0.0,-0.00773273995867,0.00950006983382,-0.999924973888,0.0,0.541062139265,0.102737890893,0.304422646226,1.0,-0.27998,-0.367973714286,1.712
0.303584455459,0.018503751481,-0.129243811699,-2.10706163236,0.015315031013,2.11933040878,-0.00796336942258,-0.527737805452,-0.990611190128,-0.0179205137046,-1.19903195962,-0.137610589969,0.227874232918,-0.470395832766,0.573780219764,0.818990950167,0.00329087419783,0.0,0.81896051522,-0.573711415501,-0.0118166465587,0.0,-0.00778986447764,0.0094754365194,-0.999924764227,0.0,0.53629164113,0.0964774919414,0.304423417327,1.0,-0.27998,-0.367973714286,1.729
0.29487161494,0.00260760108479,-0.129511107238,-2.12633085429,0.0129260164287,2.12281809597,-0.015548746109,-0.548157169903,-0.981785473463,-0.0117090458692,-1.20064819582,-0.143026969906,0.213426938889,-0.477899643624,0.573941347428,0.818877753865,0.00336167187173,0.0,0.818848128565,-0.573872138789,-0.0118007444277,0.0,-0.0077343461741,0.00952581728001,-0.999924716513,0.0,0.531818002813,0.0904855147625,0.304478925725,1.0,-0.27998,-0.367973714286,1.745
0.286107714841,-0.0131206997177,-0.129615734317,-2.14511139166,0.0105843614181,2.12619140541,-0.0233189473105,-0.54813217798,-0.973704115501,-0.000465329933477,-1.18103171449,-0.143385737071,0.201173085553,-0.480255517921,0.573841165482,0.818946927282,0.00360471832557,0.0,0.818920718285,-0.573771491851,-0.0116567235441,0.0,-0.00747809729381,0.00964127196901,-0.999925559197,0.0,0.527380599715,0.0846843867562,0.304580564591,1.0,-0.27998,-0.367973714286,1.761
0.275903566177,-0.0306291089933,-0.12985241538,-2.16585556009,0.00781031523351,2.12954707282,-0.0322551152065,-0.579546916302,-0.973585355023,-0.0141293820501,-1.13709555188,-0.15210501098,0.197751692243,-0.497566382258,0.57384219142,0.818946118602,0.003625062079,0.0,0.818920694498,-0.573773128486,-0.0115775667768,0.0,-0.00740158266806,0.0096125197166,-0.999926405311,0.0,0.522359929521,0.078024290049,0.304642395546,1.0,-0.27998,-0.367973714286,1.779
0.266541294684,-0.0459602901372,-0.130093840012,-2.18407628926,0.0054900529143,2.13224571418,-0.0403798761775,-0.583344451565,-0.970413006902,-0.0117021983064,-1.11685792492,-0.138577092165,0.165691687506,-0.509434170286,0.573984584106,0.818846763998,0.00352437230159,0.0,0.818818732945,-0.573914160856,-0.0117968406247,0.0,-0.0076372646399,0.00965721265339,-0.999924202344,0.0,0.517835283394,0.0720691352287,0.304571902633,1.0,-0.27998,-0.367973714286,1.795
0.256483116098,-0.0621652497185,-0.130250135823,-2.20287471828,0.0029709499502,2.13503352703,-0.0492281051767,-0.601874254699,-0.933057269865,-0.0160670764756,-1.11474136007,-0.152144986587,0.155039904897,-0.523615995416,0.573907816146,0.818899981001,0.0036587680033,0.0,0.818873955309,-0.573837289185,-0.0117028953222,0.0,-0.00748410733652,0.0097126399218,-0.999924823556,0.0,0.513110181717,0.0658697377821,0.304621738478,1.0,-0.27998,-0.367973714286,1.812
0.24612474929,-0.0782629845897,-0.130504984534,-2.22129637751,0.000435850384718,2.13746824071,-0.0582971919313,-0.612575849887,-0.946316613261,-0.0195894343676,-1.08418252081,-0.142148717333,0.131662702322,-0.547697412372,0.573932361543,0.818882440022,0.00373372441245,0.0,0.818857459391,-0.573861685504,-0.0116607895114,0.0,-0.00740631697766,0.00975008026741,-0.999925038392,0.0,0.50837051636,0.0595918325727,0.304674788612,1.0,-0.27998,-0.367973714286,1.829
0.23617817866,-0.0931583874723,-0.130650621606,-2.23841416956,-0.00184654151846,2.13946164125,-0.0670340811631,-0.608735247691,-0.932453263162,-0.00497590504872,-1.04391833437,-0.134551814925,0.112673517298,-0.542351923282,0.573889326434,0.818913055457,0.00363256218474,0.0,0.818885247503,-0.573817033702,-0.011904207491,0.0,-0.00766423243191,0.00980653800872,-0.999922542677,0.0,0.503835994793,0.0537571832309,0.304596520667,1.0,-0.27998,-0.367973714286,1.845
0.225351320799,-0.10888011095,-0.130858646662,-2.25616006308,-0.00443686497549,2.14143715864,-0.0764780473312,-0.645558361079,-0.895428741561,-0.0106701332245,-1.03741076818,-0.148280856694,0.105573935346,-0.558960882471,0.573862148337,0.818932437588,0.00355587876737,0.0,0.818903725358,-0.573790253572,-0.0119239423519,0.0,-0.00772472332114,0.00975480935453,-0.999922583175,0.0,0.49906929611,0.047512667934,0.304572089401,1.0,-0.27998,-0.367973714286,1.862
0.213476668096,-0.125475544612,-0.131155187394,-2.27455478329,-0.00708352566627,2.14326400669,-0.0867825865701,-0.652607628228,-0.921055165718,-0.00577480977717,-1.0223810855,-0.145993683911,0.0885340379915,-0.572441571905,0.573990597579,0.818842213475,0.00360141972033,0.0,0.818813806734,-0.573918155213,-0.0119435304497,0.0,-0.00771309524911,0.00980455513897,-0.999922186403,0.0,0.494024751839,0.0408163256356,0.30459129729,1.0,-0.27998,-0.367973714286,1.88
0.202817253366,-0.140026341883,-0.131352512828,-2.29056547828,-0.00938396805665,2.14460651887,-0.0962192316282,-0.678426313503,-0.89445983865,-0.0180544921375,-0.973417195167,-0.143190210223,0.0818845368588,-0.594347297084,0.573905046161,0.818902306126,0.00357182213027,0.0,0.818872567074,-0.57383153028,-0.0120764503187,0.0,-0.0078399598004,0.00985579268909,-0.999920696046,0.0,0.48951105752,0.0349758511958,0.304567407791,1.0,-0.27998,-0.367973714286,1.896
0.191755296912,-0.154497315617,-0.131655188596,-2.30619866651,-0.0117492971934,2.14588505484,-0.1058465074,-0.703207045923,-0.909520827728,-0.0196571480383,-0.964110024634,-0.142592853093,0.0711636808191,-0.603548227752,0.57402601166,0.818817125081,0.00366067117557,0.0,0.818788875254,-0.573952562796,-0.011999180005,0.0,-0.00772423118763,0.00988534859957,-0.999921304971,0.0,0.485053066738,0.0290014052538,0.304601779988,1.0,-0.27998,-0.367973714286,1.912
0.179270988264,-0.170667856428,-0.131823650633,-2.32330821883,-0.0142526955001,2.14697503488,-0.116914400822,-0.686829805665,-0.897275879318,-0.0103314194568,-0.93989129401,-0.124761245293,0.0667787087272,-0.613548274426,0.57390563719,0.818900618137,0.00385280646815,0.0,0.818874656702,-0.573831226865,-0.0119484972845,0.0,-0.00757391697093,0.0100124682925,-0.999921190025,0.0,0.480031543144,0.0225033042183,0.304696245584,1.0,-0.27998,-0.367973714286,1.93
0.168506832405,-0.183901883123,-0.132073800888,-2.33741905707,-0.0164720830402,2.14769264665,-0.126378847911,-0.733016915724,-0.897873169418,-0.0233440777452,-0.931300050619,-0.141139883795,0.0407007475344,-0.638542962973,0.573922423765,0.818889344034,0.00374708258414,0.0,0.818861412317,-0.573847627074,-0.0120679418809,0.0,-0.00773220343019,0.009994596218,-0.999920157351,0.0,0.475506537278,0.0165808633846,0.304645133992,1.0,-0.27998,-0.367973714286,1.946
0.155328736493,-0.199638530033,-0.132302119161,-2.35370754684,-0.0190288167153,2.1484557197,-0.138062883267,-0.731724623148,-0.864054298029,-0.0117729042749,-0.895880622506,-0.135438318412,0.0354364628836,-0.663120342481,0.573832382769,0.818951631335,0.00392032154545,0.0,0.818926779361,-0.573758051021,-0.0118901570631,0.0,-0.00748829164721,0.0100336066343,-0.999921623042,0.0,0.470814720944,0.0103661310141,0.304727571356,1.0,-0.27998,-0.367973714286,1.963
0.142612369278,-0.214289049863,-0.132606557832,-2.36884306916,-0.0213386196151,2.14881818426,-0.149353241085,-0.766006207406,-0.874387005643,-0.0361027541417,-0.870662792329,-0.128523304409,0.0203093954029,-0.673698034981,0.573867411225,0.81892690576,0.00395780964483,0.0,0.818901315623,-0.573791296783,-0.0120386838256,0.0,-0.00758799145855,0.0101498592629,-0.999919698147,0.0,0.466037254883,0.00412122416135,0.304714111967,1.0,-0.27998,-0.367973714286,1.98
0.130349893829,-0.227888485448,-0.132832793762,-2.38273519904,-0.0236552930697,2.14908296937,-0.16012866711,-0.767178509104,-0.81962696057,-0.0062527196626,-0.877836040817,-0.131205315684,0.0144919034809,-0.681313259124,0.573890305741,0.818911007974,0.0039274541443,0.0,0.818885317819,-0.573814695093,-0.0120116134509,0.0,-0.00758295757162,0.0101096776936,-0.999920143397,0.0,0.461567265712,-0.00176279786294,0.304705374835,1.0,-0.27998,-0.367973714286,1.996
0.117066506849,-0.242269082592,-0.133124442538,-2.39712308369,-0.0260234823385,2.14920353447,-0.172001749573,-0.795459300908,-0.851879488009,-0.0213348400799,-0.830560825582,-0.129146712342,0.0128003934452,-0.70525879209,0.573842696906,0.818943786517,0.00404729969824,0.0,0.818920065689,-0.573767212994,-0.0119104242885,0.0,-0.00743190318502,0.0101493203356,-0.999920875926,0.0,0.456829860748,-0.00801431423735,0.304753582981,1.0,-0.27998,-0.367973714286,2.013
0.103463581524,-0.256386819199,-0.133411172256,-2.41120218825,-0.0283030308006,2.14915699981,-0.184141807894,-0.8061091606,-0.811964965517,-0.0112879669419,-0.856711570162,-0.135877941968,-0.005136629495,-0.727769521234,0.57385836209,0.818932370319,0.0041352151598,0.0,0.818909432028,-0.573782068225,-0.0119259054161,0.0,-0.0073939400399,0.0102303442122,-0.99992033168,0.0,0.452070912152,-0.0142654255461,0.304742688588,1.0,-0.27998,-0.367973714286,2.03
0.089570919014,-0.270368615205,-0.133762755455,-2.42477034832,-0.0306244277501,2.14898977544,-0.19654346489,-0.828884842722,-0.809017480188,-0.0316021032279,-0.783359385554,-0.136333685557,-0.00303737301284,-0.745259438021,0.573919446594,0.818888523614,0.00433608289302,0.0,0.818869254161,-0.573843965353,-0.0117044828654,0.0,-0.00709656832282,0.0102683129902,-0.999922097199,0.0,0.447372361836,-0.0205530617204,0.304826645845,1.0,-0.27998,-0.367973714286,2.047
0.0754629077404,-0.284074086126,-0.133992320311,-2.43808507853,-0.0328841606765,2.14852356863,-0.209260400763,-0.828904986737,-0.814444424729,-0.0115969889887,-0.795769691194,-0.132321626412,-0.0300108876837,-0.759872070708,0.573815784866,0.818961084962,0.00435123630124,0.0,0.818941758537,-0.573739904309,-0.011733082662,0.0,-0.00711259714725,0.0102962353794,-0.999921696184,0.0,0.44260561748,-0.0267438184084,0.304817081391,1.0,-0.27998,-0.367973714286,2.064
0.0609587574321,-0.297589666136,-0.134356127199,-2.45088535075,-0.0350698652264,2.14796366014,-0.222310062898,-0.865695771997,-0.791739212881,-0.0244649798877,-0.730519042728,-0.141426219155,-0.026036355869,-0.767370130093,0.573897306212,0.818902866051,0.00455244965534,0.0,0.818886533421,-0.573821352228,-0.0116037929235,0.0,-0.00689021912301,0.0103875252095,-0.999922309082,0.0,0.437896287096,-0.0330332876829,0.304886727237,1.0,-0.27998,-0.367973714286,2.081
0.0471476579212,-0.310068590843,-0.134564245175,-2.46273143241,-0.0371326703363,2.14722549678,-0.234798025682,-0.862880055344,-0.789780361318,-0.0152750610315,-0.756246191562,-0.130775033643,-0.0551477842453,-0.778371612824,0.573817585379,0.818958739792,0.00455061846396,0.0,0.818942086792,-0.573741203265,-0.0116463324049,0.0,-0.00692712176498,0.0104097637404,-0.999921822846,0.0,0.433404673756,-0.0388455523191,0.304869617975,1.0,-0.27998,-0.367973714286,2.097
0.0320654902512,-0.323080954901,-0.134938683588,-2.47484391661,-0.0393002648606,2.14630589128,-0.248433593741,-0.89521843503,-0.770944827422,-0.0209788370477,-0.698399258754,-0.128013782419,-0.0479840449344,-0.808183089095,0.573893883844,0.818904849794,0.00462644253501,0.0,0.818889115731,-0.573817159464,-0.0116288668006,0.0,-0.00686833554347,0.0104624804045,-0.999921678168,0.0,0.428658959351,-0.0451390560097,0.304891264478,1.0,-0.27998,-0.367973714286,2.114
0.0159524077119,-0.336576136512,-0.13516870467,-2.48732611854,-0.041481902331,2.14525061339,-0.263259796653,-0.899147773323,-0.738313456098,-0.0134016549276,-0.691870290627,-0.132524452372,-0.0707521175112,-0.8383208301,0.573689308541,0.81904771495,0.00470795092374,0.0,0.819032873692,-0.573612117258,-0.0116205699919,0.0,-0.00681739485695,0.0105227659336,-0.999921394173,0.0,0.423637725806,-0.0516456494941,0.304886825387,1.0,-0.27998,-0.367973714286,2.132
0.00205254428576,-0.347532929534,-0.135512965535,-2.49739655039,-0.043362183811,2.14414237284,-0.275820197507,-0.926858371214,-0.717006399231,-0.00840510106466,-0.655951302615,-0.11030659306,-0.0835479365244,-0.845885961488,0.573825076668,0.818952927467,0.0046509010272,0.0,0.818936559919,-0.573746840892,-0.0117567127968,0.0,-0.00695988859013,0.0105552927318,-0.999920069679,0.0,0.419406580442,-0.0572279189297,0.304844466395,1.0,-0.27998,-0.367973714286,2.147
-0.0128200999617,-0.359100387653,-0.135796087403,-2.50760712807,-0.0453171666029,2.14302882794,-0.28956835691,-0.940672689585,-0.704826290488,-0.0243761985275,-0.646109284821,-0.11739277077,-0.0748891257427,-0.870970226552,0.573684369188,0.819050532422,0.0048183804758,0.0,0.819037855436,-0.573608004279,-0.0114715164977,0.0,-0.00663201777346,0.0105276684074,-0.999922589273,0.0,0.415016212205,-0.0630761269135,0.304955053399,1.0,-0.27998,-0.367973714286,2.163
-0.0309366425686,-0.372413739977,-0.136175328176,-2.51961786112,-0.047526465468,2.14137871986,-0.306227183192,-0.95968298587,-0.69833881054,-0.0179474767812,-0.624756673684,-0.120038824961,-0.0919151217817,-0.878302068151,0.573689784365,0.819047004308,0.0047731488438,0.0,0.819032185079,-0.573611114503,-0.0117181920349,0.0,-0.0068599509294,0.0106321742912,-0.999919945767,0.0,0.409631500699,-0.0700468712231,0.304879749501,1.0,-0.27998,-0.367973714286,2.182
-0.0455438612329,-0.382702225321,-0.136522379635,-2.52851189977,-0.0492786938488,2.14007890303,-0.319588675683,-0.978308617268,-0.678968514052,-0.0246429189264,-0.582492246042,-0.116264569857,-0.0747336780993,-0.901005496432,0.573812962465,0.818959997337,0.00489425888421,0.0,0.818947618496,-0.573735268081,-0.0115493385329,0.0,-0.00665056536514,0.0106355065821,-0.999921324895,0.0,0.405198165195,-0.0759855177831,0.304958780227,1.0,-0.27998,-0.367973714286,2.198
-0.0652408898492,-0.39597056588,-0.13687198981,-2.54009972857,-0.051558331047,2.13826024107,-0.337946184296,-1.00092493961,-0.653329255079,-0.0201021117481,-0.565686232721,-0.117702634578,-0.102869927579,-0.923941331873,0.573655192171,0.81907057233,0.00488517546923,0.0,0.819057858708,-0.573577204702,-0.0115827991269,0.0,-0.00668523333136,0.0106459791863,-0.999920982269,0.0,0.399876756111,-0.082918287808,0.304939245582,1.0,-0.27998,-0.367973714286,2.217
-0.0813359037551,-0.406244492523,-0.137194360132,-2.54899723035,-0.0532028390096,2.13658265542,-0.352871815987,-1.00916339843,-0.638142902077,-0.0171213476622,-0.540405523027,-0.0933632815232,-0.106467286861,-0.941892729101,0.573723642963,0.819022435092,0.00491723724059,0.0,0.819008494286,-0.573642937942,-0.0118157918734,0.0,-0.00685679222995,0.0108064662845,-0.999918098989,0.0,0.39535337185,-0.0887731791808,0.304898660406,1.0,-0.27998,-0.367973714286,2.233
-0.0977080341259,-0.41626734195,-0.137575430762,-2.55730238626,-0.0549187832868,2.13513776265,-0.368161366285,-1.03375829932,-0.617534116244,-0.0271510690603,-0.511223321554,-0.115341231728,-0.0967869489444,-0.962135062038,0.573749331243,0.819003190334,0.00512113484678,0.0,0.818993615006,-0.573670767996,-0.0114915371775,0.0,-0.00647388489197,0.0107876462072,-0.99992085462,0.0,0.390958960448,-0.0947068353967,0.30501161927,1.0,-0.27998,-0.367973714286,2.249
-0.114279809003,-0.425861179747,-0.137830768658,-2.56550618851,-0.0566148539034,2.13340295041,-0.383717104799,-1.04238785983,-0.590821286494,-0.018341272477,-0.515252424874,-0.10334342527,-0.107876194114,-0.97537188883,0.573597543537,0.819110242406,0.00500157332196,0.0,0.819097911685,-0.573517399292,-0.0117111349894,0.0,-0.00672435076058,0.010814464737,-0.999918911942,0.0,0.386151470299,-0.100905630581,0.304940005748,1.0,-0.27998,-0.367973714286,2.266
-0.133235714244,-0.436257097407,-0.138205995605,-2.57430657256,-0.0584180419115,2.13151340858,-0.401481631634,-1.04646478201,-0.565169415477,-0.0163012029756,-0.478375900719,-0.0939909308742,-0.0997768952399,-1.0022066437,0.573663108097,0.819064389034,0.00499118484859,0.0,0.819050912964,-0.573581372223,-0.0118641608868,0.0,-0.00685479300972,0.0108942756649,-0.999917159854,0.0,0.381358510625,-0.107146443011,0.304882429085,1.0,-0.27998,-0.367973714286,2.283
-0.149322286093,-0.444641200493,-0.138562306241,-2.58098328535,-0.0597648565027,2.1299952889,-0.416625359828,-1.08903403331,-0.552114167958,-0.0235327962556,-0.435706474541,-0.0908286617899,-0.0973446809198,-1.01490785722,0.573771456566,0.818986947163,0.00523859789963,0.0,0.818977673726,-0.573690492567,-0.0116419747974,0.0,-0.0065294173004,0.0109703387713,-0.999918505868,0.0,0.377235201911,-0.112710281047,0.304995420626,1.0,-0.27998,-0.367973714286,2.298
-0.168831999039,-0.454214777644,-0.138823926027,-2.58889268117,-0.061502842265,2.12806563208,-0.435078537562,-1.09296111145,-0.5158217783,-0.0229366570879,-0.441314071282,-0.0991862924637,-0.111594447302,-1.0306847303,0.573663493094,0.819063106922,0.00515465536841,0.0,0.819052235075,-0.573581974823,-0.0117431374855,0.0,-0.00666188152997,0.0109587522603,-0.99991775916,0.0,0.372174750551,-0.119288288211,0.3049547449,1.0,-0.27998,-0.367973714286,2.316
-0.187459788419,-0.462805088033,-0.139178323292,-2.59588827821,-0.0630084892596,2.12623619716,-0.452842491225,-1.09375396991,-0.493419806922,-0.0247202874505,-0.401839233717,-0.0866085633916,-0.102491684887,-1.05950233789,0.573607305451,0.819102265326,0.0051850720045,0.0,0.819090911146,-0.573524251736,-0.0118641834577,0.0,-0.00674434485439,0.0110526404546,-0.999916172962,0.0,0.367404874555,-0.125508660882,0.304928781564,1.0,-0.27998,-0.367973714286,2.333
-0.20534517239,-0.470492868182,-0.139510317925,-2.60206248841,-0.0644427194476,2.1246146934,-0.469789405637,-1.12266640819,-0.476225564046,-0.012340440369,-0.371320348649,-0.0944596273726,-0.108029576724,-1.06498232337,0.573664176828,0.819062376834,0.00519441814459,0.0,0.819051230363,-0.573581221253,-0.0118495387472,0.0,-0.00672622016819,0.0110523632558,-0.999916298111,0.0,0.362920621218,-0.13142766928,0.304926232087,1.0,-0.279266857143,-0.367036440816,2.349
-0.224435882886,-0.478141253668,-0.139780060499,-2.60797465811,-0.0656451101835,2.12296412044,-0.487957695204,-1.12459831361,-0.438206988378,-0.0300688705761,-0.337503738746,-0.0761937900581,-0.0925748695177,-1.05735915319,0.573771301984,0.8189858521,0.00542346569534,0.0,0.818978313153,-0.57368860899,-0.011689713497,0.0,-0.00646245390072,0.011149137575,-0.999916963263,0.0,0.358274285523,-0.137644317373,0.30500866476,1.0,-0.2727,-0.358405714286,2.366
-0.244425240105,-0.485546352251,-0.139865938248,-2.61392382463,-0.0669028753787,2.12118975656,-0.50706563712,-1.10284411433,-0.399818323678,-0.000624873930741,-0.321743180711,-0.0673623453421,-0.10179898621,-1.06147779629,0.573682483837,0.819048210163,0.00540222813025,0.0,0.819039332574,-0.573598061853,-0.0118567295542,0.0,-0.0066126528486,0.0112268515347,-0.99991511171,0.0,0.353375928473,-0.143983979245,0.304958439973,1.0,-0.265746857143,-0.349267297959,2.384
-0.263339501227,-0.491880999042,-0.139959271878,-2.61900847672,-0.0679428498793,2.11961564448,-0.52500280731,-1.10774246305,-0.36086053953,0.00234740224065,-0.285381083861,-0.0522477709457,-0.0867943971092,-1.04622755179,0.573816587101,0.818954070209,0.00543158885553,0.0,0.818944216438,-0.573729733406,-0.0120544709568,0.0,-0.00675592410071,0.011365442483,-0.999912588283,0.0,0.348819480578,-0.149926948169,0.304898954828,1.0,-0.25918,-0.340636571429,2.401
-0.280904476887,-0.497342090408,-0.139979185376,-2.62321443984,-0.068789871649,2.11835270204,-0.541703215627,-1.09162480395,-0.334545518829,-0.00127706691839,-0.256214271955,-0.0499615812862,-0.0940298353085,-1.04347293871,0.573935100453,0.818870227352,0.00554960596984,0.0,0.818862390823,-0.573848583399,-0.0119555479867,0.0,-0.00660553595079,0.0114062918538,-0.999913127927,0.0,0.344702853023,-0.155400140254,0.304928119909,1.0,-0.252999428571,-0.332513534694,2.417
-0.299086134761,-0.502581724733,-0.139795394979,-2.62721878208,-0.0695491159789,2.11702764721,-0.559155673635,-1.06867173716,-0.294247081156,0.00963976831995,-0.220234005163,-0.0489795744384,-0.0781163645402,-1.01918858473,0.573844147861,0.81893357477,0.00560722575714,0.0,0.818926677429,-0.573757758399,-0.0119112792275,0.0,-0.00653748306345,0.0114273446489,-0.999913334799,0.0,0.340479778903,-0.160943653183,0.304957285875,1.0,-0.246432571429,-0.323882808163,2.434
-0.316107336309,-0.506959985094,-0.139708361283,-2.63054292116,-0.0702214327408,2.11594934568,-0.57540094413,-1.0572744092,-0.26470200808,0.0112125282511,-0.198182105934,-0.0348862530613,-0.0677640225834,-1.01674106227,0.573936542522,0.818868313829,0.00568125570496,0.0,0.818862878392,-0.573850742142,-0.0118177424112,0.0,-0.00641710554814,0.011435023779,-0.999914026798,0.0,0.336582592176,-0.166143971188,0.304986010866,1.0,-0.240252,-0.315759771429,2.45
-0.333801111315,-0.511206846013,-0.139557282301,-2.63374335482,-0.0708213760718,2.11484383987,-0.592403666845,-1.03213079259,-0.247342344545,0.00920565719206,-0.183013680973,-0.0377551347456,-0.0714884539443,-0.985780004091,0.573951158284,0.818857461642,0.00576821621969,0.0,0.818853427047,-0.573865529827,-0.0117543860204,0.0,-0.00631510782814,0.0114699879236,-0.999914275721,0.0,0.332534117109,-0.171474690318,0.305015930906,1.0,-0.233685142857,-0.307129044898,2.467
-0.351036437878,-0.514823898032,-0.139274807132,-2.6366352784,-0.0712863865439,2.11376897122,-0.609094663845,-1.01448623051,-0.202130149996,0.0126821621292,-0.162039781247,-0.021066240857,-0.0563065457304,-0.973158074067,0.573828724182,0.818943149373,0.0057844878327,0.0,0.818937908959,-0.573740503206,-0.0119700940834,0.0,-0.00648415642714,0.0116061436406,-0.999911622667,0.0,0.328590990951,-0.176565738028,0.304954300754,1.0,-0.227118285714,-0.298498318367,2.484
-0.367063946969,-0.51777726173,-0.139067671232,-2.6390216677,-0.0717018595968,2.11293011444,-0.624493274439,-0.987708094822,-0.170897419953,0.0265281674878,-0.14381094991,-0.0195346367288,-0.0475567761657,-0.957499657075,0.573880012205,0.818907042901,0.00580806161258,0.0,0.818901091262,-0.573789868518,-0.0121217332704,0.0,-0.00659409279501,0.011712873939,-0.999909659181,0.0,0.324955604583,-0.181305714821,0.304892357673,1.0,-0.220937714286,-0.290375281633,2.5
-0.384660025173,-0.520667171209,-0.138853860741,-2.64124686337,-0.0720593028601,2.11212204875,-0.641403099371,-0.975759761016,-0.151793298783,0.00870941536962,-0.112738907753,-0.0288396488675,-0.0424862087428,-0.92217574418,0.574007005766,0.818817323438,0.00590720499274,0.0,0.818812404187,-0.573915945255,-0.0121441934085,0.0,-0.00655376298509,0.0118079721581,-0.999908805834,0.0,0.321015741241,-0.186503754234,0.30488060774,1.0,-0.213984571429,-0.281236865306,2.518
-0.399803865311,-0.522890127858,-0.138544274036,-2.64291596894,-0.0723107875669,2.1114687249,-0.656162783172,-0.935410457298,-0.141735406286,0.0184009761861,-0.0987159500571,-0.014861413764,-0.0356088771322,-0.915526897383,0.573896430989,0.818894489146,0.00595391003008,0.0,0.818890219289,-0.573805264069,-0.0121274309051,0.0,-0.00651482684924,0.0118357158779,-0.999908732265,0.0,0.317653314101,-0.190922262152,0.304890305089,1.0,-0.207804,-0.273113828572,2.534
-0.415697533866,-0.52491465153,-0.138316472223,-2.64437919982,-0.0725630848971,2.11085511387,-0.671450783229,-0.926927811532,-0.110849351748,0.0205939907977,-0.0844136609251,-0.0134050167983,-0.0382299674129,-0.89144070842,0.57403675067,0.818795596348,0.00602720353559,0.0,0.818792602866,-0.573945827699,-0.0120667833172,0.0,-0.00642106434565,0.0118620351383,-0.999909026889,0.0,0.314130426098,-0.19558262254,0.304920691066,1.0,-0.201237142857,-0.264483102041,2.551
-0.431000139201,-0.526536162937,-0.13802366155,-2.64557140926,-0.0727187331311,2.11038058071,-0.686326793147,-0.904190633055,-0.0847788343207,0.00644632204165,-0.0712653313357,-0.015829558801,-0.0277994452953,-0.866516124518,0.574042136137,0.818791269989,0.00610155968921,0.0,0.818789586176,-0.573951533398,-0.0119999075003,0.0,-0.00632354170993,0.0118845748828,-0.999909380744,0.0,0.310765219128,-0.200033755419,0.304939325795,1.0,-0.194670285714,-0.25585237551,2.568
-0.447641662129,-0.527957235985,-0.137659902288,-2.64663786697,-0.0728498917608,2.10992974651,-0.702505698878,-0.859393900841,-0.0684687026405,0.0223270823394,-0.0494786052971,-0.00241949358947,-0.0180063139838,-0.842872661232,0.574045185597,0.818788768388,0.0061501671455,0.0,0.818787850788,-0.573954631158,-0.011970115907,0.0,-0.00627120028547,0.0119072987989,-0.999909440041,0.0,0.307110566949,-0.204845279317,0.304944996561,1.0,-0.187330857143,-0.246206269388,2.587
-0.459553957569,-0.528731466131,-0.137394331379,-2.64724569791,-0.0728918858251,2.10965664392,-0.714043542371,-0.862003395162,-0.0554303406812,0.0161568784156,-0.0382546913508,-0.00116466012908,-0.0154702759339,-0.817874434547,0.574110804484,0.818742401979,0.00619760257252,0.0,0.818741942365,-0.574019733143,-0.0119885226972,0.0,-0.00625808618206,0.0119572077918,-0.999908926622,0.0,0.304498170124,-0.208277438954,0.304935079873,1.0,-0.181922857143,-0.239098612245,2.601
-0.474363785359,-0.529439523478,-0.136963951332,-2.64780041203,-0.0729222171063,2.10936271009,-0.728476499866,-0.796400821733,-0.0343901500868,0.0263331669497,-0.0261303771072,-0.000112810619216,-0.0118466835284,-0.796572419867,0.574070357061,0.818770753215,0.00619884864713,0.0,0.818770157695,-0.573978998646,-0.0120118642516,0.0,-0.00627707505474,0.0119713179692,-0.999908638764,0.0,0.301271656147,-0.212516596768,0.304927484767,1.0,-0.174969714286,-0.229960195918,2.619
-0.487914915841,-0.529835936867,-0.136626887036,-2.6481299082,-0.072934482495,2.10915402975,-0.741602933467,-0.78750677449,-0.0189218410648,0.0128759215134,-0.0161994066276,-0.00025124237527,-0.0134944458018,-0.766344359584,0.574156048307,0.818710546231,0.00621454614704,0.0,0.818709897783,-0.574064113052,-0.0120517334368,0.0,-0.00629945462715,0.0120077172719,-0.999908061572,0.0,0.298310012717,-0.216407017954,0.304913277488,1.0,-0.168402857143,-0.221329469388,2.636
-0.500081921204,-0.530023960595,-0.136169235769,-2.64828894054,-0.0729293187169,2.10901333523,-0.753642513568,-0.737998244079,-0.00979458708881,0.0282919175391,-0.00685289761034,0.000724731680235,-0.00510010569914,-0.749986472585,0.573930740993,0.818868985017,0.00615116422728,0.0,0.818867481099,-0.57383907308,-0.012062897886,0.0,-0.00634827679372,0.0119604865553,-0.999908318869,0.0,0.295677413342,-0.219859394598,0.304909421246,1.0,-0.162222285714,-0.213206432653,2.652
-0.512725285557,-0.530083505012,-0.135797644444,-2.64837386921,-0.0729224294731,2.10891916303,-0.76589088931,-0.745625227939,-0.00257846572906,0.0176141327811,0.00341198790138,-0.000325248251006,-0.00730498247774,-0.715454482565,0.573990483146,0.818827320679,0.00612299514608,0.0,0.818825327639,-0.573898695823,-0.0120878720672,0.0,-0.00638402388084,0.0119522171519,-0.999908190158,0.0,0.292906734203,-0.223460399892,0.304894095233,1.0,-0.155655428571,-0.204575706123,2.669
-0.524788166181,-0.530016330446,-0.135358206133,-2.64833891278,-0.0728793461512,2.10885948973,-0.777695710288,-0.694343745112,0.00682691992909,0.0292753771298,0.00418414930361,0.0115731284019,0.00660748026647,-0.681301950027,0.573912487771,0.818882359129,0.00607331779514,0.0,0.81887976583,-0.573821020831,-0.012087682529,0.0,-0.00641351604878,0.0119108183257,-0.999908495423,0.0,0.290273061986,-0.226867811482,0.304891736558,1.0,-0.149088571429,-0.195944979592,2.686
-0.537756227959,-0.529789718458,-0.134941163756,-2.64817911993,-0.0728164760246,2.10885661287,-0.79029694303,-0.68112388728,0.00946011014159,0.0167592815099,0.0104353653181,0.00668619641749,-0.000191988975239,-0.65769731715,0.573954939853,0.818852814651,0.00604498620688,0.0,0.818850039668,-0.57386393366,-0.0120642065656,0.0,-0.00640993335026,0.0118744767695,-0.999908950633,0.0,0.287425962877,-0.230541244343,0.304892204072,1.0,-0.141749142857,-0.186298873469,2.705
-0.546908616202,-0.529502373328,-0.134588868709,-2.6479647351,-0.0727279983755,2.10887505423,-0.799209844799,-0.636957820769,0.0254079078742,0.0342875389602,0.0213397420224,0.00906987582513,0.00141997194753,-0.621299541198,0.573952667667,0.818854590017,0.00602018165786,0.0,0.818851596854,-0.573861961654,-0.0120523108929,0.0,-0.00641446033751,0.01184731945,-0.999909243742,0.0,0.285429234846,-0.23311846905,0.304895455198,1.0,-0.136341142857,-0.179191216327,2.719
-0.558040385092,-0.528957343742,-0.134088145561,-2.64758940546,-0.0725576839224,2.10893078071,-0.81019850762,-0.618531874286,0.0298107946665,0.0201175495977,0.0203360514546,0.00792062793938,0.00288187992596,-0.595543109321,0.573810961356,0.818954110519,0.00599102611512,0.0,0.818950554259,-0.573720071792,-0.0120836998546,0.0,-0.00645894808808,0.0118403415511,-0.999909040014,0.0,0.283018260469,-0.236234603306,0.304884756789,1.0,-0.129388,-0.1700528,2.737
-0.566506355468,-0.528474856579,-0.133784236338,-2.64723662365,-0.0723747421058,2.10901855469,-0.818342735916,-0.60002831968,0.0350053193851,0.0186797236736,0.0255343475253,0.0156426924426,0.00725344740781,-0.57448583597,0.573958114146,0.818850608357,0.00604245820259,0.0,0.818847790858,-0.573867100352,-0.0120662107679,0.0,-0.00641297952985,0.011873581731,-0.999908941729,0.0,0.281173654864,-0.23862064334,0.304884258342,1.0,-0.12398,-0.162945142857,2.751
-0.577151983737,-0.527624916895,-0.133233680067,-2.64664456619,-0.0721071542437,2.10916218606,-0.828916528989,-0.544177748903,0.0498730383582,0.0273252760315,0.0316199997952,0.0127972938224,0.00770502373613,-0.551080345583,0.573776291452,0.818978063244,0.00603706833066,0.0,0.818974942739,-0.57368490884,-0.0121002245989,0.0,-0.00644656762827,0.0118872585531,-0.999908563245,0.0,0.278898697755,-0.24159442011,0.304869197311,1.0,-0.116640571429,-0.153299036735,2.77
-0.586311368114,-0.526835117713,-0.132813240125,-2.6460849182,-0.071879421109,2.10928439946,-0.837811838294,-0.530066355763,0.0509380466997,0.025767221483,0.0391764949005,0.0161045594106,0.0110368260656,-0.512847430691,0.573824569072,0.818944139366,0.00605040730744,0.0,0.818940909181,-0.573732595329,-0.0121426202626,0.0,-0.00647293643738,0.0119228894534,-0.999907968666,0.0,0.276915854034,-0.244159221559,0.304855976456,1.0,-0.110073714286,-0.144668310204,2.787
-0.594547343086,-0.526037447922,-0.132444574357,-2.64548558669,-0.0716281862068,2.10942813439,-0.845745837332,-0.503693830339,0.0494168294401,0.0221323514952,0.0381292133861,0.0179600173975,0.0100520922737,-0.486410290797,0.573952211934,0.818854360215,0.00609442980253,0.0,0.818851700817,-0.573860010359,-0.0121378532325,0.0,-0.0064419085202,0.0119572121337,-0.999907759192,0.0,0.275141535209,-0.246475488636,0.304858228682,1.0,-0.103893142857,-0.136545273469,2.803
-0.602501831832,-0.525096706982,-0.13192987831,-2.64482822738,-0.0713185708489,2.10959916566,-0.853690147582,-0.457615802062,0.0574100169092,0.0309282776864,0.0395192584282,0.0169810957309,0.0180286466592,-0.457360952893,0.573765881092,0.818984841846,0.0061065065893,0.0,0.818981985403,-0.573673007758,-0.0121874794713,0.0,-0.00647834767357,0.0119941097113,-0.999907081855,0.0,0.273468252963,-0.248678672112,0.304840249608,1.0,-0.0973262857144,-0.127914546939,2.82
-0.610202954899,-0.524225286492,-0.131486379751,-2.64418903297,-0.0710593308523,2.10974913631,-0.861108151511,-0.446334774362,0.0524568903241,0.0318942095826,0.0363329487978,0.0257512734864,0.00778245800203,-0.428352027782,0.57383038819,0.818939615309,0.00611056213923,0.0,0.818936644412,-0.573737172906,-0.0122137531719,0.0,-0.00649659475701,0.0120130172655,-0.999906736487,0.0,0.271815754701,-0.250816606963,0.304835482191,1.0,-0.0907594285715,-0.119283820408,2.837
-0.617391059402,-0.523356560355,-0.131058009834,-2.64348166315,-0.0707679505844,2.10991953235,-0.868031212024,-0.40705796947,0.0495945135437,0.0189502101304,0.0390614502789,0.0139759850257,0.00965309029748,-0.397889902198,0.573907496793,0.818885398271,0.00613486148906,0.0,0.81888313437,-0.573814879281,-0.0121508625588,0.0,-0.00643001291868,0.0119974367079,-0.999907353932,0.0,0.270295493346,-0.252824909298,0.304863786376,1.0,-0.0841925714286,-0.110653093878,2.854
-0.624338391053,-0.522370610663,-0.130569161497,-2.64273502087,-0.0704377344041,2.11010723546,-0.87483040925,-0.372186403732,0.0469834882355,0.0271592873966,0.0417706218105,0.0208587594425,0.00694471305357,-0.364063701046,0.573864772297,0.818915185103,0.00615545499672,0.0,0.818913184428,-0.573772061544,-0.0121476196497,0.0,-0.00641616562188,0.0120121055075,-0.99990726677,0.0,0.26884752652,-0.254752269376,0.304869627011,1.0,-0.0772394285715,-0.101514677551,2.872
-0.630733011818,-0.521516241197,-0.130038910447,-2.64207757022,-0.0701239950413,2.11028692384,-0.881087162021,-0.354633773067,0.0457995479757,0.0323068639486,0.031916996518,0.0167525882341,0.00707234038647,-0.341680557785,0.573771950779,0.818980295896,0.00614575741112,0.0,0.818978381489,-0.57367970152,-0.0121143558922,0.0,-0.00639584563584,0.0119843508062,-0.99990772999,0.0,0.267516302652,-0.256494562491,0.304883242207,1.0,-0.0702862857144,-0.0923762612246,2.89
-0.6347928543,-0.520956264381,-0.129723385121,-2.64164470296,-0.0699165270097,2.1103995776,-0.884933237048,-0.334802507654,0.0412029677934,0.0254136397847,0.0383556032709,0.0174498118811,0.00285871907872,-0.31401972963,0.573835546977,0.81893567284,0.00615432176649,0.0,0.81893397856,-0.573743449932,-0.0120970790567,0.0,-0.00637585052925,0.0119819478765,-0.999907886485,0.0,0.266664536982,-0.25760436843,0.304891674586,1.0,-0.0656508571429,-0.0862839836736,2.902
-0.640871071359,-0.520003823613,-0.129220133705,-2.64091131544,-0.0695445419933,2.11059809235,-0.89082925699,-0.289571101799,0.0477251221128,0.0236039793939,0.0342644980582,0.0199968254048,0.00255250865564,-0.290830480886,0.573826538803,0.818941685331,0.00619405301369,0.0,0.818940665539,-0.573734565279,-0.0120657296728,0.0,-0.00632750850403,0.0119964287621,-0.999908019936,0.0,0.265414871786,-0.259271712421,0.30490422539,1.0,-0.0579251428572,-0.0761301877552,2.922
-0.645557795365,-0.519276989906,-0.128840487769,-2.64038845364,-0.0692468622859,2.11075551355,-0.895227692466,-0.266472879743,0.0399750384804,0.0169213512274,0.0296777752389,0.0183020467445,0.00594073205168,-0.252997377492,0.573948885143,0.818855579745,0.00624208811738,0.0,0.81885511453,-0.573856538652,-0.012071510122,0.0,-0.00630288168833,0.0120400273646,-0.999907651448,0.0,0.264434588612,-0.260543773228,0.304897258913,1.0,-0.0513582857144,-0.0674994612246,2.939
-0.649241793347,-0.518690855748,-0.12840135922,-2.63997742746,-0.0689855414105,2.11088402276,-0.898705236555,-0.236526446924,0.0361691697515,0.0307350633565,0.0266584699396,0.0161615196917,0.00957461438888,-0.212408781688,0.573940337764,0.818861632971,0.00623391024225,0.0,0.818860977486,-0.573847869598,-0.0120859012988,0.0,-0.00631948643136,0.0120415239448,-0.999907528621,0.0,0.263693511719,-0.261508100508,0.304890042389,1.0,-0.0455640000001,-0.0598841142858,2.954
-0.652912275032,-0.518110737594,-0.127845606763,-2.63953652319,-0.0687112119844,2.11100461597,-0.902287404283,-0.21572623523,0.0321639633415,0.0303874279234,0.0263841090507,0.0167588764714,0.00272566394345,-0.192160389822,0.573759048947,0.818989099817,0.0061769760509,0.0,0.818987819087,-0.573667091793,-0.0120733956517,0.0,-0.00634457370205,0.011986318925,-0.999908033043,0.0,0.262985050958,-0.262446802784,0.304900609822,1.0,-0.0389971428572,-0.0512533877552,2.971
-0.656105545081,-0.51755930377,-0.1273738599,-2.63914627668,-0.0684496622371,2.11113933198,-0.905214026436,-0.177377915463,0.0350981261582,0.0282239225802,0.0206879912606,0.0155681379242,0.00705385908848,-0.16867552473,0.5737773959,0.818976459327,0.00614865218471,0.0,0.818974881324,-0.573685693637,-0.0120671279383,0.0,-0.00635542228119,0.0119596671984,-0.999908283278,0.0,0.262337415403,-0.263314705402,0.304899313389,1.0,-0.0320440000001,-0.0421149714287,2.989
-0.658700742183,-0.517099905652,-0.126987631635,-2.63883355825,-0.0681715885311,2.11123125299,-0.907649901082,-0.155599769837,0.0264855456965,0.0153008884655,0.0206832339397,0.0198642279732,0.0105368512297,-0.150695002711,0.573767009841,0.81898347586,0.00618316973624,0.0,0.81898211733,-0.57367472442,-0.0120974772731,0.0,-0.00636062825356,0.0120052699426,-0.999907703692,0.0,0.261872212778,-0.263921986063,0.304887753544,1.0,-0.0262497142858,-0.0344996244899,3.004
-0.661132424344,-0.51671182904,-0.126542343288,-2.63858331345,-0.0678950038653,2.11129001772,-0.909803258985,-0.123771451653,0.0223721525065,0.0249637458779,0.0123841194177,0.0136604435081,0.000621871159838,-0.104167228832,0.573810350527,0.818953019302,0.00619521639576,0.0,0.818951480018,-0.573717365016,-0.0121492944853,0.0,-0.00639552130843,0.0120452044711,-0.999907000854,0.0,0.261410575054,-0.264500677761,0.304874168248,1.0,-0.0199446153846,-0.0262129230769,3.022
-0.662880054766,-0.516430475148,-0.126232247044,-2.63839523425,-0.067672366831,2.11133180206,-0.911297643982,-0.108320817954,0.0176436695938,0.0220064024256,0.0088199924369,0.0142210156163,0.00366917870826,-0.0983998333099,0.573902645288,0.818888099575,0.00622743983186,0.0,0.818886770105,-0.573809095896,-0.0121789209469,0.0,-0.00639993502798,0.0120893157949,-0.999906440261,0.0,0.2610797458,-0.264917864962,0.304866925565,1.0,-0.0196246153846,-0.0257923516484,3.038
-0.66440737203,-0.516170078753,-0.125989539151,-2.63819094017,-0.0675321256146,2.11141290457,-0.912837431637,-0.0928191363913,0.016803814644,0.0121575759067,0.00415158251535,0.00922150899418,0.00603319477923,-0.0873060624328,0.57380082091,0.818959510537,0.00621972075756,0.0,0.818958295736,-0.573707735868,-0.012144568834,0.0,-0.00637773102547,0.0120624877183,-0.999906906135,0.0,0.2607744049,-0.265335656481,0.304872422662,1.0,-0.0192846153846,-0.0253454945055,3.055
-0.666060785895,-0.515880377759,-0.125815909238,-2.63794882447,-0.0674231353426,2.11146904808,-0.914389960376,-0.0898734448755,0.0178376275331,0.0038944895891,0.0113092851612,0.00181528797605,0.00436965969252,-0.090002943796,0.573808983843,0.818953866915,0.00620973644489,0.0,0.818952703054,-0.573716284653,-0.0121178292757,0.0,-0.00636143869949,0.0120390315385,-0.999907292611,0.0,0.260461016663,-0.265758783124,0.304888494859,1.0,-0.0189446153846,-0.0248986373626,3.072
-0.667445692976,-0.515626031619,-0.125721494601,-2.6377569789,-0.0673884289628,2.1115063611,-0.915791219435,-0.0885677073987,0.0104808708984,0.00441665052196,0.0114736743313,0.00663470941002,0.00640041594034,-0.0891251089391,0.573753407183,0.818992973881,0.00618735643814,0.0,0.818991418012,-0.573660631137,-0.0121360787293,0.0,-0.00639004343856,0.0120307399728,-0.999907210015,0.0,0.260160321269,-0.266146414616,0.30488720936,1.0,-0.0186246153846,-0.0244780659341,3.088
-0.669038580592,-0.515346187612,-0.125691208036,-2.63751905927,-0.0673331587586,2.11156764838,-0.917309405328,-0.0833757343792,0.0150346321077,0.001137736075,0.0182685040369,0.000964113556312,0.000533532540783,-0.0829143613342,0.573828968538,0.818939891952,0.00620605646969,0.0,0.818938761538,-0.573736435583,-0.0121059587181,0.0,-0.00635353413186,0.0120293616062,-0.99990745925,0.0,0.259804706971,-0.266614531761,0.304897956904,1.0,-0.0182446153846,-0.0239786373626,3.107
-0.670282449107,-0.515130225555,-0.125642155828,-2.63732527306,-0.0672960083415,2.1116327666,-0.918566830915,-0.0786388367606,0.017168446689,-0.00146506448609,0.0146296749579,0.00115948376685,0.00569740656668,-0.0871309510641,0.573802567766,0.818958421604,0.00620191988372,0.0,0.81895754938,-0.573710650571,-0.0120568916879,0.0,-0.00631610709954,0.0119976155105,-0.999908077782,0.0,0.259517273019,-0.267004125505,0.304913754816,1.0,-0.0179246153846,-0.0235580659341,3.123
-0.671705575671,-0.514849859602,-0.1255950608,-2.63708868139,-0.0672611128459,2.11169474967,-0.920044817663,-0.079062943534,0.0143583168302,0.000474594758619,0.014837348291,0.000598347379642,0.00065901074098,-0.0820164762256,0.573757532257,0.818990041992,0.00619291505697,0.0,0.818989227284,-0.573665995881,-0.0120298655114,0.0,-0.00629979656741,0.0119743872104,-0.999908459117,0.0,0.259226131849,-0.267400969985,0.304923333571,1.0,-0.0175846153846,-0.0231112087912,3.14
-0.673089483324,-0.51456011539,-0.125566850021,-2.6368791453,-0.0672201318039,2.11173967531,-0.921411218251,-0.0734789045426,0.0120778871056,0.00271807503048,0.00849983432955,0.00484404658794,0.00490544874703,-0.0779221383638,0.573780344063,0.818973959657,0.00620621244302,0.0,0.818973140655,-0.573688407781,-0.0120562251315,0.0,-0.00631342385261,0.0120005773484,-0.999908059185,0.0,0.258913414702,-0.267805665838,0.304916010363,1.0,-0.0172246153846,-0.0226380659341,3.158
-0.674318429334,-0.514318681057,-0.125542175955,-2.63668216407,-0.0671846596856,2.11179413936,-0.922676115407,-0.0757625227272,0.0144656350862,0.00308613792579,0.0150848757987,0.00279200800303,0.00198225310855,-0.075782457234,0.573758706721,0.818989065092,0.00621326192132,0.0,0.818988440597,-0.573666939834,-0.0120384056555,0.0,-0.00629510084039,0.0119959607113,-0.999908230105,0.0,0.258640069394,-0.268170161283,0.304921535191,1.0,-0.0169046153846,-0.0222174945055,3.174
-0.675646452713,-0.514046963565,-0.125529639734,-2.63645061938,-0.067166237857,2.11187446561,-0.923966374944,-0.0708597417522,0.0129098869896,0.00410990795147,0.0200746319882,0.000191275275264,0.00723886434841,-0.0739957839428,0.573800497486,0.81895985196,0.00620458412016,0.0,0.818959415547,-0.573709333369,-0.0119926391028,0.0,-0.00626198268737,0.0119629151913,-0.999908833961,0.0,0.258346365617,-0.268576551314,0.3049334589,1.0,-0.0165446153846,-0.0217443516484,3.192
-0.676742871292,-0.513811579407,-0.125513270812,-2.63627440894,-0.0671216653335,2.11191044527,-0.925104956,-0.0741136537069,0.0210081324635,0.00199173006982,0.00808468736253,-0.000694938660344,-0.000976080925774,-0.0633613998295,0.573782583251,0.818972228872,0.00622755130538,0.0,0.818971975743,-0.573691103575,-0.0120069782526,0.0,-0.00626081150063,0.0119898158365,-0.999908519093,0.0,0.258099222276,-0.268899137808,0.304929980402,1.0,-0.0162446153846,-0.0213500659341,3.207
-0.677974629214,-0.513564075252,-0.125493699741,-2.6360804638,-0.0671024460746,2.1119273906,-0.926318954326,-0.0715185299591,0.00860628556165,0.0016350450679,0.0137468465987,0.00512659608965,0.000421348702114,-0.0670337000556,0.573801521053,0.818958950072,0.0062289193065,0.0,0.818958524669,-0.573709667785,-0.0120373943984,0.0,-0.00628466165136,0.0120085329823,-0.999908144863,0.0,0.257814382248,-0.269259913655,0.304928495732,1.0,-0.0159046153846,-0.0209032087912,3.224
-0.67909896628,-0.513337062885,-0.125482333344,-2.63590439294,-0.0670717281697,2.11197029718,-0.927424584959,-0.0716052879939,0.0169065277514,-0.000631219026118,0.0089472998623,0.00115310835716,0.000639137173213,-0.0634293041985,0.573831032619,0.818938181223,0.00624085245874,0.0,0.818937896896,-0.57373909366,-0.0120382862204,0.0,-0.00627811206214,0.0120190442041,-0.999908059716,0.0,0.257557690659,-0.269592764619,0.304928479233,1.0,-0.0155846153846,-0.0204826373626,3.24
-0.680303218469,-0.513074283687,-0.125463880679,-2.63570565088,-0.0670389856664,2.11206630959,-0.92871691827,-0.0689628869842,0.0146065943161,0.00017810406659,0.0111748652515,-0.00050826100124,0.00573349874908,-0.0694435610917,0.573770075255,0.818980865649,0.00624414478824,0.0,0.818980860964,-0.573678589275,-0.0119988534171,0.0,-0.00624481941711,0.0119986491139,-0.99990851314,0.0,0.257293226642,-0.269957283747,0.304930214516,1.0,-0.0152246153846,-0.0200094945055,3.258
-0.681377426787,-0.512839181061,-0.125441903413,-2.63552038081,-0.0670162945862,2.11208470924,-0.92978394434,-0.0625665519457,0.0113294641693,0.000656724807513,0.00995029432363,0.00466988803746,5.78167356685e-05,-0.0678995406212,0.573779641594,0.818974148623,0.0062460932574,0.0,0.818974007431,-0.573687834415,-0.0120245872231,0.0,-0.00626463898293,0.0120150827006,-0.999908191829,0.0,0.257048971288,-0.270274020892,0.30492950408,1.0,-0.0149046153846,-0.0195889230769,3.274
-0.682520056316,-0.512604887072,-0.125407225813,-2.63533766272,-0.0669835938147,2.11210538916,-0.93087198622,-0.0666238999111,0.0114198029644,0.000420391506374,0.00864129289014,0.000965495013068,0.000616824572999,-0.0695467079188,0.573823138353,0.818943638017,0.00625064343455,0.0,0.818943404058,-0.573731010563,-0.0120488741794,0.0,-0.00628128181427,0.0120330776811,-0.999907871026,0.0,0.256789438695,-0.270604096466,0.304928416532,1.0,-0.0145646153846,-0.0191420659341,3.291
-0.683551674154,-0.512379472926,-0.125395749391,-2.63516109708,-0.0669641451202,2.11215822877,-0.931953660228,-0.0623345166622,0.0124649134159,0.00101755356793,0.00993396233985,0.00311178236965,0.00349520295245,-0.0654021965162,0.57378486371,0.818970478737,0.00624756233229,0.0,0.818970316371,-0.573692971737,-0.0120308762732,0.0,-0.00626887059576,0.0120199342235,-0.999908106999,0.0,0.256542623748,-0.270935242137,0.304933208257,1.0,-0.0142246153846,-0.0186952087912,3.308
-0.684543616284,-0.512161721968,-0.125380806987,-2.63497687201,-0.0669332080181,2.1122118141,-0.932943388352,-0.0590936539817,0.0171310006302,0.00172113634211,0.00874766834071,0.000721801806427,0.00671630334671,-0.0656593868854,0.573805270586,0.818956113103,0.0062564495091,0.0,0.818956170074,-0.573713534659,-0.0120132655065,0.0,-0.00624904777613,0.0120172643624,-0.999908263172,0.0,0.2563384477,-0.271215756585,0.304938019157,1.0,-0.0139246153846,-0.0183009230769,3.323
-0.685650652019,-0.511933370588,-0.125344025865,-2.63478160944,-0.066907914899,2.11226022222,-0.934031533959,-0.0603272079058,0.0118540738005,0.00609565323253,0.008556650537,-0.000259330626846,0.00231127748448,-0.0613666799244,0.573815366129,0.818949111588,0.00624700919241,0.0,0.818949183476,-0.573723933684,-0.0119929021766,0.0,-0.00623763798916,0.011997925628,-0.999908566646,0.0,0.256094344983,-0.271543808036,0.304947188982,1.0,-0.0135646153846,-0.0178277802198,3.341
-0.686662216548,-0.511718895077,-0.125301044775,-2.63460621053,-0.0668815377073,2.11229942174,-0.935078815577,-0.0616430833526,0.0146953478501,0.00166670167561,0.0150892371801,-0.000101297028362,0.000261792459858,-0.0577600338459,0.573775810948,0.818976887148,0.00623890924169,0.0,0.818976890074,-0.573684491703,-0.0119876772529,0.0,-0.00623858523572,0.0119879925314,-0.999908679875,0.0,0.255871821977,-0.271839431719,0.304951819465,1.0,-0.0132246153846,-0.0173809230769,3.358
-0.687630858089,-0.511503032008,-0.125272024285,-2.63443932159,-0.0668517580131,2.11233962198,-0.936051574858,-0.0562315280099,0.0192881827652,0.0024422450539,0.010256775848,0.00330635711411,0.00131855412712,-0.0539524630177,0.573773138098,0.818978742863,0.00624112470985,0.0,0.818978752964,-0.573681768342,-0.0119907367479,0.0,-0.00623985918439,0.0119915420582,-0.999908629364,0.0,0.255656025859,-0.272124400777,0.304951815998,1.0,-0.0128846153846,-0.0169340659341,3.375
-0.688514694296,-0.511301921528,-0.125251961422,-2.63428159092,-0.0668314563614,2.11238541393,-0.936930852098,-0.0572430987959,0.0130104516257,0.0012399345634,0.0129482972132,0.00141066078495,0.00103039752268,-0.0528348741345,0.573779398271,0.818974378111,0.00623835068151,0.0,0.818974397748,-0.573688126724,-0.0119839889485,0.0,-0.00623583223916,0.0119854462171,-0.999908727572,0.0,0.255459248975,-0.272389015954,0.30495336334,1.0,-0.0125646153846,-0.0165134945055,3.391
-0.689454240416,-0.51109920479,-0.125232872515,-2.63410907661,-0.0668101073181,2.11243529325,-0.937902364726,-0.0500522648978,0.0140543889517,0.000678988555686,0.010043195904,0.000369070321929,0.00821959585197,-0.055082045065,0.573757560179,0.818989704757,0.00623478467648,0.0,0.818989831292,-0.573666603265,-0.011959575211,0.0,-0.00621820094329,0.0119683523721,-0.999909042123,0.0,0.255250733172,-0.272672318027,0.304961343298,1.0,-0.0122246153846,-0.0160666373626,3.408
-0.690328543331,-0.510919825154,-0.125222156573,-2.63395053426,-0.066787338162,2.1124873492,-0.938784248479,-0.0502166147524,0.0106765502791,-0.000217717529705,0.0079226076658,0.0026185581827,0.00466781078188,-0.0506364737662,0.573761507624,0.818986931403,0.00623582074955,0.0,0.818987294464,-0.573670975534,-0.0119235161729,0.0,-0.00618801368779,0.0119485426265,-0.99990946631,0.0,0.255055702876,-0.27293748388,0.304971600824,1.0,-0.0119046153846,-0.0156460659341,3.424
-0.691303152573,-0.510709680967,-0.125213165359,-2.63376677162,-0.0667643315992,2.11252247881,-0.93973213993,-0.0531041899013,0.0085986988413,0.00088260475998,0.00996848406603,0.000325806262879,0.000271514834714,-0.0534612780057,0.573796186561,0.818962611321,0.00623894599322,0.0,0.818963101446,-0.573705801179,-0.0119096207143,0.0,-0.00617433344557,0.0119433914569,-0.999909612419,0.0,0.254834921236,-0.273232099134,0.304980418635,1.0,-0.0115446153846,-0.0151729230769,3.442
-0.692179450894,-0.51051421431,-0.125210748109,-2.63362035073,-0.0667423977487,2.11255565147,-0.940596187586,-0.0523827702405,0.0134285284348,-0.000383877516322,0.00954788165341,0.00156192850474,-0.00014124090704,-0.054074035645,0.573821465156,0.818944818969,0.00624952087339,0.0,0.818945373972,-0.57373089005,-0.0119200316189,0.0,-0.00617642387845,0.0119582164498,-0.999909422322,0.0,0.254630923118,-0.273493036549,0.30497738212,1.0,-0.0112046153846,-0.0147260659341,3.459
-0.69296983712,-0.510333628296,-0.125200832486,-2.63346653335,-0.0667234914382,2.1125838139,-0.941409568117,-0.0475774583643,0.0106364581725,-0.000695168403791,0.01424577162,0.0033781760611,0.000461935830478,-0.0536252647736,0.573811510135,0.81895177927,0.00625147731816,0.0,0.818952391864,-0.573720991309,-0.0119143146449,0.0,-0.00617076421945,0.01195646338,-0.999909478229,0.0,0.254452804653,-0.273732176624,0.304982955013,1.0,-0.0108846153846,-0.0143054945055,3.475
-0.693779294147,-0.510144406901,-0.125180986478,-2.63331952809,-0.0667013605271,2.11262723871,-0.942232350492,-0.0443182289819,0.00494101452483,-0.000249345000102,0.0125299069423,0.00120575876478,0.00320292767011,-0.0472970332121,0.573803487064,0.818957404011,0.00625104385701,0.0,0.818958045003,-0.573713037698,-0.0119087279644,0.0,-0.00616655430411,0.0119528424181,-0.999909547492,0.0,0.254272476794,-0.273973918505,0.304983760216,1.0,-0.0105446153846,-0.0138586373626,3.492
-0.69447393253,-0.509976778452,-0.125151009396,-2.63319560865,-0.0666858353878,2.11266929366,-0.942901296178,-0.0468341978249,0.00695119671074,0.00299003533039,0.0117336534476,0.000575246560578,0.0026871456643,-0.044974925833,0.573816212742,0.818948563204,0.00624113152278,0.0,0.818949092637,-0.573725835153,-0.0119078397593,0.0,-0.0061713286837,0.0119443104752,-0.999909619991,0.0,0.254120337409,-0.274178895857,0.304982192884,1.0,-0.0102446153846,-0.0134643516484,3.507
-0.695292710446,-0.509780237339,-0.125123136918,-2.63303608557,-0.0666543976743,2.11269841541,-0.943698726112,-0.0475313005868,0.0083413926904,0.00129602606303,0.0140322127373,0.00120483534489,0.00489873320481,-0.051155399607,0.573835452304,0.818935054393,0.00624477912042,0.0,0.818935611929,-0.573745018145,-0.0119106914127,0.0,-0.0061712906266,0.0119490790612,-0.999909563251,0.0,0.253940178778,-0.274421300648,0.304984920882,1.0,-0.00988461538462,-0.0129912087912,3.525
-0.696042029345,-0.509591770238,-0.125101124757,-2.63290125337,-0.0666332801695,2.11273241027,-0.944480399535,-0.0448358983715,0.0113638772191,0.0029347829113,0.00929466568338,-3.89711672114e-06,0.00368819258771,-0.0505573971487,0.57380930369,0.81895336905,0.00624573626475,0.0,0.818953839998,-0.573718679502,-0.0119260908857,0.0,-0.00618373580416,0.0119585018427,-0.999909373716,0.0,0.253772076221,-0.274642468832,0.304979691092,1.0,-0.00954461538462,-0.0125443516484,3.542
-0.696776400911,-0.509423435566,-0.125071524653,-2.6327610375,-0.0666119618208,2.11276212905,-0.945212891319,-0.040345540186,0.0079597833672,0.00193153907406,0.00749815536372,0.000657521290035,0.00083126480447,-0.0505433789243,0.57380601487,0.818955713018,0.00624053806354,0.0,0.818956153029,-0.573715483867,-0.0119209852142,0.0,-0.00618258466517,0.0119512901638,-0.999909467057,0.0,0.253610629758,-0.274859296961,0.304984175142,1.0,-0.00920461538462,-0.0120974945055,3.559
-0.697473972777,-0.509250595928,-0.125060456468,-2.63262565919,-0.066581715087,2.11279400035,-0.945887046566,-0.0386853134589,0.0112031026367,-0.000746346451522,0.0101982736734,0.000331438219022,0.00338153438979,-0.0423257069565,0.57383719039,0.818933780446,0.00625212532894,0.0,0.818934359991,-0.573746583044,-0.0119213829731,0.0,-0.00617580658546,0.0119612434567,-0.999909389929,0.0,0.253454855472,-0.275068693917,0.304984537114,1.0,-0.00886461538462,-0.0116506373626,3.576
