nelsonifechukwu/NELSON_IML_WORK/CNN-GradCAM/train2dof/data_sample_2022-02-22-07-22-44/robot_state.csv
position_joint1,position_joint2,position_joint3,position_joint4,position_joint5,position_joint6,position_joint7,velocity_joint1,velocity_joint2,velocity_joint3,velocity_joint4,velocity_joint5,velocity_joint6,velocity_joint7,ee_T_00,ee_T_10,ee_T_20,ee_T_30,ee_T_01,ee_T_11,ee_T_21,ee_T_31,ee_T_02,ee_T_12,ee_T_22,ee_T_32,ee_T_03,ee_T_13,ee_T_23,ee_T_33,v_x,v_y,time
0.465067802562,0.547671988475,-0.124063309795,-1.35584828349,0.0795116987658,1.89415867138,0.1591290113,-0.00200327706351,0.00312798998011,0.00123963928448,-0.00026046320232,-7.2197833864e-05,0.000152166081441,-0.00140608720529,0.573842251177,0.81895150104,0.00206315545311,0.0,0.818910161323,-0.573783546711,-0.0118040715928,0.0,-0.00848332082619,0.00846337692702,-0.999928199682,0.0,0.661706129067,0.260848794076,0.303292009972,1.0,0.0,0.0,0.0
0.465073002224,0.547666081484,-0.124070823815,-1.35584578285,0.0795110898746,1.89415867138,0.159132639001,0.000490542810092,0.00174797877863,-0.00042532567822,0.00064872111097,-0.000508451800198,0.000276089754765,0.000741819631566,0.573845904627,0.818948928374,0.00206817760093,0.0,0.818907700254,-0.573787226102,-0.0117959538363,0.0,-0.00847375301065,0.00846286929947,-0.999928285105,0.0,0.661707262775,0.260848163312,0.303297632623,1.0,-0.00028,-0.000368,0.015
0.465067778549,0.547661018759,-0.124070853548,-1.35585116772,0.0795110898746,1.89416150744,0.159133439698,-0.00204012892826,0.00187549981245,-0.000939033203759,-0.00161151766946,-0.000796964696785,0.000217892749615,-0.0108087489922,0.573851163689,0.818945237449,0.00207048136425,0.0,0.818904038018,-0.573792474184,-0.0117949136874,0.0,-0.00847152486881,0.00846421345732,-0.999928292607,0.0,0.66170809746,0.260844309892,0.303298903441,1.0,-0.00058,-0.000762285714286,0.03
0.465072006418,0.547632406878,-0.1240680695,-1.35587239898,0.079512412303,1.89416028626,0.15913024683,0.000472241787669,-0.000796504811455,-8.3544238522e-05,-0.00140378427689,6.26403443107e-06,-2.89042730608e-05,-4.85239387225e-05,0.573844591836,0.818949821739,0.00207865214586,0.0,0.818908679205,-0.573785821637,-0.0117963092724,0.0,-0.00846804728255,0.00847163766817,-0.999928259192,0.0,0.66170192723,0.26084670669,0.30330887079,1.0,-0.0009,-0.00118285714286,0.046
0.465069057816,0.547519699029,-0.124070866213,-1.35597988943,0.0795089498746,1.89418439022,0.159132198691,-0.000560471413725,-0.00600631860075,-0.00239140069382,-0.0093851867229,9.89834916062e-05,0.000802431533067,0.000254466401152,0.573844848595,0.818949570095,0.00210672334397,0.0,0.81890871889,-0.573785894348,-0.011790015925,0.0,-0.00844678296184,0.00849101749646,-0.999928274667,0.0,0.661682655504,0.260836491197,0.303338259468,1.0,-0.00128,-0.00168228571429,0.065
0.46505957814,0.547367167857,-0.124068157315,-1.35620026544,0.0795078777472,1.89423454844,0.159128056461,-0.00244426090993,-0.0112829436792,-0.00118113582181,-0.0132424000675,-0.000355812812051,0.00462206854632,0.000687811033615,0.573869786852,0.818932112728,0.00209985295905,0.0,0.81889105059,-0.573810734396,-0.0118082707213,0.0,-0.00846541690642,0.00849612417437,-0.999928073709,0.0,0.661652093393,0.260807304188,0.303347148546,1.0,-0.00164,-0.00215542857143,0.083
0.465040692807,0.547214425069,-0.124065826631,-1.35639367333,0.0794987994329,1.89432718623,0.159120536788,-0.00455113271429,-0.00928010554021,0.000517410138493,-0.0142291860717,-0.00457134459069,0.00418310828094,-0.000427800553803,0.57388598731,0.818920640924,0.00214577233445,0.0,0.818880170242,-0.573826747514,-0.0117846307933,0.0,-0.00841953794491,0.00852032893517,-0.999928255114,0.0,0.661635158728,0.260780032314,0.303371237787,1.0,-0.00196,-0.002576,0.099
0.465034633077,0.54704332297,-0.124061091101,-1.35658295798,0.0795012713475,1.89444012544,0.159112992874,-0.00125227342942,-0.0122683037573,-5.02978218031e-05,-0.0128774088365,0.000244182276261,0.00894369085119,-0.00288978175822,0.573897391008,0.818912444361,0.00222260338071,0.0,0.818872920447,-0.57383780168,-0.0117500817918,0.0,-0.00834703506987,0.00856353588042,-0.999928493873,0.0,0.661623042574,0.260760188627,0.303406083872,1.0,-0.00224,-0.002944,0.113
0.465010516702,0.546843176472,-0.124066133205,-1.35683394307,0.0794931892788,1.89455901449,0.159090635884,-0.00216809758752,-0.0108695480635,0.000402387542688,-0.0163673207613,-0.000125959691746,0.0105170935231,0.000596094595364,0.573909893057,0.818903482824,0.00229507533441,0.0,0.818864862377,-0.573849990342,-0.0117163411206,0.0,-0.00827768296214,0.00860364627423,-0.999928726078,0.0,0.661598487866,0.260727357413,0.303444769261,1.0,-0.00258,-0.00339085714286,0.13
0.464978168349,0.546600115844,-0.124071232101,-1.35718436055,0.079486087463,1.89468814701,0.159027019945,-0.00120712742403,-0.0158036691155,-0.00103612244388,-0.0213312528405,0.000178642470239,0.00584638833521,-0.00733849164302,0.57390555273,0.818906452374,0.00232071269353,0.0,0.818868063633,-0.573845449854,-0.0117149880509,0.0,-0.00826190795213,0.00862382023746,-0.999928682758,0.0,0.661560272485,0.260672216977,0.303461488978,1.0,-0.00292,-0.00383771428571,0.147
0.46494548919,0.546328298961,-0.124068673962,-1.35758460875,0.0794637575389,1.89483705129,0.158955581769,-0.00212293056822,-0.0161425981366,-0.00200713715843,-0.0239748090556,-0.00695013964335,0.00771829392263,0.000134288134069,0.573888483412,0.81891835907,0.00234023200116,0.0,0.818880192869,-0.573828278093,-0.0117082829003,0.0,-0.00824539527007,0.00863578461509,-0.9999287158,0.0,0.661514483778,0.260614628161,0.303476275882,1.0,-0.00326,-0.00428457142857,0.164
0.464900395823,0.546031748272,-0.124066247045,-1.35808884114,0.0794415477732,1.89499849402,0.15891494583,-0.00111569594229,-0.0124823767703,-6.51052160562e-05,-0.0285937217482,-0.000527173542026,0.00701400697321,0.000561906921264,0.573912646247,0.818901523309,0.00230575374005,0.0,0.818862788677,-0.573852440318,-0.0117412504614,0.0,-0.00829192512319,0.00862671415115,-0.999928409328,0.0,0.661451203778,0.260537596211,0.303460156174,1.0,-0.00362,-0.00475771428571,0.182
0.464840213969,0.545694587795,-0.12406883162,-1.35866699697,0.0794000614581,1.8951847576,0.158837059222,-0.00500545880566,-0.0130567596357,-0.000332012698269,-0.0365101964219,-0.00736045906084,0.0103075457938,-0.00511555687968,0.573921158476,0.818895699376,0.00225483907152,0.0,0.818856330071,-0.573861171765,-0.0117649115429,0.0,-0.00834043145347,0.00859868646045,-0.999928247323,0.0,0.661383082063,0.260438005564,0.303439869144,1.0,-0.00398,-0.00523085714286,0.2
0.464774205155,0.545360552278,-0.124069434453,-1.35924795,0.0793704921396,1.89537296815,0.158760831863,-0.00172719777869,-0.0201330209487,0.000225405899827,-0.0341073539267,-0.000856810085809,0.0117360620736,-0.011833275736,0.573937726482,0.81888421645,0.00220750328549,0.0,0.818844143283,-0.573877828744,-0.0118005757612,0.0,-0.0083966297046,0.00858056196258,-0.999927932686,0.0,0.66131495625,0.26033740256,0.303416140919,1.0,-0.0043,-0.00565142857143,0.216
0.464709187918,0.544955251118,-0.124074816315,-1.35994985859,0.079334795601,1.89558183201,0.158678325471,-0.00600307868169,-0.0213675353505,9.6686091592e-05,-0.0422884428053,-0.00153344230259,0.017562296718,-0.00561136785943,0.573956632336,0.818871156155,0.00213558312672,0.0,0.818830037247,-0.573896902952,-0.0118516574719,0.0,-0.0084795391714,0.00855118165814,-0.999927484725,0.0,0.661226140022,0.26022167681,0.303387201531,1.0,-0.00464,-0.00609828571429,0.233
0.464650256501,0.544583792954,-0.124072638667,-1.36058171863,0.0793015061731,1.89579321893,0.158596762878,-0.00233959715706,-0.0258784196669,-8.71879527644e-05,-0.0406843022413,-0.000592581895119,0.00787598842204,-0.0063383997266,0.57396290708,0.818866858392,0.00209676502993,0.0,0.818825140695,-0.573903238622,-0.0118831210647,0.0,-0.008527517954,0.00853751900582,-0.999927193453,0.0,0.661149508519,0.260122795162,0.303367591508,1.0,-0.00494,-0.00649257142857,0.248
0.464589181965,0.544124914674,-0.124078341221,-1.36133841044,0.0792624409616,1.89606526777,0.158524073024,-0.00435180081223,-0.0299631899982,-3.0840043168e-05,-0.0434948619857,-0.000575449976997,0.0160605078457,0.000784172365206,0.573989200079,0.818848481182,0.00207604450678,0.0,0.818806444838,-0.573929563608,-0.0118999499756,0.0,-0.00855291731597,0.00853048562765,-0.999927036548,0.0,0.661061179247,0.260007450378,0.303355915513,1.0,-0.00528,-0.00693942857143,0.265
0.464505670235,0.543560767637,-0.124078071711,-1.362261991,0.0792207083007,1.89637084856,0.158386104301,-0.000134023819354,-0.0237140850164,0.00103782981738,-0.0502675704991,-0.000436590338128,0.0173958852972,-0.00329791685531,0.573984592403,0.818851805194,0.00203855705617,0.0,0.818809089081,-0.573924920332,-0.0119418742853,0.0,-0.00860881236619,0.00852380500004,-0.999926613856,0.0,0.660948397146,0.259864152068,0.303341949291,1.0,-0.00566,-0.00743885714286,0.284
0.464428035972,0.543055586386,-0.12408374253,-1.36306375057,0.079163513035,1.8966501899,0.15829414911,-0.00596902751638,-0.0294864258658,-9.29147618347e-05,-0.0530612158513,-0.00131471333206,0.0188979343808,-0.00380778628129,0.574009153194,0.818834630214,0.00202171041133,0.0,0.818791751968,-0.573949604771,-0.0119442451887,0.0,-0.0086201676657,0.00851162975123,-0.999926619742,0.0,0.660851556584,0.259725999597,0.303344546656,1.0,-0.006,-0.00788571428571,0.301
0.464358294531,0.542481738079,-0.124082220101,-1.36395450146,0.0791062444185,1.89696725869,0.158175522668,-0.00297833774904,-0.0354625771023,-0.000192323214608,-0.0514492579024,-0.0051278156471,0.0180194905326,-0.0081121745723,0.573999241609,0.818841590958,0.00201654429082,0.0,0.818798663627,-0.573939733903,-0.0119447558021,0.0,-0.008623653983,0.00850758833952,-0.999926624074,0.0,0.660751508308,0.259599555078,0.30335138007,1.0,-0.00632,-0.00830628571429,0.317
0.464286548616,0.541884624279,-0.124087548213,-1.36487174398,0.0790574259277,1.89731238377,0.158053449301,-0.00350777569887,-0.0366041874363,0.00113912368851,-0.0521358126925,-0.00602512307232,0.0191481905975,-0.00973414239035,0.573999753049,0.818841174692,0.00203986032118,0.0,0.818798518197,-0.573940115919,-0.0119363661697,0.0,-0.00860339606881,0.00852186991444,-0.999926676966,0.0,0.660647155606,0.259463539769,0.303367136181,1.0,-0.00666,-0.00875314285714,0.334
0.464190157842,0.541240708056,-0.124091115442,-1.36584697197,0.0790056653304,1.89766622417,0.157924619334,-0.00523613011102,-0.0374011255278,-0.000767671623769,-0.0604503403792,-0.00276460948365,0.0214511977979,-0.00923152026261,0.574015948756,0.818829764445,0.00206260380555,0.0,0.818787341313,-0.573956153193,-0.0119319243602,0.0,-0.00858653598483,0.00853811315334,-0.999926683324,0.0,0.660538395392,0.259306118926,0.303388992835,1.0,-0.007,-0.0092,0.351
0.464138192594,0.540670566335,-0.124095998139,-1.36670318795,0.0789511811759,1.89798359081,0.157808213278,-0.00384915309817,-0.0430336705811,-0.000366036145803,-0.0562169202,-0.00691008966224,0.0283208057443,-0.0125682088373,0.573999514361,0.818841223583,0.00208685764564,0.0,0.818799159347,-0.573939664102,-0.0119140892996,0.0,-0.0085581818553,0.00854756332503,-0.999926845666,0.0,0.660436671747,0.259187531295,0.303412124455,1.0,-0.00728,-0.009568,0.365
0.464035263745,0.539945155796,-0.12409431983,-1.36780752713,0.0788846009005,1.89837176817,0.157681755346,-0.00759656001712,-0.0498705138493,-0.000557962341734,-0.0643987653327,-0.00709069738157,0.0201150374736,-0.0102701630917,0.574022294903,0.818825230885,0.0020959775122,0.0,0.818783240531,-0.573962359675,-0.0119147641009,0.0,-0.00855326194391,0.00855565621483,-0.999926818551,0.0,0.660308065785,0.25901452952,0.303432726775,1.0,-0.00762,-0.0100148571429,0.382
0.463928427222,0.539104831784,-0.124094595905,-1.36908810119,0.0788027349646,1.89885290145,0.157524054357,-0.00407348824556,-0.0441396529881,0.000690275145199,-0.062435655591,-0.00467044879117,0.0243842513989,-0.00406519875178,0.574029815921,0.818819875947,0.00212793054558,0.0,0.818778343998,-0.573969792422,-0.0118931782689,0.0,-0.00851716688308,0.00856950737024,-0.999927008042,0.0,0.660162361471,0.258822249562,0.303458626651,1.0,-0.008,-0.0105142857143,0.401
0.463808695129,0.538340808556,-0.124100260285,-1.37028285354,0.0787498224773,1.89931620028,0.157382021253,-0.00850118748736,-0.04441097764,-0.00122650897027,-0.0740668422914,-0.00232692192806,0.0219782457394,-0.0102813826195,0.574067564696,0.81879331806,0.00216341529767,0.0,0.818752123268,-0.574007267556,-0.0118896736387,0.0,-0.0084935327525,0.00859694237706,-0.999926973575,0.0,0.660033633577,0.258630995297,0.303470012173,1.0,-0.00834,-0.0109611428571,0.418
0.463716593101,0.537655365628,-0.124101385731,-1.37137420209,0.0786775351553,1.89972980113,0.157246384194,-0.00531384638897,-0.0513746867046,0.00127905281452,-0.0766787197017,-0.00398480751347,0.0232570113476,-0.0117709609035,0.574073668076,0.818789034815,0.0021649458411,0.0,0.818747922866,-0.574013427733,-0.0118815186756,0.0,-0.00848591260552,0.00859357737191,-0.999927067198,0.0,0.659909517677,0.258465369942,0.303470495521,1.0,-0.00864,-0.0113554285714,0.433
0.463591451919,0.536720791192,-0.124110190783,-1.37282156566,0.0785976494086,1.90025776004,0.157067137349,-0.00923271368406,-0.050577122355,5.30521585484e-05,-0.0766596767598,-0.0108127510882,0.0278291967613,-0.00779360306842,0.574093858046,0.818774839185,0.00217985610893,0.0,0.8187338727,-0.574033506218,-0.0118796605348,0.0,-0.00847561988068,0.00860492785425,-0.999927056882,0.0,0.659742717226,0.258241037927,0.303487470814,1.0,-0.00902,-0.0118548571429,0.452
0.46348635167,0.535920620435,-0.12411866769,-1.37407322857,0.0785233838221,1.90072379864,0.156905759988,-0.0065690497012,-0.0532804832173,-0.00103328081058,-0.0777846339839,-0.00152835352986,0.0289780211303,-0.0158659005803,0.574102727317,0.818768592272,0.00219036471005,0.0,0.818727781801,-0.57404235201,-0.0118719968052,0.0,-0.00846321894492,0.0086092239392,-0.999927124939,0.0,0.659599530302,0.258048308797,0.303497163711,1.0,-0.00934,-0.0122754285714,0.468
0.463376091123,0.535069639286,-0.124121323657,-1.37540620039,0.0784428547648,1.90120346764,0.156758298414,-0.00914933930415,-0.0538247887736,-0.000180607127883,-0.0815417304693,-0.000292850469328,0.0378756242933,-0.0164322711111,0.574125681321,0.818752504465,0.00218755131165,0.0,0.8187116372,-0.574065293838,-0.0118760442013,0.0,-0.00846790667989,0.00860948144348,-0.999927083034,0.0,0.659441578078,0.257846502032,0.303504846605,1.0,-0.00966,-0.012696,0.484
0.463247050462,0.534124244447,-0.124119877131,-1.37695049471,0.078366629589,1.9017558218,0.15657204548,-0.0069164054484,-0.0570544342878,0.00136658512541,-0.0896047870879,-0.00323117637182,0.0325714199394,-0.000880497211613,0.574142053188,0.818741105797,0.00215669657457,0.0,0.818699625314,-0.574081573414,-0.0119171086332,0.0,-0.00851907095588,0.00860796562628,-0.99992666149,0.0,0.659254815042,0.257616484927,0.303484591353,1.0,-0.01002,-0.0131691428571,0.502
0.463126823089,0.533320690179,-0.124122845569,-1.37824988829,0.0782865823828,1.9022356414,0.156408082156,-0.00743496218893,-0.0554011713195,0.00306747317717,-0.0907225567566,-0.00682389437713,0.0393894583549,-0.0119572410156,0.574158033942,0.818729942005,0.00214033310278,0.0,0.818688255097,-0.574097625468,-0.0119249444613,0.0,-0.00853471325487,0.0085992338019,-0.99992660323,0.0,0.659105404033,0.257411412231,0.303474508346,1.0,-0.01032,-0.0135634285714,0.517
0.463001760853,0.532378646246,-0.124126031799,-1.37976476529,0.0782004750176,1.90281780262,0.156217470274,-0.00925397339301,-0.0562389821805,-0.000339661247778,-0.0898299108574,-0.00480543683882,0.0286390313465,-0.0106425121033,0.574166503407,0.818723981509,0.00214834103286,0.0,0.81868237301,-0.574106035148,-0.0119239016162,0.0,-0.0085291728668,0.00860527951104,-0.999926598493,0.0,0.658931180163,0.257185234854,0.303468241971,1.0,-0.01066,-0.0140102857143,0.534
0.462863881968,0.531345143636,-0.124123692757,-1.38142561632,0.078108248836,1.90342546576,0.156002621753,-0.00894411609298,-0.0598875303811,0.00039362006554,-0.0916531854858,-0.00702951704311,0.0292910235533,-0.011166031039,0.574167695159,0.81872317881,0.00213570041123,0.0,0.818681283391,-0.574107155237,-0.0119447659077,0.0,-0.00855350050794,0.00860692237396,-0.999926376548,0.0,0.658732360633,0.256938469739,0.303458782339,1.0,-0.01102,-0.0144834285714,0.552
0.462720871364,0.530257674143,-0.124123772978,-1.38317290347,0.0779894795423,1.90403469229,0.155779365302,-0.00869978969933,-0.0650493398321,-0.00575234483533,-0.0982801563409,-0.0122380698349,0.0385720223796,-0.0107581703621,0.574164994537,0.818725201786,0.00208564378894,0.0,0.818682688191,-0.574104695889,-0.0119666668103,0.0,-0.00860019938626,0.00857848680994,-0.999926220346,0.0,0.658517926086,0.256673241615,0.303446132344,1.0,-0.01138,-0.0149565714286,0.57
0.462610361012,0.529396747956,-0.124126620947,-1.38452744104,0.0779017002763,1.90453567646,0.155600308216,-0.00954807325268,-0.0637103574677,-0.000602129473996,-0.097118948175,-0.00436311036276,0.0389203892906,-0.00226947231972,0.574160855648,0.818728099437,0.0020875668068,0.0,0.818685656538,-0.574100595064,-0.0119603272421,0.0,-0.00859394810567,0.00857637784679,-0.999926292183,0.0,0.658357840958,0.25646912752,0.303451327498,1.0,-0.01166,-0.0153245714286,0.584
0.462466445096,0.528243086634,-0.124126966245,-1.38632021117,0.0777932534627,1.90521164769,0.155354390626,-0.00579837936177,-0.064272530045,-3.70236686648e-05,-0.103997577659,-0.000812845822189,0.0322043611795,-0.0172146801213,0.574145693949,0.818738653058,0.00211825639548,0.0,0.818696603487,-0.574085301931,-0.0119450595378,0.0,-0.00856398697761,0.00859257924767,-0.999926410147,0.0,0.65814662055,0.256204840769,0.303468959398,1.0,-0.01202,-0.0157977142857,0.602
0.462318100333,0.527113197453,-0.124129474931,-1.38806731953,0.0776843727126,1.90588258267,0.155107853206,-0.0112933879802,-0.0647891334938,0.000215867458627,-0.100154999881,-0.000294663919146,0.0397970632523,-0.0164292739669,0.574132419324,0.818747850743,0.00216076066149,0.0,0.818706405561,-0.574071906454,-0.0119169885204,0.0,-0.00851674071976,0.00861112383556,-0.999926654147,0.0,0.657945569683,0.255941104875,0.303490921834,1.0,-0.01236,-0.0162445714286,0.619
0.462176480911,0.526024966124,-0.124130973641,-1.38977087706,0.0775853983506,1.90651053185,0.154883088308,-0.00950768807861,-0.0664373890869,-0.000474160263115,-0.110354077588,-0.00267194434719,0.0358551865154,-0.0173344495343,0.574130725217,0.818749005842,0.00217317638588,0.0,0.818707662761,-0.57407010192,-0.0119175466771,0.0,-0.00851008775016,0.00862159186852,-0.999926620588,0.0,0.657742028798,0.255685730087,0.303500278503,1.0,-0.01268,-0.0166651428571,0.635
0.462008279848,0.524791861025,-0.124138365403,-1.39172155522,0.0774504057651,1.90721690261,0.154615461694,-0.0129509785395,-0.0644687463362,-0.00124710199272,-0.106125315284,-0.0017397141387,0.0390504920573,-0.0135363938073,0.574123080194,0.818754421102,0.00215258334704,0.0,0.81871293966,-0.57406267262,-0.0119129022292,0.0,-0.00851818762056,0.00860198557666,-0.999926720477,0.0,0.657509486481,0.255381576722,0.303500585661,1.0,-0.01304,-0.0171382857143,0.653
0.461851940673,0.523592845776,-0.124142248288,-1.39360011451,0.077334061696,1.90789628361,0.154366078462,-0.0148751455163,-0.073740120399,-0.000965032336621,-0.106962552574,-0.00760645449061,0.0448672506895,-0.0154277453434,0.574119104093,0.818757214864,0.00215042423677,0.0,0.818715692888,-0.574058693239,-0.0119154453358,0.0,-0.00852155117602,0.00860163647824,-0.999926694821,0.0,0.657282116769,0.255096590506,0.30350847722,1.0,-0.01338,-0.0175851428571,0.67
0.461706113672,0.522461154008,-0.12414295073,-1.39542319595,0.0772256169881,1.90859384136,0.154119146487,-0.0136490005442,-0.0644741776452,0.00101968584952,-0.116433239656,-0.00939430392331,0.0386399438563,-0.0193257394123,0.574105535402,0.818766718578,0.00215445372867,0.0,0.818725230476,-0.574045091114,-0.0119154207426,0.0,-0.00851936037899,0.00860478029919,-0.99992668644,0.0,0.657065234663,0.254828579061,0.3034966609,1.0,-0.0137,-0.0180057142857,0.686
0.461542152027,0.521294108727,-0.124151158269,-1.39729289261,0.0771073313425,1.90932516669,0.153863608721,-0.0119828034897,-0.0749811197042,-0.00060687274564,-0.11950154601,-0.00744575481391,0.0412110615226,-0.0175598900119,0.574104745255,0.818767227693,0.00217145853266,0.0,0.818726065075,-0.57404433767,-0.0118943540306,0.0,-0.00849235730384,0.00860660049434,-0.999926900476,0.0,0.656851321175,0.254539943037,0.303490359063,1.0,-0.01402,-0.0184262857143,0.702
0.461391487777,0.520092108297,-0.124157040555,-1.39920599803,0.0769828791167,1.91002522943,0.153601845994,-0.0118674473562,-0.0742541522367,-0.00667794964043,-0.12471907974,-0.0128591446395,0.0423042436019,-0.0142496365157,0.574082579268,0.818782779313,0.00216780604254,0.0,0.818741613252,-0.574022233824,-0.011890866564,0.0,-0.00849183140076,0.00860137796647,-0.99992694988,0.0,0.65660383517,0.254240327964,0.303491590978,1.0,-0.01436,-0.0188731428571,0.719
0.46122537909,0.518752856343,-0.12416246165,-1.40128185862,0.0768530189466,1.91077263766,0.153330010355,-0.00773485247459,-0.079663954282,-0.00131926769121,-0.126627658446,-0.00487084502987,0.0411102319531,-0.0123286077482,0.574078831839,0.818785421456,0.00216225516728,0.0,0.818744188467,-0.574018514586,-0.0118930931668,0.0,-0.00849688039299,0.00859807242388,-0.999926935418,0.0,0.656362004251,0.253942398808,0.303501898591,1.0,-0.01468,-0.0192937142857,0.735
0.461053859625,0.517408894253,-0.124163934986,-1.40339756256,0.0767134622903,1.91153230525,0.153046083354,-0.0093722450074,-0.0791287862651,-0.000759837777389,-0.126713358203,-0.0107334048458,0.0436405543027,-0.0149304239461,0.574062177356,0.818797140891,0.00214604265931,0.0,0.818755728508,-0.574001959541,-0.0118976627887,0.0,-0.00851010342882,0.008587248258,-0.999926915983,0.0,0.656099764214,0.253624541731,0.303503848604,1.0,-0.01502,-0.0197405714286,0.752
0.460861405973,0.516064977033,-0.124167129452,-1.4055378267,0.0765705802881,1.912330039,0.152737715474,-0.0127195280279,-0.0809138198865,-0.000170459633036,-0.124217754954,-0.0100227454378,0.0478785762391,-0.0111190908871,0.57404415244,0.818809797801,0.00213845169413,0.0,0.81876837956,-0.573984061262,-0.011890540375,0.0,-0.00850881759308,0.00857675692912,-0.999927016969,0.0,0.65584440598,0.253291110424,0.303497045445,1.0,-0.01536,-0.0201874285714,0.769
0.460671506366,0.514691897481,-0.124170294576,-1.40774838738,0.0764449950546,1.91315545708,0.152435332345,-0.014711012643,-0.0809724103468,-0.000934268227753,-0.134991843925,-0.00409299567802,0.052009063443,-0.0212113308412,0.574037190588,0.818814698682,0.00213071493786,0.0,0.818773078206,-0.573977029345,-0.0119064306255,0.0,-0.0085263431331,0.00857947119604,-0.999926844398,0.0,0.655576253077,0.252956108692,0.303479276973,1.0,-0.0157,-0.0206342857143,0.786
0.460466181248,0.513209033365,-0.124172493252,-1.41014483562,0.0763000815892,1.91399174065,0.152108661629,-0.0123706810988,-0.0839769233996,-0.00111824192262,-0.135141958985,-0.00932633888769,0.0467953258686,-0.0171433149263,0.574026016857,0.818822698732,0.00206565095819,0.0,0.81878010359,-0.573965996927,-0.0119550507062,0.0,-0.0086036191175,0.0085539887345,-0.999926400799,0.0,0.655272787922,0.252588706082,0.303450425542,1.0,-0.01606,-0.0211074285714,0.804
0.460261890109,0.511775567755,-0.124173860523,-1.41242938482,0.0761654473891,1.91481822178,0.151791524527,-0.0112304162127,-0.0864502453236,0.000254655367292,-0.132158788207,-0.00995976076239,0.0492317417476,-0.0273210392246,0.57401793051,0.818828414631,0.00204688715832,0.0,0.818785462786,-0.573957878577,-0.0119777481725,0.0,-0.00863305974903,0.00855156831154,-0.999926167754,0.0,0.654990743262,0.25223612842,0.30343885436,1.0,-0.0164,-0.0215542857143,0.821
0.460077607646,0.510396671934,-0.124174869886,-1.41462723201,0.0760243583419,1.91565544843,0.151481319226,-0.00906648854844,-0.091688929043,0.00136652016594,-0.13968710756,-0.00956090244229,0.0550618464642,-0.014507615049,0.573992402818,0.818846285668,0.00205641849322,0.0,0.818803512924,-0.573932368617,-0.0119662182091,0.0,-0.00861841412849,0.00855248569061,-0.999926286246,0.0,0.654724431669,0.251906164047,0.303430794831,1.0,-0.01672,-0.0219748571429,0.837
0.459860512038,0.508812889692,-0.124179917607,-1.41712151771,0.0758578437523,1.91657927546,0.151138409798,-0.0185237185482,-0.0909090408669,-0.000508103976255,-0.137603486813,-0.0102425542325,0.0494601896239,-0.0232960353866,0.573977757405,0.818856547265,0.00205813187644,0.0,0.818813899056,-0.573917819355,-0.0119533359339,0.0,-0.0086070345447,0.00854634048289,-0.999926436805,0.0,0.654419651111,0.251521764355,0.303432152115,1.0,-0.01708,-0.022448,0.855
0.459647461969,0.507308600305,-0.124189059123,-1.41949910572,0.0757073467853,1.91742608629,0.150798006852,-0.0127725241624,-0.0917606677445,-0.000243349050024,-0.144279883129,-0.00784095485357,0.0563748946666,-0.016709844424,0.573962482771,0.818867320075,0.00203159681311,0.0,0.818824315832,-0.57390264717,-0.0119682193613,0.0,-0.00863461116843,0.00853299405607,-0.999926313036,0.0,0.654123287477,0.25114790057,0.303426369799,1.0,-0.01742,-0.0228948571429,0.872
0.45945544473,0.505926748395,-0.124190127024,-1.42164426606,0.0755810339422,1.91822739396,0.150513111405,-0.0145732895957,-0.096302315251,0.000178432769774,-0.142898398349,-0.0102657969623,0.0520715847019,-0.0201364215906,0.57396414531,0.818866068698,0.00206599483275,0.0,0.818823444985,-0.57390409882,-0.0119581855924,0.0,-0.00860663522652,0.00855541949759,-0.999926362602,0.0,0.653860982343,0.250819297969,0.303440905915,1.0,-0.01772,-0.0232891428571,0.887
0.459218268872,0.504197973609,-0.124195074685,-1.42426639643,0.0754157787184,1.91923891737,0.150146523681,-0.00827656028187,-0.0982499351018,-0.000769176860212,-0.146255969512,-0.014478843958,0.0495046463443,-0.0244163340582,0.573952391405,0.818874059135,0.00216207725027,0.0,0.818832771627,-0.573892037853,-0.0118982309466,0.0,-0.00850251745243,0.00859956338084,-0.99992687468,0.0,0.653548753138,0.250414902155,0.303488605539,1.0,-0.01808,-0.0237622857143,0.905
0.458987042648,0.502520269667,-0.124198739442,-1.42674376357,0.0752554188102,1.92017125323,0.149806346128,-0.0122063493767,-0.10245256984,-5.63555526081e-05,-0.145030390735,-0.0119744881515,0.0510091478415,-0.0160617195168,0.57394954215,0.818875761712,0.00227086939751,0.0,0.818835975555,-0.573888845379,-0.0118315336197,0.0,-0.00838549093518,0.00865033940825,-0.999927424951,0.0,0.653250942252,0.250027211767,0.303561873615,1.0,-0.01842,-0.0242091428571,0.922
0.458763413439,0.500910278678,-0.124194087019,-1.42916038958,0.0751003826323,1.9210154331,0.149468914909,-0.0180933214354,-0.103144794903,0.00225474725548,-0.150641376471,-0.0149303134521,0.0541219590808,-0.0154653853126,0.573934262699,0.818886378514,0.00230392844055,0.0,0.818846952005,-0.573873366895,-0.0118226419095,0.0,-0.00835939819078,0.00867215101444,-0.999927454498,0.0,0.652943210534,0.249650753553,0.303608287344,1.0,-0.01874,-0.0246297142857,0.938
0.458505285607,0.499120619553,-0.124196619048,-1.43191050456,0.07492148166,1.92201993428,0.149077630648,-0.0131778945028,-0.0960112984855,5.06659744676e-05,-0.149701153838,-0.00855687323136,0.0526328801302,-0.0288565135208,0.573918644558,0.818897232282,0.00233651244303,0.0,0.818858260378,-0.573857657648,-0.0118019096187,0.0,-0.00832388582538,0.00868677573336,-0.999927623807,0.0,0.652602224992,0.249217469558,0.303634861683,1.0,-0.0191,-0.0251028571429,0.956
0.458268266145,0.497543845472,-0.124202284257,-1.43439339856,0.0747693309076,1.92294527154,0.148711849784,-0.00817710551585,-0.0972845191546,-0.00144903079509,-0.14929470003,-0.00135354970411,0.0606788914753,-0.0175903407332,0.573902385262,0.818908585221,0.00235120034183,0.0,0.818869782447,-0.573841321557,-0.0117967779274,0.0,-0.00831142683205,0.00869569332242,-0.999927649934,0.0,0.65229715255,0.248824027805,0.303632845675,1.0,-0.01942,-0.0255234285714,0.972
0.4580006799,0.495883813326,-0.124200015372,-1.4370808866,0.0746029899264,1.92389125722,0.148307584211,-0.0125789731417,-0.0940817455875,-6.14867613828e-05,-0.160169031491,-0.010171314928,0.0583300784373,-0.0283620514268,0.573879691413,0.818924682779,0.00228267852715,0.0,0.818884845718,-0.573818746214,-0.0118491707726,0.0,-0.00839389629423,0.00866941623316,-0.999927189213,0.0,0.651954299898,0.248391484222,0.303592509169,1.0,-0.01976,-0.0259702857143,0.989
0.457763886243,0.494390707559,-0.124199779908,-1.4395113074,0.0744524122494,1.92472275739,0.147966007878,-0.0180825334412,-0.0963186191969,-0.000241453843205,-0.164953071955,-0.0147938419942,0.0533570931761,-0.0199085428852,0.573875235167,0.818928048992,0.0021936130086,0.0,0.818886892208,-0.573814480272,-0.0119141470874,0.0,-0.00849826593923,0.00863372112682,-0.999926616475,0.0,0.651637247829,0.248001056047,0.303547819004,1.0,-0.0212297142857,-0.0279019102041,1.004
0.457477872014,0.492334208499,-0.124268733156,-1.44267863456,0.0742625220501,1.92588504353,0.1475251443,-0.0157788646966,-0.127038027324,-0.00179058097567,-0.200943937711,-0.0123233490662,0.0736909550576,-0.0329211787119,0.573905889242,0.818906480462,0.00222563524186,0.0,0.818865933029,-0.573845198383,-0.0118751386406,0.0,-0.00844762053519,0.0086378751862,-0.999927009746,0.0,0.651250800776,0.247474141883,0.303574589125,1.0,-0.0283114285714,-0.0372093061224,1.021
0.457064379256,0.489442239663,-0.124291023506,-1.44735051126,0.0740082096432,1.9276210437,0.14682417493,-0.0241666276345,-0.171551526017,0.000172070337594,-0.268124506449,-0.0108026912067,0.100239182279,-0.0333748796039,0.573852157378,0.818944204663,0.00219955067234,0.0,0.818902999116,-0.573791253223,-0.0119257144552,0.0,-0.00850457554221,0.00864498205339,-0.999926465536,0.0,0.650656951428,0.246752903023,0.303513776606,1.0,-0.0362262857143,-0.0476116897959,1.04
0.456581286013,0.486354450877,-0.124325180133,-1.45221621484,0.07371807171,1.92944770584,0.146122232179,-0.0302444393271,-0.210002084813,-0.0060653078261,-0.321620669246,-0.0190896839664,0.122330132825,-0.0486124412496,0.573866004821,0.818934376605,0.00224549004368,0.0,0.818893766857,-0.573804911452,-0.0119024828234,0.0,-0.00845904199816,0.00866941497875,-0.999926640235,0.0,0.650016331668,0.245903347544,0.303507377038,1.0,-0.043308,-0.0569190857143,1.057
0.456069993333,0.482971819474,-0.124416859586,-1.45747301187,0.073392757435,1.93135974133,0.145308424295,-0.0343477927103,-0.234183920324,-0.00767003911901,-0.368732545781,-0.0221969945895,0.12411104481,-0.0610749825773,0.573850552691,0.81894518666,0.00225196011165,0.0,0.818904883785,-0.573789663931,-0.0118726483995,0.0,-0.00843105914801,0.00865743366188,-0.999926980376,0.0,0.649403042601,0.245072982491,0.303517032154,1.0,-0.04914,-0.064584,1.071
0.455231805799,0.477690949538,-0.12451960496,-1.46571025197,0.0729106533545,1.93425881444,0.144071839818,-0.046155324734,-0.285553769246,-0.00256986244909,-0.439540076886,-0.0267110175055,0.153059331796,-0.0675058588965,0.573870138076,0.818931590026,0.0022050812053,0.0,0.818890443695,-0.573809196219,-0.0119245318747,0.0,-0.00850024363048,0.00864901920043,-0.999926467459,0.0,0.648347172947,0.243682222687,0.303510803444,1.0,-0.0574714285714,-0.075533877551,1.091
0.454398760253,0.472585123831,-0.124594910492,-1.47358527332,0.072436089284,1.93712053271,0.142933135603,-0.050922188133,-0.314618368182,-0.0015903655329,-0.47743595579,-0.0361783781995,0.168775871477,-0.0715712646375,0.573925989064,0.818892242121,0.00228073959283,0.0,0.818852013357,-0.573864667483,-0.0118941387481,0.0,-0.00843134440896,0.00869411094116,-0.999926659744,0.0,0.647349397312,0.242351427953,0.303545210627,1.0,-0.0645531428571,-0.0848412734694,1.108
0.453579547884,0.467574431105,-0.12464436705,-1.48115439275,0.0719689540986,1.93994670575,0.141722320323,-0.0584544777794,-0.341807855435,-0.000727304101943,-0.520400387987,-0.034375087802,0.199440303915,-0.0933809227597,0.573869870099,0.818930871814,0.00251918314738,0.0,0.818893781634,-0.573807680934,-0.0117671833742,0.0,-0.0081911408046,0.00881594514281,-0.99992758954,0.0,0.64632906296,0.240991186805,0.303656277232,1.0,-0.0712182857143,-0.0936011755102,1.124
0.452397646839,0.46066122838,-0.124700121061,-1.49185343199,0.0712738800477,1.94369798873,0.140062144152,-0.0677236197333,-0.372421827359,-0.00187410558484,-0.586186968577,-0.0418195390673,0.199330992512,-0.0885473218873,0.573837353378,0.81895382254,0.00246481590467,0.0,0.818915891518,-0.57377522785,-0.0118109028973,0.0,-0.00825849276968,0.00879618352739,-0.999927209577,0.0,0.644986556023,0.239254321034,0.303648448593,1.0,-0.0787165714286,-0.103456065306,1.142
0.451424048163,0.455117941063,-0.124769117834,-1.50045776418,0.0706936146056,1.94661501686,0.138771727759,-0.0708448563432,-0.405628394327,-0.00617197006061,-0.622188817892,-0.04774995897,0.213698841258,-0.0869667609094,0.573866514979,0.818933805604,0.00232205222425,0.0,0.818893982364,-0.573804900489,-0.0118881758145,0.0,-0.0084033859072,0.00872390857956,-0.999926635571,0.0,0.643828160875,0.237749647564,0.303620433585,1.0,-0.0845485714286,-0.111120979592,1.156
0.450247232178,0.448191785001,-0.124861417454,-1.51067264839,0.0699895568352,1.95046364992,0.137127361324,-0.0758124392484,-0.434241276003,-0.00664436529051,-0.652534928294,-0.0506428675249,0.243209092254,-0.10195545774,0.57382391941,0.818962313697,0.00275411635901,0.0,0.818928906963,-0.573761611797,-0.0115674141197,0.0,-0.00789322195876,0.0088932556299,-0.999929301027,0.0,0.642530313289,0.235973321866,0.303846724306,1.0,-0.0912137142857,-0.119880881633,1.172
0.448683744737,0.439579747224,-0.124893615156,-1.52389537261,0.0691361821757,1.95504814959,0.135062459779,-0.0856824450785,-0.461232804011,-0.000880998293725,-0.711934702987,-0.0480377014398,0.24052125734,-0.120959738278,0.573793972713,0.818983342436,0.00274018106463,0.0,0.818949190741,-0.573731081846,-0.0116454115545,0.0,-0.00796542439141,0.0089263078842,-0.99992843396,0.0,0.64072099746,0.233683837204,0.30384548799,1.0,-0.0991285714286,-0.130283265306,1.191
0.447239850581,0.431740789232,-0.124935392504,-1.5356808998,0.0683376244737,1.95923412736,0.133110912983,-0.0941608346757,-0.500215746562,-0.00206253476808,-0.755403330458,-0.0512432067684,0.270012076514,-0.125814622117,0.573704493324,0.819045372178,0.00292908775913,0.0,0.819013690279,-0.573641009963,-0.0115461562955,0.0,-0.00777673074601,0.00902321844702,-0.999929049477,0.0,0.639122844392,0.231610897063,0.30394868211,1.0,-0.105793714286,-0.139043167347,1.207
0.445555119506,0.423031115492,-0.124961061221,-1.54897789907,0.0673941267872,1.96381520771,0.130936133654,-0.100519055245,-0.529687879315,-0.000677256006253,-0.828116941982,-0.0572693075676,0.271952912342,-0.13820278639,0.573628466298,0.81909874064,0.00289527809896,0.0,0.819066577631,-0.573565052409,-0.0115680146838,0.0,-0.00781486638507,0.00900734146425,-0.999928895304,0.0,0.637268106834,0.229238428491,0.303943529353,1.0,-0.112875428571,-0.148350563265,1.224
0.443722355872,0.413785757827,-0.125087156706,-1.5629218015,0.0663747249222,1.96864592753,0.128679949962,-0.110615667531,-0.556353919332,-0.00556303454196,-0.855319606828,-0.0641606050126,0.298923012633,-0.135590035961,0.573672422019,0.819067778953,0.00294492735179,0.0,0.819036833804,-0.573609511433,-0.0114690961654,0.0,-0.0077048771261,0.0089916812673,-0.999929889811,0.0,0.635334937806,0.226656011566,0.303998574902,1.0,-0.119957142857,-0.157657959184,1.241
0.441841917716,0.404742683902,-0.125152867124,-1.57678338263,0.065467345769,1.97333317962,0.126371665752,-0.121591106121,-0.580966051324,-0.00310748819414,-0.892065551794,-0.059410650049,0.297799695369,-0.137609909442,0.573684902854,0.819059371544,0.00285044269561,0.0,0.819026406982,-0.573621377167,-0.0116192609423,0.0,-0.0078819414524,0.00900055571279,-0.999928429937,0.0,0.633346681242,0.224102642205,0.303922394368,1.0,-0.126622285714,-0.166417861224,1.257
0.439509821947,0.393944696903,-0.125303357203,-1.59282203936,0.0643297571658,1.97886608099,0.123616894193,-0.132164808352,-0.604192410133,-0.00566049737572,-0.893881805173,-0.0734457018618,0.317465045543,-0.154572096564,0.573767800291,0.8190005438,0.0030606381434,0.0,0.818970573503,-0.573703905117,-0.0114793680072,0.0,-0.00764585579175,0.00909323937884,-0.999929424453,0.0,0.631087955311,0.221014077403,0.30404327714,1.0,-0.134120571429,-0.17627275102,1.275
0.437168212327,0.383475141234,-0.125423135522,-1.60876658161,0.0631089254658,1.98408873828,0.120799673575,-0.142672800087,-0.62896934186,-0.00976093800017,-0.947371275161,-0.0721532237099,0.306621345406,-0.172917409947,0.573731808594,0.819026750247,0.00278228120067,0.0,0.818993349483,-0.573669013666,-0.0115975499318,0.0,-0.00790274727173,0.00893272508002,-0.999928873975,0.0,0.628735434753,0.217926057291,0.303934097178,1.0,-0.141202285714,-0.185580146939,1.292
0.434804714428,0.373034281541,-0.125510360549,-1.62417060372,0.0619974504203,1.98927842377,0.118021014999,-0.157327099568,-0.653785575265,-0.0016838311342,-0.98436110788,-0.0691689639954,0.323468987066,-0.179670806366,0.573715277421,0.819037711854,0.00295870176632,0.0,0.819006442279,-0.573651731454,-0.0115275932176,0.0,-0.00774441828509,0.00903692613708,-0.999929176468,0.0,0.626468852719,0.214932215744,0.304029675784,1.0,-0.147867428571,-0.19434004898,1.308
0.43207646331,0.361586940549,-0.125659477434,-1.64108281799,0.0606560824021,1.99492299294,0.115045610654,-0.158813078697,-0.694675680223,-0.00476294517952,-0.996780953953,-0.0813083474664,0.339750624442,-0.184157123268,0.573845732611,0.818946077655,0.0030238979848,0.0,0.818916401429,-0.573782852052,-0.0113979411823,0.0,-0.00759938472626,0.00901715317216,-0.999930467733,0.0,0.623963308206,0.211524753989,0.304089083284,1.0,-0.154949142857,-0.203647444898,1.325
0.429169850994,0.34986874402,-0.125781096479,-1.65867182708,0.0593464722547,2.00054961056,0.111770751009,-0.174480409252,-0.687567809533,-0.0108795201119,-1.05393708685,-0.07265529393,0.334595555311,-0.195968353861,0.573868540882,0.818930884478,0.00280198758369,0.0,0.818897713647,-0.573805633826,-0.0115920694224,0.0,-0.00788545922315,0.00894703744941,-0.999928882498,0.0,0.621250455775,0.207973030443,0.303971705036,1.0,-0.162030857143,-0.212954840816,1.342
0.426238743634,0.338287488433,-0.125914536856,-1.67543488365,0.0580309581411,2.00605999704,0.108582553362,-0.188783342661,-0.710759610001,-0.0017498116714,-1.0593388276,-0.0838118514988,0.337359880098,-0.201552929295,0.573933966221,0.818884224621,0.00302918904206,0.0,0.818854332668,-0.573870721524,-0.0114334487408,0.0,-0.00762445470005,0.00904268325464,-0.999930046338,0.0,0.618691563917,0.204500998325,0.304108437873,1.0,-0.168696,-0.221714742857,1.358
0.423198406871,0.326472607549,-0.125978335748,-1.69274965782,0.0565841312698,2.01157555488,0.105196639976,-0.189530896521,-0.764332549742,-0.00662701845712,-1.08751109395,-0.0997391930184,0.356280706022,-0.216014549237,0.573822777701,0.818962360424,0.00296966355663,0.0,0.818931994675,-0.573760076037,-0.011424103672,0.0,-0.00765218384917,0.00898753643971,-0.999930331709,0.0,0.615945035466,0.200947090274,0.304101027128,1.0,-0.175361142857,-0.230474644898,1.374
0.419765652426,0.313542893148,-0.126010350294,-1.71165707534,0.0550651358155,2.01746841585,0.101492595666,-0.202108577209,-0.770321581999,0.00137571751433,-1.12214545456,-0.0871661312265,0.345365418793,-0.226992240034,0.573750552147,0.819013296409,0.00287595509565,0.0,0.818981134861,-0.573687475338,-0.0115467867435,0.0,-0.00780722276895,0.00898050114014,-0.999929196429,0.0,0.612868882506,0.197047156867,0.304057699843,1.0,-0.182442857143,-0.239782040816,1.391
0.416311938826,0.300960789745,-0.126124825918,-1.72970266201,0.0535143394739,2.02315012834,0.0977236932219,-0.22215701724,-0.79724557306,-0.012776911552,-1.14893152953,-0.101963982643,0.346802257698,-0.235351788795,0.573635919165,0.819093223971,0.00297818567138,0.0,0.819062940941,-0.573573183221,-0.0114214346197,0.0,-0.00764715950077,0.00899123977014,-0.999930336853,0.0,0.609943162696,0.193185203126,0.304136181172,1.0,-0.189108,-0.248541942857,1.407
0.412377745531,0.287229439217,-0.126242199345,-1.74926630417,0.0519574007727,2.02911965529,0.0936882631846,-0.233342185336,-0.801757800304,-0.00769364466015,-1.16011189165,-0.101440832584,0.36546408075,-0.249209100181,0.573715860575,0.819036783935,0.00309915912696,0.0,0.819007303644,-0.573651844596,-0.0114605702314,0.0,-0.00760893673013,0.00911352033664,-0.999929521431,0.0,0.606694898433,0.188927321028,0.304214870288,1.0,-0.196189714286,-0.257849338775,1.424
0.407961014038,0.272414961472,-0.126401324266,-1.77047451767,0.0501390637281,2.03549362597,0.0891302861369,-0.252343202375,-0.837125785092,-0.00573050331462,-1.1802435853,-0.110242789103,0.37648357489,-0.260135682808,0.57371690927,0.819036311241,0.00302915623611,0.0,0.819005741827,-0.573652891403,-0.0115196327789,0.0,-0.00769746150468,0.00909007947628,-0.999929057254,0.0,0.603108033456,0.184216290166,0.304190711421,1.0,-0.203688,-0.267704228571,1.442
0.403481012882,0.258073641858,-0.126585055577,-1.79087828048,0.0483347224642,2.04148420977,0.0846648880066,-0.271370216699,-0.83788791481,-0.00706089688798,-1.20583594853,-0.104204734529,0.343360033346,-0.27229457097,0.573807170766,0.818973523367,0.00290614889678,0.0,0.818941273635,-0.573743435728,-0.0115934118082,0.0,-0.00782746416655,0.00903252201211,-0.999928569624,0.0,0.599597806561,0.179555174921,0.30415534326,1.0,-0.210769714286,-0.27701162449,1.459
0.399006927739,0.244205991944,-0.126742763247,-1.81031218672,0.0465730116259,2.0471763077,0.0802488617353,-0.285578261449,-0.87163036295,-0.01365014747,-1.21762708023,-0.109377987807,0.354421692078,-0.284214582105,0.573864870677,0.818932951909,0.00294573965744,0.0,0.818901384227,-0.573801195151,-0.0115524134089,0.0,-0.00777053268545,0.0090419685959,-0.999928928287,0.0,0.596216160793,0.175039119632,0.304196805542,1.0,-0.217434857143,-0.285771526531,1.475
0.393812591243,0.228222222199,-0.126860904506,-1.83248820474,0.0446258727015,2.053616508,0.0750602753648,-0.29506146961,-0.873247994291,-0.00492528809019,-1.24952686349,-0.11175770918,0.352917393013,-0.286344021129,0.573814608057,0.818967442875,0.00314165458647,0.0,0.81893784898,-0.573749652099,-0.0115274943304,0.0,-0.00763826638879,0.0091876413809,-0.999928619519,0.0,0.592261645639,0.169929488958,0.304271730022,1.0,-0.224933142857,-0.295626416327,1.493
0.388585691061,0.212784499016,-0.126985235277,-1.85375798941,0.0425789549237,2.05959310495,0.0699039703449,-0.315356098243,-0.924945470007,-0.0112406481837,-1.24885969417,-0.111986357572,0.363025377902,-0.293573756272,0.573716526272,0.819036015481,0.00317800706002,0.0,0.819007194082,-0.573651836508,-0.0114688017438,0.0,-0.00757043785055,0.00918282853985,-0.999929179558,0.0,0.588388984746,0.164898585445,0.304324870893,1.0,-0.232014857143,-0.304933812245,1.51
0.383307461748,0.198075775828,-0.127152501251,-1.87398373813,0.0406484950712,2.06507990899,0.0648339501598,-0.332330599191,-0.940498222141,-0.0134565480232,-1.24639563724,-0.127955762068,0.349797520215,-0.325205131048,0.573744779183,0.819016500243,0.00310605711639,0.0,0.818986450948,-0.573679950631,-0.0115435830148,0.0,-0.00767264999015,0.00916706567643,-0.999928545122,0.0,0.584640416984,0.159952361063,0.30431482598,1.0,-0.23868,-0.313693714286,1.526
0.377327721268,0.182152167703,-0.127392973186,-1.89575342162,0.0385756060178,2.07091888865,0.0591626878982,-0.361158660346,-0.933600927673,-0.0171727136551,-1.27382359015,-0.117636057095,0.33820347182,-0.339816262995,0.573852691631,0.818941031818,0.00306946479368,0.0,0.818909994248,-0.57378735542,-0.011629229667,0.0,-0.00776258271,0.00918725702571,-0.999927665693,0.0,0.580557138888,0.154481655949,0.304286131686,1.0,-0.245761714286,-0.323001110204,1.543
0.371051757179,0.165902011255,-0.127594245032,-1.91773985796,0.0363489857077,2.07671084203,0.0533276132418,-0.370998395361,-0.937669553224,-0.0143609795994,-1.30660296184,-0.132149424748,0.328426457867,-0.348774909506,0.573935951676,0.818882798627,0.00303848450167,0.0,0.8188514686,-0.57387083557,-0.011631137296,0.0,-0.00778099042854,0.00916377178059,-0.999927738126,0.0,0.576349953922,0.148893163931,0.304273759563,1.0,-0.252843428571,-0.332308506122,1.56
0.36496656752,0.150243721839,-0.127740838536,-1.93849943878,0.0342126337624,2.08209205366,0.0475581276165,-0.385726393521,-0.982035735549,-0.0115113233039,-1.31396685053,-0.146275241822,0.336452198859,-0.367201779436,0.573840366004,0.818949144072,0.00320634827986,0.0,0.818920241238,-0.573775029148,-0.0115152646097,0.0,-0.00759083966537,0.00923384494525,-0.999928555078,0.0,0.572293544799,0.143613553394,0.304369263626,1.0,-0.259508571429,-0.341068408163,1.576
0.357701360839,0.132378932582,-0.127940689776,-1.96212431606,0.0317955245974,2.0879002415,0.0407447958923,-0.408991829625,-1.00145573479,-0.0126424096313,-1.31943195134,-0.134457582244,0.318818216591,-0.386499508724,0.573788410647,0.818985472491,0.00322529946708,0.0,0.818956156855,-0.57372222084,-0.0115919526206,0.0,-0.00764336197937,0.00929288584359,-0.999927608025,0.0,0.567556278092,0.137466856928,0.304390991156,1.0,-0.267006857143,-0.350923297959,1.594
0.350315594659,0.115203829691,-0.128214201363,-1.98458672278,0.0293333868855,2.0933675485,0.0340311259136,-0.447408050134,-1.0093209032,-0.0205311961152,-1.31927883218,-0.144768864956,0.33244894839,-0.396943500054,0.573887940702,0.818915527615,0.00327674370343,0.0,0.818887402291,-0.573822218999,-0.0114991414238,0.0,-0.00753670222807,0.00928268145121,-0.999928512417,0.0,0.563016061224,0.131373688282,0.304429917844,1.0,-0.274088571429,-0.360230693878,1.611
0.342637208211,0.0977543642482,-0.128442056583,-2.00711582136,0.0268193110925,2.09862965711,0.0269640844896,-0.46010568335,-1.04968325012,-0.0170537476594,-1.32182162589,-0.159831353412,0.331011015513,-0.42103210038,0.573828967092,0.818956569292,0.00334679572882,0.0,0.818929661366,-0.573763432021,-0.0114228154147,0.0,-0.00743466386033,0.0092957116348,-0.99992915525,0.0,0.558341584311,0.125219774502,0.304489107298,1.0,-0.281170285714,-0.369538089796,1.628
0.334624250345,0.0800729193584,-0.128626687688,-2.02983129322,0.0244303800054,2.10355831457,0.0195469362085,-0.483535980277,-1.0611694791,-0.0167364541779,-1.31974495112,-0.146860639326,0.286003584687,-0.444112596431,0.573724528209,0.819029827404,0.00332482411695,0.0,0.819000873142,-0.573656889146,-0.0116657716922,0.0,-0.00764745395293,0.0094161545053,-0.999926423534,0.0,0.553463978497,0.118997214082,0.304473929365,1.0,-0.288252,-0.378845485714,1.645
0.326134804494,0.0622258419354,-0.12888934382,-2.05260079491,0.0217717712677,2.10849193557,0.0118565813474,-0.506766937184,-1.03846994047,-0.0141239157266,-1.32773736434,-0.150421356465,0.267101458144,-0.453516107739,0.573686279979,0.819056876947,0.0032605812289,0.0,0.819027134054,-0.573618912844,-0.0116894573222,0.0,-0.00770414767648,0.00937676631721,-0.999926358469,0.0,0.548531581167,0.112540105864,0.304433360983,1.0,-0.28998,-0.381116571429,1.662
0.317753784293,0.0454179809362,-0.129150356032,-2.07361679507,0.0192548735892,2.11285872477,0.00446486013059,-0.523739734409,-1.02510145839,-0.00817505404779,-1.32075335212,-0.160614533089,0.264034676977,-0.460647629315,0.573797381219,0.818978812558,0.00331915483921,0.0,0.818950167688,-0.573730222352,-0.0116190234137,0.0,-0.00761158110103,0.00938536831667,-0.999926986682,0.0,0.543907814707,0.106364354322,0.304479164458,1.0,-0.28998,-0.381116571429,1.678
0.309244155104,0.0287350484941,-0.129318731175,-2.09411764706,0.0168444994785,2.11688547101,-0.00309528268449,-0.541195332803,-1.03804937282,-0.013948642719,-1.27416432042,-0.1586660578,0.242514710804,-0.464760906408,0.573803856943,0.818973592797,0.00348352697033,0.0,0.818946859884,-0.573735907899,-0.0115713255207,0.0,-0.00747812950328,0.00949267745087,-0.999926980661,0.0,0.538992186173,0.0999244661164,0.304576410662,1.0,-0.28998,-0.381116571429,1.695
0.299896782978,0.0112098645605,-0.129557006483,-2.11549582246,0.0141460368454,2.12091988246,-0.0113195615586,-0.556989945473,-1.03151191045,-0.0182272920533,-1.24519309235,-0.158452814465,0.228271563946,-0.488078663163,0.573829292542,0.818955466569,0.00355439151042,0.0,0.818930073305,-0.573761667225,-0.0114817751808,0.0,-0.00736383072783,0.00949955992529,-0.99992776357,0.0,0.534376510698,0.0937931052539,0.304643623617,1.0,-0.28998,-0.381116571429,1.711
0.290814149225,-0.00508586571189,-0.129770224383,-2.13519872321,0.0117419115046,2.12437287086,-0.0193177920656,-0.568188843372,-1.03324288982,-0.00952448093568,-1.21222171705,-0.143733318947,0.230338511227,-0.504186515823,0.573887050037,0.818914738568,0.00361270776659,0.0,0.818889415058,-0.573818356755,-0.0115484309647,0.0,-0.00738428446059,0.00958608769052,-0.999926786953,0.0,0.529745829654,0.0876560850457,0.304675064083,1.0,-0.28998,-0.381116571429,1.727
0.280475300766,-0.0232096207348,-0.129952155415,-2.15706274397,0.00890695929917,2.12800702106,-0.0284582077468,-0.579725674775,-1.01346110552,-0.00870544755535,-1.19335087454,-0.157656529557,0.176619435984,-0.50969216536,0.573781430365,0.818989278235,0.00348987192991,0.0,0.818962001141,-0.573712670473,-0.0116515804494,0.0,-0.00754048089563,0.0095437167418,-0.999926026573,0.0,0.524474859083,0.0808416855656,0.30461813406,1.0,-0.28998,-0.381116571429,1.745
0.270878073008,-0.0392692323382,-0.130215205392,-2.17592855677,0.00637601760576,2.13107803351,-0.0367607363704,-0.606808724368,-0.986568673192,-0.0161010135802,-1.16898056492,-0.16037047048,0.178312001122,-0.535744683107,0.573911305569,0.818897646182,0.00363391236054,0.0,0.818873005016,-0.573843077341,-0.011483516238,0.0,-0.00731866987254,0.0095664167145,-0.99992745774,0.0,0.519890656476,0.0746604202319,0.304700776359,1.0,-0.28998,-0.381116571429,1.761
0.260569109435,-0.0561774382859,-0.130366787735,-2.19558690507,0.0038340060456,2.13400637168,-0.0458360986148,-0.610601364267,-0.984719809558,-0.00556777878075,-1.1480274182,-0.160612360966,0.178353901077,-0.548965970786,0.573851808203,0.818938568791,0.00380390187666,0.0,0.81891578605,-0.573782648996,-0.0114522473978,0.0,-0.00719621274749,0.00968715468035,-0.999927184127,0.0,0.514973665277,0.0682528601195,0.304767757713,1.0,-0.28998,-0.381116571429,1.778
0.249951423752,-0.0727866414546,-0.1306092743,-2.21486390215,0.00117239999342,2.13659465829,-0.0551111999964,-0.637750366533,-0.989539232374,-0.0148908310294,-1.11000718091,-0.155880655932,0.160192604773,-0.547377577807,0.573863211384,0.818930977957,0.00371683522193,0.0,0.818906828533,-0.57379398218,-0.0115247168154,0.0,-0.00730539058058,0.00965753868326,-0.99992667892,0.0,0.510036496459,0.0617600565482,0.304736084632,1.0,-0.28998,-0.381116571429,1.795
0.239020862727,-0.0892691738311,-0.130851356449,-2.23385737612,-0.0013890211325,2.13891040357,-0.064711391398,-0.631303910631,-0.968903117468,-0.00640674143831,-1.12504755643,-0.14664755847,0.126244584234,-0.560140727317,0.573869855873,0.818926747352,0.00362186306711,0.0,0.818900108113,-0.573799281424,-0.0117364590245,0.0,-0.00753322282689,0.00970133088673,-0.999924564521,0.0,0.505053213573,0.055258675454,0.304659057597,1.0,-0.28998,-0.381116571429,1.812
0.227942003851,-0.105677435471,-0.13104742684,-2.25224572857,-0.00401229116701,2.14098352991,-0.0744349562538,-0.665823776124,-0.953903572816,-0.0203689020774,-1.07764359276,-0.147667513943,0.111922084112,-0.569803180033,0.573796946323,0.818977566829,0.00368189111279,0.0,0.818951832274,-0.573726348812,-0.0116927325924,0.0,-0.00746383144512,0.00972473295999,-0.999924857571,0.0,0.500135397721,0.0488467885217,0.304712963399,1.0,-0.28998,-0.381116571429,1.829
0.21774914465,-0.119923165422,-0.131342997836,-2.2682026178,-0.00634171878023,2.14261428368,-0.083265824487,-0.68382173392,-0.960152327353,-0.0234333759216,-1.03622315902,-0.151809985523,0.115379473988,-0.603087169797,0.57393369863,0.818882020971,0.00361831569453,0.0,0.818855162907,-0.573862904507,-0.0117616288092,0.0,-0.00755511467463,0.00971345862602,-0.999924281615,0.0,0.495786292498,0.0430340450931,0.304678498563,1.0,-0.28998,-0.381116571429,1.844
0.206101706562,-0.135996100736,-0.131512749341,-2.28605511743,-0.00886669793542,2.14416591883,-0.0935124188893,-0.691922999323,-0.92883754804,-0.011103316406,-1.05480733458,-0.152049234057,0.0886072249197,-0.605108315131,0.573856837941,0.818936290898,0.00352532251494,0.0,0.818906761227,-0.573784528113,-0.0119907721409,0.0,-0.00779705306384,0.00976808509415,-0.999921892188,0.0,0.490778041388,0.0366261200847,0.304607089883,1.0,-0.28998,-0.381116571429,1.861
0.193333738188,-0.152874175143,-0.131857217025,-2.30430785655,-0.0115894875694,2.1457003915,-0.104710032446,-0.725821127994,-0.930112822747,-0.0252048812038,-1.00577689921,-0.143050003183,0.0749951411393,-0.623284063108,0.573928713036,0.818885301997,0.00366625529777,0.0,0.81885783973,-0.573856175625,-0.0119027270488,0.0,-0.00764321214543,0.00983364803797,-0.999922437329,0.0,0.485594553292,0.0297050417956,0.304657389814,1.0,-0.28998,-0.381116571429,1.879
0.181103476319,-0.168686389375,-0.132046706284,-2.32112360507,-0.0140674976429,2.14677259432,-0.115465524293,-0.72149501225,-0.932589146797,-0.0112831894057,-0.984949550005,-0.13117995995,0.0624639447939,-0.650016618527,0.573892960796,0.81890979988,0.00378894578514,0.0,0.8188835268,-0.573819464465,-0.0119054037497,0.0,-0.00757542681127,0.00993532398053,-0.999921948077,0.0,0.480667862429,0.023307176879,0.30472028831,1.0,-0.28998,-0.381116571429,1.896
0.169308290985,-0.183352988697,-0.13230601816,-2.33671831648,-0.0164869726282,2.14756793976,-0.125928213797,-0.751795397471,-0.915253270981,-0.0235341508419,-0.973918560511,-0.149177964923,0.0513350698138,-0.654994701685,0.573814849721,0.818964830156,0.00372452798602,0.0,0.818937128293,-0.57374083077,-0.0120077437975,0.0,-0.00769715427284,0.00994056734251,-0.999920966345,0.0,0.475985857196,0.017228748083,0.304690019359,1.0,-0.28998,-0.381116571429,1.912
0.155647895465,-0.199669903528,-0.132564169884,-2.35360654284,-0.0191666838598,2.14836433097,-0.13798706309,-0.759215918857,-0.889769655155,-0.014775927544,-0.932801159824,-0.149077722748,0.0392124121027,-0.683733193174,0.573782375212,0.818986802502,0.00389231610562,0.0,0.818962147568,-0.573708899246,-0.0118256787636,0.0,-0.00745216192678,0.00997321762169,-0.999922497103,0.0,0.470831886675,0.0103784985021,0.304776528901,1.0,-0.28998,-0.381116571429,1.93
0.144071425506,-0.213080270807,-0.132827972284,-2.36747679327,-0.0212880116814,2.1486929125,-0.148286682064,-0.780897778948,-0.865387030499,-0.0227562547101,-0.889536291508,-0.135224073377,0.0188206297088,-0.68412023759,0.573776245558,0.818991015449,0.00390941797058,0.0,0.818965417155,-0.57370115397,-0.0119740694295,0.0,-0.00756396330976,0.0100723086435,-0.999920664382,0.0,0.466455688606,0.00469223540161,0.304759246809,1.0,-0.28998,-0.381116571429,1.945
0.131392183122,-0.227208409366,-0.133125429246,-2.38184613921,-0.0236953800313,2.14898046668,-0.159465091794,-0.79159855341,-0.875613392187,-0.00653381556799,-0.90326463897,-0.13874517567,0.0156586340676,-0.712900276829,0.57381598788,0.818963060463,0.00393249939963,0.0,0.818938283074,-0.573741503496,-0.0118963264567,0.0,-0.00748655794469,0.0100469700597,-0.99992150184,0.0,0.461842919627,-0.00143082449497,0.304782871788,1.0,-0.28998,-0.381116571429,1.961
0.115988143393,-0.243819594604,-0.133456950806,-2.39845513108,-0.0264061222359,2.14912994348,-0.173163452388,-0.8315653397,-0.884208684455,-0.0193328388996,-0.842388629063,-0.13291032424,0.0106974206636,-0.735936020996,0.573829536165,0.818952744331,0.00410035096466,0.0,0.81893054721,-0.57375502101,-0.0117763157773,0.0,-0.00729178955957,0.0101156952379,-0.999922248235,0.0,0.456373743092,-0.00867035424064,0.304841740739,1.0,-0.28998,-0.381116571429,1.98
0.102763386966,-0.257551066173,-0.133727550218,-2.41220004277,-0.0286503981962,2.14905838779,-0.185034199302,-0.819291018379,-0.86204593477,-0.00925012019435,-0.883132384811,-0.13767834765,-0.00320409264144,-0.746968700971,0.573765610578,0.818997408191,0.00412509334251,0.0,0.818974970306,-0.573690242099,-0.0118427629338,0.0,-0.00733280752952,0.010173514175,-0.99992136168,0.0,0.451714075359,-0.0147341559838,0.304799704521,1.0,-0.28998,-0.381116571429,1.996
0.0874643714006,-0.272841753821,-0.13415272155,-2.42702532864,-0.0311895327798,2.14886188778,-0.198656120816,-0.860574161182,-0.83869476256,-0.0331668734312,-0.808364944367,-0.13826131917,-0.0171496803387,-0.771636151504,0.573898922514,0.818902806766,0.00435507866854,0.0,0.818884397687,-0.573824277897,-0.0116098329979,0.0,-0.00700840988948,0.0102293735675,-0.999923118098,0.0,0.446562934747,-0.0216561472547,0.304886401178,1.0,-0.28998,-0.381116571429,2.014
0.0728144778151,-0.286976827338,-0.134389792363,-2.44080476847,-0.0334940720738,2.14835613258,-0.211877205383,-0.870926972198,-0.813827422937,-0.0190198580463,-0.826778856972,-0.126630647016,-0.0373071083041,-0.774313417942,0.573792949543,0.818977068071,0.00435430017156,0.0,0.818957905849,-0.573717243021,-0.0117141115779,0.0,-0.00709558827748,0.0102876612529,-0.999921905277,0.0,0.441605622094,-0.028051879196,0.304840594681,1.0,-0.28998,-0.381116571429,2.031
0.0586000472251,-0.30014484217,-0.134769518314,-2.45316951538,-0.0357220075503,2.14781187102,-0.224668629017,-0.894297937657,-0.812054500181,-0.0288691343817,-0.765870018936,-0.140713390536,-0.0337418470396,-0.804737986088,0.573850808624,0.818935483482,0.00454645326197,0.0,0.818920080523,-0.573776404191,-0.0114580369767,0.0,-0.00677487588416,0.0102985839354,-0.999924017226,0.0,0.43703457801,-0.0342157423947,0.304944283155,1.0,-0.28998,-0.381116571429,2.047
0.0433790280989,-0.313813502861,-0.135014902265,-2.46616517785,-0.0380009493522,2.14694053863,-0.238487301384,-0.901282986793,-0.801526549346,-0.0164765390148,-0.765901778243,-0.136327838444,-0.0558422296581,-0.820594178125,0.573723688269,0.81902482636,0.00449557861226,0.0,0.819008107698,-0.573648458612,-0.0115720507453,0.0,-0.00689904793889,0.0103212736832,-0.999922934254,0.0,0.432069751331,-0.0405959511335,0.304896652392,1.0,-0.28998,-0.381116571429,2.064
0.027692264718,-0.327248637131,-0.135407000736,-2.47847375741,-0.0402074447926,2.14602792908,-0.252704914738,-0.909859847591,-0.793276195438,-0.0180901028394,-0.71662973,-0.129316564425,-0.061819184832,-0.850830260927,0.57380065034,0.818969660254,0.00471764281419,0.0,0.818956632882,-0.573726044278,-0.0113669027036,0.0,-0.00660264101652,0.0103860810022,-0.999924264359,0.0,0.427215332906,-0.0471080511939,0.304994097753,1.0,-0.28998,-0.381116571429,2.081
0.011747693662,-0.340342115616,-0.135718910228,-2.49059157466,-0.042390228032,2.14491773378,-0.267280852919,-0.956668446796,-0.775176006685,-0.0302828852373,-0.711030636523,-0.13055990834,-0.0684081377615,-0.864305718328,0.573732780143,0.819017145098,0.00472862833308,0.0,0.819003813833,-0.573657455121,-0.0114290862722,0.0,-0.0066481327111,0.0104302068942,-0.999923503632,0.0,0.422275348389,-0.0535497952736,0.304960506227,1.0,-0.28998,-0.381116571429,2.098
-0.00261095751202,-0.351677086198,-0.13602295576,-2.50081719449,-0.044330768954,2.14376038622,-0.280388610325,-0.954807155699,-0.75794151574,-0.0183574021699,-0.655422404771,-0.127948750722,-0.080821185647,-0.890926183369,0.573725747939,0.819021973595,0.00474550537388,0.0,0.819008994057,-0.573650588397,-0.011402499121,0.0,-0.00661676277724,0.0104287197043,-0.999923727219,0.0,0.417941544522,-0.0592665358739,0.304989228687,1.0,-0.28998,-0.381116571429,2.113
-0.0192006087084,-0.364239425337,-0.136444778819,-2.51207296871,-0.0464034388305,2.14247317269,-0.295597503175,-0.988227823478,-0.743631536865,-0.0297851834334,-0.665886597633,-0.121576493659,-0.0865517384626,-0.89973434758,0.573801418683,0.818968132619,0.00488636607139,0.0,0.818956969658,-0.573725868994,-0.0113514755423,0.0,-0.00649318712081,0.0105154187752,-0.999923629328,0.0,0.413032457971,-0.0657688997742,0.305006091679,1.0,-0.28998,-0.381116571429,2.13
-0.0379961860618,-0.377851540513,-0.136753359253,-2.5242613042,-0.0487285927142,2.14072237227,-0.312997087589,-1.00733315437,-0.710264560573,-0.023251131399,-0.617343510328,-0.131551544659,-0.0979106705411,-0.921765962301,0.573634252914,0.819085821513,0.0047862074153,0.0,0.819072368755,-0.573557420646,-0.0115363280294,0.0,-0.00670420701818,0.0105380860463,-0.999921998133,0.0,0.407485820936,-0.072918870289,0.304943622169,1.0,-0.28998,-0.381116571429,2.149
-0.0552624113018,-0.389741429356,-0.13712015737,-2.53447989796,-0.0507584007445,2.13926967431,-0.328921724166,-1.01271020569,-0.698395704124,-0.0195002172783,-0.597286464015,-0.116917222061,-0.0877418639762,-0.955610565981,0.573664834617,0.819063399696,0.00495496756905,0.0,0.819053543522,-0.573589822004,-0.0112585895186,0.0,-0.00637950246612,0.0105172431292,-0.999924341911,0.0,0.402636316496,-0.0794227661982,0.305039033858,1.0,-0.28998,-0.381116571429,2.166
-0.0707655088034,-0.39987156681,-0.137498094045,-2.54334770328,-0.0524780058832,2.13774710071,-0.343322972922,-1.04051706873,-0.666058591716,-0.0310234187059,-0.588512875518,-0.118394545384,-0.109273198396,-0.965134500626,0.573693746483,0.819043219717,0.00494331713398,0.0,0.819032103616,-0.573616943908,-0.0114351130047,0.0,-0.00653040703656,0.010609192512,-0.999922396398,0.0,0.398243044791,-0.0851565980795,0.304985959358,1.0,-0.28998,-0.381116571429,2.181
-0.0895249670561,-0.411712642049,-0.137818285592,-2.55339430367,-0.054417837379,2.13588379489,-0.360897637466,-1.05822945513,-0.652655860502,-0.0200138955093,-0.535287513613,-0.115551912342,-0.103283843933,-0.989445573911,0.573582817167,0.819120283437,0.00504579171342,0.0,0.819110337112,-0.573505496428,-0.0114213880188,0.0,-0.00646182571991,0.0106843777746,-0.999922041401,0.0,0.393056882901,-0.0919315969208,0.305022822506,1.0,-0.28998,-0.381116571429,2.199
-0.108846319526,-0.423110014792,-0.138230616654,-2.56296676813,-0.0564257269381,2.13403716857,-0.37888845157,-1.07484764143,-0.617686731506,-0.0133646384424,-0.524371187725,-0.107605304627,-0.121584317271,-1.01009106893,0.573639741581,0.819080091673,0.00509874541612,0.0,0.819071301474,-0.573563056025,-0.0113300823101,0.0,-0.0063559152255,0.0106758270751,-0.99992281155,0.0,0.387849794859,-0.0988450503411,0.305053844618,1.0,-0.28998,-0.381116571429,2.217
-0.126199967764,-0.432826150913,-0.138606164477,-2.57123267943,-0.0581428760979,2.13218446505,-0.395112309442,-1.08542646874,-0.595685116805,-0.0195797170024,-0.50228511327,-0.104434924115,-0.114132967837,-1.02103921482,0.573685857611,0.819048320493,0.00501322010313,0.0,0.819036827325,-0.57360677073,-0.0116058157059,0.0,-0.00663023452013,0.0107643114708,-0.999920081601,0.0,0.383135530346,-0.104924973545,0.304975795994,1.0,-0.28998,-0.381116571429,2.233
-0.142648766947,-0.441616935657,-0.138885935011,-2.57843272828,-0.0595718244751,2.13059698663,-0.410666917338,-1.10593267707,-0.585566148412,-0.0156578864273,-0.463903993697,-0.0915670578431,-0.104049539489,-1.04568645086,0.573638071804,0.819080908187,0.00515512578169,0.0,0.819071395092,-0.573558798015,-0.0115369780856,0.0,-0.00649307575294,0.0108406746459,-0.999920156683,0.0,0.378832124173,-0.110592288153,0.30501517572,1.0,-0.28998,-0.381116571429,2.248
-0.160588850808,-0.450617379465,-0.139238713679,-2.58566468443,-0.0611960584163,2.12894073055,-0.42753627013,-1.1248880611,-0.552604499161,-0.0229055021702,-0.457500048474,-0.101036083599,-0.110701040745,-1.04941978496,0.573693851841,0.819041294574,0.00524109192359,0.0,0.81903410941,-0.57361639058,-0.0113186122461,0.0,-0.00626415519934,0.0107862589819,-0.999922205462,0.0,0.37424520661,-0.11674429635,0.305089519037,1.0,-0.28998,-0.381116571429,2.264
-0.180936052876,-0.460201601679,-0.139608594227,-2.59355814788,-0.0629421494094,2.12683697295,-0.44690686564,-1.13132276795,-0.52960493715,-0.0209980175105,-0.416868345892,-0.0975172898452,-0.103363701779,-1.08508132025,0.573591102375,0.819113807101,0.0051541433348,0.0,0.819104030529,-0.573511421686,-0.0115751141605,0.0,-0.00652550139227,0.010861371186,-0.999919721001,0.0,0.368974376528,-0.123565131862,0.305024642374,1.0,-0.28998,-0.381116571429,2.282
-0.201623338309,-0.469227674924,-0.140043034238,-2.60090288301,-0.0645605482198,2.12497379784,-0.466609457521,-1.16793198874,-0.488667967088,-0.0278527255459,-0.384129210482,-0.0983807431897,-0.0945467504473,-1.10049044416,0.573619094003,0.819093804146,0.00521746163974,0.0,0.819084302334,-0.573538300641,-0.0116391696435,0.0,-0.00654128359782,0.0109502016983,-0.999918649037,0.0,0.363750464149,-0.130432530969,0.304985951789,1.0,-0.288853714286,-0.379636310204,2.3
-0.220112868667,-0.47678225359,-0.140184893668,-2.60675421367,-0.0658023405005,2.12335397896,-0.484201159379,-1.15693408795,-0.459221534423,-0.00287795575335,-0.362023201984,-0.0745622048977,-0.0999365524617,-1.08577957422,0.573598984288,0.819107076398,0.00534317506399,0.0,0.819100165074,-0.57351945431,-0.0114499784245,0.0,-0.00631446507817,0.0109445022869,-0.999920169514,0.0,0.359238801459,-0.136431474744,0.305068967691,1.0,-0.282188571429,-0.370876408163,2.316
-0.238595010994,-0.48370999365,-0.140390898339,-2.61227507743,-0.0669636277954,2.12174337996,-0.501789108509,-1.15145945033,-0.417717454606,-0.0107272155131,-0.334604676272,-0.0666267354995,-0.0970058603842,-1.10676699274,0.573672913895,0.819054867852,0.00540908608965,0.0,0.81904809571,-0.573591936005,-0.0115436027626,0.0,-0.00635235817564,0.0110527666949,-0.999918738645,0.0,0.354718783267,-0.142360698274,0.305046692561,1.0,-0.275523428571,-0.362116506123,2.332
-0.256925669863,-0.490044204799,-0.140493848601,-2.6173824802,-0.0679922024876,2.12010951192,-0.519210864211,-1.13628769263,-0.388736657003,0.00388746651159,-0.308323441837,-0.066159181833,-0.101933569839,-1.0953518398,0.573761674872,0.818992612213,0.00542111516638,0.0,0.818984139924,-0.573677442565,-0.0118286663056,0.0,-0.0065777454741,0.0112268588848,-0.999915341869,0.0,0.350255273213,-0.148127435527,0.304974799411,1.0,-0.268858285714,-0.353356604082,2.348
-0.276186205455,-0.496204738712,-0.140455859299,-2.62216152956,-0.0689356326757,2.11869686065,-0.537521872129,-1.14193533064,-0.347603710824,-0.00448750990857,-0.263138840013,-0.0488171066815,-0.0850741260858,-1.07481871986,0.573833931516,0.81894128889,0.00552551291529,0.0,0.81893460279,-0.573750063897,-0.0117357331702,0.0,-0.00644073706443,0.0112596124112,-0.999915865478,0.0,0.345721881592,-0.154116995801,0.304997398577,1.0,-0.261776571429,-0.344049208163,2.365
-0.295022851721,-0.501708498811,-0.140365330636,-2.62638417285,-0.069769760816,2.11729020144,-0.555535796706,-1.09586105491,-0.311520356322,0.00733940023563,-0.238180181672,-0.0447265703253,-0.0785984453649,-1.05999055425,0.573841337351,0.818935656455,0.00559079904343,0.0,0.818929743132,-0.5737571125,-0.0117302416945,0.0,-0.00639867566109,0.0113099869583,-0.999915567008,0.0,0.341322768423,-0.159903161913,0.305018241063,1.0,-0.254694857143,-0.334741812245,2.382
-0.31582448337,-0.507118800658,-0.140225953913,-2.63048572623,-0.0705756241755,2.11596670821,-0.575403495669,-1.07580187271,-0.266480140824,0.00885585455123,-0.205482861426,-0.0370278748538,-0.0733615158212,-1.03630752771,0.573922675804,0.818877990226,0.00568737396807,0.0,0.818873990744,-0.573839295992,-0.011601575769,0.0,-0.00623675645221,0.0113158678925,-0.999916523517,0.0,0.336562672307,-0.166250930049,0.305058692733,1.0,-0.24678,-0.324339428572,2.401
-0.332963855767,-0.511218882838,-0.140090523553,-2.63358686102,-0.0711266821524,2.11491689389,-0.591857040556,-1.06290726648,-0.246854726136,0.00726449653876,-0.190157778018,-0.0422863677573,-0.0621869303229,-1.03041629611,0.573970447119,0.818843718468,0.00579978105539,0.0,0.818841376264,-0.573887064939,-0.0115405422802,0.0,-0.00612159908641,0.0113732498843,-0.999916584127,0.0,0.332644209515,-0.171415977605,0.305083568595,1.0,-0.240114857143,-0.315579526531,2.417
-0.350642517049,-0.514973001841,-0.139779019567,-2.63654519774,-0.0716131111717,2.113797042,-0.60898282437,-1.03229829833,-0.210737692524,0.0193845744386,-0.169355071787,-0.0228375291243,-0.0556038187942,-1.00559653895,0.573820405078,0.818948830113,0.00580545214342,0.0,0.818945401156,-0.573734892967,-0.0117238823712,0.0,-0.00627059001647,0.0114819723294,-0.999914418344,0.0,0.328602473834,-0.176634402663,0.305039220336,1.0,-0.233033142857,-0.306272130612,2.434
-0.36814518245,-0.518151410223,-0.139550786158,-2.6391238137,-0.0720533562518,2.11288842246,-0.625771983353,-1.01647005355,-0.179171275264,0.0187164536382,-0.142349379894,-0.0178094538221,-0.049661066907,-0.984890871243,0.573903792608,0.818890209517,0.00583167972012,0.0,0.818885963019,-0.573816056453,-0.0119020934835,0.0,-0.00640031959286,0.0116063607122,-0.999912160292,0.0,0.32463727817,-0.181810235855,0.304967216737,1.0,-0.225951428571,-0.296964734694,2.451
-0.384173607234,-0.520778673147,-0.139322442258,-2.64114596996,-0.0723615761901,2.11215642844,-0.641191084333,-1.00067417249,-0.157247489974,0.0120474897882,-0.116759308818,-0.0135723989227,-0.0466452801849,-0.953452389279,0.573990037526,0.818829140203,0.00591801290294,0.0,0.81882581312,-0.573901575987,-0.0119170360802,0.0,-0.00636178195964,0.0116863067118,-0.999911475065,0.0,0.321052855576,-0.186532436394,0.304957835455,1.0,-0.219286285714,-0.288204832653,2.467
-0.400664080986,-0.523171293149,-0.138972540712,-2.64297037825,-0.0726434635757,2.11144073376,-0.657274846465,-0.955676687942,-0.139031012492,0.0155586728818,-0.0995948313083,-0.0149321319925,-0.0410572218751,-0.933363202711,0.573847120073,0.818929101924,0.00594606652988,0.0,0.818925974116,-0.573758271729,-0.0119348834124,0.0,-0.00636234099352,0.0117184124155,-0.999911095762,0.0,0.317386184667,-0.191337030858,0.304954813242,1.0,-0.212204571429,-0.278897436735,2.484
-0.415031213963,-0.525002408173,-0.138771955115,-2.64429760957,-0.0728583107844,2.11088713042,-0.671055830734,-0.945744436367,-0.109390134551,0.0193874027353,-0.0794100569221,-0.0119116850962,-0.0275403275614,-0.911085145549,0.574014575628,0.818811168948,0.00602357648509,0.0,0.818809285267,-0.573925824422,-0.0118848358214,0.0,-0.00627447101455,0.0117544556567,-0.999911227953,0.0,0.31419811301,-0.195547052093,0.304980469732,1.0,-0.205956,-0.270685028572,2.499
-0.430720667847,-0.52667298177,-0.138433612156,-2.64551566379,-0.0730188504347,2.11039890864,-0.686283588894,-0.92298707085,-0.0895812393963,0.0114366738539,-0.0669521542699,-0.01193524301,-0.0289064677388,-0.891107381551,0.574012616843,0.818812131433,0.00607914675907,0.0,0.81881141376,-0.573924488433,-0.0118024223799,0.0,-0.00617511432121,0.0117526403824,-0.99991186782,0.0,0.310754936783,-0.200102181641,0.305005295095,1.0,-0.198874285714,-0.261377632653,2.516
-0.445999680427,-0.527984957611,-0.138095435606,-2.64650976535,-0.0731463531617,2.1099841665,-0.701112297177,-0.881064582112,-0.0694221971962,0.0279516426924,-0.0559981439881,-0.00357179610245,-0.0132105177588,-0.861572018729,0.57402939625,0.818800114369,0.00611325221356,0.0,0.818799917972,-0.573941283851,-0.0117832050705,0.0,-0.00613956004091,0.011769663106,-0.999911886534,0.0,0.307397549137,-0.204518583783,0.305006372405,1.0,-0.191792571429,-0.252070236735,2.533
-0.460772270464,-0.528957588932,-0.137745880691,-2.64723513793,-0.0731754679936,2.10965018053,-0.715424550201,-0.874286885637,-0.0455376331488,0.0154839756233,-0.037876001075,0.000170253113262,-0.0225880901393,-0.838254816097,0.574104263779,0.81874710418,0.00618228185632,0.0,0.81874786544,-0.574015991242,-0.011761017706,0.0,-0.00608068761318,0.0118140079411,-0.999911723331,0.0,0.304170613514,-0.20877341885,0.305012490413,1.0,-0.184710857143,-0.242762840816,2.55
-0.474985155069,-0.529607472044,-0.137302191623,-2.64772885423,-0.0731842966038,2.10937586886,-0.729292173599,-0.828365504812,-0.0288397401581,0.022473451124,-0.0248078432488,0.000271359012923,-0.0230657580653,-0.812555569133,0.574041105199,0.818791406392,0.0061797461148,0.0,0.818792102465,-0.57395279285,-0.0117656883499,0.0,-0.00608687916075,0.0118141435167,-0.999911684058,0.0,0.301086491638,-0.212836756147,0.305013416354,1.0,-0.177629142857,-0.233455444898,2.567
-0.490379445662,-0.530033891867,-0.136890338203,-2.64809286568,-0.0731942365192,2.10913488873,-0.744178890772,-0.800091426578,-0.0236052679329,0.0226368120874,-0.0139042257216,-0.000821263897527,-0.0161088068089,-0.776176227559,0.574140932295,0.818721409862,0.00617978954233,0.0,0.81872173988,-0.5740518891,-0.0118274329749,0.0,-0.00613597087571,0.0118503695974,-0.999910955336,0.0,0.297720379253,-0.217244193144,0.304993647991,1.0,-0.169714285714,-0.223053061225,2.586
-0.502640865365,-0.530184536489,-0.136403315483,-2.64822468603,-0.0731821006809,2.10901645296,-0.756302757698,-0.759406830815,-0.00463950464155,0.024344455335,-0.0083364830179,-0.00124080421352,-0.00533390622353,-0.743579712268,0.573907783149,0.81888544003,0.00610241331486,0.0,0.81888484305,-0.57381924094,-0.0118253732036,0.0,-0.00618206278696,0.0117840743697,-0.999911454925,0.0,0.295073248494,-0.220717551566,0.304991210439,1.0,-0.163049142857,-0.214293159184,2.602
-0.513955208049,-0.530218744042,-0.136053297068,-2.64827599118,-0.073158328191,2.10893438349,-0.767212298219,-0.749833105269,-0.00273586844639,0.0208890047031,-0.00186602079171,-0.0011790342365,-0.00267821761398,-0.719761890509,0.573999804332,0.818821121534,0.00607803072376,0.0,0.818820153684,-0.573911235081,-0.0118404843898,0.0,-0.00620710809408,0.0117734764502,-0.999911424608,0.0,0.292597399734,-0.22393428454,0.304982431659,1.0,-0.156800571429,-0.206080751021,2.617
-0.526084715737,-0.530097655865,-0.135550698775,-2.64823316817,-0.0730722951046,2.10890637712,-0.779113504848,-0.695226500461,0.0133248520829,0.0307297749686,0.00565117127875,0.00780067247731,0.00447658956491,-0.683162189955,0.573871861567,0.818911174285,0.006026776436,0.0,0.818909516212,-0.57378347231,-0.0118523441826,0.0,-0.00624807267711,0.0117373373757,-0.999911594342,0.0,0.289964515075,-0.227342420692,0.304968373974,1.0,-0.149718857143,-0.196773355102,2.634
-0.537799325227,-0.529883459348,-0.13515596896,-2.64808963186,-0.0729341431583,2.10890003102,-0.790495942679,-0.688003614779,0.0153582807098,0.0219944846215,0.0137629583772,0.0157617441545,-0.0010340867201,-0.664854319702,0.573932770836,0.818868255815,0.00605814171524,0.0,0.818867018444,-0.573844271829,-0.0118450282947,0.0,-0.00622320755454,0.0117592887562,-0.999911491491,0.0,0.287397966677,-0.230644817927,0.30496519517,1.0,-0.142637142857,-0.187465959184,2.651
-0.548917987212,-0.52947866858,-0.134670816265,-2.64782069222,-0.0727457203875,2.1089250567,-0.80131886926,-0.633049156139,0.0305206239045,0.0371827928123,0.0214584797885,0.0186327363084,0.00313114264611,-0.633518453705,0.573928751207,0.818871046325,0.00606175960898,0.0,0.818869679671,-0.573839906001,-0.0118725269883,0.0,-0.006243709244,0.0117780025004,-0.999911143428,0.0,0.284986916281,-0.233752447245,0.30495444234,1.0,-0.135555428572,-0.178158563265,2.668
-0.559449198662,-0.528923685665,-0.134169532159,-2.6474748905,-0.0725392475763,2.10896649035,-0.811676345204,-0.60907197392,0.0381662749665,0.0317920527447,0.0244887818304,0.0167863909447,-0.000389494529785,-0.598838152647,0.573825647195,0.818943345674,0.00605558413749,0.0,0.818941342168,-0.573735802778,-0.0119605016772,0.0,-0.00632078952782,0.0118226384393,-0.999910132382,0.0,0.282704286262,-0.236681226352,0.304925507199,1.0,-0.128473714286,-0.168851167347,2.685
-0.57076354953,-0.528185113509,-0.133690358423,-2.6469665228,-0.0722889867673,2.10909882445,-0.822604136013,-0.579184609912,0.0458884290474,0.0308892537728,0.0353674115258,0.0151431354391,0.00512462938253,-0.573763901833,0.57393997261,0.818863011794,0.00608462473787,0.0,0.818861263392,-0.573849754599,-0.0119765338689,0.0,-0.00631560177697,0.0118565032952,-0.999909764181,0.0,0.280253938431,-0.239855513035,0.304910473852,1.0,-0.120558857143,-0.158448783674,2.704
-0.578972360745,-0.527473190642,-0.133217711061,-2.64651636998,-0.0720186617899,2.10920979061,-0.83078548995,-0.550070318495,0.0470833764848,0.0281572839373,0.0266543301374,0.0181201058237,0.00172481841,-0.530845280061,0.573770062355,0.818981891526,0.00610932059411,0.0,0.818979874857,-0.57367867026,-0.0120621212661,0.0,-0.00637399469489,0.0119245242707,-0.999908584778,0.0,0.278504607444,-0.242123483659,0.304876530065,1.0,-0.114310285714,-0.15023637551,2.719
-0.588535751952,-0.526646090831,-0.132734955884,-2.64593579755,-0.0717589643613,2.10933651875,-0.839981343609,-0.522297871794,0.0504476415103,0.022680662568,0.025823727599,0.0160006402099,0.00257789856371,-0.503742098248,0.573873861871,0.818909088242,0.00611904873328,0.0,0.818906879996,-0.573781810458,-0.012112092477,0.0,-0.00640782711707,0.0119619746969,-0.999907921217,0.0,0.276438353368,-0.244784328347,0.304861112766,1.0,-0.106812,-0.140381485714,2.737
-0.596964917684,-0.525779249019,-0.132283962074,-2.64528181856,-0.071477004932,2.10948073961,-0.848183888342,-0.472428368124,0.0543937224015,0.0281653363071,0.041340720658,0.0191145577359,0.0105985845745,-0.469336718587,0.573897715121,0.818892180623,0.00614459063631,0.0,0.818890246173,-0.57380543513,-0.0121175178629,0.0,-0.00639726428988,0.0119861919246,-0.999907698847,0.0,0.274642217695,-0.247140801212,0.304864953943,1.0,-0.0997302857144,-0.131074089796,2.754
-0.60421056154,-0.524927969106,-0.131777966175,-2.64468282756,-0.0711692628714,2.10962003862,-0.855373255308,-0.452100097707,0.0492240419504,0.0247953857994,0.0363536600299,0.0201065505149,0.0046434663531,-0.435831219173,0.573751066101,0.818994823189,0.00615959729444,0.0,0.818992703765,-0.573658037852,-0.0121718399588,0.0,-0.00643529531643,0.012028502981,-0.999906946716,0.0,0.273121346557,-0.24913192049,0.304850200742,1.0,-0.0930651428572,-0.122314187755,2.77
-0.610797309328,-0.524190317391,-0.13134415214,-2.64411361699,-0.0709327070813,2.10975475941,-0.861665933101,-0.429669063094,0.0506981803851,0.0331827524201,0.0408228664114,0.0139323864355,0.00844518602108,-0.411543530096,0.57381755509,0.818948351307,0.00614477519333,0.0,0.818946156524,-0.573724799965,-0.0121570358493,0.0,-0.00643069835781,0.0120083918142,-0.999907218018,0.0,0.271725236246,-0.250952069351,0.304861044147,1.0,-0.0868165714287,-0.114101779592,2.785
-0.617706210259,-0.523326743158,-0.130881580132,-2.64343752275,-0.0706213612919,2.10991913015,-0.868319399088,-0.392331945209,0.0549926771365,0.0248474236228,0.0362467950083,0.0174792624927,0.00496613818842,-0.39321729277,0.573869490102,0.81891177272,0.00616958115542,0.0,0.818910079422,-0.573776946168,-0.0121262016877,0.0,-0.00639044892191,0.0120114206305,-0.999907439685,0.0,0.270275344474,-0.252866094808,0.304877350527,1.0,-0.0797348571429,-0.104794383674,2.802
-0.623979511367,-0.522460528592,-0.130393315908,-2.64277568209,-0.0702891824837,2.11008921905,-0.874413579625,-0.351945809738,0.0485697273881,0.0342754863248,0.033559219244,0.0227983832647,0.00625711805455,-0.350624950385,0.573848616133,0.818926214068,0.00619423734552,0.0,0.818924926066,-0.573756124876,-0.0121087380021,0.0,-0.00636230384734,0.0120214293556,-0.999907498885,0.0,0.268978880892,-0.254590164094,0.304887064186,1.0,-0.0726531428572,-0.0954869877552,2.819
-0.629381558303,-0.521752799393,-0.129891333739,-2.64223017129,-0.0699982565754,2.11023721228,-0.879661118657,-0.338105675883,0.038161823668,0.0265073276713,0.0363607514036,0.0162785484349,0.00858133873333,-0.314344098151,0.573773568309,0.818978891161,0.00618183180351,0.0,0.818977636961,-0.573681517355,-0.0120786466079,0.0,-0.00634587613439,0.0119934210776,-0.999907939616,0.0,0.267867128052,-0.256045637124,0.304900265333,1.0,-0.0659880000001,-0.0867270857144,2.835
-0.635340352848,-0.520920472001,-0.129354850911,-2.64159467211,-0.0696432796978,2.11040948092,-0.885302871075,-0.298346759289,0.0460191650267,0.0276338653342,0.0347433732202,0.019403021334,0.0144014069887,-0.276652329985,0.573839140608,0.818932809858,0.00620004396695,0.0,0.818931942648,-0.5737472797,-0.0120531841929,0.0,-0.00631361119532,0.0119942338353,-0.999908134115,0.0,0.266639264723,-0.257654775573,0.304911306023,1.0,-0.0580731428572,-0.0763247020409,2.854
-0.640523182046,-0.520100177845,-0.128863313787,-2.64098512417,-0.0692778211299,2.11058054933,-0.890273156795,-0.263640522667,0.0388266149147,0.0244128635062,0.0272251866515,0.0196582399707,0.00131429328149,-0.256386664459,0.573853825874,0.818922175026,0.00624537277224,0.0,0.818921903413,-0.5737617739,-0.0120453236706,0.0,-0.00628094742644,0.0120269591867,-0.999907946739,0.0,0.265588358436,-0.259054216227,0.304913508205,1.0,-0.0501582857144,-0.0659223183675,2.873
-0.644459885765,-0.519493117343,-0.128460000947,-2.6405542385,-0.0689914680183,2.11069896361,-0.893896794834,-0.241866686207,0.0372641157429,0.029004855796,0.0218480744754,0.0233058711881,0.00361431278927,-0.219606928061,0.573969847937,0.818840624596,0.00627631035835,0.0,0.818840602153,-0.573877339611,-0.0120670728324,0.0,-0.00627929806002,0.0120656660132,-0.999907490781,0.0,0.264783802724,-0.260097328255,0.304906055202,1.0,-0.0434931428572,-0.0571624163266,2.889
-0.647286692664,-0.519067459031,-0.128061688993,-2.64026176613,-0.0687693950982,2.11079467338,-0.896503734869,-0.206054950799,0.0362046656473,0.0299630762372,0.0161409655117,0.0112611045704,0.0150120397309,-0.204105931075,0.573961665665,0.818846493047,0.00625891947193,0.0,0.81884617339,-0.573869100845,-0.0120808245083,0.0,-0.00630066159942,0.0120592545946,-0.999907433737,0.0,0.264189395371,-0.260865434728,0.304898778809,1.0,-0.0376611428572,-0.0494975020409,2.903
-0.650546285261,-0.518545914886,-0.127466438137,-2.63990613142,-0.0684480023815,2.11090227766,-0.899617702182,-0.166065847883,0.0232320102953,0.0298798780322,0.01463885891,0.019557387214,0.00789461101088,-0.168452143698,0.573831513382,0.818937931251,0.00622943887795,0.0,0.818937095838,-0.573738857103,-0.0121038758957,0.0,-0.0063383739773,0.012047335955,-0.999907339063,0.0,0.263620946105,-0.261612393715,0.304893542505,1.0,-0.0305794285715,-0.0401901061226,2.92
-0.6531258596,-0.518119620637,-0.126919135157,-2.63960531091,-0.0681639184135,2.11099016014,-0.902033406899,-0.141672527885,0.021960108786,0.0309371460875,0.0154587618509,0.0139272369667,0.00639324566676,-0.125515620467,0.573714751217,0.819020033636,0.00618996286193,0.0,0.819018641614,-0.573622216569,-0.0121146295218,0.0,-0.00637154673309,0.0120202680644,-0.999907453992,0.0,0.263163781328,-0.262226612407,0.304894013535,1.0,-0.0234977142858,-0.0308827102042,2.937
-0.655130162676,-0.517794979312,-0.12648245916,-2.63940816707,-0.0678964999219,2.11104665048,-0.903754355181,-0.118489855171,0.0174927334026,0.0191804120617,0.012165384864,0.0210094806527,0.00438020893032,-0.0899300541118,0.57376899836,0.818981971965,0.00619782371557,0.0,0.8189803215,-0.573675736692,-0.0121708268784,0.0,-0.00641227016744,0.0120593709867,-0.999906722831,0.0,0.262781416793,-0.262712385244,0.304876405561,1.0,-0.0198088888889,-0.0260345396825,2.954
-0.657264532762,-0.517460507576,-0.126159135436,-2.6391798298,-0.0676639408071,2.11109203907,-0.905649336443,-0.0991059686064,0.0135472453981,0.0164840302647,0.0133603704149,0.01262150678,0.000721981152362,-0.0905733467892,0.573839826705,0.818932082622,0.00623251484941,0.0,0.81893068902,-0.573746021462,-0.012197390664,0.0,-0.00641307741208,0.0121035792562,-0.999906183503,0.0,0.262386870079,-0.26321164374,0.30487158829,1.0,-0.0194288888889,-0.0255351111111,2.973
-0.658793013607,-0.517221395031,-0.125986702414,-2.63896324424,-0.0675352199711,2.1111621734,-0.90712512521,-0.0938937989427,0.0160846881141,0.0123703367817,0.0138919168697,0.0052286705144,0.00192822946795,-0.0807366574277,0.573826685457,0.818941210346,0.00624307267607,0.0,0.818940341347,-0.573733567338,-0.0121349876687,0.0,-0.00635610350603,0.0120763163269,-0.99990687693,0.0,0.262088821355,-0.263624008951,0.304892000335,1.0,-0.0191088888889,-0.0251145396825,2.989
-0.660311369101,-0.516939553052,-0.125856045017,-2.63875519469,-0.0674741011348,2.11122565331,-0.908606227924,-0.0877202333712,0.012502323541,0.00810844484102,0.0108167498743,0.00525828132849,0.00119706593948,-0.093181387872,0.57380149784,0.818959023698,0.00622137294133,0.0,0.818957882718,-0.5737085041,-0.0121361261507,0.0,-0.00636985809973,0.012059001948,-0.999906998365,0.0,0.261773541739,-0.264045327445,0.304891154855,1.0,-0.0187688888889,-0.0246676825397,3.006
-0.661587012144,-0.516724256718,-0.125789972803,-2.63858779871,-0.0674409597733,2.11124934501,-0.909887222686,-0.0828181383602,0.0150294872134,0.00235985171564,0.0116022834654,0.000976238784449,0.0037447389177,-0.0871294786176,0.573773135799,0.818978953781,0.00621359809379,0.0,0.818977608498,-0.573679988826,-0.0121529462093,0.0,-0.0063885132855,0.0120620639948,-0.999906842416,0.0,0.261490992214,-0.264404525704,0.304891413474,1.0,-0.0184688888889,-0.0242733968254,3.021
-0.662958563338,-0.51648498609,-0.125740666304,-2.63837054526,-0.0674013166339,2.11129787707,-0.91122243566,-0.0779127458515,0.0161262295227,0.00142407880017,0.0106773427274,0.0024846950756,0.000607861698349,-0.0818612540718,0.573795991562,0.818962964547,0.00621044831184,0.0,0.818961803217,-0.573703279215,-0.0121185473746,0.0,-0.00636180940653,0.0120399256612,-0.999907279487,0.0,0.261194076571,-0.264807527492,0.304907186902,1.0,-0.0181288888889,-0.0238265396825,3.038
-0.664212854718,-0.516221034077,-0.125709728858,-2.63817280528,-0.0673565330611,2.1113849859,-0.91257284869,-0.0749895223705,0.0146468945866,0.00249992462553,0.0146011771798,0.00259251652236,0.000904115471961,-0.0876531973846,0.573724781397,0.819012777036,0.00622038300511,0.0,0.819011916961,-0.573632365834,-0.0120886576801,0.0,-0.00633267400117,0.0120303619159,-0.999907579545,0.0,0.260925113869,-0.265183064438,0.304907831791,1.0,-0.0178088888889,-0.023405968254,3.054
-0.665565639073,-0.515978243052,-0.125688984393,-2.63798480011,-0.0673179380453,2.11140563712,-0.913889286813,-0.0794738961086,0.0144634561929,0.0019657332791,0.0106480697312,0.00423599324887,-1.57191895367e-07,-0.0701178057994,0.57376615242,0.818983656249,0.00623859242902,0.0,0.818982861353,-0.573673319501,-0.0121137196801,0.0,-0.00634214651255,0.0120599748025,-0.999907162783,0.0,0.260614545187,-0.265575168001,0.304905927637,1.0,-0.0174688888889,-0.0229591111111,3.071
-0.666894184109,-0.51574174641,-0.125687182957,-2.63778767651,-0.0672916602687,2.11143611205,-0.91524242477,-0.0760253334425,0.0126056795238,-0.00128231633779,0.0120743754932,0.00193197025727,0.00959080977491,-0.081750800083,0.573766192175,0.818983517445,0.00625314097672,0.0,0.818982894236,-0.573673259672,-0.0121143297962,0.0,-0.00633429861557,0.0120722408012,-0.999907064513,0.0,0.260308226655,-0.265969809077,0.304910852276,1.0,-0.0171288888889,-0.0225122539683,3.088
-0.668121600476,-0.515516996482,-0.125674453777,-2.63760821453,-0.0672630209596,2.11151490003,-0.916438204751,-0.0735803158022,0.00884107765655,0.000802536268989,0.00981268731547,0.00179244935409,0.00192545366325,-0.070625769838,0.573804607902,0.818956562924,0.00625834602792,0.0,0.818956263362,-0.573712132409,-0.0120737205834,0.0,-0.00629748491174,0.0120535002503,-0.999907523132,0.0,0.260034716267,-0.266337738697,0.304916454485,1.0,-0.0168088888889,-0.0220916825397,3.104
-0.669407571505,-0.515277944849,-0.125654711399,-2.63740485767,-0.0672297251618,2.11155863539,-0.917660001102,-0.0790481581229,0.0125097662407,3.95727319125e-05,0.0168828287005,0.000914148527432,9.3026205899e-05,-0.0780743822421,0.573867868518,0.818912179071,0.00626572845315,0.0,0.818912073556,-0.573775534273,-0.0120581488952,0.0,-0.0062795641976,0.0120510969056,-0.999907664806,0.0,0.259746681774,-0.266719601347,0.304924793413,1.0,-0.0164688888889,-0.0216448253968,3.121
-0.670647275524,-0.515036878019,-0.125611693728,-2.63720982152,-0.0671961692662,2.11159328384,-0.918978813971,-0.0745615514024,0.0110988368557,0.000954413627552,0.0118650925193,0.00691261293245,0.00441051376118,-0.0712541942996,0.57379698309,0.818961848566,0.00626575547309,0.0,0.8189617123,-0.5737046044,-0.0120618231877,0.0,-0.00628360122874,0.0120526836383,-0.999907620319,0.0,0.259472371454,-0.267080611613,0.304928366156,1.0,-0.0161288888889,-0.021197968254,3.138
-0.671920545485,-0.51478438567,-0.125573554623,-2.63701232704,-0.0671666334117,2.11164441904,-0.920253140415,-0.0704729003385,0.0191374375449,0.00323642323727,0.0175668515216,0.00157147737244,-0.000857331379992,-0.0667563556901,0.573791913228,0.818965426744,0.00626234891949,0.0,0.818965268168,-0.573699592985,-0.0120587496751,0.0,-0.00628311301681,0.0120480912725,-0.999907678732,0.0,0.259189992562,-0.267454308899,0.304930105813,1.0,-0.0157688888889,-0.0207248253968,3.156
-0.673088603482,-0.514541546169,-0.12552929344,-2.63682694175,-0.0671375381237,2.1116822903,-0.921440098193,-0.0653558687345,0.0123852646605,-0.000488795228886,0.0118303864108,0.00178727680915,0.00626521946724,-0.075259846962,0.573767084703,0.818982856672,0.00625778633816,0.0,0.818982557588,-0.573674634685,-0.012071900686,0.0,-0.00629686765204,0.0120517091563,-0.999907548608,0.0,0.258932050301,-0.2677942891,0.304928904178,1.0,-0.0154288888889,-0.020277968254,3.173
-0.674174499015,-0.514320289565,-0.125490066191,-2.63664550089,-0.0671124789759,2.11174594539,-0.922568448848,-0.0675692708463,0.0136744559166,0.00266393097807,0.0141304113236,9.53574468142e-05,0.00573119408389,-0.0676912954249,0.573724499469,0.819012768679,0.0062474276087,0.0,0.819012524671,-0.573632468002,-0.0120425490533,0.0,-0.00627939502209,0.0120260584253,-0.999907967323,0.0,0.258697785628,-0.268117312461,0.304935944765,1.0,-0.0151088888889,-0.0198573968254,3.189
-0.675359572806,-0.514080263903,-0.125469689297,-2.63644409962,-0.0670838408229,2.11179164867,-0.923712634376,-0.0702144979118,0.0137488051241,0.00301791965523,0.012141503347,-2.72466631321e-05,0.000183459959845,-0.0622936689758,0.573766122243,0.818983592579,0.00624971629208,0.0,0.81898346567,-0.573674239149,-0.0120290148266,0.0,-0.00626638518641,0.0120204869314,-0.999908115934,0.0,0.258433865288,-0.26847177666,0.304943126117,1.0,-0.0147488888889,-0.0193842539683,3.207
-0.67645980687,-0.513859069861,-0.125441626849,-2.63626199669,-0.0670489931183,2.11183212354,-0.924836246181,-0.0603776864027,0.0132736368402,0.0019504743149,0.0100150542442,0.00123960622966,0.0016165300004,-0.0714423618848,0.573751315074,0.818993917701,0.00625604664132,0.0,0.818993918547,-0.573659494706,-0.0120204998813,0.0,-0.00625599618269,0.0120206732033,-0.999908178748,0.0,0.258189886364,-0.268796330964,0.304948223839,1.0,-0.0144088888889,-0.0189373968254,3.224
-0.677417336643,-0.513661499367,-0.125433782646,-2.63610785084,-0.0670308443154,2.11187532127,-0.925817586255,-0.0591534348665,0.012584867661,0.000918341590329,0.0103830574873,0.00409966362494,0.00124709964059,-0.0687693972686,0.573741994526,0.819000421276,0.00625943831859,0.0,0.819000493915,-0.573650214592,-0.0120153720967,0.0,-0.00624998700593,0.012020438057,-0.999908219154,0.0,0.257972519622,-0.269083286958,0.304949086853,1.0,-0.0141088888889,-0.0185431111111,3.239
-0.678559395621,-0.513436764643,-0.125423058715,-2.63591515317,-0.0670008877086,2.11192328449,-0.926923078437,-0.0619700742725,0.0122599363219,-0.000171362162923,0.0112223176506,0.000283753582189,0.000490288647564,-0.0615791647825,0.573787011632,0.818968823506,0.00626724093265,0.0,0.818969136494,-0.573695455698,-0.0119926845676,0.0,-0.00622626700309,0.012014154844,-0.99990844265,0.0,0.257715592758,-0.269426215924,0.304957885865,1.0,-0.0137488888889,-0.018069968254,3.257
-0.679464657225,-0.5132265687,-0.125419056653,-2.63575491737,-0.0669772752061,2.1119687027,-0.927830482922,-0.0588128478998,0.0189020880414,-0.00148326535988,0.00764463855855,0.0034696933017,0.000272459801963,-0.0587077605318,0.57380083512,0.818959073709,0.00627567577112,0.0,0.818959495956,-0.573709238949,-0.0119916649965,0.0,-0.00622038944898,0.0120205830892,-0.999908401974,0.0,0.257512699295,-0.269701330323,0.304956922688,1.0,-0.0134488888889,-0.0176756825397,3.272
-0.680468904904,-0.513011311568,-0.125406688346,-2.63558772693,-0.0669511745748,2.11200278798,-0.928880124614,-0.0593816064508,0.017625409972,0.00128240925967,0.0120428108782,0.00185794912689,0.00225211072732,-0.0573700108103,0.57377469757,0.818977318201,0.00628455266246,0.0,0.818977797605,-0.573682955921,-0.0119991673402,0.0,-0.0062218249303,0.0120319593626,-0.999908256216,0.0,0.257284613078,-0.269999837083,0.304956464677,1.0,-0.0131088888889,-0.0172288253968,3.289
-0.681598066609,-0.51278778917,-0.125391028136,-2.6354084576,-0.0669258624228,2.11203140265,-0.929962455967,-0.0590420301516,0.00686458465235,0.000661247238529,0.0144846075595,0.000849018644896,0.00360564511375,-0.0484014995403,0.573822003283,0.818944125987,0.00629078382366,0.0,0.818944627848,-0.573730110977,-0.0120084628137,0.0,-0.00622516783591,0.0120427556658,-0.999908105438,0.0,0.257024757439,-0.270331888376,0.304958031312,1.0,-0.0127288888889,-0.0167293968254,3.308
-0.682517800516,-0.512594057392,-0.125362538298,-2.6352434973,-0.0669080093268,2.11207142104,-0.930844526526,-0.0533172058006,0.0118004632515,0.000860211185514,0.0100242971223,0.000185181820182,0.00223439905772,-0.0577150642771,0.573848665766,0.81892551939,0.00628087508072,0.0,0.818925998566,-0.573757016138,-0.0119934234237,0.0,-0.00621814407996,0.0120262134689,-0.999908348237,0.0,0.256822615983,-0.270606320145,0.304965376009,1.0,-0.0124088888889,-0.0163088253968,3.324
-0.683509786102,-0.512384306122,-0.125333751135,-2.63506542306,-0.0668861388363,2.11213210703,-0.931877799324,-0.0549329322331,0.0125849328045,0.00432626304733,0.011209753229,0.00468376123161,0.000581436076833,-0.0575161385035,0.573812830013,0.818950699286,0.00627177433125,0.0,0.818951274841,-0.573721642699,-0.0119596419703,0.0,-0.00619622377933,0.011999104609,-0.999908809992,0.0,0.256606785836,-0.270904882978,0.304974509546,1.0,-0.0120488888889,-0.0158356825397,3.342
-0.684401848134,-0.512180889029,-0.125314456346,-2.63490382217,-0.0668678716655,2.11216398281,-0.932755241039,-0.0539987613986,0.0107405218818,0.000206643938837,0.00807469201434,0.000779983560939,0.00418458080756,-0.0411983884835,0.573827230786,0.81894062927,0.00626911797464,0.0,0.818941139389,-0.573735991884,-0.0119653138061,0.0,-0.00620218240963,0.0120002925468,-0.999908758794,0.0,0.256407305368,-0.271171588288,0.304975808738,1.0,-0.0117088888889,-0.0153888253968,3.359
-0.685174565145,-0.51201281239,-0.12527987488,-2.63476325546,-0.066850506976,2.11219604033,-0.933534479095,-0.0544654286593,0.0102078224948,0.00334486588338,0.00642717866766,0.000264601045983,0.00545930651383,-0.0526032044372,0.573811908816,0.818951448086,0.00625826496487,0.0,0.818951874797,-0.57372083095,-0.0119574998148,0.0,-0.00620223422509,0.0119868044025,-0.999908920258,0.0,0.256239499157,-0.271399493483,0.304980998112,1.0,-0.0114088888889,-0.0149945396825,3.374
-0.685981098504,-0.511832132442,-0.125253417347,-2.63461848936,-0.0668327606871,2.11223678728,-0.934335692864,-0.0484840259257,0.0104993464892,0.000239490309937,0.00718125166041,-6.77613890511e-05,0.00202193797603,-0.0448053557633,0.573812469918,0.818951111585,0.00625084799992,0.0,0.818951501699,-0.573721538925,-0.0119490811227,0.0,-0.00619958649498,0.0119759036819,-0.999909067295,0.0,0.256062479548,-0.271639805048,0.3049839704,1.0,-0.0110888888889,-0.014573968254,3.39
-0.686813103569,-0.511630820492,-0.125240860076,-2.63446823588,-0.0668066950164,2.11228163168,-0.935189446188,-0.0497499907246,0.010482722617,-0.00108912914349,0.00594339997532,0.00459588458636,0.00221370780732,-0.0503144250196,0.573804658827,0.818956531579,0.00625777870835,0.0,0.818956998538,-0.573713674603,-0.0119499380549,0.0,-0.0061964259048,0.011982012488,-0.999909013702,0.0,0.255877308196,-0.271890351161,0.304981813209,1.0,-0.0107488888889,-0.0141271111111,3.407
-0.687570611567,-0.511460998213,-0.125230234298,-2.63432370171,-0.0667880001454,2.11232190173,-0.935937411853,-0.0467487890661,0.0132632520653,0.000532841765208,0.00953193757433,0.00394264964658,0.00658034060016,-0.0416903416596,0.573820285691,0.818945584221,0.00625753268783,0.0,0.818946166919,-0.573729529329,-0.0119310420679,0.0,-0.0061808619337,0.0119710868576,-0.999909240894,0.0,0.255709768386,-0.272121231677,0.30498826735,1.0,-0.0104288888889,-0.0137065396825,3.423
-0.688348741932,-0.51128634797,-0.125220892623,-2.63418176821,-0.0667680708911,2.11234715985,-0.936707761257,-0.0469941309029,0.0116244500447,0.000192446044058,0.00823370138961,7.73920704043e-05,0.00380379027567,-0.0413632052552,0.57383582709,0.81893465791,0.00626230973265,0.0,0.818935281179,-0.573745005655,-0.0119340113232,0.0,-0.00618032553786,0.0119768202308,-0.999909175552,0.0,0.255533264368,-0.272354462809,0.304990433249,1.0,-0.0100888888889,-0.0132596825397,3.44
-0.689196686139,-0.511094135771,-0.125198640402,-2.63401763622,-0.0667445976574,2.11237829955,-0.937549858842,-0.0417002618164,0.011866057275,0.000304769835051,0.0091660005356,0.00509756787146,0.000909328231368,-0.0451963320664,0.57384319221,0.818929507165,0.00626098633357,0.0,0.818930161808,-0.573752468901,-0.0119265004209,0.0,-0.00617482562978,0.0119714821128,-0.999909273457,0.0,0.255346212228,-0.272608772067,0.304996972968,1.0,-0.00970888888889,-0.0127602539683,3.459
-0.689886748944,-0.510940158859,-0.125178520865,-2.63389746388,-0.0667269455019,2.11241401765,-0.938288481056,-0.0399332246205,0.00960159169209,-0.00107105095226,0.00824544799392,0.000258048147978,0.000714299993302,-0.0437720182816,0.573802832369,0.818957801419,0.00625907036517,0.0,0.818958464054,-0.57371218948,-0.0119207674725,0.0,-0.00617181938383,0.0119663191811,-0.999909353817,0.0,0.255192824577,-0.272813358447,0.304998039188,1.0,-0.00938888888889,-0.0123396825397,3.475
-0.690600424713,-0.510776902119,-0.125159982785,-2.63378796245,-0.066706058819,2.11244472616,-0.938974003191,-0.0426705654752,0.0076071890747,0.00283789793088,0.00285214084405,0.000589061306209,0.00414708325514,-0.0455102610493,0.573827364619,0.818940578405,0.0062635099539,0.0,0.818941180798,-0.573736469267,-0.0119395614306,0.0,-0.0061843063248,0.011980923978,-0.999909101777,0.0,0.255029464842,-0.273020165922,0.304990351073,1.0,-0.00904888888889,-0.0118928253968,3.492
-0.691218705238,-0.510627893161,-0.125138366485,-2.63370612117,-0.0666827139857,2.11247597913,-0.939587999902,-0.0425993157689,0.0135902917216,0.00255093543677,0.00235378921386,0.000109232204532,0.00438790233935,-0.0360760974791,0.573829872678,0.8189387586,0.00627166532806,0.0,0.818939264428,-0.57373854994,-0.0119709812741,0.0,-0.0062053238445,0.0120056507968,-0.999908674982,0.0,0.254887262023,-0.273194647186,0.304975493348,1.0,-0.00874888888889,-0.0114985396825,3.507
-0.691922990668,-0.51046422158,-0.125117771212,-2.63361990108,-0.0666526467662,2.11250193435,-0.940279566222,-0.0400711174534,0.00466975981301,0.00270084089722,0.0012032614397,0.000623104570993,0.0015971477031,-0.0399495812737,0.573843163775,0.81892931923,0.00628811533836,0.0,0.818929740903,-0.57375119061,-0.0120165568909,0.0,-0.00623301709695,0.0120453755996,-0.999908024983,0.0,0.254721662223,-0.273390651699,0.304956712362,1.0,-0.00838888888889,-0.0110253968254,3.525
-0.692592412647,-0.510295496022,-0.125102035086,-2.63352295799,-0.0666293947621,2.11252706135,-0.940941698825,-0.0334131742208,0.0115708716608,0.00342213008491,0.00132206974172,0.00266795647051,0.0014077958453,-0.032230507324,0.573853069465,0.818922291041,0.00629942874507,0.0,0.818922589282,-0.573760521628,-0.0120583368072,0.0,-0.0062605978175,0.0120786906406,-0.999907450791,0.0,0.254565811986,-0.273582016669,0.304940731647,1.0,-0.00802888888889,-0.0105522539683,3.543
-0.693133140567,-0.510149234487,-0.125083579756,-2.63344252151,-0.0666045592418,2.11254533848,-0.941533352282,-0.0266013938307,0.0112217768559,-0.000644597106267,0.00663029553717,0.00187080967949,0.00108392487085,-0.030693140376,0.573813184839,0.818950139204,0.00631231363856,0.0,0.818950321016,-0.573720039938,-0.0121010075165,0.0,-0.0062887420351,0.0121134221644,-0.999906854025,0.0,0.254441654026,-0.273734817887,0.304925054441,1.0,-0.00770888888889,-0.0101316825397,3.559
-0.693721835918,-0.510010272388,-0.125051771939,-2.63335744001,-0.0665816097768,2.11256644785,-0.942113665285,-0.0380406521367,0.0081341946636,0.00233381905196,0.00158034484235,0.000148188376611,0.00251195873692,-0.0269870032468,0.573811717883,0.818951145515,0.00631510745295,0.0,0.818951178993,-0.573718205083,-0.0121299003966,0.0,-0.00631082521492,0.0121322772623,-0.999906486294,0.0,0.254308771416,-0.273898909224,0.304914739267,1.0,-0.00736888888889,-0.00968482539683,3.576
