nelsonifechukwu/NELSON_IML_WORK/CNN-GradCAM/train2dof/data_sample_2022-02-21-14-32-51/robot_state.csv
position_joint1,position_joint2,position_joint3,position_joint4,position_joint5,position_joint6,position_joint7,velocity_joint1,velocity_joint2,velocity_joint3,velocity_joint4,velocity_joint5,velocity_joint6,velocity_joint7,ee_T_00,ee_T_10,ee_T_20,ee_T_30,ee_T_01,ee_T_11,ee_T_21,ee_T_31,ee_T_02,ee_T_12,ee_T_22,ee_T_32,ee_T_03,ee_T_13,ee_T_23,ee_T_33,v_x,v_y,time
0.465062706602,0.547859219292,-0.123988147999,-1.35584474072,0.079483762422,1.89409525089,0.159173726014,-0.0017245233346,0.0020215764338,0.000501009783712,0.000147465754066,0.000176971299942,0.000630063679849,-0.000610639791477,0.57382281814,0.818965621036,0.00185252392727,0.0,0.818921328106,-0.573764772253,-0.0119411638927,0.0,-0.00871665755672,0.00836934480747,-0.999926984309,0.0,0.661674938247,0.260877994197,0.30315301076,1.0,0.0,0.0,0.0
0.465069697005,0.547854117689,-0.123988148324,-1.35585252941,0.0794830523464,1.89409473094,0.15917337365,0.000774449215337,0.000116415438334,3.84861898982e-05,-0.00137243414311,3.04249532688e-05,7.98436441798e-06,0.00101761882072,0.573817028954,0.818969683475,0.00184979273533,0.0,0.818925352207,-0.573758992724,-0.0119428925473,0.0,-0.00871969959387,0.00836803839655,-0.999926968719,0.0,0.661671399728,0.260881610778,0.303152871494,1.0,-0.0003,-0.000394285714286,0.016
0.465064036712,0.547844914776,-0.123986155199,-1.35585173349,0.0794816116286,1.89409956739,0.159177945748,0.00117473080874,6.54181629868e-05,0.00138655423704,-4.10840917314e-05,-2.34544914764e-05,-0.00066326254626,0.00262100149456,0.5738236099,0.818965044535,0.00186210956803,0.0,0.81892088512,-0.573765531602,-0.0119350559714,0.0,-0.00870614697927,0.00837369853718,-0.999927039427,0.0,0.661673892833,0.260879332798,0.30316012094,1.0,-0.00066,-0.000867428571429,0.034
0.465065954772,0.547807111802,-0.123991092208,-1.35588727372,0.0794805253362,1.89410076534,0.159176254638,-0.00112488013884,-0.00519993361101,-0.00133019276416,-0.00451198755513,-3.01804676109e-06,0.00182022976023,0.00141393209262,0.573825697858,0.818963574319,0.00186529295263,0.0,0.81891945655,-0.573767606013,-0.0119333513576,0.0,-0.00870290296737,0.00837534961309,-0.999927053839,0.0,0.661667679842,0.260873929154,0.303170251488,1.0,-0.001,-0.00131428571429,0.051
0.465071154646,0.547704900176,-0.123983512318,-1.3560083418,0.0794810082314,1.89412621132,0.159169096008,0.000678809690788,-0.00601413938848,0.00264484187392,-0.00463830585353,0.000333143198392,0.00288340528854,-0.00503989826264,0.573817014642,0.818969628337,0.00187842216346,0.0,0.818925544493,-0.573758736252,-0.0119420288147,0.0,-0.00870256532463,0.00839098876874,-0.999926925662,0.0,0.661644578859,0.260870536435,0.303186996701,1.0,-0.00132,-0.00173485714286,0.067
0.465065105138,0.547564926007,-0.123980707057,-1.35620521844,0.0794768620438,1.89416180097,0.159162572396,-0.00141758163219,-0.00749454100668,0.00738492026818,-0.0110815921268,0.000268405057206,1.34979964077e-05,-0.000803259570698,0.573824310667,0.818964542734,0.00186685124171,0.0,0.818920172196,-0.573765949648,-0.0119638411478,0.0,-0.00872699404107,0.00839410665245,-0.999926686587,0.0,0.661611400394,0.260848366862,0.303195439733,1.0,-0.00166,-0.00218171428571,0.084
0.465046120934,0.547411015948,-0.123991336847,-1.3563986019,0.0794741228226,1.89427461397,0.159165080531,-0.00420666579989,-0.012942117999,0.00343532949695,-0.0129452854606,0.000485727495877,0.00488706027919,0.00112322954148,0.573859685426,0.818939608363,0.00193033628227,0.0,0.818896096643,-0.573801082478,-0.0119267577907,0.0,-0.00865983203447,0.00842519253177,-0.999927009056,0.0,0.661601180441,0.260815953549,0.303222565121,1.0,-0.00198,-0.00260228571429,0.1
0.465026777272,0.547218568533,-0.12398362917,-1.35662164402,0.0794688117943,1.89439538113,0.159149888574,-0.000202293285411,-0.0118023165673,0.000155689059884,-0.0143028521373,-0.00390875302407,0.00884349750597,-0.000570431351674,0.573868962033,0.8189329086,0.0020130893673,0.0,0.818890415001,-0.573809957124,-0.0118898370513,0.0,-0.00858201334603,0.00847187114459,-0.999927285579,0.0,0.661582784757,0.260791027176,0.303262944876,1.0,-0.00232,-0.00304914285714,0.117
0.464997493227,0.547004825067,-0.123986059151,-1.35691402485,0.0794659559213,1.89452305573,0.159125344017,-0.00236888004044,-0.0142105524639,-0.000187079741822,-0.0208406802559,0.000328151974701,0.0113187052006,-0.00556031286631,0.573890242501,0.818917874013,0.00206205865163,0.0,0.818875923887,-0.573830942422,-0.011875087262,0.0,-0.00854161260741,0.00850373061512,-0.999927361072,0.0,0.661555189439,0.260746563617,0.303286338193,1.0,-0.00266,-0.003496,0.134
0.464966909052,0.546769873556,-0.123988555723,-1.35728129912,0.0794554452174,1.8946658132,0.159088224346,-0.000344205446808,-0.0172951534588,-0.00146445797253,-0.0215538245434,-0.00141072820425,0.00674055304359,-0.00564210975928,0.57390445479,0.818907878344,0.00207616484337,0.0,0.818866026749,-0.573845011062,-0.0118777277575,0.0,-0.0085355323354,0.00851694570659,-0.999927300519,0.0,0.66151474038,0.260692366202,0.303290393171,1.0,-0.003,-0.00394285714286,0.151
0.464926311963,0.546503550059,-0.123990920417,-1.35767274271,0.0794434542003,1.89480344194,0.158953368909,-0.00390830608457,-0.0200151133951,-0.00133825794896,-0.0276350213288,0.000269765215192,0.00452257047495,-0.00481649926241,0.573847566125,0.818947697988,0.00209420953252,0.0,0.818905969566,-0.57378794484,-0.0118808360833,0.0,-0.00852831537334,0.00853291384265,-0.999927225961,0.0,0.661471188986,0.260628577754,0.303304694826,1.0,-0.00332,-0.00436342857143,0.167
0.464863194268,0.546115448893,-0.123988583443,-1.35832301415,0.0794159538143,1.89502399744,0.158928816408,-0.0029824669406,-0.0221287545959,-0.00128873307353,-0.0333494046404,0.000671865328586,0.0166404154654,-0.00173629373677,0.573906498321,0.81890647485,0.00206483299909,0.0,0.818864216699,-0.573846842412,-0.0119139819398,0.0,-0.008571704087,0.00852849371249,-0.99992689267,0.0,0.661393586243,0.260526600792,0.303289036652,1.0,-0.00376,-0.00494171428571,0.189
0.464819852285,0.545865756891,-0.123989216795,-1.35875967846,0.0793575967039,1.89516790127,0.158875339557,-0.00291434113255,-0.0217771717653,2.45645196801e-05,-0.0319524243013,-0.00919495634924,0.0144293669196,0.00061978455562,0.573907479785,0.818905923503,0.00200997521388,0.0,0.81886321448,-0.573848310384,-0.011912159437,0.0,-0.0086016826533,0.00848253548102,-0.999927026161,0.0,0.661343293209,0.260449324312,0.303270405542,1.0,-0.00402,-0.00528342857143,0.202
0.464746176444,0.545488288845,-0.123986737779,-1.35942655544,0.0792974331265,1.89539576332,0.158770695774,-0.00499418903855,-0.0221958909888,0.00104290744876,-0.0398898138485,-0.00471253357286,0.0118160782669,-0.00930717142518,0.57390160436,0.818910194524,0.00194646295816,0.0,0.818866791391,-0.573842829956,-0.0119302710224,0.0,-0.00865302334888,0.00844085807,-0.999926935882,0.0,0.661267463814,0.260333549461,0.303239835549,1.0,-0.00438,-0.00575657142857,0.22
0.464680412986,0.545075175507,-0.123989615141,-1.36012175604,0.0792841406399,1.89561783113,0.158682817349,-0.000330617895125,-0.0264717850562,0.000666885148189,-0.0386289302652,-5.89891926441e-05,0.0105891598896,-0.000713362757755,0.573920594335,0.818896970089,0.00191067507389,0.0,0.81885279558,-0.573861672324,-0.0119844528242,0.0,-0.00871773675615,0.00844284846431,-0.999926356976,0.0,0.661181371918,0.260224215451,0.303220744744,1.0,-0.00472,-0.00620342857143,0.237
0.464623336365,0.544727154085,-0.123995024307,-1.36071326212,0.0792613157934,1.89582379106,0.15863183552,-0.00410076829799,-0.0260133265899,-0.00110151472456,-0.0416807828548,5.99051597613e-05,0.0165519470605,1.67644953629e-05,0.573956262409,0.818872033861,0.00188358775881,0.0,0.818827391865,-0.573897341882,-0.0120120861182,0.0,-0.00875554395392,0.00843690774066,-0.999926076787,0.0,0.661112972987,0.260127982305,0.303203569483,1.0,-0.005,-0.00657142857143,0.251
0.464548626821,0.544234783417,-0.124000988486,-1.36152652089,0.0792207811947,1.89612870654,0.158519090138,-0.00134493225946,-0.0313646595184,-0.000422449199507,-0.0491035646868,-0.000108401364632,0.0130252110501,-0.00307885580171,0.573963922862,0.818866691088,0.00187199929469,0.0,0.818821844671,-0.573905000277,-0.0120243189934,0.0,-0.00877213344175,0.0084345216056,-0.999925951518,0.0,0.66102273417,0.259999200209,0.303191553123,1.0,-0.00536,-0.00704457142857,0.269
0.464476372233,0.54372177715,-0.123999102199,-1.36235656971,0.0791803475081,1.8964077756,0.158414694019,-0.00947444225266,-0.0329779294911,-0.00117344489856,-0.0471688438068,-0.00236272056426,0.0147970784103,-0.00305871319739,0.573971587801,0.818861378147,0.00184571872424,0.0,0.818816040187,-0.573912636446,-0.0120550802933,0.0,-0.00881232802814,0.008430739992,-0.999925629984,0.0,0.660921453538,0.259873134723,0.303183588257,1.0,-0.0057,-0.00749142857143,0.286
0.464405063621,0.543220598322,-0.124004869675,-1.36316793511,0.0791262476541,1.89669218558,0.158295770851,-0.00118492292524,-0.0319773141327,0.00124698086611,-0.0479516641119,-0.000303356158168,0.0124817482696,-0.00890248120617,0.573967296011,0.818864445104,0.00181949314481,0.0,0.81881880899,-0.573908502835,-0.0120638020015,0.0,-0.00883456603794,0.00841422502413,-0.99992557286,0.0,0.660827384034,0.259743481244,0.303176781676,1.0,-0.00602,-0.007912,0.302
0.464331320119,0.542638809927,-0.124010917947,-1.36407399122,0.0790771895658,1.89702405548,0.158197953771,-0.00288565839587,-0.0360741170272,-0.000563499544508,-0.0543014314535,-0.00094703807041,0.0232348407775,-0.0100445745547,0.573989099294,0.818849144968,0.00182717775531,0.0,0.818803576439,-0.573930238302,-0.0120636509602,0.0,-0.00882980771061,0.00842066595361,-0.99992556067,0.0,0.660723384152,0.259605922074,0.303186001074,1.0,-0.00636,-0.00835885714286,0.319
0.464259055338,0.542037115488,-0.124010876546,-1.36500234589,0.0790255646845,1.89736983135,0.158058432246,-0.0108834719727,-0.0326961442466,-0.000375139919307,-0.0516679945732,-0.00702913773819,0.0203398928056,-0.00703853487518,0.573971804499,0.818861225895,0.00184587857299,0.0,0.818815852835,-0.57391281684,-0.0120592169677,0.0,-0.00881562154614,0.0084332475279,-0.999925579807,0.0,0.660615762236,0.259471019354,0.303199609179,1.0,-0.0067,-0.00880571428571,0.336
0.464183716649,0.541423115927,-0.124011617477,-1.36592500758,0.0789715293055,1.89771367958,0.15794742656,-0.00784413085351,-0.0426570213245,0.000127761078026,-0.0566232967974,-0.00586273490404,0.0188922098613,-0.00437046680134,0.573979877459,0.81885549719,0.00187667135179,0.0,0.818810512249,-0.573920740735,-0.0120447202559,0.0,-0.00878599393892,0.00845022798046,-0.999925697218,0.0,0.660510360109,0.259333958835,0.303224395024,1.0,-0.00702,-0.00922628571429,0.352
0.464103167832,0.540732597321,-0.124008540631,-1.36698778189,0.0789008147287,1.89810299475,0.157806378871,-0.00481756489418,-0.0407698474644,0.00191264711449,-0.0613420342586,-0.00339413275186,0.0178397330381,-0.0109674217892,0.573968153848,0.818863687769,0.00188841806555,0.0,0.818818884738,-0.573908995008,-0.0120352127589,0.0,-0.00877158746893,0.00845426399354,-0.999925789583,0.0,0.660384931356,0.259180436681,0.30324029456,1.0,-0.00736,-0.00967314285714,0.369
0.464005524389,0.54000723161,-0.124017318501,-1.3680980771,0.0788428614481,1.89851383453,0.15766264842,-0.00225312247927,-0.0453977932138,-0.000973889316792,-0.059689172988,-0.00311681329539,0.0223534404078,-0.0139716769642,0.57398254318,0.81885354377,0.00191334282586,0.0,0.818809017664,-0.573923227921,-0.0120277988777,0.0,-0.00875106232908,0.00847057203313,-0.999925831408,0.0,0.660259968152,0.25900710039,0.30326037708,1.0,-0.0077,-0.01012,0.386
0.463907105696,0.53930040005,-0.124018041074,-1.36918108886,0.0787855458601,1.89892968531,0.157532763203,-0.00250246397584,-0.0481722206483,-0.00320140475197,-0.0626867096161,-0.0033722068011,0.0252809340069,-0.00708058870533,0.57400193905,0.818839859753,0.00195062750347,0.0,0.818795762891,-0.5739424054,-0.0120150263192,0.0,-0.00871900249259,0.00849397747517,-0.999925912927,0.0,0.66013993441,0.258841371518,0.30328040402,1.0,-0.00802,-0.0105405714286,0.402
0.463813088419,0.538538453031,-0.124018028981,-1.37036934391,0.0787160288276,1.89939281833,0.157383768956,-0.00602287223228,-0.0501064835999,0.00135908805625,-0.0653465198902,-0.00407305199842,0.0243308133805,-0.00836385455171,0.574004102661,0.818838268267,0.00198177971028,0.0,0.818794578302,-0.573944436361,-0.0119987255095,0.0,-0.00868775144493,0.00851015199812,-0.999926047409,0.0,0.660005581411,0.258668448541,0.303293224642,1.0,-0.00836,-0.0109874285714,0.419
0.463704703075,0.537756929799,-0.124021198864,-1.3716060831,0.0786405764025,1.89986872694,0.157228723767,-0.00200338215489,-0.0510837751949,0.000956593948916,-0.0746149058982,0.000128560298485,0.0250843165657,-0.00644800208122,0.574016273743,0.818829700108,0.00199664755448,0.0,0.818786238866,-0.573956577093,-0.0119870578706,0.0,-0.00866953692077,0.00851575778822,-0.999926157773,0.0,0.659867580941,0.258478616635,0.303297871636,1.0,-0.0087,-0.0114342857143,0.436
0.463589714067,0.53697057356,-0.124026908359,-1.37282861772,0.0785624937788,1.90031793913,0.157078070575,-0.0048116353095,-0.0528845120201,0.000284613524706,-0.0776391798099,-0.00541108380518,0.0279533841044,-0.0142529990212,0.574037456764,0.818814832638,0.0020037428776,0.0,0.818771514938,-0.573977777705,-0.0119776428145,0.0,-0.00865753439693,0.00851638717755,-0.999926256405,0.0,0.659729837505,0.258282488883,0.303310309222,1.0,-0.00902,-0.0118548571429,0.452
0.463464786044,0.536062076557,-0.12403501956,-1.37423463405,0.0784919695771,1.90084164698,0.156906237386,-0.00569705672464,-0.0495045609629,-0.00281896340897,-0.0727495757094,-0.000689605071623,0.0250214668585,-0.00803248155146,0.574063201246,0.818796715164,0.00203152979983,0.0,0.818753660639,-0.574003304527,-0.0119748270489,0.0,-0.00863901056171,0.00853779438938,-0.999926234061,0.0,0.659570010282,0.25806451929,0.303328050395,1.0,-0.00938,-0.012328,0.47
0.463338804567,0.535162072951,-0.124037278559,-1.37564365162,0.0784026291821,1.9013529559,0.156743098092,-0.00827195372727,-0.0554373223169,-0.00269545103201,-0.085426881258,-0.0120573524407,0.0341370018714,-0.00770874082872,0.57408768037,0.818779555206,0.00203030158011,0.0,0.818736504883,-0.57402780572,-0.0119733342778,0.0,-0.00863823806621,0.00853619006953,-0.999926254432,0.0,0.659406409843,0.257844931044,0.303336886531,1.0,-0.00972,-0.0127748571429,0.487
0.463215159222,0.534319855171,-0.124040659913,-1.37703532777,0.0783269900124,1.90185924765,0.156566272999,-0.0060321208985,-0.0554561488046,-0.000357260197927,-0.0832039658921,-0.0045511894281,0.0292951879991,-0.0100958790732,0.574102540824,0.818769220088,0.00199593525323,0.0,0.818725625091,-0.574042714184,-0.0120025002581,0.0,-0.00868169283483,0.00852495336404,-0.99992597395,0.0,0.659242857075,0.257629415398,0.303312683028,1.0,-0.01004,-0.0131954285714,0.503
0.463087738943,0.533395945332,-0.124048306004,-1.37851773478,0.0782433071622,1.90240721721,0.15639051163,-0.00560634913149,-0.0527318065534,0.000377255653694,-0.090789272959,-0.0146998866871,0.0356466933613,-0.0110026691357,0.574127043384,0.818752060448,0.00198707534966,0.0,0.818708312451,-0.574067214637,-0.0120116237089,0.0,-0.00869399423604,0.00852319721041,-0.99992588204,0.0,0.659070701869,0.257400785892,0.303306482547,1.0,-0.01038,-0.0136422857143,0.52
0.46294321741,0.532324015492,-0.124052296428,-1.38023693211,0.078143354473,1.90306083014,0.156165190559,-0.00807501014573,-0.0574282369006,-0.00155051716882,-0.0885795047781,-0.0119849303493,0.045699691214,-0.0183626892571,0.574130921304,0.818749329904,0.00199170434506,0.0,0.81870562412,-0.574071054532,-0.0120113398579,0.0,-0.00869106397617,0.0085268653362,-0.99992587624,0.0,0.658872406528,0.257141399899,0.30330077308,1.0,-0.01076,-0.0141417142857,0.539
0.46283120806,0.531448847751,-0.124052060057,-1.38163663246,0.0780672662524,1.90357048349,0.1559866607,-0.00401230168882,-0.0606683300853,-0.00258422102958,-0.0984606808701,-0.0023201669913,0.0348153658928,-0.0143830203395,0.574132142367,0.818748494366,0.00198317305161,0.0,0.81870456353,-0.574072200393,-0.0120288524872,0.0,-0.00871028804537,0.00852994790424,-0.999925682674,0.0,0.658703613284,0.256935356932,0.303295601655,1.0,-0.01106,-0.014536,0.554
0.46269776624,0.530422216578,-0.124047033097,-1.38328234687,0.0779671972111,1.90414329701,0.155773751945,-0.00909308102224,-0.0645781321693,-6.81074049193e-05,-0.0986645886641,-0.00327029184467,0.0383023497806,-0.012148749291,0.574125950524,0.818752927646,0.00194507245233,0.0,0.818708397889,-0.574066074547,-0.0120601899467,0.0,-0.00875788433585,0.00851667914036,-0.999925380035,0.0,0.658499326144,0.256691218149,0.303285176222,1.0,-0.0114,-0.0149828571429,0.571
0.462554682752,0.529370071073,-0.124049630552,-1.3849286974,0.0778598966778,1.90475695725,0.155558867544,-0.00710956968119,-0.0626064935419,-0.000270396168391,-0.0984434477581,-0.00133337730385,0.042653557705,-0.019766150964,0.574129521101,0.818750397558,0.00195611859323,0.0,0.818706078928,-0.57406966197,-0.0120468432944,0.0,-0.00874057768022,0.00851809855458,-0.999925519376,0.0,0.658307870559,0.25643817953,0.303295946465,1.0,-0.01174,-0.0154297142857,0.588
0.46242286017,0.528342353566,-0.12404997312,-1.3865298946,0.0777616783097,1.90536411405,0.155339001285,-0.00771810137414,-0.0643371848315,0.000429435386745,-0.10413937093,-0.00347800688328,0.0374022885869,-0.0111176951167,0.574118092235,0.818758346577,0.00198317432966,0.0,0.8187143927,-0.574058129438,-0.0120313803436,0.0,-0.00871250347385,0.00853125074978,-0.999925652258,0.0,0.65812067671,0.25619994969,0.303310134742,1.0,-0.01206,-0.0158502857143,0.604
0.46227671995,0.527209972336,-0.124058412347,-1.38828443552,0.0776494968689,1.90604167874,0.155081684011,-0.010201174732,-0.0639495076677,-0.000597715527744,-0.107923937255,-0.00626282923928,0.0392877098764,-0.0155886732291,0.574097844891,0.818772443897,0.00202398315899,0.0,0.818729133646,-0.574037820261,-0.0119972301568,0.0,-0.00866132533196,0.00854484247063,-0.999925980816,0.0,0.657920181754,0.255933303149,0.303331114285,1.0,-0.0124,-0.0162971428571,0.621
0.462131361702,0.526034975359,-0.124055668592,-1.39009586568,0.0775300563357,1.90671676992,0.154850095804,-0.00440183123615,-0.0685570563447,-0.00114269430391,-0.112371134278,-0.00553028716871,0.0392821466408,-0.0144317639701,0.574090800136,0.81877731387,0.00205192394827,0.0,0.818734425354,-0.574030715681,-0.0119760217123,0.0,-0.00862799363155,0.00855546938124,-0.99992617811,0.0,0.657704071201,0.255666195819,0.303354115875,1.0,-0.01274,-0.016744,0.638
0.461981709069,0.524937016424,-0.124058860525,-1.39182621317,0.0774252718189,1.90733190699,0.15461658923,-0.00718769417468,-0.0712168401052,-0.00071865828479,-0.102459412876,-0.0056011266054,0.0391072328434,-0.0146179755454,0.574089137709,0.818778516629,0.00203704993776,0.0,0.818735383874,-0.574029066072,-0.0119895537545,0.0,-0.00864762965848,0.00855104207323,-0.999926046356,0.0,0.657494083695,0.255399766614,0.303356249797,1.0,-0.01306,-0.0171645714286,0.654
0.461824971942,0.523682728022,-0.124064835128,-1.39384774731,0.077287699261,1.90805510964,0.154339079049,-0.00736501809682,-0.0710030377,0.00133487380575,-0.112490561206,-0.00610394430204,0.0385680328692,-0.00681192924143,0.574065744813,0.818795034918,0.00198955443881,0.0,0.818751371373,-0.574005964281,-0.0120038221216,0.0,-0.00868682108729,0.00852009755032,-0.999925970798,0.0,0.65724497152,0.25509663671,0.303338874634,1.0,-0.01342,-0.0176377142857,0.672
0.461662046999,0.522473544469,-0.124062887533,-1.39578676474,0.0771772607816,1.90880270558,0.154078604173,-0.0123228153666,-0.0676833682702,-0.000371243008063,-0.115305866596,-0.00700381387334,0.0419983782132,-0.0185431826383,0.574058863802,0.818799817664,0.00200658547602,0.0,0.818756308519,-0.57399894529,-0.0120027067075,0.0,-0.00867620316053,0.00853332898518,-0.999925950156,0.0,0.657016592253,0.254809270828,0.30333062986,1.0,-0.01376,-0.0180845714286,0.689
0.46149984772,0.521301828892,-0.124068442582,-1.39765531466,0.0770674040599,1.90953854104,0.153814926796,-0.00789486604294,-0.0745156234693,0.000731537625877,-0.117567262711,-0.0109700942294,0.0464463390384,-0.0193990379936,0.574050281418,0.818805757986,0.00203764410131,0.0,0.818762678631,-0.573990257292,-0.0119836353539,0.0,-0.00864284816901,0.00854772075992,-0.999926116093,0.0,0.656802349144,0.254525211844,0.303328489372,1.0,-0.01408,-0.0185051428571,0.705
0.461327914281,0.520014532326,-0.124077848873,-1.39970565548,0.0769351735302,1.91027362114,0.153539596589,-0.00850546397334,-0.0750039165064,-0.00155448706349,-0.125314479444,-0.0031585911807,0.0522630016345,-0.0166508783716,0.574045695657,0.818809047746,0.00200736867247,0.0,0.818765615787,-0.573985841353,-0.0119944667002,0.0,-0.00866914356852,0.0085291006398,-0.999926047462,0.0,0.656551988597,0.254208907528,0.303320699409,1.0,-0.01442,-0.018952,0.722
0.461155001093,0.518658170117,-0.124084342233,-1.40178471035,0.0767971093227,1.91100895848,0.153263099882,-0.0119505350163,-0.0832287438287,0.000981887335627,-0.121354146458,-0.0099914222516,0.0416148296578,-0.0141269663925,0.5740383348,0.818814196933,0.00201196006653,0.0,0.818770881702,-0.573978517988,-0.011985452301,0.0,-0.00865920335995,0.00852760758116,-0.999926146326,0.0,0.656295884413,0.253890304818,0.303347206696,1.0,-0.01476,-0.0193988571429,0.739
0.460991219578,0.51739576758,-0.124090397013,-1.40378408342,0.0766677892055,1.91173307392,0.152990691121,-0.0124920063261,-0.0786518047122,-0.000806859311233,-0.127784612967,-0.00351457122798,0.0456072737486,-0.0209108309139,0.574024594477,0.818823870389,0.00199527373992,0.0,0.818780375528,-0.573964887173,-0.011989655684,0.0,-0.0086723661747,0.00851621218743,-0.999926129369,0.0,0.656050297739,0.253586851289,0.303344377144,1.0,-0.01508,-0.0198194285714,0.755
0.460811733547,0.516033844665,-0.124091055132,-1.40592939281,0.0765337053519,1.91254249069,0.15268720657,-0.00927808010246,-0.0811914045656,0.000315480486762,-0.123952519275,-0.00823928607513,0.048771057138,-0.017536938829,0.574000794795,0.818840508025,0.00201417301532,0.0,0.818797276298,-0.573941027183,-0.01197766858,0.0,-0.0086519502725,0.00852455478774,-0.99992623514,0.0,0.655792073749,0.253265262298,0.30334874482,1.0,-0.01542,-0.0202662857143,0.772
0.460623464851,0.514658073567,-0.124088758804,-1.40815041314,0.0763964662164,1.91336738828,0.152388664938,-0.00726185688668,-0.0860891608656,0.00188156107451,-0.133795828124,-0.00567471772669,0.0495712611934,-0.0181954159619,0.573988910522,0.818848886638,0.00199458020613,0.0,0.818805362825,-0.573929191057,-0.0119920124294,0.0,-0.00867506524405,0.00851661908998,-0.999926102491,0.0,0.655520230596,0.252931445221,0.303327658609,1.0,-0.01576,-0.0207131428571,0.789
0.460444848456,0.513345962352,-0.124093904038,-1.4102870844,0.0762680122584,1.91409749221,0.152092838262,-0.0150316495539,-0.0814812140277,-0.000304428869481,-0.133533932069,-0.00702267376145,0.0423059365878,-0.0198718454569,0.573974229592,0.818859368505,0.00191449110801,0.0,0.818814676719,-0.57391473555,-0.0120477553563,0.0,-0.00876683147371,0.00848287783834,-0.999925588956,0.0,0.655229383743,0.252584473176,0.30329305678,1.0,-0.0161,-0.02116,0.806
0.460228362904,0.511739961341,-0.124100395088,-1.41284691602,0.076119647342,1.91503015042,0.151719748588,-0.00887281169127,-0.0825079291725,0.000433419319311,-0.141871464896,-0.00361445724502,0.0530719083401,-0.0193095683484,0.573944248263,0.818880417844,0.00189948899942,0.0,0.818835403,-0.57388470053,-0.0120698049708,0.0,-0.00879380857028,0.00848292730363,-0.999925351651,0.0,0.654928763065,0.252214942001,0.303281399931,1.0,-0.01646,-0.0216331428571,0.824
0.460030851617,0.510345208276,-0.124103483094,-1.41502949396,0.0759762440048,1.9158733369,0.151419464586,-0.0140927395161,-0.0890147100852,0.0010627977081,-0.13654746986,-0.0080474081537,0.0541243473533,-0.015534175523,0.573937619314,0.818884972891,0.00193835256269,0.0,0.818840585691,-0.573878019849,-0.0120357991284,0.0,-0.00874372545633,0.00849516320421,-0.999925686972,0.0,0.654671492189,0.251877171119,0.303292253763,1.0,-0.01678,-0.0220537142857,0.84
0.459838213309,0.508923650183,-0.124112505071,-1.41726752866,0.0758361437796,1.91667804776,0.151118225216,-0.0120248745752,-0.0866247518773,-0.000144958316351,-0.137877674231,-0.0118989730882,0.0538062214458,-0.0136184989942,0.573933556354,0.818887852427,0.00192482185703,0.0,0.818843282926,-0.573874010397,-0.0120434670584,0.0,-0.00875781225188,0.00848844075691,-0.999925620783,0.0,0.654393064583,0.251530950987,0.303291895239,1.0,-0.0171,-0.0224742857143,0.856
0.45963062747,0.507413380966,-0.124118481803,-1.41966106633,0.0756892142084,1.91753708817,0.150772835569,-0.0134603199275,-0.095159781697,-0.00169582903658,-0.139556112259,-0.01305462979,0.0574118138831,-0.0138148329041,0.573909281412,0.81890491629,0.00190307271513,0.0,0.818860003685,-0.573849775879,-0.0120613428118,0.0,-0.00878518421662,0.00848062999492,-0.999925446948,0.0,0.654093150038,0.251162104014,0.303283736368,1.0,-0.01744,-0.0229211428571,0.873
0.459412700723,0.505840810423,-0.124117042701,-1.42210285685,0.0755292445849,1.9184550465,0.150437876258,-0.011841819546,-0.0984130323874,-0.000731155773782,-0.141572193558,-0.00683166548839,0.0542692876945,-0.0240010947172,0.573895359023,0.818914590466,0.00193837964424,0.0,0.81887020364,-0.573835764739,-0.0120354309693,0.0,-0.00874384680391,0.00849452285699,-0.999925691351,0.0,0.65379572189,0.250787869335,0.303300445279,1.0,-0.01778,-0.023368,0.89
0.459205679923,0.504297194253,-0.124119914198,-1.42444313385,0.0753831431356,1.91935561647,0.150113487398,-0.0132335079541,-0.0958005617883,0.000706769437546,-0.145779319071,-0.0140118887088,0.0514746883277,-0.0180174429932,0.573882510081,0.818923387716,0.00202399999127,0.0,0.818880171222,-0.573822604583,-0.0119845963851,0.0,-0.00865321592664,0.0085353280467,-0.999926132286,0.0,0.653514924413,0.250431003891,0.303343260825,1.0,-0.0181,-0.0237885714286,0.906
0.458964952997,0.502519957205,-0.124125247746,-1.42706234263,0.0752142679091,1.92034093327,0.1497550751,-0.00966772951392,-0.102742211389,-0.00171906104256,-0.145888014149,-0.0135828705603,0.0499989891839,-0.0148996425833,0.5738785826,0.818925840541,0.00214173510509,0.0,0.818884251353,-0.573818283442,-0.0119124881814,0.0,-0.00852664179958,0.00859032037119,-0.999926748705,0.0,0.653199347449,0.250022861861,0.303423192922,1.0,-0.01846,-0.0242617142857,0.924
0.458738784243,0.500914488528,-0.124129154454,-1.42949161741,0.0750541212468,1.92118942157,0.149410543009,-0.0184080634869,-0.0977099681972,-0.000561285356019,-0.151292774923,-0.00542964505026,0.0511655735806,-0.0178255164534,0.573865073364,0.818935251236,0.00216304359758,0.0,0.818893934278,-0.573804684319,-0.0119019140009,0.0,-0.00850589614865,0.00860156163963,-0.999926828757,0.0,0.652871967631,0.249616555463,0.303463654148,1.0,-0.0188,-0.0247085714286,0.941
0.458498440137,0.499208875197,-0.124129997098,-1.43210022575,0.0748925970312,1.92214520213,0.149045244012,-0.0142503249592,-0.0963428642939,-0.000252106810734,-0.155730424823,-0.0103727310263,0.0501660666272,-0.0207760016046,0.573852226426,0.818944143393,0.00220434333423,0.0,0.818903329475,-0.573791637974,-0.0118844464719,0.0,-0.00846802709897,0.00862522622577,-0.999926946326,0.0,0.652567386494,0.24923216935,0.303492167103,1.0,-0.01912,-0.0251291428571,0.957
0.458245650351,0.497533906781,-0.124132374264,-1.43474111833,0.0747338550281,1.92312193108,0.148656157854,-0.00988811330051,-0.0967155000229,-0.00127453105025,-0.155347844469,-0.00700811109162,0.0552736646226,-0.0223385768684,0.573833582526,0.818957179612,0.00221459467462,0.0,0.818916420115,-0.573772874901,-0.0118883049908,0.0,-0.0084655013596,0.00863564284888,-0.999926877806,0.0,0.652240421868,0.248815368847,0.303487809292,1.0,-0.01946,-0.025576,0.974
0.457980834221,0.495846723203,-0.124130102456,-1.43743565175,0.0745633339313,1.9240577394,0.148268583255,-0.0195667577419,-0.101087757063,0.00034393388587,-0.155654972321,-0.0112282168639,0.0562758739183,-0.0173444216817,0.573821176998,0.818966035033,0.00215341409893,0.0,0.818924353436,-0.573760590965,-0.0119345928155,0.0,-0.00853864640722,0.00861197115214,-0.999926460031,0.0,0.651893919709,0.248382847612,0.303462117645,1.0,-0.0198,-0.0260228571429,0.991
0.457726531803,0.49427980939,-0.124134859052,-1.44001910128,0.0744044159023,1.92496609632,0.147901543602,-0.0138759426937,-0.101535027425,0.00146638117025,-0.164212610694,-0.00594103895868,0.060758618268,-0.0211795770542,0.573819320382,0.818967575576,0.00206024597082,0.0,0.818924552398,-0.573758993885,-0.0119975546568,0.0,-0.0086436900126,0.00857177970224,-0.999925902863,0.0,0.651562799709,0.24796476514,0.30340287067,1.0,-0.0212177142857,-0.0278861387755,1.007
0.457434331628,0.492204981093,-0.124185193094,-1.44325461962,0.074200520453,1.92617246595,0.14743452088,-0.0137360162273,-0.12294994625,-0.00477309080366,-0.184618196378,-0.00821354312721,0.0731777541395,-0.0311439517243,0.573819634149,0.818967293619,0.00208479009909,0.0,0.818924807591,-0.573759420892,-0.0119596551212,0.0,-0.00859856397629,0.00857013625864,-0.999926306016,0.0,0.651166903646,0.247437666093,0.303413196598,1.0,-0.0249308571429,-0.0327662693878,1.025
0.457096619947,0.490015866032,-0.124188935641,-1.44682200503,0.0739930427593,1.92744014689,0.146923537385,-0.0213704683012,-0.135129449755,-0.000216932538039,-0.226349193565,-0.0102376716557,0.0822986912477,-0.0353808877244,0.573798611278,0.818982244376,0.00199599424773,0.0,0.818938287467,-0.573738466659,-0.0120415986278,0.0,-0.00871684461722,0.00854421318383,-0.999925503746,0.0,0.65067491316,0.246838301184,0.303345567132,1.0,-0.028644,-0.0376464,1.043
0.456717924771,0.48760759135,-0.124212176025,-1.45060770326,0.0737692461229,1.92882763312,0.14638818404,-0.0222658941345,-0.161752369249,-0.00987992193606,-0.243240148176,-0.0182815926715,0.0949787064336,-0.0314820746753,0.573818709748,0.818968138215,0.00200594945758,0.0,0.818924250527,-0.573758460261,-0.012043590801,0.0,-0.00871255440721,0.00855372307597,-0.999925459831,0.0,0.6502315683,0.24625550481,0.303341204645,1.0,-0.0317382857143,-0.0417131755102,1.058
0.456251346479,0.484754091756,-0.124254749682,-1.45497952283,0.0734946859875,1.9304901212,0.145717933971,-0.028958174217,-0.171072349892,-0.00305383336657,-0.268432281252,-0.0149700158931,0.0920624757738,-0.0402455792673,0.573824471939,0.81896382257,0.00211651297303,0.0,0.818921590588,-0.573763967318,-0.0119618216683,0.0,-0.00858208554983,0.0085974096994,-0.999926213455,0.0,0.649707822023,0.245515373705,0.303387211106,1.0,-0.0352451428571,-0.0463221877551,1.075
0.455744409586,0.481621684224,-0.124305567659,-1.45988189424,0.073194899994,1.93216206251,0.144972028623,-0.0298263668562,-0.18960416069,-0.00245831436358,-0.30428573324,-0.0209226865157,0.0956518372193,-0.0444031690498,0.573824095795,0.81896430183,0.00203133285909,0.0,0.818920809789,-0.573763800435,-0.0120231238248,0.0,-0.00868117108723,0.00856282376819,-0.999925654895,0.0,0.649072382317,0.244682494385,0.303373416398,1.0,-0.038752,-0.0509312,1.092
0.455215108506,0.478380433133,-0.124333914017,-1.46488606347,0.0728929296692,1.93398029788,0.144234859533,-0.0289864297505,-0.211589138653,-0.00443581629193,-0.316869490633,-0.0187983752547,0.116516288897,-0.0547237691088,0.573836341981,0.818955599325,0.00207986983707,0.0,0.818912625756,-0.573775725699,-0.0120114477108,0.0,-0.0086436299503,0.00859600238545,-0.999925695442,0.0,0.648440319666,0.24384752013,0.303396169793,1.0,-0.0420525714286,-0.0552690938775,1.108
0.454591740863,0.474647047186,-0.12436807569,-1.47057549375,0.0725479587764,1.93609146422,0.143419572963,-0.038583756654,-0.227190653312,2.43663821043e-05,-0.344503920872,-0.0239487754753,0.12651083682,-0.0516360826663,0.573885619413,0.818920724286,0.0022113494881,0.0,0.818879437909,-0.573824424515,-0.0119475060963,0.0,-0.00851529794425,0.00866749743852,-0.99992617937,0.0,0.647732165503,0.242887021773,0.303456180956,1.0,-0.0455594285714,-0.0598781061224,1.125
0.453925496343,0.470656686308,-0.124404675741,-1.47673763577,0.0721659833328,1.93824598813,0.142496055454,-0.0438232204052,-0.241052298747,-0.00114797075037,-0.366305459285,-0.0239255949642,0.11956970965,-0.0597747971846,0.573892369975,0.818916029669,0.00219793943831,0.0,0.81887436678,-0.573831024153,-0.0119780654398,0.0,-0.00854794852862,0.00867412363246,-0.999925843328,0.0,0.646928935896,0.241843068112,0.303469400275,1.0,-0.0490662857143,-0.0644871183673,1.142
0.453260820619,0.466592683315,-0.124420689411,-1.48281521881,0.0717793403433,1.94054595018,0.141507704484,-0.0444259911889,-0.255700565044,-0.000671069612788,-0.391643089047,-0.027482182622,0.138584713476,-0.0680053697314,0.573822366171,0.818964405786,0.00243742464626,0.0,0.81892597074,-0.573760189838,-0.0118425464489,0.0,-0.00830028659397,0.00879175763791,-0.999926902448,0.0,0.646166539763,0.240832758287,0.303581494692,1.0,-0.0523668571429,-0.0688250122449,1.158
0.452483419221,0.462057503761,-0.124430998419,-1.4898219066,0.0713129003641,1.94295294062,0.140447904119,-0.0488093628627,-0.268588437244,-1.37927717071e-05,-0.42258132031,-0.0328697179662,0.146795963287,-0.0624238470317,0.573799038202,0.818980929223,0.00237660023947,0.0,0.818941519568,-0.573736908268,-0.0118951469372,0.0,-0.00837851653073,0.00877188936943,-0.999926424502,0.0,0.645228319364,0.239645916558,0.303581497665,1.0,-0.0558737142857,-0.0734340244898,1.175
0.451610385826,0.456994288116,-0.124459297814,-1.49766067234,0.0707839161777,1.94568780837,0.139278784807,-0.048008033622,-0.290313267705,-0.00233779272671,-0.448999244007,-0.0259149515561,0.159413900287,-0.0670138960479,0.573795208947,0.818983757025,0.0023261167856,0.0,0.818943662003,-0.573733250401,-0.0119240408419,0.0,-0.00843118754989,0.0087470845135,-0.999926199071,0.0,0.644181345121,0.23830928034,0.303572703133,1.0,-0.0595868571429,-0.078314155102,1.193
0.450753349499,0.452236387618,-0.124485509588,-1.50490682537,0.0702835627303,1.9483221782,0.138098079944,-0.0604504538565,-0.305273465118,-0.00403421249017,-0.456420381548,-0.0280956095453,0.167847671894,-0.0755242499932,0.573743720946,0.819019533377,0.00242765780362,0.0,0.818981009566,-0.573681632609,-0.0118421822038,0.0,-0.00830643577513,0.00878275241581,-0.999926930523,0.0,0.643239655903,0.237049161026,0.303621263315,1.0,-0.0628874285714,-0.0826520489796,1.209
0.449804107447,0.446869348766,-0.124533005911,-1.51296656213,0.0697432398866,1.95128141152,0.136893921349,-0.0583389379346,-0.323195555205,-0.00433752850616,-0.491862274554,-0.0398066181885,0.169741825099,-0.0679570570845,0.573786340125,0.818989038758,0.00263385286583,0.0,0.818953468629,-0.573723779079,-0.0117042061346,0.0,-0.00807466797424,0.00887288737293,-0.999928033214,0.0,0.642191245031,0.235646589844,0.303723047179,1.0,-0.0663942857143,-0.0872610612245,1.226
0.448795074019,0.441321710072,-0.1245609139,-1.52161826741,0.0691511616413,1.95416005801,0.135557636346,-0.0649836354201,-0.331711696636,-0.00243042137282,-0.516583418999,-0.0355365831234,0.175444014688,-0.0837661065191,0.573760511046,0.819007760616,0.00243123772728,0.0,0.818969267411,-0.57369838995,-0.0118424367015,0.0,-0.00830441027907,0.00878600067206,-0.999926918811,0.0,0.64098061989,0.234139846893,0.30365296307,1.0,-0.0699011428571,-0.0918700734694,1.243
0.447761287394,0.435875110707,-0.124581750233,-1.52999183022,0.0685961236268,1.95705371108,0.134192458147,-0.0704090137309,-0.348077716862,-0.00448930521143,-0.521180766774,-0.0316238892779,0.186281159627,-0.0781976462232,0.573719631634,0.819036484436,0.0024017373245,0.0,0.818997320829,-0.573657327998,-0.0118914006529,0.0,-0.00836187776169,0.0087895156617,-0.999926409,0.0,0.639830993563,0.23266165178,0.303639777533,1.0,-0.0732017142857,-0.0962079673469,1.259
0.446511698168,0.429460496622,-0.124608128133,-1.53965123751,0.0679207797358,1.96056808831,0.132633805613,-0.0728002063627,-0.35200347491,-0.00195328049795,-0.553621559668,-0.0425395590164,0.189108813377,-0.0873136128117,0.573717369719,0.819037451403,0.00260380154975,0.0,0.819001218745,-0.5736546275,-0.011752401609,0.0,-0.00813213082235,0.0088752444576,-0.999927546617,0.0,0.638543601991,0.230929229554,0.303720026707,1.0,-0.0769148571429,-0.101088097959,1.277
0.445327117073,0.423529268297,-0.12469584487,-1.54873480603,0.0672638813259,1.96358906032,0.131116288464,-0.0752517435712,-0.376852511271,-0.00632513656933,-0.565678104436,-0.0438899437235,0.195688904012,-0.0994150478593,0.573712367406,0.819041407643,0.00245742812355,0.0,0.819003428118,-0.573650336286,-0.0118077648447,0.0,-0.00826150292955,0.00878707195871,-0.999927264823,0.0,0.637274455911,0.229237732798,0.303695391197,1.0,-0.0802154285714,-0.105425991837,1.293
0.444082522257,0.417384753514,-0.124791441279,-1.55807530285,0.0665915321468,1.96677534106,0.129651325475,-0.0768937493418,-0.400894127471,-0.00205193334575,-0.581180272836,-0.0421117516869,0.217858419186,-0.0907649993286,0.573806048506,0.818975915955,0.00241136582804,0.0,0.818937619545,-0.573744478589,-0.0117981136216,0.0,-0.00827902247694,0.00874475551175,-0.99992749089,0.0,0.635978024457,0.227487965161,0.303698864403,1.0,-0.083516,-0.109763885714,1.309
0.442589961148,0.410207343807,-0.124812741933,-1.5688297081,0.0658605531506,1.97058793408,0.127800317825,-0.0817208818739,-0.400740781369,-0.00110166934623,-0.607438380712,-0.0429517799962,0.205435175001,-0.107118827993,0.57376799671,0.819001974223,0.00260750286783,0.0,0.818966084316,-0.573705556607,-0.0117146899359,0.0,-0.00809857122336,0.00885714111752,-0.999927979504,0.0,0.634489921259,0.225509556569,0.303770489749,1.0,-0.0872291428571,-0.114644016327,1.327
0.440985392073,0.40290528943,-0.124889369763,-1.58011420663,0.0650636084616,1.97430190921,0.125955967759,-0.092176345166,-0.41213455384,-0.00546352669867,-0.63199535978,-0.0434769205881,0.21139959462,-0.111401809644,0.573859865756,0.818938353107,0.00236118335217,0.0,0.818898944049,-0.573797999126,-0.0118795006313,0.0,-0.00837389762315,0.00875090767341,-0.999926647036,0.0,0.632863456754,0.22335773247,0.303655582599,1.0,-0.0909422857143,-0.119524146939,1.345
0.439602323508,0.396448453983,-0.124959628659,-1.58953035036,0.0643855167715,1.9776843547,0.12432244865,-0.0994929742059,-0.429494605861,-0.00509782806371,-0.631049286033,-0.0417589932992,0.221164605441,-0.113402732093,0.573889274908,0.818916730212,0.00268998600953,0.0,0.818882064116,-0.573826697603,-0.0116547453122,0.0,-0.0080008341749,0.00889148582103,-0.999928461507,0.0,0.631566909075,0.221555211875,0.303816742466,1.0,-0.0940365714286,-0.123590922449,1.36
0.437848535178,0.388616971962,-0.124992329379,-1.60143085322,0.0634811980812,1.9815996474,0.122313348406,-0.0965746917062,-0.441548812014,-0.00637070446151,-0.675461985329,-0.0470368731001,0.212160845921,-0.123324121567,0.573907029396,0.81890482183,0.00252216065437,0.0,0.818867952648,-0.573845020927,-0.0117437211161,0.0,-0.00816981780899,0.00880529016018,-0.999927857869,0.0,0.629815392526,0.219279970576,0.303754497413,1.0,-0.0977497142857,-0.128471053061,1.378
0.43614058266,0.380898096724,-0.125043301654,-1.61289933032,0.0626267898575,1.98537114906,0.120235300848,-0.0978303897184,-0.465145405343,-0.00217152990233,-0.673364267214,-0.0412803360694,0.234725904052,-0.117487956217,0.57383173453,0.818957596899,0.00251829881591,0.0,0.818920591489,-0.573769657078,-0.0117555243612,0.0,-0.00818251007176,0.00880814927452,-0.999927728906,0.0,0.628114211737,0.217076397145,0.303794106826,1.0,-0.101256571429,-0.133080065306,1.395
0.434429970221,0.373559794125,-0.125070800371,-1.62389271504,0.0618271263044,1.98909983321,0.118266581553,-0.1106902042,-0.467123047266,-0.0010491354373,-0.693668681108,-0.0598594981166,0.232929561924,-0.126855292402,0.573826009804,0.818961498906,0.00255356290996,0.0,0.818924751174,-0.573763587026,-0.0117620158879,0.0,-0.00816765399943,0.00884069672566,-0.999927563131,0.0,0.626384949715,0.214805006236,0.30378306011,1.0,-0.104763428571,-0.137689077551,1.412
0.432610611076,0.365995105009,-0.125155651539,-1.63520563225,0.0609522825054,1.99270662955,0.11634459313,-0.115920466629,-0.478340826514,-0.0104300204675,-0.693265481367,-0.0545411604934,0.225509118005,-0.127918986447,0.573955228831,0.818871373032,0.00241176867758,0.0,0.8188327883,-0.573893328549,-0.0118346589909,0.0,-0.00830712544105,0.00876756848309,-0.999927058045,0.0,0.624781075243,0.212670458762,0.303756305773,1.0,-0.107857714286,-0.141755853061,1.427
0.430640592736,0.357712208049,-0.125205171306,-1.64737068704,0.0599916606169,1.99676831395,0.114051576108,-0.123652912334,-0.482810319294,-0.000492495457301,-0.729048058388,-0.0649823789414,0.23118556038,-0.13915148011,0.573877132891,0.818925786761,0.00251774180923,0.0,0.818888918739,-0.57381520746,-0.0117385414477,0.0,-0.00816843301954,0.00879840077463,-0.999927929826,0.0,0.622950139772,0.210257794016,0.303818723344,1.0,-0.111364571429,-0.146364865306,1.444
0.428644368942,0.349825145665,-0.125235174551,-1.6592060928,0.0591211606536,2.00049655126,0.111862555126,-0.125631785672,-0.490578898161,-0.00718847601687,-0.741978061275,-0.0578525194641,0.23283320313,-0.143753189694,0.57389598821,0.818913101217,0.00233971651432,0.0,0.818873109452,-0.573833885782,-0.0119268204694,0.0,-0.00842458311858,0.00876085403042,-0.99992613419,0.0,0.621102849374,0.207875210701,0.303731356582,1.0,-0.114665142857,-0.150702759184,1.46
0.426339619445,0.340598226684,-0.125315283232,-1.67249320412,0.0580896043013,2.0049630967,0.109367208037,-0.130952210309,-0.508991307178,-0.00317244961739,-0.757327628502,-0.0680665460905,0.245290932674,-0.135429874134,0.573942694075,0.818879435357,0.00264597225418,0.0,0.818843796746,-0.573879821411,-0.0117274894945,0.0,-0.00808508555365,0.0088977161905,-0.999927728408,0.0,0.619089355358,0.20515765793,0.303881487832,1.0,-0.118378285714,-0.155582889796,1.478
0.424092121247,0.331812241738,-0.125307655686,-1.68555122962,0.0570346448789,2.00900380217,0.106851487346,-0.136297957649,-0.521770672255,0.000874087726216,-0.779485622843,-0.0645902780933,0.230038599078,-0.145710927615,0.573825378112,0.818962323958,0.00242781253594,0.0,0.81892337437,-0.573762826768,-0.0118942184259,0.0,-0.00834808890685,0.00881356650833,-0.999926312514,0.0,0.616981387773,0.202531402908,0.3037932599,1.0,-0.121885142857,-0.160191902041,1.495
0.421860114606,0.323254752219,-0.12531558814,-1.69784220609,0.0560204954579,2.0130239832,0.104405686505,-0.141656968587,-0.521775351867,-0.00012179700487,-0.789202465212,-0.057948296157,0.250592743363,-0.151050385865,0.573738230284,0.819022760934,0.00262813299783,0.0,0.818986734476,-0.573675276743,-0.0117538294915,0.0,-0.00811911527493,0.00889619867255,-0.999927466178,0.0,0.615047293035,0.200002954555,0.303896295912,1.0,-0.125185714286,-0.164529795918,1.511
0.419381293183,0.314074623969,-0.125347181174,-1.71129062917,0.054955003721,2.01718243404,0.101779948556,-0.152954513968,-0.543324850082,-0.0012417681054,-0.783758590141,-0.0595787070171,0.238897790677,-0.171519900039,0.573731805404,0.819027578974,0.00252730060374,0.0,0.818989656911,-0.573668595783,-0.0118756467591,0.0,-0.00827680857963,0.00888344034358,-0.999926286747,0.0,0.612854789055,0.1972043554,0.303849610372,1.0,-0.128692571429,-0.169138808163,1.528
0.416612475111,0.304065573752,-0.125430660468,-1.72554463336,0.0537162261013,2.02173924937,0.0987972948748,-0.157132450684,-0.552092007222,-0.00911662375533,-0.821889619578,-0.0612509462538,0.24717834481,-0.167907463268,0.573660586433,0.819076871893,0.00271226925145,0.0,0.819042157985,-0.573597585885,-0.0116833133825,0.0,-0.00801393497684,0.00892389107977,-0.99992806792,0.0,0.610573131125,0.194133851019,0.303967794029,1.0,-0.132405714286,-0.174018938775,1.546
0.4139971322,0.295108583318,-0.125491453933,-1.73863780114,0.0526804499285,2.02563402728,0.0961765195359,-0.164733734025,-0.572708321758,-0.00747284522173,-0.817985380054,-0.0556729965929,0.241257744494,-0.166469934152,0.573759642818,0.819008108516,0.00251741128846,0.0,0.818969934876,-0.573696336049,-0.011895657762,0.0,-0.00829857030386,0.00888710361184,-0.999926073828,0.0,0.60838423961,0.191290188196,0.303877378411,1.0,-0.135706285714,-0.178356832653,1.562
0.411143369168,0.285325097409,-0.125616717286,-1.75248306077,0.0515191433217,2.03000985701,0.093234948359,-0.167128265239,-0.570798107215,-0.00357231735402,-0.817592234264,-0.0759270628443,0.247808263461,-0.176657005072,0.573806139325,0.818974829562,0.00273677130513,0.0,0.818939889853,-0.573742427087,-0.0117401477382,0.0,-0.00804483857001,0.00897799289412,-0.999927335468,0.0,0.606125039662,0.18821892848,0.303979134661,1.0,-0.139213142857,-0.182965844898,1.579
0.408173162322,0.275436939821,-0.125684290272,-1.76671239088,0.0502877271929,2.03417532923,0.0901912600531,-0.182664998478,-0.593123026624,-0.00254726406888,-0.848309819027,-0.0629673821496,0.258775301204,-0.175381461468,0.57378691582,0.818988877954,0.00255732726324,0.0,0.818951233315,-0.573723461912,-0.0118749149286,0.0,-0.00825838360197,0.00890816863861,-0.999926219094,0.0,0.60368963988,0.185069333405,0.303922321856,1.0,-0.14272,-0.187574857143,1.596
0.405406945135,0.266506468476,-0.125788958126,-1.77923862916,0.0491876180065,2.03805646952,0.0874304588509,-0.186353410566,-0.594650545456,-0.010844768802,-0.819641530216,-0.0775367670763,0.242015622498,-0.179574955335,0.573843317954,0.818948749172,0.00274582783945,0.0,0.818914034816,-0.573779689079,-0.0117225800488,0.0,-0.00802484652722,0.00897569399504,-0.999927516751,0.0,0.60159947164,0.182207319461,0.304011229816,1.0,-0.145814285714,-0.191641632653,1.611
0.4019449106,0.255672145778,-0.125950321698,-1.79459125281,0.0478184582353,2.04253334464,0.08404974944,-0.191886590798,-0.617398305995,-0.00323976009074,-0.853226786605,-0.0717833874559,0.254677792237,-0.186883226554,0.573971980666,0.818858872201,0.00265701505223,0.0,0.818823061759,-0.57390871734,-0.0117611476517,0.0,-0.00810599206678,0.008926366273,-0.999927303797,0.0,0.598954761647,0.178640340276,0.303997883528,1.0,-0.149527428571,-0.196521763265,1.629
0.39859804152,0.245284508171,-0.125984356587,-1.80922312912,0.0464890284011,2.04683947309,0.0807228508521,-0.199806839958,-0.627873292669,0.00495922093175,-0.883249728506,-0.0696137821791,0.252977955251,-0.206917007394,0.573924162133,0.818892364577,0.00266425577285,0.0,0.818856649543,-0.573860880195,-0.0117568950627,0.0,-0.00809887536352,0.00892938162208,-0.999927334541,0.0,0.596388844027,0.175305954574,0.303995123113,1.0,-0.153034285714,-0.20113077551,1.646
0.3953440453,0.235251032964,-0.126003236708,-1.82307243936,0.0452933959181,2.050880992,0.0775076371785,-0.202950858633,-0.649544289894,0.000668554601548,-0.875173267274,-0.0742756182793,0.267983242587,-0.193654847843,0.573890138007,0.818915555622,0.00285817405201,0.0,0.818881890236,-0.573825645381,-0.0117185941341,0.0,-0.00795659864559,0.00906586712122,-0.999927248649,0.0,0.593930384891,0.172137856624,0.304086150757,1.0,-0.156334857143,-0.205468669388,1.662
0.391556367795,0.223926070575,-0.126002588054,-1.83891009267,0.0437909345207,2.05538854545,0.0737351456665,-0.222588463604,-0.64120723342,-0.00015595622375,-0.900011791477,-0.0833478920389,0.240479722294,-0.219266742914,0.57373634257,0.819023516523,0.00279919582023,0.0,0.818989069513,-0.573672060185,-0.0117481182021,0.0,-0.00801631898835,0.00903300706294,-0.999927069047,0.0,0.591058173583,0.168489192111,0.304054852627,1.0,-0.160048,-0.2103488,1.68
0.387782423076,0.212932094799,-0.126079505807,-1.85384903991,0.0424241800345,2.05961018568,0.0700956231104,-0.22533453406,-0.649760115101,-0.00877627071407,-0.871616125549,-0.0781423727328,0.251610013286,-0.217789672176,0.573749105613,0.819013830399,0.00300937298496,0.0,0.818982041522,-0.573684015486,-0.0116538809927,0.0,-0.00781841106136,0.00915120241639,-0.999927561348,0.0,0.588350502667,0.164920783963,0.304180874039,1.0,-0.163554857143,-0.214957812245,1.697
0.384095927543,0.202634295031,-0.126181227399,-1.86822571279,0.0410618638735,2.06344141171,0.0665288618767,-0.231946965416,-0.655153131212,-8.46192651816e-05,-0.909384660462,-0.0852864465703,0.226196428592,-0.231586892394,0.573737795881,0.819022576962,0.00277613146024,0.0,0.818987189081,-0.573672877185,-0.0118389612923,0.0,-0.00810394128992,0.00906625021192,-0.999926061888,0.0,0.585662409849,0.161444632137,0.30408002893,1.0,-0.166855428571,-0.219295706122,1.713
0.379999219978,0.191397082956,-0.12630053615,-1.88342627022,0.0396002683178,2.0676622731,0.0626449276035,-0.244311383302,-0.651395103238,-0.00398909914284,-0.890276680566,-0.083491334284,0.25001894999,-0.231722288847,0.573777241134,0.818994353404,0.00294508912591,0.0,0.818961421582,-0.573712007605,-0.0117247256928,0.0,-0.00791300349249,0.00913947110148,-0.999926924552,0.0,0.582853285749,0.157685844856,0.304165720235,1.0,-0.170362285714,-0.223904718367,1.73
0.375646667858,0.180059801278,-0.126492282453,-1.89883562854,0.0381593453484,2.07170907243,0.0585774918706,-0.258563215868,-0.672404384398,-0.0131405870755,-0.882398300253,-0.0870003694296,0.247860680376,-0.236961193117,0.573924613288,0.818891170154,0.00292174725278,0.0,0.818857308757,-0.573858722043,-0.0118161725046,0.0,-0.0079996432023,0.00917426296049,-0.99992591656,0.0,0.579948371591,0.153746136264,0.304164585275,1.0,-0.173869142857,-0.228513730612,1.747
0.371506711188,0.169289604263,-0.126563577002,-1.91342404828,0.0366572605751,2.07553952459,0.0547123579831,-0.254989579947,-0.664657626442,-0.00243465632681,-0.913016464865,-0.0917947319671,0.231307300533,-0.246014892063,0.573904290297,0.818905602013,0.00286835702668,0.0,0.818871241031,-0.573838817255,-0.0118173315239,0.0,-0.00803145901262,0.00913100813981,-0.999926057444,0.0,0.577143784609,0.150082763227,0.304150135192,1.0,-0.177169714286,-0.23285162449,1.763
0.366964823789,0.157588358171,-0.126593309367,-1.92900754816,0.0350971586889,2.07960689175,0.0504102016392,-0.273144064326,-0.70100155212,0.00161961928146,-0.887070835638,-0.0944709249331,0.253930264137,-0.245209511401,0.57379599081,0.81898103718,0.00299475718521,0.0,0.818948220548,-0.573729967201,-0.01176790968,0.0,-0.00791966541166,0.00920510768927,-0.999926269728,0.0,0.57410913835,0.146170323423,0.304211277712,1.0,-0.180676571429,-0.237460636735,1.78
0.362232150288,0.145894470282,-0.12668831203,-1.94477341893,0.0334081946935,2.08352793836,0.0460337178681,-0.28734776247,-0.69292158635,-0.00614075602676,-0.930914716201,-0.105198527614,0.229108525709,-0.254304975796,0.573763123564,0.819004764464,0.00279655569292,0.0,0.81896942325,-0.573697880505,-0.0118563311062,0.0,-0.0081061696602,0.0090931942446,-0.999925799163,0.0,0.570976778136,0.14211006626,0.304132556192,1.0,-0.184183428571,-0.24206964898,1.797
0.357600371072,0.13460433127,-0.126812475157,-1.95950335871,0.0319365721736,2.08728115524,0.0417200790917,-0.290027792979,-0.708878574932,-0.0118815169064,-0.92374765484,-0.0915263496692,0.233862651771,-0.278086170418,0.573773976913,0.818996324913,0.00303151742596,0.0,0.818963920216,-0.573707750874,-0.0117584383498,0.0,-0.00789106467849,0.0092295670274,-0.999926270377,0.0,0.56787208426,0.137986871778,0.30423463339,1.0,-0.187690285714,-0.246678661224,1.814
0.351170636596,0.119717798731,-0.127039818064,-1.97903831538,0.0298179585438,2.09197867904,0.0359435947167,-0.315917673422,-0.731432024814,-0.0120728387965,-0.915126525313,-0.109849702237,0.230292716075,-0.277663413065,0.573919621152,0.818894343317,0.0030116178698,0.0,0.818861975126,-0.573853789489,-0.0117320451418,0.0,-0.00787922877464,0.00919952737971,-0.999926640534,0.0,0.564117664722,0.132925571873,0.304259393362,1.0,-0.191816,-0.252101028571,1.834
0.346711063135,0.109671714697,-0.127152481782,-1.99213039129,0.0283964822989,2.09508866811,0.0318754103071,-0.321708062896,-0.709861335513,-0.00698114999898,-0.929470513901,-0.105529734254,0.214798596077,-0.290630391444,0.57392760023,0.818888691958,0.00302766869203,0.0,0.818856563564,-0.573861748861,-0.0117204267496,0.0,-0.00786041301686,0.00920608002438,-0.999926728315,0.0,0.561435368997,0.129342634242,0.304269735875,1.0,-0.194704,-0.255896685714,1.848
0.341582618888,0.0980171104219,-0.127230808985,-2.00712198464,0.026740380008,2.09856644717,0.0271636648109,-0.316282180505,-0.729583399222,-0.00665124856206,-0.934658686843,-0.104218747814,0.213218325458,-0.295684755399,0.573836609375,0.818952178395,0.00310195815262,0.0,0.818921121255,-0.573770644721,-0.0116701037239,0.0,-0.00777759408042,0.00923716964453,-0.999927089206,0.0,0.558301560925,0.125290959195,0.304323232881,1.0,-0.198004571429,-0.260234579592,1.864
0.335917421845,0.085625744602,-0.127322156919,-2.02327546771,0.0250772665339,2.10210077734,0.0219788165701,-0.327691275606,-0.731969695757,-0.00726911287597,-0.953339377988,-0.103293228573,0.194178127893,-0.313034499511,0.573795546888,0.818981430059,0.0029722872235,0.0,0.818947014946,-0.573728095209,-0.0119417913021,0.0,-0.00807497609925,0.00928647121363,-0.99992427524,0.0,0.554836529371,0.120899738312,0.304223805195,1.0,-0.201511428571,-0.264843591837,1.881
0.329979081003,0.0729063203853,-0.127463904959,-2.03921390482,0.0232106047367,2.10569352621,0.0166164508611,-0.360407980698,-0.756227285751,-0.0132517817452,-0.954469546602,-0.106798421497,0.20841461601,-0.314350371987,0.573760276139,0.81900529841,0.00319587267176,0.0,0.818974789503,-0.573693204915,-0.0117110073341,0.0,-0.00775807598778,0.0093368297134,-0.999926315219,0.0,0.551450196533,0.11637723626,0.304366131264,1.0,-0.205018285714,-0.269452604082,1.898
0.324089932172,0.0610315666213,-0.127676675708,-2.05440975515,0.021471380308,2.1087935618,0.0114285626144,-0.379863234536,-0.740552923382,-0.0178109883343,-0.934764113896,-0.114307780835,0.197643802612,-0.329913761957,0.573907211199,0.818903079439,0.00300105308968,0.0,0.81886932466,-0.573839966569,-0.0118940657793,0.0,-0.00801811726268,0.00928373917879,-0.999924758161,0.0,0.548127011633,0.111940457223,0.304288762,1.0,-0.208318857143,-0.273790497959,1.914
0.317711340772,0.0481579046646,-0.12778899154,-2.07042381962,0.0196229110349,2.11218674168,0.00574142833373,-0.37462967623,-0.741805697174,-0.00243444911513,-0.943866317014,-0.100416668118,0.191229585307,-0.337338777162,0.573899970964,0.81890747211,0.00318156420579,0.0,0.818876234306,-0.573832277969,-0.0117888316567,0.0,-0.00782842881694,0.00937109788421,-0.999925446334,0.0,0.54460948709,0.107296053637,0.30436998493,1.0,-0.20998,-0.275973714286,1.931
0.31083092994,0.034620141978,-0.127843360142,-2.08729766013,0.0176768458452,2.11556902386,-0.000406284874703,-0.386091478763,-0.752586664543,-0.00478080192625,-0.937114671379,-0.112047495694,0.194034262814,-0.347958446504,0.573815457996,0.818966523678,0.00322492809779,0.0,0.818935299117,-0.573746963491,-0.0118382704254,0.0,-0.00784500551377,0.00943417165949,-0.999924723314,0.0,0.540808203177,0.102409575765,0.304369635431,1.0,-0.20998,-0.275973714286,1.949
0.304932237036,0.0233927769933,-0.127944032409,-2.10122326356,0.0159202470111,2.11819772369,-0.0056114606367,-0.397828749758,-0.73429391873,-0.00603497608457,-0.93909359199,-0.108087728201,0.166708520234,-0.34617375309,0.573776806586,0.818994061944,0.00310638464119,0.0,0.818961444503,-0.573708920972,-0.0118732183929,0.0,-0.00794208768916,0.00935676673308,-0.999924684243,0.0,0.537620415284,0.0982557044136,0.304343157169,1.0,-0.20998,-0.275973714286,1.964
0.297643003113,0.0100061853143,-0.128147283648,-2.11747011927,0.0139091040234,2.12125036129,-0.0119778831812,-0.411517183786,-0.73078621297,-0.0101726579051,-0.909552564131,-0.116454593981,0.168236739536,-0.358901937551,0.573885587711,0.818917404127,0.00321936893762,0.0,0.818886615364,-0.5738177146,-0.0117766077682,0.0,-0.00779688825098,0.00939490448426,-0.999925469374,0.0,0.533893657522,0.0932166032707,0.304417377999,1.0,-0.20998,-0.275973714286,1.982
0.290651506353,-0.00253316652913,-0.128257695654,-2.13270349783,0.012140891727,2.12390152561,-0.0181183897053,-0.416343687685,-0.751697954524,-0.0023377690791,-0.859611168129,-0.105777030688,0.171068143338,-0.359800022677,0.573935800017,0.81888209403,0.0032496825297,0.0,0.818850468263,-0.573866329249,-0.0119203053986,0.0,-0.00789659329566,0.00950267703255,-0.999923668559,0.0,0.530300020819,0.0885259046018,0.304412259508,1.0,-0.20998,-0.275973714286,1.999
0.284008484473,-0.0142466141213,-0.12829689611,-2.1467109437,0.0103483115036,2.12642122078,-0.0239705579872,-0.42283004087,-0.717361236774,-0.00384737464532,-0.865712315632,-0.111420695824,0.143328517363,-0.375473593584,0.573844330923,0.818945647067,0.00338495486022,0.0,0.818916369825,-0.573775111846,-0.0117833424503,0.0,-0.00770786255433,0.00953398276932,-0.999924843189,0.0,0.526983821084,0.0841729337413,0.304468810948,1.0,-0.20998,-0.275973714286,2.015
0.276786010195,-0.0266985702947,-0.128421427619,-2.16150406973,0.00842897946139,2.12870951787,-0.0303125032475,-0.424214736677,-0.73234985569,-0.00237284927256,-0.845947150535,-0.109478761039,0.148107790904,-0.372978094914,0.573817186133,0.818964907214,0.00332634188865,0.0,0.818934583086,-0.573747824734,-0.0118460601187,0.0,-0.00779317614579,0.00952171261431,-0.999924298832,0.0,0.523377211097,0.0794724082294,0.304492882025,1.0,-0.20998,-0.275973714286,2.032
0.269314698925,-0.0389788423735,-0.128623556296,-2.17604410605,0.00655729051882,2.1310227583,-0.0367422473907,-0.437327919926,-0.716852761934,-0.00362295634111,-0.842472388175,-0.100441962439,0.129969719211,-0.389309282462,0.573984576098,0.818847440738,0.00336483264916,0.0,0.818817467645,-0.57391487175,-0.0118499605212,0.0,-0.00777233198879,0.00955706231843,-0.999924123829,0.0,0.519826562403,0.0746872728274,0.304496539551,1.0,-0.20998,-0.275973714286,2.049
0.261835869857,-0.0512557101547,-0.128691295889,-2.19032766709,0.00474466562342,2.13319638474,-0.0432674336508,-0.440670525404,-0.720143807908,0.000282535265947,-0.84243934231,-0.124024638503,0.135701865226,-0.377876753409,0.573973943667,0.818854237621,0.00352085545361,0.0,0.818826118614,-0.573903480575,-0.0118037859145,0.0,-0.00764509610843,0.00965821990749,-0.999924132769,0.0,0.516269361774,0.0700515594466,0.304556400705,1.0,-0.20998,-0.275973714286,2.066
0.254207638291,-0.063297296015,-0.128785412672,-2.20451988569,0.00284246138865,2.13517888326,-0.0499905354122,-0.453001455967,-0.719637641521,-0.0101625822566,-0.862822553363,-0.119011275394,0.108576863523,-0.39677450196,0.573884527711,0.818917487545,0.00338294958022,0.0,0.818887021775,-0.573813877308,-0.0119342648927,0.0,-0.00783214559936,0.00961932867999,-0.999923060046,0.0,0.51265760526,0.0653788677327,0.304473278485,1.0,-0.20998,-0.275973714286,2.083
0.246884062632,-0.0747132811203,-0.128941197288,-2.2175188628,0.00107003081796,2.13690217356,-0.0564008906064,-0.458310724527,-0.716078206477,-0.0107584807959,-0.814168948269,-0.110239408456,0.101739995956,-0.396496597957,0.573917574879,0.818893856988,0.00349501555717,0.0,0.818865041987,-0.573846756409,-0.0118612845466,0.0,-0.00770767810679,0.00966953189134,-0.999923543003,0.0,0.509113701148,0.0606656706363,0.304548669759,1.0,-0.20998,-0.275973714286,2.1
0.238923061056,-0.0866176341453,-0.129073250397,-2.23129649366,-0.00073489619005,2.13861278931,-0.0633485626957,-0.462724131953,-0.695267637354,-0.00156363971386,-0.842106958501,-0.113251876374,0.0973324666899,-0.407172077379,0.57392912409,0.818886106666,0.00341346332438,0.0,0.818855120328,-0.573857225636,-0.0120384134834,0.0,-0.00789940104269,0.00970451486919,-0.999921707862,0.0,0.505709385141,0.056245067047,0.304469458851,1.0,-0.20998,-0.275973714286,2.116
0.230432640066,-0.0992579013976,-0.129118448627,-2.24541836113,-0.00273361672449,2.14028138845,-0.0708274878134,-0.481027397167,-0.709829245975,-0.00458261103203,-0.769839192033,-0.112184374178,0.0883424489861,-0.418610175204,0.573779733128,0.818990304391,0.00352789841754,0.0,0.818961445936,-0.573708225668,-0.0119066692837,0.0,-0.00772761113994,0.00972120547652,-0.999922888122,0.0,0.501963420777,0.0513578073854,0.304557371804,1.0,-0.20998,-0.275973714286,2.134
0.222683072488,-0.110314688919,-0.129263267486,-2.25796311385,-0.00448441485609,2.1415845139,-0.0775144039471,-0.490112188355,-0.685300055949,-0.0131791383569,-0.775097690248,-0.112718605826,0.0696714926272,-0.423723233039,0.573859694472,0.81893477311,0.00341106329725,0.0,0.818903568439,-0.573787585732,-0.0120622949388,0.0,-0.00792115950162,0.00971558384958,-0.999921428245,0.0,0.498560774202,0.0469253016263,0.30449158555,1.0,-0.20998,-0.275973714286,2.15
0.214711687833,-0.121417993551,-0.129442175657,-2.27011408711,-0.00623776021178,2.14286807391,-0.0844051380473,-0.497031194433,-0.693222791828,-0.00560348817545,-0.758292011292,-0.110320298986,0.081953420206,-0.430022399804,0.573967611823,0.81885842387,0.00357898526684,0.0,0.818830096811,-0.573895725638,-0.0119044341273,0.0,-0.00769422995754,0.00976352845686,-0.999922733184,0.0,0.495259028129,0.0424399101902,0.304586444388,1.0,-0.20998,-0.275973714286,2.166
0.205760056553,-0.133727645111,-0.129556196153,-2.28375858453,-0.00814858494808,2.14408047926,-0.0923129183785,-0.500204769864,-0.691503758387,-0.0127722373143,-0.763512087308,-0.109917087051,0.0601328601908,-0.448057792499,0.57388583053,0.818915912859,0.00353950329756,0.0,0.818886189615,-0.573812989237,-0.0120336503854,0.0,-0.00782368545298,0.00980458058275,-0.999921326978,0.0,0.491440494786,0.0375247335521,0.304549696159,1.0,-0.20998,-0.275973714286,2.184
0.197073226302,-0.145354077629,-0.129700405918,-2.29621966709,-0.00997049852853,2.14521406326,-0.0999398003517,-0.518884003811,-0.689794849298,-0.0145776095546,-0.716059354405,-0.105745662873,0.0685937265595,-0.456593453365,0.573877856966,0.818920504591,0.00376289067541,0.0,0.818894548282,-0.573805313382,-0.011829117854,0.0,-0.00752808543764,0.00987006949317,-0.999922951861,0.0,0.487940101456,0.0328314142337,0.304662291618,1.0,-0.20998,-0.275973714286,2.201
0.188715671181,-0.15611283077,-0.129883099687,-2.30794969502,-0.0116930316346,2.14602445081,-0.107208275489,-0.529074799215,-0.672727074431,-0.0131540238765,-0.73306715467,-0.110586451898,0.0400930538151,-0.463088354824,0.573963853982,0.818860607845,0.00368050847828,0.0,0.81883281613,-0.57389059769,-0.0119644478676,0.0,-0.00768515380606,0.00988107197219,-0.999921648344,0.0,0.484546984056,0.0283649051289,0.304616811087,1.0,-0.20998,-0.275973714286,2.217
0.179824691978,-0.167562765286,-0.129946492251,-2.32006953631,-0.013459415259,2.14680510791,-0.115050607586,-0.528475255577,-0.676907171777,-0.00764238257288,-0.703160194495,-0.104622754475,0.0537673677117,-0.467504385659,0.573877527128,0.818920556561,0.0038016838936,0.0,0.818894388557,-0.573803908344,-0.0119080670646,0.0,-0.00757048558694,0.00994714120071,-0.999921868013,0.0,0.4809947225,0.0237595016138,0.304686697627,1.0,-0.20998,-0.275973714286,2.234
0.170167871517,-0.179466166424,-0.130095692311,-2.33281023802,-0.0153661523611,2.14750406863,-0.123533271848,-0.540335592037,-0.669119736255,-0.0132718553531,-0.705267400092,-0.105860862139,0.0330164485756,-0.472204272565,0.573872660519,0.818924242223,0.00374191247691,0.0,0.818896624345,-0.573798383941,-0.0120199885508,0.0,-0.00769650486496,0.00996237411157,-0.999920754318,0.0,0.477187827971,0.0188024489424,0.304640496645,1.0,-0.20998,-0.275973714286,2.252
0.161344431511,-0.190044518136,-0.13026728989,-2.34384683257,-0.0170476728337,2.14802301548,-0.131253711702,-0.558359443434,-0.658023571071,-0.00220236310444,-0.67399984725,-0.105100975636,0.0381174284167,-0.494293349681,0.573943755788,0.818874062146,0.003818695859,0.0,0.818847488633,-0.573869242331,-0.0119845720586,0.0,-0.00762256986349,0.0100055924515,-0.999920889145,0.0,0.473842723091,0.0143373803706,0.304681337448,1.0,-0.20998,-0.275973714286,2.268
0.151978225802,-0.201137276206,-0.130387877724,-2.35539571743,-0.0187951123727,2.1485265342,-0.139622220517,-0.557734023488,-0.648875646589,-0.0114460370575,-0.684927476959,-0.103151582166,0.0198320547374,-0.492081049115,0.573833553461,0.818950924109,0.00389662974583,0.0,0.81892532114,-0.573758714845,-0.0119583625862,0.0,-0.0075577323254,0.0100533520206,-0.999920902269,0.0,0.470288509768,0.00970350684824,0.304693836558,1.0,-0.20998,-0.275973714286,2.285
0.141763393174,-0.212793970518,-0.130612044783,-2.36746787951,-0.0206235512884,2.14879339597,-0.148589455954,-0.575425982827,-0.64545585985,-0.0188837323246,-0.64353153786,-0.105530137519,0.0166608241807,-0.50761210562,0.57394685586,0.81887158358,0.00388370386768,0.0,0.81884474023,-0.573870628627,-0.0121053664651,0.0,-0.00768414497075,0.0101281825052,-0.999919183652,0.0,0.466472399877,0.00469717071464,0.304669395826,1.0,-0.20998,-0.275973714286,2.303
0.133745227622,-0.22182785618,-0.130717006337,-2.37651948622,-0.0220747412555,2.14906175585,-0.155641561029,-0.569893617953,-0.641487995942,0.000418191135865,-0.647756869291,-0.103271165126,0.0142242430198,-0.51319828943,0.573943933401,0.818872835868,0.00404807249386,0.0,0.818849154993,-0.573868471934,-0.0119073586002,0.0,-0.00742769433448,0.0101491123743,-0.99992090931,0.0,0.463385192203,0.000583314503658,0.304758100343,1.0,-0.20998,-0.275973714286,2.318
0.123322476929,-0.233212178113,-0.130846304773,-2.38824252435,-0.0238983228009,2.14916177415,-0.164976661169,-0.590423049218,-0.625217239706,-0.00709099839265,-0.654878387074,-0.103386147578,0.00452631641819,-0.526787749289,0.573846958672,0.818941215752,0.00396233090715,0.0,0.818915366638,-0.573770405449,-0.0120785353557,0.0,-0.00761828889323,0.0101762403708,-0.999919199639,0.0,0.459767200689,-0.00405609094679,0.304682594882,1.0,-0.20998,-0.275973714286,2.335
0.112541392122,-0.244582806551,-0.131066605914,-2.39943196835,-0.0257621888359,2.14923110599,-0.17447997147,-0.598746207237,-0.627144542291,-0.00881269880372,-0.611726111512,-0.100758716544,0.000849793424529,-0.529594544977,0.573941671696,0.818873980167,0.00413630228744,0.0,0.818851604741,-0.573866121937,-0.0118520212588,0.0,-0.00733176922766,0.0101895828411,-0.999921205676,0.0,0.45606207211,-0.00909704144283,0.304790349073,1.0,-0.20998,-0.275973714286,2.353
0.103624747685,-0.253898709563,-0.131153931089,-2.40880717075,-0.027161665245,2.14921416288,-0.182543349726,-0.593147916678,-0.616629677651,-0.0106854193616,-0.631315561996,-0.0980692305381,-0.00127297366809,-0.537757337161,0.573829024759,0.818952684557,0.00418302545392,0.0,0.818930151489,-0.573752264436,-0.0119370405544,0.0,-0.00737599309205,0.0102756238461,-0.99991999994,0.0,0.453109627409,-0.0128638117691,0.304748642837,1.0,-0.20998,-0.275973714286,2.367
0.0932007953852,-0.264386639319,-0.131343378381,-2.41919875897,-0.0288883126532,2.14905293419,-0.191776704197,-0.622849610825,-0.621349619285,-0.0103496136655,-0.592673502129,-0.103001697517,-0.0105071949876,-0.544515623738,0.573886260184,0.818912572091,0.00418408227605,0.0,0.818889847039,-0.573809200565,-0.0119652272768,0.0,-0.00739775256861,0.0102931802048,-0.999919658622,0.0,0.449309805048,-0.0178508185137,0.304728892558,1.0,-0.20998,-0.275973714286,2.385
0.0819472634222,-0.27536422307,-0.131518041417,-2.42973538375,-0.0306569810655,2.14886363682,-0.201781714158,-0.608363561735,-0.595832249923,-0.00275236614743,-0.588616336911,-0.102105393265,-0.0108203609654,-0.553168740679,0.573942327351,0.818872286401,0.00437382441251,0.0,0.818853210082,-0.57386629142,-0.0117322977693,0.0,-0.00709739975109,0.0103153810505,-0.999921606843,0.0,0.445613092368,-0.0228462401005,0.304822273678,1.0,-0.20998,-0.275973714286,2.403
0.0726519833666,-0.284390531213,-0.131641428831,-2.43858131157,-0.0321044864406,2.14851542846,-0.210324784458,-0.625692686836,-0.600544499958,-0.0119858156618,-0.580484176383,-0.0912770059765,-0.0232017191763,-0.578388908011,0.573736183315,0.819016967851,0.0043295761086,0.0,0.818996563337,-0.573659240188,-0.0118512569139,0.0,-0.00722281822369,0.0103456020478,-0.999920396539,0.0,0.442427620506,-0.0268893398556,0.304771492836,1.0,-0.20998,-0.275973714286,2.418
0.0609410638437,-0.295115153224,-0.131893670102,-2.44877426946,-0.0337508716345,2.14808323848,-0.220716573676,-0.653267854449,-0.5913892502,-0.0163152508182,-0.55575436381,-0.0955319156127,-0.0209722885691,-0.582467688487,0.57395291779,0.818864107681,0.00451311568197,0.0,0.8188460833,-0.573875314156,-0.0117882385224,0.0,-0.00706313572626,0.0104616424143,-0.999920329902,0.0,0.438681123651,-0.0319521275562,0.30481724878,1.0,-0.20998,-0.275973714286,2.436
0.0493496649411,-0.305685824854,-0.132007528772,-2.45877209316,-0.0355260046549,2.14754575438,-0.231245202775,-0.645401578429,-0.580638876359,-0.00565630958908,-0.567465991113,-0.0896693368545,-0.0440026056326,-0.589702700627,0.573787228051,0.818980157151,0.00452393854992,0.0,0.818962981605,-0.573710669501,-0.0116811541575,0.0,-0.00697133587316,0.0104076356471,-0.99992153772,0.0,0.434929859481,-0.0368399958789,0.30484079303,1.0,-0.20998,-0.275973714286,2.454
0.0400900696418,-0.313803471555,-0.132190857688,-2.46651437583,-0.0368219706868,2.14694604934,-0.239576501251,-0.66925866242,-0.571627089944,-0.0105670636379,-0.549082258367,-0.101520403729,-0.0436631749336,-0.595427739072,0.573847033754,0.818938523827,0.00447470045606,0.0,0.818919582813,-0.573768962149,-0.0118592521338,0.0,-0.00714469175697,0.0104700180705,-0.999919662824,0.0,0.431934317254,-0.0407128091905,0.304787695797,1.0,-0.20998,-0.275973714286,2.468
0.0279483816621,-0.324137897043,-0.132371997265,-2.47595898974,-0.0384870368125,2.14629155837,-0.25049593845,-0.658294477146,-0.578878840307,-0.00287958218459,-0.513884846426,-0.0890718478554,-0.0325006241189,-0.610554436031,0.573911650853,0.818892239146,0.0046545228285,0.0,0.81887688412,-0.573834860938,-0.0116167089333,0.0,-0.00684203706026,0.0104786474987,-0.999921689171,0.0,0.428227099838,-0.045718522107,0.304886008681,1.0,-0.20998,-0.275973714286,2.486
0.0151784778168,-0.334801565281,-0.132564146489,-2.48589780131,-0.0401524123962,2.14541520944,-0.262272533674,-0.685060540355,-0.555221632568,-0.0166972396154,-0.526735249415,-0.0842172733635,-0.056504683408,-0.615776034362,0.573769610242,0.818991589946,0.00468581495869,0.0,0.818975804256,-0.573691465859,-0.011725226848,0.0,-0.0069147832573,0.0105653513287,-0.999920276384,0.0,0.424223007622,-0.0508729063984,0.304846977565,1.0,-0.20998,-0.275973714286,2.505
0.00396474945565,-0.343665658799,-0.132765831081,-2.49403804151,-0.0416446960607,2.14454048213,-0.272288444291,-0.697322411479,-0.550334427337,-0.0051940330239,-0.511719044363,-0.100787475185,-0.0613954764424,-0.63264872889,0.573935026565,0.818875968433,0.00463470669234,0.0,0.818859160767,-0.573856478567,-0.0117967680394,0.0,-0.00700056817362,0.0105659538379,-0.999919673106,0.0,0.420825655659,-0.0553677555453,0.304828173835,1.0,-0.20998,-0.275973714286,2.521
-0.00851367012713,-0.35351380596,-0.132943926363,-2.50274599606,-0.0431794070097,2.14361179442,-0.28382047128,-0.700119528252,-0.544049667237,-0.0132167015565,-0.473261451684,-0.0848783672959,-0.0483568970107,-0.643666088525,0.57382637709,0.818950941653,0.00483642668746,0.0,0.818937743855,-0.573748741287,-0.011580175386,0.0,-0.00670883097837,0.0106059466449,-0.999921249641,0.0,0.41712806868,-0.0602738655379,0.304934539102,1.0,-0.20998,-0.275973714286,2.539
-0.020015805857,-0.362013800442,-0.133190861002,-2.51047575947,-0.0446316407378,2.14266522324,-0.294258092896,-0.724708818043,-0.528615349828,-0.0131218287312,-0.478686753279,-0.0932746583738,-0.0644496464381,-0.652530675553,0.573935084007,0.818875092129,0.00478013995624,0.0,0.818860685285,-0.573856850761,-0.0116721818874,0.0,-0.00681507416824,0.0106135477161,-0.99992045052,0.0,0.413734760848,-0.0647732116292,0.304890351114,1.0,-0.20998,-0.275973714286,2.555
-0.0299779978173,-0.369401910668,-0.133261101843,-2.51711795178,-0.0457620586251,2.14177440181,-0.303520044525,-0.721697284126,-0.522903878295,-0.0131246977577,-0.46743339755,-0.0784732115718,-0.0543712432722,-0.660061934914,0.573789438538,0.818977063091,0.00479554521928,0.0,0.818962145197,-0.573710075037,-0.0117686632908,0.0,-0.0068871452897,0.0106803103312,-0.99991924584,0.0,0.410568850816,-0.0688154688023,0.304864160252,1.0,-0.20998,-0.275973714286,2.57
-0.0431160094366,-0.378673802773,-0.133531218795,-2.52527853464,-0.0472615865993,2.14059009023,-0.315518234706,-0.747173269511,-0.515437790378,-0.0161653575743,-0.431802384866,-0.0844059403886,-0.0666012217051,-0.676057823271,0.573925131773,0.818881642904,0.00485231229043,0.0,0.818867206975,-0.573845158583,-0.0117889020807,0.0,-0.00686937184478,0.0107395533624,-0.99991873356,0.0,0.407001394916,-0.0735445507909,0.304878488813,1.0,-0.20998,-0.275973714286,2.587
-0.0556280759695,-0.387238093592,-0.133659739853,-2.53269086008,-0.0486895569907,2.13954225274,-0.327123987049,-0.739020847543,-0.496466382671,-0.0164761674261,-0.439749547633,-0.0742449939523,-0.0692803381786,-0.690337136,0.573816036891,0.818957705829,0.00491719141435,0.0,0.818945168865,-0.573737545293,-0.0116097551755,0.0,-0.00668684987453,0.0106889796532,-0.999920512717,0.0,0.40349707534,-0.0782094277556,0.30492991259,1.0,-0.20998,-0.275973714286,2.604
-0.0676068399121,-0.395170507254,-0.133885931518,-2.53967970039,-0.0500074619437,2.13834113501,-0.338205912272,-0.761863160814,-0.495090172795,-0.0190633407863,-0.429995248518,-0.0801558967559,-0.0754483681611,-0.696424097829,0.573834573531,0.818945031052,0.0048646929523,0.0,0.818930756815,-0.573754575681,-0.0117834345367,0.0,-0.00685897737843,0.010745795703,-0.99991873785,0.0,0.400077153227,-0.0826348107125,0.304878936517,1.0,-0.20998,-0.275973714286,2.62
-0.0804053342198,-0.403373622115,-0.134011846065,-2.54681145338,-0.0513783855586,2.13708522955,-0.350100143641,-0.743926721802,-0.481048199928,-0.0106689894385,-0.416814511343,-0.0719207831546,-0.0750889771717,-0.706734255994,0.573747416657,0.819006424019,0.00480897039056,0.0,0.818990995175,-0.573666954019,-0.0118626552325,0.0,-0.00695697738876,0.0107448781125,-0.999918070674,0.0,0.396495850843,-0.087268342125,0.304849706775,1.0,-0.20998,-0.275973714286,2.637
-0.0934657528638,-0.411405293539,-0.13424353749,-2.55354562366,-0.0525825156108,2.13591087702,-0.362268167498,-0.776989153793,-0.462717324308,-0.0184392674464,-0.391021881046,-0.0649723362936,-0.0671631982424,-0.715621881847,0.573843047491,0.818938042218,0.00503852709486,0.0,0.818926140055,-0.573762658451,-0.0117104996519,0.0,-0.00669938394161,0.0108463791797,-0.999918733855,0.0,0.392777136099,-0.0922658692575,0.304922302356,1.0,-0.20998,-0.275973714286,2.655
-0.105895179154,-0.418811298932,-0.134368827287,-2.55972845502,-0.0537864217788,2.13472580755,-0.373840236709,-0.773843186599,-0.455790553895,-0.0106810786565,-0.386067912786,-0.0765718160767,-0.0731908542159,-0.730495799706,0.573794167675,0.818972001642,0.0050853288777,0.0,0.818961216131,-0.573714469353,-0.011618133631,0.0,-0.00659752641942,0.0108313129752,-0.999919574418,0.0,0.389653362154,-0.0963897982623,0.30496363675,1.0,-0.20998,-0.275973714286,2.67
-0.119197281947,-0.426410827018,-0.134608838852,-2.5662641464,-0.0550922160363,2.13329211815,-0.386319925567,-0.793452557383,-0.446392535913,-0.0178883001986,-0.379171916891,-0.0680176002802,-0.0900231738567,-0.732355670111,0.573770647017,0.818989038679,0.00499460179193,0.0,0.818975473085,-0.57368866741,-0.0118842026014,0.0,-0.00686781744453,0.0109094730225,-0.999916904789,0.0,0.385803973851,-0.101344894448,0.304887425555,1.0,-0.20998,-0.275973714286,2.688
-0.13345977121,-0.434239463851,-0.134755539789,-2.57283834705,-0.0563612121708,2.13194689014,-0.399685036407,-0.785710055161,-0.432579927755,-0.00899601968178,-0.367394944966,-0.068278709166,-0.0711077322504,-0.75272128918,0.573736715649,0.819012641638,0.00502203695799,0.0,0.818999410107,-0.573654608768,-0.0118786777427,0.0,-0.00684800443618,0.0109284892678,-0.99991683302,0.0,0.382242331212,-0.105995453701,0.30487487485,1.0,-0.20998,-0.275973714286,2.705
-0.145510912928,-0.44052901826,-0.134974032286,-2.57793781341,-0.0574152320261,2.13077185768,-0.411008028194,-0.808627109033,-0.410923246623,-0.0179321521958,-0.323384598795,-0.0618317132688,-0.069548974358,-0.761681959529,0.573783216777,0.818979611457,0.00509539629673,0.0,0.818967712591,-0.573701456789,-0.0118013182909,0.0,-0.00674193259331,0.010944574138,-0.999917377908,0.0,0.379135108944,-0.110169644256,0.304923300343,1.0,-0.20998,-0.275973714286,2.72
-0.160114130586,-0.447983045881,-0.135120778161,-2.5838931642,-0.0585936370801,2.12941380471,-0.424776098812,-0.806575542842,-0.411806771806,-0.0143522583995,-0.338813821184,-0.0578117263443,-0.0831789375752,-0.761423020883,0.5737636142,0.81899245391,0.00523663624722,0.0,0.818983490439,-0.573683222198,-0.0115909386308,0.0,-0.00648884584699,0.0109393880898,-0.999919109062,0.0,0.375410529832,-0.115125404022,0.305010416286,1.0,-0.20998,-0.275973714286,2.738
-0.174051986878,-0.454685838134,-0.13539213551,-2.58953911583,-0.0596957212105,2.1279647085,-0.437943765777,-0.842727395289,-0.38983726574,-0.0206732010659,-0.321506251732,-0.0698504133814,-0.0868893166076,-0.777770446191,0.573829178705,0.818946619885,0.00522056953676,0.0,0.818935451501,-0.573745504723,-0.0118982765866,0.0,-0.00674890502661,0.0111031015215,-0.999915583146,0.0,0.371756280275,-0.119808658467,0.304919316057,1.0,-0.20998,-0.275973714286,2.755
-0.187230363605,-0.460786297244,-0.13551316687,-2.59444114124,-0.0607169129322,2.12671175798,-0.450510877759,-0.811957947036,-0.372425462503,-0.0136180812895,-0.296216567173,-0.0592819852179,-0.0660360465267,-0.795353267788,0.57372215013,0.819021433782,0.0052471284859,0.0,0.819010803881,-0.573638719017,-0.011860441436,0.0,-0.00670412876224,0.0111022666345,-0.99991589363,0.0,0.368425102737,-0.124179537868,0.304940131425,1.0,-0.20998,-0.275973714286,2.771
-0.202397623869,-0.46731019149,-0.13576007807,-2.59975304918,-0.0618629648565,2.12537805857,-0.464814376117,-0.842589674877,-0.363171505103,-0.00984005290973,-0.287200665439,-0.0657679293656,-0.0781121931545,-0.783659902083,0.573836137088,0.818941419724,0.00527121746903,0.0,0.818930921257,-0.57375229746,-0.0118825194982,0.0,-0.006706843382,0.0111355964605,-0.999915504802,0.0,0.364634757222,-0.129205471215,0.304915770947,1.0,-0.20998,-0.275973714286,2.789
-0.21665721782,-0.473323279558,-0.135884193607,-2.60441406997,-0.0628335217445,2.12408100348,-0.478478777446,-0.833142034427,-0.348076949782,-0.00851673098933,-0.26654702915,-0.0603212906778,-0.0827327510995,-0.815746934283,0.573765719277,0.818990157132,0.0053636558617,0.0,0.81898151879,-0.573682675162,-0.0117561473904,0.0,-0.00655125868719,0.0111382238326,-0.999916507004,0.0,0.361328493843,-0.133574505849,0.304981300619,1.0,-0.20998,-0.275973714286,2.805
-0.230367525148,-0.478727931564,-0.136114590335,-2.60863600315,-0.063812808665,2.12289665175,-0.491490610976,-0.861354388853,-0.334182488637,-0.00917627491751,-0.263856617099,-0.0610668689007,-0.0724758294404,-0.817647659615,0.573835568605,0.818940909568,0.00541052130427,0.0,0.818933445402,-0.573753325165,-0.0116567905118,0.0,-0.00644204206446,0.011120151962,-0.999917417747,0.0,0.35776362689,-0.138320208691,0.30501842087,1.0,-0.20998,-0.275973714286,2.822
-0.244846660321,-0.484141148393,-0.136224709691,-2.61303042078,-0.0647280240441,2.12160025797,-0.505465292653,-0.848139607956,-0.311462240383,-0.00351011336311,-0.255894678802,-0.0477633265402,-0.0798436008658,-0.820138461588,0.573696264411,0.819038624501,0.00539209394204,0.0,0.819029834199,-0.573612248043,-0.0118265163414,0.0,-0.00659352949506,0.0112013297137,-0.999915524223,0.0,0.354183259491,-0.1429196792,0.304961206163,1.0,-0.20998,-0.275973714286,2.839
-0.259663085232,-0.489232570027,-0.136405003276,-2.61712286511,-0.0655840254164,2.1203356734,-0.519612891416,-0.864324550597,-0.283443676574,-0.000539855594135,-0.230656820795,-0.0523730827159,-0.0698000935738,-0.836404600673,0.573781965502,0.818978365001,0.00542592162682,0.0,0.818968810306,-0.573695768754,-0.0119999817018,0.0,-0.00671502640034,0.0113292517896,-0.999913274477,0.0,0.350582367771,-0.147622847735,0.304911912394,1.0,-0.20732,-0.272477714286,2.856
-0.273421965014,-0.493688687157,-0.136457672945,-2.62063264793,-0.0663011599923,2.11931990655,-0.532867727079,-0.870757927598,-0.273083383152,-0.00306567870796,-0.210875651448,-0.0532355643397,-0.0635128832027,-0.829759259684,0.573730437589,0.819014049976,0.00548797116694,0.0,0.819005329284,-0.573644055749,-0.0119797666531,0.0,-0.00666358346088,0.011368053267,-0.999913178241,0.0,0.347317284327,-0.151935388017,0.304905398218,1.0,-0.204019428571,-0.268139820408,2.872
-0.288056289625,-0.498172674538,-0.136504612735,-2.62409832029,-0.0670589457976,2.11818150832,-0.546831714106,-0.840938971592,-0.262534657998,0.0122217045004,-0.195334798174,-0.0421744993157,-0.0623257388478,-0.810631513767,0.573794061752,0.818969327349,0.00551021425546,0.0,0.818960759744,-0.57370734856,-0.0119957955143,0.0,-0.00666306645754,0.0113959848931,-0.99991286374,0.0,0.343853487148,-0.156488633363,0.304912866493,1.0,-0.200512571429,-0.263530808163,2.889
-0.303407648567,-0.502581737941,-0.136524807324,-2.62746329286,-0.0677179298599,2.11706830673,-0.561555159017,-0.864908530644,-0.235245476858,-0.00385030762403,-0.175835597967,-0.0388778988223,-0.0600406804751,-0.80821754853,0.573850670163,0.818928967304,0.00561264324117,0.0,0.818921735174,-0.573763551557,-0.0119718613992,0.0,-0.0065839007332,0.0114665969965,-0.999912580881,0.0,0.340258853477,-0.161215795664,0.304934973875,1.0,-0.196799428571,-0.258650677551,2.907
-0.316065477486,-0.505911031279,-0.136464287692,-2.62998791127,-0.0682414363074,2.11625460926,-0.573731035675,-0.830588386178,-0.212969435088,0.00462831959675,-0.162431851926,-0.0337825928134,-0.050250664793,-0.814013684839,0.573834638644,0.818939918261,0.00565373081025,0.0,0.81893369494,-0.573748197318,-0.0118893341677,0.0,-0.00649295750048,0.0114527629396,-0.999913334106,0.0,0.337346541092,-0.165083419746,0.304959358127,1.0,-0.193705142857,-0.254583902041,2.922
-0.331160814807,-0.509607226921,-0.136456263935,-2.63276657454,-0.0687865527218,2.11534718209,-0.588190184451,-0.854001227826,-0.198588301176,-0.00267372099321,-0.15211984925,-0.029402700273,-0.0550353119803,-0.806435126939,0.573958207436,0.818852520308,0.0057682755467,0.0,0.818848280773,-0.573872204241,-0.0117869918377,0.0,-0.00634167706746,0.0114888044158,-0.999913891545,0.0,0.33388645636,-0.169685811025,0.304991705641,1.0,-0.189992,-0.249703771429,2.94
-0.345068147425,-0.512753056394,-0.136328197177,-2.63520857462,-0.069243108415,2.11442803064,-0.601741173704,-0.806689586431,-0.169465400771,0.00483953763306,-0.139770204174,-0.020557697297,-0.0531573103209,-0.793058063823,0.573824107663,0.81894635534,0.00578856124681,0.0,0.818941630054,-0.573736701486,-0.0118975137694,0.0,-0.00642243915483,0.0115677967212,-0.999912465346,0.0,0.330676727803,-0.17383995007,0.304971464619,1.0,-0.186485142857,-0.245094759184,2.957
-0.357384819945,-0.515235304959,-0.136269879747,-2.637192908,-0.0696487060025,2.1137145187,-0.613546970475,-0.834736762934,-0.158617007105,0.000743867272707,-0.127840873614,-0.0269039516094,-0.0460653149526,-0.786662479996,0.573914438879,0.818882999073,0.00579634170001,0.0,0.818877563214,-0.573825527739,-0.0120227734388,0.0,-0.00651928145217,0.011646761675,-0.999910921988,0.0,0.327846881508,-0.177526554165,0.30492717232,1.0,-0.183390857143,-0.241027983674,2.972
-0.371751595491,-0.517897990423,-0.136119033602,-2.63929986754,-0.0700574675701,2.11299428639,-0.627498095504,-0.796372493398,-0.142036420177,0.00539067174365,-0.10894651797,-0.0153495741624,-0.0295629572165,-0.779066125732,0.573852437873,0.81892633126,0.00581295258775,0.0,0.818920719684,-0.573762770978,-0.0120782620415,0.0,-0.00655607726215,0.0116917125361,-0.999910156819,0.0,0.324586779714,-0.181789583249,0.304893572914,1.0,-0.179677714286,-0.236147853061,2.99
-0.385297561144,-0.520123169569,-0.136042363645,-2.64098999967,-0.0704155254392,2.11235666619,-0.640552964396,-0.794507601363,-0.124492556223,8.66118255632e-05,-0.0898643669254,-0.0176604773916,-0.0416437713164,-0.759411929362,0.573949845077,0.818857749866,0.00585727931583,0.0,0.818852615095,-0.573859792385,-0.0120863698668,0.0,-0.00653588637716,0.0117334445029,-0.999909800167,0.0,0.321539605393,-0.185829511588,0.304891629426,1.0,-0.176170857143,-0.231538840816,3.007
-0.39763232707,-0.521991302921,-0.135864578124,-2.6423956139,-0.0706675114233,2.11181251154,-0.652652366221,-0.767319037861,-0.115871261275,0.00300444791344,-0.0889432167447,-0.0192871328451,-0.0293009327019,-0.745252732277,0.573827754826,0.818943044642,0.00589443171073,0.0,0.818938399087,-0.573737579888,-0.0120762090536,0.0,-0.00650799572463,0.0117570667567,-0.99990970461,0.0,0.318784013633,-0.189456386373,0.30489710261,1.0,-0.172870285714,-0.227200946939,3.023
-0.411571937741,-0.523920704166,-0.135769249479,-2.64375454955,-0.0709468316183,2.11122579013,-0.666043378381,-0.779195248223,-0.10014325995,0.00665296044991,-0.0776707478499,-0.0161327814611,-0.0280153113149,-0.736172503673,0.574010971055,0.818814050886,0.00597512197617,0.0,0.818810865686,-0.573921169298,-0.0120001902994,0.0,-0.00639679859735,0.0117809625045,-0.999910140908,0.0,0.315669413383,-0.193581280698,0.304939449035,1.0,-0.169157142857,-0.222320816327,3.041
-0.423541950596,-0.525332918941,-0.135596790421,-2.64481391028,-0.0711445731923,2.11081438292,-0.677832347499,-0.740213780698,-0.081787393814,0.00822468654711,-0.0679279757075,-0.0105608432926,-0.0258507296246,-0.736675979193,0.573891523864,0.818897523214,0.00600934370449,0.0,0.818894921221,-0.573801861028,-0.0119699281929,0.0,-0.00635409428505,0.011790688378,-0.999910298554,0.0,0.313011044862,-0.197083822129,0.304944518087,1.0,-0.165856571429,-0.217982922449,3.057
-0.435502673377,-0.526556037278,-0.135511663383,-2.645712066,-0.0713276553886,2.1104151553,-0.689395043842,-0.749926773829,-0.0702805649531,0.00643140358043,-0.0505369722368,-0.013389053303,-0.0298623740303,-0.720348344848,0.574030208448,0.818799823657,0.00607581018274,0.0,0.818798035391,-0.573940148503,-0.0119678769384,0.0,-0.00631226565883,0.0118450123879,-0.999909921435,0.0,0.310178610694,-0.200817947587,0.304951318165,1.0,-0.162349714286,-0.213373910204,3.074
-0.448497702874,-0.527675955908,-0.135286396086,-2.64657841834,-0.0714890363105,2.11005869426,-0.70219114341,-0.715842589754,-0.0563444950136,0.00336049222898,-0.0421162939405,-0.000257626389842,-0.011652158805,-0.696791603902,0.573911973132,0.818882597041,0.00608984900505,0.0,0.818880956853,-0.573821814926,-0.0119687142058,0.0,-0.0063066049851,0.0118560780323,-0.999909826008,0.0,0.307465861085,-0.204372247783,0.304942838675,1.0,-0.158842857143,-0.208764897959,3.091
-0.460688725594,-0.528504723962,-0.135151189098,-2.64723026535,-0.0716296430235,2.10976628068,-0.714014423333,-0.723446682136,-0.0516082812071,0.00513671190936,-0.0378769636604,-0.0173627995467,-0.0213212559932,-0.695836937242,0.574020193965,0.81880647217,0.00612576144631,0.0,0.818805080464,-0.573929450946,-0.0119988518042,0.0,-0.00630910408219,0.0119036170155,-0.999909245436,0.0,0.304757207197,-0.207927364066,0.304927741351,1.0,-0.155336,-0.204155885714,3.108
-0.471846745141,-0.529084549594,-0.134916428255,-2.64768676442,-0.0717238468945,2.10951872985,-0.724953291171,-0.686287782334,-0.0288971685889,0.019531094399,-0.024261127435,-0.00515213019589,-0.00978257070123,-0.679501844386,0.573967585659,0.818843433983,0.00611458392844,0.0,0.818841657487,-0.573876450874,-0.0120376907031,0.0,-0.00634809048951,0.0119163497352,-0.999908847024,0.0,0.302300727427,-0.211148749496,0.304916768222,1.0,-0.152035428571,-0.199817991837,3.124
-0.483435388997,-0.529520804121,-0.134756251095,-2.64804366813,-0.0717681412671,2.10931155184,-0.736394471837,-0.684943955518,-0.0225610329792,0.00290153434741,-0.0160666837736,-0.00159355021723,-0.0102836339951,-0.67738925504,0.57393604646,0.818865083638,0.00617545729809,0.0,0.818863731492,-0.573843960617,-0.0120849084092,0.0,-0.00635228296182,0.0119930534644,-0.999907903344,0.0,0.299738242943,-0.21450754296,0.304900150908,1.0,-0.148528571429,-0.195208979592,3.141
-0.494905671794,-0.529811039734,-0.134555190078,-2.64825866557,-0.0718065550568,2.10913632839,-0.74756468204,-0.654383670002,-0.0139577111726,0.0104203419939,-0.0124189134705,0.00173059572992,-0.00909180598642,-0.649838150174,0.57401116707,0.81881221474,0.0062035451798,0.0,0.818811091495,-0.57391868162,-0.0121033149566,0.0,-0.00635013391411,0.0120272011044,-0.999907506839,0.0,0.297211415076,-0.217822761419,0.304898478241,1.0,-0.145021714286,-0.190599967347,3.158
-0.50527038426,-0.529957705525,-0.134348658872,-2.64839193706,-0.0718261083943,2.1090401429,-0.757873925234,-0.656472406609,-0.00786613800091,0.0116007556941,-0.00903745066915,-0.00391087624641,-0.00392429966996,-0.643161084027,0.573895129062,0.818893410312,0.00622175920015,0.0,0.818892448171,-0.573802442776,-0.0121104043814,0.0,-0.00634719191983,0.0120452856178,-0.999907307829,0.0,0.294926280965,-0.220804576354,0.304888451478,1.0,-0.141721142857,-0.186262073469,3.174
-0.516323003535,-0.530006006451,-0.134198138871,-2.64842168812,-0.0718326332072,2.10892468979,-0.768579977496,-0.64271650907,0.00175710081146,0.0121505577827,0.0030189119657,-0.00222083223403,-0.0123715799614,-0.610541411903,0.574068254804,0.818771662283,0.00627301917996,0.0,0.818771196836,-0.573974973188,-0.0121327773756,0.0,-0.0063335402246,0.012101442746,-0.999906716325,0.0,0.292468716936,-0.223995522902,0.304886517195,1.0,-0.138214285714,-0.181653061225,3.191
-0.527407422784,-0.529891928187,-0.133938561492,-2.64836485687,-0.0718276537742,2.10891182385,-0.779645557664,-0.609701977229,0.0122044183005,0.00759288600708,0.00898445079647,-0.00155942961926,0.000193307003152,-0.605095078003,0.573917054161,0.818877679757,0.0062695646086,0.0,0.818877270487,-0.573824014582,-0.012114580902,0.0,-0.0063228549014,0.0120870012497,-0.999906958625,0.0,0.290162900284,-0.226994784126,0.304879333866,1.0,-0.134707428571,-0.17704404898,3.208
-0.536615106364,-0.529752956926,-0.133792659841,-2.64825463145,-0.0718235936668,2.10889837862,-0.788623414144,-0.614336311306,0.00751433552335,0.0074551102704,0.00738641244875,0.00400191644858,-0.00245551236084,-0.591436163193,0.574023640569,0.818802812703,0.0062897439688,0.0,0.818802770391,-0.573930686092,-0.012097010488,0.0,-0.00629531034574,0.0120942626391,-0.999907044619,0.0,0.287836330403,-0.22999794243,0.304878562889,1.0,-0.131200571429,-0.172435036735,3.225
-0.547908222196,-0.529405979365,-0.133523653487,-2.64797021637,-0.0718155123334,2.10892317566,-0.799756463539,-0.580019465869,0.0240875189751,0.0159434186469,0.0183624870314,-0.000427796896746,-0.000112423086497,-0.57420439763,0.573960629144,0.818847203111,0.0062610742093,0.0,0.818847040369,-0.573868301862,-0.0120599957825,0.0,-0.00628238274704,0.0120490568343,-0.999907671686,0.0,0.285479629108,-0.233057279452,0.304889769299,1.0,-0.127487428571,-0.167554906123,3.243
-0.557058314834,-0.528987351023,-0.133301702848,-2.64766977176,-0.0718132177269,2.10894948516,-0.808869528283,-0.576349613918,0.0256526071286,0.0115851219529,0.0182770426881,-0.00165634361007,0.00135968824294,-0.557414025652,0.573852680342,0.818923177129,0.0062191740155,0.0,0.81892231584,-0.573760270207,-0.0120888317409,0.0,-0.00633163143698,0.0120304605078,-0.999907584961,0.0,0.283448093454,-0.235676112972,0.304881355963,1.0,-0.124186857143,-0.163217012245,3.259
-0.566181891926,-0.528497784478,-0.133134570732,-2.64729640207,-0.0717771056109,2.10901571444,-0.817776856886,-0.571033707507,0.0341383615554,0.0101037080825,0.0236990990499,0.00414142777116,0.00648180688374,-0.551642276977,0.573948476871,0.818856012493,0.00622282920218,0.0,0.818855264895,-0.573856155548,-0.0120795196525,0.0,-0.00632050014208,0.0120288499533,-0.999907674761,0.0,0.281413830001,-0.238300220704,0.304882162991,1.0,-0.120886285714,-0.158879118367,3.275
-0.575377002861,-0.527792340461,-0.132855236533,-2.64677659391,-0.0717116808439,2.10916365895,-0.826993351025,-0.530100112002,0.0446244894501,0.0186651151647,0.032538744927,0.00936904593037,0.00849853511784,-0.536521317044,0.57379128965,0.818966515816,0.00617647113749,0.0,0.818965351441,-0.573699560241,-0.012054651364,0.0,-0.00632903890514,0.0119754003718,-0.999908262318,0.0,0.279407426975,-0.240940441124,0.304880380937,1.0,-0.117379428571,-0.154270106123,3.292
-0.584941147593,-0.526976005656,-0.13263093623,-2.64618167462,-0.0716519515197,2.10928040556,-0.836417351529,-0.527077388348,0.0416919781523,0.0116662685998,0.032425565799,0.000750861925758,0.0130170955164,-0.518335842684,0.573806949336,0.818955759193,0.00614786793072,0.0,0.818953973949,-0.573714873933,-0.0120987140958,0.0,-0.00638131117279,0.011977377701,-0.999907906405,0.0,0.277285257797,-0.243691789324,0.304867956104,1.0,-0.113666285714,-0.14938997551,3.31
-0.593277572632,-0.526168922108,-0.132454375395,-2.64556760512,-0.0715384215006,2.10941035727,-0.844569523418,-0.518894110224,0.0535745112603,0.00565660666175,0.0389648756066,0.00753914031571,0.011563452577,-0.498502097022,0.573916067772,0.818879106652,0.00617274200659,0.0,0.818877569054,-0.573823715214,-0.0121085779014,0.0,-0.00637351841343,0.0120042585034,-0.999907633755,0.0,0.275440219767,-0.246098186747,0.304867374278,1.0,-0.110365714286,-0.145052081633,3.326
-0.601584245966,-0.525189597047,-0.132146300545,-2.64486737993,-0.0713826386901,2.10956322464,-0.852957242922,-0.485067347007,0.0592144101447,0.0187569585226,0.040736599859,0.00638152170083,0.0125260399226,-0.48797206714,0.573737947807,0.819004017608,0.00615900066255,0.0,0.819001847908,-0.573644845688,-0.012178301996,0.0,-0.0064411232893,0.0120316185648,-0.999906871706,0.0,0.273632978981,-0.248470121843,0.304847945022,1.0,-0.106858857143,-0.140443069388,3.343
-0.609804392899,-0.524252173025,-0.131918926842,-2.64415043845,-0.0712346452159,2.10972785873,-0.861085337204,-0.484082837007,0.0542895876379,0.0109208103591,0.0436267673657,0.00850567131354,0.0128939440036,-0.460179415003,0.573755688494,0.818991467683,0.00617516675851,0.0,0.818989477142,-0.573662449541,-0.0121810187853,0.0,-0.00643381303465,0.0120465573481,-0.999906738904,0.0,0.271816530247,-0.250830617454,0.30485013456,1.0,-0.103352,-0.135834057143,3.36
-0.617359760068,-0.523328477809,-0.131711857113,-2.64340484368,-0.0710828673796,2.10989622141,-0.868491473612,-0.468731702111,0.0576179705391,0.00766413527661,0.0470489874506,0.0108615257975,0.0187268614768,-0.455976175995,0.573837363905,0.81893410962,0.00619280130721,0.0,0.818932587245,-0.573744474643,-0.0121425807079,0.0,-0.00639101103474,0.0120395851006,-0.999907097369,0.0,0.270151868005,-0.253010434672,0.304869909191,1.0,-0.100051428571,-0.131496163265,3.376
-0.625413591217,-0.52214507797,-0.131444292822,-2.64249281586,-0.0708846522065,2.11010814916,-0.876518016272,-0.438310768885,0.0696242749777,0.0165256055914,0.0484888122305,0.0108526296647,0.0154777816729,-0.441167372942,0.573805364632,0.818956433663,0.00620565726157,0.0,0.81895502016,-0.573712313391,-0.0121492106369,0.0,-0.00638953524971,0.0120536684777,-0.999906937127,0.0,0.268399582226,-0.255338727073,0.304874954453,1.0,-0.0963382857143,-0.126616032653,3.394
-0.632302579229,-0.521128818997,-0.13119562649,-2.64171755378,-0.0707212515884,2.11029810399,-0.883445828776,-0.432149722996,0.0664621704005,0.012759992723,0.0504319419663,0.0131057805414,0.011369031639,-0.434137570925,0.5737099654,0.819023287699,0.00620295963669,0.0,0.81902178862,-0.573616851989,-0.0121558126415,0.0,-0.00639789463378,0.0120545020329,-0.999906873626,0.0,0.266888957899,-0.257316931096,0.304876459331,1.0,-0.0930377142858,-0.122278138776,3.41
-0.639097871346,-0.520119832892,-0.130978473069,-2.64091372575,-0.0705426006804,2.11049691013,-0.890077291134,-0.410160499938,0.0622518145647,0.0118346621321,0.0505937262891,0.0133911402919,0.0120738051522,-0.407971812734,0.573810482215,0.81895273312,0.00622079706606,0.0,0.818951696472,-0.573717700992,-0.0121188000895,0.0,-0.00635586543445,0.0120486588079,-0.999907212093,0.0,0.265390974963,-0.259275450335,0.304893266899,1.0,-0.0897371428572,-0.117940244898,3.426
-0.646405524286,-0.518895766652,-0.13077016354,-2.63996712116,-0.0703333543926,2.11074563152,-0.897275544013,-0.398453577348,0.0672738040601,0.0139385410934,0.0506555467934,0.00601680523288,0.0166000739475,-0.393850334904,0.573893467552,0.818894308741,0.00625666947995,0.0,0.818893833378,-0.573800685917,-0.0120999750956,0.0,-0.00631864115596,0.0120678770636,-0.999907216254,0.0,0.263781501547,-0.261399530304,0.304899517535,1.0,-0.0860240000001,-0.113060114286,3.444
-0.652860019268,-0.517718343106,-0.130472368589,-2.63910019551,-0.0701238013133,2.11097463221,-0.903877867166,-0.369538157005,0.0731042188229,0.0215243222264,0.0512423343826,0.0101010897109,0.013738184383,-0.380226650134,0.573698088521,0.819031216025,0.006254382818,0.0,0.819030447848,-0.573604858354,-0.0121383224428,0.0,-0.00635424295926,0.0120864950462,-0.999906765771,0.0,0.262379700499,-0.263247965322,0.304886807263,1.0,-0.0825171428572,-0.108451102041,3.461
-0.658815334034,-0.516677580513,-0.130212570925,-2.63830799164,-0.069930016557,2.11118164371,-0.90973509263,-0.371180743347,0.0662970967797,0.0155568464555,0.0509679900355,0.00966882138972,0.0149437787051,-0.366704594273,0.573719802437,0.819015979374,0.00625785285239,0.0,0.81901523551,-0.57362651194,-0.0121414868724,0.0,-0.00635452380221,0.0120913210728,-0.999906705639,0.0,0.261070451106,-0.264948255272,0.30488727535,1.0,-0.0792165714286,-0.104113208163,3.477
-0.664901579061,-0.515529319261,-0.129955419556,-2.63741741324,-0.0697239924663,2.11142734439,-0.915727712825,-0.349374333456,0.0694549624121,0.0165410255042,0.0570514326931,0.00930713109549,0.0147306472021,-0.350834266847,0.573749924589,0.818994864384,0.00625963643871,0.0,0.818994313985,-0.573656943753,-0.0121149265172,0.0,-0.00633130058873,0.0120777773612,-0.99990701664,0.0,0.259741778265,-0.266704925656,0.304895649754,1.0,-0.0757097142858,-0.0995041959184,3.494
-0.671056954776,-0.514293177746,-0.129768623592,-2.63648371524,-0.0694982201187,2.11166978183,-0.921793655508,-0.33197736707,0.0671230008371,0.0135496667727,0.0509979543559,0.00894523724731,0.00693015015211,-0.337290770654,0.57383728061,0.818933257288,0.00631208301332,0.0,0.818933240413,-0.573743755043,-0.0121325264099,0.0,-0.00631433273224,0.0121315041269,-0.999906473531,0.0,0.258376215127,-0.268495394384,0.304888743621,1.0,-0.0719965714286,-0.0946240653062,3.512
-0.67591344175,-0.513294955357,-0.129548065258,-2.63573852373,-0.0693124491941,2.11187535067,-0.926610979096,-0.312105224721,0.065524636906,0.0182835317849,0.047294646755,0.0133955783593,0.0157505469497,-0.316691213141,0.573832030993,0.818936852542,0.00632286778827,0.0,0.818936869245,-0.573738251351,-0.0121478405159,0.0,-0.00632076486321,0.0121490834541,-0.999906219454,0.0,0.257311210828,-0.269890796501,0.304881357786,1.0,-0.0689022857143,-0.090557289796,3.527
-0.681109960068,-0.512207483304,-0.129250493395,-2.63493003981,-0.0691027270139,2.11208055932,-0.931818676304,-0.305072841897,0.0628571334816,0.0218439158571,0.04721018324,0.017386631931,0.0116832648698,-0.29615261425,0.573744196443,0.818998442348,0.00631627899154,0.0,0.818998115373,-0.573649972478,-0.0121878214999,0.0,-0.00635859597707,0.0121659466753,-0.99990577456,0.0,0.256178380078,-0.271365629967,0.30487123179,1.0,-0.0653954285715,-0.0859482775511,3.544
-0.686444299587,-0.511060450039,-0.128993013729,-2.63404543452,-0.0688939018737,2.11232676755,-0.937039716953,-0.291520676694,0.0650087642803,0.0117100819581,0.0488778991312,0.0184543187469,0.0159013818384,-0.280125973921,0.573790040195,0.818966344257,0.00631376661276,0.0,0.818966099237,-0.573696037471,-0.0121709404933,0.0,-0.00634552992582,0.0121545592621,-0.999905996051,0.0,0.255012179863,-0.272904752096,0.304875753326,1.0,-0.0616822857143,-0.0810681469389,3.562
-0.690597061892,-0.510124215312,-0.128800237296,-2.63334516992,-0.0687161377465,2.11252508301,-0.941153815396,-0.272558407062,0.0641161184987,0.0101996004651,0.0426167187531,0.0118294253745,0.0080725279099,-0.268236078075,0.573797678577,0.818960872152,0.00632936362206,0.0,0.818960756212,-0.573703458935,-0.0121806359777,0.0,-0.00634440861038,0.012172955433,-0.999905779379,0.0,0.254100403527,-0.274103031029,0.304868605339,1.0,-0.0585880000001,-0.0770013714286,3.577
-0.695381393607,-0.509063153566,-0.128590980699,-2.63256690517,-0.068503229118,2.11272947698,-0.945792752346,-0.261415661529,0.0567180080465,0.0138684026113,0.0388102736133,0.00902282498332,0.0125658810391,-0.254252369728,0.573900092498,0.818888811006,0.0063675694658,0.0,0.818888890933,-0.573805088087,-0.0122250600361,0.0,-0.00635734351778,0.0122305304589,-0.999904994641,0.0,0.253031588374,-0.275470918057,0.30485124026,1.0,-0.0548748571429,-0.0721212408164,3.595
