nelsonifechukwu/NELSON_IML_WORK/CNN-GradCAM/train2dof/data_sample_2022-02-21-10-36-17/robot_state.csv
position_joint1,position_joint2,position_joint3,position_joint4,position_joint5,position_joint6,position_joint7,velocity_joint1,velocity_joint2,velocity_joint3,velocity_joint4,velocity_joint5,velocity_joint6,velocity_joint7,ee_T_00,ee_T_10,ee_T_20,ee_T_30,ee_T_01,ee_T_11,ee_T_21,ee_T_31,ee_T_02,ee_T_12,ee_T_22,ee_T_32,ee_T_03,ee_T_13,ee_T_23,ee_T_33,v_x,v_y,time
0.465069117249,0.547675182191,-0.123971779014,-1.35575071688,0.079461229695,1.8940860379,0.159180694504,0.000551199398112,0.00100353367958,0.00170961727284,0.00135025646464,1.8316896251e-05,-0.000472227239481,0.00124717369681,0.573800349072,0.81898082799,0.00207597954215,0.0,0.818939659008,-0.573741603094,-0.0117963843959,0.0,-0.00847009990504,0.00846903451768,-0.999928263858,0.0,0.661695396068,0.260901065998,0.303326752176,1.0,0.0,0.0,0.0
0.465063764551,0.547670213779,-0.123969983432,-1.35575354431,0.0794605176184,1.89408685176,0.159179621311,-8.41495830945e-05,0.000433481079776,0.00125554830131,0.000983807049563,-0.000191977448567,-0.00307300967911,-0.000157288187173,0.573802561685,0.818979270747,0.00207874752287,0.0,0.818938133563,-0.573743800351,-0.0117954167501,0.0,-0.00846769633379,0.00847076905242,-0.999928269523,0.0,0.661696065927,0.260898233295,0.303328936077,1.0,-0.00022,-0.000289142857143,0.012
0.465063763634,0.547662548445,-0.123972887378,-1.35576143695,0.0794605175643,1.89408916454,0.159175607281,-0.000195819443249,-0.00314202234147,-0.00268099714662,-0.00109804009669,-0.00011252527405,0.00678238514428,-9.06799177243e-06,0.573801737339,0.818979844623,0.00208019964245,0.0,0.818938735616,-0.573742979695,-0.0117935346622,0.0,-0.00846533022781,0.00847086983404,-0.999928288703,0.0,0.661695587889,0.260895873348,0.30333090668,1.0,-0.00052,-0.000683428571429,0.027
0.465055665259,0.547645584588,-0.123970069545,-1.35578023212,0.0794612296411,1.894090748,0.159179573847,-0.00205575810188,0.00104318309351,-0.000276698856747,-6.86785851427e-06,-2.49979753301e-05,-0.000107099718179,0.000506102030549,0.573810844748,0.818973459094,0.00208198211785,0.0,0.818932336497,-0.573752042187,-0.0117970007386,0.0,-0.00846705202687,0.00847441259831,-0.999928244106,0.0,0.661693469056,0.260890360069,0.303334023614,1.0,-0.00088,-0.00115657142857,0.045
0.46505954132,0.547531811756,-0.123968298782,-1.35588835293,0.0794619286288,1.89410765103,0.159181914988,-0.00100686728867,-0.00762778518638,-0.000202145153562,-0.00777013149178,8.73214491148e-05,-0.000321170891607,0.00248296129559,0.573814350325,0.818970937399,0.00210759538715,0.0,0.818930045759,-0.573755344351,-0.0117954178905,0.0,-0.00845102303804,0.00849451678624,-0.99992820912,0.0,0.661673604605,0.260883874296,0.303364568411,1.0,-0.00122,-0.00160342857143,0.062
0.465056673377,0.547408117674,-0.123962297629,-1.35605866966,0.0794571511051,1.89415318081,0.159172792721,-0.00139633283126,-0.00570894266147,0.00219956878459,-0.0165619834625,-0.000343722842796,0.00493726892383,-0.00355540481036,0.573813161422,0.818971758837,0.00211208618863,0.0,0.818930823201,-0.573754035024,-0.0118051262493,0.0,-0.00845640984674,0.00850375301883,-0.999928085073,0.0,0.661646543415,0.260869174804,0.303374870852,1.0,-0.00154,-0.002024,0.078
0.46504250249,0.547250656195,-0.123971052987,-1.35626484665,0.079452059643,1.89423367664,0.159162873112,-0.000940315219155,-0.00945288188185,-0.000499370652732,-0.0139422022641,0.000465213581308,0.00749396320443,-0.00180214938257,0.573832939357,0.818957825207,0.00214129427856,0.0,0.818917254355,-0.573773681066,-0.0117915366604,0.0,-0.00842831518996,0.00852007901066,-0.9999281833,0.0,0.661625478274,0.260836972864,0.303395545511,1.0,-0.00188,-0.00247085714286,0.095
0.465015200385,0.547051299239,-0.123970857814,-1.35648035479,0.0794487791411,1.8943579233,0.159146856941,-0.00169456334413,-0.0173566705302,-0.000528724204559,-0.0151955842552,0.000330799945893,0.00608364937686,-0.00536705887578,0.573853425247,0.81894321091,0.00223842322549,0.0,0.818903877042,-0.573793765378,-0.0117431631341,0.0,-0.00833275086351,0.00857207288452,-0.999928539861,0.0,0.661613370267,0.260803982367,0.303444957925,1.0,-0.00222,-0.00291771428571,0.112
0.464994528121,0.546858026174,-0.12397004255,-1.35671426908,0.0794450725763,1.89447928682,0.159139478469,0.000407416950712,-0.0151546032181,0.000240433344407,-0.015499753915,0.000127853294193,0.00866685066811,1.53377885231e-05,0.573875999666,0.818927186103,0.00231252443002,0.0,0.81888876813,-0.573816011216,-0.0117097226557,0.0,-0.00826260576094,0.00861379491884,-0.999928763404,0.0,0.661594445439,0.26077320222,0.303481020372,1.0,-0.00254,-0.00333828571429,0.128
0.464953417255,0.546626453719,-0.123967874201,-1.35705317975,0.0794343878548,1.89461587535,0.159106556275,-0.00136535539068,-0.0110749950867,0.00112004166558,-0.0210739590186,-0.000891862344633,0.0130625560832,-0.00126710542598,0.573897369459,0.818912123815,0.00234301072591,0.0,0.818874020953,-0.573837181356,-0.011703589288,0.0,-0.00823986313212,0.00863545597913,-0.999928764241,0.0,0.661560878093,0.260717619166,0.303495484106,1.0,-0.00288,-0.00378514285714,0.145
0.464915064933,0.546350701821,-0.123970728577,-1.3574559321,0.0794217496972,1.89475786708,0.158980654603,-0.00109279424305,-0.0143720859758,-0.000212030529832,-0.0254490829095,-0.00238612615965,0.0142820421408,-0.00958609206395,0.573846769118,0.818947525079,0.00236297292586,0.0,0.818909576892,-0.573786404116,-0.0117053076147,0.0,-0.00823034942295,0.0086522806984,-0.999928697151,0.0,0.661515424437,0.260654004692,0.303511463778,1.0,-0.00322,-0.004232,0.162
0.464870593441,0.54607052783,-0.12396797674,-1.35792687248,0.0794005641138,1.89491786076,0.158949253253,-0.00138984880286,-0.0136437995096,0.000415144060134,-0.0298178226739,-0.00619255759207,0.00927040789615,0.00117158851916,0.573876215713,0.81892695426,0.00234083870094,0.0,0.818888620928,-0.573815826425,-0.0117290562398,0.0,-0.00826218908183,0.00864807908673,-0.999928470922,0.0,0.661458783251,0.260581386888,0.303499462323,1.0,-0.00356,-0.00467885714286,0.179
0.464812819567,0.545755950943,-0.123968058596,-1.35843916887,0.0793584806978,1.89510337469,0.158895142684,-0.0057549750488,-0.021119687971,0.000535362613132,-0.0348020676651,-0.0011597360381,0.0180049140146,-0.0061744585506,0.573896739934,0.81891262016,0.00232364726587,0.0,0.818874153177,-0.573836505786,-0.011727437328,0.0,-0.00827051203533,0.00863327895484,-0.999928530009,0.0,0.661403891001,0.260492225792,0.303494389129,1.0,-0.0039,-0.00512571428571,0.196
0.464758888863,0.545458420359,-0.123968962778,-1.35896696736,0.0792664067534,1.89527694092,0.158814126407,-0.00085844122391,-0.02064512723,0.000844410822851,-0.0364727608279,-0.00353365463888,0.0115971937827,-0.00741329393624,0.573880157281,0.818924469952,0.00224153831296,0.0,0.818885433747,-0.573820747208,-0.0117108228793,0.0,-0.00830419811102,0.0085563366855,-0.999928912171,0.0,0.661344541072,0.260394159101,0.303468743924,1.0,-0.0042,-0.00552,0.211
0.464702768625,0.545091130969,-0.123974696629,-1.35960607877,0.0792583480116,1.89547759662,0.158720981392,-0.00592486555056,-0.0172102362363,0.00074000387882,-0.0377657529893,-0.000233646063723,0.00699315492062,-0.0046874911672,0.573887229249,0.818919636163,0.0021964776322,0.0,0.818879718361,-0.573827685388,-0.0117703542729,0.0,-0.00837873587958,0.00855367167046,-0.999928313174,0.0,0.66126377138,0.260294998946,0.303442145355,1.0,-0.00452,-0.00594057142857,0.227
0.464622274522,0.54461045641,-0.123975135175,-1.36039687087,0.0792346029358,1.89575095529,0.158656791191,-0.00570310614426,-0.0251774831651,7.05513602592e-05,-0.0447687218779,-0.00158020601115,0.0213120346802,-3.45210195159e-05,0.573938613939,0.818883674638,0.00217755416591,0.0,0.818843270287,-0.573878892005,-0.011809441914,0.0,-0.00842106894963,0.00856113512634,-0.999927893682,0.0,0.661171551484,0.260168677495,0.303429682325,1.0,-0.0049,-0.00644,0.246
0.464569844091,0.544189654019,-0.123986072568,-1.36110284888,0.0792005116391,1.89599888827,0.158541710797,-0.00450558691686,-0.0283753443595,-0.00145270671307,-0.0462903546878,-0.00534741735289,0.0217474211157,-0.000737001147462,0.573925229547,0.818893134757,0.00214747283065,0.0,0.818852288573,-0.573865576089,-0.0118311867332,0.0,-0.00845627966833,0.00854884419543,-0.999927701685,0.0,0.661087771134,0.260060713969,0.303413289832,1.0,-0.00522,-0.00686057142857,0.262
0.464498303733,0.543663669929,-0.123983204311,-1.36196473524,0.0791647668069,1.89630665716,0.158446299985,-0.00643339522521,-0.0354926715623,0.000710363282807,-0.0514173509985,-0.00106043949734,0.0142074304066,-0.00948763260507,0.573947374359,0.818877632557,0.00214038917544,0.0,0.818836524149,-0.573887574488,-0.0118551874434,0.0,-0.00847976833666,0.00855704728812,-0.999927432602,0.0,0.66099120966,0.259943414256,0.303407283324,1.0,-0.00556,-0.00730742857143,0.279
0.464431068323,0.543172922228,-0.12399174508,-1.36276369791,0.0791104231646,1.89657831008,0.158331426304,-0.00430116150667,-0.0310341371462,-0.00106704822642,-0.0507182533359,-0.00289467131603,0.025399027958,-0.00876669481754,0.573938994126,0.818883621125,0.0020959428756,0.0,0.818841975487,-0.573879414808,-0.011873640631,0.0,-0.00852047541052,0.00853115561634,-0.999927307799,0.0,0.660890233347,0.259806649226,0.303392495928,1.0,-0.0059,-0.00775428571429,0.296
0.464358877028,0.542647830715,-0.123987150006,-1.36360865921,0.0790586915112,1.89687891168,0.158230195968,-6.12365202721e-05,-0.0364947431888,-0.000110996809593,-0.061653342276,-0.000625619381499,0.0169996212872,0.00128960341643,0.573957056175,0.818871027062,0.00207017084299,0.0,0.818828981586,-0.573897514747,-0.011894888977,0.0,-0.00855247871324,0.00852243542716,-0.999927108945,0.0,0.660781147161,0.259669689458,0.303384667498,1.0,-0.00624,-0.00820114285714,0.313
0.464283167112,0.542015671263,-0.123992810311,-1.36459866352,0.0790055369261,1.89723938382,0.158104004721,-0.00454216108994,-0.0387795774609,0.00017277567538,-0.0575635293911,-0.00109188990555,0.0206737125477,-0.00798372944151,0.573948566978,0.818876941831,0.00208410695099,0.0,0.81883505181,-0.573888944029,-0.0118905319449,0.0,-0.00854100093918,0.00853125784673,-0.999927131816,0.0,0.66067419467,0.259533578732,0.303394880944,1.0,-0.00658,-0.008648,0.33
0.464191563669,0.541383430361,-0.123992482367,-1.3655578685,0.0789528245143,1.89758967172,0.15796930721,-0.0103813500275,-0.0378570094813,0.000429376567401,-0.0519250482369,-0.00324955718688,0.017567851527,-0.00590306170269,0.573952155722,0.818874366987,0.00210735261155,0.0,0.818832717414,-0.573892375965,-0.0118856469407,0.0,-0.00852362212366,0.00854752651558,-0.999927141174,0.0,0.660566080633,0.259382943274,0.303415691773,1.0,-0.00692,-0.00909485714286,0.347
0.464112350078,0.54076322458,-0.123998493068,-1.36652706565,0.0788893641041,1.89795769928,0.157827509657,-0.00785282410922,-0.035583941034,-0.00167773098572,-0.0589411573159,-0.00409190133365,0.0252175352607,-0.0119077614087,0.573941974517,0.818881473513,0.00211875592269,0.0,0.818840048772,-0.57388222679,-0.0118706024668,0.0,-0.00850486381754,0.00854812379944,-0.999927295793,0.0,0.660457555798,0.259234945611,0.303424883522,1.0,-0.00724,-0.00951542857143,0.363
0.464018339293,0.540037480868,-0.123996360227,-1.36761163395,0.078826257134,1.89836095621,0.157710768267,-0.00521089832897,-0.0415993541707,-0.000905397051505,-0.0641740044448,-0.00403439833011,0.0303934354077,-0.0102878099765,0.573965018251,0.818865218171,0.00215851704684,0.0,0.818824276973,-0.573905074658,-0.0118539285808,0.0,-0.00846814896472,0.00857135151954,-0.999927408558,0.0,0.660333963808,0.259072047543,0.303456447548,1.0,-0.00758,-0.00996228571429,0.38
0.463918874264,0.539258389893,-0.123999485011,-1.36882877615,0.0787608353514,1.89882862197,0.157553331636,-0.00344165822621,-0.044833676353,0.00653250382261,-0.0695745471064,-0.0030849675554,0.0324070906423,-0.00972362845264,0.573969691715,0.818861868904,0.00218621776385,0.0,0.818821243154,-0.5739095922,-0.0118447727635,0.0,-0.00844470400325,0.00858882748023,-0.999927456877,0.0,0.660196502061,0.258891464277,0.303468256326,1.0,-0.00794,-0.0104354285714,0.398
0.463829366463,0.538596520317,-0.124007718405,-1.36985594043,0.0787010295048,1.89923190569,0.157416894482,-0.000835877756459,-0.048246149115,-0.00130089798139,-0.0669281966435,-0.00561019342932,0.0248789033264,-0.0118598086629,0.573977936642,0.818856008076,0.00221657109633,0.0,0.818815819963,-0.573917760559,-0.0118238738893,0.0,-0.00841008257337,0.00860177182858,-0.999927637398,0.0,0.66008510823,0.258732052516,0.303482134973,1.0,-0.00824,-0.0108297142857,0.413
0.463704385202,0.537778989752,-0.124005836286,-1.37115827406,0.0786237973471,1.89973157449,0.157256501944,-0.00374966064715,-0.0503474024651,0.000160948936819,-0.076114856957,-0.00825299177802,0.021888135961,-0.0115552094025,0.573998940805,0.818841251918,0.00222867953043,0.0,0.818801209958,-0.5739387033,-0.0118190662172,0.0,-0.00839897524436,0.0086091427388,-0.999927667322,0.0,0.659940937906,0.258528209277,0.303482890116,1.0,-0.0086,-0.0113028571429,0.431
0.463597332934,0.536949830274,-0.124019999963,-1.37243573623,0.0785497968746,1.90020106443,0.157104201729,-0.00974132298411,-0.0539457135717,-0.000635490449649,-0.0755628335914,-0.00785407811137,0.0348032797041,-0.00310387504336,0.574022350942,0.818824796982,0.00224485367318,0.0,0.818784991292,-0.573962074378,-0.0118077140922,0.0,-0.00838014956729,0.00861611018453,-0.99992776526,0.0,0.659795374775,0.25832848733,0.303501444245,1.0,-0.00894,-0.0117497142857,0.448
0.463484022383,0.536163880284,-0.124021910912,-1.37368548077,0.0784834816711,1.9006764811,0.156955585019,-0.00516544270133,-0.0493893080756,0.0023531773784,-0.0761517630054,-0.000776619007078,0.03688213492,-0.0146994186732,0.574045885033,0.818808262701,0.00225781099371,0.0,0.818768557867,-0.573985485816,-0.0118092177049,0.0,-0.00837369551225,0.00862782359252,-0.999927718329,0.0,0.6596543918,0.258136122369,0.303502675919,1.0,-0.00926,-0.0121702857143,0.464
0.463364613549,0.53521353726,-0.124027597681,-1.37515799005,0.0783859072141,1.90121096865,0.156772115155,-0.00768468598339,-0.0551926001248,0.00115999432604,-0.0801061515961,-0.00303377184274,0.0274846089059,-0.0116142185231,0.574052028295,0.818803943565,0.00226223635819,0.0,0.818764370171,-0.573991687429,-0.0117981270292,0.0,-0.00836200906821,0.00862514333894,-0.99992783925,0.0,0.659481664269,0.25791224365,0.303518931717,1.0,-0.00962,-0.0126434285714,0.482
0.463238293089,0.534316068941,-0.124028424716,-1.37660566608,0.0783148169326,1.90173425862,0.156594607175,-0.00679658271674,-0.0534730910851,0.000705137842008,-0.0939494657591,-0.00278633912915,0.0286416962827,-0.00860660496405,0.574070997748,0.818790685194,0.00224728417415,0.0,0.818750740007,-0.574010529775,-0.0118272713071,0.0,-0.00839425641357,0.00862982517134,-0.999927528662,0.0,0.659309910333,0.257692412908,0.30350843962,1.0,-0.00996,-0.0130902857143,0.499
0.463125765034,0.533506877458,-0.124036488513,-1.37790310327,0.0782367015859,1.90221399485,0.156432027892,-0.00387504842782,-0.0513067810714,-0.000685981948894,-0.0831866667703,-0.00302036912727,0.0361313408501,-0.0048498539514,0.574085780365,0.818780348237,0.0022371911346,0.0,0.818740289983,-0.574025368612,-0.0118304965948,0.0,-0.00840253543086,0.00862356441835,-0.99992751314,0.0,0.659160237939,0.257490079852,0.303503458011,1.0,-0.01026,-0.0134845714286,0.514
0.462997050242,0.532557611175,-0.12403392833,-1.3794179535,0.0781535792731,1.90279533191,0.156240599055,-0.0063795212398,-0.0604274392716,0.000344574416749,-0.0927918460071,-0.00688600503055,0.0361566499956,-0.0078500675184,0.574093281347,0.818775043058,0.00225390309671,0.0,0.818735123254,-0.574032722362,-0.0118312513987,0.0,-0.00839348084338,0.00863775787121,-0.999927466679,0.0,0.658985598285,0.257265372099,0.303502080113,1.0,-0.0106,-0.0139314285714,0.531
0.462849689932,0.53142831752,-0.124036443763,-1.38125502475,0.078041041726,1.90346489586,0.156009646359,-0.00374915735916,-0.0592700504637,-0.000795208227852,-0.0918547382736,-0.000559327797406,0.0399611948938,-0.00877039726173,0.574096565261,0.818772837294,0.00221846046472,0.0,0.818732437,-0.574036124869,-0.0118520399252,0.0,-0.00843081422821,0.00862070693036,-0.999927299749,0.0,0.658765304981,0.256990818352,0.303481807954,1.0,-0.011,-0.0144571428571,0.551
0.462746033613,0.530653750466,-0.124037180468,-1.38252433601,0.0779581413516,1.90390404491,0.155838335194,-0.00763199181868,-0.0570373021836,-0.000719703724132,-0.104710698938,-0.00227330431558,0.0318619486077,-0.0130575795477,0.574088331075,0.818778747157,0.00216753956829,0.0,0.818737675692,-0.574028085327,-0.0118795016469,0.0,-0.00848261820373,0.0085946950571,-0.999927085544,0.0,0.65860843678,0.256798022924,0.303461534208,1.0,-0.01126,-0.0147988571429,0.564
0.462579316949,0.529445368209,-0.124040372497,-1.38445290051,0.0778382241302,1.90460736087,0.155582702176,-0.00917846340472,-0.0561937836744,0.000200005443143,-0.0971635890905,-0.00369630725578,0.0390891467872,-0.0135016242979,0.574090248564,0.818777449273,0.00214987585674,0.0,0.81873614742,-0.574030073003,-0.011888780352,0.0,-0.00850033551438,0.00858557924279,-0.999927013399,0.0,0.658380105951,0.256501667975,0.303455872447,1.0,-0.01166,-0.0153245714286,0.584
0.46245956541,0.528482765046,-0.124040376772,-1.38594778144,0.0777571696153,1.90517513325,0.155380055267,-0.00619645927269,-0.0652648819666,-0.000501815790468,-0.104571821993,-0.00491852462326,0.0480030477692,-0.0111212730318,0.574081720551,0.818783336955,0.00218452609119,0.0,0.818742402356,-0.574021322223,-0.0118805353451,0.0,-0.00847378296594,0.00860912806427,-0.999927036296,0.0,0.658204232642,0.256283434237,0.303471423068,1.0,-0.01196,-0.0157188571429,0.599
0.462323239521,0.527435059442,-0.124040240203,-1.38757196923,0.0776534886434,1.90579711871,0.155161016114,-0.0135237039096,-0.0654580062683,3.46809676371e-05,-0.103247425704,-0.00550516126263,0.0352037746222,-0.0107788387205,0.574073954529,0.81878868839,0.00221932369017,0.0,0.818748261391,-0.574013474764,-0.0118558913679,0.0,-0.00843371041482,0.00862339188182,-0.999927252174,0.0,0.658016193715,0.256040196391,0.303489784353,1.0,-0.01228,-0.0161394285714,0.615
0.462171256944,0.526277497115,-0.124041304063,-1.38937250532,0.0775329325973,1.90647199754,0.154907378782,-0.0130552006265,-0.0693063662722,0.000251283722994,-0.110909323312,-0.00602241592348,0.0421071545464,-0.0143676713073,0.574056186158,0.818801091291,0.00223940523515,0.0,0.818761018095,-0.573995724551,-0.011834286873,0.0,-0.00840467979187,0.00862724939974,-0.999927463332,0.0,0.657804975882,0.255767374838,0.303505866458,1.0,-0.01262,-0.0165862857143,0.632
0.462024201182,0.525094547781,-0.124046049208,-1.39119697766,0.0774182580535,1.90712899948,0.15465631521,-0.00744384649018,-0.0609651781033,0.000391399312581,-0.105678588703,-0.00667089474227,0.0379441382137,-0.015266418763,0.574041561728,0.818811314922,0.00225008116086,0.0,0.818771388449,-0.573981068368,-0.01182765887,0.0,-0.00839327851981,0.00863203603898,-0.999927517788,0.0,0.6575839207,0.255492927599,0.303526677374,1.0,-0.01296,-0.0170331428571,0.649
0.461864886328,0.523925941769,-0.124055301094,-1.39309795529,0.0772956622213,1.90780250413,0.154404530487,-0.0132327779535,-0.0664192084865,-0.000208040494699,-0.116013810868,-0.0112913821673,0.0432151048263,-0.015813985477,0.574041333105,0.818811629347,0.00219327021995,0.0,0.818770994487,-0.57398109416,-0.0118536506865,0.0,-0.00844717402601,0.0086004370665,-0.999927336227,0.0,0.6573517911,0.255198415873,0.303502292843,1.0,-0.0133,-0.01748,0.666
0.461722347161,0.522776975536,-0.124055667613,-1.39491472604,0.0771919084733,1.90849180734,0.154160470062,-0.00653630637314,-0.0703955125411,-0.0010692272512,-0.115779199558,-0.00143586436012,0.0401351458113,-0.019746910316,0.574028044726,0.818820890585,0.00221357443604,0.0,0.818780457803,-0.573967663912,-0.0118502997762,0.0,-0.00843291522826,0.00861500176556,-0.999927331202,0.0,0.657134187076,0.254933946369,0.303504970716,1.0,-0.01362,-0.0179005714286,0.682
0.461540020798,0.521484721141,-0.124060993807,-1.39698287494,0.0770598606682,1.90930891736,0.153870704348,-0.0118011514918,-0.0673164916771,-2.8683613735e-05,-0.116974034857,-0.0129326587707,0.052367812518,-0.0128409018501,0.574019170836,0.818827038564,0.00224038631287,0.0,0.818787073168,-0.573958807593,-0.0118221360637,0.0,-0.00839455682707,0.00862069806782,-0.99992760487,0.0,0.656898839056,0.254616614992,0.30349960237,1.0,-0.01398,-0.0183737142857,0.7
0.461387877941,0.520276817353,-0.124065916451,-1.39889998191,0.0769457837327,1.9100010661,0.153617613163,-0.0138068836099,-0.0772456313349,0.000342373959411,-0.122433335521,-0.0135072644959,0.0475588312978,-0.00715863612143,0.574011389679,0.818832533007,0.0022258279086,0.0,0.818792322663,-0.573951027249,-0.0118362819046,0.0,-0.0084145784854,0.00861681732825,-0.999927470034,0.0,0.656662475983,0.254330682369,0.303495663885,1.0,-0.0143,-0.0187942857143,0.716
0.461219001307,0.518942754264,-0.124077781295,-1.40095031481,0.0768043522948,1.91074240719,0.153341042093,-0.00498249535837,-0.0842326017453,-0.000669287867253,-0.11911873516,-0.00943760499851,0.0476880747975,-0.0218990245316,0.574002219258,0.818838933663,0.00223604672134,0.0,0.818799005918,-0.573941971589,-0.011813046098,0.0,-0.00838978253571,0.00861175331201,-0.999927722015,0.0,0.656414439247,0.254014549834,0.303520949293,1.0,-0.01464,-0.0192411428571,0.733
0.461054303759,0.517659674448,-0.124076556966,-1.40294600042,0.0766778509712,1.91145635233,0.153070830029,-0.0112282224296,-0.0826692046359,0.000730068901012,-0.123588283838,-0.00844493269641,0.0476678430945,-0.0143067783932,0.573986430568,0.818850002606,0.00223554382342,0.0,0.818810040361,-0.573926158118,-0.0118165025511,0.0,-0.00839306765945,0.00861316367948,-0.999927682298,0.0,0.656166952224,0.253715202561,0.303533312066,1.0,-0.01496,-0.0196617142857,0.749
0.460874181485,0.516406122603,-0.124079418689,-1.40494680816,0.0765511126645,1.9122055907,0.152788392936,-0.0107198882596,-0.0729392054245,0.00152844473877,-0.121872944484,-0.0109047184891,0.0545208171112,-0.0118769142271,0.573976372444,0.818857061319,0.00223246638934,0.0,0.818817090624,-0.573916145594,-0.0118142637959,0.0,-0.00839310642153,0.00860925566535,-0.999927715628,0.0,0.655928688374,0.25340473248,0.303525390036,1.0,-0.01528,-0.0200822857143,0.765
0.460690973426,0.515023785719,-0.124085222715,-1.40712782224,0.0764205682464,1.91302294959,0.152481452834,-0.00974330121237,-0.0797379882668,0.000315609563013,-0.126334286373,-0.00874110900457,0.0480460373054,-0.018972550428,0.57395909241,0.818869133171,0.00224719410723,0.0,0.818829335464,-0.573898791566,-0.0118086122468,0.0,-0.00838020743687,0.00861789474644,-0.999927749397,0.0,0.655665585357,0.253074876287,0.303527621666,1.0,-0.01562,-0.0205291428571,0.782
0.460502419704,0.513603291762,-0.124088967911,-1.40938808108,0.0762850234102,1.91381405693,0.152177670098,-0.0101030432497,-0.0841688643402,0.000631035410988,-0.129903636351,-0.00994325247946,0.0479762387323,-0.0175132600804,0.573949428212,0.81887601608,0.00220704453648,0.0,0.818835586245,-0.57388917267,-0.0118425965081,0.0,-0.0084311816119,0.00860442376311,-0.999927436901,0.0,0.655379711839,0.252731350566,0.303516102615,1.0,-0.01596,-0.020976,0.799
0.46030147409,0.512205525234,-0.124092302222,-1.41165561335,0.076141585352,1.91461872733,0.151854234768,-0.0132900835288,-0.0857774570411,0.000232838928775,-0.132171000598,-0.00721265106696,0.0469066578722,-0.0220971294287,0.573931456036,0.818888769591,0.00214795494121,0.0,0.81884753214,-0.573871398254,-0.0118778901427,0.0,-0.00849418447816,0.00857610750364,-0.999927146951,0.0,0.655096792711,0.252378502715,0.303485937961,1.0,-0.0163,-0.0214228571429,0.816
0.460111196071,0.510847672663,-0.124097212054,-1.41382864856,0.0760131051028,1.91544740285,0.151552062215,-0.0125709854486,-0.0851577487199,-0.000286339814116,-0.128881384474,-0.0143999337109,0.0492163443975,-0.0203843174612,0.573922482226,0.818895031658,0.00215833782298,0.0,0.818853906064,-0.573862360423,-0.0118751301325,0.0,-0.0084860596111,0.00858293276743,-0.999927157376,0.0,0.65483614403,0.252046435623,0.303474501515,1.0,-0.01662,-0.0218434285714,0.832
0.459915534825,0.509349804793,-0.124103592829,-1.41620463564,0.0758706224278,1.91632933283,0.151222176285,-0.00786185509953,-0.0910625140079,0.00123371772416,-0.1430939057,-0.00694317104126,0.0490644946867,-0.0214610387295,0.57390252792,0.818909010453,0.00216054309881,0.0,0.818867875482,-0.573842361251,-0.0118782927569,0.0,-0.00848759322651,0.00858634689157,-0.999927115048,0.0,0.654542951036,0.251689192187,0.303468668169,1.0,-0.01696,-0.0222902857143,0.849
0.459710660895,0.507840213897,-0.124112693421,-1.41857678472,0.0757107654844,1.91717198187,0.150886765219,-0.0077929416799,-0.0918431510651,0.000350122798022,-0.135879561364,-0.00929268633134,0.0542898923052,-0.0159907236571,0.573881736881,0.818923649159,0.0021344375427,0.0,0.818882250834,-0.573821754802,-0.0118827558147,0.0,-0.00850644683306,0.00856731451247,-0.999927118086,0.0,0.65424601667,0.251319634812,0.303468972346,1.0,-0.0173,-0.0227371428571,0.866
0.459472761835,0.506102802617,-0.124122008723,-1.42129227118,0.0755421801176,1.91817370247,0.150515994214,-0.0119612888215,-0.0966118384146,0.000451958401459,-0.138672623208,-0.007832831325,0.0529825788801,-0.0226999541396,0.573874513136,0.818928668535,0.00215079642922,0.0,0.818887492348,-0.573814475567,-0.011873053789,0.0,-0.00848918944897,0.0085750683537,-0.999927198283,0.0,0.653912401196,0.250900011689,0.303478403614,1.0,-0.01768,-0.0232365714286,0.885
0.459271145226,0.504672153793,-0.124122774939,-1.42347539141,0.0753998021725,1.91902853881,0.150218615079,-0.012006148594,-0.0998768579399,0.000170850915918,-0.146168145746,-0.0160120768063,0.0576432601567,-0.023975061892,0.573870887953,0.818930993451,0.00223132832397,0.0,0.818890978174,-0.573810648095,-0.0118174827733,0.0,-0.00839750463391,0.00860908971797,-0.99992768013,0.0,0.653655508771,0.250562533116,0.303513158993,1.0,-0.01798,-0.0236308571429,0.9
0.459038185733,0.502913565145,-0.124125970862,-1.42609151562,0.0752367994908,1.92001803703,0.14983945573,-0.0107284046461,-0.102550279152,-9.63857540873e-05,-0.146482635915,-0.0108418784915,0.0502888903402,-0.0272688862777,0.573843789704,0.818949671545,0.00234251909198,0.0,0.818911133449,-0.573783161066,-0.0117552750487,0.0,-0.00828304010476,0.00866417335987,-0.999928159093,0.0,0.653338692655,0.250162006328,0.303582018304,1.0,-0.01834,-0.024104,0.918
0.458805834335,0.501214075375,-0.124131951168,-1.42863312411,0.0750690446449,1.92093105621,0.149485847943,-0.0153486222557,-0.10377714241,-0.000901151885133,-0.14966179822,-0.0145934048249,0.0564074224877,-0.0196433505921,0.573833070718,0.818957022325,0.00239779796751,0.0,0.81891925671,-0.573772295097,-0.011719695849,0.0,-0.00822229547673,0.00868891927483,-0.999928445709,0.0,0.653022506454,0.249762561821,0.303637834426,1.0,-0.01868,-0.0245508571429,0.935
0.458584654748,0.499607744379,-0.124126661937,-1.43108125082,0.0749197130038,1.92179967609,0.149149451604,-0.0169492639465,-0.102689860836,0.000311500826474,-0.158227873767,-0.0146957109275,0.0515588599718,-0.0227977806091,0.57382835516,0.81896026964,0.00241711942258,0.0,0.818922635479,-0.573767382587,-0.0117241068097,0.0,-0.00821487155142,0.00870722637524,-0.99992834748,0.0,0.652730086138,0.249407209402,0.303663898519,1.0,-0.01898,-0.0249451428571,0.95
0.458327015494,0.497945264494,-0.124130117831,-1.43371592818,0.0747552317619,1.92278074759,0.148760669396,-0.0150025145469,-0.100135545972,-0.000471888872193,-0.156748912605,-0.00643580553375,0.0585587409896,-0.0243626107201,0.573803755432,0.818977469931,0.00242917653191,0.0,0.818939977065,-0.573742725427,-0.0117194661374,0.0,-0.00820441432259,0.00871419122982,-0.999928372663,0.0,0.652387412837,0.248966235845,0.303658821314,1.0,-0.01934,-0.0254182857143,0.968
0.458100464392,0.496461474667,-0.12412670014,-1.43607122508,0.0746101633329,1.92360894948,0.1484024629,-0.0177808904726,-0.0983565743225,-0.000131227886009,-0.154588118865,-0.00750375721384,0.0518832388662,-0.0233800844248,0.573773325159,0.818998891703,0.00239449901247,0.0,0.818960819041,-0.573712290281,-0.0117529467172,0.0,-0.00825205570078,0.00870469578318,-0.999928063337,0.0,0.652085550744,0.248593593177,0.303643633018,1.0,-0.01964,-0.0258125714286,0.983
0.457831291529,0.494782188684,-0.124131576376,-1.43880968477,0.0744387867386,1.92455206101,0.148020376184,-0.0192050373323,-0.0995896453795,-0.000974107779019,-0.167345922904,-0.0147641293969,0.0533673557635,-0.0245312641375,0.573775870628,0.818997395501,0.00229419913893,0.0,0.818957892361,-0.57371508398,-0.0118203153463,0.0,-0.00836475187838,0.00866123097594,-0.999927504374,0.0,0.651731740265,0.248149191516,0.30359203197,1.0,-0.01998,-0.0262594285714,1.0
0.457522370057,0.492789229103,-0.124145462425,-1.44199654641,0.0742383636656,1.92572447563,0.147568927014,-0.0174333632087,-0.111466009046,7.68747524403e-05,-0.173235137826,-0.00823325846511,0.0650164240412,-0.024846532965,0.5737750849,0.818998015071,0.00226939608414,0.0,0.818958201754,-0.573714407428,-0.0118317112429,0.0,-0.0083883242944,0.00864744814919,-0.999927426195,0.0,0.65133517111,0.247635495319,0.303564793688,1.0,-0.0226131428571,-0.0297201306122,1.019
0.45724113697,0.490898281164,-0.124157182605,-1.4449961098,0.0740582555595,1.92680969222,0.147144529583,-0.0175705575142,-0.123573201853,-0.00178031169842,-0.19637385009,-0.00878543162194,0.0651933970218,-0.0297627009198,0.57376764268,0.819003283014,0.00224978348592,0.0,0.818963117625,-0.573706943164,-0.0118533639329,0.0,-0.00841738963013,0.00864373279785,-0.999927214069,0.0,0.650953904593,0.24715950659,0.303547193951,1.0,-0.0249537142857,-0.0327963102041,1.035
0.456891581706,0.488714603272,-0.124166660348,-1.44851537455,0.0738442993734,1.92806614449,0.14664559883,-0.0168491746397,-0.136399978686,-0.000341097280281,-0.21085368332,-0.0124700085707,0.0831312980321,-0.0328749165065,0.573769424862,0.819002216757,0.00218241673064,0.0,0.81896102702,-0.573708842982,-0.0119057384561,0.0,-0.00849891804076,0.00861862888895,-0.999926741131,0.0,0.650504306728,0.24658905024,0.30349974034,1.0,-0.0274405714286,-0.0360647510204,1.052
0.45654441115,0.486541577908,-0.124193669421,-1.45186064315,0.0736383544652,1.92935582807,0.146157104086,-0.0226574752711,-0.146160362633,-0.00202473985069,-0.22410887625,-0.0194070765757,0.0900578460489,-0.0267995511909,0.573783566884,0.818992057039,0.00227503429676,0.0,0.818952200143,-0.573722745791,-0.0118427929647,0.0,-0.00839407605974,0.00865851103507,-0.999927282193,0.0,0.650104427452,0.246033895283,0.303529798213,1.0,-0.0296348571429,-0.0389486693878,1.067
0.456117752508,0.483900383834,-0.124226084253,-1.45590430489,0.0733854405548,1.93081432904,0.145525793438,-0.0315011794106,-0.157550916584,-0.00383935333298,-0.24622390388,-0.0164990527494,0.0782820433374,-0.0387956397476,0.573769874991,0.819001529902,0.00231764353651,0.0,0.81896225631,-0.573708920443,-0.0118171165935,0.0,-0.00834874453697,0.00867853517926,-0.999927488117,0.0,0.64960053842,0.245351716467,0.303565950845,1.0,-0.0321217142857,-0.0422171102041,1.084
0.455675467688,0.481229541032,-0.124272292109,-1.46010035228,0.0731276174582,1.93226099416,0.144898416135,-0.0304063819966,-0.174546818458,-0.00332871194264,-0.272372311755,-0.0127822729723,0.100559230254,-0.0404898732166,0.57378907619,0.818988209025,0.00227077618416,0.0,0.818948263014,-0.573728236298,-0.0118490625147,0.0,-0.00840159582912,0.0086586775521,-0.999927217597,0.0,0.649030459139,0.244589704844,0.303563248693,1.0,-0.0346085714286,-0.0454855510204,1.101
0.45516891687,0.478171689376,-0.124304551841,-1.46478545828,0.0728352882966,1.93399080494,0.144218655854,-0.0382046051424,-0.182122072601,-0.00248439703689,-0.277668910978,-0.0246624921172,0.106871633892,-0.0420488517036,0.573817271174,0.818968294547,0.00232781680759,0.0,0.818929131214,-0.573756248609,-0.0118149114678,0.0,-0.00834059903843,0.00868608448754,-0.999927490543,0.0,0.648480522034,0.24384098308,0.303587732426,1.0,-0.0369491428571,-0.0485617306122,1.117
0.454522430997,0.474309530963,-0.124335065057,-1.4706849862,0.0724738283437,1.93617077948,0.143367915062,-0.0329651555447,-0.201740316452,-0.00174783453706,-0.307025467476,-0.0198788187303,0.117646846582,-0.0400677391127,0.573859157185,0.818938595383,0.00244777598333,0.0,0.81890095723,-0.573797640301,-0.0117574288331,0.0,-0.00822424251287,0.00875176279525,-0.999927881641,0.0,0.64774319581,0.242846591211,0.303642461405,1.0,-0.0398748571429,-0.052406955102,1.137
0.45400120658,0.471273594281,-0.124339318907,-1.4754142753,0.0721876980482,1.93780252752,0.14265679797,-0.0379116371362,-0.211059024394,0.000492986101626,-0.318315784769,-0.0144324343769,0.114663531975,-0.0518485331309,0.573855240237,0.81894146454,0.00240578715858,0.0,0.818902931142,-0.573793511742,-0.0118212584678,0.0,-0.00830065347342,0.00875396581478,-0.99992723097,0.0,0.647118885686,0.242052326361,0.303631792748,1.0,-0.0420691428571,-0.0552908734694,1.152
0.453393049128,0.467580460997,-0.124343003336,-1.48093969007,0.0718427855236,1.93991665593,0.141769998715,-0.0356042100531,-0.220837032701,-0.00118563641725,-0.329571783308,-0.0247595318908,0.123454871586,-0.0510081993722,0.573799009676,0.818980122529,0.00264618564005,0.0,0.818944747574,-0.573736441838,-0.0116937004164,0.0,-0.00805885022414,0.00887708446081,-0.999928123569,0.0,0.646430045429,0.241140050679,0.30373495654,1.0,-0.044556,-0.0585593142857,1.169
0.452697858006,0.463495772641,-0.124359987052,-1.48724647345,0.0714222099954,1.94208456187,0.140813724396,-0.045265443912,-0.236292129546,-0.00519856009248,-0.364793721491,-0.0185008514297,0.120787364723,-0.0458202388969,0.573778651019,0.818994558502,0.00259223468341,0.0,0.818958372388,-0.573716157625,-0.011734635828,0.0,-0.00812355237044,0.00885618632177,-0.999927785323,0.0,0.645588970494,0.240069860846,0.303738167104,1.0,-0.0471891428571,-0.0620200163265,1.187
0.452038568135,0.459715002229,-0.124364803989,-1.49312051847,0.071024150479,1.94413897218,0.139938788218,-0.0491293783227,-0.241522922314,-0.00190080955695,-0.363503811343,-0.0309495670545,0.130807757397,-0.0515525149918,0.573769819599,0.819000882067,0.00254876274818,0.0,0.818964072301,-0.573707421985,-0.0117638913891,0.0,-0.00817255066565,0.00883728110474,-0.999927553315,0.0,0.644806427263,0.239073991015,0.303724173401,1.0,-0.0495297142857,-0.0650961959184,1.203
0.451254836747,0.455333279921,-0.124374533859,-1.50001641638,0.0705596520052,1.94659310459,0.138865160809,-0.0406807705527,-0.244320541782,-0.00396848104979,-0.391995220163,-0.0257824666897,0.136972417058,-0.0636658999231,0.573730232545,0.819028813603,0.0024838788914,0.0,0.818991113918,-0.573668031171,-0.0118022132674,0.0,-0.0082415894931,0.00880573084013,-0.999927265008,0.0,0.643890011793,0.237899945257,0.303668497489,1.0,-0.0521628571429,-0.0685568979592,1.221
0.450404574419,0.450605085908,-0.124426839714,-1.50711200886,0.0700679320153,1.94920686355,0.137723283837,-0.0489358834624,-0.262569701364,-0.00213201220683,-0.399254759597,-0.0253924057447,0.155173925296,-0.0644150486225,0.573718170084,0.819036697044,0.0026640405943,0.0,0.819001774082,-0.573655793013,-0.0116564185983,0.0,-0.00801894665797,0.00886952388675,-0.999928511465,0.0,0.642982137307,0.236646596527,0.303765156245,1.0,-0.054796,-0.0720176,1.239
0.449674867824,0.44651376704,-0.124470634578,-1.51333726578,0.0696523797344,1.95133865564,0.136812463536,-0.0500652801807,-0.278209594134,-0.00252856476409,-0.42150261913,-0.0337031146012,0.141201373003,-0.059780309589,0.573768121759,0.819001741837,0.00265258772061,0.0,0.818966629544,-0.573705733313,-0.0116678257867,0.0,-0.00803431954486,0.0088671780324,-0.999928408869,0.0,0.642139130869,0.235551440218,0.303792730212,1.0,-0.0569902857143,-0.0749015183673,1.254
0.448795364685,0.441767060729,-0.124486266308,-1.52072651097,0.0691478932221,1.95383321902,0.135665078242,-0.0531363574721,-0.290519704303,-0.002004501197,-0.437701002311,-0.0302525622102,0.152296953318,-0.0743585975582,0.57375001152,0.819014854037,0.0025179453004,0.0,0.818977773205,-0.573687869512,-0.0117635994866,0.0,-0.00819020572838,0.00881167622821,-0.999927634828,0.0,0.64111518914,0.234260706152,0.303741631292,1.0,-0.0594771428571,-0.0781699591837,1.271
0.447855425003,0.436878540972,-0.124496968179,-1.52830649273,0.0686418013683,1.95649786238,0.1344259573,-0.0581269095383,-0.301806868111,-0.000430440790649,-0.443924700289,-0.0276754334193,0.169147692446,-0.0700330004978,0.573707351068,0.819044822973,0.00249001865722,0.0,0.819007187946,-0.573645113327,-0.0118007182167,0.0,-0.00823708871745,0.00880967158069,-0.999927267383,0.0,0.640083528556,0.232926349088,0.303705800137,1.0,-0.061964,-0.0814384,1.288
0.446907564488,0.432019691046,-0.124526120371,-1.53551140602,0.0681474306112,1.95916731146,0.133253102609,-0.0586934631313,-0.306494260225,-0.00295686271091,-0.455940667722,-0.0316061362399,0.164883622389,-0.0741961498999,0.573721662859,0.819033978067,0.00274649585322,0.0,0.818999968659,-0.573658827316,-0.0116339193403,0.0,-0.00795317677067,0.00892418338537,-0.999928550413,0.0,0.63914382158,0.231623193686,0.303822424762,1.0,-0.0643045714286,-0.0845145795918,1.304
0.445788585688,0.426489269043,-0.124592246453,-1.54413992281,0.0675101919874,1.96199763978,0.131875080278,-0.0614744422358,-0.310487515537,-0.00441940084195,-0.490602611756,-0.0339592226562,0.150018325413,-0.0763857637901,0.573749375146,0.819015414734,0.00248029211373,0.0,0.818978064352,-0.573687607959,-0.0117560829275,0.0,-0.00820565826913,0.00877651904335,-0.999927817338,0.0,0.637929806245,0.230023466143,0.303728794387,1.0,-0.0669377142857,-0.0879752816326,1.322
0.444490144636,0.420036962463,-0.124680498764,-1.5539813026,0.0668052506894,1.96528332496,0.130258917516,-0.0678264233447,-0.322869991544,-0.00175012638054,-0.498557471828,-0.0393874948895,0.173066756933,-0.0773574712456,0.573772285362,0.818999719147,0.00236039985527,0.0,0.818960919048,-0.573711080524,-0.0118049166778,0.0,-0.00831419596629,0.00870657688412,-0.999927532206,0.0,0.636550705621,0.228189714815,0.303715700598,1.0,-0.0698634285714,-0.0918205061224,1.342
0.443661183755,0.416017269786,-0.124698614628,-1.55989080427,0.0663951184419,1.96750146478,0.129315015064,-0.0700663934872,-0.332022922344,-0.00481506277253,-0.491955223407,-0.0308550833951,0.185235158624,-0.0806289862677,0.573824000713,0.81896268384,0.00262403988618,0.0,0.818927570502,-0.573762111553,-0.0116370322374,0.0,-0.00802487499085,0.00882667694463,-0.999928843046,0.0,0.635770467138,0.227098971405,0.30382091022,1.0,-0.0716188571429,-0.0941276408163,1.354
0.44245511756,0.410281924004,-0.124705368063,-1.56857644122,0.0658041607618,1.97050634318,0.12781025099,-0.0692594326045,-0.334060338663,-0.000943034725208,-0.517140432117,-0.0346679390827,0.165556111202,-0.0903864776973,0.573776476312,0.818995826325,0.0026718146252,0.0,0.818961043063,-0.57371410786,-0.0116481452834,0.0,-0.00800707878853,0.00887171465659,-0.999928587134,0.0,0.634548550006,0.225502006635,0.303829916145,1.0,-0.0741057142857,-0.0973960816326,1.371
0.441115889446,0.404068838673,-0.124770244192,-1.57819812667,0.0651076030543,1.97363512038,0.126253287185,-0.0750982575186,-0.349155333233,-0.00296556823326,-0.536512942955,-0.0383565195317,0.171554334531,-0.0899417170416,0.57383822561,0.818953373538,0.00241033185858,0.0,0.818915012145,-0.573776601117,-0.0118051596934,0.0,-0.00828504284744,0.0087482772662,-0.99992741022,0.0,0.633149714537,0.223680527753,0.303720851422,1.0,-0.0767388571429,-0.100856783673,1.389
0.439937139708,0.398626081831,-0.124812205892,-1.58620439444,0.0645496696476,1.97649681212,0.124860138219,-0.0791268348376,-0.3657901229,-0.00327736329863,-0.53237562447,-0.0389753692605,0.19042562538,-0.0935562941626,0.573856002862,0.818940173712,0.0026508036486,0.0,0.818905077135,-0.573793652398,-0.0116647336444,0.0,-0.00803185932794,0.00886480466494,-0.999928449677,0.0,0.632042898899,0.222157225401,0.303826931945,1.0,-0.0789331428571,-0.103740702041,1.404
0.438465229194,0.392016153797,-0.124834276511,-1.59613898016,0.0638015985461,1.97985055981,0.123193933276,-0.0798796025953,-0.366632461561,-0.00284360565333,-0.555589240371,-0.0423779390482,0.182401355286,-0.0930145559453,0.573887906455,0.818917838857,0.00264403607869,0.0,0.818882760692,-0.573825692757,-0.0116552767182,0.0,-0.00802765274404,0.00885414838826,-0.999928577873,0.0,0.6306078759,0.220261163184,0.303834795724,1.0,-0.0815662857143,-0.107201404082,1.422
0.437055662158,0.385644629128,-0.124872917167,-1.60584451881,0.0630756468252,1.98295695122,0.121489959603,-0.083172815611,-0.371494471527,-0.00258886246316,-0.570839313836,-0.0408319964836,0.179637299457,-0.10486524133,0.573839368295,0.818952511442,0.00243111061076,0.0,0.81891441874,-0.573777663537,-0.0117946812871,0.0,-0.00826452601346,0.00875929263528,-0.999927483572,0.0,0.629148923186,0.218410968452,0.30376074853,1.0,-0.0840531428571,-0.110469844898,1.439
0.435678180048,0.379393942111,-0.124876191142,-1.61490262765,0.0624459304221,1.9861255719,0.119870181594,-0.0843417387111,-0.386877294672,0.000624018025522,-0.57505740974,-0.0375929826653,0.196816811025,-0.103899515322,0.573805942595,0.818974946665,0.00274296908188,0.0,0.81894074645,-0.5737429457,-0.0116547399766,0.0,-0.00797133436258,0.00893406021369,-0.999928317629,0.0,0.627838776075,0.216696515448,0.303906231074,1.0,-0.0863937142857,-0.11354602449,1.455
0.434114803726,0.372753763199,-0.124894914546,-1.62491118754,0.0616729467907,1.98942119306,0.118063735854,-0.092468773206,-0.390863046269,-0.00409705692232,-0.592889343868,-0.0447602755829,0.189623337462,-0.10340364472,0.573766429604,0.819002932544,0.00265097060128,0.0,0.818967527573,-0.573703747453,-0.0117023861439,0.0,-0.00806357205005,0.00888566623126,-0.999928009279,0.0,0.626340646885,0.214745383729,0.303862480527,1.0,-0.0888805714286,-0.116814465306,1.472
0.432497584621,0.365914473305,-0.124967531985,-1.63512424377,0.0608844533632,1.99269911113,0.116334156499,-0.0906763975663,-0.40730724137,-0.00515292790895,-0.591320309364,-0.0444124792192,0.194675852775,-0.112798889973,0.57386900253,0.818931426253,0.00253651969209,0.0,0.818894551656,-0.57380673915,-0.0117595185181,0.0,-0.00817492457137,0.00882573524098,-0.999927635885,0.0,0.624792855201,0.212710861143,0.30384209089,1.0,-0.0913674285714,-0.120082906122,1.489
0.43092768763,0.359300940209,-0.124980637869,-1.64476018712,0.0601302895207,1.99601654248,0.114495917686,-0.102784771801,-0.404895504832,-0.00130494568824,-0.61961537962,-0.052699703169,0.202598888983,-0.117641282004,0.573780229926,0.818992930537,0.00275215860538,0.0,0.818959200165,-0.57371759867,-0.0116057030106,0.0,-0.0079261794969,0.0089132001588,-0.999928862741,0.0,0.623363056751,0.210816322928,0.303935397007,1.0,-0.093708,-0.123159085714,1.505
0.429052491806,0.351829018927,-0.125008655545,-1.65600288042,0.0592975267595,1.99955330102,0.112437971354,-0.101706818782,-0.414608688021,-0.000547071296788,-0.631653250783,-0.0502521655101,0.186130543853,-0.112169393646,0.57379814737,0.81898101073,0.00255676346593,0.0,0.818944052976,-0.573735444056,-0.0117908960833,0.0,-0.00818977184769,0.00885961113867,-0.999927214815,0.0,0.62160867049,0.208563067053,0.30384220821,1.0,-0.0963411428571,-0.126619787755,1.523
0.42732480382,0.344939141898,-0.125081242972,-1.66594718835,0.0585445601155,2.00291071532,0.11054169469,-0.110260023792,-0.436516817013,-0.00550298551944,-0.63106243136,-0.0498254799761,0.212076645589,-0.110988928408,0.573831686314,0.818956746974,0.00279092624786,0.0,0.818923036756,-0.573768372943,-0.0116473594284,0.0,-0.00793749119741,0.00896935038798,-0.999928270921,0.0,0.620115648047,0.206520295261,0.303951610993,1.0,-0.0986817142857,-0.129695967347,1.539
0.425421207803,0.337584378913,-0.125085144526,-1.67680356346,0.0576758473356,2.00637271021,0.108487825121,-0.108171492463,-0.435527214167,-0.000306487218031,-0.644446104742,-0.0477708109473,0.20073338125,-0.130563294392,0.573811524362,0.818971070794,0.00273251025042,0.0,0.818936456662,-0.573748251812,-0.0116948874509,0.0,-0.0080101557396,0.00894858574575,-0.999927877508,0.0,0.618409497211,0.204311120875,0.303929399271,1.0,-0.101168571429,-0.132964408163,1.556
0.423467551785,0.330048121407,-0.125099948413,-1.68788606366,0.0567470952782,2.00978841822,0.106363335387,-0.115786712339,-0.450828412736,0.0015400403332,-0.646100705064,-0.0593517035826,0.1993736258,-0.123387030965,0.573759131307,0.8190082642,0.00258250172034,0.0,0.818971664427,-0.573696363292,-0.0117746555229,0.0,-0.00816212548246,0.00887098265047,-0.999927340047,0.0,0.616627837439,0.202039284889,0.303900624107,1.0,-0.103655428571,-0.13623284898,1.573
0.421689760645,0.3232750406,-0.125093745042,-1.69764069388,0.0559956337373,2.01304294986,0.104423047045,-0.125268945751,-0.444959027256,0.00435790499605,-0.659074527463,-0.0474998204667,0.20961898272,-0.125197684015,0.573704038405,0.819046119039,0.00280679639919,0.0,0.819012342331,-0.573640379035,-0.0116724270009,0.0,-0.00795031735283,0.00899549259288,-0.999927934187,0.0,0.615099889531,0.200048392994,0.30397436211,1.0,-0.105849714286,-0.139116767347,1.588
0.419586091852,0.31551145865,-0.125140264416,-1.70903017786,0.0550665347302,2.01653993012,0.102209613475,-0.123599276729,-0.463883991421,-0.00172117641483,-0.672340000528,-0.0571101075927,0.204814041341,-0.136873999749,0.573716929436,0.819037536965,0.00267297997733,0.0,0.819001771479,-0.573653461921,-0.0117707621456,0.0,-0.00810748791259,0.00894243302142,-0.999927148112,0.0,0.613246031179,0.197657605758,0.303927455883,1.0,-0.108336571429,-0.142385208163,1.605
0.417275770527,0.307070076125,-0.125220164046,-1.72103608138,0.0540321440253,2.02039548907,0.0997338587811,-0.136278413635,-0.460892129014,-0.000674482719124,-0.664666824286,-0.0570340425748,0.217109787139,-0.132495486903,0.573682611035,0.819060967977,0.00285296939005,0.0,0.81902823263,-0.573619301724,-0.0115930042097,0.0,-0.0078590102507,0.00898754044005,-0.999928727497,0.0,0.611332824967,0.195078369979,0.304040697606,1.0,-0.110969714286,-0.145845910204,1.623
0.414690927037,0.298115265291,-0.125242921287,-1.73413715787,0.0529674492107,2.02430685003,0.0970839806313,-0.14237367689,-0.469324260703,-0.00116958753676,-0.694423221983,-0.0695955598083,0.204510178763,-0.139274639858,0.573697340911,0.819051332409,0.00265005905533,0.0,0.81901523459,-0.57363392176,-0.0117862723806,0.0,-0.00813355492481,0.00893236383858,-0.999927026418,0.0,0.609144272985,0.192266735666,0.303952912409,1.0,-0.113749142857,-0.149498873469,1.642
0.412582634594,0.290822726279,-0.125337684268,-1.74439047775,0.0521460705805,2.02756040211,0.0949378595399,-0.137522449007,-0.495379799566,-0.0045584350045,-0.685079315169,-0.0586836648478,0.232146908476,-0.1453581356,0.573774552221,0.818996462993,0.00288161930761,0.0,0.818963458248,-0.573710401069,-0.0116609031307,0.0,-0.00789717549576,0.00905084464264,-0.999927855813,0.0,0.607485368308,0.1899953441,0.304067691993,1.0,-0.115943428571,-0.152382791837,1.657
0.409839332388,0.281607256546,-0.125383149932,-1.75768047021,0.0510119123718,2.03157367594,0.0921034674679,-0.148289397284,-0.491042045548,-0.00223832114134,-0.714104998559,-0.062684239421,0.200237888666,-0.153686915923,0.573740186143,0.819020825601,0.0027987385164,0.0,0.818986540468,-0.573676094048,-0.0117274272829,0.0,-0.00799959181203,0.00902079916586,-0.999927313215,0.0,0.605247491296,0.187080903694,0.304026778757,1.0,-0.118722857143,-0.156035755102,1.676
0.407865074873,0.275181865625,-0.125417873893,-1.7668899564,0.0501919662441,2.03427928447,0.0901396219932,-0.15200999336,-0.505857776717,-0.00529141742822,-0.691526146675,-0.054882805013,0.226214893851,-0.150036530838,0.573756756461,0.819009437256,0.00273367913849,0.0,0.818974321608,-0.573692910283,-0.0117580669828,0.0,-0.00806183069725,0.00898525638625,-0.999927133372,0.0,0.603563720246,0.184857400803,0.304020233768,1.0,-0.120770857143,-0.158727412245,1.69
0.404754974174,0.265135882648,-0.125557261763,-1.78104200928,0.0489450470644,2.0386612024,0.0870388816756,-0.152587916809,-0.506276204719,-0.00858896263626,-0.715375355731,-0.0682457484902,0.212226173128,-0.151074463816,0.573836560136,0.818953070073,0.00286673532522,0.0,0.81892022557,-0.573772855957,-0.0116241481795,0.0,-0.00787492854053,0.00901816237258,-0.999928326555,0.0,0.601312947763,0.18178034501,0.304074591322,1.0,-0.123550285714,-0.16238037551,1.709
0.402126635203,0.257005856707,-0.125671198953,-1.79261912757,0.0479133229063,2.04194389221,0.0844821852984,-0.162787904496,-0.514292413854,-0.0106122862108,-0.723354277002,-0.0574351294412,0.210087724938,-0.16090674092,0.573935159968,0.818884556254,0.00269491811557,0.0,0.818849295646,-0.573871828348,-0.0117346729993,0.0,-0.00806296014252,0.00894184538398,-0.99992751341,0.0,0.599300388375,0.179079354297,0.304031476063,1.0,-0.125890857143,-0.165456555102,1.725
0.399630950889,0.249251089636,-0.125699433339,-1.80341669362,0.0469129385192,2.04520133126,0.0820524518245,-0.169001482692,-0.506695567308,0.000249359792996,-0.741092506362,-0.0685944975604,0.216306611988,-0.16343581214,0.573940359865,0.818880480574,0.00282289810697,0.0,0.818847315797,-0.573877072596,-0.0116157592062,0.0,-0.007892073926,0.00897844841951,-0.999928548764,0.0,0.597439485965,0.176599588987,0.30409733981,1.0,-0.128085142857,-0.168340473469,1.74
0.396753714899,0.240431290451,-0.125694304144,-1.81597336378,0.0458565866286,2.04873459105,0.0791408698901,-0.169612559387,-0.516681886295,0.00133503469304,-0.728784892867,-0.0579981358895,0.201276513192,-0.173007764431,0.573851800551,0.818943023976,0.00267981083199,0.0,0.818906827556,-0.573787717373,-0.0118325853601,0.0,-0.00815272766128,0.00898483878694,-0.999926400143,0.0,0.59517440421,0.173768883345,0.304008507498,1.0,-0.130572,-0.171608914286,1.757
0.393602114076,0.230837790016,-0.125698597589,-1.82904144332,0.0446693611236,2.05265765313,0.0761045407955,-0.176535593473,-0.521278660734,0.0035957619478,-0.730180924978,-0.074511954419,0.219197750465,-0.17854176554,0.573842988714,0.818948011749,0.00302080401069,0.0,0.818916596885,-0.573778113,-0.0116202964856,0.0,-0.00778329733039,0.00914218822078,-0.999927917741,0.0,0.592877841302,0.170747797043,0.304169179145,1.0,-0.133205142857,-0.175069616327,1.775
0.390899665032,0.222831086359,-0.125693427141,-1.84035044862,0.0435958214375,2.05569081751,0.0733820408954,-0.182543939044,-0.526324969915,-0.00232064481028,-0.755810828595,-0.0706701077464,0.196593252875,-0.178224062158,0.573710894329,0.819041484854,0.00275730247633,0.0,0.819006112348,-0.573646339334,-0.011815760941,0.0,-0.00809603778764,0.00903725235346,-0.999926388412,0.0,0.590638110943,0.167958354132,0.304074562792,1.0,-0.135545714286,-0.178145795918,1.791
0.387286417063,0.21246896873,-0.125787388091,-1.8544201579,0.0423047181395,2.05975759919,0.0699649581547,-0.195066718155,-0.545274233565,-0.00861593298631,-0.737993740419,-0.0691813438861,0.210116145304,-0.172921784327,0.57378169426,0.818990894174,0.00303800798243,0.0,0.818959448615,-0.573716471373,-0.0116438352801,0.0,-0.00779338989489,0.00916920141242,-0.999927591788,0.0,0.588256476204,0.164739696269,0.304205355175,1.0,-0.138178857143,-0.181606497959,1.809
0.384157747119,0.203758926546,-0.125847557874,-1.86661851286,0.0411409625158,2.06297197518,0.0669261969282,-0.194166474722,-0.536866193509,-0.00274485539258,-0.767056967351,-0.0725930510637,0.190585740794,-0.198546199747,0.573738317921,0.819022175567,0.00278664292306,0.0,0.818986903218,-0.573673336624,-0.0118364734691,0.0,-0.00809586737857,0.00907343712798,-0.999926062102,0.0,0.585964689652,0.161801327922,0.304100587081,1.0,-0.140519428571,-0.184682677551,1.825
0.380717536141,0.194244499984,-0.125925256566,-1.87942399904,0.0399150736358,2.06655760865,0.0636658072964,-0.206990851014,-0.563261473324,-0.00372573469203,-0.768773954844,-0.0685147495844,0.214199479458,-0.188983207268,0.573758456082,0.819007335347,0.00299426505067,0.0,0.818975062677,-0.573693079722,-0.0116980294793,0.0,-0.00786313420394,0.00916424818096,-0.99992709118,0.0,0.583607178692,0.158652555196,0.304209335413,1.0,-0.143006285714,-0.187951118367,1.842
0.377315477192,0.18534361855,-0.126081099893,-1.89172355992,0.0387757666296,2.06980054672,0.0604720350562,-0.219148356805,-0.563244837275,-0.00762935215137,-0.799301941787,-0.07309525847,0.197737256171,-0.203614556646,0.573872793799,0.818927694384,0.00286265776815,0.0,0.818893051731,-0.573807110041,-0.011845555875,0.0,-0.00805819552564,0.00914222881613,-0.999925739811,0.0,0.581290172472,0.155539083594,0.304131294216,1.0,-0.145346857143,-0.191027297959,1.858
0.373174651564,0.174508716247,-0.126194954157,-1.90617859713,0.0373300722624,2.07372537561,0.0566639440751,-0.219431446191,-0.573161494037,0.00218862548119,-0.760774246128,-0.0775069742109,0.212295396431,-0.197810831622,0.573963218103,0.818863616397,0.00305759816637,0.0,0.818832040405,-0.573897452633,-0.0116854768444,0.0,-0.00781421447714,0.00921087057781,-0.999927046297,0.0,0.578574730211,0.151860411267,0.304242174588,1.0,-0.148126285714,-0.194680261224,1.877
0.369867290634,0.16598554362,-0.126192846561,-1.91790261848,0.0361303084065,2.0766673244,0.0534998289084,-0.217821841441,-0.558803268022,0.000338195826946,-0.810353835398,-0.0734366915585,0.193376546987,-0.215817530521,0.573830764808,0.818957314682,0.00281371451672,0.0,0.818922076253,-0.573765313728,-0.0118635866864,0.0,-0.00810151528202,0.00911207939138,-0.999925664967,0.0,0.576262649717,0.148965832567,0.304128923631,1.0,-0.150320571429,-0.197564179592,1.892
0.365733624252,0.155463543248,-0.126228873152,-1.93165982015,0.0347196519168,2.08035850114,0.0496473103056,-0.238218531523,-0.5832254443,0.000886698731754,-0.786145475989,-0.0854596770129,0.201678686598,-0.216714098075,0.573781222452,0.818990844903,0.00313873034263,0.0,0.818960508187,-0.573715434296,-0.0116203864946,0.0,-0.00771640067623,0.0092382336293,-0.999927553476,0.0,0.573619935988,0.145445057815,0.304297124977,1.0,-0.152953714286,-0.201024881633,1.91
0.36194693675,0.146184366643,-0.126269321324,-1.9442659153,0.0334092733387,2.08339339935,0.0461605646172,-0.247141505988,-0.571857963431,-0.000977435869692,-0.80167397694,-0.085706616903,0.188841857558,-0.216961789264,0.573752533699,0.819011923949,0.0028714810804,0.0,0.818977510371,-0.5736869635,-0.0118259172255,0.0,-0.00803839072149,0.00913700431339,-0.999925946971,0.0,0.571083762527,0.142220092191,0.304181268127,1.0,-0.155294285714,-0.204101061224,1.926
0.35753660502,0.135461131796,-0.126379550367,-1.95821644342,0.0320290486899,2.08696434448,0.0420754538195,-0.243229285195,-0.59441551829,-0.0057316495809,-0.773479782074,-0.0776294491386,0.196134008218,-0.229757621943,0.573779331972,0.818992119202,0.00315179132441,0.0,0.818961309955,-0.573712732755,-0.0116970069532,0.0,-0.00777168332808,0.00929287490405,-0.999926619015,0.0,0.568332207116,0.138543543013,0.304307517335,1.0,-0.157927428571,-0.207561763265,1.944
0.353733154716,0.126561838125,-0.12649958754,-1.97006157833,0.0307369383623,2.08977996441,0.038593397508,-0.261286309401,-0.595883152359,-0.00814735417255,-0.796335793421,-0.0849820164244,0.179763594505,-0.226687604363,0.573796423391,0.818980737692,0.00299377579366,0.0,0.818947852901,-0.573730338796,-0.0117753758278,0.0,-0.0079263385883,0.00920859208632,-0.99992618477,0.0,0.5659281335,0.135372426985,0.30425083518,1.0,-0.160121714286,-0.210445681633,1.959
0.348441194795,0.114428827776,-0.126666771364,-1.98572257847,0.0290623487388,2.09363334681,0.0338583138965,-0.269123586217,-0.599462210042,-0.00408429854454,-0.804296759288,-0.078615033649,0.193108483688,-0.250471337603,0.573926957311,0.818888449124,0.00320974519035,0.0,0.818858866677,-0.573860719537,-0.0116093900576,0.0,-0.00766499631003,0.00929144911008,-0.999927455771,0.0,0.562774688315,0.13107988228,0.304362448274,1.0,-0.163047428571,-0.214290906122,1.979
0.344930285775,0.10656194421,-0.126704812568,-1.99609194564,0.0279262002347,2.09596583429,0.0306668149275,-0.270382105421,-0.611078084182,-0.00242038504784,-0.771560841185,-0.0842292012678,0.170972824374,-0.234440184914,0.573888872967,0.818915750564,0.00304989578946,0.0,0.818883685038,-0.573822685416,-0.011738099585,0.0,-0.00786256661846,0.00923405242879,-0.999926453456,0.0,0.560599459718,0.128285681663,0.304297795654,1.0,-0.164949142857,-0.216790302041,1.992
0.340002988619,0.0954689636072,-0.126712672979,-2.0102603793,0.0263860495037,2.09929292394,0.0261292375306,-0.279075860786,-0.604922618158,0.00170457839891,-0.803694783303,-0.0791423458503,0.182846925142,-0.245795029948,0.573750607824,0.819011933708,0.00323100080154,0.0,0.818982337833,-0.573683974421,-0.0116350638909,0.0,-0.00767583057841,0.00932193704561,-0.999927088899,0.0,0.557638433028,0.124464199107,0.304387143201,1.0,-0.167582285714,-0.220251004082,2.01
0.334279595746,0.0831456580445,-0.126774115657,-2.02632272501,0.0246743220916,2.10271420568,0.0209517983723,-0.290857312008,-0.621497993549,-0.00792139318571,-0.76748272242,-0.0888189326049,0.168171937978,-0.263486693646,0.573711542019,0.819040172683,0.00300149746377,0.0,0.819006118603,-0.57364396955,-0.0119298277762,0.0,-0.00804937225754,0.00930270378317,-0.999924330791,0.0,0.554171977596,0.120062642499,0.304272223246,1.0,-0.170508,-0.224096228571,2.03
0.330741767124,0.0755437738453,-0.126876228506,-2.03569817492,0.0235580543836,2.10495941761,0.0177560247696,-0.296581290014,-0.624365737139,-0.00310776011438,-0.7960804719,-0.0954651618306,0.175949469357,-0.259389697073,0.5737013105,0.819046145534,0.00331130145312,0.0,0.81901744306,-0.573634244285,-0.0116158791344,0.0,-0.00761461173025,0.00937623925301,-0.999927049252,0.0,0.552219177574,0.117370686277,0.304435271179,1.0,-0.172263428571,-0.226403363265,2.042
0.325233801705,0.0643022570938,-0.127055304796,-2.05019846073,0.0219227278597,2.10793173413,0.0128643358846,-0.308642492209,-0.62106516142,-0.0104990298294,-0.782844945854,-0.0898560871205,0.152056174186,-0.283799368674,0.573794325193,0.818981919623,0.0030715808085,0.0,0.81894922381,-0.573727003279,-0.0118423574656,0.0,-0.00793658060125,0.00931072549,-0.999925157739,0.0,0.549045588238,0.113201750068,0.304322939645,1.0,-0.174896571429,-0.229864065306,2.06
0.31983759534,0.0534139491502,-0.127192267148,-2.06366020234,0.0203771701515,2.11083936105,0.0080938135107,-0.319893059086,-0.633972498231,-0.00186761994833,-0.796796099454,-0.0916765468863,0.173132337952,-0.280743419339,0.573869999509,0.818927952776,0.00331341624214,0.0,0.818898858457,-0.573802387631,-0.0116716095268,0.0,-0.0076571085675,0.00941152053264,-0.999926393276,0.0,0.546127609018,0.109241868976,0.304447348031,1.0,-0.177383428571,-0.233132506122,2.077
0.314722145308,0.0432557951733,-0.127250460565,-2.07659785544,0.0189080937077,2.11338243117,0.00357310695533,-0.316456917494,-0.633849435992,-0.0001267614599,-0.837905184657,-0.0954792180885,0.154574189712,-0.288232154924,0.573866909195,0.818930810478,0.00313768729641,0.0,0.818898404877,-0.573798666371,-0.0118844377897,0.0,-0.00793228420606,0.00938971348501,-0.99992445322,0.0,0.543206903012,0.105545250446,0.304342847577,1.0,-0.179724,-0.236208685714,2.093
0.308748485664,0.0316261286964,-0.127308741127,-2.09083661953,0.0171712787215,2.1163182442,-0.00175915549949,-0.341081422974,-0.636117710264,-0.00360061137754,-0.779671286898,-0.102022529328,0.158059237975,-0.295373479452,0.573776731601,0.818993198566,0.00333914309042,0.0,0.818964259351,-0.573708828028,-0.0116820139492,0.0,-0.0076519414245,0.00943768833493,-0.999926186191,0.0,0.540026770176,0.101333293701,0.30444904533,1.0,-0.17998,-0.236545142857,2.111
0.302981723936,0.0207977014258,-0.12741231992,-2.10435660365,0.0155636812355,2.11876493388,-0.00687762916866,-0.340491853296,-0.63063452018,-0.0107589649025,-0.812669355002,-0.0949896780556,0.140057350903,-0.307792840457,0.573760482221,0.819005333476,0.00314955223307,0.0,0.81897299178,-0.573692103656,-0.0118893161861,0.0,-0.00793069281202,0.0094011990055,-0.999924357924,0.0,0.53689939716,0.0972960674657,0.304366368956,1.0,-0.17998,-0.236545142857,2.128
0.297381028933,0.0105308300839,-0.127589427829,-2.11668198843,0.0140173900388,2.12109850093,-0.0117182125871,-0.348860454204,-0.631646727462,-0.00863882958572,-0.787808591187,-0.0981624513283,0.136485412325,-0.308492804408,0.57390027761,0.81890670735,0.00332007781085,0.0,0.818877322249,-0.573832176056,-0.0117180088205,0.0,-0.00769093661936,0.0094438867666,-0.999925828498,0.0,0.534084618868,0.0934257548292,0.304481453234,1.0,-0.17998,-0.236545142857,2.144
0.291411671124,-0.000195667228582,-0.127639722953,-2.1298507753,0.012483295019,2.12337532694,-0.0169836897099,-0.347666112282,-0.62746548744,-0.00138999082127,-0.776802080249,-0.0989031646912,0.125212872047,-0.315833762677,0.573880953134,0.818920578238,0.00323806576883,0.0,0.818888884845,-0.57381163315,-0.0119143123878,0.0,-0.00789898786287,0.00948919571197,-0.999923777673,0.0,0.53096689957,0.0894255248204,0.304420068451,1.0,-0.17998,-0.236545142857,2.161
0.285362566937,-0.0109452964414,-0.127650921619,-2.14256220958,0.0108528372205,2.12574584775,-0.0222907988742,-0.362168151762,-0.625441971575,-0.000563890288667,-0.74738656299,-0.0994962281534,0.13828541403,-0.317932386308,0.573800895964,0.818975575352,0.00350509195239,0.0,0.818948483054,-0.573732068703,-0.0116465594219,0.0,-0.00752740897253,0.00955347990266,-0.999926031832,0.0,0.527989282488,0.0854671971994,0.304552181951,1.0,-0.17998,-0.236545142857,2.178
0.279577123221,-0.0209016730213,-0.127710208063,-2.15469502881,0.00931426865634,2.12757853738,-0.0274075303561,-0.359730762886,-0.615275402513,-0.0050727975224,-0.737797598598,-0.0921639961898,0.109441343506,-0.324999045879,0.573722846678,0.819031342202,0.00324077028656,0.0,0.81899973871,-0.573653604717,-0.0119044818795,0.0,-0.00789121614537,0.00948424585114,-0.999923885998,0.0,0.52501643397,0.0816879164915,0.304447447257,1.0,-0.17998,-0.236545142857,2.194
0.274767417387,-0.0291246195571,-0.127809371216,-2.16416450725,0.00810110356101,2.1292169576,-0.031550924022,-0.372777235299,-0.624857516498,-0.0141685016712,-0.734250337609,-0.0970911142362,0.12696930328,-0.31911607229,0.573834773869,0.818951729887,0.00353034218097,0.0,0.818924779975,-0.573765625702,-0.0116601203483,0.0,-0.00752363159273,0.00958225170516,-0.999925784956,0.0,0.52257905843,0.0783509107477,0.304599322942,1.0,-0.17998,-0.236545142857,2.208
0.266462619499,-0.0426155530415,-0.12797064573,-2.18037972283,0.00606040871957,2.13165110697,-0.0387482664962,-0.373708273937,-0.606906083978,-0.00188416459802,-0.743684743658,-0.0871089900233,0.094394440743,-0.333743771853,0.573911950015,0.81889846211,0.00333605820467,0.0,0.818867622351,-0.573841756506,-0.011924867138,0.0,-0.00785103701699,0.00957579816671,-0.999923329714,0.0,0.518736031727,0.0733248184912,0.304472259013,1.0,-0.17998,-0.236545142857,2.229
0.260426108839,-0.0525275778713,-0.127992268993,-2.19172442723,0.00455036698249,2.13343833259,-0.044016660446,-0.38413394698,-0.620010454836,-0.00153019589473,-0.71182914385,-0.0962725211386,0.112045679262,-0.333289728961,0.573851605869,0.818939729711,0.00357777077742,0.0,0.818912987979,-0.573781782082,-0.0116932275525,0.0,-0.0075233337662,0.00964024597101,-0.999925229758,0.0,0.515925504455,0.0696134720007,0.304601528596,1.0,-0.17998,-0.236545142857,2.245
0.254236175866,-0.0622346006841,-0.128066021515,-2.20321199436,0.00305115355609,2.13499187749,-0.0494570524888,-0.389156233862,-0.604328697293,-0.00626837364811,-0.724978687119,-0.091162020584,0.0940879292516,-0.340753497837,0.573809144921,0.818970149918,0.00342135198643,0.0,0.818940471706,-0.5737387215,-0.0118798213572,0.0,-0.00776640649076,0.00961881893647,-0.999923577706,0.0,0.512990553492,0.0658278236689,0.304509512576,1.0,-0.17998,-0.236545142857,2.261
0.246744639824,-0.0738442820237,-0.128223780658,-2.21648000967,0.00124418404183,2.13676863064,-0.0559506742794,-0.402164482975,-0.614289610394,-0.0145964299595,-0.688804767818,-0.0944939899622,0.102113929094,-0.349262352383,0.573875738351,0.818923171211,0.00349621039928,0.0,0.818894731581,-0.57380537366,-0.0118134943758,0.0,-0.00766834760224,0.00964269173559,-0.999924104591,0.0,0.509591397803,0.0612938114672,0.304567408856,1.0,-0.17998,-0.236545142857,2.28
0.240699783881,-0.0828606787199,-0.128333731539,-2.22686358458,-0.00010807138216,2.13808568227,-0.0612209392099,-0.400120815831,-0.608040407697,-0.00247429376082,-0.688500692482,-0.0852933874441,0.0873417994177,-0.349017722947,0.57392606672,0.818887895851,0.00349726614775,0.0,0.818858826777,-0.573854883797,-0.0118971027258,0.0,-0.00773561909365,0.00969201122869,-0.999923109602,0.0,0.506888584085,0.0577108147556,0.304541775068,1.0,-0.17998,-0.236545142857,2.295
0.233898864687,-0.0930832722434,-0.12836761595,-2.23851302101,-0.00164282409396,2.13941347156,-0.0672001046773,-0.405203696001,-0.598674886223,-0.00216396026901,-0.67044990599,-0.0874897261317,0.0799180652375,-0.347405150116,0.573848497193,0.818942376612,0.00346885568683,0.0,0.818912078107,-0.573776358576,-0.0120185510742,0.0,-0.00785230457689,0.00973770277246,-0.999921756168,0.0,0.503788190788,0.0537698242501,0.304523850522,1.0,-0.17998,-0.236545142857,2.312
0.226911459657,-0.103257454594,-0.128430699019,-2.24987730183,-0.00330200397944,2.14076036749,-0.0733117394192,-0.406896985117,-0.589283780345,-0.00229782318644,-0.671800740748,-0.0990642952491,0.0689098414537,-0.358913131629,0.573771654882,0.818995946323,0.0035319771973,0.0,0.818967364456,-0.573700415536,-0.0118758608572,0.0,-0.00770013336685,0.00970679327964,-0.999923240109,0.0,0.500765859367,0.0497648209573,0.304579448509,1.0,-0.17998,-0.236545142857,2.329
0.220178625855,-0.112752624104,-0.128604075425,-2.26064699227,-0.00478603894612,2.14180899921,-0.0791176634365,-0.43273177942,-0.591554164956,-0.0170087889514,-0.672416409341,-0.0971705908106,0.0612083311094,-0.376536536845,0.573896917199,0.81890872944,0.00340120235234,0.0,0.818877365943,-0.573824803949,-0.0120706595113,0.0,-0.00793322691009,0.00971266890439,-0.999921360895,0.0,0.497824411363,0.0459120555768,0.304508757773,1.0,-0.17998,-0.236545142857,2.345
0.212952252766,-0.122839341717,-0.128706638699,-2.27162975602,-0.00632413006092,2.14302210065,-0.0854353961939,-0.42166268102,-0.576128892812,-0.00474411560731,-0.645792990089,-0.0832907189353,0.0579011918352,-0.381294143138,0.573909867268,0.81889860002,0.00364609898776,0.0,0.81887120458,-0.57383782678,-0.0118678459335,0.0,-0.00762643973341,0.00979694797617,-0.999922925643,0.0,0.494843250594,0.0418930851607,0.304619006681,1.0,-0.17998,-0.236545142857,2.362
0.20612076149,-0.13223832443,-0.128739243395,-2.28202475246,-0.00777242458024,2.14393101226,-0.0914370433399,-0.43001116445,-0.592265359284,-0.00436146744738,-0.645348078659,-0.0947202447796,0.0579718604203,-0.381088995725,0.573835977429,0.81895051186,0.00361621811375,0.0,0.818922135272,-0.573763297298,-0.0119566691691,0.0,-0.00771721568777,0.00982275711727,-0.999921975968,0.0,0.491930348945,0.0381686788154,0.304600975368,1.0,-0.17998,-0.236545142857,2.378
0.198702215718,-0.142200354068,-0.128841862381,-2.2927920613,-0.00935759401894,2.14489601051,-0.0979541143663,-0.435423374739,-0.604117689711,-0.00989013623633,-0.614925040994,-0.0921366991958,0.0620142642108,-0.388664446538,0.573815810834,0.818964293917,0.00369424249822,0.0,0.818937354525,-0.573743396251,-0.0118689309876,0.0,-0.00760082978779,0.00983612281267,-0.999922736052,0.0,0.489078370161,0.034385042694,0.30465018074,1.0,-0.17998,-0.236545142857,2.394
0.190665554073,-0.152600374535,-0.129022154508,-2.30411331472,-0.010999178119,2.14579321669,-0.104923204787,-0.450791386336,-0.58312744945,-0.00117187228191,-0.637964763869,-0.0887617699816,0.0388007555659,-0.394851806491,0.573913885745,0.818895390868,0.00373329163564,0.0,0.818868833044,-0.573841156154,-0.0118704959728,0.0,-0.00757852396107,0.0098699086609,-0.999922572441,0.0,0.485668244977,0.0298362319287,0.304649543055,1.0,-0.17998,-0.236545142857,2.413
0.183523778441,-0.161808086074,-0.129076661684,-2.31408324444,-0.0124934153586,2.14637841203,-0.111210488872,-0.442437535389,-0.576331971037,-0.00178937163887,-0.612154315822,-0.0859750215102,0.037238332885,-0.389252559167,0.573826311212,0.818957304918,0.00361167319267,0.0,0.81892862161,-0.573753334511,-0.0119904439893,0.0,-0.00774760132214,0.00983832421179,-0.999921587951,0.0,0.48274027397,0.0260975704559,0.304614855524,1.0,-0.17998,-0.236545142857,2.429
0.175295895474,-0.172132898789,-0.129140225201,-2.32492654828,-0.0139883733797,2.14717026167,-0.118474341125,-0.460912189339,-0.564681614124,-0.00646723498731,-0.608620186441,-0.0781447869344,0.0368319879757,-0.408637899655,0.573809296432,0.818967955614,0.00388920384882,0.0,0.818943106596,-0.573735621636,-0.0118478489775,0.0,-0.00747177772253,0.00998363478406,-0.999922246764,0.0,0.479570935294,0.0218836796554,0.304707827054,1.0,-0.17998,-0.236545142857,2.447
0.16881008844,-0.180078092861,-0.129263946733,-2.33340747884,-0.0152976054102,2.14754631029,-0.124121203712,-0.469370794095,-0.561467446757,-0.00507905847908,-0.60125290632,-0.0933845103094,0.0239339122412,-0.412233474315,0.573852692497,0.818938050626,0.00378199044453,0.0,0.818911330075,-0.573778759839,-0.0119547117678,0.0,-0.00762028927812,0.00995755007493,-0.999921386104,0.0,0.477012715094,0.0185504430106,0.30467309786,1.0,-0.17998,-0.236545142857,2.461
0.160286606737,-0.190271806929,-0.129423226294,-2.34403624981,-0.0168873291598,2.14807200161,-0.131596597518,-0.472498922941,-0.569321407507,-0.00281253922575,-0.583296744366,-0.0875879550586,0.030111759105,-0.418344167213,0.573919141379,0.818890984409,0.00388866480974,0.0,0.818865721483,-0.573844908912,-0.0119036799509,0.0,-0.00751647040488,0.0100162369353,-0.999921585761,0.0,0.47379541168,0.0142462701844,0.30471682845,1.0,-0.17998,-0.236545142857,2.479
0.151759166648,-0.200347671345,-0.129486158873,-2.35452083805,-0.0185194020011,2.14852402783,-0.139177495144,-0.47716715981,-0.558110829159,-0.00651700465184,-0.583017353839,-0.0876495455421,0.0185768558331,-0.426900825092,0.573796232961,0.818976980432,0.0039160520321,0.0,0.81895242423,-0.573722392577,-0.0118444081257,0.0,-0.00745371436759,0.0100035296682,-0.99992218274,0.0,0.470569016767,0.0100404100636,0.304732120112,1.0,-0.17998,-0.236545142857,2.497
0.144033583302,-0.209223702938,-0.129607369371,-2.36383172112,-0.0198673457739,2.14871520711,-0.145996619537,-0.48908061313,-0.557536859272,-0.0158344326128,-0.578795445691,-0.0749200367727,0.0128288730451,-0.432637230979,0.573828779473,0.818954517962,0.00384398994174,0.0,0.81892752224,-0.573753202785,-0.0120715580489,0.0,-0.00768070333979,0.0100751505579,-0.999919745848,0.0,0.467625818631,0.00626798149591,0.304666246716,1.0,-0.17998,-0.236545142857,2.513
0.135626973372,-0.218665003685,-0.129772188642,-2.37325576032,-0.0213193155121,2.14902397936,-0.153329091265,-0.489256932086,-0.5526875804,-0.00384740050676,-0.550374461734,-0.0886573751656,0.0180834842118,-0.434574186156,0.573973219795,0.818852010238,0.00410794203797,0.0,0.81882947456,-0.573898051063,-0.0118349262655,0.0,-0.00733365442966,0.0101568303056,-0.999921525076,0.0,0.464653916378,0.00220106357708,0.304793858312,1.0,-0.17998,-0.236545142857,2.53
0.127295246513,-0.227884826729,-0.129803377737,-2.38281205764,-0.0228607755258,2.14915228709,-0.160809151927,-0.493397766835,-0.538476732793,-0.00379958931303,-0.556934657357,-0.0852294496979,0.00477960591011,-0.444518514034,0.573775990389,0.818990958568,0.00395847679938,0.0,0.818966053231,-0.573700794089,-0.0119477787906,0.0,-0.00751428619455,0.010097401136,-0.999920785859,0.0,0.461555441962,-0.00172691509253,0.304717774989,1.0,-0.17998,-0.236545142857,2.547
0.119186200524,-0.236554729716,-0.129913612396,-2.3916331024,-0.0242360561355,2.1491682923,-0.167995613417,-0.509058175119,-0.542879426283,-0.00562631200968,-0.546244364784,-0.0766962321482,0.00141043954401,-0.446664021,0.573782454753,0.81898661984,0.00391893390654,0.0,0.818960523668,-0.573706499985,-0.012052362837,0.0,-0.00762255280351,0.0101250814377,-0.999919686482,0.0,0.458645623661,-0.0055237816483,0.304685997273,1.0,-0.17998,-0.236545142857,2.563
0.109901927708,-0.246332377703,-0.130110690791,-2.40115517323,-0.0257792014642,2.14924604637,-0.176195723017,-0.509924811325,-0.544882555776,-0.00624305713498,-0.52763164448,-0.080995172092,0.000856854540581,-0.461130202177,0.573886335358,0.818912592551,0.00416974252291,0.0,0.8188910488,-0.573811235872,-0.0117840011649,0.0,-0.00725756156481,0.0101774380194,-0.999921870726,0.0,0.455488036401,-0.0098465381185,0.304817749751,1.0,-0.17998,-0.236545142857,2.581
0.101158891582,-0.255344706341,-0.130196778702,-2.41029560547,-0.0271508907903,2.1491890089,-0.184050290561,-0.527110423384,-0.531648191814,-0.00544349860628,-0.532225183758,-0.0894130943191,-0.00917964087574,-0.470770348449,0.573820709376,0.818958708785,0.00414411608983,0.0,0.818935688365,-0.573744115795,-0.0119488415215,0.0,-0.00740808823083,0.0102504546338,-0.999920021006,0.0,0.452384641923,-0.0138015277006,0.304738033165,1.0,-0.17998,-0.236545142857,2.598
0.0927079052741,-0.263806671771,-0.130330693921,-2.41864854754,-0.0285355093043,2.14904968634,-0.191518319951,-0.53405974571,-0.53190542279,-0.0108916684951,-0.521523420789,-0.0876792234876,-0.00073283673586,-0.464399552144,0.573875998707,0.818919961159,0.00414514465169,0.0,0.818896982254,-0.573799431665,-0.0119453579835,0.0,-0.00740395299964,0.0102497980294,-0.999920058365,0.0,0.449497667615,-0.0176117440497,0.304734695021,1.0,-0.17998,-0.236545142857,2.614
0.0836035330114,-0.272756543688,-0.130513867142,-2.42715191914,-0.0299322875805,2.148930332,-0.199612333024,-0.530010609273,-0.516923055981,-0.014051502026,-0.506078509511,-0.0855910556267,-0.00742866325563,-0.47698869821,0.573973743261,0.818850134637,0.00439840355755,0.0,0.818831706302,-0.573898104235,-0.0116768836677,0.0,-0.00703751779411,0.0103039753019,-0.999922147688,0.0,0.446528893073,-0.02167852418,0.304857572679,1.0,-0.17998,-0.236545142857,2.631
0.0756331676018,-0.280460837341,-0.130566804982,-2.43480303207,-0.0311759593402,2.14864047857,-0.206885354246,-0.539847543494,-0.509133865823,-0.00721977815788,-0.503041675066,-0.0824001598549,-0.0214680211384,-0.486104901058,0.573799984287,0.818972492093,0.00428743845545,0.0,0.818951738118,-0.57372345799,-0.0118402401365,0.0,-0.00723716629284,0.010305333189,-0.999920708622,0.0,0.443787212928,-0.0251412833046,0.304778609729,1.0,-0.17998,-0.236545142857,2.646
0.0662846207394,-0.289186802087,-0.130713812511,-2.44325088486,-0.0325578363004,2.14829233332,-0.215217792692,-0.558571931779,-0.51232582522,-0.0111011953693,-0.49425958361,-0.0717877598064,-0.0149608013172,-0.506958102578,0.573867047782,0.8189253991,0.00430686432109,0.0,0.81890453012,-0.573789920424,-0.0118846401138,0.0,-0.00726153811938,0.010347313257,-0.999920098394,0.0,0.440711764238,-0.0291908640983,0.304761519697,1.0,-0.17998,-0.236545142857,2.663
0.0557318970816,-0.298910328626,-0.130892718202,-2.45227098457,-0.034048681194,2.14793600935,-0.224682262304,-0.540971090325,-0.503006442155,0.000545320674707,-0.471436031785,-0.0819148267247,-0.0236284732201,-0.496018715972,0.573941136405,0.81887194062,0.00458952149177,0.0,0.818856069815,-0.573865035902,-0.0115932910872,0.0,-0.00685978692724,0.0104122246599,-0.999922261429,0.0,0.437383616147,-0.0337093090172,0.304893992185,1.0,-0.17998,-0.236545142857,2.682
0.0468179444645,-0.306888264048,-0.131002096508,-2.45995261723,-0.0353874025142,2.14741196814,-0.232763636371,-0.568979209091,-0.49468000817,-0.0120103774599,-0.479078012016,-0.0789010861398,-0.0363154363097,-0.508831498794,0.573855695805,0.818932501255,0.00446605873476,0.0,0.818914395812,-0.573779045055,-0.0117288826937,0.0,-0.0070427679204,0.0103882059348,-0.999921239197,0.0,0.434463224647,-0.0374578418598,0.304833669437,1.0,-0.17998,-0.236545142857,2.698
0.0370651506664,-0.315310664784,-0.131179205932,-2.46793851145,-0.0367047491144,2.14683775747,-0.241469044861,-0.571426608332,-0.498144745821,-0.0144980069751,-0.461703127785,-0.0729073372764,-0.0361917603796,-0.511353974693,0.573991239547,0.818837458598,0.00447439627427,0.0,0.81881868766,-0.573913400768,-0.0118368939677,0.0,-0.00712471336482,0.0104581940789,-0.999919929112,0.0,0.431370378148,-0.0415240778898,0.304800987755,1.0,-0.17998,-0.236545142857,2.715
0.028483605052,-0.32268729696,-0.131276742461,-2.47465174281,-0.0378797793026,2.14639074926,-0.249308418612,-0.568551509828,-0.496524464825,0.000253348745068,-0.443356164497,-0.0733886577179,-0.0230959950646,-0.520983833204,0.573914771971,0.818890228934,0.0046232423615,0.0,0.818874540859,-0.573838187231,-0.0116175776095,0.0,-0.00686065986144,0.010453556134,-0.999921824199,0.0,0.42874279654,-0.0450482549034,0.304886536974,1.0,-0.17998,-0.236545142857,2.73
0.0186591909879,-0.330908620878,-0.131379026238,-2.48224762465,-0.0391516163174,2.14580047867,-0.258310507376,-0.58406595731,-0.47600763074,-0.00918741586005,-0.45168003455,-0.0767193474745,-0.037462254916,-0.532936307212,0.573828073883,0.818950482348,0.00471126164903,0.0,0.818936086543,-0.573751472854,-0.0115620264877,0.0,-0.00676576412081,0.0104930395907,-0.99992205724,0.0,0.425711168834,-0.0490189688645,0.304902172271,1.0,-0.17998,-0.236545142857,2.747
0.00850988247778,-0.33899051377,-0.131555140723,-2.48978047289,-0.0404254186535,2.1449866287,-0.267409196969,-0.593544706482,-0.48457006531,-0.00775559430979,-0.435033847221,-0.0837409649742,-0.0394426979784,-0.543045199616,0.573980070595,0.818844278835,0.00465537106967,0.0,0.81882788708,-0.57390166978,-0.0117690978576,0.0,-0.00696546732422,0.0105673787305,-0.999919903178,0.0,0.422595321237,-0.0530971554921,0.304845184807,1.0,-0.17998,-0.236545142857,2.764
-0.00148933433947,-0.347003280323,-0.131637359936,-2.49709138609,-0.0416968348944,2.14424134367,-0.276669255317,-0.586298367106,-0.46587857671,-0.00797211433876,-0.423642357248,-0.0717597726465,-0.0371175482431,-0.554919920926,0.573806977459,0.818965453236,0.0046782396237,0.0,0.818949353745,-0.573728522897,-0.0117594607436,0.0,-0.00694668633387,0.0105791056229,-0.999919909829,0.0,0.41954634967,-0.0570302956505,0.304846361824,1.0,-0.17998,-0.236545142857,2.781
-0.0118044405064,-0.354957152205,-0.131790679895,-2.50405212193,-0.0429484685986,2.14349522523,-0.286033189018,-0.610644475962,-0.459842319908,-0.00945402392363,-0.414079868537,-0.0738228960623,-0.0394949367958,-0.555557627241,0.573877044092,0.818915284219,0.00486234903924,0.0,0.818902846925,-0.573799998554,-0.0115080779708,0.0,-0.00663425280047,0.0105862170575,-0.999921956304,0.0,0.416560075991,-0.061085327274,0.304959419152,1.0,-0.17998,-0.236545142857,2.798
-0.0228834082316,-0.363133644535,-0.131943883084,-2.51153462405,-0.0443157753294,2.1425052996,-0.296120446639,-0.60561911455,-0.452903127545,-0.00318415413414,-0.417416598714,-0.0777555577901,-0.0552509177863,-0.56880698024,0.573903650848,0.818897359944,0.00473923210925,0.0,0.818882335177,-0.573825417031,-0.0116986668426,0.0,-0.00686064763951,0.0105949850539,-0.99992033573,0.0,0.413260424747,-0.0653688378761,0.30488763381,1.0,-0.17998,-0.236545142857,2.816
-0.0332387316021,-0.370792227668,-0.132020552394,-2.51839385504,-0.0454726079762,2.14161149367,-0.305797184395,-0.625994433337,-0.437303856112,-0.00963859004588,-0.402531156844,-0.0683294382398,-0.0570267494865,-0.561938167316,0.573727684877,0.819020404715,0.00478196270055,0.0,0.819005469068,-0.57364862235,-0.0117493239749,0.0,-0.0068799022212,0.0106575712389,-0.999919538323,0.0,0.410199260565,-0.0692816190289,0.304873035322,1.0,-0.17998,-0.236545142857,2.833
-0.0440196658323,-0.378309322599,-0.132232723915,-2.52496666458,-0.0466571954777,2.14065267008,-0.315526012831,-0.637115357383,-0.441051579388,-0.0107921136828,-0.373546943387,-0.0668568075312,-0.0511770360608,-0.569505764278,0.573953874331,0.818861428574,0.00486393203164,0.0,0.818847501966,-0.573874419801,-0.011733103723,0.0,-0.00681663114485,0.0107172852745,-0.999919333415,0.0,0.407144073621,-0.0733836694943,0.304902985543,1.0,-0.17998,-0.236545142857,2.85
-0.0540568486423,-0.385237884883,-0.132299565914,-2.53092613464,-0.0477957108343,2.13982878969,-0.324891965033,-0.619373943293,-0.424633485062,-0.003353168736,-0.376275718934,-0.0743965570506,-0.0517162257089,-0.581956989405,0.573798588469,0.818969817771,0.00493602600596,0.0,0.818958020892,-0.573720839988,-0.0115284293174,0.0,-0.00660966192741,0.0106575997503,-0.999921360876,0.0,0.404341224213,-0.0771210362098,0.304967166466,1.0,-0.17998,-0.236545142857,2.866
-0.0655757188301,-0.392899108832,-0.132490161556,-2.53775233244,-0.049043379358,2.13868964392,-0.335560173138,-0.64760163278,-0.424408222593,-0.0155443517203,-0.37620434488,-0.0635549374075,-0.0677542870714,-0.602160699251,0.573795462572,0.818972442266,0.00486341866934,0.0,0.818958405843,-0.573715874529,-0.0117461361215,0.0,-0.00682967278388,0.0107230236611,-0.999919182901,0.0,0.401034336647,-0.0813756449215,0.304891411361,1.0,-0.17998,-0.236545142857,2.884
-0.0753437386917,-0.399216001873,-0.132615734772,-2.54317536531,-0.0500731586366,2.13775685972,-0.344542552718,-0.635307953096,-0.417133553218,-0.00382321656679,-0.364176604104,-0.0661413317857,-0.0609919868789,-0.590068055508,0.573841265483,0.818940233287,0.00488295328985,0.0,0.818926551454,-0.573761764821,-0.0117255044786,0.0,-0.00680096641568,0.0107275649659,-0.999919329849,0.0,0.39832740544,-0.0849480150678,0.30490913652,1.0,-0.17998,-0.236545142857,2.899
-0.0869756011804,-0.406603263316,-0.132725382296,-2.54949014509,-0.0512609228349,2.13663156314,-0.355467793634,-0.655919908926,-0.410025112088,-0.00582994877122,-0.343237302601,-0.0732046007801,-0.0678876798497,-0.60813296163,0.573697307776,0.819040953037,0.00490542548567,0.0,0.819027648797,-0.573617894816,-0.011703339452,0.0,-0.00677180483647,0.0107320600629,-0.999919479531,0.0,0.395111451105,-0.0891353801684,0.304924082426,1.0,-0.17998,-0.236545142857,2.917
-0.0983845586795,-0.413401562402,-0.132944559674,-2.55517064666,-0.0522942719684,2.13564262298,-0.365922202021,-0.665022622284,-0.391893942527,-0.00567470987233,-0.334057372407,-0.0616711036993,-0.0597905693789,-0.616279397081,0.573930664194,0.818876353844,0.0050849498125,0.0,0.818865954961,-0.57385158771,-0.0115607088806,0.0,-0.00654891069951,0.0107991455276,-0.999920241932,0.0,0.392095802031,-0.093256439875,0.304983441136,1.0,-0.17998,-0.236545142857,2.934
-0.109606772456,-0.420114402946,-0.133033555264,-2.56086382008,-0.0533111301819,2.13449409376,-0.376526727584,-0.665653069655,-0.399697642608,-0.0103295507055,-0.331060114557,-0.0598754861838,-0.075363607259,-0.616669826081,0.573793654745,0.81897214436,0.00512010146279,0.0,0.818961677787,-0.573713631375,-0.0116269683482,0.0,-0.00658481797547,0.0108648567287,-0.999919294274,0.0,0.389030708657,-0.0971904688764,0.304977729934,1.0,-0.17998,-0.236545142857,2.951
-0.12114178976,-0.42662457488,-0.133243307073,-2.5664427533,-0.0544299918065,2.13328595177,-0.387258599332,-0.689895994728,-0.376079175401,-0.0207093162624,-0.320413446828,-0.0594657078883,-0.0668133876162,-0.643185683155,0.573855462579,0.818929304954,0.00504464637131,0.0,0.818916809487,-0.573773964882,-0.0118086097332,0.0,-0.00677606027153,0.010907790921,-0.999917549153,0.0,0.385904138625,-0.10125029014,0.304921602754,1.0,-0.17998,-0.236545142857,2.968
-0.131312981194,-0.432222496692,-0.133301059918,-2.57111319222,-0.055327606798,2.13235173645,-0.396775742751,-0.670259333703,-0.362841605773,-0.00164745311825,-0.31220420236,-0.0529270844167,-0.0628430904785,-0.643986728986,0.573818498092,0.818955018846,0.00507496358142,0.0,0.818943267247,-0.573737470814,-0.0117467662103,0.0,-0.00670850553295,0.0108968287985,-0.999918124186,0.0,0.383234959693,-0.104759109789,0.304931958189,1.0,-0.17998,-0.236545142857,2.983
-0.142941534546,-0.438353931597,-0.133446343495,-2.57622159739,-0.0563234237855,2.13120760437,-0.407782568037,-0.690488342921,-0.361561815943,-0.0144672528642,-0.293490173476,-0.0564726111011,-0.0605818386852,-0.650439566779,0.573753239473,0.819000638373,0.00509131016018,0.0,0.818988750897,-0.573671603371,-0.0117925524046,0.0,-0.00673749760227,0.0109359514433,-0.999917502143,0.0,0.38019374545,-0.108760799844,0.304923068197,1.0,-0.17998,-0.236545142857,3.0
-0.156222847954,-0.44515132165,-0.133600101313,-2.58163344215,-0.0574669031047,2.12995533641,-0.420177382901,-0.685736774085,-0.355183940635,-0.00037041982718,-0.286652228564,-0.0600611767934,-0.0596040719054,-0.652308021583,0.573826887775,0.818948568292,0.0051664551696,0.0,0.81893893855,-0.573747107454,-0.0115766366517,0.0,-0.00651655676608,0.0108742060556,-0.999919639836,0.0,0.376818175887,-0.113310538654,0.305014954301,1.0,-0.17998,-0.236545142857,3.019
-0.167343156336,-0.450727149044,-0.133711362229,-2.58624153972,-0.0583121320712,2.12884032589,-0.430744237371,-0.703068206893,-0.346100309622,-0.00975672025531,-0.284572694233,-0.0536674983641,-0.0684009059336,-0.67301674371,0.573765074929,0.818991593168,0.0052111431711,0.0,0.818981879088,-0.573684057968,-0.0116632011244,0.0,-0.00656264026042,0.0109599803071,-0.999918401963,0.0,0.373916458492,-0.117031463656,0.304996020419,1.0,-0.17998,-0.236545142857,3.035
-0.179455158649,-0.456393354371,-0.133887513939,-2.59094190512,-0.0592358950295,2.12762445675,-0.442123070305,-0.71214320302,-0.33536263434,-0.00155783015874,-0.263559133366,-0.0509843713575,-0.0709670737054,-0.674221837209,0.573856701531,0.81892742765,0.00520588637493,0.0,0.818916527166,-0.573773830495,-0.0118346894367,0.0,-0.00670487950071,0.0110548150742,-0.999916414334,0.0,0.370803243952,-0.121082884324,0.304950265601,1.0,-0.17998,-0.236545142857,3.052
-0.190732962116,-0.461546062772,-0.133949554653,-2.59507485935,-0.0600404694574,2.12661591916,-0.452938526618,-0.720173821118,-0.317277639682,-0.00251795351788,-0.259659074089,-0.0489324167002,-0.064422914721,-0.685078926868,0.573720385407,0.819022511153,0.00527185876353,0.0,0.819012861439,-0.573637966146,-0.0117542968507,0.0,-0.00660302251324,0.0110616128207,-0.999917016965,0.0,0.367981175638,-0.124801585303,0.30497484021,1.0,-0.17998,-0.236545142857,3.068
-0.202358211994,-0.466487771331,-0.13414262177,-2.59914883797,-0.0609118768319,2.12555796765,-0.463870155887,-0.729442041063,-0.301563043198,-0.00789284382171,-0.253230869216,-0.0565675602191,-0.0702164182737,-0.686969188198,0.573841979406,0.818937434202,0.00525437299706,0.0,0.818926889311,-0.573758485492,-0.0118615846472,0.0,-0.00669928358555,0.0111098364454,-0.999915842026,0.0,0.365065411037,-0.128652112844,0.304929642621,1.0,-0.17998,-0.236545142857,3.084
-0.214536903464,-0.471693605854,-0.134228258795,-2.60322241653,-0.0617290946359,2.1244433679,-0.475542526223,-0.717702058303,-0.305763330826,-0.00703006579049,-0.238623265143,-0.0459511945546,-0.0707633832254,-0.698828887246,0.573752017564,0.818999964248,0.005331773142,0.0,0.818990868597,-0.573669011681,-0.0117715373876,0.0,-0.00658234240122,0.0111208309532,-0.999916496457,0.0,0.362048981635,-0.132609298829,0.30497570499,1.0,-0.17998,-0.236545142857,3.101
-0.227785599283,-0.477031884821,-0.134448983895,-2.60731761165,-0.0626186620848,2.12330290774,-0.488080067802,-0.741462597655,-0.292610687877,-0.0127629404328,-0.222493653661,-0.0455695499116,-0.0669436551118,-0.698611701453,0.573893137342,0.818900294305,0.00545177034902,0.0,0.818893637101,-0.573811223372,-0.0116033593817,0.0,-0.00637383011504,0.0111237225351,-0.999917815166,0.0,0.358818505764,-0.136942525236,0.305048490667,1.0,-0.17998,-0.236545142857,3.119
-0.239436842483,-0.481485298537,-0.134500782089,-2.61089032187,-0.0633849000124,2.12228499947,-0.499334085671,-0.72230272394,-0.276784934598,-0.00584790626879,-0.221355118013,-0.0429679849951,-0.0540116075066,-0.704585203837,0.573734954888,0.819011314452,0.00542358198362,0.0,0.819004067487,-0.573652770138,-0.0116440394143,0.0,-0.00642547090744,0.0111227422802,-0.99991749556,0.0,0.355954427223,-0.140657732976,0.305029023089,1.0,-0.17998,-0.236545142857,3.135
-0.252104904539,-0.486016095132,-0.134653685103,-2.61452041898,-0.064163601222,2.12117388592,-0.511403502057,-0.755909090184,-0.261972031547,-0.0164382167578,-0.211744885474,-0.0385397362769,-0.0638508800244,-0.705940267433,0.57380512285,0.818962128974,0.00542763281161,0.0,0.818954129907,-0.573721524667,-0.0117682684526,0.0,-0.0065239420204,0.011197890626,-0.999916019187,0.0,0.35285952702,-0.144700851347,0.304996190423,1.0,-0.17998,-0.236545142857,3.152
-0.264732891717,-0.490302890113,-0.13472153912,-2.61796651029,-0.064869620208,2.12013288914,-0.523572802222,-0.741653968131,-0.250157493185,-0.00676076744525,-0.199339811543,-0.0329809616607,-0.0597434982668,-0.713858271653,0.57373925488,0.819008229934,0.00543448353452,0.0,0.818999576724,-0.573654373623,-0.0118785458422,0.0,-0.00661123884331,0.0112662446652,-0.999914677986,0.0,0.349805450534,-0.148671607289,0.304956907474,1.0,-0.17998,-0.236545142857,3.169
-0.276759274275,-0.494185445463,-0.134895434813,-2.62101125078,-0.0655159280346,2.11922815471,-0.535139724856,-0.76159653306,-0.247076530535,-0.0199151924059,-0.188239035672,-0.0373877651949,-0.0597933205218,-0.730265803163,0.573796361039,0.818967652113,0.00551976022748,0.0,0.818959953,-0.573710890538,-0.0118809242638,0.0,-0.00656347246078,0.0113379119748,-0.999914182608,0.0,0.346928885369,-0.152474603145,0.304951660989,1.0,-0.17998,-0.236545142857,3.185
-0.289534084477,-0.498172765085,-0.134936774207,-2.6240625223,-0.0661873357361,2.11822134785,-0.547466724357,-0.74454694889,-0.233608354172,-0.00244767935771,-0.175080918029,-0.0240380799738,-0.0627116747948,-0.73512470693,0.573735579294,0.819010086925,0.00554161237097,0.0,0.819002770274,-0.573650210368,-0.0118593983386,0.0,-0.00653414556438,0.0113429730469,-0.999914317281,0.0,0.3438930182,-0.156443658727,0.304972524204,1.0,-0.178005142857,-0.233949616327,3.202
-0.302355771067,-0.501853848459,-0.135011713871,-2.62686624995,-0.0667919352507,2.11729365464,-0.559783683767,-0.765031718006,-0.217719994214,-0.00970321273908,-0.159398527683,-0.0352346192359,-0.0502820004541,-0.721285753206,0.573787157966,0.818973525204,0.00560439729859,0.0,0.818967127515,-0.573701730214,-0.0118285967296,0.0,-0.00647217974438,0.0113771331024,-0.999914332196,0.0,0.340886945349,-0.160422807536,0.304992758635,1.0,-0.175518285714,-0.23068117551,3.219
-0.315111533987,-0.505249103117,-0.135012374605,-2.62946167259,-0.0673653648335,2.11645768418,-0.572046285614,-0.739308706905,-0.196334237037,-0.000487376626963,-0.151539371713,-0.02154656657,-0.0502752315036,-0.724539688266,0.573800457853,0.818964031132,0.00563002505528,0.0,0.818958288557,-0.573715504464,-0.0117723592402,0.0,-0.00641122955054,0.0113659596358,-0.999914851924,0.0,0.337931981365,-0.164344351366,0.305006889694,1.0,-0.173031428571,-0.227412734694,3.236
-0.327004916464,-0.508237796662,-0.135026776153,-2.63172187345,-0.0678206282714,2.11572406461,-0.583483771969,-0.748139331999,-0.187163983555,-0.0016997956027,-0.140869639303,-0.0251396015245,-0.0520348285456,-0.712250348799,0.573865115564,0.818918118589,0.00571761192355,0.0,0.818913865321,-0.57378047527,-0.0116959089206,0.0,-0.00629745888717,0.0113943251812,-0.999915252092,0.0,0.335018678287,-0.168209112739,0.305031042923,1.0,-0.170544571429,-0.224144293878,3.253
-0.340283819667,-0.51138398673,-0.13497063612,-2.63412070592,-0.0683493157762,2.11488782416,-0.596338356132,-0.725616825754,-0.164692021546,0.00470368264816,-0.128560051767,-0.0236410257597,-0.0477591762122,-0.713956614907,0.573807643249,0.818958416075,0.00571385955511,0.0,0.818954142015,-0.573723077339,-0.0116914801311,0.0,-0.0062967841949,0.0113882688691,-0.999915325336,0.0,0.33212445112,-0.171993423119,0.305033560773,1.0,-0.168057714286,-0.220875853061,3.27
-0.351914275033,-0.513859227929,-0.134930670282,-2.63606458912,-0.0687185100767,2.1141752221,-0.607622404232,-0.734632505536,-0.15044567499,-0.00242703719792,-0.116631952771,-0.0186585963621,-0.0483449604305,-0.71193632641,0.573795240513,0.818966832795,0.00575288168424,0.0,0.818962358794,-0.573709262573,-0.0117933802394,0.0,-0.0063580281656,0.0114786000035,-0.999913904904,0.0,0.329446155087,-0.175484345821,0.30500579848,1.0,-0.165717142857,-0.217799673469,3.286
-0.364347880267,-0.516284311695,-0.134893729302,-2.63795217611,-0.0691262328289,2.11349252444,-0.619535340932,-0.713154808624,-0.139950161081,0.00545426858725,-0.100313203749,-0.0232238175132,-0.0323159401272,-0.691597941959,0.573914063902,0.818883442549,0.00577076051778,0.0,0.81887882423,-0.573827317253,-0.0118502364198,0.0,-0.00639266544665,0.0115267928561,-0.999913129664,0.0,0.326606236782,-0.179217074042,0.304985718887,1.0,-0.163230285714,-0.214531232653,3.303
-0.376411694957,-0.518430262473,-0.13478137432,-2.639639684,-0.0694640843374,2.11289289899,-0.631294951362,-0.71400746738,-0.12196837916,0.00952994676276,-0.0918638495757,-0.0280857270146,-0.0358796807868,-0.685124062164,0.573843284952,0.818932965182,0.00578184701578,0.0,0.818928142944,-0.573755883398,-0.0119008344717,0.0,-0.00642874069305,0.011564353836,-0.999912464676,0.0,0.323874259803,-0.182800981111,0.304961086713,1.0,-0.160743428571,-0.211262791837,3.32
-0.387830569075,-0.520341488625,-0.134748449516,-2.64106387351,-0.0697799168561,2.11231618393,-0.642304473788,-0.706164954073,-0.11842925353,0.00718357659726,-0.0822333044142,-0.019094172781,-0.0444175773898,-0.69266872323,0.57393871548,0.818865807038,0.00582132613832,0.0,0.818861371537,-0.573850914023,-0.0119134202169,0.0,-0.00641504264462,0.0116046556276,-0.999912085733,0.0,0.321286054076,-0.186207159895,0.304968409638,1.0,-0.158402857143,-0.208186612245,3.336
-0.400254990496,-0.522251958254,-0.134585109904,-2.64248441822,-0.0700560051414,2.11176440291,-0.654545602041,-0.6916629667,-0.100803616052,0.0111318756894,-0.0720007937366,-0.0154754464848,-0.0349302346263,-0.682996058153,0.573773729718,0.818981220258,0.005849346183,0.0,0.818977289625,-0.573686107969,-0.0118825714002,0.0,-0.00637603693768,0.0116086124957,-0.999912289288,0.0,0.318500656565,-0.18986266538,0.304981500585,1.0,-0.155769714286,-0.204725910204,3.354
-0.412143825217,-0.523883672098,-0.134557957359,-2.64364549885,-0.07033546135,2.11126588371,-0.665967528431,-0.69890304481,-0.0887383588771,0.0083776801853,-0.0661685005244,-0.0157301663121,-0.0247188864015,-0.669272900926,0.573950558847,0.818856918545,0.00590337630158,0.0,0.818853949022,-0.573863170235,-0.0118329590625,0.0,-0.00630189148658,0.0116257602957,-0.999912560108,0.0,0.315830999393,-0.193398795143,0.305010329535,1.0,-0.153282857143,-0.201457469388,3.371
-0.422920171602,-0.525151275282,-0.134422779756,-2.64460351875,-0.0705183882834,2.11089167303,-0.6766331161,-0.66778171285,-0.0681628550845,0.00725053308015,-0.0566159486186,-0.0208394274713,-0.0216416330551,-0.666331191425,0.573812664702,0.818953316833,0.00593612484559,0.0,0.818950799793,-0.573725230062,-0.0118192559507,0.0,-0.00627383506139,0.0116436571183,-0.999912528296,0.0,0.313435517759,-0.196560218163,0.305010753429,1.0,-0.150942285714,-0.198381289796,3.387
-0.434437660896,-0.526377407188,-0.134363040516,-2.64552838608,-0.0707205497412,2.11050283765,-0.687797903137,-0.680117665913,-0.0761340920349,0.000350644224771,-0.0490520425212,-0.0106307875461,-0.0219496923709,-0.656079806589,0.573919974196,0.818877733331,0.00598898781553,0.0,0.818875774184,-0.573832076876,-0.0118305073705,0.0,-0.0062511860978,0.0116942266689,-0.999912080003,0.0,0.310852062802,-0.199949494962,0.305007405897,1.0,-0.148455428571,-0.19511284898,3.404
-0.445649342249,-0.527360734264,-0.134226333803,-2.64632613178,-0.0708827623187,2.11017366445,-0.698819221982,-0.652614173045,-0.055137221209,0.00721361177406,-0.0433422566594,-0.00794174886021,-0.0188129896999,-0.650459691041,0.57386472759,0.818916311817,0.00600795890885,0.0,0.818914177512,-0.573775979758,-0.0118929316642,0.0,-0.00629221437048,0.0117451628489,-0.999911225654,0.0,0.308349630722,-0.203216902068,0.304979696129,1.0,-0.145968571429,-0.191844408163,3.421
-0.456736716962,-0.528197950666,-0.134113463848,-2.64697748381,-0.0710537272214,2.10990032281,-0.709660840939,-0.662724505436,-0.0415303694118,0.00417371658298,-0.033462849529,-0.00940311278754,-0.0213046371296,-0.630883087107,0.573876179884,0.818908209925,0.00601837024367,0.0,0.818906145828,-0.573787266791,-0.0119014156774,0.0,-0.00629302395548,0.0117586457349,-0.999911062095,0.0,0.305880115254,-0.206457678294,0.304969017981,1.0,-0.143481714286,-0.188575967347,3.438
-0.467144776925,-0.528816962232,-0.134033476279,-2.64745751623,-0.0711751462402,2.10966149657,-0.719762721038,-0.636474869635,-0.0340943269812,0.0109290030587,-0.0292020289954,-0.00384383781657,-0.0146362643405,-0.628122007648,0.573991255473,0.818827285468,0.00605492482542,0.0,0.81882547547,-0.573901757894,-0.0119314671708,0.0,-0.00629500007217,0.0118067118359,-0.999910483258,0.0,0.30356357622,-0.209502853012,0.304958472283,1.0,-0.141141142857,-0.185499787755,3.454
-0.477134686167,-0.529266742828,-0.13388949239,-2.64779476944,-0.0712280125318,2.10946919288,-0.729719725265,-0.628822950115,-0.0218704501398,0.00827035825457,-0.0185662863674,-0.0034768215232,-0.00955117051402,-0.613113189145,0.57387471318,0.818908635822,0.00609972541433,0.0,0.818907283866,-0.573784823003,-0.0119408636471,0.0,-0.00627866737637,0.0118478973807,-0.999910098791,0.0,0.30136404416,-0.212406511163,0.304956595734,1.0,-0.138800571429,-0.182423608163,3.47
-0.487224897676,-0.529646152095,-0.133787044142,-2.6480620257,-0.0713172124657,2.1092939669,-0.739518879585,-0.627937678399,-0.020685121496,0.00558600611001,-0.00952057642798,-0.00396928012455,-0.00683296855959,-0.607697235215,0.573987346348,0.818829498119,0.00612585861133,0.0,0.818828502033,-0.573897355777,-0.0119355013378,0.0,-0.0062576469904,0.0118670828487,-0.99991000305,0.0,0.299124906761,-0.215347929477,0.304961165554,1.0,-0.13646,-0.179347428571,3.486
-0.498755678158,-0.529890744774,-0.133584110296,-2.64825066739,-0.0713619633367,2.10912920415,-0.751006118491,-0.597142539036,-0.0106460324374,0.0104883804458,-0.00933827839284,-0.00133079969009,-0.00379834161649,-0.60278052499,0.573854723331,0.818922267401,0.00615007046396,0.0,0.818921397928,-0.573764303256,-0.0119588973942,0.0,-0.00626483709249,0.0118993231561,-0.999909574874,0.0,0.29645169227,-0.218853420973,0.304955979616,1.0,-0.133534285714,-0.175502204082,3.506
-0.508401960981,-0.530036800527,-0.133464334098,-2.64837843798,-0.0713839714169,2.10905874135,-0.760497574271,-0.605268459061,-0.00805230363932,0.00782740254206,-0.00412824582342,0.000234279026292,-0.00854637158863,-0.583091132373,0.573875843426,0.818907135973,0.00619402016125,0.0,0.818906859351,-0.573785276246,-0.0119481953616,0.0,-0.00623054483164,0.0119293359643,-0.999909431526,0.0,0.294438225303,-0.221469859545,0.304947921824,1.0,-0.13134,-0.172618285714,3.521
-0.518612861971,-0.530056855245,-0.133359394301,-2.64838189777,-0.0714204312159,2.10896073513,-0.770417474368,-0.583029250648,-0.000257060280857,0.0101549133059,0.000702045172314,-0.0011319905095,-0.00333368300419,-0.577897850646,0.574024361895,0.818802772842,0.00622880712072,0.0,0.81880284157,-0.573933411593,-0.011962131693,0.0,-0.00621982582928,0.0119669503829,-0.999909048797,0.0,0.292160801592,-0.224431477499,0.304947915964,1.0,-0.128853142857,-0.169349844898,3.538
-0.527734416913,-0.529965562405,-0.13319350721,-2.64832059626,-0.0714290032237,2.1089607317,-0.779605758086,-0.571005975297,0.0109399615085,0.0113334759439,0.00885835939406,-0.0017932406745,0.000536839698491,-0.571012980051,0.573852692855,0.818923024969,0.00623802692991,0.0,0.818923401829,-0.573762103407,-0.0119271761691,0.0,-0.0061884148815,0.0119531385319,-0.999909408897,0.0,0.290145615454,-0.227061314607,0.304946657571,1.0,-0.126512571429,-0.166273665306,3.554
-0.537537254734,-0.529794134865,-0.133063393169,-2.64820746098,-0.0714316481349,2.1089402538,-0.78913527891,-0.569008966548,0.0146918488633,0.00326112076817,0.00597910730789,-0.000643306020706,-0.000581948643311,-0.562492538218,0.573990224622,0.81882641744,0.00626634199293,0.0,0.81882706304,-0.573899294805,-0.0119409864271,0.0,-0.00618146489839,0.0119852906455,-0.999909067016,0.0,0.287951519455,-0.229885446432,0.304937056241,1.0,-0.124025714286,-0.16300522449,3.571
-0.5464974627,-0.529529220741,-0.132914831368,-2.64797212933,-0.0714283354188,2.1089520879,-0.798001486849,-0.542907921504,0.0241644752199,0.0117059101517,0.014016267615,0.000495409818289,-5.19128478363e-05,-0.545443354015,0.573977025477,0.81883563552,0.00627081562133,0.0,0.81883659765,-0.57388658187,-0.0118980838508,0.0,-0.00614395639914,0.0119642304539,-0.999909550404,0.0,0.285963948213,-0.232473805312,0.30495209822,1.0,-0.121685142857,-0.159929044898,3.587
