nelsonifechukwu/NELSON_IML_WORK/CNN-GradCAM/train2dof/data_sample_2022-02-21-16-40-13/robot_state.csv
position_joint1,position_joint2,position_joint3,position_joint4,position_joint5,position_joint6,position_joint7,velocity_joint1,velocity_joint2,velocity_joint3,velocity_joint4,velocity_joint5,velocity_joint6,velocity_joint7,ee_T_00,ee_T_10,ee_T_20,ee_T_30,ee_T_01,ee_T_11,ee_T_21,ee_T_31,ee_T_02,ee_T_12,ee_T_22,ee_T_32,ee_T_03,ee_T_13,ee_T_23,ee_T_33,v_x,v_y,time
0.465074135166,0.547837751977,-0.12389942361,-1.35586330123,0.0795266805622,1.89409554862,0.159156591345,-0.00140359158113,-0.000652866195071,-0.000150717305489,-0.000167463340568,-0.0001178708149,0.000134062667099,-0.00107112993708,0.573749786964,0.819016672892,0.00190220529569,0.0,0.818972148604,-0.573690690968,-0.0120148994632,0.0,-0.00874929396406,0.00845156188427,-0.999926007741,0.0,0.661645540752,0.260941959004,0.303156553744,1.0,0.0,0.0,0.0
0.465073342753,0.547835254665,-0.12390192638,-1.35586577045,0.0795272909138,1.89409709912,0.159162770334,-0.000269280524428,-0.00102644374199,-0.00115910755058,-0.00113882849001,-2.83879902239e-05,-0.000549954634532,0.001056891809,0.57375754815,0.819011233381,0.00190327031226,0.0,0.818966730622,-0.573698453977,-0.0120135315179,0.0,-0.0087474824462,0.00845173217547,-0.999926022151,0.0,0.661646097696,0.260939930648,0.303157366259,1.0,-0.00012,-0.000157714285714,0.007
0.465075836302,0.547835706455,-0.123903765265,-1.35586333959,0.0795280029906,1.8940997742,0.15915890038,0.000468515966993,-0.000270446853781,-0.00646737205478,0.0025983220251,0.00024109523224,0.000108489841386,-0.000589253310051,0.573753697356,0.819013922301,0.00190702610397,0.0,0.818969477483,-0.573694596132,-0.0120105046725,0.0,-0.00874288829783,0.00845303038191,-0.999926051357,0.0,0.661646909067,0.260941097057,0.303158497565,1.0,-0.00034,-0.000446857142857,0.018
0.465075461439,0.547818761327,-0.123899760575,-1.35587283616,0.0795272777502,1.89409650624,0.159158887257,-0.000515901367809,-0.00167908562396,0.000245116080673,-0.000129751533164,-0.00228638884294,0.00373005815269,-0.000836274324566,0.573758441444,0.819010591537,0.00191016329391,0.0,0.81896617194,-0.573699310948,-0.0120106926066,0.0,-0.008741193386,0.00845575819075,-0.999926043111,0.0,0.661645452704,0.26093956055,0.303163402731,1.0,-0.00068,-0.000893714285714,0.035
0.465072958046,0.5477904531,-0.123904672864,-1.35590855524,0.0795278845152,1.8941011568,0.15916518106,-0.000706975542501,-0.00252599334454,-0.000777556937557,-0.00518543496881,-2.83009181159e-05,-3.76206878416e-05,0.0011889382914,0.573764197956,0.819006558263,0.0019103837747,0.0,0.818962118894,-0.573705043887,-0.0120132150792,0.0,-0.00874307345965,0.00845744749091,-0.999926012387,0.0,0.66163898332,0.260933970344,0.303169185642,1.0,-0.00102,-0.00134057142857,0.052
0.465080037995,0.547654770541,-0.123902167214,-1.35606276264,0.0795239215246,1.89413019283,0.159159633912,-0.000187829906354,-0.0101087634554,0.000682809178677,-0.011410126068,-8.77529971347e-06,0.00307612082426,-0.000215898095772,0.573759432727,0.819009862668,0.00192486624153,0.0,0.818965513851,-0.573700121643,-0.0120168403268,0.0,-0.00873778297823,0.00847133765916,-0.999925941051,0.0,0.66161081036,0.260924915312,0.303194340399,1.0,-0.00136,-0.00178742857143,0.069
0.46506288509,0.547512534967,-0.123902246135,-1.35626271578,0.0795215386813,1.89417877532,0.159156428995,-0.00111040065487,-0.00575127687759,-0.000834686484699,-0.0122981010501,0.000120362431022,0.00393027450767,-0.00142046093015,0.573781275565,0.818994563401,0.00192349482677,0.0,0.818950074324,-0.573721849075,-0.012031731386,0.0,-0.00875054005976,0.00847899166013,-0.999925764619,0.0,0.661583038421,0.260894566504,0.303204147035,1.0,-0.00172,-0.00226057142857,0.087
0.465050753597,0.547329805482,-0.123899740806,-1.35647714594,0.0795196273526,1.89430680505,0.159139693915,-2.71542209559e-05,-0.0121328815871,-0.000965565056312,-0.012238593952,0.000398208545064,0.0109854713401,-0.00158901496005,0.573787520919,0.81898997706,0.00201127171772,0.0,0.818946593692,-0.573727680091,-0.0119905244998,0.0,-0.00866636398277,0.00852730162646,-0.9999260869,0.0,0.661566940002,0.260873342803,0.303242555871,1.0,-0.00206,-0.00270742857143,0.104
0.465034715357,0.547171856994,-0.123899820377,-1.35666115765,0.0795190302825,1.89440787566,0.159133163562,0.000851526473397,-0.0101981052078,-0.000621000389899,-0.0137742967863,0.000476218673614,0.00610153258691,0.00128181705841,0.573805666178,0.818977091427,0.00208040414675,0.0,0.818934567493,-0.573745492063,-0.0119595736872,0.0,-0.00860115997117,0.00856635094572,-0.999926316125,0.0,0.661553314083,0.260849700232,0.303275630713,1.0,-0.00234,-0.00307542857143,0.118
0.465000631277,0.546948321681,-0.123899824281,-1.35697291048,0.0795136574661,1.89454048383,0.159116502548,-5.39725626509e-06,-0.0134007009522,0.000380858311048,-0.0247063336249,-0.00299647028311,0.00940734985643,0.00103718775565,0.573836040987,0.818955693985,0.00212514821674,0.0,0.818913660872,-0.573775585848,-0.0119473856092,0.0,-0.00856518621619,0.00859631886997,-0.999926367733,0.0,0.661523352696,0.260801222621,0.303297081088,1.0,-0.0027,-0.00354857142857,0.136
0.464967615701,0.546699167949,-0.123896965661,-1.35735145526,0.0795077779979,1.89467296039,0.159077001874,0.000614831949671,-0.0155437625125,0.000269564048436,-0.0253884162561,0.000530113544777,0.0106821978123,-0.00418430425045,0.573848293269,0.818947075199,0.00213804498025,0.0,0.818905031732,-0.573787604213,-0.0119616536058,0.0,-0.00856934251448,0.00861519616797,-0.999926169656,0.0,0.661477784475,0.260747418739,0.303304765686,1.0,-0.00304,-0.00399542857143,0.153
0.464923301593,0.546441156691,-0.123904486596,-1.35775070477,0.0794942836716,1.8948302084,0.158944576464,-0.00291395471954,-0.0158253719686,-0.000684101523736,-0.0253207185864,-0.00233255715363,0.0127811728891,-0.00334871918191,0.573800214507,0.818980715234,0.00215610928318,0.0,0.818938854582,-0.573739404079,-0.011958075326,0.0,-0.00855655296819,0.0086274339587,-0.999926173667,0.0,0.661438371084,0.260678242969,0.303311334849,1.0,-0.00336,-0.004416,0.169
0.464879608147,0.546144678443,-0.123902935805,-1.35823663817,0.0794778655763,1.8949952788,0.158919393697,-0.000359733913262,-0.0202910095041,-0.00742195928211,-0.0331706892716,-0.000412967402452,0.0130923190442,0.00111250672153,0.57383703477,0.81895495283,0.00214234972756,0.0,0.818912765303,-0.573776128057,-0.0119826790395,0.0,-0.00858421048861,0.0086306687154,-0.999925908699,0.0,0.661379515002,0.260604997187,0.303304243035,1.0,-0.0037,-0.00486285714286,0.186
0.46482631732,0.54581842975,-0.123901097565,-1.35879557179,0.0794504984022,1.89518175532,0.15885893135,-0.00130198755737,-0.0234412312286,0.00636270565469,-0.0364379730084,-0.00345519576659,0.00792725516009,-0.000989168413774,0.573853770957,0.818943318646,0.00210649121078,0.0,0.818900558432,-0.573792906811,-0.0120134255389,0.0,-0.00862979101437,0.00861912232128,-0.999925615952,0.0,0.661311949587,0.260516975065,0.30328529487,1.0,-0.00404,-0.00530971428571,0.203
0.464757937991,0.545481549405,-0.123900012095,-1.35939217463,0.0793628259516,1.89538135607,0.158754424469,-0.00332647770611,-0.0227604082016,0.000920599849859,-0.0439148656841,-0.00431102457736,0.0118991171424,-0.00105595785864,0.573833382707,0.818957806218,0.00202667866207,0.0,0.818914424267,-0.573773274407,-0.0120059237308,0.0,-0.00866965782587,0.00854924081606,-0.99992587101,0.0,0.661246046673,0.260405334986,0.303256974868,1.0,-0.00436,-0.00573028571429,0.219
0.46469286972,0.545061159382,-0.123908630953,-1.36012882276,0.0793391898791,1.89561848811,0.158701363607,-0.00301919398446,-0.0193649468795,-0.00486118048012,-0.0413822321599,-0.000659229253292,0.0137119899144,0.000433196391925,0.573883925615,0.818922532652,0.0019678252309,0.0,0.818878174931,-0.573823859525,-0.0120606700973,0.0,-0.00874773785373,0.00853299812127,-0.999925329725,0.0,0.661155344565,0.260287658692,0.303224788563,1.0,-0.00472,-0.00620342857143,0.237
0.464627586173,0.544622524859,-0.123909329365,-1.36085025386,0.0793134451824,1.89587046483,0.158585771581,-8.83918696773e-05,-0.0254498194199,-0.000514394170936,-0.0407486627752,-0.00321695696431,0.0165346368683,-0.00927592599046,0.573876550141,0.818927741138,0.00195112639594,0.0,0.818882971419,-0.573816368953,-0.0120913499397,0.0,-0.00878252272031,0.00853685073149,-0.999924991924,0.0,0.66106985479,0.260177151865,0.303213739955,1.0,-0.00506,-0.00665028571429,0.254
0.464564329202,0.544172305385,-0.123907284958,-1.36158215072,0.0792801968036,1.89613688372,0.158494060853,-0.00380666634578,-0.030878280376,0.000516216546946,-0.0445899932894,-0.000749863292835,0.0180790747236,-0.00350934440319,0.573883769802,0.818922698848,0.00194395744055,0.0,0.818877708757,-0.573823496156,-0.0121095111657,0.0,-0.00880143456551,0.00854147978302,-0.999924786108,0.0,0.660984317328,0.260068255823,0.303207015027,1.0,-0.00538,-0.00707085714286,0.27
0.464493994334,0.543652871432,-0.123911806572,-1.36241331154,0.0792438376055,1.89642056463,0.15840251987,-0.00103783928262,-0.034638010129,7.14065030516e-06,-0.0490896729029,-0.00513937858762,0.0137749454366,-0.0142456934626,0.573906038499,0.818907133852,0.00192665554116,0.0,0.818861769928,-0.573845695593,-0.0121353327669,0.0,-0.00883227763403,0.00854236978769,-0.999924506545,0.0,0.66088461612,0.259940676888,0.303203680601,1.0,-0.00572,-0.00751771428571,0.287
0.464412759301,0.543111874422,-0.123907340888,-1.36327351208,0.079191774188,1.89672559447,0.158283005384,-0.00374538187059,-0.0361036655903,0.00126110240005,-0.046705013332,-0.00254896509392,0.0185384991392,-0.00514925189049,0.57390548076,0.818907550646,0.0019156068331,0.0,0.818861991117,-0.573845137787,-0.0121467791406,0.0,-0.00884799783858,0.0085398851672,-0.999924388789,0.0,0.660784580715,0.259806854267,0.303203246712,1.0,-0.00606,-0.00796457142857,0.304
0.464347354411,0.542561167465,-0.123912936612,-1.36413378665,0.0791426266391,1.897034032,0.158175432861,-0.00376274514142,-0.0322990534222,0.000252725577913,-0.0488433031702,-0.00342635662724,0.00841284662106,-0.00507065251632,0.573909525925,0.818904717583,0.00191480399575,0.0,0.818859128621,-0.573849167755,-0.0121493638369,0.0,-0.00885053308249,0.00854075480737,-0.999924358925,0.0,0.660683368785,0.2596784927,0.303210210442,1.0,-0.00638,-0.00838514285714,0.32
0.46426468667,0.541921122963,-0.123910350095,-1.36512107063,0.079085767453,1.8974084378,0.158041585335,-0.00358349358961,-0.0347458803786,0.00256116685793,-0.0486691000587,-0.00550477365023,0.0231519953809,-0.00909538443876,0.573905520508,0.818907466347,0.00193958579455,0.0,0.818862169315,-0.573845021226,-0.0121402709946,0.0,-0.00882890689334,0.00855578670099,-0.999924421602,0.0,0.660571283843,0.259532802625,0.303225273324,1.0,-0.00674,-0.00885828571429,0.338
0.464180885943,0.541259796586,-0.1239184684,-1.36612068643,0.0790274505705,1.8977773517,0.157909156808,-0.0012854531431,-0.0410896060922,-0.0014259283412,-0.0602191093448,-0.00167525340002,0.0216242445473,-0.0056770082194,0.573911241303,0.818903396336,0.00196506415261,0.0,0.818858449817,-0.57385064525,-0.0121253045369,0.0,-0.00880196920013,0.00856812292666,-0.999924553458,0.0,0.660458476862,0.259378376433,0.303249289664,1.0,-0.00708,-0.00930514285714,0.355
0.46409909664,0.540611247504,-0.123911181962,-1.3671228148,0.0789725148549,1.8981432392,0.157793682686,-0.00397029033325,-0.0396539558656,-0.000166226104128,-0.0615254856407,-0.00545967403173,0.026857898259,-0.00520558031735,0.573919365498,0.818897666076,0.00198022802305,0.0,0.81885281555,-0.573858601801,-0.01212924175,0.0,-0.00879640623391,0.00858288726844,-0.99992447579,0.0,0.660339729383,0.259234090492,0.303262222392,1.0,-0.0074,-0.00972571428571,0.371
0.464000631062,0.539885116743,-0.123911119985,-1.36823298425,0.0788942937699,1.89857043405,0.157654198567,-0.00386742194777,-0.0381139028764,0.00142721464001,-0.0652146464282,-0.0120129236128,0.0249489083073,-0.00759475122843,0.573926351417,0.818892697304,0.002010062662,0.0,0.818848358498,-0.573865575029,-0.0121001852411,0.0,-0.00875541613352,0.0085907170761,-0.999924768304,0.0,0.660217381974,0.259063205167,0.303283979391,1.0,-0.00774,-0.0101725714286,0.388
0.463894934422,0.539130557596,-0.123916475843,-1.36939841007,0.0788419854954,1.8990091807,0.157507752605,-0.00276108540889,-0.0488444715278,0.000912003061062,-0.0693724607866,-0.0053592320743,0.0267937715015,-0.0119683059151,0.573947237457,0.818877980065,0.0020418818196,0.0,0.818833922643,-0.57388618762,-0.0120994913245,0.0,-0.00873636744474,0.00861659761645,-0.999924712231,0.0,0.660086753037,0.258883198208,0.303300635634,1.0,-0.00808,-0.0106194285714,0.405
0.46379387414,0.538407446308,-0.123924504088,-1.37053264491,0.0787676210679,1.89944713114,0.157372173557,-0.00712210290193,-0.0485572996656,0.0005663980201,-0.0692291731758,-0.0111851586807,0.0234424852056,-0.00675890558532,0.573967456346,0.818863767778,0.00205810073067,0.0,0.818820034445,-0.573906444547,-0.0120785346786,0.0,-0.00870968483172,0.00861806586151,-0.999924932348,0.0,0.659962757468,0.25870438363,0.303309777918,1.0,-0.0084,-0.01104,0.421
0.4636727879,0.537625635504,-0.123922627519,-1.3717781257,0.0787016516989,1.89991432905,0.15721410236,-0.00497391915203,-0.0497653001202,-0.000118057917082,-0.0725839739309,-0.00082295546137,0.0254584400824,-0.00861599301712,0.573986943946,0.818850089415,0.00206546515258,0.0,0.818806353752,-0.573925800341,-0.0120862590936,0.0,-0.00871157832363,0.00862873704122,-0.999924823824,0.0,0.659822572396,0.258509017593,0.303309544509,1.0,-0.00874,-0.0114868571429,0.438
0.463566681404,0.536794202699,-0.123928882245,-1.37307208584,0.0786251385574,1.90040809961,0.157054980027,-0.00667766289296,-0.0488242460881,8.57560475255e-05,-0.0734382385705,-0.00900961149662,0.0295505048363,-0.0155749204313,0.573998769166,0.818841737087,0.00209033518542,0.0,0.818798354354,-0.573937544916,-0.012070474057,0.0,-0.00868425329868,0.0086401666118,-0.999924962817,0.0,0.659676055268,0.258313830823,0.303323680292,1.0,-0.00908,-0.0119337142857,0.455
0.463458789929,0.535990111069,-0.12394031869,-1.37434249866,0.078556512681,1.90087499581,0.156905259606,-0.00600051872292,-0.0499396797054,-0.00117034711225,-0.0847392511121,-0.00305122770406,0.0305551259618,-0.000505925531223,0.574024014279,0.818824036271,0.00209178304338,0.0,0.818780637663,-0.57396274599,-0.0120739597387,0.0,-0.00868601014004,0.00864362070804,-0.999924917706,0.0,0.659529833434,0.258116359077,0.303327426532,1.0,-0.0094,-0.0123542857143,0.471
0.463335774964,0.535038766505,-0.123935357235,-1.37584035236,0.0784594053222,1.90141830988,0.156719244242,-0.00443846086868,-0.0569379219656,0.00239749111928,-0.0874900099921,-0.00193655086835,0.0360211354991,-0.0127779642215,0.574025019608,0.818823345564,0.00208627051442,0.0,0.818779876091,-0.573963775988,-0.012076641259,0.0,-0.00869135943226,0.00864065690818,-0.999924896839,0.0,0.65935132319,0.257893975361,0.30333272752,1.0,-0.00976,-0.0128274285714,0.489
0.463207288558,0.534142233203,-0.123941178376,-1.37731825711,0.0783927187915,1.90194296852,0.156540095376,-0.00635737680183,-0.0543393088186,0.000253328244838,-0.0842292203586,-0.0031653115636,0.0247752027762,-0.0133252143633,0.574050699066,0.81880543935,0.00204799746274,0.0,0.818761231341,-0.573989381936,-0.012123628935,0.0,-0.00875153301294,0.00863656487038,-0.999924407351,0.0,0.659174078273,0.257667029374,0.303307469608,1.0,-0.0101,-0.0132742857143,0.506
0.46309018016,0.533276557097,-0.12393873666,-1.37871052921,0.0783141477932,1.9024732025,0.156356648108,-0.00534102642845,-0.0542852644039,0.00098596710797,-0.0806408586255,-0.00588061415136,0.0289305903633,-0.00617627781182,0.574049884204,0.818805998088,0.00205300778537,0.0,0.818761793142,-0.573988483616,-0.0121282178485,0.0,-0.00875242320616,0.00864329279739,-0.999924341427,0.0,0.659012547355,0.257460620089,0.303301210663,1.0,-0.01042,-0.0136948571429,0.522
0.462949496655,0.532274251936,-0.123937021178,-1.38035192958,0.0782168172388,1.9030885055,0.156152018512,-0.00817781537596,-0.0532322085605,0.00142402521923,-0.090643875403,-0.00428771718934,0.0376912082837,-0.0104004849579,0.574059931453,0.818799006646,0.00203192438739,0.0,0.818754481332,-0.573998578136,-0.0121440725312,0.0,-0.00877740180812,0.00863523889784,-0.99992419206,0.0,0.658820432989,0.257213238058,0.303279926134,1.0,-0.01078,-0.014168,0.54
0.462820708705,0.531328155129,-0.123938589886,-1.38186043238,0.0781241103693,1.9036376792,0.155953915711,-0.0116880316977,-0.0595260966114,-0.000302429690809,-0.0926313506571,-0.00199682373124,0.0409049847644,-0.00653675321517,0.57406152956,0.818797918458,0.00201888830019,0.0,0.818753206522,-0.574000217751,-0.0121525195805,0.0,-0.00879178468169,0.00862943139108,-0.999924115839,0.0,0.658641629973,0.256983122747,0.303276412991,1.0,-0.0111,-0.0145885714286,0.556
0.462688837938,0.530355565602,-0.123938863787,-1.38341390553,0.0780347915301,1.90417885656,0.155765670934,-0.0142826107033,-0.0673816167554,-0.000206849073456,-0.0974283441089,-0.00507207281195,0.0333242588284,-0.0110961088656,0.574075851316,0.818787953248,0.00198782619476,0.0,0.818742716529,-0.57401456001,-0.0121817867487,0.0,-0.00883342913116,0.00862095379704,-0.999923821941,0.0,0.658451326235,0.256746777391,0.303269234425,1.0,-0.01142,-0.0150091428571,0.572
0.462547174021,0.529230797634,-0.123944568908,-1.38516140516,0.0779225061849,1.90483138868,0.155522130239,-0.0072479207703,-0.0684546217506,0.000462513927201,-0.101856401891,-0.0085108451592,0.0437075254237,-0.0139179844633,0.574061108468,0.818798240839,0.00200784588901,0.0,0.818753342137,-0.573999804168,-0.0121629131006,0.0,-0.00880663825826,0.00862635199289,-0.9999240117,0.0,0.658246480534,0.25648365759,0.303286460954,1.0,-0.01178,-0.0154822857143,0.59
0.462406692951,0.528138056685,-0.123944857281,-1.38685955921,0.0778124345144,1.90549266529,0.155281747963,-0.0086402479618,-0.0638892268026,0.000486467101444,-0.100993422112,-0.00854613150562,0.0419538802928,-0.00989749207735,0.574042047189,0.818811500385,0.00204982863856,0.0,0.81876724855,-0.573980656272,-0.0121303680201,0.0,-0.00875609143341,0.00864184022799,-0.999924321867,0.0,0.658051909963,0.256230870137,0.303304928407,1.0,-0.01212,-0.0159291428571,0.607
0.462270692021,0.527062138587,-0.123949914694,-1.38851504595,0.0777192123756,1.90611915321,0.155046974068,-0.00569426561382,-0.0677910498284,-0.000910400818888,-0.100198782942,-0.00560564504166,0.0476825273429,-0.0219350457255,0.574029217001,0.81882038819,0.00209208393019,0.0,0.818776652948,-0.573967608019,-0.012112986158,0.0,-0.00871773946234,0.00866632429146,-0.999924445067,0.0,0.657858468553,0.255983488569,0.303328750782,1.0,-0.01244,-0.0163497142857,0.623
0.462120090654,0.525883345193,-0.123952999064,-1.39032894776,0.0775993437699,1.90678651208,0.154815761599,-0.0103285704141,-0.0708517179825,-0.000528379918478,-0.107866495534,-0.00463127460686,0.0432004082738,-0.0139006832428,0.574030808104,0.818819217978,0.00211341405455,0.0,0.818775842454,-0.573969187385,-0.0120929172325,0.0,-0.00868904577498,0.00867228639269,-0.999924643127,0.0,0.657642971797,0.255708722373,0.303352726343,1.0,-0.01278,-0.0167965714286,0.64
0.461956452861,0.524648065845,-0.123951278591,-1.39228346472,0.0774771327165,1.90748701331,0.154547945448,-0.0134281529278,-0.0676038944895,0.00106715645989,-0.111197523661,-0.0059314923474,0.0381306462751,-0.0137118207093,0.574016344615,0.818829402053,0.00209603202443,0.0,0.818785756597,-0.573954758144,-0.0121064982233,0.0,-0.0087102968477,0.00866569586471,-0.999924515373,0.0,0.657404304376,0.255414145348,0.303351936053,1.0,-0.01314,-0.0172697142857,0.658
0.461812317364,0.52358494781,-0.123957258815,-1.39397232727,0.0773761080121,1.90810270927,0.154314955313,-0.0106073805026,-0.0795084946252,-0.00119832899922,-0.11488033567,-0.00714916131903,0.0450084510044,-0.015416919767,0.57401120722,0.818833027865,0.00208647192621,0.0,0.818789230064,-0.573949635639,-0.0121144286858,0.0,-0.00872233245176,0.00866236535411,-0.999924439317,0.0,0.657201656559,0.255154871324,0.303349136804,1.0,-0.01344,-0.017664,0.673
0.461643500607,0.522305755968,-0.123957428156,-1.39602524388,0.0772473895511,1.90890335536,0.154040998381,-0.00377546475118,-0.0720406632728,0.000343335386933,-0.115544381659,-0.0073768588869,0.0434452829702,-0.0195549036615,0.574000762244,0.818840305302,0.00210386721713,0.0,0.818796798445,-0.573939179949,-0.0120982427637,0.0,-0.00869920445954,0.00866720718049,-0.999924598838,0.0,0.656961830238,0.254850466064,0.303340501366,1.0,-0.0138,-0.0181371428571,0.691
0.461474534271,0.521049113246,-0.123962593579,-1.39803231685,0.077129405795,1.90966387386,0.153765567306,-0.0102644711806,-0.0784423683081,-0.000833640412712,-0.120192533232,-0.0134521579837,0.0382554836327,-0.0175606102159,0.573992801902,0.81884586576,0.00211149107088,0.0,0.818802438935,-0.573931168217,-0.0120965715997,0.0,-0.00869354448495,0.00867240603523,-0.999924602987,0.0,0.65672407248,0.25454726206,0.303334168443,1.0,-0.01414,-0.018584,0.708
0.461318621526,0.519827562253,-0.123968670314,-1.3999542226,0.0770025158346,1.91037283491,0.153508192418,-0.0129189856443,-0.0798632674752,-0.00167272930063,-0.119037700029,-0.0068137359654,0.0460383237101,-0.00637966548886,0.573982082844,0.818853380085,0.00211125513408,0.0,0.818810036309,-0.573920537478,-0.0120866869831,0.0,-0.00868569903542,0.00866642551776,-0.999924723017,0.0,0.656491893771,0.254256892125,0.303338889453,1.0,-0.01446,-0.0190045714286,0.724
0.461144367327,0.518479816804,-0.123965017216,-1.40203563067,0.076868732559,1.911099015,0.153232516673,-0.0118321217078,-0.0849524900056,-0.00118390307354,-0.118606073287,-0.0101575756258,0.0440409830603,-0.0171522164383,0.573970493637,0.818861523021,0.002103675476,0.0,0.818818031053,-0.573908933375,-0.0120960785656,0.0,-0.008697862629,0.00866548643405,-0.999924625425,0.0,0.656230909888,0.253943020736,0.303357075202,1.0,-0.0148,-0.0194514285714,0.741
0.460964061138,0.517126568548,-0.12397255726,-1.40417792705,0.0767342480076,1.91186580445,0.152937886962,-0.0121165297965,-0.0792908792231,-0.00103737837341,-0.122390831786,-0.007543622118,0.043265097523,-0.0168137948709,0.57395922192,0.818869481628,0.00208099325701,0.0,0.818825687122,-0.573897755141,-0.0121081647874,0.0,-0.00872089716858,0.00865373018497,-0.999924526605,0.0,0.655967111528,0.253614173511,0.303353654809,1.0,-0.01514,-0.0198982857143,0.758
0.460790118569,0.515867691987,-0.123973240443,-1.40621341652,0.0766006766885,1.91263675984,0.152650544213,-0.0125742039297,-0.0788685643499,6.07737838887e-05,-0.127595657697,-0.0100411354303,0.0384809111154,-0.0144460304194,0.57393841181,0.818884099089,0.00206848009495,0.0,0.818840213842,-0.573877074174,-0.0121059833939,0.0,-0.00872651201259,0.00864200995122,-0.999924578982,0.0,0.655722999836,0.25330538656,0.303334654786,1.0,-0.01546,-0.0203188571429,0.774
0.460608833252,0.514460464414,-0.123972014092,-1.40843503394,0.0764757028691,1.9134539385,0.152332893437,-0.00804212708614,-0.085356187986,0.00189320289642,-0.132748001344,-0.002594913277,0.040304232506,-0.0213237898768,0.573909217677,0.818904539515,0.00207651833733,0.0,0.818860609155,-0.573847700031,-0.0121188631448,0.0,-0.00873275490365,0.0086556729857,-0.999924406301,0.0,0.655448033471,0.252977331465,0.303334633978,1.0,-0.0158,-0.0207657142857,0.791
0.460417119423,0.51305854929,-0.123974680078,-1.41070647263,0.0763283098141,1.91423822505,0.15202988148,-0.0115140319777,-0.0874170766537,4.21384494802e-05,-0.1339617123,-0.0141021087702,0.0445325919914,-0.0177203531242,0.573899035328,0.818911868096,0.00199911037912,0.0,0.818866876084,-0.573837811147,-0.0121635788845,0.0,-0.00881390367776,0.0086178373791,-0.999924021104,0.0,0.655158351144,0.252628493138,0.303304012499,1.0,-0.01614,-0.0212125714286,0.808
0.460231547088,0.511718377575,-0.1239775109,-1.41287274903,0.0761931190162,1.91502345645,0.151719267096,-0.0111307128153,-0.0815754471295,0.000964323157992,-0.133666959802,-0.00881612273703,0.054873400647,-0.0153414411556,0.573875466627,0.818928476034,0.00196133738243,0.0,0.818882952327,-0.573814377929,-0.0121867539208,0.0,-0.00885480670866,0.00859995041492,-0.999923813723,0.0,0.654889248271,0.252297297775,0.303279863682,1.0,-0.01646,-0.0216331428571,0.824
0.46002017716,0.510161679905,-0.12398307839,-1.41532663118,0.0760537791963,1.9159599318,0.151376572678,-0.00958791431638,-0.0844170808926,-0.00180809360881,-0.132066171792,-0.00625536313089,0.0586287787105,-0.0115947512889,0.573862648534,0.818937371319,0.00199734240654,0.0,0.818892248706,-0.573801331854,-0.0121763489212,0.0,-0.00882575936796,0.00862332608187,-0.999923869211,0.0,0.654593949933,0.251925908472,0.303283159203,1.0,-0.01682,-0.0221062857143,0.842
0.459812907737,0.508648920064,-0.123989103873,-1.41770378493,0.075900738498,1.91681336577,0.151055146416,-0.00892817568178,-0.0862831897758,0.000296486427548,-0.143347724596,-0.0120775317219,0.0513651577758,-0.0140023019818,0.573855485592,0.818942425787,0.00198287742743,0.0,0.818897127499,-0.573794247823,-0.0121820622628,0.0,-0.00883881413316,0.00861468174417,-0.999923828411,0.0,0.654298002819,0.251557806961,0.303284454055,1.0,-0.01716,-0.0225531428571,0.859
0.459614426611,0.507199142453,-0.123994648011,-1.41995588742,0.0757558839137,1.91763327162,0.150729300866,-0.0104869540202,-0.0896712074733,-0.000494864920213,-0.145904489472,-0.00564875994845,0.056165064818,-0.0228506346225,0.573832555005,0.818958468004,0.00199333935132,0.0,0.81891333745,-0.573771303464,-0.0121730837898,0.0,-0.00882569905555,0.00861784987455,-0.999923916956,0.0,0.654019920782,0.251208856241,0.30329776106,1.0,-0.01748,-0.0229737142857,0.875
0.459391487879,0.505627232136,-0.124001039843,-1.42240424928,0.0756066272603,1.91855873292,0.15040666725,-0.0124743995959,-0.0938481031089,0.000129306740171,-0.142805598422,-0.0030940098399,0.0514933155569,-0.0108204704148,0.573838179984,0.818954427631,0.00203360673626,0.0,0.818909841674,-0.57377676637,-0.0121507401414,0.0,-0.00878423526439,0.00863806548818,-0.999924107638,0.0,0.653706602957,0.250803236839,0.303311852809,1.0,-0.01784,-0.0234468571429,0.893
0.459156723541,0.503867258038,-0.124004482975,-1.42503373066,0.0754389737967,1.91956129299,0.150037485535,-0.011267910684,-0.100197893865,-3.48282087431e-05,-0.145987805216,-0.00842044139568,0.0508459710991,-0.0181460338491,0.573824224348,0.818963930241,0.00214182565569,0.0,0.818920857817,-0.573762440012,-0.012084616904,0.0,-0.00866813312928,0.00868859890718,-0.999924683022,0.0,0.653408682261,0.250424892109,0.303376758146,1.0,-0.01818,-0.0238937142857,0.91
0.458936957768,0.502291616483,-0.124010896832,-1.4273769622,0.0752834750662,1.92043916983,0.149710239493,-0.0126535447198,-0.0962062011045,-0.000767850318358,-0.148625289464,-0.0157078265977,0.0530409283239,-0.0170445684761,0.573818739984,0.818967540675,0.00222887076568,0.0,0.818925740265,-0.573756725488,-0.0120249236737,0.0,-0.00856935756251,0.00872557418695,-0.999925212436,0.0,0.653126800298,0.250054814819,0.303437898238,1.0,-0.0185,-0.0243142857143,0.926
0.458697243385,0.500563947998,-0.124011214689,-1.42996322909,0.075118864345,1.92135470524,0.14934926319,-0.0193512342011,-0.107473805525,0.00124310333826,-0.155257593794,-0.0120967343551,0.0555442181223,-0.0193708886844,0.573806855268,0.818975733927,0.00227749588443,0.0,0.818934531861,-0.573744603966,-0.012004534475,0.0,-0.00852488558833,0.00875357273539,-0.999925347859,0.0,0.652800959754,0.249649706712,0.303491944188,1.0,-0.01884,-0.0247611428571,0.943
0.458457010898,0.498870479662,-0.124009502634,-1.43258907793,0.0749579286182,1.92231640223,0.148968555152,-0.0168337434621,-0.106152347083,0.00097040588285,-0.158090986654,-0.0130494289104,0.0602553526746,-0.0220290529258,0.573780720573,0.818993971067,0.00230368287594,0.0,0.818953038966,-0.5737182913,-0.0119995457437,0.0,-0.00850605438429,0.00877188498142,-0.99992534775,0.0,0.652472195772,0.249244082662,0.303506680151,1.0,-0.01918,-0.025208,0.96
0.45823149271,0.497397630655,-0.124014139159,-1.43491953083,0.0748151075895,1.92317786831,0.148636650672,-0.0161565164684,-0.101022166627,-0.000540281304286,-0.154481747716,-0.00636664482102,0.0629185229807,-0.0158312081872,0.573776624486,0.818996835617,0.00230550293539,0.0,0.818955894404,-0.573714154391,-0.012002456984,0.0,-0.00850743841709,0.00877500341836,-0.999925308614,0.0,0.652184657744,0.2488726884,0.303499162976,1.0,-0.01948,-0.0256022857143,0.975
0.457942022454,0.495621271614,-0.124015204582,-1.43777078163,0.0746375230282,1.92415625699,0.148206819958,-0.0171375378626,-0.10781891884,-0.000217922427923,-0.161406569036,-0.00619145330861,0.0489713815859,-0.0217900568413,0.573758121869,0.819010022351,0.00222436020615,0.0,0.818967848774,-0.573695814379,-0.0120632557767,0.0,-0.00860398689681,0.00874323880547,-0.999924760762,0.0,0.651818227322,0.248406528529,0.303464774705,1.0,-0.01984,-0.0260754285714,0.993
0.457658974841,0.493918213783,-0.12402769858,-1.44055401244,0.0744616792536,1.92515459891,0.147820196172,-0.0175274957753,-0.103132914104,-0.00129115197114,-0.170691733274,-0.00721930964486,0.0693011192148,-0.0244165052233,0.573774754318,0.818998572538,0.0021485786333,0.0,0.818955374519,-0.573712732957,-0.0121054322865,0.0,-0.00868183199508,0.0087055490642,-0.999924416748,0.0,0.651469822546,0.247946681763,0.303413169124,1.0,-0.0231942857143,-0.0304839183673,1.01
0.457390758526,0.491878359444,-0.124093840611,-1.44371861638,0.0742810077347,1.92634189008,0.147361694294,-0.0240365871593,-0.136087234547,-0.00153575843083,-0.216872593902,-0.0145111201057,0.0793820386649,-0.0361591877248,0.573776811378,0.818997010382,0.00219422229394,0.0,0.818954552451,-0.573714739598,-0.0120658812219,0.0,-0.00862322900024,0.00872025908268,-0.999924795674,0.0,0.651082565296,0.24743629558,0.303431594521,1.0,-0.0289085714286,-0.037994122449,1.026
0.45701039185,0.48927147068,-0.124099550741,-1.44791176346,0.074048200853,1.92786259942,0.146746670419,-0.0250481164681,-0.167524596289,-0.000741422757459,-0.269687073353,-0.0115909648348,0.0993813600746,-0.0438097988243,0.573735460169,0.819026093237,0.00215110279287,0.0,0.81898269776,-0.573673201927,-0.0121303363779,0.0,-0.00870119951142,0.0087214880079,-0.999924109507,0.0,0.650541172386,0.24678838728,0.303380982839,1.0,-0.03498,-0.0459737142857,1.043
0.456469417859,0.485860047371,-0.124142630015,-1.45321239474,0.0737268523523,1.92986407751,0.145968569248,-0.0285475863699,-0.201808966846,-0.00443476610007,-0.308914604583,-0.0176629630151,0.118657148003,-0.0503885400057,0.573748540503,0.819016694513,0.00223903568238,0.0,0.818974552675,-0.573686009603,-0.0120744092094,0.0,-0.00860480494207,0.00876155659485,-0.999924593386,0.0,0.6498956145,0.245912100993,0.303402965072,1.0,-0.0414085714286,-0.0544226938775,1.061
0.455971388331,0.482617171459,-0.124216860508,-1.45829795179,0.0734218704484,1.93165130483,0.145188184137,-0.0345929338941,-0.227420737073,-0.00178465239034,-0.355146718897,-0.0166865799952,0.127275838564,-0.0416750213614,0.57373831239,0.819024003942,0.00218558096578,0.0,0.818981132589,-0.573675978886,-0.0121046525565,0.0,-0.00866035244178,0.00873502068076,-0.999924345993,0.0,0.649246123522,0.245057643422,0.303390160887,1.0,-0.0467657142857,-0.0614635102041,1.076
0.455248019709,0.478164067545,-0.124303977543,-1.46527340117,0.0730127428138,1.93410416963,0.144141053508,-0.0394247893501,-0.257540056897,-0.000234180285668,-0.400957882314,-0.0253960080115,0.146827284847,-0.0640376733856,0.573765581866,0.819005054985,0.0021269405865,0.0,0.818961213711,-0.573703295283,-0.012157562226,0.0,-0.00873704031117,0.0087176404505,-0.999923830535,0.0,0.648354334642,0.243870649398,0.303371845874,1.0,-0.0531942857143,-0.0699124897959,1.094
0.45448245311,0.47342906486,-0.124373167668,-1.47255929872,0.072566633983,1.93677524281,0.143104321471,-0.0488844281068,-0.29153336984,-0.00558140897896,-0.444355107644,-0.028064940551,0.15982750947,-0.0657277694239,0.573824626809,0.818963437188,0.00222106225816,0.0,0.818920888658,-0.573761987753,-0.0121039840262,0.0,-0.00863852558399,0.00876460714081,-0.999924275902,0.0,0.647436276887,0.24264357562,0.303414171428,1.0,-0.0592657142857,-0.0778920816326,1.111
0.4536621709,0.468504305277,-0.124415695247,-1.48001301393,0.0721071003616,1.9395069716,0.141944707328,-0.0494710311984,-0.322414334656,-0.00213982974338,-0.471465835088,-0.0323332738641,0.182729037835,-0.078831249281,0.573808765421,0.818974063998,0.00239376798961,0.0,0.818933745372,-0.573745380203,-0.0120210768123,0.0,-0.00847169991178,0.00885830717985,-0.999924877526,0.0,0.646492161733,0.241382682616,0.303506523387,1.0,-0.06498,-0.0854022857143,1.127
0.45270504828,0.462810473656,-0.124460469174,-1.48872691678,0.0715397741221,1.94261087905,0.140566568197,-0.059895496181,-0.343597567378,-0.00321244978541,-0.531237098987,-0.036734983233,0.178087441932,-0.0783431129744,0.573752083195,0.819013596798,0.00245401510775,0.0,0.818974067956,-0.573688464939,-0.0119903341159,0.0,-0.00841256847901,0.00888942506181,-0.999925100602,0.0,0.645356201351,0.239903252466,0.303555674985,1.0,-0.0710514285714,-0.093381877551,1.144
0.45156380259,0.456309738535,-0.124531256794,-1.49884718259,0.0708748805862,1.94605346585,0.139063504154,-0.0656906583683,-0.373302528339,-0.00370580223123,-0.576990607548,-0.0447368508157,0.196496148997,-0.0807982913728,0.573794492144,0.81898436231,0.00228953659084,0.0,0.818942460302,-0.573731312427,-0.0120985435859,0.0,-0.00859510465285,0.0088172461605,-0.999924187299,0.0,0.643995901917,0.238144762313,0.303513019434,1.0,-0.07748,-0.101830857143,1.162
0.450261693992,0.448782932708,-0.124613299219,-1.51004986007,0.0701031933479,1.95025195361,0.137262127578,-0.069198522394,-0.407227982618,-0.00747598868748,-0.600747809691,-0.0339433390423,0.228869502259,-0.0966157273865,0.573745436273,0.819017515926,0.00268884050797,0.0,0.818981659667,-0.573681579337,-0.0117997270744,0.0,-0.00812180125774,0.00897232336504,-0.999926764197,0.0,0.642567213567,0.23619816079,0.303713273074,1.0,-0.0842657142857,-0.11074922449,1.181
0.448972550788,0.441674188069,-0.124639049234,-1.52091827138,0.0693999144793,1.95402484352,0.135605058003,-0.076271559797,-0.418296288646,-0.00142145214511,-0.65208447838,-0.0471202999439,0.222369614478,-0.108556706382,0.573756940032,0.819009403405,0.00270514324693,0.0,0.818973340131,-0.573692558131,-0.011843301945,0.0,-0.00814801198537,0.00901079036995,-0.999926205056,0.0,0.641086328609,0.234314049345,0.303735521233,1.0,-0.0903371428571,-0.118728816327,1.198
0.447494579886,0.433621996115,-0.124683548694,-1.53315747601,0.0685571965891,1.95824695156,0.133586907619,-0.0882831558282,-0.469321432927,-0.00348630418316,-0.681653084829,-0.0517560125821,0.249305343325,-0.116252956601,0.573651517741,0.819083211405,0.00271585881747,0.0,0.819047210266,-0.573587024208,-0.0118465149754,0.0,-0.00814565698189,0.00902036155343,-0.999926137947,0.0,0.639401303816,0.232162340457,0.303775863603,1.0,-0.0967657142857,-0.127177795918,1.216
0.446156586405,0.426630675216,-0.124700503427,-1.54387075472,0.0678073573545,1.96201711596,0.131865113043,-0.0944132156353,-0.468684400137,-0.00102817426288,-0.73026488317,-0.0555907016593,0.241116605205,-0.123082275335,0.573603094244,0.819117062708,0.00273399976201,0.0,0.819081312712,-0.573538556438,-0.0118353008173,0.0,-0.00812659902717,0.00902830710705,-0.999926221308,0.0,0.637923967998,0.230270242556,0.303765762308,1.0,-0.102122857143,-0.134218612245,1.231
0.444192574073,0.416750314346,-0.124821564491,-1.55889216402,0.066722110814,1.96714324638,0.129414899091,-0.101667396246,-0.510610789884,-0.0116577156599,-0.75379387365,-0.0554141682734,0.276486170784,-0.120746060745,0.573623331508,0.819103117478,0.00266521828581,0.0,0.819066827334,-0.573559438101,-0.0118258288601,0.0,-0.0081580692518,0.00896673587156,-0.999926519077,0.0,0.635830220193,0.227497121045,0.303772640186,1.0,-0.109265714286,-0.143606367347,1.251
0.442396800035,0.407911058905,-0.124884214078,-1.57226265166,0.065818569065,1.97179000918,0.127163013772,-0.10600518945,-0.527565768167,-0.00561672156518,-0.782586395251,-0.0469667655226,0.265359123548,-0.127586067123,0.573594429768,0.819123050183,0.00275784307715,0.0,0.819087700403,-0.573529905583,-0.0118124235852,0.0,-0.0080942787975,0.00903462965931,-0.999926426352,0.0,0.633948486919,0.225048652953,0.303794934296,1.0,-0.115337142857,-0.151585959184,1.268
0.440630561834,0.399776088692,-0.124966456422,-1.5845780145,0.0649750621983,1.97588954924,0.125096677787,-0.124271176832,-0.555636833141,-0.00946941004629,-0.783371613945,-0.0566262747292,0.294080649792,-0.142740828153,0.573667762443,0.819071931141,0.00268641996754,0.0,0.819035205612,-0.573603001246,-0.0119027656837,0.0,-0.00820844075639,0.00902867931719,-0.999925549454,0.0,0.632180797264,0.222702127735,0.303778995857,1.0,-0.120694285714,-0.15862677551,1.283
0.438675576904,0.390764151257,-0.125068790765,-1.5980535248,0.0639492866133,1.98056246768,0.122795988641,-0.12355262912,-0.55579223363,-0.00177104595911,-0.872082455898,-0.0595468240423,0.289043037598,-0.14363319192,0.573696890089,0.819051162178,0.00279623636044,0.0,0.819016594357,-0.573632530647,-0.0117594579651,0.0,-0.00802774013201,0.00903670242915,-0.99992694403,0.0,0.630267654243,0.220119009671,0.303832775307,1.0,-0.126408571429,-0.166136979592,1.299
0.43604542189,0.378963745936,-0.125172446385,-1.6156242986,0.062631516658,1.98640177137,0.119656525078,-0.131916115609,-0.609032587541,-0.00842019853436,-0.879269136713,-0.0665212055222,0.30150660542,-0.156698515639,0.573647475137,0.819085738395,0.0028061232451,0.0,0.819051429957,-0.573583234544,-0.0117377611781,0.0,-0.00800484165225,0.00903187021161,-0.999927171263,0.0,0.627683622973,0.216720027727,0.303882594776,1.0,-0.133551428571,-0.175524734694,1.319
0.434788665985,0.373594192773,-0.125218826853,-1.62373133846,0.0620632839666,1.98910805843,0.118191434859,-0.142483773589,-0.59104768669,-0.00927122794955,-0.908399240318,-0.0599047878232,0.29868668583,-0.163878238982,0.573650790221,0.819083505424,0.00278009391029,0.0,0.819048536114,-0.573586279551,-0.011790771898,0.0,-0.00806315829588,0.00904099153121,-0.999926620283,0.0,0.626479892916,0.215137074764,0.30384545759,1.0,-0.136765714286,-0.17974922449,1.328
0.431961379381,0.361711008462,-0.125356270998,-1.64124710507,0.060682680011,1.99493210403,0.115103580129,-0.145052955383,-0.642939218355,-0.00471002624453,-0.940863033687,-0.0748222607189,0.315060163028,-0.16650413142,0.573771219642,0.818998870102,0.00286097583242,0.0,0.818965643607,-0.573707192006,-0.0116653046708,0.0,-0.00791266127685,0.00903643098172,-0.999927863751,0.0,0.623878650562,0.211617440094,0.303923999984,1.0,-0.143551428571,-0.188667591837,1.347
0.42909366277,0.350207800841,-0.125468387642,-1.65854233581,0.0593826903263,2.00042235693,0.111877936471,-0.161833646267,-0.646505455485,-0.00959151002983,-0.974197182022,-0.0651643437596,0.294355080113,-0.18016055012,0.573785928248,0.818989478109,0.00258654079752,0.0,0.818952024074,-0.573722157612,-0.0118833931078,0.0,-0.00824857696306,0.0089369486305,-0.999926043229,0.0,0.621203469044,0.208119121657,0.303793186469,1.0,-0.14998,-0.197116571429,1.365
0.425866762269,0.337486704363,-0.12560213129,-1.67700948146,0.0579623671719,2.00650369903,0.108349610995,-0.169510063145,-0.662021573577,-0.00618214311734,-0.97576106183,-0.0833839862063,0.31883928983,-0.198151217669,0.573841164794,0.81894996804,0.00283096021569,0.0,0.818915857059,-0.573776669491,-0.0117430620285,0.0,-0.007992795235,0.00905714498214,-0.999927039013,0.0,0.618379381593,0.204308971623,0.303919796424,1.0,-0.156765714286,-0.206034938775,1.384
0.422861042389,0.325764922017,-0.12562969881,-1.69410296089,0.0565151200331,2.01194545996,0.105015184812,-0.178468917286,-0.705666529893,0.00065327358474,-1.00507008083,-0.0906704115908,0.325312168643,-0.197249049946,0.573704356485,0.819045871279,0.00281407049075,0.0,0.819011931533,-0.573640380563,-0.0117011408074,0.0,-0.00796966004098,0.00901792638819,-0.999927578139,0.0,0.615659454096,0.20081852934,0.303946897338,1.0,-0.162837142857,-0.214014530612,1.401
0.419654729328,0.313760907003,-0.125670136345,-1.71165578697,0.0551219687329,2.01740649791,0.101589017735,-0.191096052454,-0.708631378537,-0.00373442023183,-1.03727342051,-0.0783853307508,0.311307809464,-0.203847622688,0.573675932597,0.819066074921,0.00272693471634,0.0,0.81903033195,-0.573611521253,-0.0118272960988,0.0,-0.00812329222013,0.00901865100249,-0.999926335316,0.0,0.61280537962,0.197182642206,0.303906174731,1.0,-0.168908571429,-0.221994122449,1.418
0.417297223745,0.304989274416,-0.125753343648,-1.72409868612,0.0540513545013,2.02138960551,0.0989805366813,-0.193850882144,-0.733453110755,-0.00850993042236,-1.05586580126,-0.091468353376,0.325370724631,-0.218410348562,0.573574790835,0.81913621389,0.002927339097,0.0,0.819103737442,-0.573510436519,-0.0116444585209,0.0,-0.00785968946566,0.00907693701481,-0.99992791465,0.0,0.610807188073,0.194533518419,0.304032453025,1.0,-0.173194285714,-0.22762677551,1.43
0.413501139693,0.291689278926,-0.125858677048,-1.74324916787,0.0524955709173,2.0271946061,0.0950783365862,-0.217881157823,-0.749603383486,-0.0144243921889,-1.05742942608,-0.0901191101077,0.338335987716,-0.220360461365,0.573648341389,0.819084788645,0.00290453682239,0.0,0.819051344552,-0.573583282997,-0.0117413523671,0.0,-0.00795132244341,0.009114547584,-0.999926848071,0.0,0.607455973202,0.190146565467,0.30404326113,1.0,-0.17998,-0.236545142857,1.449
0.409732082596,0.278856154864,-0.125974573552,-1.76170985425,0.0509404650715,2.03277164697,0.0911251763957,-0.22101519527,-0.771712987164,-0.00604543721176,-1.10829361079,-0.0917631092853,0.313204694946,-0.232646268391,0.573591301047,0.819125110839,0.00279625795809,0.0,0.819089923663,-0.573526258988,-0.0118352906986,0.0,-0.00809101221647,0.00907918130988,-0.99992604926,0.0,0.604516968253,0.186336302035,0.303992833731,1.0,-0.185694285714,-0.244055346939,1.465
0.405968190143,0.26637773306,-0.126120431849,-1.77924684909,0.0493710501566,2.03810004461,0.0873011096668,-0.23806122352,-0.784974247085,-0.00751113570127,-1.10975587061,-0.0991684321666,0.326118325873,-0.236752311246,0.573608198242,0.819112767317,0.00294214694328,0.0,0.819080124076,-0.573543374691,-0.011683090003,0.0,-0.00788247105845,0.00911154571534,-0.999927420558,0.0,0.601559300246,0.182379485787,0.304097999566,1.0,-0.191408571429,-0.25156555102,1.481
0.401668586476,0.252927063048,-0.126311835734,-1.79821938494,0.0477096221516,2.04366303483,0.0831112308727,-0.256577753716,-0.78706717211,-0.00852951038938,-1.11523705773,-0.0996327744662,0.335868404362,-0.24235284411,0.573778721914,0.818993371605,0.00292958122095,0.0,0.8189604559,-0.573713792797,-0.0117048079383,0.0,-0.00790557117057,0.00911535641027,-0.999927203461,0.0,0.598294646966,0.17797229286,0.304116886649,1.0,-0.19748,-0.259545142857,1.498
0.397215132881,0.239270247,-0.126433556648,-1.81756859811,0.0459594986974,2.04918230458,0.0786490915651,-0.265360653032,-0.806249773192,-0.00976058538486,-1.12355573653,-0.105875867834,0.317560987278,-0.274557041742,0.573741403225,0.819020176273,0.00273860998835,0.0,0.818984348259,-0.573676676776,-0.0118513599056,0.0,-0.00813558283707,0.00904266867821,-0.999926018481,0.0,0.594859836799,0.173504134585,0.304033220283,1.0,-0.203551428571,-0.267524734694,1.515
0.392868550438,0.226054973838,-0.126517069913,-1.83584739009,0.0443060453601,2.05455953186,0.0743511661086,-0.282114479361,-0.808774030467,-0.00400332697157,-1.17352411034,-0.111949377771,0.325249465272,-0.281066391239,0.573682928954,0.819060422999,0.00294404555549,0.0,0.819027242776,-0.573617440531,-0.0117539104258,0.0,-0.00793855981076,0.00915444752513,-0.999926584984,0.0,0.59139349374,0.168998034468,0.304104116839,1.0,-0.209622857143,-0.275504326531,1.532
0.38764193175,0.210861730918,-0.126649828068,-1.85673335937,0.0423363939176,2.0603920154,0.0692606623165,-0.298835182228,-0.85064393239,-0.00811678866967,-1.1713820834,-0.10087668754,0.328114530196,-0.281970420754,0.573672533874,0.819067423096,0.00302112617653,0.0,0.819035328121,-0.573606877451,-0.0117059100795,0.0,-0.00785514208716,0.00918994510083,-0.999926918155,0.0,0.587802095584,0.16428086699,0.304175133232,1.0,-0.215694285714,-0.283483918367,1.549
0.383043561131,0.198074471173,-0.126799777985,-1.87433768787,0.0406416708387,2.06514605896,0.0648360554051,-0.308264025333,-0.867500674036,-0.0121666978837,-1.16942571727,-0.112815173855,0.317874744212,-0.292737360427,0.573685438645,0.819058749943,0.00292036473326,0.0,0.81902513657,-0.57361988937,-0.0117811326726,0.0,-0.00797441403672,0.0091506925687,-0.99992633406,0.0,0.584531114074,0.159971269889,0.304152489961,1.0,-0.221051428571,-0.290524734694,1.564
0.377843173945,0.184226261255,-0.127007885915,-1.89336177276,0.0388343011432,2.0702745026,0.0599302981676,-0.332850686967,-0.857499882579,-0.0142567532236,-1.19668029444,-0.113184874109,0.308529197839,-0.306186449549,0.57380165129,0.818977582748,0.00285146182082,0.0,0.818942595536,-0.57373579311,-0.0118748398807,0.0,-0.00808939769768,0.00914916242668,-0.999925424455,0.0,0.580966794575,0.155204418105,0.304094051905,1.0,-0.226765714286,-0.298034938775,1.58
0.371708887125,0.168281309626,-0.127193010184,-1.91480429676,0.0366832277213,2.07595279479,0.0542178848879,-0.33969162604,-0.88061950358,-0.00420677915679,-1.20564750794,-0.127660472156,0.31353136943,-0.318123982462,0.573879883128,0.818922475779,0.00293348037971,0.0,0.818888748564,-0.573813934471,-0.0118124080838,0.0,-0.0079903283931,0.00918127421565,-0.999925926685,0.0,0.576885034218,0.149748923007,0.304152680783,1.0,-0.233194285714,-0.306483918367,1.598
0.365762549569,0.152931521411,-0.127332918546,-1.93523573528,0.0345887107809,2.08123908622,0.0485391045846,-0.351776643239,-0.894797986348,-0.00519845542737,-1.20910268764,-0.126114890237,0.315533303982,-0.330028375365,0.573755676326,0.819009107119,0.00304191408253,0.0,0.818976953091,-0.573689552007,-0.0117386168774,0.0,-0.00786907130434,0.00922653323187,-0.999926471697,0.0,0.57289611539,0.144569312616,0.304221635215,1.0,-0.239265714286,-0.314463510204,1.615
0.359841586686,0.138283715136,-0.127487015574,-1.95468342699,0.0325962321032,2.0860609902,0.043047720833,-0.374554335143,-0.939621278517,-0.00526290087677,-1.20390387972,-0.124994830794,0.306928657457,-0.355682442031,0.573760210039,0.819005967809,0.0030319911575,0.0,0.818973241011,-0.573693600567,-0.0117995794986,0.0,-0.00792464467693,0.00925342699362,-0.999925784294,0.0,0.569016499326,0.139532037281,0.304227810133,1.0,-0.24498,-0.321973714286,1.631
0.353196773143,0.122547557121,-0.127687563453,-1.97546022765,0.0303807869591,2.09107762626,0.0368842319641,-0.402311456578,-0.925238858293,-0.0162605809652,-1.20764005929,-0.131221451155,0.295029759729,-0.362769993262,0.573736371988,0.819022936857,0.00295825298205,0.0,0.818989033419,-0.573669779432,-0.0118614588823,0.0,-0.00801790092295,0.00922830480949,-0.999925273036,0.0,0.564809099162,0.134004506195,0.304204502158,1.0,-0.251051428571,-0.329953306122,1.648
0.346124642958,0.106431936001,-0.127928900837,-1.99636249937,0.0280661966186,2.09607753403,0.0305005879008,-0.416110002437,-0.948329804022,-0.0104135498325,-1.23779840787,-0.135242539556,0.284359577787,-0.384516624635,0.57383348225,0.818954575891,0.0030469947284,0.0,0.818922379158,-0.573767202402,-0.0117507984464,0.0,-0.00787525614009,0.00923843163241,-0.999926313146,0.0,0.560538426116,0.128272967811,0.304266552992,1.0,-0.257122857143,-0.337932897959,1.665
0.339341674007,0.091077418139,-0.128042226672,-2.01603904869,0.025902595047,2.10060732538,0.0242138398698,-0.435464486441,-0.95687802792,-0.00945382933532,-1.24325172054,-0.133551980161,0.269251013816,-0.391264589367,0.573673691523,0.819065998959,0.00318306522196,0.0,0.819035503972,-0.573606891739,-0.0116928988237,0.0,-0.00775157694946,0.00931513120617,-0.999926567997,0.0,0.55639979715,0.122945383708,0.304342859364,1.0,-0.262837142857,-0.345443102041,1.681
0.33127560465,0.0735981970372,-0.128255246915,-2.0382617776,0.0234122013326,2.10550791697,0.0168105800913,-0.452966247446,-0.981808009234,-0.0123404160131,-1.24079372872,-0.148700481722,0.268891258848,-0.411091972726,0.573579575575,0.819131533867,0.00327835449954,0.0,0.819102080282,-0.573512235756,-0.0116723783798,0.0,-0.0076811846741,0.0093805254317,-0.999926499871,0.0,0.551643360563,0.116737586389,0.30440371938,1.0,-0.269265714286,-0.353892081633,1.699
0.323677003098,0.057938841275,-0.128517206459,-2.05806997068,0.0211038395576,2.10969824565,0.0100022625954,-0.485690819752,-1.00216989879,-0.0234982101691,-1.21185802774,-0.151914675443,0.273803384194,-0.433943372022,0.573638249874,0.819090515003,0.00326089183524,0.0,0.819060803497,-0.573570921556,-0.0116852480351,0.0,-0.00770107136549,0.00937415440042,-0.999926406657,0.0,0.547332566256,0.111012587947,0.304409553812,1.0,-0.26998,-0.354830857143,1.715
0.31586828787,0.042471819051,-0.128683099449,-2.07766384925,0.0188588049383,2.1136125294,0.00312189407256,-0.487597074344,-0.965925371077,-0.0121343788391,-1.23225107702,-0.140875948726,0.231717382118,-0.439152565899,0.573716818505,0.819036097929,0.00310312019772,0.0,0.819003115463,-0.573648573598,-0.0119146033539,0.0,-0.00797854337591,0.00937725398073,-0.999924202104,0.0,0.542951370499,0.105327170618,0.304309781464,1.0,-0.26998,-0.354830857143,1.731
0.307379579695,0.0259792620808,-0.128870625945,-2.09792054457,0.0163987344614,2.11760539266,-0.00440167164169,-0.502947011701,-0.967417188027,-0.011931579174,-1.19296476746,-0.157909959957,0.228011407309,-0.449700385159,0.573713657969,0.819037786322,0.00323884817086,0.0,0.819006878582,-0.573645291997,-0.0118134967596,0.0,-0.00781790074882,0.00943038493412,-0.999924971319,0.0,0.538378250792,0.0992984650351,0.304398816189,1.0,-0.26998,-0.354830857143,1.748
0.298096577076,0.00873838870934,-0.129098193764,-2.11891265057,0.0137769288016,2.12150350399,-0.0125759341628,-0.524516979763,-0.951440390111,-0.0141036774438,-1.1644006301,-0.149085207654,0.206350412657,-0.456134594072,0.573749301802,0.819012560832,0.0033031474576,0.0,0.818982728941,-0.573681000262,-0.0117535754189,0.0,-0.00773152182106,0.00944900833191,-0.999925467128,0.0,0.53354150103,0.0928682554698,0.304462940398,1.0,-0.26998,-0.354830857143,1.766
0.289618279672,-0.0064485279514,-0.129267292862,-2.13715466706,0.0115809925711,2.12477123135,-0.020029061002,-0.526677202642,-0.940073263808,-0.00805105921606,-1.12729339839,-0.134965177293,0.211808683683,-0.470206521499,0.573805116438,0.818972631915,0.00350191742503,0.0,0.818944974423,-0.573735635159,-0.0117173681356,0.0,-0.00758717507961,0.00959154813047,-0.999925215693,0.0,0.529263922691,0.0871843572445,0.304543173029,1.0,-0.26998,-0.354830857143,1.782
0.280511890783,-0.0223778050666,-0.129429424569,-2.15637416485,0.00907746511814,2.12792159668,-0.0280771319484,-0.539731489631,-0.940290326663,-0.0156452596464,-1.11344658749,-0.149975856483,0.163905439839,-0.472026876265,0.573711798433,0.81903863569,0.0033514903197,0.0,0.819008669187,-0.573642400729,-0.0118297415003,0.0,-0.0077666079172,0.00953194541713,-0.999924408052,0.0,0.524621640881,0.0811827684131,0.304487435635,1.0,-0.26998,-0.354830857143,1.799
0.271021430239,-0.0382950288903,-0.129671869958,-2.17502859341,0.00659545803389,2.13094952687,-0.0362787531034,-0.566455136317,-0.918045518806,-0.0198363603037,-1.09840854379,-0.143305627992,0.168984387176,-0.491077522931,0.573843687686,0.818945506794,0.00352504001485,0.0,0.818918567225,-0.573774655986,-0.011652094371,0.0,-0.00751999649122,0.00957338583882,-0.999925897223,0.0,0.520091734864,0.0750762069039,0.304593263993,1.0,-0.26998,-0.354830857143,1.816
0.261970863094,-0.0531519091306,-0.129804425972,-2.19226536516,0.00441228261199,2.13355027962,-0.0442203262033,-0.566104129102,-0.922272317332,-0.00485295936258,-1.06175563584,-0.138250944805,0.171736870053,-0.497924315398,0.573838171337,0.818948400684,0.00374393322614,0.0,0.818923954426,-0.57376800741,-0.0116007517297,0.0,-0.00735240952538,0.00972313796189,-0.999925698571,0.0,0.515799146438,0.0694458232994,0.30468112355,1.0,-0.26998,-0.354830857143,1.832
0.252174176381,-0.0685683072151,-0.129971355814,-2.21037998907,0.00194338713773,2.13600160283,-0.0528553766335,-0.580199187189,-0.89922785078,-0.0147239162628,-1.04166966206,-0.142237962849,0.140511917889,-0.507170995324,0.573740419403,0.819017796361,0.00353939111937,0.0,0.818989964316,-0.573669984735,-0.011787021051,0.0,-0.00762348433316,0.00966160222367,-0.999924265097,0.0,0.51116291418,0.0634450366715,0.304573502384,1.0,-0.26998,-0.354830857143,1.849
0.242017067316,-0.0839865661366,-0.130229105658,-2.22799883792,-0.000462502008035,2.13829981782,-0.0617053543286,-0.609324117233,-0.887723571991,-0.00999153736247,-1.03262024848,-0.140793646809,0.131020511585,-0.513104825842,0.573838442913,0.818948797631,0.00361319725297,0.0,0.818921717923,-0.573767480461,-0.0117832584862,0.0,-0.00757689616397,0.0097207995593,-0.999924045466,0.0,0.506332082809,0.0569973016456,0.304593818004,1.0,-0.26998,-0.354830857143,1.867
0.231810216156,-0.0993582273688,-0.130357046775,-2.24534504376,-0.00286259845696,2.14032958063,-0.070727729574,-0.609923690489,-0.911953413102,-0.00958802778961,-1.00701909224,-0.140373711017,0.118936776761,-0.53427117296,0.57368552156,0.819055623689,0.00368165139928,0.0,0.819029308669,-0.573614190251,-0.0117685676854,0.0,-0.00752740898526,0.00976702533643,-0.999923968775,0.0,0.501995429473,0.0514212427203,0.304636847981,1.0,-0.26998,-0.354830857143,1.883
0.221199882431,-0.11442290912,-0.130587703989,-2.26245044623,-0.00534241428287,2.14204874901,-0.0799002907651,-0.634992559939,-0.887321661378,-0.0150359720396,-0.996959836636,-0.138248115664,0.100570285976,-0.540453356091,0.573764885277,0.81900110693,0.00343368197425,0.0,0.818970622897,-0.573693228431,-0.0119977241719,0.0,-0.00785642054068,0.0096961441792,-0.99992212769,0.0,0.497337167541,0.0453427948418,0.304524644384,1.0,-0.26998,-0.354830857143,1.9
0.210366053514,-0.129500833062,-0.130802891118,-2.27901787454,-0.00766875121484,2.14364701106,-0.0893809441314,-0.631102408441,-0.862173123639,-0.0114094719612,-0.971913384765,-0.134621992263,0.0768870186003,-0.556884672917,0.573804426945,0.818972799933,0.00357484119251,0.0,0.818943784178,-0.573731776311,-0.0119864134781,0.0,-0.00776569613362,0.00980563987991,-0.999921768635,0.0,0.492764766402,0.0393127788359,0.304580527004,1.0,-0.26998,-0.354830857143,1.917
0.199972574364,-0.143597427474,-0.130991336152,-2.29431619754,-0.0099353007436,2.14499611333,-0.0985468972646,-0.662179646423,-0.893275873099,-0.0099083113421,-0.947394500081,-0.138094283964,0.0895086512145,-0.577730336612,0.573733742292,0.819021832163,0.00368487421985,0.0,0.818994641412,-0.573661205385,-0.0118888887491,0.0,-0.0076235368357,0.00983913830793,-0.999922533521,0.0,0.488461295554,0.0336503957407,0.304641092394,1.0,-0.26998,-0.354830857143,1.933
0.188599577272,-0.15833485974,-0.131295935349,-2.31030818303,-0.0123944085357,2.14616975023,-0.10845320126,-0.669692956095,-0.876081630541,-0.00728227245814,-0.931358474717,-0.151758147799,0.0577560745984,-0.588332135651,0.573828267862,0.818955921084,0.00361458521353,0.0,0.81892770456,-0.573755825682,-0.0119337379557,0.0,-0.00769946427431,0.0098081889901,-0.999922255817,0.0,0.483853428393,0.0275349376264,0.304615732122,1.0,-0.26998,-0.354830857143,1.95
0.17720567544,-0.172969877108,-0.131431171522,-2.32578389032,-0.0145964608708,2.14715022767,-0.118615031985,-0.680760720714,-0.832740019347,-0.0165278002507,-0.903626611961,-0.141865220682,0.0516371716491,-0.601526234235,0.573688603837,0.819052795817,0.00382758308047,0.0,0.819026838485,-0.573614755323,-0.0119120618852,0.0,-0.00756119503525,0.00996889935337,-0.999921721624,0.0,0.479296681577,0.0216482866268,0.304691098743,1.0,-0.26998,-0.354830857143,1.967
0.165308137406,-0.187363227804,-0.131728587299,-2.34104962426,-0.017007182228,2.14787617498,-0.128999383415,-0.702666155228,-0.837455153576,-0.0147736824192,-0.885791251896,-0.141396358631,0.036136398741,-0.622097816647,0.573792638518,0.818980355712,0.00373253825037,0.0,0.818952750635,-0.573718583427,-0.0120052554815,0.0,-0.0076907899186,0.00994549116733,-0.999920966355,0.0,0.474688566693,0.0155390746522,0.304654950632,1.0,-0.26998,-0.354830857143,1.984
0.152609287076,-0.202492681024,-0.131913580364,-2.35672328992,-0.0194255229381,2.14855900212,-0.140339171809,-0.708484670709,-0.825492690199,-0.0162719260757,-0.870509867341,-0.126523440316,0.0176943267961,-0.631310701638,0.573640362304,0.819086346492,0.00387796686277,0.0,0.819060893805,-0.573566142613,-0.0119113050641,0.0,-0.00753226187164,0.0100092890671,-0.999921536503,0.0,0.469872259879,0.00923587506965,0.30470854774,1.0,-0.26998,-0.354830857143,2.002
0.14019633001,-0.216633294042,-0.132242527754,-2.37123050126,-0.0216723696161,2.14891182614,-0.151253383082,-0.74424177641,-0.857220484969,-0.0225805555128,-0.847686432828,-0.136871438705,0.03229210043,-0.631413710134,0.573793123864,0.818978917996,0.00396607934109,0.0,0.818953978275,-0.573717718295,-0.0119627790965,0.0,-0.00752199871232,0.0101123915373,-0.999920576382,0.0,0.465284766946,0.00314686782881,0.304729733604,1.0,-0.26998,-0.354830857143,2.019
0.1276520398,-0.230565703746,-0.132422865888,-2.38549224979,-0.0240022693194,2.14912248425,-0.162385166024,-0.733529422652,-0.853652861663,-0.00990748936695,-0.818268812099,-0.1246658897,0.00852175601828,-0.659015854646,0.573700447476,0.81904415818,0.00390005362689,0.0,0.819018126301,-0.573624987786,-0.0120178650105,0.0,-0.0076061403583,0.0100890633939,-0.999920175528,0.0,0.460668512081,-0.00282234366077,0.304692067771,1.0,-0.26998,-0.354830857143,2.036
0.115503933721,-0.243579843998,-0.132728396943,-2.39846451719,-0.0261353392663,2.14922398358,-0.173181681943,-0.769535428845,-0.824012725954,-0.0251793336708,-0.768393176054,-0.127478123569,0.0127855332595,-0.687075261722,0.573755795932,0.819004696127,0.00404243208923,0.0,0.81898099332,-0.57368045365,-0.0119002765337,0.0,-0.00742746109313,0.0101387228841,-0.999921016441,0.0,0.456385998536,-0.00853957400733,0.304748302897,1.0,-0.26998,-0.354830857143,2.052
0.10237494238,-0.257205171838,-0.132972022582,-2.41205779837,-0.0283491799105,2.14915376164,-0.184916023034,-0.772054872833,-0.790019173341,-0.00780564221503,-0.827795626593,-0.130955835991,-0.00507386351081,-0.68831023502,0.573713622545,0.819034002785,0.00409004769063,0.0,0.81901047473,-0.5736375094,-0.0119413983006,0.0,-0.00743434961265,0.0102009311776,-0.999920332551,0.0,0.451502317206,-0.0149023550052,0.304721539588,1.0,-0.26998,-0.354830857143,2.07
0.0897586478579,-0.269874493292,-0.133267890801,-2.42433774697,-0.0304437139329,2.14899380527,-0.196170619355,-0.801814815552,-0.814471057857,-0.0267163585266,-0.75043552476,-0.129854159467,-0.00226118416412,-0.714554725767,0.573775053242,0.818990033866,0.00427312602839,0.0,0.818970022253,-0.573699903099,-0.0117162595308,0.0,-0.00714414534845,0.0102222563648,-0.999922230307,0.0,0.447526773286,-0.0202504283373,0.304811298857,1.0,-0.26998,-0.354830857143,2.085
0.0761645466816,-0.283093717433,-0.133486307568,-2.4371826583,-0.0326169051462,2.14856553705,-0.208432590089,-0.797356646857,-0.793140803477,-0.0130184258362,-0.747162039387,-0.119669070796,-0.0296754133296,-0.734351622888,0.573664685406,0.819067175954,0.00430544932881,0.0,0.819047362405,-0.573589131046,-0.0117334472487,0.0,-0.00714106005044,0.0102576287325,-0.999921890106,0.0,0.442665893603,-0.0265765498388,0.304808272052,1.0,-0.26998,-0.354830857143,2.103
0.0621732918144,-0.29613283632,-0.133816649464,-2.44957835268,-0.0347124789692,2.1480158804,-0.221024580019,-0.83805969464,-0.780171941246,-0.0264564239228,-0.718129040904,-0.134503961275,-0.0227750697198,-0.744107815734,0.573756301514,0.819002079804,0.00447734862289,0.0,0.818984826815,-0.573680676821,-0.0116224519751,0.0,-0.00695037776801,0.0103355346373,-0.999922431478,0.0,0.438123142289,-0.0326473443006,0.304869729793,1.0,-0.26998,-0.354830857143,2.12
0.048035631291,-0.308931386221,-0.134033266099,-2.46170491412,-0.0368329612021,2.14730246162,-0.233781837405,-0.832036550419,-0.745118439404,-0.0139858309844,-0.715227344068,-0.119069778566,-0.0537732345745,-0.750681432163,0.573678685967,0.819056398683,0.00448641779529,0.0,0.819039156148,-0.573602886554,-0.0116334059661,0.0,-0.00695512730512,0.0103485881355,-0.999922263442,0.0,0.433806000146,-0.0382579725295,0.304859480228,1.0,-0.26998,-0.354830857143,2.136
0.0334824605143,-0.321485080243,-0.134406189477,-2.47346339188,-0.0389274621112,2.14639065757,-0.246905083887,-0.872876775873,-0.740996834139,-0.0260110361823,-0.669496285707,-0.129716261827,-0.0526662808004,-0.784581048683,0.573788976257,0.818979031377,0.00450597287373,0.0,0.818961540436,-0.573712351531,-0.0116995678678,0.0,-0.00699670317481,0.010403501855,-0.999921403558,0.0,0.429205393241,-0.0443472002649,0.304850854157,1.0,-0.26998,-0.354830857143,2.153
0.0188407176429,-0.333819543978,-0.134621318248,-2.48483975628,-0.0408795980773,2.14551716847,-0.260353389731,-0.867333958739,-0.729299407658,-0.0135695410466,-0.674892321726,-0.112449721294,-0.0546668027473,-0.799024715619,0.573644130608,0.81907958458,0.00466823786037,0.0,0.819064441099,-0.573567394375,-0.0116031175829,0.0,-0.00682645913422,0.0104798497018,-0.999921783044,0.0,0.424664889925,-0.0502816072763,0.304878018013,1.0,-0.26998,-0.354830857143,2.17
0.00460889906113,-0.345184495436,-0.134960889398,-2.49530141169,-0.0428876705889,2.14438252631,-0.273216857962,-0.893701365598,-0.708813483203,-0.019487037045,-0.645274070759,-0.115756589253,-0.0797141603121,-0.814064338839,0.573732086658,0.81901861422,0.00455512919466,0.0,0.819001510907,-0.573654940996,-0.0117166848717,0.0,-0.00698324508655,0.0104530970074,-0.999920980403,0.0,0.420300259163,-0.0560210300692,0.304837873935,1.0,-0.26998,-0.354830857143,2.186
-0.0105914335386,-0.357088330527,-0.13519069822,-2.50581451605,-0.0448270972558,2.14322192782,-0.287250434816,-0.900230243883,-0.682423815626,-0.0091031859108,-0.612376827041,-0.117755788264,-0.0706282700261,-0.838093444067,0.573584119345,0.819121155263,0.00474741372192,0.0,0.819107815577,-0.573508372037,-0.0114577731565,0.0,-0.00666275114825,0.0104608418126,-0.99992308631,0.0,0.415803211236,-0.0619874315164,0.304957714573,1.0,-0.26998,-0.354830857143,2.203
-0.0262033457808,-0.368648781396,-0.135531581423,-2.51626328588,-0.046739435744,2.14185232241,-0.3015852761,-0.916733067955,-0.674017165995,-0.00519397036897,-0.603588371749,-0.105557077837,-0.0851896993966,-0.845884070338,0.573614124852,0.819100249093,0.00472912325351,0.0,0.819085514203,-0.573536621198,-0.011636643375,0.0,-0.0068193834093,0.0105487024528,-0.999921107331,0.0,0.411162356394,-0.0680302679634,0.304899651976,1.0,-0.26998,-0.354830857143,2.22
-0.0410654979728,-0.379285952418,-0.135821610822,-2.52565635987,-0.0485241573589,2.14045481559,-0.315250617301,-0.946185733042,-0.659624293594,-0.0236216706238,-0.567561562711,-0.1150516872,-0.0787559712214,-0.860652791845,0.57362628769,0.819091727587,0.00472977495273,0.0,0.819076514173,-0.573548028393,-0.0117076879674,0.0,-0.00687704966887,0.0105900890593,-0.999920274923,0.0,0.406832859217,-0.0736804144117,0.304897358406,1.0,-0.26998,-0.354830857143,2.236
-0.0571577524648,-0.390307202008,-0.136118215248,-2.53519997195,-0.0503842226642,2.13909867492,-0.330155602257,-0.942969882563,-0.63536934764,-0.020904656076,-0.556771601829,-0.108423165181,-0.0911684330503,-0.885304123256,0.573584184802,0.819120507728,0.00485012028493,0.0,0.81910784441,-0.573507115012,-0.0115184702895,0.0,-0.00665356484144,0.0105797876566,-0.999921896034,0.0,0.402300521453,-0.0797078158338,0.304950498768,1.0,-0.26998,-0.354830857143,2.253
-0.070654230215,-0.399126657663,-0.136425182864,-2.54288606372,-0.0519376484097,2.13774119222,-0.342660220185,-0.97237322143,-0.625022170599,-0.0239954934534,-0.548989149927,-0.110914429953,-0.100923038245,-0.901154103633,0.573597903293,0.819111277859,0.00478609693814,0.0,0.819097104941,-0.573519951705,-0.011642361211,0.0,-0.0067915980433,0.0105985161803,-0.999920769687,0.0,0.39848211656,-0.0847017543034,0.304918117441,1.0,-0.26998,-0.354830857143,2.267
-0.089096996691,-0.410758216644,-0.136695527177,-2.55281657265,-0.0537620193534,2.1359474557,-0.359909806139,-0.983112428184,-0.601463541101,-0.0167214926773,-0.506603777992,-0.0999462986016,-0.0858448431822,-0.92604512866,0.573517585895,0.819166729784,0.00491877873037,0.0,0.819153776223,-0.57343844261,-0.0116700616479,0.0,-0.00673923917307,0.0107224281949,-0.999919802879,0.0,0.393386426598,-0.0913443956337,0.304934220207,1.0,-0.26998,-0.354830857143,2.286
-0.106075795208,-0.42084803373,-0.137051952895,-2.56123245799,-0.055534569904,2.13437690633,-0.375698317995,-1.00031249288,-0.585947575423,-0.01337466412,-0.498247369156,-0.0936915531634,-0.10425810882,-0.934887392815,0.573580763539,0.819121954732,0.00500778149722,0.0,0.819111255528,-0.573503119566,-0.0114747469054,0.0,-0.00652736447641,0.0106838299778,-0.999921621573,0.0,0.38883672104,-0.0974418742695,0.304999353628,1.0,-0.26998,-0.354830857143,2.303
-0.124227285973,-0.431100448441,-0.137442040535,-2.5699804999,-0.0573216377565,2.1324176791,-0.392712796702,-1.01696544271,-0.556483200311,-0.0230480250899,-0.480186525153,-0.0995391672461,-0.101529269099,-0.954847593322,0.573607942221,0.819103452718,0.00492029136946,0.0,0.819089592846,-0.573527311773,-0.0118071352726,0.0,-0.00684947565988,0.0108030340136,-0.999918186223,0.0,0.384159931103,-0.103462419338,0.304910351005,1.0,-0.26998,-0.354830857143,2.32
-0.140507247886,-0.439846451816,-0.1376897994,-2.57723624245,-0.0587671040492,2.13085580997,-0.408111472793,-1.02687754087,-0.544977264769,-0.0180145293052,-0.439342530703,-0.0937499121887,-0.103911239887,-0.973322306371,0.573520370985,0.819164418271,0.00497863493965,0.0,0.819151152273,-0.57343929688,-0.0118114108162,0.0,-0.00682067387014,0.0108525482059,-0.999917846928,0.0,0.379869240407,-0.109076184856,0.304907791311,1.0,-0.26998,-0.354830857143,2.336
-0.158278562751,-0.448850571056,-0.1380226578,-2.58441040987,-0.0602791949581,2.12923332025,-0.424782858914,-1.04084704447,-0.522042638602,-0.0110139701037,-0.424478212439,-0.0831226671471,-0.105754025431,-0.986771126065,0.573627868631,0.81908783404,0.00518992850067,0.0,0.819078883588,-0.573548681689,-0.0115082185483,0.0,-0.00644968933127,0.0108526046661,-0.999920308064,0.0,0.375089084315,-0.115529077691,0.305027326118,1.0,-0.26998,-0.354830857143,2.354
-0.176137582598,-0.457385920507,-0.138343263815,-2.59150397227,-0.0618124954135,2.12735733863,-0.441708056674,-1.06471078525,-0.493313080296,-0.0129281778561,-0.397917164824,-0.0894492665471,-0.116717977497,-0.994655889816,0.573593371036,0.819112578491,0.00509660307174,0.0,0.819100661943,-0.573511586298,-0.0118030880256,0.0,-0.00674522682093,0.0109450147244,-0.999917350868,0.0,0.370431142964,-0.121526800839,0.304947016462,1.0,-0.26998,-0.354830857143,2.371
-0.194146322534,-0.46549498153,-0.138587198484,-2.59811219479,-0.0632065636716,2.12571559655,-0.458969350998,-1.06933382688,-0.465927371731,-0.0194889866367,-0.384763933083,-0.0855707634706,-0.0909411444147,-1.01282274107,0.573429729643,0.819226876785,0.00513969018509,0.0,0.819215238659,-0.573347367392,-0.011829452807,0.0,-0.00674430768914,0.0109940841167,-0.999916818755,0.0,0.365870766441,-0.12748333718,0.304922843763,1.0,-0.26998,-0.354830857143,2.388
-0.211536041536,-0.472822633935,-0.138881223636,-2.60385665834,-0.0645624069648,2.12416714341,-0.475370787682,-1.079053162,-0.45682125421,-0.0178291445345,-0.345168651532,-0.0842973149997,-0.100044116539,-1.03552169986,0.573555948771,0.819138234969,0.00518387335062,0.0,0.819128085193,-0.573474920126,-0.0116808790765,0.0,-0.00659556029892,0.0109461046792,-0.999918337354,0.0,0.361571528497,-0.133224000896,0.304978965716,1.0,-0.268908571429,-0.353422693878,2.404
-0.229958688789,-0.480035870191,-0.139119360064,-2.60948398329,-0.065722882998,2.12254320346,-0.492978160171,-1.08109928445,-0.41380632074,-0.00740689495236,-0.327353867542,-0.0724721401509,-0.0978661148282,-1.03092478804,0.573586798042,0.819115651733,0.00533676856348,0.0,0.819107513189,-0.573505321122,-0.0116307945881,0.0,-0.0064664252192,0.0110428700625,-0.99991811683,0.0,0.357077540495,-0.139191111472,0.305023436299,1.0,-0.262837142857,-0.345443102041,2.421
-0.248239880306,-0.486693975516,-0.13921096302,-2.61486808391,-0.066774006312,2.12091727931,-0.510464747211,-1.08646007818,-0.386128325833,-0.00790743950967,-0.30638595421,-0.0552615031024,-0.0995927532958,-1.02926282198,0.57355282027,0.819139217435,0.00537137986021,0.0,0.819129928192,-0.573468515597,-0.0118646222251,0.0,-0.00663858794287,0.01120506127,-0.999915184279,0.0,0.352594603978,-0.144962903402,0.304956512725,1.0,-0.256765714286,-0.337463510204,2.438
-0.265475560993,-0.492397887995,-0.139298034656,-2.61942041031,-0.0677522943316,2.11952041926,-0.526813714535,-1.06595959215,-0.35166405075,-0.00358032935962,-0.272276504937,-0.0533104028132,-0.0793962484824,-1.01550635295,0.573665538805,0.819060254205,0.00537554367897,0.0,0.819050201609,-0.573579823192,-0.0119875173793,0.0,-0.00673532531495,0.0112798829231,-0.999913696093,0.0,0.348460821843,-0.150384680608,0.304915077405,1.0,-0.251051428571,-0.329953306123,2.454
-0.284586731649,-0.498301619018,-0.139303424194,-2.6239482966,-0.0686796595445,2.1181247363,-0.545017550497,-1.046563109,-0.320730292964,0.0023419485075,-0.240836138584,-0.054596861641,-0.0861449198484,-1.00251542879,0.573762356046,0.818991758446,0.00547770781166,0.0,0.818983502522,-0.573677030027,-0.0118926329334,0.0,-0.00659766023533,0.0113099151718,-0.999914274675,0.0,0.344225358603,-0.156002625399,0.304947372856,1.0,-0.24498,-0.321973714286,2.471
-0.300145492467,-0.502707778729,-0.139236316352,-2.62733041267,-0.0692682715659,2.11699964859,-0.559954702279,-1.04137839597,-0.286124909862,-0.0012523540895,-0.2204819274,-0.0314358760428,-0.0728898617486,-1.01363546269,0.573771298877,0.818984639286,0.00560393605775,0.0,0.818977799728,-0.573685111657,-0.0118955082431,0.0,-0.00652746951859,0.0114150202123,-0.99991354099,0.0,0.340364232586,-0.161089768215,0.304965859666,1.0,-0.239265714286,-0.314463510204,2.487
-0.318649035748,-0.507485456313,-0.139183624393,-2.630945126,-0.0700089050236,2.1158336776,-0.577691513681,-1.0095256679,-0.254134728719,0.00733317178424,-0.196068973097,-0.0336110589967,-0.075557784196,-0.978934325823,0.573835261252,0.818939158429,0.00570040662892,0.0,0.818934206061,-0.573749830144,-0.0117747804632,0.0,-0.00637234415553,0.0114252621719,-0.999914424646,0.0,0.336116378418,-0.166750006281,0.305002376935,1.0,-0.232837142857,-0.306014530612,2.505
-0.33589587697,-0.511553946173,-0.139104095491,-2.6340368038,-0.0706326719668,2.1147502361,-0.594161733791,-1.01274076188,-0.22308069282,0.00505810283533,-0.176696286251,-0.0383287015735,-0.0688915860455,-0.961483093481,0.573967829145,0.818845801909,0.00576460778314,0.0,0.818841677406,-0.573882132179,-0.0117623386322,0.0,-0.00632345794999,0.0114717259434,-0.999914203011,0.0,0.332155171864,-0.17196467965,0.305015058013,1.0,-0.226765714286,-0.298034938776,2.522
-0.351621894683,-0.514860724077,-0.138917639163,-2.63667992307,-0.0710295288489,2.11376985854,-0.609430942013,-0.986045204933,-0.19813663658,0.00374179601952,-0.160429319178,-0.0246585548264,-0.05714064586,-0.951057458247,0.573886175469,0.818902518527,0.0058369219316,0.0,0.8188978952,-0.573797617056,-0.0119699122378,0.0,-0.00645310362504,0.0116494345268,-0.999911320132,0.0,0.328543501169,-0.176621441513,0.30495723524,1.0,-0.221051428571,-0.290524734694,2.538
-0.368210690902,-0.517901767799,-0.13873051184,-2.63912849547,-0.0714819856646,2.11292014801,-0.625357368471,-0.960267364051,-0.175194750523,0.0161330405279,-0.139852187265,-0.0258906317135,-0.0534191469051,-0.926018480445,0.573959913947,0.818850697974,0.00585649302236,0.0,0.818845452945,-0.573869683093,-0.0121019800162,0.0,-0.00654897707645,0.011741840157,-0.99990961596,0.0,0.32478249414,-0.181540959221,0.304897824825,1.0,-0.21498,-0.282545142857,2.555
-0.384362944573,-0.520545563662,-0.138586895516,-2.64118300039,-0.0718066637167,2.11217357269,-0.640923571712,-0.951131286511,-0.149009282532,0.00498968658002,-0.11190726745,-0.0188439254803,-0.0483583321172,-0.9210751723,0.574079032739,0.818766360199,0.0059714718885,0.0,0.818762150732,-0.57398744475,-0.0121532176099,0.0,-0.00652322144875,0.0118663510407,-0.999908314444,0.0,0.321152993821,-0.186323026068,0.304876555039,1.0,-0.208908571429,-0.27456555102,2.572
-0.400039845839,-0.522854444262,-0.138295447343,-2.64291433219,-0.0720709206188,2.11148886144,-0.656185413521,-0.91927854039,-0.134895375823,0.0140615229656,-0.0980683866322,-0.0184669796323,-0.0344170340609,-0.891634033986,0.57399761704,0.818823007218,0.00603037176619,0.0,0.818819563266,-0.573905782575,-0.0121417643628,0.0,-0.00648121556428,0.0119073594404,-0.999908100095,0.0,0.317666386211,-0.190905167855,0.304886405477,1.0,-0.202837142857,-0.266585959184,2.589
-0.41376155689,-0.524622588726,-0.1381387992,-2.64418595933,-0.0723033862875,2.11095878352,-0.669399116096,-0.901272192425,-0.114395874504,0.0151938912488,-0.0795828604368,-0.00701036501458,-0.0310714760682,-0.875626935055,0.574128160341,0.818730931985,0.00610437681515,0.0,0.818728785905,-0.574036592383,-0.0120794303793,0.0,-0.00638579057296,0.0119331999113,-0.999908406015,0.0,0.314619802783,-0.194943231814,0.30491527858,1.0,-0.19748,-0.259545142857,2.604
-0.43048090679,-0.52642179814,-0.137808737311,-2.64550296643,-0.0724864432357,2.11042324665,-0.685661581718,-0.877222588301,-0.0871067148729,0.0147218354555,-0.0568386905262,-0.00707178687919,-0.027277248789,-0.847397361535,0.574112940448,0.818741097266,0.00617204656416,0.0,0.818740216586,-0.574021808706,-0.0120069885993,0.0,-0.00628784674903,0.0119469002863,-0.999908863125,0.0,0.310944094079,-0.19980714022,0.304938071208,1.0,-0.190694285714,-0.25062677551,2.623
-0.445118090968,-0.527685801776,-0.137520672891,-2.64647827931,-0.0726395914869,2.11000937478,-0.699874664712,-0.84176774936,-0.0659878934374,0.029552307019,-0.0550782782011,-0.0110021318393,-0.0195102684537,-0.826643608068,0.574134158377,0.818726027283,0.00619736525895,0.0,0.818725369758,-0.574042711303,-0.0120200422186,0.0,-0.00628369003773,0.0119752875474,-0.999908549682,0.0,0.307715661316,-0.204048437077,0.304928966568,1.0,-0.184622857143,-0.242647183674,2.64
-0.459262602508,-0.528665072399,-0.137228812536,-2.64722523774,-0.0726970765047,2.10967106555,-0.713611032487,-0.831774687796,-0.0553379798311,0.0138780527148,-0.0361837830273,-0.00188672200385,-0.0212964039413,-0.803607885455,0.57419390623,0.818683594848,0.00626709479178,0.0,0.818683768931,-0.574101998954,-0.012021987696,0.0,-0.00624437268012,0.0120339525511,-0.999908091674,0.0,0.304607565861,-0.208129767352,0.304925854247,1.0,-0.178551428571,-0.234667591837,2.657
-0.472239317806,-0.529309099863,-0.136874078936,-2.64773798418,-0.0727330038779,2.10939774196,-0.726216266825,-0.794643422534,-0.038046873594,0.0232289864633,-0.0301116773375,-0.00117688480019,-0.0121344703529,-0.786916208739,0.574202543771,0.818677491831,0.00627295764699,0.0,0.818677489109,-0.574110121622,-0.0120616739041,0.0,-0.00627337324335,0.0120616052769,-0.999907576962,0.0,0.301771453118,-0.211847748049,0.304913755888,1.0,-0.172837142857,-0.227157387755,2.673
-0.484760373495,-0.529745857664,-0.136552600492,-2.64808446263,-0.0727552533441,2.10920228389,-0.738469567393,-0.784852557492,-0.0265099430769,0.0137848241695,-0.0179940336571,-0.00338506450171,-0.0181747300825,-0.74763122296,0.574165381952,0.818703475266,0.00628336352392,0.0,0.818703541608,-0.57407279387,-0.0120700123857,0.0,-0.00627477384242,0.0120746277158,-0.999907411003,0.0,0.299035876463,-0.215440454136,0.304907278565,1.0,-0.167122857143,-0.219647183674,2.689
-0.498390940367,-0.529977912456,-0.136136388161,-2.64828964104,-0.0727527317591,2.10903242003,-0.751808494702,-0.737546937769,-0.00315264310581,0.030529941057,-0.0104691427968,-1.21420800109e-05,-0.00777153950148,-0.731629897476,0.574100001464,0.818749514564,0.0062584040575,0.0,0.818749049803,-0.574007144279,-0.0121053155171,0.0,-0.00631897422232,0.0120739564925,-0.999907140758,0.0,0.296069891251,-0.219332505336,0.304894938846,1.0,-0.160694285714,-0.211198204082,2.707
-0.511564778263,-0.530086130517,-0.135769153365,-2.64838883824,-0.0727496280842,2.10891774853,-0.764642461757,-0.737450164241,-0.000959623317201,0.018385598513,-0.0041770753723,0.00217201765118,-0.00748836670684,-0.706635435927,0.574115066271,0.818739081461,0.00624131961508,0.0,0.818738373535,-0.574022243378,-0.0121114288894,0.0,-0.00633356581775,0.0120635939314,-0.999907173514,0.0,0.293180146376,-0.22309049894,0.304889013092,1.0,-0.154265714286,-0.20274922449,2.725
-0.522181690392,-0.530044897954,-0.135432416628,-2.64836649453,-0.0727376222579,2.10885370664,-0.774999363875,-0.687807197126,0.00794921290352,0.0283013687526,0.0104946024607,0.0086650035303,-0.0019247609805,-0.689372368433,0.574065166263,0.818774369755,0.00620187203306,0.0,0.818773181805,-0.573972595414,-0.0121112910581,0.0,-0.00635683250454,0.0120308284433,-0.999907420638,0.0,0.290708509804,-0.226294867555,0.304888451501,1.0,-0.148551428571,-0.195239020408,2.741
-0.534339326151,-0.529845073593,-0.135023012675,-2.6482310777,-0.0726983938116,2.10884960161,-0.786923975591,-0.669234014954,0.00880305634219,0.0217411746416,0.0105908242299,0.00492224580216,-0.00216278492406,-0.658034196739,0.574023925972,0.818803655524,0.00615248033009,0.0,0.818801995684,-0.573931906685,-0.012091536478,0.0,-0.00636961213718,0.0119787250404,-0.999907964859,0.0,0.28819256796,-0.229551934509,0.304886184015,1.0,-0.14248,-0.187259428572,2.758
-0.546155508552,-0.529502432309,-0.134643959115,-2.64797738701,-0.0726427771876,2.10887106007,-0.798392675818,-0.640176415466,0.0203491077537,0.0329124621202,0.018008891953,0.00795491334091,0.0025880048135,-0.631353951876,0.57407955052,0.8187649644,0.00611143572553,0.0,0.818762926089,-0.57398799178,-0.0120748936521,0.0,-0.00637873196253,0.0119359963225,-0.999908417692,0.0,0.285596948097,-0.232903515749,0.304888042408,1.0,-0.136051428571,-0.17881044898,2.776
-0.555969713706,-0.529045471004,-0.134195029472,-2.64766526483,-0.0725195246751,2.10891445067,-0.808153426275,-0.613275457329,0.0342660634639,0.0287276942022,0.0201049808354,0.00144879398455,0.00289356957033,-0.598979842118,0.5738773354,0.818907074588,0.00606250815396,0.0,0.818904255674,-0.573785765672,-0.0121021506834,0.0,-0.0064320797668,0.0119099930184,-0.999908386012,0.0,0.283469395325,-0.235650027661,0.304878365058,1.0,-0.130337142857,-0.171300244898,2.792
-0.566235899153,-0.528463459472,-0.133841944263,-2.64724858823,-0.0723618127029,2.10900978801,-0.818074277591,-0.599534186118,0.0331459965296,0.021176893507,0.0268261913853,0.00933652233311,0.00478527377207,-0.570797221148,0.574002145173,0.818819466603,0.00607991370175,0.0,0.818816877296,-0.573910478407,-0.01210087318,0.0,-0.00641922793145,0.0119244926987,-0.999908295788,0.0,0.281223084851,-0.238552357733,0.304872450027,1.0,-0.124265714286,-0.163320653061,2.809
-0.575253375531,-0.527768523138,-0.133411952594,-2.64675950669,-0.0721545601163,2.10913696359,-0.827042510361,-0.546061544529,0.0440233127191,0.0360789494186,0.0288835058794,0.0146591057636,0.00829027043006,-0.548905750292,0.57385533306,0.818922370565,0.00607903011579,0.0,0.818919680929,-0.5737635363,-0.0121122871549,0.0,-0.00643122091428,0.0119291676556,-0.999908162961,0.0,0.279288280938,-0.241081646475,0.304862744128,1.0,-0.118551428571,-0.15581044898,2.825
-0.583400792799,-0.527078716007,-0.133068824951,-2.64626780024,-0.0719719083575,2.10924845841,-0.835033337927,-0.540410293302,0.0499518408686,0.0237385754023,0.0378900919929,0.00927167332462,0.00815605935212,-0.533957953971,0.573847170925,0.818928002135,0.00609086534604,0.0,0.818925269539,-0.573754957882,-0.0121407626723,0.0,-0.00644787047101,0.011955136031,-0.999907745589,0.0,0.27752119498,-0.243374964242,0.304852364402,1.0,-0.113194285714,-0.148769632653,2.84
-0.592875567919,-0.526204291727,-0.1326904662,-2.64559496942,-0.0717334142274,2.109377154,-0.844169727331,-0.514491642202,0.0566916734134,0.0239662485688,0.0398783629851,0.0172977551476,0.012566306587,-0.503223681802,0.573996525663,0.818823063823,0.00612581246044,0.0,0.818820723734,-0.573904007641,-0.0121473988731,0.0,-0.00643106585962,0.0119887377617,-0.999907451497,0.0,0.275463107916,-0.246051080433,0.3048589643,1.0,-0.106765714286,-0.140320653061,2.858
-0.601074773563,-0.525252899013,-0.132223373981,-2.64492005487,-0.0714485428902,2.10955183876,-0.852298865427,-0.469186561106,0.0596024494999,0.0270976964007,0.0399483982714,0.0172738381174,0.0143456371679,-0.46553658224,0.573883391279,0.81890224974,0.00614047923287,0.0,0.818899819952,-0.57379030776,-0.0121866527079,0.0,-0.00645645415719,0.0120223863907,-0.999906883877,0.0,0.273725002607,-0.248341443921,0.304844239861,1.0,-0.100694285714,-0.132341061225,2.875
-0.608480199639,-0.52440126533,-0.131835994104,-2.64429470208,-0.0712126381973,2.10971045305,-0.859561901657,-0.459963498915,0.0517578969702,0.025225323549,0.0370175549872,0.0117392028164,0.00641138275014,-0.440194303932,0.573861720898,0.818917353049,0.00615150909201,0.0,0.818914965408,-0.573768402119,-0.0122002894091,0.0,-0.00646161157302,0.0120390737205,-0.999906649783,0.0,0.272134014823,-0.250413685817,0.304839825121,1.0,-0.0949800000001,-0.124830857143,2.891
-0.616008555151,-0.523515707038,-0.131424177002,-2.64358576239,-0.0709446132473,2.10988195672,-0.866787844034,-0.434190534908,0.0479993219177,0.014784273587,0.0387722639132,0.0153279130833,0.0113820169012,-0.410016583399,0.573971489688,0.818840301539,0.00616737408092,0.0,0.818838435689,-0.573878663789,-0.012150818418,0.0,-0.00641037884038,0.0120245378027,-0.999907154457,0.0,0.270525415913,-0.252522393085,0.304862418975,1.0,-0.0889085714286,-0.116851265306,2.908
-0.623347739422,-0.522492077586,-0.130989846844,-2.64280626741,-0.0706342944494,2.1100696359,-0.873978321063,-0.387146490768,0.0516110541503,0.0324785904594,0.0440936922447,0.0225153760253,0.00877286434468,-0.387461385051,0.573961293567,0.818847209666,0.00619900074961,0.0,0.81884572141,-0.57386826151,-0.0121511258716,0.0,-0.00639262880887,0.0120505331745,-0.999906955145,0.0,0.268973310373,-0.254578330196,0.304868081109,1.0,-0.0824800000001,-0.108402285714,2.926
-0.628950761709,-0.521700064735,-0.130577251453,-2.64220359659,-0.0703662585712,2.11022796912,-0.879556931527,-0.366002324972,0.0523039871282,0.0219560079265,0.045749896189,0.0124821114566,0.00908253396319,-0.371332910513,0.573836600657,0.818934524209,0.00620867990973,0.0,0.818933226875,-0.573743673914,-0.0121372758674,0.0,-0.00637756620401,0.0120495393891,-0.999907063306,0.0,0.267802037402,-0.256124265625,0.304875033541,1.0,-0.0771228571429,-0.101361469388,2.941
-0.635467591146,-0.520812941296,-0.130116466655,-2.64150747454,-0.0701029453158,2.11040062766,-0.885786624594,-0.353935616935,0.0471552292841,0.0304080096073,0.0398385145131,0.0202790576133,0.00950753940138,-0.33827399531,0.573895629055,0.818893324012,0.00618690081419,0.0,0.818891951048,-0.573803180466,-0.012109066723,0.0,-0.00636609310206,0.0120159750877,-0.999907540326,0.0,0.266418221348,-0.257922495299,0.304891658228,1.0,-0.0706942857144,-0.092912489796,2.959
-0.641015548313,-0.519936356547,-0.129720333279,-2.64083925049,-0.0697796194683,2.11058588218,-0.891214835112,-0.319026680682,0.0514575658163,0.0199620116876,0.0378634541992,0.0305862839926,0.00673232995092,-0.311754333637,0.573887251824,0.818898783083,0.00624116656883,0.0,0.818898215798,-0.573794750812,-0.0120848254212,0.0,-0.00631522180262,0.0120464393487,-0.999907496358,0.0,0.265261226741,-0.259459217095,0.304898719346,1.0,-0.0646228571429,-0.0849328979593,2.976
-0.645584170361,-0.519206421241,-0.129417267591,-2.64030210909,-0.0695336345664,2.11074578851,-0.895578047692,-0.298044814334,0.0456573001984,0.0228630122665,0.0306550245223,0.0116377923358,0.0125494528155,-0.28631548974,0.57398972297,0.818826631942,0.00628423805641,0.0,0.81882661021,-0.573896977947,-0.0120825500773,0.0,-0.00628712960254,0.0120811935175,-0.999907254081,0.0,0.264231414842,-0.260807407307,0.304894318965,1.0,-0.0589085714286,-0.0774226938777,2.992
-0.650522000121,-0.518408603342,-0.128940046689,-2.63971701573,-0.0692134217126,2.11092495852,-0.900388283687,-0.262192144884,0.0384547552963,0.0249575755568,0.0293824423086,0.020584653044,0.0128053089154,-0.257351705781,0.57390915967,0.81888301329,0.00629554550448,0.0,0.818883191617,-0.573816483223,-0.0120709970273,0.0,-0.00627236740026,0.0120832047951,-0.99990732249,0.0,0.263279619586,-0.262053873532,0.304894683084,1.0,-0.0528371428572,-0.0694431020409,3.009
-0.654726402227,-0.517705636083,-0.128442476754,-2.63920703169,-0.068949938433,2.11107019471,-0.904411020911,-0.234598351104,0.0349229307318,0.0269874401288,0.0272955062523,0.0245837163983,0.00390260305949,-0.221147065879,0.573844885777,0.818928365341,0.00625511051118,0.0,0.818927956572,-0.573752287688,-0.0120855789711,0.0,-0.0063084609229,0.0120579647065,-0.999907400117,0.0,0.262431835009,-0.263164634799,0.304892068253,1.0,-0.0467657142858,-0.0614635102042,3.026
-0.658310367229,-0.517069724091,-0.128033821911,-2.63873791712,-0.068700784633,2.11121088431,-0.907801226628,-0.210727822459,0.0385311162166,0.0236287528387,0.0307397516894,0.0107930101016,0.00499244033071,-0.219020731055,0.573845016037,0.818928363432,0.00624339945064,0.0,0.818927837312,-0.573752537275,-0.0120818106146,0.0,-0.00631209264526,0.0120462123424,-0.999907518851,0.0,0.261714011442,-0.264120897635,0.304892854763,1.0,-0.0410514285715,-0.0539533061226,3.042
-0.66165937682,-0.516443590757,-0.127628861548,-2.63831466118,-0.0684365049973,2.11135455921,-0.910959631762,-0.186249842671,0.0359269963728,0.0210719824134,0.0228920496025,0.0104927265456,0.0106526140919,-0.165679405873,0.573849246062,0.818925345845,0.00625041027391,0.0,0.818924723494,-0.573756377292,-0.0121104776304,0.0,-0.00633148622723,0.0120684363178,-0.999907128251,0.0,0.261045990608,-0.26500183057,0.304876428431,1.0,-0.0349800000001,-0.0459737142858,3.059
-0.664698581994,-0.515915765243,-0.127215011783,-2.63795492166,-0.0681642670005,2.11143855396,-0.913779135423,-0.159340267339,0.0311688737661,0.0204077854492,0.0192995581382,0.016870739307,0.00121388670484,-0.142190425026,0.573870812448,0.818910090964,0.00626900624789,0.0,0.818909354325,-0.573777174919,-0.012164285526,0.0,-0.00636456600975,0.0121147095221,-0.999906358672,0.0,0.260438737787,-0.265774309938,0.304862392883,1.0,-0.0285514285715,-0.037524734694,3.077
-0.667014511024,-0.51553984696,-0.126829258323,-2.63770421395,-0.0679220814115,2.11150857705,-0.915894122739,-0.135441304413,0.0249740661611,0.0249041946545,0.0131218689239,0.0123511470741,0.00374395012077,-0.122820078877,0.57387819363,0.818904837999,0.00627949663434,0.0,0.818904036801,-0.573784122694,-0.0121945051809,0.0,-0.00638318671846,0.0121406994944,-0.999905924746,0.0,0.259989654345,-0.266338603838,0.304852896084,1.0,-0.0228371428572,-0.0300145306124,3.093
-0.669016667478,-0.515203820739,-0.126445273384,-2.63744357717,-0.067684858396,2.11160624206,-0.917623023695,-0.111002488876,0.0187800648893,0.021362078917,0.0108382460142,0.0151593220407,0.002267814096,-0.0962957853693,0.573944081214,0.818858697453,0.00627472278893,0.0,0.818858124914,-0.573850572073,-0.0121506829311,0.0,-0.00634906137518,0.0121121534848,-0.999906488207,0.0,0.259629691494,-0.266828815152,0.304864869672,1.0,-0.0198,-0.0260228571429,3.11
-0.670844662116,-0.514899276136,-0.126158328521,-2.6371984529,-0.0674829892111,2.1116492592,-0.919390364487,-0.0984219142781,0.0186060640626,0.0163236941981,0.0162119155258,0.00403943317921,0.00389359532527,-0.0972525960215,0.573888833772,0.818897251571,0.00629640710493,0.0,0.818896966745,-0.573795246801,-0.0121457607602,0.0,-0.00633340357364,0.0121266586333,-0.999906411695,0.0,0.259279170558,-0.267286370533,0.304874370568,1.0,-0.01944,-0.0255497142857,3.128
-0.672250959799,-0.514667638355,-0.125970211393,-2.63700536501,-0.0673774032784,2.1116885383,-0.920701578316,-0.0892307663087,0.016730723639,0.0150415751782,0.0130456307782,0.015315407306,0.0021527741549,-0.0875356975998,0.573888098439,0.818897854881,0.00628495367245,0.0,0.818897507845,-0.57379473075,-0.0121336519349,0.0,-0.00633007011457,0.0121103244966,-0.999906630768,0.0,0.258999136152,-0.267652110056,0.304884399033,1.0,-0.01914,-0.0251554285714,3.143
-0.673754995142,-0.514367090553,-0.125813525671,-2.63675697746,-0.0673151257654,2.11178425147,-0.922223243002,-0.0867178263954,0.0166942289883,0.0101420174799,0.0151803336787,0.00119138605208,0.0134024342829,-0.0906137725274,0.573801716064,0.818958712452,0.00624218252208,0.0,0.818958161007,-0.573709233994,-0.0120827253415,0.0,-0.00631417700285,0.012045406766,-0.999907515396,0.0,0.258700958719,-0.268075302514,0.304898104887,1.0,-0.0188,-0.0247085714286,3.16
-0.675179884927,-0.514092155726,-0.125703487565,-2.63652902531,-0.0672729719394,2.11184370585,-0.923602974914,-0.080415602683,0.0115878410615,0.00468600210615,0.013451745797,0.00246998349005,0.000633831497706,-0.0832540347373,0.573790252714,0.818966985374,0.00621044759949,0.0,0.818966168491,-0.573698194938,-0.0120641159348,0.0,-0.00631731170855,0.0120086498099,-0.999907937714,0.0,0.258401417496,-0.268479548188,0.304907753294,1.0,-0.01846,-0.0242617142857,3.177
-0.676474748871,-0.513837046669,-0.125648998474,-2.63631770919,-0.0672307543771,2.11189716688,-0.924915588012,-0.0801544714567,0.0130893110784,0.00680461366871,0.00987390888903,0.000674358633742,0.000724120626082,-0.0831213101104,0.573765924192,0.818984051366,0.00620763611095,0.0,0.818983307688,-0.573674092774,-0.0120467385446,0.0,-0.00630504811646,0.0119961893934,-0.999908164687,0.0,0.258119511355,-0.268856893947,0.304915324257,1.0,-0.01814,-0.0238411428571,3.193
-0.677998017331,-0.513522472042,-0.125607135447,-2.63607114218,-0.0671804766357,2.11198250092,-0.926461927149,-0.0849853842291,0.0139160903506,0.00229039870036,0.0114595141901,-0.000286051079494,0.0058319268519,-0.0733479831945,0.573751530698,0.818994087381,0.00621391646738,0.0,0.818993587454,-0.573659983832,-0.0120197154933,0.0,-0.00627952160108,0.0119857186648,-0.999908450888,0.0,0.257784925613,-0.269307588611,0.304919326656,1.0,-0.01776,-0.0233417142857,3.212
-0.679242406969,-0.513243880461,-0.125603069021,-2.63586431163,-0.0671520359057,2.11202728539,-0.927697823149,-0.0782938520656,0.0208108110648,0.000458018841607,0.0150293466017,8.25544693131e-05,0.000954093375451,-0.0779182621761,0.573778571232,0.818975045041,0.00622685286215,0.0,0.818974580761,-0.573686709024,-0.0120392216669,0.0,-0.00628768043817,0.0120077128047,-0.999908135734,0.0,0.257499937264,-0.269680582658,0.304914192886,1.0,-0.01744,-0.0229211428571,3.228
-0.680477282944,-0.512971154423,-0.12560531554,-2.63566198204,-0.0671203836619,2.11205566108,-0.928979920486,-0.0803817676364,0.0119068041065,-7.57635015045e-06,0.014433515374,0.00295999318392,-0.000487537444029,-0.075826478399,0.57376562188,0.818983949089,0.00624893459214,0.0,0.818983538564,-0.573673218787,-0.0120726347126,0.0,-0.00630256897538,0.0120448692292,-0.999907595105,0.0,0.257212464764,-0.270048404398,0.304907614493,1.0,-0.01712,-0.0225005714286,3.244
-0.681782404721,-0.512701518411,-0.125607981333,-2.63546182218,-0.0670958190754,2.11211675587,-0.930231613795,-0.0755019987171,0.0199512610504,0.000827277587589,0.00671189781471,0.00214910417057,0.00510864645701,-0.0679478196275,0.57383222373,0.818937197227,0.00626042389236,0.0,0.818936925862,-0.5737397352,-0.0120737158412,0.0,-0.00629588228015,0.0120554116109,-0.999907510181,0.0,0.256909345384,-0.270439000852,0.304903948051,1.0,-0.01678,-0.0220537142857,3.261
-0.683075489949,-0.51244064347,-0.125601657416,-2.63525225758,-0.0670744914638,2.11217265849,-0.931521634927,-0.0739593156243,0.020903214301,-0.000540901919883,0.0143469284955,0.00140591472422,0.0032266727683,-0.0834276537529,0.573850186548,0.818924585318,0.00626369390929,0.0,0.818924426434,-0.573757813568,-0.0120624235457,0.0,-0.00628449287381,0.0120517479774,-0.999907625994,0.0,0.256612127421,-0.270826469513,0.3049075393,1.0,-0.01644,-0.0216068571429,3.278
-0.684230765287,-0.512186614232,-0.125597479382,-2.63504846944,-0.0670395393477,2.1122024629,-0.932698698986,-0.0693840933641,0.0163176120364,0.00126987192198,0.0139897739135,0.00212228668227,0.00145008959424,-0.0569281327449,0.573854866646,0.818921161943,0.00628247167118,0.0,0.818921152585,-0.573762226834,-0.0120747591704,0.0,-0.00628375185563,0.0120742407221,-0.999907359296,0.0,0.256347363727,-0.271172208158,0.304908751545,1.0,-0.01612,-0.0211862857143,3.294
-0.685427958849,-0.511944000886,-0.125574059464,-2.6348377618,-0.0670007169961,2.11226763767,-0.933886645567,-0.0711192322007,0.0125464882979,0.00293807646615,0.0110993390044,0.000580977641058,0.000353731312807,-0.0733660444055,0.57387314121,0.818908313935,0.00628793033095,0.0,0.818908627463,-0.573780958166,-0.0120340688661,0.0,-0.00624702462932,0.0120555014044,-0.999907815536,0.0,0.256082704474,-0.271531161629,0.304920784076,1.0,-0.01578,-0.0207394285714,3.311
-0.686461059504,-0.51172187871,-0.12553930016,-2.63466286356,-0.0669784570821,2.11232988929,-0.934961091534,-0.0644348474984,0.0175298720473,0.00396540758294,0.00873531172863,-0.00623879751725,0.00196036101914,-0.0664921869856,0.57383308543,0.818936459324,0.00627794210024,0.0,0.818936772299,-0.573741204527,-0.0120141627051,0.0,-0.00623704188727,0.0120355934166,-0.999908117679,0.0,0.255855321192,-0.271837538461,0.304924130262,1.0,-0.01548,-0.0203451428571,3.326
-0.687652963211,-0.511457596438,-0.125484366374,-2.63446078272,-0.0669313439344,2.11235092223,-0.936181068375,-0.0632569256291,0.0150418496687,0.00382896547902,0.00767290151469,0.00213870598671,-0.000534505027362,-0.0638133077029,0.573801631672,0.818958443181,0.00628512013152,0.0,0.818958633051,-0.573709308624,-0.0120471345088,0.0,-0.00626039112881,0.0120601510249,-0.999907675868,0.0,0.255590068585,-0.272178048634,0.304921168735,1.0,-0.01512,-0.019872,3.344
-0.688813812027,-0.511192673445,-0.125453594204,-2.63425961638,-0.0669146027099,2.11240343941,-0.937353720425,-0.0656783311233,0.0177582221802,0.000761119826522,0.00812714179585,0.00463375962607,0.00563021212244,-0.0798300801429,0.573787646918,0.81896833019,0.00627353893732,0.0,0.818968337434,-0.573695316776,-0.0120537418135,0.0,-0.0062726536656,0.0120543499886,-0.999907668969,0.0,0.255329068329,-0.272522819345,0.304919631274,1.0,-0.01476,-0.0193988571429,3.362
-0.689915153814,-0.510948791175,-0.12543442212,-2.63406800674,-0.0668779523796,2.11245934851,-0.938513314319,-0.0677174060411,0.017864071879,-0.000945604660926,0.00960650888545,0.00103748843923,0.000977829007834,-0.0596992510883,0.573751844343,0.818993334186,0.00628383426386,0.0,0.818993531747,-0.573659584829,-0.0120425325986,0.0,-0.00625809265767,0.0120560770225,-0.999907739386,0.0,0.255081930012,-0.272851020272,0.304921554375,1.0,-0.01442,-0.018952,3.379
-0.690999073278,-0.510710829833,-0.125420619964,-2.63388000803,-0.0668517586811,2.11250964394,-0.939579907749,-0.0653278688649,0.0155567507974,-0.00237622184603,0.0057642489924,0.00406025803355,0.00846894233212,-0.05011324729,0.573777099389,0.818975609846,0.00628789278728,0.0,0.818975898688,-0.57368489065,-0.0120362165592,0.0,-0.0062502190468,0.0120559701861,-0.999907789921,0.0,0.254835414945,-0.273175041963,0.304923401823,1.0,-0.01408,-0.0185051428571,3.396
-0.691950696265,-0.510524835172,-0.125413084368,-2.63371993476,-0.0668202288026,2.11254584923,-0.940499360895,-0.0614583513589,0.0124826356817,0.000608591423506,0.008738725185,-0.000226108863796,0.00212349621965,-0.0742921425848,0.573819737435,0.818945635335,0.00630096789799,0.0,0.818946191628,-0.573727650042,-0.0120193883926,0.0,-0.00622830607261,0.0120573480965,-0.99990791004,0.0,0.254616599686,-0.273457395162,0.304930461102,1.0,-0.01378,-0.0181108571429,3.411
-0.692983573804,-0.510301741418,-0.125401072509,-2.63353026572,-0.0667958747027,2.11258724281,-0.941564463526,-0.0546728844799,0.014240540757,0.00102884390938,0.0133944435944,0.00391659481404,0.00306847227087,-0.0534158921462,0.573804903447,0.818956004435,0.00630416374001,0.0,0.818956683468,-0.573712962549,-0.0120055865329,0.0,-0.00621538638768,0.012051933487,-0.999908055709,0.0,0.254382063741,-0.273767988599,0.304937743539,1.0,-0.01344,-0.017664,3.428
-0.694086220781,-0.510065346001,-0.125380510375,-2.63333276586,-0.0667648772358,2.11266229036,-0.942660669843,-0.0620954283322,0.0136846837641,-0.00100765386894,0.0104236995255,-0.000233118893124,0.000765779633798,-0.0543774030008,0.573818864979,0.818946227415,0.00630346708455,0.0,0.81894716101,-0.573727436138,-0.0119634191354,0.0,-0.00618104396295,0.0120272736252,-0.999908565512,0.0,0.254137168155,-0.274100476947,0.304946711233,1.0,-0.01306,-0.0171645714286,3.447
-0.694927083066,-0.509870261777,-0.125349611749,-2.63316563409,-0.0667350118302,2.11268831263,-0.94349384469,-0.0602446664384,0.0138692339988,-0.000974470931412,0.00908855950285,6.26133226973e-05,-0.000200185344734,-0.0596579575696,0.573824450695,0.818942312101,0.00630366064527,0.0,0.818943266777,-0.573733055949,-0.0119604854843,0.0,-0.00617844810494,0.0120257909883,-0.999908599388,0.0,0.253952785446,-0.27434961679,0.304953247979,1.0,-0.01276,-0.0167702857143,3.462
-0.695884169238,-0.509648078344,-0.125310073064,-2.63299736323,-0.0667063924926,2.11273413655,-0.944484858733,-0.0561266323557,0.0109163451725,0.00461776142078,0.0113267919316,0.00493318378112,0.00767186722856,-0.0505796545829,0.573789419477,0.818966889479,0.0062994392612,0.0,0.818967771343,-0.573698015498,-0.0119634199136,0.0,-0.00618378804839,0.0120237529942,-0.999908590887,0.0,0.253740798236,-0.274629166145,0.304952132708,1.0,-0.01242,-0.0163234285714,3.479
-0.69688277529,-0.50940202527,-0.125274594132,-2.6328081362,-0.0666817683251,2.11278408436,-0.945494479798,-0.0553029215779,0.0207641758476,0.00157512277219,0.00992033924455,0.000343030536824,0.000270978346562,-0.0596219606944,0.573775395124,0.818976776839,0.00629141073761,0.0,0.818977545835,-0.573684012077,-0.0119658098817,0.0,-0.00619055784302,0.0120184428108,-0.999908612837,0.0,0.253520467968,-0.274926109377,0.304951919328,1.0,-0.01206,-0.0158502857143,3.497
-0.697685955493,-0.509213720509,-0.125261909639,-2.6326564707,-0.0666587797213,2.11282249805,-0.946275849285,-0.0483506333618,0.0123586795713,0.000728860549678,0.0133977238358,0.000899433830499,0.00689695944474,-0.0544441185845,0.573801822193,0.818958237441,0.00629452745247,0.0,0.818959085604,-0.573710495179,-0.0119595455279,0.0,-0.00618325091121,0.0120176008394,-0.999908668168,0.0,0.253339470622,-0.275167621781,0.304954532709,1.0,-0.01176,-0.015456,3.512
-0.698642343124,-0.508988550816,-0.125239152824,-2.63248209582,-0.0666346833236,2.11286209677,-0.947206429719,-0.0545689548909,0.00923858559514,-0.00158439852658,0.0118200904511,0.000487927388538,0.00318703696536,-0.0483064256804,0.57382601832,0.818941287551,0.0062940563354,0.0,0.818942093145,-0.573734617291,-0.0119659474108,0.0,-0.00618840952264,0.0120210710707,-0.999908594541,0.0,0.253122822465,-0.275451167659,0.304954108407,1.0,-0.0114,-0.0149828571429,3.53
-0.699654795679,-0.508748599689,-0.125217850602,-2.63229442894,-0.0666069881013,2.11289845424,-0.948243823242,-0.0591405970244,0.0121308068056,0.000781596502099,0.00889831991611,-0.000118880565842,0.00398719558109,-0.06414728846,0.573811903483,0.818951148492,0.00629783337857,0.0,0.818951935378,-0.573720357557,-0.0119760497229,0.0,-0.00619472372477,0.0120298543337,-0.999908449811,0.0,0.252892494581,-0.275751502932,0.304953910659,1.0,-0.011,-0.0144571428572,3.55
-0.700288723456,-0.508595870911,-0.125186991438,-2.63217400534,-0.0665911401532,2.1129285734,-0.948874102641,-0.0477042963723,0.00817607200974,0.0034490693574,0.00931209518355,0.003321009223,0.00622709714173,-0.0454159382658,0.573805839441,0.818955467649,0.00628868292947,0.0,0.81895614519,-0.573714352901,-0.0119758270009,0.0,-0.0061998807114,0.0120221864598,-0.999908510071,0.0,0.252753723525,-0.275937744666,0.304955217114,1.0,-0.01074,-0.0141154285714,3.563
-0.701098693079,-0.508402326213,-0.125183598012,-2.6320223637,-0.0665663598691,2.11296455358,-0.949640492545,-0.0484978913742,0.00819889524062,-0.000411816802858,0.00981302265122,0.0012807457244,0.00196750697726,-0.0450920495646,0.573857495233,0.818919196739,0.00629851401341,0.0,0.818919993082,-0.573765937699,-0.0119766676904,0.0,-0.00619416954257,0.0120311112105,-0.999908438122,0.0,0.252567452047,-0.276181806828,0.304955403718,1.0,-0.0104,-0.0136685714286,3.58
