nelsonifechukwu/NELSON_IML_WORK/CNN-GradCAM/train2dof/data_sample_2022-02-22-14-25-58/robot_state.csv
position_joint1,position_joint2,position_joint3,position_joint4,position_joint5,position_joint6,position_joint7,velocity_joint1,velocity_joint2,velocity_joint3,velocity_joint4,velocity_joint5,velocity_joint6,velocity_joint7,ee_T_00,ee_T_10,ee_T_20,ee_T_30,ee_T_01,ee_T_11,ee_T_21,ee_T_31,ee_T_02,ee_T_12,ee_T_22,ee_T_32,ee_T_03,ee_T_13,ee_T_23,ee_T_33,v_x,v_y,time
0.465094703803,0.54773605258,-0.124008081567,-1.3558280416,0.0795382965097,1.89410972882,0.159159701059,0.000147066841351,0.00198744680608,-0.000103250268691,-0.00015052560109,-0.000287304251392,0.000277470046045,0.000296987392465,0.57381248363,0.818972486355,0.00201174691247,0.0,0.818929910928,-0.573753427669,-0.0118975681378,0.0,-0.00858969965109,0.00847461600476,-0.999927196322,0.0,0.661678108449,0.260901087424,0.3032502288,1.0,0.0,0.0,0.0
0.465094624501,0.54772817952,-0.124006649359,-1.35582876274,0.0795389068673,1.89410889894,0.159154919972,0.0012033939012,-0.000156782266763,0.00592669566596,0.00354029505817,8.3941386624e-05,-0.000332373709704,-0.000758331273827,0.57380781368,0.818975742558,0.00201815826496,0.0,0.818933235977,-0.573748717551,-0.0118958405232,0.0,-0.00858465439071,0.00847882636484,-0.999927203957,0.0,0.661677644222,0.260901925497,0.303255344549,1.0,-0.00018,-0.000236571428571,0.01
0.465088624894,0.547729607438,-0.124003510612,-1.35582946675,0.079539614563,1.89410850328,0.15916204074,-0.00323521483824,-0.000600850657542,-7.7654505477e-05,-0.000298177270061,0.000276962663168,-0.000419294016889,0.00082825864937,0.573816591377,0.818969595124,0.0020170829168,0.0,0.818927051692,-0.57375747601,-0.0118991441039,0.0,-0.0085878861693,0.00847993334109,-0.999927166819,0.0,0.661678170479,0.260899757153,0.30325386094,1.0,-0.00046,-0.000604571428571,0.024
0.465085117775,0.547723782835,-0.124001743164,-1.35584187596,0.0795389068673,1.89411196879,0.159161673392,-0.00286703482057,0.000544951053662,0.000738315111373,-0.00099072412306,-0.000139401443871,-0.000214951622197,-0.000950717614382,0.573817318259,0.818969096458,0.00201276298431,0.0,0.818926475615,-0.573758199666,-0.0119038966091,0.0,-0.00859424964996,0.00847913017556,-0.999927118956,0.0,0.66167534205,0.260897144718,0.303253024712,1.0,-0.0008,-0.00105142857143,0.041
0.46508960905,0.547655592368,-0.124005923199,-1.35590624093,0.0795363710951,1.89411958485,0.159159187447,0.00079283669763,-0.00368246961105,-0.000148811806411,-0.00911357131075,6.17926688278e-05,-8.79223589171e-05,-0.000138273775114,0.573818412991,0.818968297658,0.00202564662897,0.0,0.818925843613,-0.573759240426,-0.0118972093048,0.0,-0.00858136899794,0.00848585551578,-0.999927172529,0.0,0.661665217807,0.260891099128,0.303270788465,1.0,-0.00112,-0.001472,0.057
0.465083922304,0.547523049557,-0.124001342505,-1.35607382734,0.0795367605147,1.89414586326,0.159153275305,-0.000128399076943,-0.00540901253129,0.000551873612303,-0.00807573216608,0.000241305814848,0.00193881827359,-0.000345732065794,0.573824229206,0.818964218987,0.00202704127156,0.0,0.818921617598,-0.573764886551,-0.0119157917409,0.0,-0.00859572746591,0.00849772153564,-0.999926948431,0.0,0.661635949152,0.260873680239,0.30328704645,1.0,-0.00146,-0.00191885714286,0.074
0.46507233328,0.547383892007,-0.12400412949,-1.35626986533,0.0795333683026,1.89420035497,0.159146447104,-0.000450156595167,-0.0110198457574,-0.000106093637317,-0.00951911918139,0.000488070243825,0.00568786837921,-0.000769433367579,0.573840011854,0.8189531535,0.00202979528538,0.0,0.818910502128,-0.573780570998,-0.011924460142,0.0,-0.0086010827367,0.00850511677546,-0.999926839506,0.0,0.661609398103,0.260846105968,0.303297131822,1.0,-0.0018,-0.00236571428571,0.091
0.465052386469,0.547202059452,-0.124004156712,-1.35648849712,0.0795275741435,1.89432820301,0.159140474042,0.00011686425946,-0.0120933838319,-0.000785926838418,-0.0124061235525,0.000389295235589,0.00242872895333,-0.000645136664494,0.573862436436,0.818937236691,0.00211028668033,0.0,0.818895636345,-0.573802667024,-0.0118820449558,0.0,-0.00851992497192,0.00854692837698,-0.999927177795,0.0,0.661595108768,0.260817087314,0.303332962766,1.0,-0.00214,-0.00281257142857,0.108
0.465034968983,0.547012275735,-0.12400145949,-1.35671546327,0.079524224136,1.8944521384,0.159124575022,0.000927402999348,-0.0123639518607,-0.00109947103431,-0.013023830095,-0.000232336304219,0.00331639652084,-0.00115996358941,0.573873809923,0.818929057728,0.00218988444191,0.0,0.818888446454,-0.573813674044,-0.0118459548076,0.0,-0.00844457355533,0.00859151969953,-0.999927434851,0.0,0.66157690457,0.260790562285,0.30337002671,1.0,-0.00246,-0.00323314285714,0.124
0.465000495636,0.546788122111,-0.124006255445,-1.35705237543,0.0795197627615,1.894578231,0.159109394705,-0.00166804297393,-0.0171442514835,-0.000467662765122,-0.0224535640749,-0.00140835530104,0.00279933989216,-0.000844226866233,0.573910639667,0.818903197659,0.00220849310222,0.0,0.818862714922,-0.573850310028,-0.0118500081125,0.0,-0.00843682751925,0.00860946415232,-0.999927345895,0.0,0.661541029055,0.260735769517,0.303379525014,1.0,-0.0028,-0.00368,0.141
0.464965443706,0.546524534299,-0.124001044746,-1.35743961589,0.0795093732547,1.89471967048,0.15902917708,-0.000755804708323,-0.0126830150294,0.00147225896021,-0.0210033994455,-0.00130877971856,0.0088156030482,-0.00962975988832,0.573888893495,0.818918371707,0.0022327795371,0.0,0.818878057901,-0.573828320446,-0.0118546127454,0.0,-0.00842689027875,0.00863177095068,-0.999927237378,0.0,0.66149587175,0.260681012726,0.303393974126,1.0,-0.00314,-0.00412685714286,0.158
0.464924200438,0.546232696678,-0.124003796451,-1.35788730034,0.079491919533,1.89488501898,0.158940267171,-0.00368125239748,-0.0163734727402,0.000853228470272,-0.0276208818937,0.000453404461287,0.0128822797387,0.000526927877643,0.57387219591,0.818930037386,0.00224578047656,0.0,0.818889816262,-0.573811495314,-0.0118567942172,0.0,-0.00842139241611,0.00864349770984,-0.999927182397,0.0,0.661446165152,0.260611225637,0.303401968696,1.0,-0.00348,-0.00457371428571,0.175
0.464877133255,0.545949865748,-0.124005192444,-1.35835999312,0.079467010145,1.89505064634,0.158919414092,-0.00181857946306,-0.0209695685911,-0.00108168957662,-0.0322688565569,4.06847968737e-05,0.0148820877779,0.00159399948172,0.573915635648,0.818899656016,0.00222338425628,0.0,0.818859071221,-0.573854944268,-0.0118773448156,0.0,-0.00845061623592,0.00863739856338,-0.99992698855,0.0,0.661386440379,0.260531096087,0.303390468008,1.0,-0.00382,-0.00502057142857,0.192
0.464816483766,0.545594798042,-0.124002002384,-1.35897161137,0.0794112919064,1.89525165266,0.158832637325,-0.00762259476525,-0.0212881435536,0.0024151659251,-0.0354010800644,-0.00115188776739,0.00528725729207,-0.00918889006982,0.573910113082,0.818903672728,0.00216882388613,0.0,0.81886251595,-0.573849781071,-0.0118893076829,0.0,-0.00849178210859,0.00859952806837,-0.99992696621,0.0,0.661319290445,0.26043249986,0.303369154141,1.0,-0.00416,-0.00546742857143,0.209
0.464758848865,0.545237024338,-0.124007344979,-1.35960625677,0.079370694917,1.89546107923,0.158729707017,-0.00605747709292,-0.0212928039338,-0.000962355240013,-0.0376359074104,-0.00467153878396,0.0150034051142,-0.00133765771431,0.573901346791,0.818909974032,0.00210843139903,0.0,0.818868029364,-0.57384125911,-0.0119208527066,0.0,-0.00855236491118,0.0085680854502,-0.999926719798,0.0,0.661243176203,0.260328285774,0.303338650239,1.0,-0.00448,-0.005888,0.225
0.464696785551,0.544811411995,-0.124007703897,-1.36030233064,0.0793466477782,1.89569997881,0.158677550055,-0.00338578507149,-0.0268312700931,-0.000461307949027,-0.041543613257,-0.00130238240842,0.0207282879247,-0.00334723287426,0.573942091981,0.818881462997,0.00209081660736,0.0,0.81883909758,-0.57388188039,-0.0119526790154,0.0,-0.00858811086042,0.0085723530272,-0.999926376848,0.0,0.661159620931,0.26022231845,0.303329320891,1.0,-0.00482,-0.00633485714286,0.242
0.464624329984,0.544367976072,-0.124007721813,-1.36103262557,0.079314414175,1.89595312636,0.15856587262,-0.00405349032415,-0.0277515313058,-0.000282563861686,-0.0435499768646,-0.00163050033877,0.0158284100432,-0.0065777008655,0.573942089086,0.818881521587,0.00206854547297,0.0,0.818838723649,-0.57388182851,-0.0119807537038,0.0,-0.00862388320083,0.00857022894795,-0.999926087176,0.0,0.661074502479,0.260105496072,0.303317489125,1.0,-0.00516,-0.00678171428571,0.259
0.46456119283,0.543903027128,-0.124016109958,-1.36178192659,0.0792791302271,1.89622771174,0.158479125209,-0.00349404366689,-0.0285741938614,-0.00218800917809,-0.0500847918937,-3.71815659008e-05,0.0282167232341,-0.00930216606096,0.573961026136,0.818868262816,0.00206289388195,0.0,0.818825332188,-0.573900728277,-0.0119906776524,0.0,-0.00863505532956,0.00857149644545,-0.999925979895,0.0,0.660989428621,0.259988980517,0.303313921519,1.0,-0.00548,-0.00720228571429,0.275
0.464474795119,0.543351312324,-0.124011637166,-1.36267200521,0.0792313492616,1.89653828484,0.158349192552,-0.00781593480089,-0.0363000121844,-0.00476926250583,-0.0484739187668,-0.00691735217271,0.0182399719063,-0.00666846090673,0.573959009485,0.818869724519,0.00204367277116,0.0,0.81882642784,-0.573898678684,-0.012013932618,0.0,-0.00866515142131,0.00856908312176,-0.999925740225,0.0,0.660885092049,0.259849393694,0.303307363828,1.0,-0.00584,-0.00767542857143,0.293
0.464407012039,0.542841414105,-0.124014123056,-1.36349837695,0.0791789721941,1.89683088366,0.158273221294,-0.00306366077309,-0.0360782381596,0.000848599127538,-0.0514939184178,-0.0097386579562,0.0134440873806,-0.00305185237384,0.573986021648,0.818850847748,0.00202064248952,0.0,0.818807259195,-0.57392579384,-0.0120250719251,0.0,-0.00868720875095,0.00855690467992,-0.999925653129,0.0,0.66078762502,0.25972313551,0.303300142886,1.0,-0.00616,-0.008096,0.309
0.464326744503,0.542240075026,-0.124012272983,-1.36443017995,0.0791272690255,1.89716288326,0.158136509741,-0.00499844865619,-0.0379717154061,0.00177136034222,-0.0567117693606,0.000502206066912,0.0169376542337,-0.00822206544101,0.573976435817,0.818857555256,0.00202539587624,0.0,0.818813950251,-0.573916111611,-0.0120315671809,0.0,-0.00868989966938,0.00856442333772,-0.999925565378,0.0,0.660678211903,0.259582619656,0.303310627074,1.0,-0.0065,-0.00854285714286,0.326
0.464241282192,0.541611667317,-0.124025453482,-1.36538624218,0.0790681224712,1.89751780533,0.158008770103,-0.00393483240119,-0.0448330476953,-0.0017184602906,-0.0596237291651,-0.00346057615153,0.0245676815748,-0.00532278066719,0.57398836094,0.818849148328,0.00204467340961,0.0,0.818805870834,-0.573928028274,-0.0120129576541,0.0,-0.00866347156419,0.00856965345804,-0.999925749893,0.0,0.660573546322,0.2594277968,0.303331091897,1.0,-0.00684,-0.00898971428571,0.343
0.464150291332,0.540951406379,-0.124020534671,-1.36639972161,0.0790130144303,1.89789960476,0.157876838477,-0.00488389533249,-0.0417652614757,-0.000496269432623,-0.0579816892514,-0.000422799936488,0.0220445831353,-0.0119070269161,0.573992941791,0.818845865495,0.0020732191587,0.0,0.818802883164,-0.573932411363,-0.0120071899299,0.0,-0.00864231655068,0.00858976547471,-0.999925760391,0.0,0.660458723036,0.259275900582,0.303348405272,1.0,-0.00718,-0.00943657142857,0.36
0.464066196381,0.540294062756,-0.124023678266,-1.36740241753,0.0789440896287,1.89826440094,0.157749744763,-0.0106588004789,-0.0458607750475,0.000819622869572,-0.0621826959792,0.000156180452743,0.0192661672522,-0.00676499948585,0.573997019686,0.818842977927,0.00208465637317,0.0,0.818800221126,-0.573936516656,-0.0119924823842,0.0,-0.00862366560329,0.00859073164473,-0.999925913116,0.0,0.660343568647,0.259121750267,0.303367452808,1.0,-0.0075,-0.00985714285714,0.376
0.463969270683,0.539558551798,-0.124028888204,-1.36855205948,0.0788810204081,1.89870374942,0.157606710851,-0.00325583023022,-0.0473646375567,-0.000986224159825,-0.0692026978979,-0.00569898803747,0.0317674389768,-0.0082509806673,0.574009808046,0.818833955477,0.00210725558973,0.0,0.818791471942,-0.573949187571,-0.0119834245134,0.0,-0.00860314289786,0.00860417176769,-0.99992597434,0.0,0.66021466175,0.258947520602,0.30337825561,1.0,-0.00784,-0.010304,0.393
0.463868110376,0.538806860492,-0.124030429032,-1.36972363408,0.0788174342235,1.89914768877,0.157463741277,-0.00557036428162,-0.0465424373371,-0.000373363844834,-0.0709584155971,-0.000927537734912,0.0302958213241,-0.006207054955,0.574024496979,0.81882359835,0.00213038843647,0.0,0.818781364587,-0.573963726498,-0.0119776696928,0.0,-0.00858499819962,0.00861996413251,-0.999925994274,0.0,0.660082074027,0.258770471241,0.303390205556,1.0,-0.00818,-0.0107508571429,0.41
0.46377180821,0.538060562712,-0.124037787999,-1.37086184292,0.078748435028,1.89958033309,0.157312296732,-0.00515217169419,-0.0437282461313,-0.000537135660048,-0.0743378340737,-0.00595776294804,0.0346198818852,-0.00604998442139,0.574028939,0.818820399385,0.00216278610183,0.0,0.818778635397,-0.573968082039,-0.011955497432,0.0,-0.00854819957068,0.0086338107868,-0.999926190074,0.0,0.659954956323,0.258595515933,0.303413294726,1.0,-0.0085,-0.0111714285714,0.426
0.463659657936,0.537216559547,-0.124041775595,-1.37220461478,0.0786715756285,1.90008006372,0.157162208346,-0.00619716787581,-0.0451935459268,-0.000451096193032,-0.0761469866036,-0.00297458361075,0.0278377196861,-0.00894285754379,0.574054185326,0.818802697707,0.00216366309154,0.0,0.818760916327,-0.573993292467,-0.0119586370403,0.0,-0.00855000078184,0.00863659470047,-0.999926150632,0.0,0.659799902102,0.258392346362,0.303413597013,1.0,-0.00886,-0.0116445714286,0.444
0.463540426269,0.536380618388,-0.124039712425,-1.37352341602,0.0785995710477,1.90057998408,0.156995564959,-0.000649674455727,-0.0464849048199,0.000575130848675,-0.0771773913117,-0.0106031576557,0.0319909642456,-0.0129208019044,0.574067333129,0.81879343194,0.0021816845161,0.0,0.818751809342,-0.574006287659,-0.0119583998621,0.0,-0.00853932304209,0.00865135142762,-0.999926114311,0.0,0.659650099114,0.258191568768,0.303419283979,1.0,-0.0092,-0.0120914285714,0.461
0.463436899786,0.535557162852,-0.124048881304,-1.37480583305,0.0785226424421,1.90104114751,0.156843640419,-0.00857096173141,-0.0498209519639,-0.000685813990419,-0.0806591719801,-0.00898472827041,0.0249458413499,-0.0020370368796,0.574083925434,0.818781798596,0.00218168453096,0.0,0.818740184351,-0.57402288633,-0.0119575665769,0.0,-0.00853846540903,0.00865104611361,-0.999926124276,0.0,0.659499163198,0.257995385976,0.303430307658,1.0,-0.00952,-0.012512,0.477
0.463311878395,0.534665246561,-0.124048897856,-1.3762517987,0.0784394897502,1.90156092072,0.156669264828,-0.00939286270002,-0.0466451091949,-0.000754434563439,-0.0870276339942,-0.00674991379681,0.0350932483695,-0.0131836271518,0.574100543825,0.818770219969,0.00215392029867,0.0,0.818728161438,-0.574039533803,-0.0119815775276,0.0,-0.00857388853769,0.00864227177101,-0.999925897041,0.0,0.659327206256,0.257774808919,0.303416433875,1.0,-0.00986,-0.0129588571429,0.494
0.463192054935,0.533749565629,-0.124054563705,-1.37773797495,0.0783555434693,1.90209649043,0.15649031669,-0.00915300339851,-0.0523074979529,-0.0004960762355,-0.0882498627261,-0.00952349976701,0.0278170609958,-0.0065639629738,0.574114995749,0.818760161893,0.00212505391877,0.0,0.818717656744,-0.57405403357,-0.0120046648257,0.0,-0.00860921129654,0.0086320434538,-0.999925681892,0.0,0.659149298199,0.257550879705,0.303401563307,1.0,-0.0102,-0.0134057142857,0.511
0.463058261204,0.532814624102,-0.124052452401,-1.37923605513,0.0782820302739,1.90267913138,0.15628552036,-0.00858098948342,-0.060583248277,-0.000744068628852,-0.0918278941399,-0.00827466251799,0.0329360029595,-0.00522898140878,0.574117852233,0.818758095402,0.0021493865132,0.0,0.818715762583,-0.574056642172,-0.0120091039709,0.0,-0.00859884704464,0.00865454422404,-0.999925576577,0.0,0.658979388144,0.257325980802,0.303398270672,1.0,-0.01054,-0.0138525714286,0.528
0.46293389235,0.531900781937,-0.124055290047,-1.38068831097,0.0781836544023,1.90321644431,0.156106334443,-0.0109798239845,-0.0639647518824,-0.000567045670407,-0.0893037422622,-0.00736604821253,0.0358134872011,-0.0117541238058,0.574127817607,0.818751129598,0.00214096548493,0.0,0.818708775497,-0.574066730552,-0.0120031953271,0.0,-0.00859873822901,0.00864436199874,-0.99992566559,0.0,0.658810242888,0.257102536982,0.303397894135,1.0,-0.01086,-0.0142731428571,0.544
0.462795373484,0.530899886834,-0.12405288963,-1.38230439371,0.0781008956364,1.90378617195,0.155898475457,-0.010225627747,-0.0591255519474,0.000460422065025,-0.0969770181641,-0.00176675483822,0.0334615731291,-0.0136491193031,0.57413508265,0.818746113113,0.00211093221549,0.0,0.818703149575,-0.574073903045,-0.0120438208338,0.0,-0.00864916692193,0.00864317333105,-0.999925240939,0.0,0.658612813075,0.256859253551,0.303383386117,1.0,-0.0112,-0.01472,0.561
0.46265515714,0.529867612033,-0.124058372937,-1.38394403702,0.0779914279632,1.90437351138,0.155685180126,-0.0072991292303,-0.0630026091773,0.00267579879066,-0.0950561777145,-0.0139779578422,0.034617070658,-0.0109288895058,0.574138703148,0.818743636101,0.00208681413829,0.0,0.818700422991,-0.574077690693,-0.0120486241637,0.0,-0.00866690778123,0.00862622315132,-0.999925233697,0.0,0.658417470604,0.256604807901,0.303381272246,1.0,-0.01154,-0.0151668571429,0.578
0.462523765053,0.528864461446,-0.124066542203,-1.38550019542,0.0778953257631,1.90496343678,0.155479709412,-0.0104202271825,-0.064713360342,-0.00141188576087,-0.0963361248749,-0.00658654739115,0.0410216793185,-0.0139141502436,0.57413874531,0.818743555609,0.00210669958152,0.0,0.818700612404,-0.574077658691,-0.012037273032,0.0,-0.00864619702482,0.00863598734261,-0.999925328712,0.0,0.658223770474,0.256353157431,0.303390651585,1.0,-0.01188,-0.0156137142857,0.595
0.462380941743,0.527763805279,-0.124061976923,-1.38722796239,0.0777888810521,1.90562942992,0.155229478712,-0.00726384570845,-0.0650499439979,0.0005471790196,-0.104089280349,-0.00444326559274,0.0330768865549,-0.0150169544607,0.574116445358,0.818759090268,0.00214619970571,0.0,0.818716719576,-0.574055252523,-0.0120102888803,0.0,-0.00860166159215,0.00865260053169,-0.999925569191,0.0,0.658037388481,0.256112451572,0.303408577688,1.0,-0.0122,-0.0160342857143,0.611
0.462239748517,0.526610175871,-0.12406697514,-1.3890070836,0.0776803154561,1.9063045342,0.154988430327,-0.0101774820304,-0.064111665768,-3.10229089765e-05,-0.109331025012,-0.00559178105056,0.0410154381445,-0.0118593442794,0.574105215143,0.818766859121,0.00218614998305,0.0,0.818725044486,-0.574043892957,-0.0119857161602,0.0,-0.00855872590997,0.00867108484219,-0.999925777495,0.0,0.657828739482,0.255848842377,0.303432334793,1.0,-0.01254,-0.0164811428571,0.628
0.462089922951,0.525437678735,-0.124073051232,-1.39084388838,0.0775583437547,1.90696542869,0.15473730782,-0.0054889188801,-0.0681077940983,-0.00248450301298,-0.108824984863,-0.0136439883021,0.0414416299817,-0.0189358571019,0.574092571754,0.818775750465,0.00217632907416,0.0,0.818733876389,-0.57403136123,-0.0119826073234,0.0,-0.00856195200691,0.0086611269473,-0.999925836179,0.0,0.65760683132,0.255569261925,0.303440398573,1.0,-0.01288,-0.016928,0.645
0.461926153453,0.524259389156,-0.124073713246,-1.39271269512,0.0774392352852,1.90763189434,0.154484873615,-0.0111458638809,-0.0660035677511,0.00144139831294,-0.114733138932,-0.0118555644035,0.0395704174572,-0.0163765929647,0.574088690722,0.818778533976,0.00215276255611,0.0,0.818736338285,-0.574027564012,-0.0119962922217,0.0,-0.00858672683354,0.00864964715996,-0.999925723105,0.0,0.657380243062,0.25528082218,0.303437321988,1.0,-0.01322,-0.0173748571429,0.662
0.461773887987,0.523062860049,-0.124074461123,-1.39463751257,0.077322802829,1.90835327167,0.154219411174,-0.0119365266393,-0.0685912731916,-0.000722985517164,-0.112245429286,-0.00214347652737,0.044600823992,-0.0251102373682,0.574068557573,0.818792669758,0.00214524088259,0.0,0.818750351915,-0.574007440562,-0.0120027629529,0.0,-0.00859655560464,0.00864699202424,-0.999925661617,0.0,0.657148245189,0.254997652613,0.30342489096,1.0,-0.01356,-0.0178217142857,0.679
0.461623372234,0.521889827707,-0.124077621909,-1.39647836184,0.0772103266133,1.90907439988,0.153981191624,-0.00516285338661,-0.0761370511694,-0.0010949797485,-0.112597819566,-0.00446416388332,0.0498728935416,-0.0193167349372,0.574067466817,0.818793323723,0.00218711471781,0.0,0.818751606046,-0.574006230944,-0.0119750296524,0.0,-0.00854982146551,0.00866534546018,-0.999925903425,0.0,0.656934636911,0.254724522789,0.303435629396,1.0,-0.01388,-0.0182422857143,0.695
0.461448083918,0.520653227893,-0.124085459767,-1.39848824784,0.0770814428301,1.90983007638,0.153702184762,-0.0105598998909,-0.0704735481222,-0.000449561933677,-0.121052729644,-0.00394099506163,0.0460628292009,-0.0118337920773,0.574060776043,0.818798075176,0.00216434705464,0.0,0.818756134167,-0.573999709317,-0.0119780369628,0.0,-0.00856542394028,0.00864836012954,-0.999925916946,0.0,0.656697358255,0.254412927519,0.303413418589,1.0,-0.01422,-0.0186891428571,0.712
0.461284007312,0.519326776089,-0.124082273726,-1.40055560956,0.0769561216165,1.91057164295,0.153430729171,-0.00968495594504,-0.0790988102295,0.00034015658745,-0.118693762385,-0.0169211132904,0.0438787057321,-0.0142370868319,0.574046688601,0.818807945966,0.00216652498557,0.0,0.818765947651,-0.57398552811,-0.0119868006355,0.0,-0.00857149864694,0.00865502673073,-0.999925807209,0.0,0.656439785343,0.254109169853,0.303424960762,1.0,-0.01456,-0.019136,0.729
0.461101614535,0.51797170606,-0.12409436724,-1.40266006039,0.0768179823534,1.91132893193,0.153145890414,-0.00777134599528,-0.0816641853611,-0.00200724833523,-0.125054651635,-0.0118367725838,0.0486175006202,-0.0125097968303,0.574045613056,0.818808702427,0.00216560874554,0.0,0.818766776856,-0.573984542013,-0.01197737653,0.0,-0.00856431908074,0.00864885546278,-0.999925922125,0.0,0.656185404668,0.253779517749,0.30344036096,1.0,-0.0149,-0.0195828571429,0.746
0.460921807118,0.516632077144,-0.124093966269,-1.40478973466,0.0766802411144,1.91210708644,0.152839221128,-0.00447567217809,-0.074021790893,-0.000432223413188,-0.12661647296,-0.0152077981305,0.047895513784,-0.0183027351003,0.574016935002,0.818828846235,0.00215076848939,0.0,0.818786740466,-0.573955942429,-0.0119831835641,0.0,-0.00857789516783,0.0086397373637,-0.99992588458,0.0,0.655924515741,0.253457176328,0.303433960202,1.0,-0.01524,-0.0200297142857,0.763
0.460744748766,0.515329707431,-0.124100310331,-1.40684136055,0.0765544559392,1.91289087654,0.152575019918,-0.0112013186542,-0.0779120023215,-0.000474784651576,-0.126837346456,-0.011311985106,0.0527650679823,-0.0196630132888,0.574024636338,0.818823379868,0.00217631807461,0.0,0.818781647346,-0.573963577823,-0.0119654587161,0.0,-0.0085486346267,0.00865056393656,-0.99992604156,0.0,0.655681713061,0.253143798741,0.303438890241,1.0,-0.01556,-0.0204502857143,0.779
0.460546399241,0.513858117138,-0.124106724565,-1.40922008623,0.076405735982,1.91372750576,0.152247129769,-0.00985410851363,-0.086916021495,-0.00154843150278,-0.132688878073,-0.00776473172701,0.0478026845552,-0.0145589478384,0.574007947957,0.818835244591,0.002113007077,0.0,0.818792630874,-0.573947098427,-0.0120042798309,0.0,-0.00861693903344,0.00862083263381,-0.999925712044,0.0,0.655382025383,0.252779845855,0.303410951259,1.0,-0.01592,-0.0209234285714,0.797
0.460356557209,0.512546361066,-0.124106380939,-1.41136802121,0.0762863299992,1.91447035945,0.15195219649,-0.00968576222468,-0.0819083397576,-0.00177276000773,-0.133036974771,-0.00793020908365,0.0451002113232,-0.0163435286091,0.574001998265,0.818839599345,0.00204044905304,0.0,0.818795798926,-0.573941219711,-0.0120690877681,0.0,-0.0087117169018,0.00859855715756,-0.999925082595,0.0,0.655108114047,0.252449130612,0.303372121659,1.0,-0.01624,-0.021344,0.813
0.460160908396,0.511094734857,-0.124110531902,-1.41366651789,0.0761459321976,1.91534290249,0.151624114361,-0.00812638506072,-0.0849462272535,0.000663322757297,-0.131114445625,-0.00527526921168,0.0517425441161,-0.0136534241148,0.573979045329,0.818855640759,0.002059616853,0.0,0.818812098583,-0.573918195166,-0.0120581661874,0.0,-0.00869201316091,0.00860773963998,-0.999925175063,0.0,0.654830727061,0.252101367674,0.303370489095,1.0,-0.01658,-0.0217908571429,0.83
0.45996014398,0.509624608141,-0.124118818904,-1.41601311869,0.0759920661322,1.91622753045,0.151295567697,-0.010782832175,-0.0871647685416,-0.000887458193537,-0.134709735499,-0.0119396215102,0.0438602778604,-0.0229445237574,0.573961197762,0.818868157363,0.002056993393,0.0,0.818824689993,-0.573900469079,-0.0120468066197,0.0,-0.00868440406732,0.00859888208911,-0.999925317388,0.0,0.654546779315,0.251741118368,0.303359608144,1.0,-0.01692,-0.0222377142857,0.847
0.459765944092,0.508213442336,-0.124121296723,-1.41824200051,0.0758543855529,1.91702103582,0.150979947181,-0.00806563129839,-0.0928509899811,0.00030407613121,-0.14516618258,-0.00425803565342,0.0466632659942,-0.0132558049924,0.573942012952,0.818881656795,0.00203588673527,0.0,0.81883784383,-0.573881308057,-0.0120655159654,0.0,-0.00871204009492,0.00859213305027,-0.999925135001,0.0,0.654266436203,0.251398305616,0.303354927987,1.0,-0.01724,-0.0226582857143,0.863
0.4595505374,0.50667588798,-0.124127374065,-1.42064651826,0.0757031185859,1.91789854352,0.150644600144,-0.0166966399782,-0.086705985412,-0.00369827113767,-0.140379532818,-0.00693235060883,0.0484054423165,-0.0224047217146,0.573931740618,0.818888842577,0.00204144934264,0.0,0.818845104205,-0.573871015011,-0.0120623526382,0.0,-0.00870636500879,0.00859476332112,-0.999925161826,0.0,0.653970133764,0.251023902961,0.303361933767,1.0,-0.01758,-0.0231051428571,0.88
0.459333912108,0.505073027269,-0.124131177702,-1.42309833409,0.0755468386745,1.91884556852,0.150310512564,-0.0163850714615,-0.0902030191233,-0.000222007656875,-0.142529836015,-0.00390789099552,0.054015282882,-0.0153117032099,0.573922800056,0.818894910703,0.0021193634652,0.0,0.818852287655,-0.573861842309,-0.0120109885282,0.0,-0.00861968151117,0.00862899192423,-0.999925618028,0.0,0.65367716807,0.250649202929,0.303397421095,1.0,-0.01792,-0.023552,0.897
0.459107313761,0.503403395058,-0.124132343511,-1.42558976297,0.0753965385516,1.91978430948,0.14996774375,-0.01223251499,-0.0966883000378,0.000995916861787,-0.149714517969,-0.00513183967838,0.0516902548873,-0.017919225993,0.573916110457,0.818899330152,0.00222084142456,0.0,0.818858014323,-0.573854716979,-0.0119608980356,0.0,-0.00852049510814,0.0086832730571,-0.999925998228,0.0,0.653375317963,0.250266211911,0.303459234522,1.0,-0.01826,-0.0239988571429,0.914
0.458877998081,0.501713687296,-0.12414109313,-1.42809828883,0.0752339457332,1.92070391314,0.149621990481,-0.0118906517752,-0.0977959196232,-8.20116097257e-06,-0.150948290894,-0.0113353962018,0.0491237431686,-0.0172807595295,0.573911374764,0.818902424771,0.00230206895158,0.0,0.81886224752,-0.573849736592,-0.0119099244914,0.0,-0.00843218672912,0.00872048639024,-0.999926422965,0.0,0.65306800583,0.249872127246,0.303524815396,1.0,-0.0186,-0.0244457142857,0.931
0.458654379615,0.50009746521,-0.12413882568,-1.43054931663,0.075072807024,1.92156182684,0.149272428781,-0.0153862168302,-0.0940759770742,0.00137865298478,-0.151696506486,-0.00501057372779,0.0554949475005,-0.0213477809899,0.57388770711,0.818918961461,0.00231971741546,0.0,0.818878987206,-0.573825974003,-0.0119038974021,0.0,-0.00841737525309,0.0087312363369,-0.999926453948,0.0,0.652755196895,0.24949029586,0.303560198486,1.0,-0.01892,-0.0248662857143,0.947
0.45840783248,0.498415145537,-0.1241441352,-1.43316656493,0.0749122844518,1.92254272096,0.148897802054,-0.018607279134,-0.0920547002987,-0.0012542068069,-0.15780591178,-0.0053872726542,0.0648138186538,-0.02467029923,0.57387657014,0.818926658884,0.0023572263203,0.0,0.818887166043,-0.57381468319,-0.0118855183423,0.0,-0.00838091810964,0.00875129137126,-0.999926584861,0.0,0.652434905113,0.249078641025,0.303572957205,1.0,-0.01926,-0.0253131428571,0.964
0.458146922586,0.496746018888,-0.124142604999,-1.4358391812,0.0747454374645,1.92349989389,0.148503311028,-0.0184035930875,-0.0961399208263,0.000420486928375,-0.16073148377,-0.0164758883387,0.0548241903407,-0.0218758866951,0.573856358711,0.818940936259,0.0023171939349,0.0,0.818900823014,-0.573794529592,-0.0119174988318,0.0,-0.00843029675663,0.00873665271254,-0.999926297782,0.0,0.652097274361,0.248652475535,0.30354733338,1.0,-0.0196,-0.02576,0.981
0.457877886413,0.495070756751,-0.12414196156,-1.43855331971,0.0745733180548,1.92443174228,0.148112897408,-0.0187137190008,-0.0934936930502,-0.000300298387247,-0.155919592227,-0.0163643977274,0.0548405688151,-0.0119843154347,0.573846630348,0.818948008325,0.00222517411754,0.0,0.818906551229,-0.573785026417,-0.0119812651814,0.0,-0.00853542600114,0.00869778577348,-0.999925744756,0.0,0.651745894483,0.248213315254,0.303503452029,1.0,-0.01994,-0.0262068571429,0.998
0.457582837265,0.493228965122,-0.124184623592,-1.44142475614,0.0743963236924,1.92546825328,0.147704948099,-0.0207575297631,-0.139431534741,-0.00467846963348,-0.208054269496,-0.00562647630599,0.0759384583493,-0.0368430482937,0.57388136603,0.818923674979,0.00222242721615,0.0,0.818882281422,-0.5738198702,-0.0119713256932,0.0,-0.00852849333424,0.00869019432421,-0.999925869914,0.0,0.651396757543,0.2477217208,0.303510273699,1.0,-0.0312788571429,-0.041109355102,1.014
0.457229554243,0.490113304666,-0.124262945029,-1.44617277918,0.0741386724508,1.92729683596,0.146994945101,-0.0236671407181,-0.199574593254,0.0018600238411,-0.323570473453,-0.0162827753844,0.118005624645,-0.0417251065379,0.573814777553,0.818969862865,0.00238991255118,0.0,0.818930726048,-0.573752697841,-0.0118766390406,0.0,-0.00835555154283,0.00877233270449,-0.999926612776,0.0,0.650807700022,0.247006202031,0.30357873998,1.0,-0.0460542857143,-0.0605284897959,1.031
0.456623269701,0.48581808285,-0.124306082182,-1.45296114307,0.0737860056371,1.92990434476,0.145972090229,-0.0400426799133,-0.279702949345,-0.0014455125644,-0.437422423104,-0.0313595895803,0.17280419863,-0.067965904333,0.573748736969,0.819015773754,0.00250919696161,0.0,0.818977793316,-0.573685784623,-0.0118634513548,0.0,-0.00827702252142,0.00886178743842,-0.999926477108,0.0,0.649961977659,0.245958216027,0.303559788303,1.0,-0.0608297142857,-0.0799476244898,1.048
0.455784176111,0.480289882441,-0.124476879016,-1.46180418752,0.0732479405928,1.93302838216,0.144616675301,-0.0552178820139,-0.353327330236,-0.0150100311735,-0.563427737119,-0.0335378441505,0.200831951401,-0.0855690086505,0.573738089126,0.819023792713,0.0023192579111,0.0,0.818983514639,-0.573676068196,-0.0119381082856,0.0,-0.00844725460215,0.00874894987535,-0.999926047148,0.0,0.648833622887,0.244463780199,0.303462076019,1.0,-0.0756051428571,-0.0993667591837,1.065
0.454710965307,0.473421895725,-0.1246392427,-1.47259064621,0.0726003714705,1.93676633392,0.143045531679,-0.0694645434583,-0.427873072418,-0.0103802149563,-0.66995802945,-0.0371887359761,0.229318573005,-0.0987398736956,0.573794653546,0.818984613242,0.00215539719673,0.0,0.818942017223,-0.573733115648,-0.0120428957094,0.0,-0.00862648962241,0.00867546152901,-0.999925157221,0.0,0.647428751338,0.242636101938,0.303411581306,1.0,-0.0903805714286,-0.118785893878,1.082
0.453507649725,0.465837172094,-0.124767130309,-1.48409893626,0.0719371338034,1.94105446921,0.141240644211,-0.0814013815069,-0.502998460757,-0.00877581691143,-0.760846008074,-0.0464016157606,0.284117420992,-0.122899005913,0.573765661234,0.819004020881,0.00247521101016,0.0,0.818965486279,-0.57370271861,-0.0118941096762,0.0,-0.0083214485776,0.00885171451466,-0.999926197598,0.0,0.645976858925,0.240705080955,0.303546731823,1.0,-0.104286857143,-0.137062726531,1.098
0.451883958688,0.456236606372,-0.124890771858,-1.49912804152,0.0709912399868,1.9463152871,0.138905234191,-0.0925494046508,-0.564952370539,-0.00630280206085,-0.870341410452,-0.0550812621743,0.293156788565,-0.134186848035,0.573717176286,0.819038429393,0.00232372844421,0.0,0.818997528674,-0.57365443524,-0.0120159833505,0.0,-0.0085086988215,0.00879707326218,-0.999925103968,0.0,0.643976342685,0.238141919571,0.303463604819,1.0,-0.119931428571,-0.157624163265,1.116
0.450177657472,0.446408119598,-0.125071930755,-1.51395050192,0.0699618394202,1.95159399923,0.136572604011,-0.108070587735,-0.636772390566,-0.0139822977306,-0.956712943668,-0.067589124379,0.343455018149,-0.14924894283,0.573729262651,0.819029446733,0.00249909251615,0.0,0.818991725987,-0.57366676998,-0.0118210273273,0.0,-0.0082482819451,0.00882897537063,-0.999927004855,0.0,0.642034318247,0.23551338639,0.303614712576,1.0,-0.133837714286,-0.175900995918,1.132
0.448128546149,0.435053518083,-0.125193135975,-1.53137824791,0.0688350913607,1.95755638993,0.133806956379,-0.128741743623,-0.699432112652,-0.00694062305524,-1.03226874666,-0.0673482174952,0.364292872668,-0.178201107021,0.573696135087,0.81905292881,0.00240651087813,0.0,0.81901335655,-0.573633320952,-0.0119449482129,0.0,-0.00840325178001,0.00882390506297,-0.999925759274,0.0,0.639632084035,0.23245355605,0.303602515074,1.0,-0.148613142857,-0.195320130612,1.149
0.445775817922,0.422522568025,-0.125351415939,-1.55023897849,0.0675441518676,1.96414910101,0.130669937709,-0.14405329444,-0.767446959106,-0.00685795796915,-1.14056350805,-0.0769246507091,0.391366894035,-0.193534774283,0.573625847249,0.819101590179,0.00259214856643,0.0,0.819064654802,-0.573562559623,-0.0118249039958,0.0,-0.00819919615993,0.0089063793194,-0.99992672211,0.0,0.637046289789,0.22905299859,0.303730722356,1.0,-0.163388571429,-0.214739265306,1.166
0.443281973215,0.409798898629,-0.125510207311,-1.56912501305,0.0661751178361,1.97086453741,0.127524967329,-0.160638745283,-0.798326876351,-0.00727933351307,-1.22249083892,-0.0832965581043,0.419982666005,-0.201809757048,0.573611114299,0.819110608216,0.00297455255194,0.0,0.819079558148,-0.573547548178,-0.0115166967871,0.0,-0.0077275499661,0.00904267456651,-0.999929255002,0.0,0.634277205154,0.225339425137,0.303945606024,1.0,-0.178164,-0.2341584,1.183
0.440279803824,0.395387488892,-0.125697617892,-1.59060256715,0.0647606998374,1.97819656679,0.123873961801,-0.179697141185,-0.879527038432,-0.00789683892032,-1.28124431846,-0.0871836617149,0.456054482679,-0.218695233813,0.573693380645,0.819052037131,0.00322682152236,0.0,0.819023632164,-0.573628284951,-0.0114729055705,0.0,-0.00754605586857,0.00922495067503,-0.999928976141,0.0,0.631399132037,0.221524961023,0.304082340803,1.0,-0.192070285714,-0.252435232653,1.199
0.436944142545,0.380145456269,-0.125876898948,-1.61341821936,0.063026707644,1.9858315976,0.119833595522,-0.203794829205,-0.931300021464,-0.015396600269,-1.35902336428,-0.10677579613,0.461033636943,-0.242845084509,0.573633959576,0.819093796205,0.00319066464908,0.0,0.81906542462,-0.573569590603,-0.0114237397416,0.0,-0.00752719105705,0.00916658464193,-0.999929655086,0.0,0.628066001986,0.217125511811,0.304109356621,1.0,-0.206845714286,-0.271854367347,1.216
0.433254384231,0.364009129462,-0.126046012007,-1.63741241875,0.0612362643275,1.99377543034,0.115536127784,-0.222834440476,-0.97297343807,-0.00538670568946,-1.41833637956,-0.104896752018,0.480512260122,-0.247458472431,0.573631566173,0.819095385932,0.00321277681434,0.0,0.819067219862,-0.573567034407,-0.0114233660046,0.0,-0.00751422818876,0.00918446033487,-0.999929588553,0.0,0.624476599134,0.212428719383,0.304137365269,1.0,-0.221621142857,-0.291273502041,1.233
0.429115115897,0.347034689119,-0.126261460611,-1.66259515802,0.0593219282974,2.00193190193,0.110808435292,-0.258269085358,-1.01499657458,-0.0146414706895,-1.46158292965,-0.0998466392007,0.472168146645,-0.285029495104,0.573636029976,0.819092626077,0.00311799954022,0.0,0.819062990343,-0.573571488317,-0.0115027188598,0.0,-0.00763354353045,0.00915238821982,-0.99992897888,0.0,0.620624580829,0.207333158195,0.304106322731,1.0,-0.236396571429,-0.310692636735,1.25
0.424588257247,0.329188469154,-0.12645658438,-1.68871953978,0.0573074630707,2.01037206867,0.105808341389,-0.268082867216,-1.05926875977,-0.00283098500869,-1.50396816098,-0.108091254959,0.478966150739,-0.30875888801,0.573666497063,0.819070919648,0.00321335267552,0.0,0.819042240898,-0.573601324206,-0.0114924059807,0.0,-0.0075700579328,0.009224857465,-0.999928795579,0.0,0.616548532047,0.201962844872,0.304146732304,1.0,-0.251172,-0.330111771429,1.267
0.419731059744,0.310567047842,-0.126642890788,-1.71582491305,0.0550543950611,2.01894221001,0.100426813999,-0.294804813551,-1.08607424991,-0.00727077300416,-1.5554879195,-0.119719725556,0.4925541845,-0.325389008954,0.573539591152,0.819159890399,0.00318720005897,0.0,0.819131189345,-0.573474898603,-0.0114622081745,0.0,-0.00756174754835,0.00918494200365,-0.999929225903,0.0,0.61218473483,0.19632229997,0.304151764155,1.0,-0.265947428571,-0.349530906122,1.284
0.414331264291,0.291049867679,-0.126861201818,-1.74383210025,0.0526801773064,2.02757472421,0.0946455093618,-0.327992541114,-1.15616189298,-0.012127790128,-1.61703312663,-0.132294569097,0.509965391565,-0.335433805352,0.573468083465,0.819210112899,0.00314564332998,0.0,0.819181060079,-0.573403750233,-0.0114576144185,0.0,-0.00758261590792,0.00914760373908,-0.999929410149,0.0,0.607836553147,0.190645899832,0.304188243836,1.0,-0.279853714286,-0.367807738775,1.3
0.408784753493,0.272069306964,-0.127093632655,-1.77087183776,0.0504327169131,2.03576895602,0.0888328175863,-0.359630454397,-1.19564999829,-0.0107351021856,-1.67030810432,-0.136395370726,0.518968680553,-0.366858662027,0.573466446812,0.819210662833,0.00329714764753,0.0,0.819183047841,-0.573401024137,-0.0114519234286,0.0,-0.0074910941716,0.00926843974303,-0.999928987245,0.0,0.603018337445,0.184326023128,0.30425950312,1.0,-0.294629142857,-0.387226873469,1.317
0.402319921147,0.251162446104,-0.127448542076,-1.80023648229,0.0478137999889,2.04462237666,0.0823229763728,-0.388724094898,-1.24296098723,-0.0229812236121,-1.72092891591,-0.156348423923,0.538483641323,-0.386093956804,0.573598918793,0.81911702742,0.00351036341431,0.0,0.819092907126,-0.573533826528,-0.0112474986054,0.0,-0.00719984408138,0.00932704638783,-0.999930581816,0.0,0.598015111744,0.17757803336,0.304375366119,1.0,-0.309404571429,-0.406646008163,1.334
0.395379664727,0.229611434524,-0.127722579121,-1.83030997394,0.0450934306263,2.05336025128,0.0753091113066,-0.406145745421,-1.2947873568,-0.00989147679417,-1.77702677537,-0.162050030129,0.53319792331,-0.41924531187,0.573546140849,0.8191535304,0.00361453323621,0.0,0.81913068847,-0.573480707682,-0.0112044644477,0.0,-0.00710544833227,0.00938723317589,-0.999930693827,0.0,0.592693124748,0.170606218237,0.304425447551,1.0,-0.32418,-0.426065142857,1.351
0.387910741182,0.207415215109,-0.127963340099,-1.86096722068,0.0422142934074,2.06191509761,0.0678305494333,-0.450132256035,-1.29834071457,-0.0132448509484,-1.80893980882,-0.177950494032,0.491626447848,-0.449546356112,0.573388437366,0.819263904998,0.00361949781737,0.0,0.819240846042,-0.573322641839,-0.0112397256434,0.0,-0.00713329880901,0.00941015035178,-0.999930280129,0.0,0.587081492964,0.163369601218,0.304450521371,1.0,-0.338955428571,-0.445484277551,1.368
0.380234240249,0.185878178162,-0.128298577973,-1.89043938965,0.0393573156227,2.06982795019,0.060334438205,-0.493657689518,-1.35201538168,-0.0259546224541,-1.86157316018,-0.173371454739,0.478550175737,-0.48360509611,0.573357682256,0.819285839004,0.00352549375296,0.0,0.819261256051,-0.573291730906,-0.011328393989,0.0,-0.0072601961392,0.00938370282683,-0.99992961536,0.0,0.581550785082,0.156152324726,0.304438072721,1.0,-0.352861714286,-0.463761110204,1.384
0.371300168629,0.162433619605,-0.128777445811,-1.92211811113,0.0362212709632,2.07807984591,0.0518606279812,-0.536148993352,-1.39904895777,-0.0242124956126,-1.88021526508,-0.194618953448,0.474752678921,-0.508261192456,0.573521456091,0.819171433234,0.00347120681706,0.0,0.819145750212,-0.573455121145,-0.0114109965807,0.0,-0.00735712274527,0.00938805643591,-0.999928866041,0.0,0.575487844345,0.148053120689,0.304431698214,1.0,-0.367637142857,-0.483180244898,1.401
0.361796469612,0.138377739844,-0.129169543023,-1.95407225055,0.0328615877358,2.08617222677,0.0428783883842,-0.579070523385,-1.42118631293,-0.029811864931,-1.87547050907,-0.189037785736,0.47796824338,-0.544730874241,0.573483421925,0.819197856917,0.00351893463214,0.0,0.819173065057,-0.573417311144,-0.0113500514253,0.0,-0.00728025993622,0.00939186362123,-0.999929392864,0.0,0.569186216596,0.139781758333,0.30448119324,1.0,-0.382412571429,-0.502599379592,1.418
0.352065860903,0.115102706119,-0.129654268463,-1.98453344754,0.0296410909999,2.09359760823,0.0338014521237,-0.626661692106,-1.47295671551,-0.0399787980076,-1.91269279932,-0.204717247285,0.47827384659,-0.578989642625,0.573564993051,0.819140148341,0.00365554692905,0.0,0.819116961112,-0.573498296669,-0.0113072824856,0.0,-0.0071659370819,0.00947996441071,-0.999929387317,0.0,0.56303427391,0.131606025313,0.304544530998,1.0,-0.396318857143,-0.520876212245,1.434
0.340320669701,0.0883204382963,-0.130169293591,-2.01913051699,0.0257203310217,2.10151418098,0.022925793289,-0.66334620138,-1.50461618238,-0.0240271895627,-1.93738496861,-0.200574030963,0.425647226542,-0.619114158112,0.573511073207,0.819178081002,0.00361488817308,0.0,0.819154589346,-0.573444781555,-0.0112954929766,0.0,-0.00718021974328,0.00943942427454,-0.999929668384,0.0,0.555796015876,0.122111376574,0.304573276964,1.0,-0.40998,-0.538830857143,1.452
0.329195444587,0.0644640874488,-0.130617953903,-2.04967820128,0.022248148955,2.1081588361,0.0126956124172,-0.708902078065,-1.45449078537,-0.0282044197413,-1.90082704896,-0.225709201497,0.39978666659,-0.638569334568,0.573457464081,0.819215937642,0.00353995828591,0.0,0.819190713347,-0.573390390056,-0.0114360245738,0.0,-0.00733893682906,0.00945815670354,-0.999928339071,0.0,0.549208461201,0.113506012698,0.304507299274,1.0,-0.40998,-0.538830857143,1.468
0.316610996121,0.039270438416,-0.131166603863,-2.08120045079,0.0184253460565,2.11443148392,0.00161715284091,-0.749307945884,-1.46473012897,-0.0249698045042,-1.82595448202,-0.216499937489,0.354485938354,-0.649163734907,0.573744102542,0.819015758774,0.00341153632222,0.0,0.818988600228,-0.573677022469,-0.0115366151047,0.0,-0.00749169381264,0.00941325547115,-0.999927629954,0.0,0.542218397674,0.104149730941,0.304524899602,1.0,-0.40998,-0.538830857143,1.485
0.303646411953,0.0143027921534,-0.131567776039,-2.11160607513,0.0146832346101,2.12031379716,-0.00989919855868,-0.773548627275,-1.47338397939,-0.0206602285711,-1.74622630098,-0.218102531898,0.347722177206,-0.694447598483,0.573788944842,0.818983012854,0.00371730200374,0.0,0.818960100538,-0.573721359457,-0.0113535162385,0.0,-0.00716577933986,0.00955902816637,-0.999928635747,0.0,0.53530620877,0.0949773093647,0.304703401218,1.0,-0.40998,-0.538830857143,1.502
0.290120782533,-0.0102537588113,-0.132037721385,-2.14118108842,0.0109039316441,2.12565998116,-0.0218166565524,-0.795998648646,-1.45122628667,-0.0210288528362,-1.72723210449,-0.21928620009,0.328726058247,-0.714600566446,0.573905651165,0.818900291184,0.00391963776493,0.0,0.818880308467,-0.5738379668,-0.0112149527372,0.0,-0.00693482461339,0.0096462246552,-0.999929426788,0.0,0.528390307048,0.0857373453261,0.304804262838,1.0,-0.40998,-0.538830857143,1.519
0.27705759153,-0.0330552060734,-0.132355091255,-2.16822116184,0.00730930388765,2.13007239049,-0.0333547669677,-0.835699921003,-1.43499279546,-0.0287378987906,-1.6740946447,-0.236537310796,0.283149709066,-0.723435426713,0.573819510655,0.818960267156,0.0039996141122,0.0,0.818941664943,-0.573752142635,-0.0111254278061,0.0,-0.00681662740288,0.00965962415737,-0.999930110184,0.0,0.521422819568,0.0766245316097,0.304882462453,1.0,-0.40998,-0.538830857143,1.536
0.26249217037,-0.0569483696454,-0.132874128522,-2.19623733144,0.00353204709086,2.13421941912,-0.0460724461699,-0.855685348932,-1.39147079704,-0.01771663289,-1.61155357046,-0.236172435097,0.236405512228,-0.764456435274,0.573996893831,0.81883592127,0.00400584730439,0.0,0.818816786752,-0.573928619976,-0.011214089658,0.0,-0.00688356155098,0.00971709473302,-0.999929094811,0.0,0.514857840487,0.0679026742364,0.304877552847,1.0,-0.40998,-0.538830857143,1.552
0.247510349669,-0.0805535831621,-0.133329867464,-2.22341996559,-0.000241782856126,2.13779302372,-0.0592663420309,-0.897680805619,-1.39630889582,-0.0286735818243,-1.60058969567,-0.221413009337,0.195910344421,-0.789082612228,0.57399223658,0.818839183123,0.00400642356469,0.0,0.818819514368,-0.573923199068,-0.0112920929697,0.0,-0.00694716250842,0.00976229945147,-0.999928214645,0.0,0.50785560037,0.0587314271996,0.304884407633,1.0,-0.40998,-0.538830857143,1.569
0.230171817831,-0.106413912056,-0.133791753683,-2.25275786555,-0.00439790166295,2.14115815739,-0.0745252383387,-0.926504444337,-1.34916600263,-0.0207453388569,-1.52142160757,-0.198403860073,0.150907227567,-0.802089574052,0.573953895094,0.81886627243,0.0039624592403,0.0,0.818844980899,-0.57388351119,-0.0114612278036,0.0,-0.00711135978293,0.00982304532542,-0.999926465468,0.0,0.500040435643,0.0485494327698,0.304842929875,1.0,-0.40998,-0.538830857143,1.588
0.21688115723,-0.12520652126,-0.134225060266,-2.27374525385,-0.00758804475784,2.14331833251,-0.0861391224696,-0.966272310844,-1.3576066371,-0.0277178939531,-1.51456776849,-0.228090617917,0.140019998128,-0.836499311565,0.574006948403,0.818829495364,0.00387654589644,0.0,0.818807080722,-0.573936786053,-0.0115011771105,0.0,-0.0071927492394,0.00977608702495,-0.999926343528,0.0,0.493877002563,0.0404251328348,0.304796891272,1.0,-0.40998,-0.538830857143,1.603
0.199397346512,-0.149043064337,-0.13460802495,-2.29993268445,-0.0115250748267,2.14553056071,-0.101670200154,-0.983576311572,-1.33071303683,-0.0228310906519,-1.44526167652,-0.2202694707,0.121033907485,-0.871352100656,0.573777263124,0.818990729676,0.00381889105314,0.0,0.818966907973,-0.573706415871,-0.0116146000531,0.0,-0.00732146843461,0.00979192735334,-0.999925254336,0.0,0.486891399707,0.0313875665279,0.304746429223,1.0,-0.40998,-0.538830857143,1.62
0.183228500225,-0.169969476786,-0.135101139603,-2.32244904654,-0.0149971879149,2.14699113236,-0.115917558962,-1.00736110032,-1.33308497569,-0.0231522613275,-1.39785311518,-0.223677005707,0.0998319380956,-0.900287827261,0.573806054858,0.818970710099,0.00378606780436,0.0,0.818945503123,-0.573734033462,-0.0117587696165,0.0,-0.00745803554065,0.00984802601154,-0.999923694133,0.0,0.480305605465,0.0227755248596,0.304716891943,1.0,-0.40998,-0.538830857143,1.636
0.165468568394,-0.191782709173,-0.13565616966,-2.34560859678,-0.0186999768236,2.14804460602,-0.131661490827,-1.06802460488,-1.29430584582,-0.0449342839722,-1.32216154433,-0.208941156631,0.068420555875,-0.939022351927,0.573783143005,0.818987434845,0.00363775631501,0.0,0.818958918066,-0.573709855645,-0.0120016230868,0.0,-0.00774231091893,0.00986569193696,-0.99992135928,0.0,0.473292232213,0.0136093726519,0.304636072334,1.0,-0.40998,-0.538830857143,1.653
0.147140903011,-0.213387121931,-0.13617475911,-2.36800795104,-0.0222765306258,2.14870750606,-0.147976969717,-1.09327508038,-1.25713377976,-0.0266040044083,-1.27418070869,-0.21032064617,0.0164003763821,-0.969040801192,0.57373652722,0.819019946537,0.0036703418723,0.0,0.818990494837,-0.573661391409,-0.0121624124108,0.0,-0.00785587618701,0.00998418759195,-0.999919297347,0.0,0.466280309468,0.00449694019473,0.304616307044,1.0,-0.40998,-0.538830857143,1.67
0.128124565545,-0.234683878435,-0.136842886855,-2.38960052948,-0.0260215377582,2.14905629556,-0.164796129983,-1.11500076032,-1.24612958246,-0.0325728884953,-1.27075823512,-0.22166495347,0.0110484147729,-1.00730656013,0.573843099625,0.818945097334,0.00371099277349,0.0,0.818916656403,-0.573768402942,-0.0120862133328,0.0,-0.00776884433157,0.00997477596096,-0.999920071257,0.0,0.459297699538,-0.0047365002313,0.304641323258,1.0,-0.40998,-0.538830857143,1.687
0.109664489756,-0.254328410641,-0.137496703446,-2.40899376695,-0.0292832571256,2.14903549195,-0.1812692902,-1.16571549361,-1.2137469173,-0.0355363038376,-1.21367697053,-0.220238756014,-0.00914023999885,-1.04173876412,0.573987012504,0.818842839382,0.00400758915763,0.0,0.818818348168,-0.573911303056,-0.011961430918,0.0,-0.00749467563616,0.0101473889008,-0.999920427002,0.0,0.452796690243,-0.0134040843695,0.304741485352,1.0,-0.40998,-0.538830857143,1.703
0.0895253964086,-0.274842923472,-0.138145611068,-2.42887083745,-0.0328308759778,2.14879173598,-0.199341563385,-1.20232501003,-1.20738291871,-0.0490644893836,-1.14830764678,-0.207252740886,-0.0315179997108,-1.0735533795,0.573999397367,0.81883261442,0.00431141342526,0.0,0.818813701737,-0.573924960168,-0.0116193306688,0.0,-0.0070399946727,0.0101999295684,-0.999923197007,0.0,0.445904428905,-0.0225679231691,0.304863804887,1.0,-0.40998,-0.538830857143,1.72
0.0700567062742,-0.293509379857,-0.138687346793,-2.44687754443,-0.0360231602598,2.14800061091,-0.216976255885,-1.23377907997,-1.16254678678,-0.0224200371515,-1.09152913591,-0.191546714988,-0.0429786689079,-1.11414274445,0.573904083418,0.818899026444,0.00438570709142,0.0,0.818880520494,-0.573828622424,-0.0116684250607,0.0,-0.00703875318151,0.0102881249734,-0.999922302201,0.0,0.438954845369,-0.0316513662811,0.304864762366,1.0,-0.40998,-0.538830857143,1.737
0.0473853020583,-0.314130219766,-0.139402736374,-2.46628668948,-0.0396487166637,2.14684227628,-0.237451650131,-1.26538051952,-1.14044863793,-0.0365010403994,-1.06568162591,-0.189694263724,-0.0828669122239,-1.13013359998,0.573960203417,0.818859244171,0.00446878393598,0.0,0.818841948216,-0.573884673653,-0.011618609602,0.0,-0.00694957306713,0.0103280461218,-0.999922514447,0.0,0.431993264462,-0.0408335926791,0.304885609255,1.0,-0.40998,-0.538830857143,1.754
0.0254035068029,-0.332977458991,-0.140047288901,-2.48374054083,-0.0429866203398,2.14546079306,-0.257516642927,-1.3041712574,-1.09503516753,-0.0314129127536,-1.01309290583,-0.202609588024,-0.0851888746695,-1.2095003028,0.573882345411,0.818913340864,0.00455419385101,0.0,0.818897472304,-0.573807055671,-0.0115386142082,0.0,-0.00683602816028,0.0103514241145,-0.999923055409,0.0,0.425061276371,-0.0499555109514,0.304904750742,1.0,-0.40998,-0.538830857143,1.771
0.00407851493401,-0.350186178855,-0.1407303862,-2.49948455239,-0.0460413806745,2.14373727175,-0.277026868516,-1.33822412284,-1.06284563243,-0.0342439222302,-0.961556736326,-0.188481152169,-0.11873841696,-1.22016471659,0.573919854734,0.818886989587,0.00456569033485,0.0,0.818870424051,-0.573843247102,-0.0116577558053,0.0,-0.00692652734687,0.0104295270996,-0.99992162102,0.0,0.418062842476,-0.0591246636129,0.304894890199,1.0,-0.40998,-0.538830857143,1.788
-0.019232747884,-0.367991505304,-0.141492673293,-2.5153351584,-0.0491879176746,2.14180976616,-0.298421815788,-1.39370170699,-1.02530406589,-0.0554972173136,-0.921073048212,-0.189716742403,-0.121022397055,-1.28184109691,0.573990639324,0.818836631642,0.00469718545159,0.0,0.818821649302,-0.573913429299,-0.0116288093289,0.0,-0.00682644868059,0.0105211874053,-0.999921349014,0.0,0.411512470768,-0.0677733496144,0.304915576043,1.0,-0.40998,-0.538830857143,1.804
-0.0445119458631,-0.386096251431,-0.142269750176,-2.5312087082,-0.0524631822923,2.13949801444,-0.32177394856,-1.42748511307,-0.990205383562,-0.0594190568599,-0.843947393962,-0.181695289706,-0.1186604447,-1.3084798287,0.574001415064,0.818828633326,0.00477406022879,0.0,0.81881464219,-0.573923961223,-0.0116023864543,0.0,-0.00676054884758,0.0105690601481,-0.999921291876,0.0,0.404138379641,-0.0774578065912,0.304940058092,1.0,-0.40998,-0.538830857143,1.822
-0.0676068796588,-0.401492914848,-0.142937560101,-2.54458672854,-0.055192120804,2.13729687518,-0.343279960858,-1.4562183593,-0.945725434782,-0.0480630087617,-0.851291570781,-0.17575015527,-0.140676142253,-1.35291004762,0.573977647887,0.81884481661,0.00485519710153,0.0,0.818831064068,-0.573898669686,-0.0116941161389,0.0,-0.00678940594464,0.0106879532606,-0.999919832598,0.0,0.397560659269,-0.0860528831271,0.304913589801,1.0,-0.40998,-0.538830857143,1.838
-0.0941988265894,-0.418121242514,-0.143700565498,-2.55848461937,-0.0582051301121,2.13470718125,-0.368164221749,-1.50298693781,-0.91063333091,-0.0499615599418,-0.762551916842,-0.151829872816,-0.133413279225,-1.40146306832,0.573942765993,0.818868049135,0.0050563199229,0.0,0.818858040481,-0.573865027028,-0.011453697874,0.0,-0.00647754677713,0.0107143815478,-0.999921618636,0.0,0.390249468823,-0.0957411167442,0.30503064333,1.0,-0.40998,-0.538830857143,1.856
-0.116846370269,-0.431155139164,-0.144288492399,-2.56952394462,-0.0605919313281,2.13239339023,-0.389481961732,-1.52848204274,-0.856322416495,-0.0396301145609,-0.719566405999,-0.150487099851,-0.157088308145,-1.43730065189,0.573863795632,0.818923467015,0.0050444163154,0.0,0.818912113472,-0.573784151086,-0.0116380957826,0.0,-0.00663643138636,0.0108098235684,-0.99991954951,0.0,0.384075214136,-0.103760125932,0.304971498327,1.0,-0.40998,-0.538830857143,1.871
-0.146219601786,-0.446855721522,-0.145105427176,-2.58226406901,-0.0635412060133,2.12945324649,-0.417185404213,-1.57357397544,-0.800014749471,-0.0518681301256,-0.639567629152,-0.150410904243,-0.140231172342,-1.47873226347,0.573875140771,0.81891467597,0.00517911069557,0.0,0.818905890386,-0.573796455772,-0.0114680833476,0.0,-0.00641974999749,0.0108226605708,-0.99992082528,0.0,0.376340256211,-0.113996005451,0.305066389754,1.0,-0.40998,-0.538830857143,1.89
-0.171459344631,-0.459085256452,-0.145705258055,-2.59230013953,-0.0658342038846,2.12693580324,-0.441200426125,-1.59097174687,-0.732407217246,-0.036439048558,-0.60295588422,-0.126905565215,-0.169858590703,-1.50541530024,0.573774948521,0.818984834318,0.00518618442343,0.0,0.818975025857,-0.573694391696,-0.0116361016118,0.0,-0.00655463202958,0.0109240694477,-0.99991884746,0.0,0.369775256345,-0.122542540246,0.305017491737,1.0,-0.403405714286,-0.530190367347,1.906
-0.198392930092,-0.470775584439,-0.146071882275,-2.60185878608,-0.0679552649055,2.12442856632,-0.466779541062,-1.59781445168,-0.665007537918,-0.028645818402,-0.525060050831,-0.105039401851,-0.148895387283,-1.49519567014,0.573729284053,0.819016615269,0.00521914105346,0.0,0.819005906269,-0.573646421339,-0.0118260594819,0.0,-0.00669192646135,0.0110596769212,-0.999916447343,0.0,0.362590867999,-0.131935415305,0.304947481953,1.0,-0.387761142857,-0.509628930612,1.924
-0.221997923683,-0.48013825365,-0.146253344656,-2.60914006209,-0.0695429701263,2.1223794732,-0.489013604691,-1.58418827266,-0.607747231697,-0.00691265113773,-0.47284857452,-0.0973123098963,-0.134811843403,-1.46513602539,0.57384822199,0.818932552159,0.0053329198435,0.0,0.818924177383,-0.573766392544,-0.0116647068153,0.0,-0.00649288295027,0.0110612412251,-0.999917742324,0.0,0.357245250105,-0.139041489662,0.305016867413,1.0,-0.375593142857,-0.493636702041,1.938
-0.249887175346,-0.490064083449,-0.146286678362,-2.61703723699,-0.0711541911163,2.11997679957,-0.515477938756,-1.55792529329,-0.528695838959,-0.00221509001581,-0.418987871099,-0.0921260525306,-0.129648341516,-1.45774047958,0.57388452628,0.818906667896,0.00540061786883,0.0,0.818897808873,-0.57380013962,-0.0118543366126,0.0,-0.00660884724918,0.0112257906219,-0.999915148782,0.0,0.350498601409,-0.147820349649,0.304972962928,1.0,-0.359948571429,-0.473075265306,1.956
-0.27416345982,-0.497743542857,-0.146113200309,-2.62301727188,-0.0722237376253,2.11815423741,-0.538521377501,-1.50739392804,-0.453333943551,0.0161779105172,-0.352312942159,-0.0628158114288,-0.1114846849,-1.42221359744,0.573955348919,0.818855836113,0.00557888984601,0.0,0.818849149958,-0.573870057002,-0.0118310688847,0.0,-0.00648650685511,0.0113589931737,-0.999914445592,0.0,0.344802540975,-0.155304917989,0.304986101749,1.0,-0.346042285714,-0.454798432653,1.972
-0.299186043532,-0.504710733981,-0.145809740292,-2.62841702876,-0.0731678195943,2.11638097621,-0.562375192747,-1.45959476278,-0.38704946635,0.0210544548757,-0.295858604995,-0.0510712764782,-0.0983319543489,-1.39703874153,0.573966476795,0.818847180722,0.00570307288288,0.0,0.818841703183,-0.573880009847,-0.011863655756,0.0,-0.0064417655706,0.0114794756244,-0.999913358895,0.0,0.339021657825,-0.162900632259,0.304987995449,1.0,-0.331266857143,-0.435379297959,1.989
-0.323564784677,-0.510676848085,-0.145457220794,-2.63287080645,-0.0739448977678,2.11495507992,-0.585625340219,-1.41721562672,-0.328152021122,0.0263079671583,-0.253517543529,-0.0435243655337,-0.0788626205515,-1.36839270896,0.57403609912,0.818797205763,0.00586852983568,0.0,0.818795242681,-0.573951526125,-0.0116078905717,0.0,-0.00613637485388,0.0114686933417,-0.99991540341,0.0,0.333525468992,-0.170248463216,0.305065833005,1.0,-0.316491428572,-0.415960163265,2.006
-0.345814916998,-0.515347420441,-0.144971118707,-2.63654599792,-0.074521993752,2.11359170653,-0.606899640817,-1.3742882786,-0.275202305163,0.0287473897451,-0.222436734251,-0.0232613514439,-0.0707932957934,-1.30650240808,0.574008000186,0.818816735028,0.00589211859537,0.0,0.818813713993,-0.573920817214,-0.0118213470243,0.0,-0.00629802851127,0.0116103188099,-0.999912763862,0.0,0.328181870504,-0.177193872196,0.305010588255,1.0,-0.301716,-0.396541028572,2.023
-0.369874738975,-0.519628887532,-0.144289654416,-2.63998843517,-0.0749630210731,2.11235282335,-0.629962388808,-1.32198154578,-0.217453672586,0.0462355045948,-0.185065734552,-0.0234260579359,-0.0596098051097,-1.27360376561,0.573955102064,0.818853848811,0.00588744463951,0.0,0.818849677858,-0.573865954783,-0.01199241067,0.0,-0.00644155161416,0.0117042627799,-0.99991075434,0.0,0.32310930564,-0.18379483803,0.304943,1.0,-0.286940571429,-0.377121893878,2.04
-0.391616396089,-0.522850277292,-0.143576903406,-2.64249867975,-0.0752260297039,2.11137690022,-0.650844314272,-1.24953176056,-0.177973258652,0.0580812165985,-0.140307182127,-0.0139152115293,-0.0490174699927,-1.21910030729,0.573889016776,0.818900052223,0.00590320192885,0.0,0.818895529424,-0.573798807707,-0.0120742314525,0.0,-0.00650046369262,0.0117636009712,-0.999909676753,0.0,0.318327376046,-0.190062541305,0.304920818857,1.0,-0.272165142857,-0.357702759184,2.057
-0.41131316836,-0.525239796819,-0.142942594714,-2.64433379806,-0.0753341755499,2.11065270346,-0.669734699991,-1.22048373743,-0.135596984578,0.0345906194352,-0.104648155642,-0.0155664634463,-0.0426449337381,-1.1667967744,0.57394270026,0.818861866669,0.00598055471551,0.0,0.818858166118,-0.573851813786,-0.0120891065627,0.0,-0.00646748071443,0.011835908409,-0.999909037346,0.0,0.31403614023,-0.195724995707,0.304917512015,1.0,-0.258258857143,-0.339425926531,2.073
-0.43121136269,-0.527186938717,-0.1421114291,-2.6458583709,-0.075407143435,2.11007159968,-0.688879445432,-1.15796902584,-0.102141862623,0.0468633867117,-0.0804423268013,-0.0048150724796,-0.0306392027247,-1.10564001141,0.573848820079,0.818927917054,0.00594518834178,0.0,0.818923896948,-0.573758361506,-0.0120723034624,0.0,-0.00647536947766,0.0117965610229,-0.99990945127,0.0,0.309740008705,-0.201375990261,0.304909537838,1.0,-0.243483428572,-0.320006791837,2.09
-0.450145498765,-0.528559593318,-0.141354969947,-2.64694443118,-0.0753613630226,2.10960524007,-0.707077697856,-1.08403571327,-0.0709663623267,0.0475926290205,-0.0589165737121,0.00365952313925,-0.0199475418406,-1.05446959281,0.573871346463,0.818911959521,0.00596884935894,0.0,0.818908063381,-0.573780446275,-0.0120966980007,0.0,-0.00648144640247,0.0118301150049,-0.999909015477,0.0,0.305662157396,-0.206743995988,0.304897884557,1.0,-0.228708,-0.300587657143,2.107
-0.467080037804,-0.529481568051,-0.140609959137,-2.64766044387,-0.0753617743925,2.10925911004,-0.723226948285,-1.03312660093,-0.0518865012149,0.0585649959893,-0.0413888243824,0.000650568401041,-0.0246502743952,-0.995743543055,0.573945509039,0.81886058203,0.00588614919526,0.0,0.818855751321,-0.573855205601,-0.0120916679704,0.0,-0.00652371851714,0.0117600920683,-0.999909566577,0.0,0.302018675337,-0.211523450494,0.304899320472,1.0,-0.214801714286,-0.28231082449,2.123
-0.484952305445,-0.530057074793,-0.139702037956,-2.64810886976,-0.0751554868894,2.10901336286,-0.740355138993,-0.978597045392,-0.0215173123485,0.0437583654735,-0.0166455532274,0.0152492214288,-0.0139202263208,-0.927810361389,0.573975491228,0.818839667369,0.00587209620856,0.0,0.818834870765,-0.57388563231,-0.0120616063999,0.0,-0.00650673540164,0.0117315694675,-0.999910012287,0.0,0.298221663879,-0.216521583961,0.304908805631,1.0,-0.199157142857,-0.261749387755,2.141
-0.499747724156,-0.530275296359,-0.138800070664,-2.64824994965,-0.0748821343362,2.10887458381,-0.754621707627,-0.888896406004,-0.0123170691376,0.0576204465636,-0.00901507126517,0.0329018609863,-0.0126492942097,-0.87363825792,0.573880333859,0.81890655817,0.00584450996431,0.0,0.818901851705,-0.573791417908,-0.0119963706803,0.0,-0.00647050154216,0.011670785942,-0.999910958718,0.0,0.295115821739,-0.220615760023,0.30493652799,1.0,-0.185250857143,-0.243472555102,2.157
-0.51449424013,-0.5303175126,-0.137902266484,-2.64826876381,-0.0745161965878,2.10880463107,-0.768723708048,-0.855569526018,-0.00325180537752,0.045253805682,-0.000901289903875,0.0257835341322,-0.00176496748404,-0.817573428792,0.573929616779,0.818871790663,0.00587642253878,0.0,0.818867941261,-0.573841365055,-0.0119218046931,0.0,-0.00639041826106,0.0116545152107,-0.999911663513,0.0,0.292010161329,-0.224675423555,0.304961334671,1.0,-0.170475428572,-0.224053420408,2.174
-0.527995821352,-0.530125160343,-0.13686217443,-2.64819359118,-0.0740508175805,2.1088079647,-0.781724917523,-0.772844417302,0.0120861113034,0.0585776653264,0.00785860549234,0.031912249539,-0.00141096241696,-0.74708864533,0.573808902039,0.818956323195,0.00588485688408,0.0,0.818952590715,-0.573720654699,-0.0119168550419,0.0,-0.00638324274203,0.0116576407443,-0.999911672911,0.0,0.289198768444,-0.228314065353,0.304953199645,1.0,-0.1557,-0.204634285714,2.191
-0.54053252091,-0.529784475912,-0.135914670529,-2.64800304804,-0.0735711713235,2.10881392162,-0.793624901074,-0.722694490261,0.018021016067,0.0483181609293,0.0129646499132,0.0279648386244,-0.00250053571577,-0.680862903422,0.573877782538,0.8189077728,0.00592429387814,0.0,0.818904270694,-0.573788847749,-0.0119541013404,0.0,-0.00639013577634,0.0117118482165,-0.999910995427,0.0,0.286574921905,-0.231686457811,0.304940995183,1.0,-0.140924571429,-0.185215151021,2.208
-0.551196519533,-0.529287642946,-0.134920675705,-2.6477384648,-0.0730796232207,2.10886396781,-0.803820901535,-0.642032818116,0.0344712352689,0.0657822936176,0.013921402727,0.0336283531384,0.0011234950235,-0.620631001408,0.573785146879,0.818972729237,0.00591784495879,0.0,0.818968595851,-0.573695258171,-0.0120389644046,0.0,-0.0064646684091,0.0117545344468,-0.999910015443,0.0,0.284383737636,-0.23450508314,0.304910192544,1.0,-0.127018285714,-0.166938318367,2.224
-0.562131541373,-0.528684678722,-0.133899931603,-2.64741078635,-0.0725151703697,2.10896877582,-0.814155284814,-0.591031511979,0.0359944278634,0.0515754928635,0.0165341697347,0.0332742233158,0.00639652768121,-0.555629494292,0.573816728369,0.818950341168,0.00595380924974,0.0,0.818946169081,-0.573725758509,-0.0121108658464,0.0,-0.00650246918165,0.0118254943717,-0.999908933642,0.0,0.282134144457,-0.237385640855,0.304874438262,1.0,-0.111373714286,-0.146376881633,2.242
-0.570881246922,-0.528118058475,-0.133050522794,-2.6470332454,-0.0720225280919,2.10907274735,-0.822265436418,-0.515957247284,0.0401751297614,0.0548590231725,0.0281815343341,0.034190179205,0.011489550848,-0.494038379482,0.573972523607,0.81884090408,0.0059885599455,0.0,0.818837118914,-0.573881250797,-0.012117325364,0.0,-0.00648556425128,0.0118588953112,-0.999908647857,0.0,0.280352783529,-0.239692028073,0.304869838256,1.0,-0.0974674285715,-0.12810004898,2.258
-0.578848645338,-0.527488559717,-0.132039845548,-2.64665820442,-0.0714535581069,2.10919679985,-0.829799469373,-0.455956655507,0.0338101768708,0.0564185364356,0.0206591490832,0.0354470801409,0.00479912893409,-0.422961518906,0.573877988982,0.818907086755,0.00599866031722,0.0,0.818903083784,-0.573786053417,-0.0121676281474,0.0,-0.00652233486489,0.0118952844254,-0.999907976444,0.0,0.278781934664,-0.241722896569,0.304846676322,1.0,-0.0826920000001,-0.108680914286,2.275
-0.58555729895,-0.526986725434,-0.131142772095,-2.64628293551,-0.0709363605337,2.10927013979,-0.835866545046,-0.384578503723,0.0279619026865,0.0570405574132,0.0245790704796,0.0315666238324,0.00750689046073,-0.358637681716,0.574013942137,0.818811692168,0.00601281150407,0.0,0.818807972661,-0.573922096222,-0.0121522950793,0.0,-0.006499681054,0.0118991538977,-0.999908077917,0.0,0.277397015774,-0.243519326739,0.304863763258,1.0,-0.0679165714287,-0.089261779592,2.292
-0.591520385357,-0.52645151044,-0.130164375354,-2.64589140734,-0.0703525529252,2.10940912146,-0.841198880696,-0.328491399204,0.0288146404073,0.0604599640669,0.0237546119292,0.0354198578588,0.0042040624199,-0.296419297619,0.574106990574,0.818746352579,0.00602664198682,0.0,0.818743192117,-0.574015760663,-0.01209292246,0.0,-0.00644177269591,0.0118771320904,-0.999908714482,0.0,0.276367545952,-0.244892788717,0.304881466592,1.0,-0.0540102857144,-0.0709849469389,2.308
-0.596288192261,-0.525977108874,-0.129155212479,-2.64558405538,-0.0697281920536,2.10949879156,-0.845512289958,-0.252470220127,0.0235112011142,0.0560786739037,0.0155613599225,0.0397598705737,0.00256199863471,-0.230561715196,0.574049235952,0.818786596208,0.00606064967536,0.0,0.818783734524,-0.573957603788,-0.0121083456141,0.0,-0.00643571903355,0.0119133772927,-0.999908322279,0.0,0.275534011311,-0.245992731085,0.304880442082,1.0,-0.039234857143,-0.0515658122451,2.325
-0.599898202948,-0.525657802228,-0.128037354701,-2.64539213615,-0.0691419664736,2.10954752585,-0.848601896433,-0.194104360469,0.0113488974992,0.0731577356478,0.00688839116263,0.0354043181137,0.0015953068602,-0.171182560814,0.573945915947,0.818859399938,0.00600962581394,0.0,0.818855759452,-0.57385431909,-0.0121331189522,0.0,-0.00648679366601,0.0118849996033,-0.999908329944,0.0,0.274970314234,-0.246719705419,0.30488259367,1.0,-0.0244594285716,-0.0321466775512,2.342
-0.602544288966,-0.525431019358,-0.12707881953,-2.64523570101,-0.0686151131046,2.10957543622,-0.850725472542,-0.137489390641,0.0116222779085,0.0444791340411,0.00833006866839,0.020524665109,-0.000537416657898,-0.124806198857,0.573929290401,0.818871249271,0.0059827785693,0.0,0.818867297165,-0.573837884475,-0.0121317301453,0.0,-0.00650130519266,0.0118620853721,-0.999908507795,0.0,0.274595536317,-0.247212968173,0.304896570838,1.0,-0.0197430769231,-0.025948043956,2.359
-0.604535135246,-0.525223638034,-0.126470584622,-2.64506965786,-0.0682744102401,2.10963935949,-0.852440731613,-0.108580929219,0.0134897670437,0.0313524086595,0.00803891111685,0.0138179354793,0.00456223184937,-0.0960838757736,0.573879005958,0.818906616604,0.00596545922711,0.0,0.818902791964,-0.57378832989,-0.0120795983935,0.0,-0.00646927671705,0.01181758666,-0.999909242434,0.0,0.274302814355,-0.247632079436,0.304916377668,1.0,-0.0194030769231,-0.0255011868132,2.376
-0.606284238585,-0.525026042227,-0.126112952048,-2.64487993098,-0.0680741549226,2.10972704847,-0.854102535152,-0.104162140761,0.0131473282657,0.0188996902905,0.0120879661168,0.00640174058701,0.00746467364006,-0.0923334223752,0.573792847896,0.818967102796,0.00594971780448,0.0,0.81896372781,-0.573703453999,-0.0119794116167,0.0,-0.00639749354177,0.0117465299373,-0.999910541554,0.0,0.274015526417,-0.248065061322,0.304946392667,1.0,-0.0190630769231,-0.0250543296703,2.393
-0.60778090666,-0.524848272045,-0.125927863215,-2.64472573502,-0.0679343076724,2.10975706484,-0.855487733498,-0.0908170314574,0.0103753604111,0.00963679074944,0.0101073174482,0.00667220827929,0.00112530013552,-0.0892031006248,0.573820949368,0.818947240577,0.00597345120272,0.0,0.818944286303,-0.573731659399,-0.011957668494,0.0,-0.00636566410479,0.0117537107148,-0.999910660312,0.0,0.273731931148,-0.248457695038,0.304958403139,1.0,-0.0187430769231,-0.0246337582418,2.409
-0.609313806907,-0.524683450392,-0.125797238,-2.64460101927,-0.0678648953791,2.10975652498,-0.856976090782,-0.0879358403136,0.00553282627817,0.00742028163661,0.00801205957128,0.000854942776907,0.000804012306422,-0.0795516182683,0.573801300456,0.818961024268,0.00597119974527,0.0,0.818957859359,-0.573711689308,-0.0119862023491,0.0,-0.00639060849884,0.0117680860287,-0.999910332117,0.0,0.273409704511,-0.248868411028,0.30495778654,1.0,-0.0184030769231,-0.0241869010989,2.426
-0.610666307843,-0.524544123687,-0.125714708646,-2.64446687526,-0.0678330328347,2.1097784391,-0.858270931896,-0.0793660032331,0.00911119396498,0.00115784548298,0.0104503563082,0.000908814046636,0.00447999908823,-0.0755745362801,0.573820400371,0.81894771492,0.00596114474799,0.0,0.818944540853,-0.573731050383,-0.0119694500376,0.0,-0.00638238280002,0.0117503877928,-0.999910592791,0.0,0.273105709623,-0.249272040425,0.304967967622,1.0,-0.0180630769231,-0.023740043956,2.443
-0.612027861106,-0.524373627015,-0.125670221688,-2.64431766271,-0.0677943034763,2.10984033035,-0.859659861657,-0.0821274501669,0.0169607630194,0.00141396572227,0.0132905001299,0.00223898807048,0.00532110323659,-0.0788946111255,0.573781128533,0.818975218698,0.00596276765816,0.0,0.818972430575,-0.573692453355,-0.0119110798357,0.0,-0.0063342063599,0.0117179207584,-0.999911280146,0.0,0.272839892198,-0.249650048775,0.3049832118,1.0,-0.0177430769231,-0.0233194725275,2.459
-0.613392184412,-0.524214094757,-0.125661522632,-2.64417195659,-0.067759547223,2.10986924855,-0.861046453467,-0.0814765254756,0.00940398072375,0.000281472735836,0.00856862151657,-0.000134134339393,0.000563182436455,-0.0711770153739,0.573779142797,0.818976436857,0.00598649023579,0.0,0.818974079711,-0.573690601858,-0.0118868415907,0.0,-0.0063007712944,0.0117234278223,-0.999911426838,0.0,0.272539602421,-0.250053912044,0.304993633703,1.0,-0.0174030769231,-0.0228726153846,2.476
-0.614746206863,-0.524056016217,-0.125674057631,-2.6440314396,-0.0677352919319,2.10987485848,-0.862347045995,-0.074812730472,0.0132721206043,-0.000926711408534,0.00802951377664,0.0022668911917,0.000537132857334,-0.0742363374382,0.573849455563,0.818926975108,0.00601320983627,0.0,0.818924915321,-0.573760701802,-0.0118906280498,0.0,-0.00628753361973,0.0117480239745,-0.999911221486,0.0,0.27223096366,-0.250456073113,0.304999718797,1.0,-0.0170630769231,-0.0224257582418,2.493
-0.616074382267,-0.523887538805,-0.125672258108,-2.64391532905,-0.0677067678238,2.10988542234,-0.863676232793,-0.0782284352691,0.00866985329957,-7.5401803426e-05,0.00955687126734,0.000225004812503,-0.000700014973034,-0.0772587286871,0.573865765898,0.818915354651,0.00603916789631,0.0,0.818913394519,-0.573776460511,-0.0119236127858,0.0,-0.00629941849658,0.0117883356276,-0.999910672245,0.0,0.271926357038,-0.250841605276,0.304991654454,1.0,-0.0167230769231,-0.0219789010989,2.51
-0.61734498528,-0.52370792403,-0.125649912493,-2.64380923972,-0.0676773295157,2.10990880653,-0.864871785594,-0.0719976970446,0.0140857000014,0.00126562424625,0.00833863706641,0.00101554824874,-0.0006846005385,-0.0713939694467,0.573929796112,0.818870368996,0.00605432223007,0.0,0.818868329413,-0.573839898477,-0.011965655122,0.0,-0.00632423053219,0.0118253664097,-0.999910078366,0.0,0.271639506992,-0.251205495029,0.304976524929,1.0,-0.0163830769231,-0.021532043956,2.527
-0.61864093974,-0.523523720898,-0.125568292477,-2.64370222579,-0.0676497361368,2.10994545878,-0.8662267423,-0.0716830984304,0.0102069036912,0.00483456815747,0.00583409677039,0.00140162440085,0.000936770035852,-0.0753408116704,0.573841388123,0.818932437216,0.00603916004562,0.0,0.818930006571,-0.573751210185,-0.0119975018047,0.0,-0.00636029046408,0.01183054024,-0.999909788442,0.0,0.271360340049,-0.251564828086,0.304962664282,1.0,-0.0160230769231,-0.0210589010989,2.545
-0.619829110423,-0.523348313981,-0.125461759301,-2.64361814173,-0.0676268072656,2.1099716203,-0.867462578332,-0.0656654128814,0.0125000342387,0.0138090286958,0.00219994176259,-0.00011814947545,0.000653769005964,-0.0721816816827,0.573729714814,0.819010909733,0.00600757684825,0.0,0.819007762279,-0.573639126775,-0.0120492514946,0.0,-0.00642241094225,0.0118334935263,-0.999909356426,0.0,0.271093704227,-0.251901287718,0.304942562984,1.0,-0.0156630769231,-0.0205857582418,2.563
-0.621027775463,-0.523165991897,-0.1253717983,-2.64351882883,-0.06759962378,2.1099867422,-0.868708033295,-0.0651844213457,0.0125287586752,0.00219743141141,0.00691688967604,0.00319865265976,-8.28026226537e-05,-0.0634318754288,0.573656641538,0.819062210151,0.00599169618602,0.0,0.819058442976,-0.573565379099,-0.0121148582071,0.0,-0.00648631792611,0.0118575465152,-0.999908658964,0.0,0.270846688484,-0.252208309216,0.304922959982,1.0,-0.0153230769231,-0.0201389010989,2.58
-0.622092128686,-0.522998135629,-0.125331245572,-2.64342166041,-0.0675736227154,2.11002217085,-0.869831588217,-0.0638949308689,0.00577593676132,0.00259965805455,0.00592949184284,0.00133840403982,0.00436454886561,-0.0722927853834,0.573595866755,0.819104752557,0.00599440407465,0.0,0.819100829137,-0.573504255354,-0.0121428043898,0.0,-0.00650853784946,0.0118753123931,-0.999908303741,0.0,0.270613762576,-0.252511053702,0.304909512115,1.0,-0.0150030769231,-0.0197183296703,2.596
-0.623148085354,-0.52283615484,-0.125334537169,-2.64330587152,-0.0675464746096,2.11004490423,-0.870872338234,-0.0654553241658,0.00830604932116,-0.000417402163007,0.00321030515812,0.0042822047233,-0.000474089718557,-0.0589625225694,0.573628407735,0.819081792385,0.00601781714708,0.0,0.819078044064,-0.573536448442,-0.0121592327955,0.0,-0.00650809401925,0.0119041724383,-0.99990796346,0.0,0.270375953351,-0.252823996398,0.304904551967,1.0,-0.0146830769231,-0.0192977582418,2.612
-0.624291308949,-0.522687744662,-0.125337462704,-2.64319645752,-0.0675193689235,2.11006884145,-0.871962399861,-0.0636546025117,0.0093932379962,-0.00109696538504,0.00413402363743,-0.000249641283485,0.000322437595365,-0.0682878713767,0.57369139324,0.819037499007,0.00604213906739,0.0,0.819033997868,-0.573599184329,-0.0121668802243,0.0,-0.0064994902443,0.0119289814532,-0.999907723757,0.0,0.270114769158,-0.253159005207,0.304901780891,1.0,-0.0143430769231,-0.0188509010989,2.629
-0.625277493373,-0.522579586224,-0.125340632276,-2.64308850984,-0.0674953604948,2.11008699878,-0.872957811712,-0.062802123918,0.00618054441967,0.000100716054261,0.0116906208945,0.00259904093215,0.000152138871684,-0.0642772358881,0.573705110856,0.819027718115,0.00606544626433,0.0,0.819024647067,-0.573613027645,-0.0121436779293,0.0,-0.00646691433643,0.0119348698618,-0.999907864706,0.0,0.269877993728,-0.25346987293,0.304911787537,1.0,-0.0140230769231,-0.0184303296703,2.645
-0.626362287041,-0.522455220716,-0.125335010591,-2.64295627813,-0.0674724588565,2.1101237229,-0.874000586687,-0.0633984245772,0.00549258149792,0.00395428743603,0.0073685491239,-0.000298706597683,0.00155043488982,-0.0617441275127,0.573748815445,0.818997035172,0.00607454167512,0.0,0.818994416159,-0.573657300315,-0.0120911122899,0.0,-0.00641800350582,0.0119125064191,-0.99990844652,0.0,0.269654591733,-0.25377641562,0.304930323111,1.0,-0.0137030769231,-0.0180097582418,2.661
-0.627363066984,-0.522299117996,-0.125316629423,-2.64281783867,-0.0674424356887,2.1101607898,-0.875038403963,-0.0572990766634,0.00800878532428,0.00346546192249,0.00689299140415,0.00337468953037,-0.000140882747205,-0.0675271051031,0.573725459014,0.819013316581,0.00608537940418,0.0,0.819010992463,-0.573634187743,-0.0120648157474,0.0,-0.0063905861262,0.0119061138075,-0.999908698263,0.0,0.269441969653,-0.254076241223,0.304939527785,1.0,-0.0133630769231,-0.0175629010989,2.678
-0.628291303663,-0.522161838486,-0.12526461691,-2.64269408995,-0.0674191363454,2.11019937558,-0.876009107082,-0.0573445029665,0.00719854534922,0.00323224021849,0.0053863898065,0.00409825498507,0.00320607676813,-0.0484756673827,0.573664794108,0.819055912646,0.00607147944261,0.0,0.819053639958,-0.573574028094,-0.0120297992022,0.0,-0.00637075790092,0.0118741682344,-0.999909204664,0.0,0.269240008617,-0.254363441491,0.304951474793,1.0,-0.0130230769231,-0.017116043956,2.695
-0.629377344115,-0.521986328978,-0.125197751093,-2.64259347151,-0.0673897678974,2.11022079101,-0.877117924529,-0.0571135759321,0.0080068267365,0.000620364096737,0.00345100017555,0.000972215287082,0.000828920419508,-0.0524163721322,0.573622234667,0.819085747377,0.00606772115634,0.0,0.819083103569,-0.573530894604,-0.0120801193603,0.0,-0.00641475155552,0.0118996220434,-0.999908620804,0.0,0.269014705306,-0.254646174678,0.304934570211,1.0,-0.0126630769231,-0.0166429010989,2.713
-0.630342424905,-0.521849657183,-0.125153770531,-2.64251870047,-0.0673730619076,2.11024449713,-0.878038624478,-0.0605350712296,0.00376955848734,0.00234876447756,0.0051377832292,-4.47450736047e-05,-3.15158184921e-05,-0.0530216995912,0.573638692851,0.819074263399,0.00606201316836,0.0,0.819071343936,-0.573547001422,-0.0121127042166,0.0,-0.00644447888487,0.0119137664634,-0.999908261222,0.0,0.268797885499,-0.254914028538,0.304921414101,1.0,-0.0123230769231,-0.016196043956,2.73
-0.631217797361,-0.521716285694,-0.12514716357,-2.64243795855,-0.0673532677499,2.11025840087,-0.878942784942,-0.0524509604695,0.00772670611452,-0.000565810426668,0.00623880396611,0.000543955222463,0.00210779968372,-0.057050250726,0.57362327189,0.819084948487,0.00607750021621,0.0,0.819082001399,-0.573531091168,-0.0121453426863,0.0,-0.00646255648226,0.0119450522298,-0.999907771292,0.0,0.268595900438,-0.255165779535,0.304910459362,1.0,-0.0120030769231,-0.0157754725275,2.746
-0.632076546144,-0.521573083104,-0.125141942443,-2.64234703614,-0.0673371623279,2.11026957261,-0.879837325321,-0.0521143431123,0.0117595888167,0.00131344177048,0.00373783703966,0.00142960837903,0.00077794247903,-0.0498057856621,0.573602045727,0.819099723012,0.00608964697262,0.0,0.81909668946,-0.573509362725,-0.0121807669465,0.0,-0.00648491813222,0.0119751530731,-0.999907266473,0.0,0.268399028414,-0.25541562733,0.304900244978,1.0,-0.0116830769231,-0.0153549010989,2.762
-0.632947113551,-0.521428413966,-0.125141155606,-2.6422671509,-0.0673276788613,2.11028862645,-0.880651559761,-0.0527256456376,0.00941861401841,-0.000721892189538,0.0046664748876,-0.000420140428316,0.000106080856111,-0.0525080516544,0.573656084492,0.819061814321,0.00609819218232,0.0,0.819058623447,-0.573562855112,-0.0122216813205,0.0,-0.00651274134773,0.0120060499002,-0.999906715132,0.0,0.268196029375,-0.255668430245,0.304885033981,1.0,-0.0113630769231,-0.0149343296703,2.778
-0.633829163191,-0.521303795888,-0.125140049493,-2.64217068031,-0.0673233636264,2.11030636429,-0.88150704946,-0.0504867548554,0.00948518478451,-0.000928797726107,0.00441160830383,-0.000197833480142,0.000866686483259,-0.0459150269287,0.573683977965,0.819042262043,0.0061002717467,0.0,0.819039060711,-0.573590663755,-0.0122276074828,0.0,-0.00651599382489,0.0120113745994,-0.999906629993,0.0,0.267993586486,-0.25592895632,0.304884614148,1.0,-0.0110230769231,-0.0144874725275,2.795
-0.634671686666,-0.521170027939,-0.125127066403,-2.64207874981,-0.0673171043584,2.11034179992,-0.882354703886,-0.0460244382211,0.00458112642322,-0.000286462048233,0.00950765939531,-0.000473289187992,6.75171398422e-05,-0.0474261206125,0.573678150724,0.819046367172,0.00609710638499,0.0,0.81904311419,-0.573584833276,-0.0122295966627,0.0,-0.00651952449031,0.012009876626,-0.999906624972,0.0,0.267805302874,-0.256177053984,0.304880555732,1.0,-0.0106830769231,-0.0140406153846,2.812
-0.635488770158,-0.521039669645,-0.125117471352,-2.64198507335,-0.0673102072202,2.11037262637,-0.883193143849,-0.0445991707835,0.00966737396052,0.000668377782559,0.00627643578865,-0.000261553234283,0.00055954167811,-0.0496643692014,0.573661771214,0.819057846248,0.00609619942131,0.0,0.819054571262,-0.573568442718,-0.012231014412,0.0,-0.00652144627122,0.0120098166209,-0.999906613161,0.0,0.267622392943,-0.256418752766,0.304878065671,1.0,-0.0103430769231,-0.0135937582418,2.829
-0.636275790901,-0.520925663576,-0.125103975517,-2.64186957433,-0.0673020589889,2.11041075198,-0.883928928113,-0.0472980627497,0.0114305938428,0.00269432012995,0.00216190537781,-0.000134932590644,0.00531843988618,-0.049811563567,0.5737035432,0.819028640504,0.00608912590287,0.0,0.819025566423,-0.573610778677,-0.0121878230977,0.0,-0.006489512875,0.0119795777306,-0.999907183663,0.0,0.267454554412,-0.256658103549,0.304892213105,1.0,-0.0100030769231,-0.0131469010989,2.846
-0.637047121456,-0.52080962116,-0.125085457803,-2.64174267408,-0.0672930249667,2.11043665826,-0.884659314821,-0.0414074764199,0.00825891457655,-0.000679973577802,0.00339671591364,0.000191368663517,0.00329653621675,-0.0422594310635,0.573734247016,0.819007201008,0.00607991766552,0.0,0.819004280758,-0.573642023398,-0.0121475920732,0.0,-0.00646139351293,0.011949198245,-0.999907729271,0.0,0.267292345593,-0.256893122466,0.304909865394,1.0,-0.00966307692308,-0.012700043956,2.863
-0.637754504651,-0.520722421812,-0.125072707,-2.64165040451,-0.0672880952776,2.11045992363,-0.885386915544,-0.0438607661365,0.00270858029897,0.000947539369705,0.00573989219885,-0.000621424747242,0.00127786874495,-0.0451592915729,0.573715447215,0.819020413043,0.00607417039256,0.0,0.819017627789,-0.573623641473,-0.0121157011866,0.0,-0.00643884281831,0.0119260471636,-0.999908151133,0.0,0.267136949339,-0.257103984605,0.30492201934,1.0,-0.00934307692308,-0.0122794725275,2.879
-0.638528506902,-0.520628241698,-0.125061243215,-2.64156929032,-0.0672745037187,2.11048953357,-0.88614774547,-0.045703298147,0.0099549955631,-0.000787009061245,0.00677041187847,-0.000147396519073,0.000926238465863,-0.0409186016954,0.573728110205,0.819011515486,0.00607782549726,0.0,0.81900891102,-0.573636532728,-0.0120945810669,0.0,-0.00641926201466,0.0119170238207,-0.999908384613,0.0,0.266963000059,-0.257329866741,0.30492705165,1.0,-0.00898307692308,-0.0118063296703,2.897
-0.639192782325,-0.520566477526,-0.125042420896,-2.64152929588,-0.0672660662234,2.11050158904,-0.886789191282,-0.0410765137041,0.00566123188863,0.000440810502118,0.00615383950858,0.00015214573943,0.00175104954484,-0.0376524305269,0.573739215107,0.819003731638,0.00607844663259,0.0,0.819001098201,-0.573647563783,-0.0121004385696,0.0,-0.00642354191364,0.0119209801106,-0.999908309968,0.0,0.266806622209,-0.257512931423,0.304923990488,1.0,-0.00866307692308,-0.0113857582418,2.913
-0.639871722039,-0.520499083011,-0.12503200072,-2.64148317114,-0.067253482023,2.110513205,-0.887430035143,-0.0367519266764,0.00100682380402,0.00208245713747,0.00107625805377,0.00160641104171,0.000133315164298,-0.0341048849632,0.573770856468,0.818981507843,0.006086130225,0.0,0.818978934896,-0.57367909128,-0.0121058385062,0.0,-0.00642309588115,0.0119306194787,-0.999908197865,0.0,0.266646125247,-0.257702639401,0.304921409667,1.0,-0.00832307692308,-0.0109389010989,2.93
-0.640520455219,-0.520385168353,-0.125025304175,-2.64141777738,-0.0672508398441,2.11052767661,-0.888076289543,-0.0369337318665,0.00691785128235,-0.000428669409557,0.00432477593546,1.96766522512e-06,0.000448700878801,-0.041862112444,0.573772845254,0.818980117354,0.00608574801282,0.0,0.818977342091,-0.573680715247,-0.0121365973916,0.0,-0.00644847983646,0.0119479697847,-0.999907827315,0.0,0.26649547992,-0.257890549326,0.304910622558,1.0,-0.00798307692308,-0.010492043956,2.947
-0.641088505624,-0.520301337449,-0.12501228364,-2.6413378528,-0.0672372406491,2.11054385673,-0.888650440431,-0.0348780127388,0.00445348655085,0.000770243135881,0.00413268831227,0.00484796505913,0.000713560023667,-0.0388262644623,0.573768521205,0.818983133067,0.00608758804569,0.0,0.818980480865,-0.573676567691,-0.0121208310876,0.0,-0.00643457348938,0.0119403970035,-0.99990800736,0.0,0.266372178244,-0.258058810768,0.304917801848,1.0,-0.00766307692308,-0.0100714725275,2.963
-0.641685452552,-0.520176739558,-0.124987380297,-2.64124788071,-0.0672255637254,2.11056683441,-0.889258113784,-0.034764177684,0.00669334949102,0.00131040224171,0.00568864115645,2.55878292378e-05,0.000114372890183,-0.0359774294598,0.573751823858,0.818994876436,0.00608143840205,0.0,0.818992094627,-0.573659809328,-0.0121292621621,0.0,-0.00644525086259,0.0119400661461,-0.999907942544,0.0,0.266246198583,-0.258235109319,0.304915407495,1.0,-0.00732307692308,-0.00962461538462,2.98
-0.64226129626,-0.520096405023,-0.124975354955,-2.64117508004,-0.0672161049314,2.11059182933,-0.889804735816,-0.0336517663955,0.00221854702069,0.000872861355658,0.00639792130556,0.000456907858381,0.00256023968538,-0.025486211044,0.573775011727,0.818978643109,0.00607988083594,0.0,0.818975977088,-0.57368325144,-0.0121087931221,0.0,-0.00642904093348,0.0119272289,-0.999908200108,0.0,0.266119922317,-0.258405440188,0.304921356488,1.0,-0.00698307692308,-0.00917775824176,2.997
-0.642810150355,-0.520007325091,-0.124951580438,-2.64112590512,-0.0672048946987,2.11061902287,-0.890317326802,-0.0377334654197,0.0066822235499,0.00262465097668,-3.13262067707e-05,-0.000203776437583,0.00123222403731,-0.0277807054103,0.573795329808,0.818964430171,0.0060768829669,0.0,0.818961668401,-0.573703473297,-0.0121184701159,0.0,-0.00643839106709,0.011930485469,-0.999908101096,0.0,0.265997896987,-0.258559910672,0.3049138172,1.0,-0.00664307692308,-0.00873090109891,3.014
-0.643342724881,-0.519963725323,-0.124935165308,-2.64108033748,-0.0671930236403,2.11062983347,-0.890809304347,-0.0308637678924,-0.00017942760155,-0.000609697915575,0.00177658889351,-0.000326132013985,0.000884203448597,-0.0278217303951,0.573824317061,0.818944106953,0.00607862956704,0.0,0.818941471946,-0.573732639649,-0.0121025051124,0.0,-0.00642389073401,0.0119229831303,-0.999908283845,0.0,0.265876042077,-0.258709109919,0.304919798461,1.0,-0.00630307692308,-0.00828404395605,3.031
-0.643856174904,-0.519901845805,-0.124919519,-2.64102439463,-0.0671836724394,2.11064289584,-0.891286306284,-0.0353754304334,0.00447734407877,0.00107960896358,0.00255711314539,0.00121036308362,0.00228074998977,-0.0280125976101,0.573849942931,0.818926160248,0.00607733163924,0.0,0.818923576114,-0.573758391626,-0.0120926185729,0.0,-0.00641616519965,0.0119164480658,-0.999908411351,0.0,0.265761011315,-0.258856246899,0.304923939891,1.0,-0.00596307692308,-0.00783718681319,3.048
-0.644307912392,-0.519848502236,-0.124911662798,-2.64096988232,-0.0671727678211,2.11065901298,-0.891728921902,-0.0301199868271,0.0049205075156,-0.000450537786168,0.00082042120708,-0.000208339865016,0.000802250951953,-0.0250563396657,0.573859264456,0.818919605557,0.00608038925971,0.0,0.818917187634,-0.573767932899,-0.0120725256358,0.0,-0.00639781873282,0.0119074952099,-0.999908635563,0.0,0.265660683015,-0.258988694866,0.304930648832,1.0,-0.00564307692308,-0.00741661538462,3.064
-0.644764044006,-0.519789879673,-0.12490743334,-2.64090382118,-0.0671630155626,2.11067687872,-0.892171013416,-0.0231897222269,0.0033521845549,0.000891242685737,0.00417650923817,0.00046399059263,0.000427240597069,-0.0245432070082,0.57387475546,0.818908722448,0.0060840977266,0.0,0.818906520097,-0.573783716471,-0.0120459518714,0.0,-0.00637370156625,0.0118954040051,-0.999908933499,0.0,0.265554169291,-0.259133892916,0.304939921458,1.0,-0.00528307692308,-0.00694347252748,3.082
-0.645194005248,-0.519739407534,-0.124900081939,-2.64082545453,-0.0671479297987,2.1106876214,-0.892573882662,-0.0254287219098,0.00376192980801,7.16755716724e-05,0.00532640190622,0.000100788808638,0.000290995228085,-0.021745117092,0.573902519794,0.818889250631,0.0060860394423,0.0,0.818887345647,-0.573811975532,-0.012003281915,0.0,-0.00633723822839,0.0118727230079,-0.999909434829,0.0,0.265471255778,-0.259257952698,0.304958860148,1.0,-0.00496307692308,-0.00652290109891,3.098
-0.645600057318,-0.519696775576,-0.124881971318,-2.64078220236,-0.0671328378767,2.11070608688,-0.892955197786,-0.0231245350321,0.00466508853569,0.00167891451126,0.00187116483569,0.000520248056301,0.000298521635735,-0.0269245925267,0.573918566537,0.818877991725,0.00608773804973,0.0,0.818876246843,-0.573828270625,-0.0119814476783,0.0,-0.0063181492596,0.0118617077371,-0.999909686361,0.0,0.265383191228,-0.259373125673,0.304964837293,1.0,-0.00462307692308,-0.00607604395605,3.115
-0.645959112429,-0.519669775951,-0.124860562576,-2.64074398875,-0.0671241977345,2.11070753694,-0.893280550282,-0.0200030032921,0.000242468927375,0.00120248586197,0.00385670597369,-0.000133697420884,-0.000143567204882,-0.0189818971769,0.573936567733,0.818865405406,0.00608366252448,0.0,0.818863706307,-0.573846470515,-0.0119668571961,0.0,-0.00630827855575,0.0118501355402,-0.999909885894,0.0,0.265303897673,-0.25947233504,0.304972899078,1.0,-0.00430307692308,-0.00565547252748,3.131
-0.646326276724,-0.519637448947,-0.124838093688,-2.64072119562,-0.0671041180803,2.1107138408,-0.89363057637,-0.0210540116988,0.000457999051057,0.00394876442366,0.0013225666751,0.000514392862071,-0.000125576286488,-0.0139870067665,0.573944439445,0.818859834365,0.00609089455133,0.0,0.818858221933,-0.573854296742,-0.0119668451902,0.0,-0.00630400423266,0.0118561116038,-0.99990984201,0.0,0.26522080796,-0.259568922501,0.30497243929,1.0,-0.00394307692308,-0.00518232967034,3.149
-0.646610191781,-0.519601573115,-0.124809818366,-2.64070713367,-0.0670854338855,2.11071856969,-0.893903721702,-0.0184813938865,0.00311291481477,0.00188140398512,0.00273306310847,0.000584450383998,-0.000213619371026,-0.0170269525537,0.573941999275,0.818861516451,0.00609468995063,0.0,0.818859857816,-0.573851661615,-0.0119812612214,0.0,-0.00631366733523,0.0118674744513,-0.999909646246,0.0,0.265158092663,-0.259639768167,0.304966706964,1.0,-0.00362307692308,-0.00476175824176,3.165
-0.646877360536,-0.519557854728,-0.124768020825,-2.64069057768,-0.0670602851189,2.11072413358,-0.894176354271,-0.0121438693461,-0.00105589660147,0.00197529686401,-0.0006535565956,0.00317600976631,-0.000272478782232,-0.0172688712721,0.573919587496,0.818877206654,0.00609708224026,0.0,0.818875456251,-0.57382901366,-0.0119998805663,0.0,-0.00632786782121,0.0118799462316,-0.99990940838,0.0,0.265103751026,-0.259703162319,0.304959614889,1.0,-0.00328307692308,-0.00431490109891,3.182
-0.647160195209,-0.519497878999,-0.124703062221,-2.64066644303,-0.0670311254213,2.11073969273,-0.894469452011,-0.0115218503945,0.00574954982487,0.00355186075426,0.000375772585827,0.00379257498495,-5.49302377426e-07,-0.013861935087,0.573878954721,0.818905735464,0.00609004551904,0.0,0.81890378685,-0.573788219147,-0.0120172522828,0.0,-0.00634672264008,0.011883838317,-0.999909242631,0.0,0.265053679903,-0.259768278383,0.304951382669,1.0,-0.00290307692308,-0.00381547252748,3.201
-0.64736621889,-0.519463390606,-0.124656806886,-2.64065473341,-0.0670091881374,2.11075085712,-0.894676747632,-0.0127468799619,0.00161193563398,0.00313334075602,-0.000285237791917,-0.000321105423792,0.000522882708881,-0.0156470440042,0.5738551701,0.818922429262,0.00608650163725,0.0,0.818920376262,-0.573764345523,-0.0120266392074,0.0,-0.00635678935502,0.011886138144,-0.999909151348,0.0,0.265015854943,-0.259814496479,0.304946064597,1.0,-0.00258307692308,-0.00339490109891,3.217
-0.647552640788,-0.519433945203,-0.12462466055,-2.64063314912,-0.0669871929576,2.11075381492,-0.894879906134,-0.0139642101877,0.00039649603199,0.0011870472243,0.00218465214154,0.00197211597559,-0.000324146211583,-0.00832877790272,0.573829185587,0.818940616682,0.0060892543033,0.0,0.818938577505,-0.573738313618,-0.0120291588068,0.0,-0.00635765064074,0.011889636571,-0.999909104279,0.0,0.264981142821,-0.259860061057,0.304946056601,1.0,-0.00226307692308,-0.00297432967034,3.233
-0.647737003524,-0.519406905028,-0.124604840324,-2.64062050869,-0.0669672254007,2.11076173678,-0.89505481533,-0.00605372084014,0.00308745184843,0.000221747329871,0.00253342334397,0.000597369945113,0.000444039326478,-0.00805405638954,0.57383232543,0.8189383353,0.00610017779964,0.0,0.818936358699,-0.573741257257,-0.0120398099322,0.0,-0.00636006067383,0.0119047187285,-0.999908909501,0.0,0.264939532,-0.259906839577,0.304941792605,1.0,-0.00192307692308,-0.00252747252748,3.25
-0.647913765979,-0.519388041239,-0.124593910443,-2.64060562111,-0.0669523520907,2.11076404993,-0.895232100069,-0.00998024371507,0.00372099647205,-0.000878150728793,0.000501689677236,0.000902214133602,0.00022897233445,-0.0090194738157,0.573831037781,0.818939206723,0.00610431578746,0.0,0.818937323033,-0.573740025325,-0.0120329209103,0.0,-0.00635206270726,0.0119041447151,-0.999908967175,0.0,0.264904011082,-0.259953165141,0.304943286704,1.0,-0.00160307692308,-0.00210690109891,3.266
-0.648071746853,-0.519380634274,-0.124578076677,-2.64059441565,-0.066931160406,2.11076370561,-0.895375666049,-0.00920198547813,8.00326134162e-05,0.000848371089584,0.000514317471207,9.17210776944e-05,0.000436171468854,-0.00529628469351,0.573841204463,0.81893200449,0.0061148167848,0.0,0.818930284011,-0.573750194833,-0.0120270844119,0.0,-0.00634110910992,0.0119094745456,-0.999908973233,0.0,0.264870633093,-0.259992088301,0.304946008348,1.0,-0.00126307692308,-0.00166004395605,3.283
-0.648218786242,-0.519371052115,-0.124565519653,-2.64058774255,-0.0669100670728,2.11076530071,-0.895471866752,-0.00675679435907,0.00171018729946,-0.000674451715414,-0.000320415501192,0.000389342555823,0.000887921880651,-0.00350936152247,0.573883280714,0.818902429599,0.00612681114177,0.0,0.818900862276,-0.573792205453,-0.0120262058262,0.0,-0.00633289462038,0.0119191188611,-0.999908910377,0.0,0.264838588905,-0.260027911164,0.304945958181,1.0,-0.000923076923082,-0.00121318681319,3.3
-0.648321122396,-0.519362247878,-0.124542781476,-2.64057908782,-0.0668926925183,2.11076567929,-0.895512668621,-0.0068310329775,0.000198660899123,-8.14306955041e-05,0.0010907000261,0.0016383879867,0.000542832012256,-0.0044483388799,0.57392539721,0.818872890848,0.00612976130604,0.0,0.818871373125,-0.573834321545,-0.0120246661186,0.0,-0.00632932754489,0.0119209768518,-0.999908910813,0.0,0.264820326911,-0.260050392141,0.304947227938,1.0,-0.000603076923082,-0.000792615384622,3.316
-0.648355449781,-0.519363321337,-0.124541767794,-2.6405816866,-0.0668755536533,2.11076649268,-0.89555834898,-0.00172478507446,-0.00147734958051,-0.00119869263472,-0.000408595656984,0.00101933836059,0.000268919415046,-0.00250495032299,0.573922564131,0.81887476557,0.00614455812365,0.0,0.818873431213,-0.573831408452,-0.0120235281434,0.0,-0.00631994502585,0.011932419232,-0.999908833677,0.0,0.264812705563,-0.260056987587,0.304946546582,1.0,-0.000263076923082,-0.000345758241765,3.333
-0.648351907255,-0.519352264603,-0.124515166204,-2.64058101674,-0.0668573453944,2.11076568372,-0.895591355277,0.00053091958996,0.00056016631271,0.00316510601706,4.47781569872e-05,-0.000331390469816,0.00120719785144,-0.00275420996838,0.573881621801,0.818903436563,0.00614757232077,0.0,0.818902071531,-0.57379032992,-0.0120333467271,0.0,-0.00632685324959,0.0119402061298,-0.999908697035,0.0,0.264820813669,-0.260048251244,0.304943348886,1.0,0.0,0.0,3.35
-0.648345901798,-0.519357874748,-0.124477547528,-2.64058343998,-0.0668403138505,2.11076572297,-0.89559987459,-0.0011514601937,0.000636295764284,0.000660910893053,0.00031164792212,0.000206514528774,0.000517441357108,-0.00213000848855,0.573850175569,0.818925503005,0.00614356803512,0.0,0.818924113006,-0.573758958773,-0.0120291839437,0.0,-0.00632620011181,0.0119342950941,-0.999908771735,0.0,0.264831646331,-0.260036180718,0.304945211541,1.0,0.0,0.0,3.367
-0.648343395164,-0.51935691964,-0.12443466181,-2.64057773991,-0.0668251038642,2.11077014739,-0.895602713795,0.000383244578621,0.000261519861068,0.00172288874255,0.000254042422708,-9.85654739782e-05,-0.000140948229519,3.61311317757e-05,0.57382213659,0.818945222452,0.0061339288649,0.0,0.818943775615,-0.57373109633,-0.0120195002478,0.0,-0.00632420833236,0.011920627686,-0.999908947367,0.0,0.264844969663,-0.2600266502,0.304948844968,1.0,0.0,0.0,3.384
-0.648340245264,-0.51934903304,-0.124401255811,-2.64057791279,-0.0668144080349,2.11077343938,-0.895607416905,0.000830996278999,-0.000880023861147,0.00118150915115,0.000500279257425,-6.37312860782e-05,0.000606930244344,0.000902256404742,0.57379660547,0.818963167287,0.00612642471866,0.0,0.818961600367,-0.573705560388,-0.0120238930971,0.0,-0.00633248356744,0.0119168050712,-0.999908940558,0.0,0.264854309695,-0.260017702691,0.304946935645,1.0,0.0,0.0,3.401
-0.648337425565,-0.51934363982,-0.124390489172,-2.64058622262,-0.0668050573234,2.11076574221,-0.895613925721,0.000638797575717,0.00132629578828,0.00153171079287,-7.80816562748e-05,0.000468588532255,-0.000421168565586,-0.00109690974573,0.573784967799,0.818971284289,0.00613132436737,0.0,0.818969644205,-0.573693646587,-0.0120444442724,0.0,-0.00634667435276,0.0119325193426,-0.999908663182,0.0,0.264854963034,-0.260010355143,0.304940776508,1.0,0.0,0.0,3.417
-0.648340224449,-0.51935110405,-0.124384096897,-2.64057265146,-0.0668000361947,2.11077401651,-0.895613466934,-0.000393975352901,-0.000795495522876,0.00147853865371,-1.90093942142e-05,0.000434837402081,0.000994643737534,-0.00051922992035,0.573785825656,0.818970698798,0.00612924860729,0.0,0.818969220457,-0.573694868406,-0.0120150243755,0.0,-0.00632375618756,0.0119139460158,-0.999909029861,0.0,0.264860676985,-0.260013945032,0.304950550189,1.0,0.0,0.0,3.434
-0.648337425565,-0.519345814349,-0.12438831904,-2.64058002211,-0.0667944792034,2.11076810805,-0.895614707918,0.000361559697669,0.00108379721657,-0.000264328724881,-0.00224562805704,-0.000183577637991,-0.00147650773222,0.00121940224141,0.573787572051,0.818969409906,0.00613797194021,0.0,0.818967922832,-0.573696346824,-0.0120328680559,0.0,-0.00633334070865,0.0119313419922,-0.999908761775,0.0,0.264858230959,-0.260010760769,0.304944654051,1.0,0.0,0.0,3.451
-0.648342662297,-0.519345814337,-0.12438340017,-2.64057731764,-0.0667924295266,2.11076963393,-0.895620571218,-0.00199170163213,0.000551187571233,0.000602750353332,-0.0019387412168,0.000206808332297,5.11444655183e-05,-0.00171687775115,0.573784568063,0.818971523498,0.00613677877187,0.0,0.818970049206,-0.573693401926,-0.0120285490496,0.0,-0.00633053153244,0.0119278634819,-0.999908821065,0.0,0.2648589861,-0.260011768826,0.304946129942,1.0,0.0,0.0,3.468
-0.648340235026,-0.519348598395,-0.124383398868,-2.64057000455,-0.0667882492333,2.11077232117,-0.895616707812,0.000219640479313,-0.000301678856554,0.000433318433527,0.00130059700679,-9.58917049952e-05,0.00046658981951,0.00114230729809,0.573787846618,0.818969211233,0.00613881319312,0.0,0.818967843994,-0.573696823022,-0.0120155174465,0.0,-0.00631864287319,0.011922078024,-0.99990896526,0.0,0.264862163262,-0.26001299578,0.304950709825,1.0,0.0,0.0,3.485
-0.648343101644,-0.519342685148,-0.124386174319,-2.6405722599,-0.066787182894,2.11077125766,-0.895618656055,-0.00212466517677,0.00147909935507,-0.000764095844193,-0.000693902483106,-0.000174662996752,-0.00125009746347,0.000492119747321,0.573790947653,0.818967016339,0.00614177832701,0.0,0.818965627706,-0.573699797579,-0.0120245496843,0.0,-0.00632429435707,0.0119297127852,-0.999908838472,0.0,0.264860089741,-0.260013428008,0.304947352947,1.0,0.0,0.0,3.501
-0.648337449076,-0.51934579003,-0.124383227712,-2.64057927934,-0.066784892407,2.11076892185,-0.895624282099,0.000220871256824,-5.58084536719e-06,-0.000795767533082,-0.00107784728591,2.54110369758e-06,-0.000391408917563,-0.000960340421715,0.573780261734,0.818974490331,0.00614347890129,0.0,0.818973083081,-0.573689029778,-0.0120305113179,0.0,-0.00632835726514,0.0119344435644,-0.999908756313,0.0,0.264860486926,-0.260008982949,0.304945177793,1.0,0.0,0.0,3.522
-0.648340236078,-0.519347546776,-0.124385512504,-2.64057473442,-0.0667838458952,2.11076892185,-0.895620662399,0.000577849091729,4.36183082513e-05,-0.00118109415852,0.00058101527872,0.000353990692917,-0.000299679251745,0.000470597451885,0.573787775469,0.818969216694,0.00614473191509,0.0,0.81896786546,-0.573696611463,-0.0120241524398,0.0,-0.00632232055126,0.0119318793863,-0.999908825102,0.0,0.264860445161,-0.260011307574,0.304947836648,1.0,0.0,0.0,3.537
-0.648348112373,-0.519345443346,-0.124382270084,-2.64057148487,-0.0667873618424,2.11077126153,-0.895622562312,-0.00198205973557,-0.000218569532877,-0.000497872645459,0.000241035764494,0.000217394560224,-2.97794285005e-05,0.000795505901797,0.573783499035,0.818972250572,0.00613970116208,0.0,0.818970892004,-0.573692467133,-0.0120157440657,0.0,-0.00631838230107,0.0119229017637,-0.999908957085,0.0,0.264863038695,-0.260013375487,0.304950920734,1.0,0.0,0.0,3.553
-0.648345326506,-0.51934038471,-0.124382980481,-2.64056635512,-0.0667909955493,2.11077288914,-0.895621185332,-0.000774546295549,0.00231424636133,-0.000259443338056,0.000933219095848,-0.000280000949053,-0.00147669382521,0.000257956791982,0.57378708918,0.81896976261,0.00613605097638,0.0,0.818968335362,-0.573696032139,-0.0120197871876,0.0,-0.00632373591304,0.0119222596972,-0.999908930897,0.0,0.264861431923,-0.260015405807,0.30494940087,1.0,0.0,0.0,3.57
