nelsonifechukwu/NELSON_IML_WORK/CNN-GradCAM/train2dof/data_sample_2022-02-22-11-46-31/robot_state.csv
position_joint1,position_joint2,position_joint3,position_joint4,position_joint5,position_joint6,position_joint7,velocity_joint1,velocity_joint2,velocity_joint3,velocity_joint4,velocity_joint5,velocity_joint6,velocity_joint7,ee_T_00,ee_T_10,ee_T_20,ee_T_30,ee_T_01,ee_T_11,ee_T_21,ee_T_31,ee_T_02,ee_T_12,ee_T_22,ee_T_32,ee_T_03,ee_T_13,ee_T_23,ee_T_33,v_x,v_y,time
0.46507361357,0.547828595512,-0.124005937052,-1.35584787989,0.0795770322288,1.89409413593,0.159167535604,0.000847992377197,0.00117049840847,-0.000455883008151,0.000392224214783,0.000307175183906,0.000305661884431,0.00104146661366,0.573846073918,0.818949163184,0.00192314076602,0.0,0.818905017668,-0.57378697846,-0.0119925931162,0.0,-0.00871801881651,0.00845693492099,-0.999926235479,0.0,0.661670817179,0.260889994552,0.303173875679,1.0,0.0,0.0,0.0
0.465071961977,0.54782642954,-0.124003431399,-1.35584795933,0.0795770322829,1.89409637535,0.1591644785,0.000958518026661,0.000567921534382,-1.75272112445e-05,0.00063968531465,0.000352503706885,-0.000462052289094,0.000322721744866,0.573843188861,0.81895117463,0.00192745221252,0.0,0.818907075422,-0.573784065729,-0.0119914402716,0.0,-0.00871463051257,0.00845977345572,-0.999926241004,0.0,0.661671159021,0.260890523888,0.303175483765,1.0,-0.00022,-0.000289142857143,0.012
0.465066429905,0.547821581809,-0.12400351054,-1.35585574963,0.0795757098545,1.89409708701,0.159164128537,-0.00154041349375,-0.000200798640911,-0.000485857510374,-0.00337207731448,-0.000256425572772,2.16250633099e-05,0.000697158338255,0.573847559287,0.818948117679,0.00192513662481,0.0,0.818903993784,-0.573788450846,-0.0119920616311,0.0,-0.00871642295642,0.00845828021657,-0.999926238013,0.0,0.661671178547,0.260885790124,0.303175272246,1.0,-0.00056,-0.000736,0.029
0.46506636158,0.547807091041,-0.124001277685,-1.3558776727,0.0795764219314,1.89410032346,0.159161598772,1.36867488835e-05,-0.0064375909976,8.97239690556e-05,-0.00376056969594,-3.57345559594e-05,0.0003608392053,0.000665172305605,0.573845366217,0.818949658377,0.0019234389524,0.0,0.818905475021,-0.573786229094,-0.0119972156882,0.0,-0.00872164082452,0.00845982419698,-0.999926179453,0.0,0.661666645764,0.260884959477,0.303175312166,1.0,-0.0009,-0.00118285714286,0.046
0.465065797299,0.547701095187,-0.12400126633,-1.35597954342,0.0795723586708,1.89411881185,0.159156429097,-0.00402371889485,-0.0107539147876,0.000767630291764,-0.00933218040729,4.03634314913e-05,0.0020415401514,-0.000907606392761,0.573846015063,0.818949151222,0.00194566451272,0.0,0.818905215572,-0.573786742063,-0.0119903896194,0.0,-0.00870329046505,0.00847411527235,-0.999926218331,0.0,0.661650159169,0.260874495203,0.303203512591,1.0,-0.00124,-0.00162971428571,0.063
0.465073739521,0.547578145835,-0.123998576286,-1.35615167652,0.0795742686691,1.89414525097,0.15916150903,0.00199209009281,-0.00725101318805,0.000145451214432,-0.0137975941103,0.000203176656863,0.0047921340954,0.000782333915596,0.573851661015,0.818945219714,0.00193524154421,0.0,0.818900970083,-0.573792258748,-0.0120163180532,0.0,-0.00873044769951,0.00848051852826,-0.999925927301,0.0,0.661616416612,0.260864589171,0.303210892513,1.0,-0.00156,-0.00205028571429,0.079
0.465053474126,0.547420661962,-0.124006255405,-1.35636102089,0.0795697335394,1.89422788306,0.159148786752,-0.00336088356278,-0.00739439543208,-0.000155404808794,-0.0164261604102,-0.000124509742663,0.00904081987859,-0.000394838814721,0.57387373138,0.818929685169,0.00196420028815,0.0,0.818885788889,-0.573814178632,-0.012004168313,0.0,-0.00870365137449,0.0084974961675,-0.999926016769,0.0,0.661596365136,0.260828837311,0.303230231517,1.0,-0.0019,-0.00249714285714,0.096
0.465039342663,0.54725139695,-0.123998843775,-1.35654713966,0.0795706889589,1.89433748985,0.159147033653,5.26787775748e-05,-0.0125927341472,0.000124123850505,-0.0181251633907,-0.000160941858642,0.00622150992282,-0.005375915447,0.573887382086,0.818919889771,0.00205760073676,0.0,0.818877152329,-0.573827375819,-0.0119624017729,0.0,-0.00861570698909,0.00855015828592,-0.99992632948,0.0,0.661581451477,0.260806644529,0.303275620034,1.0,-0.00222,-0.00291771428571,0.112
0.465013060054,0.547029771986,-0.124006950109,-1.35682461342,0.0795658998603,1.89448935554,0.159127973368,-0.000514785932302,-0.0130358108542,-0.00211823832213,-0.0178175070342,-0.00341352821466,0.00590197832105,0.000573351743562,0.573915683641,0.818899853991,0.00213637658119,0.0,0.818858127275,-0.573855333444,-0.0119235303223,0.0,-0.00853837053474,0.00859265581803,-0.999926628556,0.0,0.661563456367,0.260768968014,0.303309175263,1.0,-0.00256,-0.00336457142857,0.129
0.464980665161,0.546801306432,-0.124001346532,-1.35717321444,0.07955703371,1.89460756803,0.159100899645,-0.00110924038994,-0.0113453586247,-0.000293270370881,-0.0279244560058,-0.00020467531031,0.00402615006575,0.000901198202134,0.57393321443,0.818887550039,0.00214305048065,0.0,0.818845757588,-0.57387268107,-0.0119380945977,0.0,-0.00854628345465,0.0086066625059,-0.999926440494,0.0,0.661520750486,0.260718988129,0.303315128303,1.0,-0.0029,-0.00381142857143,0.146
0.464942463361,0.546519200988,-0.124004877123,-1.35757070206,0.0795506096774,1.89476192729,0.158962058465,-0.00305882815784,-0.0164951870889,-0.0012702335345,-0.0278814245546,-5.32144680351e-05,0.0148579809905,-0.0089206608853,0.573873823093,0.818929057805,0.00218640192075,0.0,0.818887694919,-0.573812983724,-0.0119310402021,0.0,-0.00851625366588,0.00863749558188,-0.999926430841,0.0,0.661478908703,0.260657638343,0.303339233356,1.0,-0.00324,-0.00425828571429,0.163
0.464895493925,0.546229927651,-0.123997054871,-1.35803774497,0.079542074816,1.89492553573,0.158939031421,-0.00347225696562,-0.0181465725528,0.00145010406865,-0.0258924594629,-0.000213790346985,0.00707215607207,0.000834569870585,0.573911794255,0.818902447376,0.00218654923404,0.0,0.818860856861,-0.57385071676,-0.0119582137703,0.0,-0.00853802206096,0.00865360610909,-0.99992610591,0.0,0.661422895354,0.260589177168,0.303335714966,1.0,-0.00358,-0.00470514285714,0.18
0.464844090537,0.545946229713,-0.124007317977,-1.35853470928,0.0795296368419,1.89509946374,0.15889099752,-0.00500301847122,-0.0168327232517,-0.00132364687296,-0.0278648280476,0.00060752871767,0.0069834022973,-0.00576032328305,0.573946233602,0.818878382709,0.00215920521712,0.0,0.818836307188,-0.573885134595,-0.0119875444817,0.0,-0.00857737040213,0.0086484081405,-0.999925814125,0.0,0.661367405183,0.260503753818,0.303315477118,1.0,-0.0039,-0.00512571428571,0.196
0.464783861149,0.545596180628,-0.124004534282,-1.35913660841,0.0794904195999,1.89529340515,0.158804742156,-0.00211239995657,-0.0209476393942,-0.000196559013827,-0.0356452499189,-0.012538736041,0.0145453834875,-0.00390478307183,0.573946084279,0.818878618235,0.00210898991205,0.0,0.81883584565,-0.573885153007,-0.0120181503532,0.0,-0.00863125453496,0.00862485292872,-0.999925553907,0.0,0.661294305306,0.260405484151,0.303293508059,1.0,-0.00424,-0.00557257142857,0.213
0.464720172976,0.545208916129,-0.124002274526,-1.35982274327,0.0793843554884,1.8955205398,0.158712903934,-0.00305866658054,-0.0247879270325,0.000775033212464,-0.0387595106482,-0.00374081249595,0.0117647458596,-0.00593095215274,0.57393149705,0.81888908586,0.00201212679409,0.0,0.818845572572,-0.573871495785,-0.0120075603953,0.0,-0.00867832502713,0.00853930263841,-0.999925880746,0.0,0.661214138806,0.260286545307,0.303260541317,1.0,-0.00458,-0.00601942857143,0.23
0.464644944534,0.544753050845,-0.124005470748,-1.36057338756,0.0793731489064,1.89577235928,0.158627868936,-0.00290028401084,-0.0244318519092,0.000614210490424,-0.0378911220539,-0.00113326238813,0.0140757712983,-0.00449090585527,0.573965728804,0.818865151205,0.00198826594966,0.0,0.818820987391,-0.573905492624,-0.0120591477655,0.0,-0.00873390726387,0.00854973603299,-0.999925307649,0.0,0.661119392861,0.260160079737,0.303243740453,1.0,-0.00496,-0.00651885714286,0.249
0.464580962287,0.544305474714,-0.124016551755,-1.36133193504,0.0793456290574,1.89605727741,0.158528858926,-0.00559130052472,-0.0260823243279,-6.6132564654e-05,-0.0440265485176,8.42398086599e-05,0.0161217547256,-0.0111002014632,0.573978677844,0.818856101844,0.00197705698681,0.0,0.818811671495,-0.573918371159,-0.0120787735895,0.0,-0.00875627671645,0.00855196048262,-0.999925092989,0.0,0.661039595335,0.260049099336,0.303228675295,1.0,-0.00528,-0.00693942857143,0.265
0.464513320009,0.543799203831,-0.124017227545,-1.36215688222,0.0793101669966,1.89634294094,0.158434605533,-0.00119085259031,-0.0249542126056,0.000107635789732,-0.0459088175553,-0.00209053568154,0.0165050007879,-4.91509280448e-05,0.573993816197,0.818845540041,0.00195638035775,0.0,0.818800671902,-0.573933434676,-0.0121086396748,0.0,-0.0087924427772,0.00855233450627,-0.999924772433,0.0,0.660939772351,0.259926358697,0.303219046285,1.0,-0.00562,-0.00738628571429,0.282
0.464444245756,0.543318217304,-0.124025193584,-1.3629110231,0.0792715179723,1.89661045132,0.158336291588,-0.00518980693454,-0.0337200049819,-0.00163447204577,-0.0521487476126,-0.00609168009354,0.0129125141058,-0.00788239013747,0.574007093214,0.818836239759,0.00195353489371,0.0,0.818791288392,-0.573946677778,-0.0121154455922,0.0,-0.00879951046738,0.00855405375195,-0.999924695555,0.0,0.660854081639,0.259804783287,0.303223827873,1.0,-0.00592,-0.00778057142857,0.297
0.4643566717,0.542767703873,-0.124021289743,-1.36380393595,0.0792203143123,1.8969278765,0.158214307865,-0.0051717583931,-0.0328233351883,0.000265945796653,-0.0495322331659,-0.00160449863049,0.0200253071667,-0.000945323498301,0.574012179889,0.818832719456,0.00193437038271,0.0,0.818787440911,-0.573951774244,-0.0121340162052,0.0,-0.00882566409543,0.00854907586439,-0.999924507628,0.0,0.660750873665,0.259663659331,0.303215612072,1.0,-0.00626,-0.00822742857143,0.314
0.464285677067,0.542170081199,-0.124026828241,-1.36472503485,0.0791686925281,1.89726599508,0.15810636242,-0.00558972979108,-0.0347518705156,0.00105781197157,-0.0525344950521,-0.000147723444782,0.0179019726355,-0.00876034866128,0.574023224274,0.818824945938,0.00194751257042,0.0,0.818779821173,-0.573962741434,-0.0121294182225,0.0,-0.00881424026782,0.00855731650563,-0.999924537904,0.0,0.660644286265,0.259526641261,0.303229329023,1.0,-0.0066,-0.00867428571429,0.331
0.464199262288,0.541528555345,-0.124030406021,-1.36568138598,0.0791173406071,1.89762402812,0.157974486052,-0.00742635254697,-0.0356425407457,-0.000391699809992,-0.0506072221874,-0.00117048412951,0.0186706046412,-0.00712229328998,0.574027911815,0.818821564122,0.00198733155915,0.0,0.818776923098,-0.57396721697,-0.0121132550078,0.0,-0.00877810025356,0.00858069290154,-0.999924655494,0.0,0.660538087598,0.259378369349,0.30325888851,1.0,-0.00694,-0.00912114285714,0.348
0.464117021623,0.540896348017,-0.124027598898,-1.36666587392,0.079059816752,1.89798759987,0.157834222429,-0.00717992136099,-0.0394844405428,-0.00131462105124,-0.0617596614572,-0.00368396123142,0.0242022657388,-0.00652063880884,0.574017695657,0.818828698668,0.00199855246385,0.0,0.818784161381,-0.573956910895,-0.0121123246642,0.0,-0.00877100491328,0.00858923716533,-0.9999246444,0.0,0.660423879386,0.259232474954,0.30326864374,1.0,-0.00726,-0.00954171428571,0.364
0.464030995857,0.54016961909,-0.124030130983,-1.36776879913,0.0789850941362,1.89838753638,0.157700294651,-0.00103282694892,-0.0462906875768,0.00054324896032,-0.0635081421032,-0.000993639993456,0.0254557901809,-0.00724302354426,0.574021309362,0.81882612735,0.0020140675004,0.0,0.818781862623,-0.573960524809,-0.0120964582046,0.0,-0.00874906923347,0.00859287215608,-0.999924805341,0.0,0.660295038065,0.259067866283,0.303292037527,1.0,-0.0076,-0.00998857142857,0.381
0.463927642693,0.539431125851,-0.12403248206,-1.36891472156,0.0789241473534,1.89882822649,0.157573379492,-0.00960459518961,-0.0454458200723,0.000255876729937,-0.0601013213454,-0.00115728233883,0.0207598153688,-0.00545117963417,0.57405092028,0.818805291443,0.00204512374904,0.0,0.818761386952,-0.57398995231,-0.0120860574525,0.0,-0.00872241524513,0.00861264658055,-0.999924868073,0.0,0.660168159774,0.258891967995,0.303306724611,1.0,-0.00794,-0.0104354285714,0.398
0.463825868243,0.538673384699,-0.124039182346,-1.37009091508,0.0788595494282,1.89928967766,0.157419982132,-0.00548712681897,-0.0472296031655,0.000525812447991,-0.0704072823394,-0.000474237251129,0.0320786621493,-0.00104836569106,0.574061281865,0.818797933385,0.0020822701799,0.0,0.818754519024,-0.57400015751,-0.0120666340844,0.0,-0.00868507885464,0.00863202174307,-0.999925025992,0.0,0.660039483197,0.258712076222,0.303322417865,1.0,-0.00828,-0.0108822857143,0.415
0.463702310887,0.537839061998,-0.124044866548,-1.37137922862,0.0787783380235,1.89978213907,0.157254266038,-0.00777396449551,-0.0473878551643,-0.000473545925812,-0.0687264081862,-0.00625636767105,0.0219559454385,-0.00652190277901,0.574080225175,0.818784578541,0.00211090229011,0.0,0.818741611737,-0.574019049799,-0.0120436945746,0.0,-0.00864965979233,0.00864249683141,-0.999925242523,0.0,0.659899109975,0.258505527604,0.303341329139,1.0,-0.00864,-0.0113554285714,0.433
0.463580199132,0.536976673593,-0.124042507632,-1.37275423661,0.0786967019413,1.90029203063,0.157090736608,-0.00683528211441,-0.0422492548273,0.00159182186668,-0.0790060195887,-0.00498880153537,0.0263400954027,-0.00699621727082,0.574098619799,0.818771686636,0.00210874619393,0.0,0.818728652053,-0.574037411648,-0.0120495326453,0.0,-0.00865548360504,0.00864427741889,-0.999925176736,0.0,0.659740352581,0.258295808244,0.303339897523,1.0,-0.009,-0.0118285714286,0.451
0.463466659757,0.536117665172,-0.124051406468,-1.37407120339,0.0786259051665,1.90078879781,0.156922633085,-0.00845324557528,-0.0510409213248,0.00184805127781,-0.0831050551929,-0.00896383733215,0.0262544942265,-0.0106338118473,0.574113756027,0.818760981664,0.00214404923132,0.0,0.818718378018,-0.574052366569,-0.0120351498967,0.0,-0.00862328063349,0.00866508445033,-0.999925274879,0.0,0.659591797917,0.258092935,0.303362773934,1.0,-0.00934,-0.0122754285714,0.468
0.463357564823,0.535271044226,-0.124060917962,-1.37540334074,0.0785549246259,1.9012708398,0.156764729871,-0.00588921412053,-0.0520571710428,0.00019216897934,-0.0832589440106,-0.000443439588456,0.025625024033,-0.00681539405949,0.574134608263,0.818746360568,0.00214372374528,0.0,0.818703683124,-0.574073147642,-0.0120435583304,0.0,-0.00863013146999,0.00866986509177,-0.999925174336,0.0,0.659435144948,0.257889661394,0.303368273125,1.0,-0.00966,-0.012696,0.484
0.463247793566,0.53448869371,-0.124063145121,-1.37668965782,0.0784821122125,1.90173747232,0.156600196401,-0.00271224225523,-0.0532929392046,-0.00244727892913,-0.0862131532917,-0.008770890678,0.0275079346944,-0.01448630904,0.574142405342,0.818740972941,0.00211294023754,0.0,0.81869782148,-0.574081002299,-0.0120675931408,0.0,-0.00866740097414,0.00865854322575,-0.999924950079,0.0,0.659282676177,0.257693439028,0.303348518442,1.0,-0.00996,-0.0130902857143,0.499
0.463119380596,0.5335739249,-0.124058854986,-1.37817983464,0.0784001120385,1.90227693032,0.156417260315,-0.00456380103795,-0.052466563199,0.00164389576095,-0.0884434801334,-0.0039976283627,0.0363059101504,-0.00877472704304,0.57415436968,0.818732650166,0.00208667923745,0.0,0.818689016403,-0.574092939162,-0.0120970461722,0.0,-0.00870646648169,0.00865407991031,-0.999924649332,0.0,0.659104300623,0.257469725283,0.303331087512,1.0,-0.0103,-0.0135371428571,0.516
0.462992596128,0.532680173701,-0.124061677207,-1.379600567,0.0783261908146,1.90282733899,0.156236744073,-0.00706522163327,-0.0583129426188,0.000311413940026,-0.0936733548338,-0.00177775409672,0.0260367285788,-0.00971285658036,0.57417143783,0.81872062207,0.00210947363191,0.0,0.818677180915,-0.574109801953,-0.0120977539723,0.0,-0.00869377855095,0.00867332970742,-0.99992459294,0.0,0.658931754484,0.257240939812,0.303331637883,1.0,-0.01064,-0.013984,0.533
0.462858046217,0.531692726003,-0.124064877031,-1.38117646734,0.0782323113042,1.90339297469,0.156039965267,-0.0108467895698,-0.0625425571974,-0.0015596836791,-0.0941232710007,-0.00140219072427,0.0355023995736,-0.00716434159082,0.574182463139,0.818712937731,0.00209081729652,0.0,0.818669233753,-0.57412088755,-0.0121094626745,0.0,-0.00871395964933,0.0086648957259,-0.999924490394,0.0,0.658756076509,0.257011558987,0.303328004753,1.0,-0.01096,-0.0144045714286,0.549
0.462718753021,0.530690644619,-0.124064834412,-1.38282073095,0.0781372318471,1.90396868102,0.155826886558,-0.00810826732786,-0.0586601748273,0.00227378778437,-0.0969678636148,-0.00542930405819,0.0340173614219,-0.0150767570499,0.574185915488,0.818710654128,0.0020362156107,0.0,0.81866611005,-0.574124453389,-0.0121515092896,0.0,-0.00877969798105,0.0086443726302,-0.999924092982,0.0,0.65855455591,0.256761495702,0.303301463331,1.0,-0.0113,-0.0148514285714,0.566
0.462570017123,0.52960138018,-0.124067948809,-1.38455098981,0.0780202001916,1.90460538041,0.155594108631,-0.0124857960735,-0.0589808616606,-3.12461583553e-05,-0.0974519554896,-0.00114024383779,0.0370976777146,-0.0159123221669,0.574181851857,0.818713533609,0.00202429872596,0.0,0.818668928471,-0.574120536123,-0.0121467056573,0.0,-0.00878264993383,0.00863181460635,-0.999924175544,0.0,0.658351289013,0.256494939372,0.303300516262,1.0,-0.01166,-0.0153245714286,0.584
0.4624475005,0.528564899972,-0.124070437759,-1.38614497478,0.077923049899,1.90521264227,0.155368961979,-0.00473465752741,-0.0627959497395,-8.47144296692e-06,-0.0994119603555,-0.00733372902369,0.0389561220929,-0.0178006846637,0.574160006483,0.818728751633,0.0020652132601,0.0,0.818684708476,-0.574098540647,-0.0121227321944,0.0,-0.00873976174462,0.00865131307567,-0.999924382814,0.0,0.658164192888,0.256262719934,0.30332442982,1.0,-0.01198,-0.0157451428571,0.6
0.462301200167,0.527453306621,-0.124065701627,-1.38786250565,0.0778199803502,1.9058806391,0.155136324851,-0.0113602217079,-0.0625135161711,0.00790339994363,-0.0983717761557,-0.00852075052269,0.0423457851459,-0.0163580486773,0.574151416531,0.818734639858,0.00211832344196,0.0,0.818691289768,-0.574089720566,-0.01209593733,0.0,-0.00868742244053,0.00867931960691,-0.999924596208,0.0,0.657966578009,0.256008549476,0.303347203995,1.0,-0.01232,-0.016192,0.617
0.462165248448,0.526369418764,-0.124076893017,-1.38956038074,0.0777102628207,1.90652112691,0.154908704968,-0.0117179673657,-0.0670405058924,-0.00107528663221,-0.101939886911,-0.00771058155565,0.0371854914422,-0.0183869507794,0.574146505468,0.818738044467,0.00213347195622,0.0,0.818695003838,-0.574084856799,-0.0120753793183,0.0,-0.00866194527608,0.00867986678351,-0.999924812482,0.0,0.657768178199,0.25575099632,0.30335768681,1.0,-0.01264,-0.0166125714286,0.633
0.462014550236,0.525178712669,-0.124074563039,-1.39140453953,0.077595834689,1.9071771946,0.154664932827,-0.00560532301537,-0.0655232884684,0.000765810995629,-0.106683798772,-0.00635068645563,0.0426081738688,-0.00641193917353,0.574137000645,0.818744703551,0.00213583684782,0.0,0.818701641718,-0.574075290879,-0.0120801138587,0.0,-0.00866456490015,0.00868442067405,-0.999924750245,0.0,0.657541774815,0.255476002682,0.303374310938,1.0,-0.01298,-0.0170594285714,0.65
0.461853853194,0.523944698379,-0.124083293287,-1.39341649258,0.077479054906,1.90789334861,0.15438655503,-0.00716804515989,-0.0654144670246,-0.000464766031178,-0.111765911931,-0.00273013268945,0.0416032838762,-0.0131852415908,0.574123464562,0.818754330175,0.00208354512947,0.0,0.818710489977,-0.5740618872,-0.0121173498298,0.0,-0.0087252167818,0.00866284190601,-0.999924410024,0.0,0.657293629931,0.25517237041,0.303346835108,1.0,-0.01334,-0.0175325714286,0.668
0.46169447149,0.522716088508,-0.124084184734,-1.39532748603,0.0773586232081,1.90863718413,0.154131105516,-0.0143845670133,-0.0693334167496,0.000892501899615,-0.109394444444,-0.00163576003375,0.0401169090225,-0.00796146078248,0.57411567666,0.818759668052,0.00213135791132,0.0,0.81871652895,-0.574053970004,-0.0120843554765,0.0,-0.00867083534855,0.00868296304646,-0.999924708549,0.0,0.657072063888,0.254887376386,0.303365359652,1.0,-0.01368,-0.0179794285714,0.685
0.461524027908,0.521487555741,-0.124090157884,-1.3973141079,0.0772463772612,1.90940533976,0.153861209807,-0.010763046663,-0.0621463955961,-0.000278939498776,-0.11896578417,-0.00415574376206,0.0404191818524,-0.0144691069289,0.574114858428,0.818760218772,0.00214018448222,0.0,0.818717158767,-0.574053077795,-0.0120840686907,0.0,-0.00866554207435,0.00869001645389,-0.999924693162,0.0,0.656840394565,0.254586171233,0.303349835887,1.0,-0.01402,-0.0184262857143,0.702
0.46137119144,0.520265823548,-0.12409362304,-1.39922856456,0.0771205423006,1.91010379597,0.15360014894,-0.00775883717745,-0.0812639740619,-0.000873661275013,-0.121110114634,-0.00524841966556,0.042279245244,-0.0155129642213,0.574096782929,0.818772896033,0.0021390311441,0.0,0.818729876722,-0.574035065461,-0.0120780579932,0.0,-0.00866147439892,0.00868543016427,-0.999924768252,0.0,0.656606675186,0.254299652256,0.303357343627,1.0,-0.01434,-0.0188468571429,0.718
0.461208588676,0.519024397019,-0.124096682409,-1.40117842878,0.0769914836074,1.91079538007,0.153345556909,-0.0115384214788,-0.0768023184365,-0.000421411425975,-0.123765679847,-0.0147137733436,0.0304988588958,-0.0182200644267,0.574092307988,0.818776086123,0.00211886855682,0.0,0.818732834072,-0.574030708098,-0.0120846792898,0.0,-0.0086785178813,0.00867267565923,-0.999924731179,0.0,0.656365651988,0.254002091711,0.303360874878,1.0,-0.01466,-0.0192674285714,0.734
0.461033289651,0.517660594663,-0.124099965423,-1.40330205194,0.0768512453795,1.91156107465,0.153049070926,-0.00674300298796,-0.0811986423556,0.000343952887072,-0.122340034722,-0.00956327709267,0.0467841673075,-0.00772997748235,0.57407003637,0.818791704439,0.00211777824327,0.0,0.818748488177,-0.574008494,-0.0120792725563,0.0,-0.00867495248445,0.00866844306508,-0.99992479882,0.0,0.656104722509,0.253680317555,0.30337363724,1.0,-0.015,-0.0197142857143,0.751
0.460839873568,0.516321243238,-0.124103189473,-1.40543752082,0.0767209273675,1.91235643912,0.15275796466,-0.00990655423969,-0.0807849051778,0.00074885113022,-0.129860767782,-0.00492391375609,0.0563466841094,-0.0162540582375,0.574070262626,0.818791553203,0.00211491679705,0.0,0.818748284335,-0.574008717283,-0.0120824783232,0.0,-0.0086792176168,0.00866794288803,-0.999924766144,0.0,0.655849523624,0.253348595499,0.30336582518,1.0,-0.01534,-0.0201611428571,0.768
0.460668626777,0.515028022824,-0.124111389205,-1.40749548718,0.0765996062166,1.91313235039,0.152468733217,-0.012597414706,-0.0773422681403,-0.00185397135875,-0.125113320844,-0.00517531058782,0.0522314826141,-0.0168869036465,0.57405553147,0.818801859747,0.00212324369989,0.0,0.818758683763,-0.57399393644,-0.0120799666543,0.0,-0.00867253712611,0.00867316288016,-0.999924778844,0.0,0.655601869795,0.253037275199,0.303360637049,1.0,-0.01566,-0.0205817142857,0.784
0.46048015924,0.513609239564,-0.124111689184,-1.40977342812,0.0764647162639,1.91392182561,0.152156289235,-0.00639788730454,-0.0785339918697,-0.00162326356372,-0.133824021825,-0.00739670038741,0.0388005216423,-0.0222328535899,0.574041863859,0.818811606713,0.00205867703638,0.0,0.818767422333,-0.573980386569,-0.0121313998365,0.0,-0.00875185925104,0.0086496755969,-0.99992429117,0.0,0.655295568167,0.252670228537,0.303334176466,1.0,-0.01602,-0.0210548571429,0.802
0.460277454452,0.512193514684,-0.124112772488,-1.41205423812,0.0763233578487,1.91473211978,0.151839085179,-0.0125032055056,-0.0807773383406,0.000987795987466,-0.134427574128,-0.0113886399167,0.0528125301463,-0.012424257104,0.57402572551,0.818823019043,0.0020191184784,0.0,0.818778229091,-0.573964337751,-0.012161309861,0.0,-0.008799227868,0.00863428120483,-0.999924008501,0.0,0.655025641378,0.25234035358,0.3033158123,1.0,-0.01634,-0.0214754285714,0.818
0.460067118145,0.510661403023,-0.124121560855,-1.41450213576,0.0761636759954,1.91566816536,0.151494606548,-0.0144011530679,-0.0872676274703,-0.00101282604652,-0.138518323147,-0.0117644536919,0.0614309851249,-0.0237488746169,0.574007186049,0.818835998194,0.00202616065977,0.0,0.818791430648,-0.57394589748,-0.0121427659434,0.0,-0.00878019631981,0.0086292040343,-0.999924219624,0.0,0.654732921564,0.251964814068,0.303304959742,1.0,-0.0167,-0.0219485714286,0.836
0.45988073227,0.509246160459,-0.12411946058,-1.41671170264,0.0760312538662,1.91648256782,0.151187756522,-0.00880366980015,-0.0876105130842,0.00141531309353,-0.137640071828,-0.0106669411897,0.0508166559291,-0.0112101774357,0.57398644272,0.818850491795,0.00204513104807,0.0,0.81880609344,-0.573924995615,-0.0121419790292,0.0,-0.00876888249977,0.00864406353959,-0.999924190559,0.0,0.654458789472,0.251634304936,0.303314314006,1.0,-0.01702,-0.0223691428571,0.852
0.459682290837,0.507814740053,-0.124125692854,-1.41894927915,0.0758875993458,1.91727174945,0.150866004812,-0.0155098658984,-0.0868183792471,0.000307938924187,-0.138964617978,-0.00387816792145,0.0510077749967,-0.0232057540471,0.573957192303,0.818871039223,0.00202717191303,0.0,0.818826373029,-0.573895795737,-0.0121545616571,0.0,-0.00878980232825,0.00863626618232,-0.999924074258,0.0,0.654160515193,0.251264296175,0.303317892325,1.0,-0.01736,-0.022816,0.869
0.459437630704,0.506074372204,-0.124131249204,-1.4216691197,0.0757198408782,1.91828624284,0.150503759177,-0.0136016799452,-0.0880077945242,-0.000338405404805,-0.144013060033,0.000266706333718,0.0503924274448,-0.0245101162211,0.57397025707,0.818861814719,0.00205409241563,0.0,0.818817523708,-0.573908762949,-0.0121384340232,0.0,-0.0087610071514,0.00864919348575,-0.999924215231,0.0,0.653846623803,0.250863191083,0.303329675407,1.0,-0.01772,-0.0232891428571,0.887
0.459225663182,0.504524323226,-0.124137656989,-1.42399479556,0.0755706783716,1.9191897025,0.150177239099,-0.0167000251443,-0.0964349231235,-0.000232548749132,-0.150974350573,-0.00893969280035,0.0547649452061,-0.0199217603706,0.573965289283,0.818865067312,0.00214362655806,0.0,0.818822065246,-0.573903526119,-0.0120795312797,0.0,-0.00866143811361,0.00868864767413,-0.999924740614,0.0,0.653552797308,0.250475095281,0.303376298854,1.0,-0.01806,-0.023736,0.904
0.458998047375,0.502855021638,-0.124141221122,-1.42647259555,0.0754151846395,1.92012277266,0.149831016813,-0.0154517999878,-0.100138419372,0.000968291118624,-0.148598452901,-0.0134551544617,0.0497016889297,-0.0165739389444,0.573951542882,0.818874385107,0.00226157917388,0.0,0.818832997157,-0.573889360996,-0.012011286521,0.0,-0.00853800302029,0.00874592047005,-0.9999253029,0.0,0.653273438458,0.250117884455,0.303451760131,1.0,-0.01838,-0.0241565714286,0.92
0.458774303625,0.50124628981,-0.124149363141,-1.4288759234,0.0752556934218,1.92097715044,0.149491140099,-0.014507130918,-0.100983668839,0.00188190340042,-0.153618409964,-0.0111821862471,0.0561947164093,-0.0233610653356,0.573941767226,0.818881109512,0.00230721010852,0.0,0.818840382915,-0.573879467466,-0.0119804436297,0.0,-0.00848666185804,0.00876548256038,-0.999925568673,0.0,0.652974209548,0.249735371937,0.303505027369,1.0,-0.0187,-0.0245771428571,0.936
0.458532962144,0.499532384887,-0.124147933114,-1.43147889387,0.0750945450916,1.92191304671,0.14912718345,-0.0129716569463,-0.100459919406,-0.000114384002915,-0.154380432703,-0.0123411784475,0.0604906250607,-0.0215643313003,0.573929373723,0.818889677115,0.0023489556388,0.0,0.818849423856,-0.573866832744,-0.0119677160828,0.0,-0.0084524141613,0.00879223404553,-0.999925623892,0.0,0.652647166897,0.249330008735,0.303542859623,1.0,-0.01904,-0.025024,0.953
0.458289423923,0.497969830423,-0.124152657361,-1.43396741116,0.0749432034728,1.92284100549,0.148763678037,-0.0183509102757,-0.104154381388,-0.000659170402786,-0.155974040178,-0.00826476735785,0.056963917598,-0.0219972403137,0.573920356935,0.818895995601,0.00234929471996,0.0,0.818855708894,-0.573857776357,-0.0119719433164,0.0,-0.00845577819728,0.00879484470267,-0.999925572491,0.0,0.652342457597,0.248932291968,0.303528650706,1.0,-0.01936,-0.0254445714286,0.969
0.458038610812,0.496289335134,-0.124148342354,-1.43664651964,0.0747762473642,1.92378752662,0.148368980355,-0.0108185253835,-0.100501026823,0.00103376803712,-0.159082369234,-0.00447439387253,0.0658653290014,-0.0295231104497,0.573889811366,0.818917525597,0.00230598831233,0.0,0.818876536144,-0.573827268412,-0.0120096411194,0.0,-0.00851183049362,0.00878069945383,-0.999925221233,0.0,0.651997903161,0.248513047469,0.303506667084,1.0,-0.0197,-0.0258914285714,0.986
0.457762071306,0.494614639233,-0.124151839738,-1.4393799027,0.0746082801874,1.92473208139,0.147992646451,-0.0153686093769,-0.0968273460011,-0.00275698074194,-0.15992258267,-0.00778058468883,0.0535770224626,-0.0219692594944,0.573902892889,0.818908624894,0.00220918739976,0.0,0.818866197165,-0.573840574124,-0.0120786394441,0.0,-0.00862374668577,0.00874116329849,-0.999924608687,0.0,0.651646557552,0.248065831785,0.30345433284,1.0,-0.0215445714286,-0.028315722449,1.003
0.457448972213,0.492315155813,-0.124222436116,-1.4428121474,0.0744151646344,1.9259940816,0.147493214863,-0.0163376035561,-0.165000415194,-0.00648434893162,-0.241188765597,-0.0129355213831,0.0882608783546,-0.0359500509992,0.573921599858,0.818895218477,0.00231630572624,0.0,0.818854303991,-0.573858948818,-0.0120117691526,0.0,-0.00850731134741,0.00879069993069,-0.999925171825,0.0,0.651229387861,0.247498285935,0.303532770151,1.0,-0.0348434285714,-0.0457942204082,1.02
0.457041243471,0.489039291846,-0.124266446451,-1.44800815214,0.0741421942937,1.92799844248,0.146693120155,-0.0291195197768,-0.214854376874,-0.000736705422726,-0.341190079202,-0.0189937940831,0.127354639812,-0.0556562338409,0.573819538269,0.818966498187,0.00239984339975,0.0,0.818926456804,-0.573756334125,-0.0119947613204,0.0,-0.00844654494582,0.00884829401184,-0.999925178987,0.0,0.650575839714,0.246725958185,0.303513206357,1.0,-0.0481422857143,-0.0632727183673,1.037
0.456395703338,0.484581645848,-0.124357458187,-1.45504378385,0.0737429128837,1.9306497763,0.145639774102,-0.0429664957747,-0.284369128169,-0.00778308443343,-0.454210065865,-0.027303199975,0.163733857239,-0.0724074522197,0.573793274917,0.818984724788,0.00245868371013,0.0,0.818945455463,-0.573729842676,-0.0119647607637,0.0,-0.00838849758759,0.00887899806127,-0.999925395468,0.0,0.64970317238,0.245593074542,0.303493444774,1.0,-0.0614411428571,-0.0807512163265,1.054
0.455598553005,0.479376388616,-0.124504527225,-1.46337191056,0.0732377331591,1.93351257304,0.144374290754,-0.0556009498273,-0.345321062378,-0.0125784041325,-0.552753088023,-0.0337853694389,0.195919628814,-0.0837445119873,0.573787065039,0.81898975845,0.00221956057922,0.0,0.818947310167,-0.57372455887,-0.0120905177646,0.0,-0.00862875993974,0.00875525443485,-0.999924442156,0.0,0.648620405883,0.244184612005,0.303392119572,1.0,-0.0739577142857,-0.0972015673469,1.07
0.454536511668,0.472709402048,-0.124654264602,-1.47381435182,0.0726078966379,1.93717976004,0.142864911071,-0.0674892573651,-0.408344587973,-0.00904832877397,-0.651436019444,-0.0407206103254,0.233811462261,-0.0962505875141,0.573863529658,0.818936456258,0.00211585458375,0.0,0.818892542099,-0.573801350927,-0.0121557011222,0.0,-0.00874083487,0.00870853875662,-0.999923876682,0.0,0.647272019676,0.242407939199,0.303358411976,1.0,-0.0872565714286,-0.114680065306,1.087
0.453305023198,0.464943553467,-0.124776087651,-1.48559297301,0.0719239686181,1.94158253998,0.141000326923,-0.0791809387825,-0.474634786973,0.000940280665741,-0.719098724248,-0.0474718850663,0.264677243623,-0.115896145593,0.573810741979,0.818972493004,0.00245662229545,0.0,0.818932962384,-0.573747067758,-0.0119938426763,0.0,-0.00841330938101,0.00889417597962,-0.999925052121,0.0,0.645784253239,0.240437515848,0.303498245914,1.0,-0.100555428571,-0.132158563265,1.104
0.451898524739,0.456765600928,-0.124859247405,-1.49839964826,0.0711126143495,1.94601593576,0.139039954595,-0.0922712222062,-0.533325741621,-0.00383198100545,-0.858674720691,-0.0479952923857,0.272429821821,-0.131259177701,0.573794158424,0.818984602982,0.00228708059941,0.0,0.818942377263,-0.573730690284,-0.0121336164992,0.0,-0.00862524282291,0.00883535559882,-0.999923767933,0.0,0.64406947919,0.238247836566,0.303420125375,1.0,-0.113072,-0.148608914286,1.12
0.450173685352,0.446893299474,-0.125033894144,-1.51330087313,0.0700708792749,1.95133432148,0.136694533388,-0.109343094464,-0.606802637068,-0.0119510398875,-0.903559505612,-0.064626707099,0.329314045925,-0.138412179628,0.573809981787,0.818972978223,0.0024723762399,0.0,0.818934167367,-0.573746790109,-0.0119246492723,0.0,-0.00834760831453,0.00886736688348,-0.99992584087,0.0,0.642002342887,0.23544423274,0.30357405796,1.0,-0.127153142857,-0.167115559184,1.138
0.448248661779,0.436193297158,-0.125154058989,-1.52975504181,0.0690113930469,1.95697425044,0.134101896646,-0.121786916534,-0.647905232878,-0.00708268303624,-0.977398915633,-0.0630583986605,0.337906518815,-0.151173418538,0.57379041346,0.818986999961,0.00236690041429,0.0,0.818946176255,-0.573726980226,-0.0120523632565,0.0,-0.00851293809916,0.00885406500819,-0.999924564864,0.0,0.639857488644,0.232717524248,0.303546255014,1.0,-0.139669714286,-0.183565910204,1.154
0.446048294903,0.424387443469,-0.125300103015,-1.54740495053,0.0678009294219,1.96318870341,0.131156699372,-0.137251390686,-0.701917095331,-0.0107199375178,-1.05764570139,-0.0728365433808,0.354889858104,-0.176524790537,0.57371667164,0.819037811784,0.00264394606194,0.0,0.819000969423,-0.573652543889,-0.0118708835107,0.0,-0.00820615406408,0.00897609098256,-0.999926041678,0.0,0.637455153318,0.229539471585,0.303728022586,1.0,-0.152968571429,-0.201044408163,1.171
0.443560513559,0.411707958017,-0.125449562228,-1.56632716047,0.0664174579058,1.96988278029,0.128015355667,-0.150847796243,-0.771716211997,0.000194141411524,-1.13958114174,-0.0861844293709,0.403064347306,-0.194288861414,0.573697482365,0.819050226208,0.0029449242359,0.0,0.819018286759,-0.573633411364,-0.0115975093474,0.0,-0.00780978608137,0.0090655832572,-0.999928408658,0.0,0.634856120363,0.226057338048,0.303902625708,1.0,-0.166267428571,-0.218522906122,1.188
0.440604810524,0.397367823023,-0.125622365569,-1.58775099896,0.0649926853667,1.97719350893,0.124366526715,-0.173028836964,-0.80650511116,-0.0120976340118,-1.19558057233,-0.0855260365029,0.423122471592,-0.208559306894,0.573728046751,0.819028065239,0.00314700231149,0.0,0.818998137131,-0.573662600416,-0.0115766644786,0.0,-0.00767644337561,0.00921942363232,-0.999928034633,0.0,0.631805764845,0.222048408006,0.304019087987,1.0,-0.180348571429,-0.23702955102,1.206
0.43787850307,0.384827824138,-0.125749834509,-1.60673098542,0.0635851948041,1.9835441114,0.121085652614,-0.189323874729,-0.85872218276,-0.00805112088091,-1.29259013448,-0.103140964653,0.424824766553,-0.234104500999,0.573707202103,0.819043159424,0.0030159834844,0.0,0.819011578903,-0.573642239119,-0.0116345185642,0.0,-0.00779922748339,0.00914510856049,-0.999927766911,0.0,0.629028916319,0.218430957283,0.303958912433,1.0,-0.192082857143,-0.252451755102,1.221
0.434487084904,0.369658071284,-0.12592063403,-1.62918664634,0.0618948834533,1.99103262383,0.117029795333,-0.208590248932,-0.901598127094,-0.010848432415,-1.34963253593,-0.0982351626347,0.445203368251,-0.232282372059,0.573644590986,0.819086606176,0.00312437452837,0.0,0.81905670546,-0.573579611825,-0.0115450872982,0.0,-0.00766449640924,0.00918199357074,-0.999928470686,0.0,0.625703232311,0.214058993242,0.304054878175,1.0,-0.205381714286,-0.269930253061,1.238
0.430208013427,0.35194567722,-0.126141487218,-1.65552766881,0.0598404406658,1.99965202389,0.112221595099,-0.243378022557,-0.949189140449,-0.0148770653119,-1.43416893397,-0.106898631214,0.459839903872,-0.269775304653,0.573715221703,0.819037519482,0.00302208027859,0.0,0.819006643601,-0.573650973086,-0.0115510049963,0.0,-0.00772723596035,0.00910226646483,-0.999928716744,0.0,0.621718885295,0.208747493127,0.304025823034,1.0,-0.220245142857,-0.289465044898,1.257
0.426252758005,0.336218230669,-0.126347862878,-1.67855353101,0.0580994496113,2.00711543614,0.107848993893,-0.252279974755,-0.987003819133,-0.0121443122143,-1.46812360458,-0.126676159802,0.474957490487,-0.2759635341,0.573796378054,0.818980253751,0.00313167678998,0.0,0.818950512495,-0.573731433827,-0.0115345924893,0.0,-0.00765000935514,0.00918337251317,-0.999928568962,0.0,0.61816632903,0.204007995809,0.304087361549,1.0,-0.232761714286,-0.305915395918,1.273
0.421767391448,0.318820264989,-0.126477449561,-1.7038939778,0.056038095631,2.01517140616,0.102887930152,-0.269574700146,-1.03549931632,-0.00735307764787,-1.51408429998,-0.120556431676,0.456837678585,-0.293960871253,0.573694447445,0.819051562491,0.00315687407169,0.0,0.819022177945,-0.57362947484,-0.0115171406796,0.0,-0.00762240280803,0.00919304653064,-0.999928690893,0.0,0.614125852526,0.198783157906,0.304122613943,1.0,-0.246060571429,-0.323393893878,1.29
0.417202928804,0.30179437268,-0.126638731411,-1.72850397516,0.053989415664,2.02289339527,0.0978469552498,-0.2942709816,-1.06544616525,-0.00206741690175,-1.57060343172,-0.121498577903,0.470328010527,-0.316596059558,0.573541511011,0.819158503401,0.00319817986452,0.0,0.81912978591,-0.573476592485,-0.0114777440719,0.0,-0.00756815607595,0.00920286424938,-0.999929012632,0.0,0.610119069568,0.193597431723,0.304155622751,1.0,-0.258577142857,-0.339844244898,1.306
0.411870741712,0.283014192832,-0.12685648717,-1.75534620652,0.0517575532938,2.03111686024,0.0922626322498,-0.325765869775,-1.11075073328,-0.00718284382945,-1.5817384753,-0.126467617437,0.471445179507,-0.331294735699,0.573566414074,0.819140801143,0.00326549394927,0.0,0.819112564959,-0.573500811971,-0.0114965863194,0.0,-0.00754470475567,0.00926904137175,-0.999928578601,0.0,0.605384599966,0.187403885583,0.304210227429,1.0,-0.272658285714,-0.358350889796,1.324
0.405704993632,0.262415020676,-0.127119774352,-1.78456436584,0.0492373464434,2.03989160137,0.0858762822672,-0.346444541167,-1.16313608031,-0.0109416323343,-1.60464719699,-0.142871343233,0.476602571204,-0.360963715474,0.573555383131,0.819148217053,0.00334183796886,0.0,0.819121007457,-0.573489602373,-0.0114541701138,0.0,-0.00746629744791,0.00930714980334,-0.999928813149,0.0,0.600689035583,0.181213021418,0.304266456865,1.0,-0.285957142857,-0.375829387755,1.341
0.400074957509,0.244809265503,-0.127371595654,-1.80937657813,0.0469848898006,2.04720603304,0.0802988130126,-0.38737395159,-1.18053046593,-0.00948758255252,-1.64937418594,-0.144829108313,0.474388927708,-0.377146613706,0.573662647685,0.819073125355,0.00333599648632,0.0,0.819046171947,-0.573597283464,-0.0114136550633,0.0,-0.00743524275367,0.00928010140582,-0.999929295942,0.0,0.596392843736,0.175454730152,0.304273563212,1.0,-0.297691428571,-0.391251591837,1.356
0.39379407453,0.225393296105,-0.127566685507,-1.83636068283,0.0445936750524,2.05497964989,0.0739165924736,-0.389524543388,-1.21354943527,-0.00982985481829,-1.67917727545,-0.144506952417,0.4821850991,-0.409251673737,0.573535676854,0.819161633868,0.00343392992677,0.0,0.819135271503,-0.573469196663,-0.0114557566129,0.0,-0.00741500602959,0.00938331890373,-0.999928482949,0.0,0.591238795901,0.168825170616,0.304306705515,1.0,-0.310990285714,-0.408730089796,1.373
0.385637150804,0.201740812515,-0.127864444688,-1.86914119479,0.0414097524451,2.06398591261,0.0658919827489,-0.452357838912,-1.25227469381,-0.0226324230901,-1.7335833724,-0.169703491632,0.456506994795,-0.432349450792,0.573462857043,0.819213329045,0.0032588354262,0.0,0.819184777119,-0.573397007481,-0.0115290784702,0.0,-0.00757631414067,0.00928126534399,-0.999928226213,0.0,0.58552505365,0.161371315807,0.304266413872,1.0,-0.325071428571,-0.427236734694,1.391
0.377669786765,0.179851952832,-0.128252041154,-1.89883226272,0.0385634371762,2.07192740053,0.0581654132804,-0.489788354995,-1.29557651283,-0.0329795846121,-1.74747906453,-0.166707713259,0.458652755327,-0.459380463029,0.573509169897,0.819180639054,0.00332558947796,0.0,0.819152511684,-0.573442565965,-0.0115556497846,0.0,-0.00755927555108,0.00935161613685,-0.999927699701,0.0,0.579945005671,0.153975790924,0.304331701989,1.0,-0.338370285714,-0.444715232653,1.408
0.369056621065,0.1573932075,-0.128640921217,-1.9289315196,0.0355317586234,2.07976367239,0.0500181243907,-0.516017078374,-1.3309810856,-0.0236387937035,-1.76675188795,-0.176638569335,0.473654623317,-0.484066225222,0.573591768371,0.819122467895,0.00340774811903,0.0,0.819095398412,-0.57352489402,-0.0115182959083,0.0,-0.00748061061648,0.00939825146738,-0.999927854065,0.0,0.574150179827,0.14627720958,0.304397979043,1.0,-0.351669142857,-0.462193730612,1.425
0.361554430601,0.138546688987,-0.12893390431,-1.95401404541,0.0328787824241,2.08608062311,0.0429647261426,-0.55242229632,-1.34322031208,-0.0258199688001,-1.7686314479,-0.179623371392,0.454374954844,-0.515809746037,0.573571347521,0.819136607325,0.00344597505566,0.0,0.819110281736,-0.573504676497,-0.0114664419504,0.0,-0.00741644233735,0.00939963713163,-0.999928319033,0.0,0.568831484056,0.139302634633,0.304426646224,1.0,-0.363403428571,-0.477615934694,1.44
0.351157411708,0.11365760334,-0.12945321555,-1.98652032556,0.0293951183782,2.09402927366,0.0332491233783,-0.592834231053,-1.3984998307,-0.039054206948,-1.81603650578,-0.206232219338,0.450462036794,-0.553648926855,0.573619812742,0.819102177759,0.00356085959738,0.0,0.819077555079,-0.573553086283,-0.0113825692019,0.0,-0.00728128539718,0.00944606925322,-0.9999288748,0.0,0.562619534823,0.131047619445,0.304494754079,1.0,-0.376702285714,-0.495094432653,1.457
0.339960441394,0.088236230133,-0.12989408985,-2.01930368719,0.0256983529909,2.1015082161,0.0229032659494,-0.629871565264,-1.43376628812,-0.021651884545,-1.83565603542,-0.19880707546,0.404965964271,-0.590959871267,0.573555881973,0.81914697592,0.00355373004166,0.0,0.819122339001,-0.573489284905,-0.0113745658999,0.0,-0.00727955531294,0.009435070495,-0.999928991238,0.0,0.55575120365,0.122048732067,0.304539053841,1.0,-0.38998,-0.512545142857,1.475
0.330064090603,0.0669305711528,-0.130257924288,-2.04656799872,0.0226208982623,2.10748690592,0.0138095941607,-0.671752126203,-1.41279281795,-0.0186603733248,-1.80921807338,-0.21625361361,0.390398857278,-0.594120309777,0.573494169645,0.819190234596,0.00354172658196,0.0,0.819164794968,-0.573426778701,-0.0114680013691,0.0,-0.00736369564094,0.00947827213812,-0.999927966577,0.0,0.549882353209,0.114403044473,0.304499838557,1.0,-0.38998,-0.512545142857,1.49
0.316698990882,0.0402143235035,-0.130829690989,-2.08018256933,0.0185635097497,2.11420713564,0.00203877221402,-0.711534648658,-1.39385503771,-0.018499707695,-1.72992268804,-0.204536091883,0.3455798099,-0.625084396179,0.573794901627,0.81898058296,0.00331096698824,0.0,0.818951658097,-0.573727555409,-0.0116456329249,0.0,-0.0076381013027,0.00939390756529,-0.999926704268,0.0,0.542439221165,0.10444870816,0.304453144649,1.0,-0.38998,-0.512545142857,1.509
0.305123637055,0.0179150721158,-0.131198772927,-2.10752778088,0.0152251690023,2.11947168409,-0.00823539044873,-0.733321790221,-1.37459213735,-0.0250039807465,-1.68114595663,-0.212966440898,0.312372572226,-0.642852312214,0.573860178523,0.818934251829,0.00345450256434,0.0,0.818907004617,-0.573792137127,-0.0116037951364,0.0,-0.00752072367653,0.00948805497038,-0.999926705078,0.0,0.536222015493,0.0962235215375,0.304543298424,1.0,-0.38998,-0.512545142857,1.525
0.292272392329,-0.00547381750727,-0.131665407418,-2.13575862229,0.0116759138289,2.12454331144,-0.0195181055649,-0.763388170382,-1.36151275058,-0.0165983307168,-1.61452244401,-0.1966543179,0.284479490442,-0.670337151423,0.574053304481,0.818798201548,0.00361326126883,0.0,0.818772852322,-0.573984543573,-0.0115545203996,0.0,-0.00738700662552,0.00959153551914,-0.999926714604,0.0,0.52964083787,0.0873940765057,0.304640329035,1.0,-0.38998,-0.512545142857,1.542
0.279146655644,-0.028609534578,-0.131962853896,-2.16321373773,0.00809354173273,2.12914966671,-0.0311482377092,-0.780542647114,-1.35630537602,-0.0149709409993,-1.54024826756,-0.203650468259,0.260433610688,-0.687296775455,0.573948440989,0.818870858771,0.00380140012517,0.0,0.818848152986,-0.573879422352,-0.0114393117802,0.0,-0.00718591210431,0.0096785309752,-0.999927341713,0.0,0.5230337787,0.0787574774468,0.304748423122,1.0,-0.38998,-0.512545142857,1.559
0.265347211399,-0.0514163767789,-0.132469966038,-2.19002031677,0.00449757615039,2.13323801318,-0.0431272923334,-0.816731312631,-1.35475409469,-0.0196361966663,-1.54097559948,-0.203119274427,0.236824912307,-0.714287162916,0.574194855534,0.818697860345,0.00385074601624,0.0,0.818675565129,-0.574125355539,-0.0114517286803,0.0,-0.00716483278739,0.00972822266465,-0.999927010764,0.0,0.516409789971,0.0699048700239,0.304769467466,1.0,-0.38998,-0.512545142857,1.576
0.251279829877,-0.0738982429401,-0.132787279609,-2.21606455594,0.000888765364211,2.13684993897,-0.0555681611159,-0.837723037748,-1.33843350684,-0.0225236544559,-1.50494067625,-0.20329042298,0.218624355543,-0.736878291114,0.574046478943,0.818801850331,0.00386222845476,0.0,0.818779564594,-0.573976778841,-0.0114642425037,0.0,-0.00717025157662,0.0097435093683,-0.999926823081,0.0,0.509758410782,0.0612667026734,0.304767823888,1.0,-0.38998,-0.512545142857,1.593
0.237495723162,-0.0946890177762,-0.133211585296,-2.23981571962,-0.00242611525309,2.13969812705,-0.0676756873015,-0.860053166204,-1.28159680004,-0.0179471775629,-1.45022323186,-0.207869419551,0.171662484987,-0.758604575162,0.574101394147,0.81876355588,0.00381781388359,0.0,0.818739670185,-0.574030436332,-0.011625727165,0.0,-0.00732732141752,0.00980033054001,-0.999925129138,0.0,0.503510463877,0.0530396989038,0.304733010939,1.0,-0.38998,-0.512545142857,1.609
0.222512878721,-0.116543537705,-0.133530135813,-2.26439133902,-0.0060967151168,2.14233872903,-0.0808913472464,-0.891190971328,-1.28373783103,-0.0254574091968,-1.41067136681,-0.206117735223,0.138659130083,-0.789281878344,0.573911004568,0.818897564559,0.00369925615238,0.0,0.818872198773,-0.573840522348,-0.0116672143192,0.0,-0.00743161338995,0.00972534795282,-0.999925091559,0.0,0.496855021025,0.0444249774532,0.304696138044,1.0,-0.38998,-0.512545142857,1.626
0.206019747767,-0.13933583936,-0.133934095017,-2.2896520246,-0.00982284443716,2.14460802814,-0.0954491804319,-0.91436287309,-1.25240186389,-0.0218200741987,-1.37317772556,-0.205450227157,0.103874660888,-0.816589952945,0.573822472198,0.818960033374,0.00360292084826,0.0,0.818932191509,-0.573750743457,-0.0118700039702,0.0,-0.007654027696,0.00976201083822,-0.999923056542,0.0,0.48979375406,0.0352577463075,0.304621151028,1.0,-0.38998,-0.512545142857,1.644
0.190818736983,-0.15946146701,-0.134407859838,-2.31148585177,-0.0132159677113,2.14628291187,-0.108857662185,-0.962328064364,-1.25193062672,-0.036092535014,-1.3594109297,-0.21722132513,0.093163429039,-0.842773505001,0.573806715875,0.818971177891,0.00357903640917,0.0,0.818942846495,-0.573734846643,-0.0119032273982,0.0,-0.00769513041277,0.00976136602285,-0.999922747367,0.0,0.483520125196,0.0270246774474,0.304600826807,1.0,-0.38998,-0.512545142857,1.66
0.17623405065,-0.17803856959,-0.134740146635,-2.33125138786,-0.0162152938328,2.14739419054,-0.121758815661,-0.984713908176,-1.22842784579,-0.0282111887524,-1.30902103048,-0.196650179049,0.062689477,-0.881301320219,0.57374680904,0.819012960462,0.00362168662745,0.0,0.8189840583,-0.573673363331,-0.0120304345702,0.0,-0.00777556638821,0.00986871706142,-0.999921071381,0.0,0.477649680633,0.019429773119,0.304606286865,1.0,-0.38998,-0.512545142857,1.675
0.159018413657,-0.198860132817,-0.135309129229,-2.35296093024,-0.0197387563547,2.14839490978,-0.136918589891,-1.01451718193,-1.2124478251,-0.02651648136,-1.26190320333,-0.202528344004,0.0515230506227,-0.900086008077,0.573856941797,0.818935304867,0.00373144674416,0.0,0.818908072534,-0.573783382055,-0.0119560075791,0.0,-0.007650301871,0.00991694073832,-0.999921560507,0.0,0.471037706712,0.0106354121099,0.304657819272,1.0,-0.38998,-0.512545142857,1.692
0.14025003158,-0.220560587732,-0.135926716116,-2.375142485,-0.0233516926763,2.14897582881,-0.153547415251,-1.06905509083,-1.22040010489,-0.0455081388586,-1.21676532806,-0.215650169058,0.0331982318555,-0.931669168351,0.573963725992,0.818859683035,0.00389969815436,0.0,0.818834384272,-0.573889208504,-0.01192369059,0.0,-0.00752597970837,0.0100371660622,-0.999921304367,0.0,0.464030317535,0.00136208510948,0.304723544395,1.0,-0.38998,-0.512545142857,1.71
0.122074695717,-0.240589952376,-0.136433072597,-2.39538091339,-0.0267533237257,2.14908585348,-0.16976954634,-1.07814617845,-1.16837090488,-0.0239494513009,-1.16142871108,-0.188876458234,0.0135709983766,-0.970288803769,0.573915200189,0.818893647103,0.00390955602424,0.0,0.818867846857,-0.573839815576,-0.0120025974002,0.0,-0.00758553789692,0.0100900770787,-0.999920321805,0.0,0.457386947332,-0.00730278152341,0.304719707386,1.0,-0.38998,-0.512545142857,1.727
0.103202893525,-0.260300897913,-0.137044689575,-2.41490347615,-0.0300903214723,2.14902622525,-0.186610200308,-1.11392742534,-1.14748160543,-0.023718903907,-1.13702323305,-0.193106772969,-0.0130560869037,-1.00577700374,0.574012789079,0.818824340401,0.00409444033145,0.0,0.818801097301,-0.573936926689,-0.0119127722133,0.0,-0.00740465991219,0.0101908120448,-0.999920656033,0.0,0.450779892139,-0.0160662834564,0.304751569872,1.0,-0.38998,-0.512545142857,1.744
0.0861870927981,-0.277338604039,-0.137589122247,-2.43137302518,-0.0330362055247,2.14876024007,-0.201881180445,-1.13852224628,-1.12282117746,-0.0384126332306,-1.10124124622,-0.194866627707,-0.0344889613989,-1.01853780231,0.574045271918,0.818800358162,0.00432968392681,0.0,0.81878148139,-0.573970480362,-0.0116413189256,0.0,-0.00704694101796,0.0102279060266,-0.999922862305,0.0,0.445018159829,-0.023758585097,0.304842412602,1.0,-0.38998,-0.512545142857,1.759
0.0664189087843,-0.296209513923,-0.138097947677,-2.44943933199,-0.0362237091105,2.14792967083,-0.219834436011,-1.18661063459,-1.1031846542,-0.040059047056,-1.03388091706,-0.184126497929,-0.0385895884168,-1.07068974689,0.573909069693,0.818895257327,0.00443668257086,0.0,0.81887741099,-0.573833447569,-0.0116493399645,0.0,-0.00699380704496,0.0103189596705,-0.999922299849,0.0,0.438412510361,-0.0323879497107,0.304868611228,1.0,-0.38998,-0.512545142857,1.776
0.0448170904013,-0.315700446324,-0.138723653859,-2.46793098249,-0.0396415576933,2.14672965748,-0.239385053365,-1.19749177224,-1.08046010621,-0.0272610721031,-1.01986313355,-0.183293386721,-0.0738531140184,-1.09461830944,0.573896597036,0.818904156635,0.0044073867029,0.0,0.818885231218,-0.57382004467,-0.0117593081991,0.0,-0.00710083624175,0.0103579702613,-0.999921142179,0.0,0.431357602627,-0.0415829156623,0.304820116648,1.0,-0.38998,-0.512545142857,1.794
0.0237578764843,-0.33362325685,-0.139337359637,-2.48448202439,-0.0427818301568,2.14540316879,-0.2585379908,-1.24419942901,-1.03547826303,-0.0322149320477,-0.963287501913,-0.190931171384,-0.0889048114878,-1.13879924107,0.573908919616,0.818894888225,0.00452337550941,0.0,0.818877851793,-0.573832562057,-0.0116619667006,0.0,-0.00695439865375,0.010397198908,-0.999921764237,0.0,0.424761803868,-0.0503051174864,0.304852615636,1.0,-0.38998,-0.512545142857,1.811
0.00211504849472,-0.351055582749,-0.139996799149,-2.50032284376,-0.045860757807,2.14365981366,-0.278293227719,-1.27496302006,-1.00398872457,-0.0332678817672,-0.908633595313,-0.186442510844,-0.115990372961,-1.18337794627,0.573959499771,0.818859290063,0.00455001117211,0.0,0.818842068408,-0.573882256046,-0.0117290282177,0.0,-0.00699338768737,0.0104579290756,-0.999920858992,0.0,0.418112794057,-0.0590394392246,0.304861485546,1.0,-0.38998,-0.512545142857,1.828
-0.0174272682782,-0.366008893808,-0.140619312225,-2.51366044466,-0.0484006285737,2.14207254964,-0.29629461347,-1.32416138988,-0.985115226101,-0.0530031772886,-0.895111686965,-0.16561961697,-0.117131844909,-1.20287485848,0.574010620649,0.81882230776,0.00475211510584,0.0,0.818807485772,-0.573932383226,-0.0116904930883,0.0,-0.00684517557221,0.0106017387316,-0.999920370183,0.0,0.412278398221,-0.0667336907407,0.304896049281,1.0,-0.38998,-0.512545142857,1.843
-0.0400370082801,-0.382366155587,-0.141203590041,-2.52800583099,-0.0513918020605,2.1399937006,-0.317189795864,-1.3542053737,-0.954363317521,-0.0433976058051,-0.819949295504,-0.175130573797,-0.125365958559,-1.21496101788,0.573902718015,0.818897941285,0.00475172757293,0.0,0.818883589065,-0.573825236587,-0.0116194801088,0.0,-0.00678863784352,0.0105597662538,-0.999921199762,0.0,0.405670965039,-0.0754008507533,0.304935193491,1.0,-0.38998,-0.512545142857,1.86
-0.0632857555511,-0.398081137664,-0.141826734889,-2.54160799923,-0.0541068017019,2.13785813998,-0.338762100218,-1.38726575638,-0.914101145289,-0.0217230811095,-0.769718607594,-0.161478948981,-0.134030907629,-1.28392428364,0.573922391939,0.818883153363,0.00492098268997,0.0,0.818870897373,-0.57384424219,-0.011575233946,0.0,-0.00665501462171,0.0106731409559,-0.999920894292,0.0,0.399070257822,-0.0840882510402,0.30496127958,1.0,-0.38998,-0.512545142857,1.877
-0.0869520652381,-0.413102406289,-0.142476182675,-2.55441086242,-0.0568389701496,2.1354654332,-0.360928395906,-1.38915147913,-0.8661925786,-0.0350650669466,-0.727493000721,-0.150111500775,-0.130975539549,-1.32106532195,0.573821172172,0.81895392813,0.00494700610672,0.0,0.81894165051,-0.57374238469,-0.0116187766673,0.0,-0.00667706426514,0.0107186157591,-0.999920260865,0.0,0.392456097627,-0.0927406613764,0.30497161643,1.0,-0.38998,-0.512545142857,1.894
-0.109876826188,-0.426597350527,-0.143081169872,-2.56577515307,-0.059322421561,2.13327791352,-0.382439509048,-1.43420439979,-0.838529400898,-0.0393707197049,-0.713320504161,-0.146819586783,-0.141747459421,-1.34835585048,0.573774703321,0.818986080355,0.00501367275721,0.0,0.818974957691,-0.573696193162,-0.011551775952,0.0,-0.00658454550638,0.0107343959243,-0.999920705108,0.0,0.386236799666,-0.100944596602,0.3049788816,1.0,-0.38998,-0.512545142857,1.91
-0.134649418289,-0.440194699418,-0.143687282427,-2.5771479295,-0.0618037319672,2.1306586618,-0.405780645268,-1.46834030047,-0.771118530256,-0.0373609001869,-0.641483191178,-0.150665546266,-0.136919316155,-1.37358849474,0.573725089,0.819020999657,0.00498711082926,0.0,0.819007968506,-0.573644149297,-0.011793405028,0.0,-0.00679835031557,0.010850864771,-0.999918017223,0.0,0.3795709178,-0.10958362107,0.304928049191,1.0,-0.38998,-0.512545142857,1.927
-0.163009825898,-0.454531549884,-0.144434173235,-2.58871783869,-0.0644790912929,2.12797415933,-0.432650614847,-1.50700184502,-0.74553646781,-0.0415697960602,-0.605037314406,-0.144975968006,-0.141765380229,-1.42828659989,0.573711597944,0.819029409635,0.00515513714381,0.0,0.819019676206,-0.573631943686,-0.0115719518996,0.0,-0.00652074313737,0.0108613308842,-0.99991975248,0.0,0.372225431796,-0.119328034395,0.305006785462,1.0,-0.38998,-0.512545142857,1.946
-0.187229808902,-0.465567889211,-0.144860329477,-2.59776851162,-0.0664623834871,2.1255553021,-0.455745516711,-1.50676823384,-0.660231917199,-0.0272163453701,-0.552281541767,-0.125165742076,-0.135691631427,-1.45033517238,0.573586693411,0.819116917014,0.00515056343407,0.0,0.819105270278,-0.573504020579,-0.0118508010087,0.0,-0.00675345277358,0.0110165275209,-0.999916510013,0.0,0.36601228356,-0.127377658143,0.304932059444,1.0,-0.378203428572,-0.497067363265,1.962
-0.214489755015,-0.47679179138,-0.145199559109,-2.60660225462,-0.0684163911158,2.12315394431,-0.481439562817,-1.50825720917,-0.605994709015,-0.0205653696576,-0.467017372288,-0.107573928783,-0.121716632851,-1.42488098582,0.573771496316,0.818986443619,0.00531244626051,0.0,0.818977520446,-0.573689267892,-0.0117128907719,0.0,-0.00654513136593,0.0110715100912,-0.999917288039,0.0,0.35931450066,-0.136289237407,0.304993185505,1.0,-0.364122285714,-0.478560718367,1.98
-0.236876657374,-0.485157174471,-0.145276908543,-2.61320325847,-0.0697752932038,2.12120490319,-0.502656054695,-1.48755882337,-0.543559295048,0.0128420802548,-0.416029504654,-0.0910731845476,-0.132655993906,-1.38958399696,0.573819826607,0.818951971294,0.00540575686773,0.0,0.818943790079,-0.573736475735,-0.0117589116792,0.0,-0.00652862970234,0.0111747228264,-0.999916247775,0.0,0.353882687123,-0.143408637935,0.304996946034,1.0,-0.352388,-0.463138514286,1.995
-0.260408294063,-0.493086365637,-0.145247347511,-2.61951520053,-0.0710396751019,2.11923938919,-0.525008140579,-1.44194377441,-0.474268874109,0.0205866124885,-0.372398168092,-0.0837170286166,-0.125127877909,-1.38461284309,0.573852126043,0.818929039825,0.00545087776569,0.0,0.818920142919,-0.573766384733,-0.0119449643497,0.0,-0.00665467587956,0.0113186947065,-0.999913797504,0.0,0.348237592665,-0.150750856238,0.304948452779,1.0,-0.339871428572,-0.446688163265,2.011
-0.287657682065,-0.501292659923,-0.144988919097,-2.62584022324,-0.0721610684823,2.11726234881,-0.550933773586,-1.41947603635,-0.398831582961,0.0316401549975,-0.311069387305,-0.0670220309895,-0.113169261694,-1.34459852288,0.573894407385,0.818898123823,0.00564082203095,0.0,0.81889190206,-0.573808301489,-0.011867298957,0.0,-0.00648148313081,0.0114300200476,-0.999913668783,0.0,0.341898033085,-0.159096008434,0.30498362123,1.0,-0.325008,-0.427153371429,2.03
-0.310019377581,-0.507145798874,-0.144782337811,-2.63028213926,-0.0729095226593,2.11582103466,-0.572217931485,-1.37303297193,-0.353050009191,0.0227161344685,-0.257311659082,-0.0601187304555,-0.0869529951596,-1.32330437423,0.574042119859,0.818793183059,0.00584079662311,0.0,0.818789951399,-0.573955958258,-0.0117609680196,0.0,-0.00627756128031,0.01153389866,-0.999913776986,0.0,0.336795477493,-0.165890881711,0.305025857363,1.0,-0.312491428572,-0.410703020408,2.046
-0.33452355642,-0.512803894154,-0.144381951855,-2.63456297797,-0.0736674271604,2.11435765031,-0.595594173282,-1.3551826259,-0.283249376464,0.0219266452983,-0.225844716123,-0.0481384388934,-0.0800978344326,-1.30214880842,0.574097403127,0.818753815545,0.00592521351213,0.0,0.818752191161,-0.574011882344,-0.0116599870262,0.0,-0.006145634228,0.0115454721045,-0.999914462969,0.0,0.331257643708,-0.173222221252,0.305062237685,1.0,-0.298410285714,-0.39219637551,2.064
-0.35419613827,-0.516729641521,-0.143879873944,-2.63769110826,-0.0741126394257,2.11318394237,-0.61451048227,-1.31438081887,-0.253032640293,0.0287484874222,-0.199361963187,-0.0164435410725,-0.0678263731853,-1.25090354229,0.573980818857,0.81883556737,0.00592284517705,0.0,0.818832592994,-0.57389287403,-0.0118701596675,0.0,-0.00632075197908,0.0116632871946,-0.999912004041,0.0,0.326809166104,-0.178968910704,0.305002659803,1.0,-0.286676,-0.376774171429,2.079
-0.375800387327,-0.520371275541,-0.14331369478,-2.64062279603,-0.0745227615407,2.11215006821,-0.635200850855,-1.2557759846,-0.20322770773,0.0370501921887,-0.159386573104,-0.009602577514,-0.0599755698861,-1.18516682088,0.573975551687,0.818839264724,0.00592212065272,0.0,0.818835367429,-0.573885934927,-0.0120133942846,0.0,-0.00643854115719,0.0117448625778,-0.999910297672,0.0,0.321993167419,-0.18525889069,0.304937113807,1.0,-0.273377142857,-0.35929567347,2.096
-0.395390992153,-0.523192936717,-0.14273818614,-2.64279329194,-0.0747837057308,2.11130938492,-0.654008068492,-1.2006920426,-0.165825918168,0.0340285291669,-0.124215460045,-0.00462121937246,-0.0503980304402,-1.16753986083,0.573966410889,0.818845520111,0.00594308554146,0.0,0.818841686931,-0.573876327853,-0.0120415520297,0.0,-0.00644969900477,0.0117781193557,-0.999909834579,0.0,0.317682965873,-0.19092842157,0.304929897194,1.0,-0.260860571429,-0.342845322449,2.112
-0.415381831518,-0.525555016883,-0.142086381813,-2.6445829913,-0.0749348812456,2.11058228188,-0.67323320558,-1.15257050695,-0.122721524652,0.0482103587771,-0.101882103173,-0.0163325433246,-0.0387255363029,-1.10797528964,0.573946770936,0.818859087565,0.00597040590197,0.0,0.81885559975,-0.573856558625,-0.0120375987169,0.0,-0.00643106433524,0.0117980683684,-0.999909719422,0.0,0.313076424001,-0.197006383047,0.304933341343,1.0,-0.246779428572,-0.324338677551,2.13
-0.434504150121,-0.52734302467,-0.141417421587,-2.64597875082,-0.0749834492572,2.11003084884,-0.691625323786,-1.11618441705,-0.0971677316715,0.0274242766045,-0.0767044140546,-0.00380577119624,-0.0297802905207,-1.05490464428,0.573979653941,0.818835741197,0.0060110482618,0.0,0.818832743488,-0.573889192185,-0.0120366185155,0.0,-0.00640646115672,0.0118310450539,-0.999909487718,0.0,0.309184392314,-0.202140921071,0.304927427846,1.0,-0.234262857143,-0.307888326531,2.146
-0.452621836357,-0.528644798166,-0.140674866194,-2.64701696056,-0.0749658592647,2.10958223726,-0.709093684883,-1.04080370601,-0.0713092452733,0.0460588913853,-0.0568788113576,-0.00147735853992,-0.0186614239684,-1.01038459674,0.573932359759,0.818868974828,0.00599961552178,0.0,0.818865631181,-0.573841593175,-0.0120685920324,0.0,-0.0064398906436,0.0118396624054,-0.999909170976,0.0,0.305272560067,-0.207266726874,0.304912621007,1.0,-0.220964,-0.290409828572,2.163
-0.469007396356,-0.529504807104,-0.140018698969,-2.64768314221,-0.0749636644751,2.10925775447,-0.724716993976,-1.00289176768,-0.0456018162073,0.0431093990362,-0.0341386599614,0.000914167897707,-0.020060486439,-0.955267745189,0.574054611348,0.81878363947,0.00594994343584,0.0,0.818779755894,-0.573964226258,-0.0120633832662,0.0,-0.00646237059523,0.0117969611544,-0.999909530645,0.0,0.301737357259,-0.211907949628,0.304913481648,1.0,-0.208447428572,-0.273959477551,2.179
-0.48530900035,-0.53000597468,-0.139204629682,-2.6480937187,-0.0748517728412,2.10902494707,-0.740449101974,-0.947482639013,-0.0235980080295,0.0429308889921,-0.0190410016466,0.011272471509,-0.00849712283045,-0.902083308507,0.573970148105,0.818843380727,0.00587654869065,0.0,0.818838606779,-0.573880207934,-0.0120660636432,0.0,-0.00650790665854,0.0117377312666,-0.999909932352,0.0,0.298260926386,-0.216475483288,0.304911493806,1.0,-0.195148571429,-0.256480979592,2.196
-0.502335881531,-0.530236641222,-0.138262569467,-2.6482723354,-0.0746104735869,2.10885866814,-0.7569445758,-0.867594199948,-0.00526913513671,0.0450504200751,-0.00217264807791,0.0203889599504,-0.00805999149485,-0.839970995872,0.573830088768,0.818941928928,0.00582178402174,0.0,0.818936713495,-0.573740892372,-0.0120330632586,0.0,-0.00651430989676,0.0116728311695,-0.999910650398,0.0,0.294471304545,-0.221448709009,0.30492620081,1.0,-0.179502857143,-0.235918040816,2.216
-0.514215048418,-0.530251835051,-0.137616813612,-2.64830696222,-0.0744013013841,2.10881851828,-0.768319506025,-0.84107204757,0.00465666169487,0.0351022754146,-0.00198350254499,0.0158761348313,1.95928147414e-05,-0.802601442174,0.573877939665,0.818908406645,0.00582054927778,0.0,0.818903385346,-0.573789115777,-0.0120017909634,0.0,-0.00648872461935,0.011654254959,-0.99991103344,0.0,0.292125907783,-0.224504614159,0.304928778701,1.0,-0.169333142857,-0.222552130612,2.229
-0.527580718779,-0.530065873865,-0.136669745687,-2.64822624383,-0.0739763917457,2.10881759364,-0.781224364083,-0.760741627435,0.00896711277895,0.0570748036051,0.00805485148708,0.0274152250506,0.00128399718663,-0.731171107025,0.573773458274,0.818981465701,0.00584160248986,0.0,0.818976727941,-0.573684587418,-0.0119941715428,0.0,-0.00647189147971,0.0116662983907,-0.999911002091,0.0,0.289327705171,-0.228132823656,0.304922618077,1.0,-0.156034285714,-0.205073632653,2.246
-0.540078229661,-0.529745051568,-0.135850569368,-2.64804711985,-0.0735556810182,2.10881909704,-0.793113581483,-0.719168197487,0.0197243810768,0.0430815914635,0.0217545021907,0.0284923569194,-0.00199911090955,-0.676854164881,0.573883802976,0.818903741637,0.00589826377251,0.0,0.818899428716,-0.573794112394,-0.0120328355626,0.0,-0.00646946959601,0.0117357602167,-0.999910204916,0.0,0.286682548092,-0.231529220436,0.304908685894,1.0,-0.142735428572,-0.187595134694,2.263
-0.552718585728,-0.529188475771,-0.134813775299,-2.64774208256,-0.0730245629606,2.10886976463,-0.80526768116,-0.639351993135,0.0344432977642,0.0497348222058,0.0159680161561,0.0341927987595,0.000769887842323,-0.60540733124,0.573795138228,0.818965694645,0.00592260435436,0.0,0.818961070609,-0.573704225311,-0.0121232664277,0.0,-0.0065308419073,0.0118068810575,-0.999908968688,0.0,0.284049475305,-0.234905122759,0.30487562478,1.0,-0.127872,-0.168060342857,2.282
-0.561932487954,-0.528689628947,-0.134071927074,-2.64745396761,-0.0726245888745,2.10896066624,-0.814000162535,-0.602202966762,0.0357596403042,0.0442482071704,0.0160245050998,0.0253021302854,0.0103604982988,-0.574725142022,0.573853350152,0.818924717184,0.00594869780181,0.0,0.818920138297,-0.573761777815,-0.0121645514375,0.0,-0.0065488425047,0.0118524052176,-0.999908312373,0.0,0.282126647784,-0.237369957427,0.304851461959,1.0,-0.116137714286,-0.152638138776,2.297
-0.571484522922,-0.528090166682,-0.133260198426,-2.64701953284,-0.0721433678778,2.10907939586,-0.822926759237,-0.531435771136,0.0350051087565,0.0539579139764,0.0277927922559,0.0296061168275,0.0165082629661,-0.507138027684,0.574022379507,0.81880589442,0.00599683153676,0.0,0.818802139361,-0.57393091817,-0.012128670475,0.0,-0.00648938478716,0.0118725753619,-0.99990846073,0.0,0.280160220005,-0.239926134913,0.304861048772,1.0,-0.102838857143,-0.135159640816,2.314
-0.579310280755,-0.527448568896,-0.132392776861,-2.64659456989,-0.0716595081634,2.10919614312,-0.830414090905,-0.476229208994,0.0363446170955,0.052281311918,0.0253435429859,0.0296268741525,0.00407408922338,-0.445623142786,0.573917597696,0.818879304555,0.00600187709296,0.0,0.818875431379,-0.573825799952,-0.0121542623906,0.0,-0.00650896732751,0.0118905636968,-0.999908119699,0.0,0.27859672842,-0.241969178398,0.304851902807,1.0,-0.0903222857144,-0.118709289796,2.33
-0.586876116696,-0.526854635734,-0.131515423203,-2.64615277176,-0.071177824022,2.10931777501,-0.837392744407,-0.419270301457,0.037421318613,0.0503411993946,0.0295367610856,0.037811263482,0.0045905459262,-0.387502863226,0.574008808579,0.818815422615,0.00599485307717,0.0,0.81881173508,-0.573917529465,-0.0121144034176,0.0,-0.00647903382802,0.011862658715,-0.999908645552,0.0,0.277089758131,-0.243933416486,0.30486821553,1.0,-0.0770234285715,-0.101230791837,2.347
-0.593393844547,-0.526238775333,-0.130645003422,-2.64571208151,-0.0706495387937,2.10943135407,-0.843372825485,-0.356296822529,0.0437905453755,0.058265397987,0.0270112031064,0.0336097420549,0.00968645214256,-0.3397238143,0.574083870012,0.818762616001,0.00601961237294,0.0,0.818759257117,-0.57399247869,-0.0121103341586,0.0,-0.00646040103235,0.0118811896052,-0.999908546094,0.0,0.275827065002,-0.245594195692,0.304874896392,1.0,-0.0637245714287,-0.0837522938777,2.364
-0.59872903627,-0.52567851034,-0.129678334332,-2.64534093428,-0.0700978942015,2.10954067065,-0.848341885671,-0.294033793377,0.032689913994,0.0542874462669,0.0145289924112,0.0310015666046,0.00533784815992,-0.267561060506,0.573956418455,0.818852016987,0.00601256117845,0.0,0.818848441934,-0.573864856353,-0.0121285895962,0.0,-0.00648124728115,0.0118848870194,-0.999908367249,0.0,0.274852423734,-0.246882522451,0.304872068554,1.0,-0.0504257142858,-0.0662737959185,2.381
-0.603143140483,-0.525260407575,-0.128706961374,-2.64508392611,-0.0695528223436,2.10960144669,-0.852300079335,-0.243939233251,0.0194079353234,0.0535681187007,0.0146965082403,0.0240230951839,0.00208463303378,-0.203707100844,0.573889831729,0.818898758649,0.00600258470488,0.0,0.818894766046,-0.573797801818,-0.0121734001804,0.0,-0.00652463800685,0.0119019049272,-0.999907882636,0.0,0.274068765319,-0.247881841855,0.304865118071,1.0,-0.037126857143,-0.0487952979593,2.398
-0.606453096757,-0.524940957555,-0.127815169254,-2.6448686144,-0.0690440932936,2.10969083044,-0.855113187904,-0.180159075877,0.012808476617,0.0532387060604,0.0099738243565,0.0313195229581,0.00889049944566,-0.158750336505,0.573894820268,0.818895343487,0.0059915427939,0.0,0.818891424681,-0.573803235469,-0.0121420117957,0.0,-0.00650519552462,0.0118748893201,-0.999908330516,0.0,0.273533636488,-0.248593560016,0.304875606033,1.0,-0.0246102857144,-0.0323449469389,2.414
-0.609006151326,-0.524646365309,-0.126995372627,-2.64469545289,-0.0685403621413,2.10977482142,-0.857170856678,-0.137744589121,0.0129997234863,0.0394159651927,0.0102400876506,0.0244788059111,0.00196182943037,-0.109422179057,0.573945084905,0.818859991116,0.00600844103401,0.0,0.818856303434,-0.57385343526,-0.0121382068982,0.0,-0.00649165244928,0.0118869428638,-0.999908275312,0.0,0.273159614658,-0.249103351317,0.304873656608,1.0,-0.0197583783784,-0.0259681544402,2.431
-0.610961180388,-0.524463603147,-0.126450501512,-2.64455420409,-0.0682274186988,2.10977258015,-0.858868331717,-0.111576739453,0.0115619591624,0.0321014080873,0.0104094869755,0.00780416831468,0.000723364618495,-0.091788699855,0.573911598354,0.81888347364,0.00600672750391,0.0,0.818879659161,-0.57381977215,-0.0121540035942,0.0,-0.00650605893596,0.0118943396031,-0.999908093718,0.0,0.27284130043,-0.249513501883,0.304883965428,1.0,-0.0194183783784,-0.0255212972973,2.448
-0.612677123566,-0.524299615922,-0.126057048071,-2.64436186899,-0.0680357072024,2.10981497399,-0.860516732799,-0.0910863203638,0.00627200766076,0.0237941553366,0.0164227255039,0.0103817779526,0.00345462183017,-0.08721706585,0.573780174547,0.818975845731,0.00596844262546,0.0,0.818972148986,-0.573689669001,-0.0120635719267,0.0,-0.00645586444236,0.011810054069,-0.999909418116,0.0,0.272560114431,-0.249923716206,0.304924417745,1.0,-0.0190783783784,-0.0250744401544,2.465
-0.614214516499,-0.524098669355,-0.125858189844,-2.64417259786,-0.0678823417419,2.10991874216,-0.862004374228,-0.0871818318134,0.0104125426678,0.00746849179853,0.0112434901948,0.00933800920102,0.00677789902888,-0.0921154007624,0.573755423414,0.818993038545,0.0059886408491,0.0,0.818990271593,-0.573666066348,-0.0119551770618,0.0,-0.00635584911931,0.0117642127701,-0.999910599244,0.0,0.272287580331,-0.250339538021,0.304950459578,1.0,-0.0187383783784,-0.0246275830116,2.482
-0.615644661533,-0.523945045128,-0.125759379979,-2.64403336792,-0.0678207591866,2.10992598031,-0.863422647789,-0.0928414650731,0.00728148149399,0.000684156285183,0.00611877845988,0.000954449066006,-0.000274186212459,-0.0913781325647,0.573728766285,0.819011682184,0.00599283610488,0.0,0.819008986196,-0.573639428048,-0.0119513187277,0.0,-0.00635066484989,0.0117652284889,-0.999910620233,0.0,0.271985976108,-0.250733222575,0.304960407616,1.0,-0.0184183783784,-0.024207011583,2.498
-0.617120416703,-0.523805101279,-0.125705114245,-2.64386953264,-0.0677986933411,2.10992826637,-0.864770140521,-0.08596675249,0.00381307073845,0.00462858988979,0.00697323426355,0.00291053870418,0.000428731506657,-0.0862138388905,0.573813190611,0.818952611431,0.00598242532769,0.0,0.818950018617,-0.573724319148,-0.0119171945475,0.0,-0.00632747652112,0.0117377767485,-0.999911089866,0.0,0.271664970062,-0.251158706195,0.30498503884,1.0,-0.0180783783784,-0.0237601544402,2.515
-0.618520728185,-0.523613209485,-0.125648103802,-2.643700367,-0.0677519111811,2.1099584951,-0.866162970888,-0.0839644370349,0.009058480394,0.0027631663029,0.00573567931693,0.00288241993535,0.00302704717896,-0.0881344137544,0.573807761067,0.818956363183,0.0059896112676,0.0,0.818953962553,-0.573719045621,-0.0119000341218,0.0,-0.00630937608108,0.0117337737293,-0.999911251226,0.0,0.271369618456,-0.251564383387,0.304995492236,1.0,-0.0177383783784,-0.0233132972973,2.532
-0.619864911163,-0.523419353713,-0.125635418364,-2.64355691797,-0.067719651583,2.1100075969,-0.867543044576,-0.0780575177269,0.0117170519344,0.00020502407626,0.00270933742276,-0.00032493601521,0.00154630526441,-0.0753959619088,0.573790774704,0.818968130353,0.00600793082333,0.0,0.818965991191,-0.573702033749,-0.0118923776331,0.0,-0.00629283730026,0.0117442537102,-0.999911232412,0.0,0.271074180128,-0.251962025666,0.304994070328,1.0,-0.0173983783784,-0.0228664401544,2.549
-0.621214380572,-0.523231715552,-0.12562935762,-2.6434374497,-0.0676937480278,2.11000983879,-0.868848186988,-0.0780010895231,0.0127392923904,0.00405735849588,0.00444706102699,0.0015045056699,-6.70287692479e-05,-0.0770678906369,0.573840332214,0.818933244988,0.00602994858202,0.0,0.81893100813,-0.573750776465,-0.011949783687,0.0,-0.00632650925563,0.0117956068141,-0.999910415458,0.0,0.270761761067,-0.25235064988,0.304979856157,1.0,-0.0170583783784,-0.0224195830116,2.566
-0.622446856389,-0.523067666029,-0.125615665545,-2.6433310657,-0.0676690679208,2.11001960643,-0.870105191045,-0.0739155624283,0.0122961385826,0.000246733106189,0.00808361150459,-4.00521210095e-05,-0.000136698799348,-0.0777153853427,0.573826846582,0.818942566042,0.00604736038426,0.0,0.818940281984,-0.573736711825,-0.0119894516167,0.0,-0.00634920185214,0.0118325240446,-0.99990983544,0.0,0.270478525442,-0.252703807957,0.304969167934,1.0,-0.0167383783784,-0.021999011583,2.582
-0.623692981193,-0.522869948048,-0.125583201101,-2.64319742523,-0.067642530166,2.11005840309,-0.871304541704,-0.0684195873838,0.0120722614885,0.0046767737444,0.00982316217376,0.000625304921311,0.00134787280762,-0.0687289628766,0.573860679836,0.818918831217,0.00605102608137,0.0,0.818916481649,-0.573770311848,-0.0120071739199,0.0,-0.00636112418237,0.0118459580489,-0.999909600602,0.0,0.2702058613,-0.253066190287,0.304961424914,1.0,-0.0163983783784,-0.0215521544402,2.599
-0.624915354833,-0.522682224166,-0.125508514255,-2.64308075236,-0.0676156909067,2.1101064906,-0.872557692422,-0.0738951776934,0.0111317808473,0.00441873826986,0.00245278563585,0.000541014702057,0.000766380652316,-0.0806225275236,0.573800393323,0.818961186995,0.00603570374267,0.0,0.818958552217,-0.573709942735,-0.0120224064944,0.0,-0.00638326394221,0.0118416807629,-0.999909510175,0.0,0.269945423125,-0.253409619671,0.304951424772,1.0,-0.0160583783784,-0.0211052972973,2.616
-0.626242089939,-0.522487478318,-0.125424345532,-2.64295548275,-0.0675888706324,2.11012894092,-0.873928946626,-0.0712278301878,0.012490136762,0.00753085917424,0.0101489906304,0.000409359341613,-9.24376074511e-06,-0.0718132717405,0.573722566802,0.819015837255,0.00601843567367,0.0,0.819012741469,-0.573631768704,-0.0120611005282,0.0,-0.00642599016724,0.0118491291864,-0.999909148267,0.0,0.269657799867,-0.253777362354,0.304940777941,1.0,-0.0156783783784,-0.0206058687259,2.635
-0.627300731286,-0.522318550665,-0.125365728501,-2.64284795166,-0.0675600123033,2.11015246596,-0.875047925165,-0.0636382903714,0.0109755113096,0.00218623489225,0.00413958883312,0.00389546472621,0.00145910127349,-0.07719846386,0.573649773294,0.819066853942,0.00601442212066,0.0,0.819063505398,-0.57355863851,-0.0120917003283,0.0,-0.0064544114512,0.0118628232133,-0.999908802841,0.0,0.269429161387,-0.254074134558,0.304931026301,1.0,-0.0153583783784,-0.0201852972973,2.651
-0.628369275745,-0.522155459087,-0.125349498603,-2.64275673366,-0.0675357866716,2.11018282536,-0.876161267628,-0.0703981389285,0.0140371942598,-0.000574200352669,0.00468931162825,0.00213001692807,-0.000158435371787,-0.0736107499805,0.573616946725,0.819089736784,0.00602896560992,0.0,0.819086336599,-0.573525312447,-0.0121258435142,0.0,-0.00647451424164,0.0118940616855,-0.999908301777,0.0,0.269185685974,-0.254380184716,0.304915570804,1.0,-0.0150383783784,-0.0197647258687,2.667
-0.629465352239,-0.522011672361,-0.125348510156,-2.64265067798,-0.0675104389875,2.11021150217,-0.877239285867,-0.0663492023575,0.011193407327,0.00144032612609,0.010479510696,0.00203617776485,0.00428846244944,-0.0606451546023,0.573665193136,0.819055758886,0.00605449594509,0.0,0.819052611995,-0.573573290192,-0.0121345153957,0.0,-0.00646627205227,0.0119203293395,-0.999908042309,0.0,0.26891730189,-0.254720290902,0.304910845305,1.0,-0.0146983783784,-0.0193178687259,2.684
-0.630614583702,-0.521842689764,-0.125350269826,-2.64252222672,-0.0674801910121,2.11023730632,-0.878305224437,-0.0656175491044,0.0125344500119,-0.00027811912355,0.00830876525561,0.00136945487975,8.83300007692e-05,-0.0596171495574,0.573736365829,0.819005761017,0.00607394821011,0.0,0.819002895292,-0.573644413032,-0.0121281408812,0.0,-0.00644885495678,0.0119331663938,-0.999908001673,0.0,0.268661423339,-0.255060033937,0.30491501757,1.0,-0.0143583783784,-0.018871011583,2.701
-0.631729126394,-0.521679944739,-0.125352403889,-2.64237995777,-0.0674546234432,2.11026708008,-0.879462341438,-0.0692178565953,0.0130058122932,0.000245327212912,0.00797366897882,0.000312158413811,-2.06860780971e-05,-0.0688361956368,0.573721576909,0.819015982367,0.00609259530403,0.0,0.819013401632,-0.573629622786,-0.0121181974763,0.0,-0.00643022806637,0.0119426185025,-0.999908008784,0.0,0.268426910655,-0.255374202555,0.304919274697,1.0,-0.0140383783784,-0.0184504401544,2.717
-0.632784615011,-0.521520998371,-0.125327917498,-2.64225816521,-0.0674317583881,2.11030548791,-0.880525510401,-0.0594395561,0.00586468067423,0.00329425783641,0.00371993740582,-0.000182889511248,0.000681206389871,-0.0609783227577,0.573714115683,0.819021178775,0.00609664547765,0.0,0.819018696053,-0.573622229371,-0.0121103421794,0.0,-0.00642157899188,0.0119413707919,-0.999908079269,0.0,0.268195486526,-0.255683014486,0.304920086761,1.0,-0.0136983783784,-0.0180035830116,2.734
-0.63374500319,-0.521368569886,-0.125280523539,-2.64213439031,-0.0674084577951,2.11034320088,-0.881475106483,-0.0616996162797,0.00440029462733,0.0034037623434,0.0119700203933,0.000601004792896,0.00828300317027,-0.0638176812398,0.573705797507,0.81902707026,0.0060879380281,0.0,0.819024577162,-0.573614142766,-0.012095624184,0.0,-0.00641463978685,0.0119257301953,-0.999908310474,0.0,0.267993488872,-0.255961539707,0.304924670883,1.0,-0.0133783783784,-0.017583011583,2.75
-0.634721476186,-0.521206664942,-0.125220239072,-2.64201800086,-0.0673862330555,2.11036564138,-0.882510030436,-0.0591002853402,0.0106776406966,0.000177146828755,0.00577658935684,-1.49233199491e-05,-0.000677024213029,-0.0659193536211,0.573630879482,0.819079634763,0.00607560054971,0.0,0.819076876851,-0.57353910143,-0.0121126313902,0.0,-0.00643673914231,0.0119247929097,-0.999908179636,0.0,0.267785363931,-0.256237346004,0.30492140921,1.0,-0.0130383783784,-0.0171361544402,2.767
-0.635678997579,-0.521041840017,-0.125168565998,-2.64191615393,-0.0673685662084,2.11038784664,-0.883497516149,-0.0502772320938,0.0143377184049,0.000460235061639,0.00584422474246,0.000366350703844,0.00100219589602,-0.0545000365009,0.573582779931,0.819113395629,0.00606519330046,0.0,0.81911028137,-0.57349065005,-0.0121477636281,0.0,-0.00647218887588,0.0119360400284,-0.999907816611,0.0,0.267576083839,-0.256506519508,0.304910230475,1.0,-0.0126983783784,-0.0166892972973,2.784
-0.636610897688,-0.520887978025,-0.12513697188,-2.64180876308,-0.0673509536449,2.1104083261,-0.884407056123,-0.0514296793521,0.0067572581644,0.00161821144156,0.00500745803121,0.00384709390162,0.00269553278502,-0.0530037852402,0.573591943432,0.819106994961,0.00606301386034,0.0,0.8191037218,-0.573499580926,-0.0121684227622,0.0,-0.00649022925116,0.0119461764799,-0.999907578625,0.0,0.267370069747,-0.256774458235,0.304904970599,1.0,-0.0123583783784,-0.0162424401544,2.801
-0.637609384507,-0.520741726834,-0.125131910366,-2.64169184045,-0.0673297184869,2.11044083533,-0.885420471742,-0.0546078332652,0.0112359746725,-0.00128756744242,0.00778459316882,0.0054128922235,0.000718448631051,-0.0540925276298,0.573591306002,0.81910734714,0.00607572555237,0.0,0.819104288109,-0.573498975932,-0.0121588119277,0.0,-0.0064750744654,0.0119510717615,-0.99990761838,0.0,0.267145614412,-0.257069710479,0.304907234047,1.0,-0.0119983783784,-0.0157692972973,2.819
-0.638450826997,-0.520620202686,-0.125131224702,-2.64158919857,-0.0673268569349,2.11046117989,-0.88624833785,-0.0541872795772,0.0112048968235,-0.000667859230231,0.00486182406862,-0.00036536166365,0.000315293200665,-0.0554248299705,0.573608506166,0.819095305683,0.0060752583339,0.0,0.819092278737,-0.573516245019,-0.012153292326,0.0,-0.00647056992417,0.0119476590782,-0.999907688323,0.0,0.26695398149,-0.257320800155,0.304910941483,1.0,-0.0116983783784,-0.015375011583,2.834
-0.63937878294,-0.520470468964,-0.125130586913,-2.64146227957,-0.0673170853428,2.11049397636,-0.887133464251,-0.0529035978926,0.00516789554273,0.000865229053906,0.00782502132682,9.70942548306e-05,0.00285501870809,-0.0574914456183,0.57365390151,0.819063496419,0.00607758327248,0.0,0.819060596928,-0.573561799944,-0.0121386616208,0.0,-0.00645658933722,0.0119415294923,-0.999907851918,0.0,0.266747424068,-0.257601551642,0.304916366779,1.0,-0.0113583783784,-0.0149281544402,2.851
-0.640264279154,-0.520330407079,-0.125132621944,-2.64135121317,-0.0673082723966,2.11053393664,-0.887984757999,-0.0517804504676,0.00585177301542,-0.00143120292424,0.00673505827069,3.64701037073e-05,0.00087095335683,-0.0522626582239,0.573692926047,0.819036136631,0.00608115103957,0.0,0.819033384085,-0.573600986397,-0.0121231621165,0.0,-0.00644127764345,0.0119358678651,-0.99990801827,0.0,0.266548549169,-0.25786863626,0.304918687013,1.0,-0.0110183783784,-0.0144812972973,2.868
-0.641088435358,-0.520201588321,-0.125124546255,-2.64125120965,-0.0673009779683,2.11056618225,-0.88883408932,-0.0443045738368,0.00700899706587,0.00185359716087,0.0066005064592,0.00299973018291,0.00362822504564,-0.055411261834,0.573674938643,0.819048741556,0.00608034784311,0.0,0.819046027849,-0.573583097715,-0.0121153283674,0.0,-0.00643558360674,0.0119305747072,-0.999908118104,0.0,0.266363748448,-0.258113466799,0.304919690186,1.0,-0.0106783783784,-0.0140344401544,2.885
-0.641956048654,-0.520070564262,-0.125108086997,-2.641143474,-0.0672934178139,2.11059613904,-0.889717849013,-0.0452609046253,0.0105556846212,-0.00038385893871,0.00561385950311,4.58595867043e-05,0.0018009369292,-0.0414115737219,0.573658884513,0.819060023748,0.00607524634912,0.0,0.819057318735,-0.573567208696,-0.0121042404206,0.0,-0.00642966114664,0.0119199095381,-0.999908283401,0.0,0.266170708749,-0.258369478767,0.304923393311,1.0,-0.0103183783784,-0.0135612972973,2.903
-0.642750974445,-0.519956178717,-0.125092932003,-2.64106493068,-0.0672854016254,2.11061080616,-0.890474784875,-0.0485497562953,0.00802864136508,-0.000161184761506,0.00696161652882,-0.000520467489011,0.00091074361976,-0.043361006082,0.573686863228,0.819040430523,0.00607478628413,0.0,0.819037613332,-0.573594986806,-0.0121213019406,0.0,-0.00644349345862,0.0119295398288,-0.999908079511,0.0,0.265987167466,-0.258596968313,0.304918613519,1.0,-0.00997837837838,-0.0131144401544,2.92
-0.643436058167,-0.519859735331,-0.125078641318,-2.64100171462,-0.0672780963446,2.11062339681,-0.891117244618,-0.0442244025565,0.00691645246128,0.00022898756609,0.00236628268981,-0.000175453707633,0.000452086979478,-0.0429378828246,0.573718148197,0.819018517957,0.00607458425681,0.0,0.819015591619,-0.573626068985,-0.0121383922434,0.0,-0.00645715245778,0.0119394250098,-0.999907873413,0.0,0.265828140206,-0.258791497538,0.304913269308,1.0,-0.00967837837838,-0.0127201544402,2.935
-0.644203021878,-0.519765858366,-0.12506937316,-2.64093557655,-0.067268825849,2.11064045498,-0.891862498063,-0.0433502733562,0.00768710990789,6.48912391496e-05,0.00413933914409,6.28794453678e-05,7.24701741642e-05,-0.0439461574426,0.573736821954,0.819005405175,0.00607884280142,0.0,0.819002490967,-0.573644639662,-0.012144714001,0.0,-0.00645961519035,0.0119466870218,-0.999907770767,0.0,0.265648296986,-0.259009995077,0.304910458073,1.0,-0.00933837837838,-0.0122732972973,2.952
-0.645118127334,-0.51964646729,-0.125060552534,-2.64084467036,-0.0672552953257,2.11067258493,-0.892763007458,-0.043282765007,0.00932585566737,-0.000543717642315,0.00455976890094,0.000248027933443,0.000254130977454,-0.0368092125066,0.573753062938,0.818993985155,0.00608456664628,0.0,0.818991199002,-0.573660950713,-0.0121357523748,0.0,-0.00644875407182,0.0119463616336,-0.999907844761,0.0,0.265437693869,-0.259275354728,0.304910786684,1.0,-0.00891837837838,-0.0117212972973,2.973
-0.645741956883,-0.519556585028,-0.12503846218,-2.64077931704,-0.0672421970302,2.11068970202,-0.893349434644,-0.0427520441318,0.00479632704182,0.00075822493342,0.00458177928416,-0.000468808677461,0.000201530192305,-0.0327579570085,0.57377706952,0.818977172618,0.00608375908979,0.0,0.818974354408,-0.573684915916,-0.0121396447469,0.0,-0.00645205533157,0.0119481224992,-0.999907802425,0.0,0.265297635723,-0.259452289294,0.304909393193,1.0,-0.00861837837838,-0.011327011583,2.988
-0.646381037321,-0.519468241973,-0.125016872244,-2.64069358303,-0.0672313709874,2.11071321178,-0.89396237487,-0.0371068359065,0.00435157294638,0.00456947236642,0.00541711948618,0.00203485040736,0.00432441474274,-0.0386347826717,0.57379216749,0.818966637918,0.00607794412888,0.0,0.818963907226,-0.57370033895,-0.0121155540768,0.0,-0.0064354398841,0.0119296565886,-0.999908129984,0.0,0.265158939631,-0.259639663574,0.304918355657,1.0,-0.00829837837838,-0.0109064401544,3.004
-0.646986268667,-0.519364264838,-0.125003800702,-2.64060311237,-0.0672234090929,2.11074250546,-0.894544598414,-0.037482481071,0.00535172898259,-0.000253999070011,0.00279134768267,0.00326789237524,0.00359345750977,-0.0374099915758,0.573809807655,0.818954316698,0.00607278370207,0.0,0.818951645984,-0.573718233891,-0.0120969642238,0.0,-0.00642291799077,0.0119149023218,-0.999908386417,0.0,0.26502846293,-0.259821906389,0.304924003774,1.0,-0.00797837837838,-0.0104858687259,3.02
-0.647583892821,-0.519264824324,-0.124973188292,-2.64051740546,-0.067207146263,2.11076677488,-0.895134793186,-0.0384721440711,0.00668703354295,0.000370976557091,0.00381524399987,-4.38136281011e-05,0.000535838525,-0.0317775506164,0.573805549509,0.818957342326,0.00606710018057,0.0,0.818954692682,-0.573714177789,-0.0120830641775,0.0,-0.00641485624017,0.011902238599,-0.99990858899,0.0,0.264902602943,-0.259995542847,0.304929144671,1.0,-0.00765837837838,-0.0100652972973,3.036
-0.648180967701,-0.519172089919,-0.124960084917,-2.64043940516,-0.06719410956,2.11078748308,-0.89571197109,-0.0352091141188,0.00776785792998,0.00124962836756,0.00492766363032,0.00447433929774,0.000214333340661,-0.0357430587444,0.573822154196,0.818945697857,0.0060684609041,0.0,0.818943126457,-0.573730885451,-0.0120736742356,0.0,-0.00640614346283,0.0118980951797,-0.99990869416,0.0,0.264770491425,-0.260170774168,0.304932530585,1.0,-0.00731837837838,-0.00961844015445,3.053
-0.648745417033,-0.51908223762,-0.1249518077,-2.64039132135,-0.0671842256881,2.11080642125,-0.896275084772,-0.0278007927305,0.00688556322074,0.00155320394618,0.00320069908941,-9.93199827921e-05,0.000100637378765,-0.0315237745863,0.573824239062,0.818944197394,0.00607380621073,0.0,0.818941566006,-0.573732706059,-0.0120929883491,0.0,-0.00641886494737,0.0119135715804,-0.9999084283,0.0,0.264638331052,-0.260330817456,0.304923115431,1.0,-0.00697837837838,-0.00917158301159,3.07
-0.649267318076,-0.519005559271,-0.124941203038,-2.64034389296,-0.0671654673888,2.11081669592,-0.896788041359,-0.0314020220662,0.00498274767611,-0.00067192726582,0.0036427981315,0.000899851916428,0.000326513232224,-0.0289930724835,0.573834601012,0.818936850138,0.00608548008954,0.0,0.818934263183,-0.573742814921,-0.0121079235591,0.0,-0.00642424799119,0.0119317833617,-0.999908176576,0.0,0.264517230129,-0.26047697207,0.304917572054,1.0,-0.00663837837838,-0.00872472586873,3.087
-0.649786559363,-0.518941569894,-0.124925319552,-2.64030976666,-0.0671525217011,2.11082947486,-0.897280182116,-0.0313195378628,0.00334890951905,0.00220346898116,0.00226702086594,0.00518112059333,-0.000640975858204,-0.0268035974366,0.573852929591,0.818923969081,0.00609056371955,0.0,0.818921357067,-0.5737609477,-0.012121581372,0.0,-0.0064322497577,0.0119439276458,-0.999907980144,0.0,0.264394996237,-0.26061895907,0.304910989857,1.0,-0.00629837837838,-0.00827786872587,3.104
-0.650294734983,-0.518868834675,-0.124904741406,-2.64025599376,-0.0671441262877,2.11084637105,-0.897762685311,-0.0292613412621,0.0102452122508,0.00200576123877,0.00209339149985,0.00253117431552,0.000261329720511,-0.0322565526431,0.573865763734,0.818915006741,0.00608636588729,0.0,0.818912349366,-0.57377381499,-0.0121210638575,0.0,-0.00643404759138,0.0119402936434,-0.999908011979,0.0,0.264281156282,-0.260762869822,0.304910571187,1.0,-0.00595837837838,-0.00783101158302,3.121
-0.65078206693,-0.518797172159,-0.12488672166,-2.64017725061,-0.0671308200118,2.11086775455,-0.898252829186,-0.0290490665456,0.00158697663241,0.000469957464969,0.00462572288799,-0.000142280969955,0.00220400685437,-0.0264512969896,0.573860324172,0.818918840159,0.00608345909037,0.0,0.818916348165,-0.573768766891,-0.0120898200904,0.0,-0.00641020604179,0.0119199416746,-0.99990840793,0.0,0.264179024987,-0.260908343496,0.304922216275,1.0,-0.00559837837838,-0.00735786872587,3.139
-0.651226339424,-0.518716429165,-0.124876837645,-2.64010088943,-0.0671108068383,2.11088438419,-0.898704244898,-0.0233963840603,0.00739033402199,0.00216130515957,0.00172010545056,0.00025366681782,0.000160065178456,-0.0268097732431,0.573859905209,0.818919077592,0.0060910139112,0.0,0.818916775774,-0.573768486071,-0.0120741727815,0.0,-0.00639306169271,0.0119171465632,-0.999908551009,0.0,0.264085381043,-0.261042070196,0.304928840429,1.0,-0.00525837837838,-0.00691101158302,3.156
-0.651625332448,-0.518663389041,-0.12486485473,-2.64003981364,-0.0670963089031,2.11089857801,-0.899092996928,-0.0269391511723,0.00767859508571,0.000495248966248,0.00306985150574,0.00050572527664,0.000443855241208,-0.0269083411526,0.57386904181,0.818912656382,0.00609351871079,0.0,0.818910544222,-0.573777903042,-0.0120492922497,0.0,-0.00637111419941,0.0119049917295,-0.999908835882,0.0,0.264000188721,-0.261160114556,0.304938558728,1.0,-0.00493837837838,-0.00649044015445,3.172
-0.651966675051,-0.518623351275,-0.12484596107,-2.63999885826,-0.067076900461,2.11090811463,-0.899409984384,-0.0214035192299,0.00103547086663,0.00459655973817,0.0011598050823,0.000479021973082,-0.000154416260744,-0.0265785426073,0.573885939392,0.818900775041,0.0060988611694,0.0,0.818898812843,-0.573794924606,-0.012036017708,0.0,-0.00635693103523,0.0119018806483,-0.999908963189,0.0,0.263926899009,-0.261255309647,0.304943691984,1.0,-0.00463837837838,-0.00609615444016,3.187
-0.652331150336,-0.518584939462,-0.124817314355,-2.63996637863,-0.0670577187165,2.1109192271,-0.89976089077,-0.0208682679534,0.00137517991096,0.000494127774719,0.0010840374893,0.000987480005715,0.000339521521126,-0.0184444460489,0.573886587768,0.818900307724,0.00610059757501,0.0,0.818898417658,-0.573795658219,-0.0120279286195,0.0,-0.00634930029039,0.0118986657005,-0.999909049934,0.0,0.263847983883,-0.26135255498,0.304945936645,1.0,-0.00429837837838,-0.0056492972973,3.204
-0.652664827601,-0.518542448167,-0.124784699597,-2.63994387344,-0.0670276920944,2.11092713622,-0.900116278974,-0.0172888090452,0.00797594244449,0.00103028711824,0.00133137480659,0.00709159132771,8.44894539546e-05,-0.0213495543262,0.573859717184,0.818919055868,0.00611161447505,0.0,0.818917242954,-0.573768622064,-0.0120359639864,0.0,-0.00634994990446,0.0119120907098,-0.999908885965,0.0,0.26377604449,-0.261436607033,0.304941973128,1.0,-0.00393837837838,-0.00517615444016,3.222
-0.652923731451,-0.518506715684,-0.124744623197,-2.63992694177,-0.0670071967835,2.11093753001,-0.900379387353,-0.017029503348,0.00528499168194,0.00632388123372,0.000923054380764,0.00716586853387,0.000673380564369,-0.0236750999868,0.573837531136,0.818934614111,0.00611003855583,0.0,0.818932742241,-0.573746375359,-0.0120418997536,0.0,-0.0063560384266,0.0119140340366,-0.999908824128,0.0,0.263723675095,-0.261499289204,0.304938347722,1.0,-0.00363837837838,-0.00478186872588,3.237
-0.653225760775,-0.518448320651,-0.124692772543,-2.63989280656,-0.0669811538202,2.11094227058,-0.900704441971,-0.0144374941015,0.00236744438946,0.00482440026323,0.000968015802105,0.000503073500433,0.000254282812172,-0.0189193620838,0.573794849969,0.818964541549,0.00610710534741,0.0,0.818962524595,-0.573703515642,-0.0120584555242,0.0,-0.00637190237081,0.011920799604,-0.999908642525,0.0,0.263665626888,-0.261573446003,0.304933988202,1.0,-0.00323837837838,-0.00425615444016,3.257
-0.6534520191,-0.51839647587,-0.124656596371,-2.63986627935,-0.0669602843698,2.11094929523,-0.900941800612,-0.0184977184911,0.00110177687317,0.000589258691665,0.00326150650398,0.000101126276865,-0.000260504539364,-0.016058034013,0.573770462639,0.818981627554,0.00610711334373,0.0,0.818979506194,-0.573678938039,-0.0120744103481,0.0,-0.00638532087833,0.0119297703671,-0.999908449937,0.0,0.263622253474,-0.261630030612,0.304928406417,1.0,-0.00291837837838,-0.00383558301159,3.273
-0.653642751762,-0.518358735969,-0.124631658806,-2.63984328256,-0.0669400506415,2.11095502712,-0.901136806456,-0.0134108519698,0.00220857559545,0.000694352795367,0.00250437396456,-8.43609040294e-05,-0.000220388340636,-0.00338849118873,0.573759138534,0.818989526596,0.00611172445683,0.0,0.818987416111,-0.573667504375,-0.0120811247993,0.0,-0.00638833995889,0.0119373110085,-0.999908340659,0.0,0.263584950341,-0.261678907794,0.304926040573,1.0,-0.00261837837838,-0.0034412972973,3.288
-0.653848332541,-0.518311227434,-0.124600050474,-2.63982693273,-0.0669187624715,2.11096404785,-0.901344614501,-0.0160643972128,0.00209684658366,0.00206834373977,-0.000620051463976,-0.000104985616847,-0.00395092583988,-0.0155351365252,0.57374494502,0.818999444609,0.00611512019989,0.0,0.818997246928,-0.573653053549,-0.0121008503949,0.0,-0.00640275565015,0.0119512984524,-0.999908081368,0.0,0.263544086824,-0.261728719211,0.304917493743,1.0,-0.00227837837838,-0.00299444015445,3.305
-0.654026066932,-0.518292642649,-0.124573516017,-2.6398225821,-0.0668994084837,2.11096775659,-0.901532672141,-0.00765867933162,-0.000225986491411,0.00144507294029,-0.00120420531028,0.000933833023996,0.000337862162431,-0.0146491824239,0.573726206993,0.819012532099,0.00612034110217,0.0,0.819010342575,-0.573634184764,-0.0121089936473,0.0,-0.00640670401857,0.0119600999275,-0.99990795084,0.0,0.263506279376,-0.261769145324,0.304913576253,1.0,-0.00195837837838,-0.00257386872588,3.321
-0.654210671128,-0.518271323312,-0.124554533771,-2.63980877933,-0.0668799766553,2.11096934605,-0.901698453965,-0.00903593325986,-0.000468480445912,0.00125701048023,0.00380953858219,0.00266921786863,0.000555896029795,-0.00277806973516,0.573737181118,0.819004786942,0.00612803973524,0.0,0.819002667569,-0.573645066219,-0.0121126140689,0.0,-0.00640509246293,0.011968568374,-0.999907859836,0.0,0.263466788342,-0.261815100223,0.304912587232,1.0,-0.00161837837838,-0.00212701158302,3.338
-0.654399259322,-0.518253547232,-0.124531878817,-2.63980702174,-0.0668604590848,2.11096692728,-0.901863619464,-0.0123085888144,-7.54643090117e-05,0.000200909739863,0.000831484375952,0.00219383446616,-0.000540598468775,-0.00682584916776,0.573748785073,0.818996597435,0.0061361158765,0.0,0.81899447343,-0.573656426531,-0.01212863108,0.0,-0.00641340875755,0.011984463076,-0.999907616149,0.0,0.263423749209,-0.2618576854,0.304907175408,1.0,-0.00123837837838,-0.00162758301159,3.357
-0.654531359254,-0.518249596616,-0.124516518695,-2.63980910094,-0.0668457189178,2.11097011524,-0.901917019912,-0.00938660096524,0.00199703096059,0.00311658175533,-0.00115794930037,0.000104517506935,0.000593513264803,-0.0093557777711,0.573808549027,0.818954684344,0.00614173880703,0.0,0.818952625436,-0.573716137354,-0.0121300425784,0.0,-0.00641046394715,0.0119903461036,-0.999907564504,0.0,0.263393784147,-0.261887495192,0.304905417506,1.0,-0.000938378378384,-0.0012332972973,3.372
-0.654637539987,-0.51825426121,-0.124509729743,-2.63979512515,-0.0668295261087,2.11097167253,-0.90202302204,-0.00359344024246,-0.000759069462797,-0.000213852084948,0.000848532431742,-2.30305283126e-05,-2.68277080585e-06,-0.0017429040796,0.573811404848,0.818952614902,0.0061508627159,0.0,0.818950806886,-0.573719199295,-0.0121079792543,0.0,-0.00638711621095,0.0119851813219,-0.999907775835,0.0,0.263372464926,-0.261916245593,0.304913787904,1.0,-0.000598378378384,-0.000786440154447,3.389
-0.65468310625,-0.518248842927,-0.124497976383,-2.63979092823,-0.0668135821568,2.11097196003,-0.902060960072,5.96412674988e-05,-0.000140611004778,0.000115062596751,0.00201970661618,-4.784197428e-05,0.000108185921582,-0.000534727577959,0.573816333334,0.818949103856,0.00615855455127,0.0,0.818947392019,-0.573724085058,-0.0121074452888,0.0,-0.00638219327104,0.011991212918,-0.999907734954,0.0,0.26336542327,-0.261925106099,0.304914009227,1.0,-0.000238378378384,-0.000313297297304,3.407
-0.654678879223,-0.51824322775,-0.12447108422,-2.63978787428,-0.0667988501626,2.11097157307,-0.902075666919,0.000610688864697,0.00127052882285,0.00107741341666,0.000396281938983,0.000589575508375,-0.000197521423583,-0.000256070116063,0.573788198477,0.818968822861,0.00615770833426,0.0,0.818967084639,-0.573695931116,-0.012109492152,0.0,-0.00638476724335,0.011991475002,-0.999907715379,0.0,0.263374258653,-0.261917285715,0.30491393583,1.0,0.0,0.0,3.423
-0.65467358951,-0.518245127432,-0.124437477248,-2.63978783718,-0.0667880122634,2.11097523054,-0.902077755003,0.000739820959738,0.00142077411103,0.000733463817683,0.00177755949253,-0.000143001379131,0.000165000075585,0.000206396013377,0.573762922793,0.818986590784,0.00614975158953,0.0,0.818984792022,-0.573670777034,-0.012103591027,0.0,-0.00638486890704,0.0119813754691,-0.999907835798,0.0,0.263384607742,-0.261908038103,0.304915760345,1.0,0.0,0.0,3.44
-0.654673580843,-0.518245045012,-0.124399866162,-2.63979300479,-0.0667771078814,2.11097766339,-0.902088785969,-3.76012646955e-05,0.00132034511156,0.00180690036754,-0.00146737602212,-0.000180827753967,0.0007607589059,-0.00140569399441,0.573731606124,0.819008595347,0.00614099210492,0.0,0.819006672446,-0.573639486988,-0.0121060463867,0.0,-0.00639236355855,0.0119753655095,-0.99990785991,0.0,0.26339302849,-0.261897756129,0.304914479358,1.0,0.0,0.0,3.457
-0.654670979486,-0.518239974926,-0.124374854662,-2.63978477507,-0.0667660773916,2.11097640197,-0.902094487129,-6.35096559586e-05,-0.000271012053622,0.000515643706365,0.000285783072597,0.000845447617528,-0.000172209981644,-0.00175333841336,0.573712167234,0.819022241235,0.00613713544113,0.0,0.819020285071,-0.573620101081,-0.0121036845281,0.0,-0.00639292566096,0.0119706999737,-0.999907912182,0.0,0.263401751048,-0.261892364397,0.304916836647,1.0,0.0,0.0,3.473
-0.654670508502,-0.518236734485,-0.124370608011,-2.63978979312,-0.0667609157355,2.11097562758,-0.902089012202,-0.000838676790898,0.000464177076914,-0.000951545654211,-0.000965949713719,0.000850986208304,4.96056948689e-05,0.00152755002471,0.573715240331,0.819020064698,0.00614032044402,0.0,0.819018092121,-0.573623051013,-0.0121122675898,0.0,-0.00639808402066,0.0119782566649,-0.999907788693,0.0,0.263401926337,-0.261889338302,0.304913399873,1.0,0.0,0.0,3.49
-0.654668002811,-0.518235700206,-0.124364904686,-2.63978728745,-0.0667599642179,2.11098063425,-0.902093050488,0.000282809308521,-0.000432517945105,0.00102663591285,-0.00103899427214,0.000545147506451,0.000134588395044,0.0017204617456,0.573706355714,0.819026309833,0.00613743553506,0.0,0.819024342676,-0.573614261571,-0.0121058633407,0.0,-0.00639462314317,0.0119721503458,-0.999907883963,0.0,0.263405256902,-0.261888673292,0.304914718731,1.0,0.0,0.0,3.506
-0.654672937084,-0.518236164246,-0.124370202735,-2.63978022976,-0.0667547091907,2.11098112109,-0.902096945842,-0.00108166818716,0.000947692553554,-0.000912247283441,-0.00353657743426,-1.55834415079e-05,0.000491807857096,0.000674178232564,0.573713529681,0.819021239855,0.00614340536635,0.0,0.819019399653,-0.573621499822,-0.0120973069701,0.0,-0.0063840848667,0.0119721873581,-0.999907950859,0.0,0.263404978577,-0.261892489536,0.304918016733,1.0,0.0,0.0,3.523
-0.654670459353,-0.518233386658,-0.124367418679,-2.63978143718,-0.0667552850128,2.11098226147,-0.902096270594,0.00134676233706,0.000353024585059,-6.4989954864e-05,-0.00039392470146,0.000115104378672,2.50484092376e-05,0.0012514987987,0.573709789353,0.819023872657,0.00614170321739,0.0,0.819021992794,-0.573617735011,-0.0121002604061,0.0,-0.00638753522914,0.0119724583639,-0.999907925578,0.0,0.263406027168,-0.261891091193,0.304916607111,1.0,0.0,0.0,3.538
-0.654676069163,-0.518227998719,-0.12437270829,-2.63977889454,-0.0667552718411,2.11098144817,-0.902100511755,-0.00157885851436,0.00235105703978,-0.00102428710324,7.80080945326e-05,0.000231398381347,-0.000386492286354,-0.00252460298309,0.573714813151,0.819020333869,0.00614432917691,0.0,0.819018463402,-0.573622699628,-0.0121038002417,0.0,-0.00638885483045,0.0119766791234,-0.999907866601,0.0,0.263403734052,-0.261894167157,0.304915583847,1.0,0.0,0.0,3.558
-0.654676173165,-0.518233627972,-0.124372708389,-2.63977528053,-0.0667559970796,2.11098307626,-0.902099346194,0.000971259416689,0.00177327930484,-0.00167979065724,0.000980245716828,-0.00026244249058,5.89520277341e-06,0.000822446305552,0.57371568081,0.819019738142,0.00614272147976,0.0,0.819017917028,-0.573623706013,-0.0120930718942,0.0,-0.00638097676949,0.0119692143706,-0.99990800629,0.0,0.263404850493,-0.261895523788,0.304919438096,1.0,0.0,0.0,3.574
