nelsonifechukwu/NELSON_IML_WORK/CNN-GradCAM/train2dof/data_sample_2022-02-22-09-13-48/robot_state.csv
position_joint1,position_joint2,position_joint3,position_joint4,position_joint5,position_joint6,position_joint7,velocity_joint1,velocity_joint2,velocity_joint3,velocity_joint4,velocity_joint5,velocity_joint6,velocity_joint7,ee_T_00,ee_T_10,ee_T_20,ee_T_30,ee_T_01,ee_T_11,ee_T_21,ee_T_31,ee_T_02,ee_T_12,ee_T_22,ee_T_32,ee_T_03,ee_T_13,ee_T_23,ee_T_33,v_x,v_y,time
0.465076310844,0.547830652923,-0.123993842537,-1.35584164128,0.0795389068673,1.89410431035,0.1591517947,-0.00467907251321,0.00095484371369,-0.000526689234796,-1.71401318996e-05,-2.39349383402e-06,-7.4777385962e-05,-0.00182900381298,0.573812155909,0.818972943589,0.00191684666881,0.0,0.818929023741,-0.573753389879,-0.0119602917095,0.0,-0.00869552544923,0.00843288450144,-0.999926634457,0.0,0.661672882625,0.260894006446,0.303175799648,1.0,0.0,0.0,0.0
0.465079054904,0.547826165644,-0.123990683654,-1.35583384591,0.0795396189441,1.89410548302,0.159150135124,-0.000586142278743,-0.00440915551727,0.00155063452189,0.00254352534928,0.000248449610237,0.000340348488984,0.000348891547328,0.573806106491,0.818977152693,0.00192935793823,0.0,0.818933383331,-0.573747276109,-0.0119550710978,0.0,-0.00868413342267,0.00844007092096,-0.999926672826,0.0,0.661673543336,0.260898832671,0.303182687087,1.0,-0.00016,-0.000210285714286,0.009
0.465079019919,0.547831275579,-0.1239885528,-1.35583985273,0.0795396189441,1.89410512415,0.159151709911,-0.000201979960823,0.002141195104,0.00036085642398,-0.0014102126996,5.18838917866e-05,0.000208015813362,-0.00387721938233,0.573806269953,0.818977059848,0.00192013213128,0.0,0.818933151792,-0.573747460638,-0.0119620737676,0.0,-0.00869516047826,0.00843653521706,-0.999926606836,0.0,0.661671477074,0.260899235506,0.303176106635,1.0,-0.00038,-0.000499428571429,0.02
0.465078975007,0.547819720939,-0.123988178,-1.35584576479,0.0795381782263,1.89410687562,0.159151747939,0.00023334404242,0.0033135884647,0.00124688674055,0.000927850408639,-0.000287175185284,5.64607368745e-06,-0.00141051950407,0.573806009174,0.818977228426,0.00192615078892,0.0,0.818933406884,-0.573747182263,-0.0119579611886,0.0,-0.00868834160162,0.0084391016941,-0.999926644451,0.0,0.661670784681,0.260898759886,0.303181615287,1.0,-0.0007,-0.00092,0.036
0.465083676035,0.547771302757,-0.123990959715,-1.35588444902,0.0795383786065,1.89411056629,0.159154902717,0.00164194216482,-0.00502325015988,0.000505304376561,-0.00477071822286,-9.28713121008e-05,9.00730009437e-05,-0.000288823957175,0.573808792102,0.81897524758,0.00193929347314,0.0,0.818931575796,-0.573749888453,-0.0119535168396,0.0,-0.00867713206094,0.00844734435654,-0.999926672188,0.0,0.661663337197,0.260896591069,0.303197916604,1.0,-0.00104,-0.00136685714286,0.053
0.465075821203,0.54766844837,-0.123988667921,-1.35600799776,0.0795348326202,1.89414484327,0.159150869679,-0.000311275681973,-0.00776371777555,0.000507796535933,-0.0122301221083,-0.000254695776642,0.00367531619149,0.000416389002954,0.573816184103,0.818970032153,0.00195453276449,0.0,0.818926497703,-0.573757155673,-0.0119525970214,0.0,-0.00866755848469,0.00845937515361,-0.999926653511,0.0,0.66164629272,0.260881161581,0.303214870382,1.0,-0.00134,-0.00176114285714,0.068
0.465064144307,0.547526648988,-0.123993743829,-1.35622343535,0.0795323317115,1.89419071735,0.159151581729,-0.00180392179351,-0.00652639446973,-0.00136468916964,-0.0117348524689,0.000123756921381,0.0037359337234,0.000103526933846,0.573841042332,0.81895265738,0.00193649342127,0.0,0.818908771968,-0.573781974182,-0.0119756502279,0.0,-0.00869653299498,0.00845809390345,-0.999926412773,0.0,0.661614142024,0.260849491183,0.303216928182,1.0,-0.0017,-0.00223428571429,0.086
0.465046783437,0.547356457066,-0.123994533147,-1.35644293103,0.0795298552449,1.89431198086,0.159139462287,-0.00339480816576,-0.00940997492421,-0.000796231482338,-0.0124724482483,-6.5340911861e-05,0.00445669876386,-0.00558894038347,0.573857757634,0.818940786178,0.00200240814832,0.0,0.818897723767,-0.573798374768,-0.0119452929792,0.0,-0.00863367530742,0.00849483006985,-0.999926646066,0.0,0.661597350245,0.260821575864,0.303243566482,1.0,-0.00204,-0.00268114285714,0.103
0.465029670329,0.547163144509,-0.123989243433,-1.35666279776,0.0795285391727,1.89443100613,0.159130317651,-0.00035114259268,-0.00871346145979,0.00101707377043,-0.00977599845679,-8.73542567505e-05,0.0126258080632,-0.00234107321785,0.573872720872,0.818930085317,0.00208866043192,0.0,0.818888069354,-0.573812903778,-0.0119091657908,0.0,-0.00855443854909,0.00854488899988,-0.999926900555,0.0,0.661579106054,0.260797641752,0.303286005047,1.0,-0.00236,-0.00310171428571,0.119
0.465000763975,0.546940480227,-0.123994533111,-1.35695840366,0.0795243062278,1.89455477589,0.159117263994,-0.00119975872564,-0.0139536105711,-0.00116105316484,-0.0166469306529,0.000393430729653,0.0084548365294,-0.000726692269023,0.57390486999,0.818907428102,0.00213806041732,0.0,0.818865984335,-0.573844777148,-0.0118919443944,0.0,-0.00851165067113,0.00857579486044,-0.999927001108,0.0,0.661550861717,0.260751017266,0.303313931889,1.0,-0.0027,-0.00354857142857,0.136
0.464964490145,0.546698038074,-0.123986737779,-1.35733416256,0.0795122284874,1.89469301037,0.159084221738,-0.00706437684702,-0.0157949215823,0.000861658686024,-0.0215801142696,-0.000136531559984,0.0126270060587,-0.00846551042709,0.57391989399,0.818896868241,0.00214973680414,0.0,0.818855440399,-0.573859614873,-0.0119019766212,0.0,-0.00851300814829,0.0085912702468,-0.999926856709,0.0,0.661506966953,0.260697541319,0.303318513433,1.0,-0.00304,-0.00399542857143,0.153
0.46492743836,0.546427763712,-0.123991696473,-1.35772438747,0.0795045799634,1.894840286,0.158950091068,-0.00506457809871,-0.010513960795,-0.000331282971451,-0.0242227357988,-0.0036197004852,0.0139299473921,-0.00705342244766,0.573863658804,0.818936192653,0.00218182668242,0.0,0.818895061976,-0.573803135192,-0.0118990090288,0.0,-0.00849275367137,0.0086152618242,-0.999926822522,0.0,0.661465150695,0.260636152415,0.303337120577,1.0,-0.00336,-0.004416,0.169
0.464876749115,0.546113057434,-0.123991828983,-1.35825104248,0.0794907672473,1.89502346413,0.158928160147,-0.00280846650814,-0.0167156765187,-0.00041722537414,-0.0307822529897,-0.000287810903576,0.0088835951542,-0.00228406394541,0.573913066259,0.818901609866,0.00216624981337,0.0,0.818860097036,-0.57385241792,-0.0119285720464,0.0,-0.00852538329905,0.00861998485306,-0.99992650415,0.0,0.661403100957,0.260554355972,0.303325184622,1.0,-0.00372,-0.00488914285714,0.187
0.464825942553,0.545797906925,-0.123988908088,-1.3587849704,0.079458571866,1.89519487501,0.158874545434,-0.000114880564645,-0.0177190758649,0.000221397214604,-0.0319073478693,0.000396457727614,0.0082799733331,0.000238294422464,0.573929902432,0.818889914365,0.0021265338888,0.0,0.818847825155,-0.573869355372,-0.011956132501,0.0,-0.00857056869794,0.0086034552529,-0.999926260236,0.0,0.661337352736,0.260469616432,0.303308922837,1.0,-0.00404,-0.00530971428571,0.203
0.464761379441,0.545430796213,-0.123989925161,-1.35941830124,0.0793444914243,1.89540753635,0.158760758585,-0.000565158237686,-0.0235301633021,0.00153352526211,-0.0416789028203,-0.0021350394523,0.00875178443489,-0.00920693078508,0.573895293495,0.818914392792,0.00203869668057,0.0,0.818871807159,-0.57383575934,-0.0119260909062,0.0,-0.00859673594891,0.00851392259534,-0.999926801948,0.0,0.661267379132,0.260351925315,0.303285673018,1.0,-0.00438,-0.00575657142857,0.22
0.464696057417,0.545028175922,-0.123990249871,-1.36011298237,0.0793369212374,1.89562828782,0.158690505735,-0.00402102739641,-0.0266632289802,0.000953655097827,-0.039863225804,0.0005112909669,0.00974803362267,-0.00268556495676,0.573928086222,0.818891514361,0.00199661061915,0.0,0.818848009394,-0.573868358257,-0.011991322018,0.0,-0.00867396718918,0.00851724111137,-0.999926106718,0.0,0.661179849416,0.260245117862,0.303259208367,1.0,-0.00472,-0.00620342857143,0.237
0.464631846187,0.54459304324,-0.123998115013,-1.36083250247,0.0793180123137,1.89587858553,0.15861971387,-0.00311516984832,-0.0245398320756,-8.05282004615e-05,-0.0371298745914,7.31040840272e-05,0.0145476287241,-0.00212006843944,0.573963261481,0.818866904213,0.00197852360503,0.0,0.818822949127,-0.573903396232,-0.0120256674192,0.0,-0.00871210736928,0.00852251591145,-0.999925730196,0.0,0.661095353716,0.260132335268,0.303246688951,1.0,-0.00506,-0.00665028571429,0.254
0.464566466637,0.544142331263,-0.123996069088,-1.36157476037,0.079291399176,1.89614193942,0.158507328822,-0.00787468652308,-0.0332246778848,0.00101943329322,-0.0478712738221,0.000275628942903,0.0209997255655,-0.00799567649648,0.573957616883,0.818870893895,0.00196470218589,0.0,0.81882655296,-0.573897611207,-0.0120563228389,0.0,-0.00874520234118,0.00852873284796,-0.999925388293,0.0,0.661007011345,0.260021670378,0.303235123012,1.0,-0.00538,-0.00707085714286,0.27
0.464495831767,0.543642210069,-0.123998830847,-1.36240938538,0.079250129895,1.89642545842,0.158422101066,-0.00808745365723,-0.0297200148621,-9.35569843364e-05,-0.0471782356331,-0.000888793561336,0.0144015801493,-0.00269441090153,0.573983000142,0.818853195938,0.00192508466146,0.0,0.818808219957,-0.573923049745,-0.0120904426598,0.0,-0.00879561649525,0.00851614765808,-0.999925053371,0.0,0.660905911715,0.259893429867,0.303216392951,1.0,-0.00572,-0.00751771428571,0.287
0.464404844892,0.543063583284,-0.124001946814,-1.36331026552,0.0791937283469,1.89675384678,0.158289767083,-0.0059947630238,-0.0315300254025,-3.53247564715e-05,-0.0447303871367,-0.00402142018545,0.0153011069344,-0.014198433144,0.573986410137,0.818850797623,0.00192849989404,0.0,0.818805885594,-0.573926463051,-0.0120865060212,0.0,-0.00879039721514,0.00851672123909,-0.999925094383,0.0,0.660806669852,0.259745312707,0.303225480291,1.0,-0.00608,-0.00799085714286,0.305
0.464343946574,0.542513028781,-0.124001890593,-1.36417861916,0.0791438169602,1.89705475045,0.158170713452,-0.00835637444918,-0.037583029639,-1.97769517609e-05,-0.0524111210527,-0.00422483523139,0.0164169596376,-0.00801238204464,0.5739736032,0.818859804189,0.00191593681469,0.0,0.818814664228,-0.573913651231,-0.0121001437082,0.0,-0.00880890861352,0.00851412416632,-0.999924953593,0.0,0.660699651932,0.259621599275,0.303227642536,1.0,-0.0064,-0.00841142857143,0.321
0.464265640969,0.541947037905,-0.12400514265,-1.36506192762,0.0790971423607,1.89739402463,0.158060383032,-0.00543311787798,-0.040440984999,-0.000126269372675,-0.0585327117072,-0.000797561958929,0.0252117903443,-0.0118653030775,0.573986380326,0.818850799415,0.0019365948359,0.0,0.818805895811,-0.573926303372,-0.0120933942144,0.0,-0.00879139206631,0.00852730301739,-0.999924995452,0.0,0.660602218554,0.259486029408,0.303236980348,1.0,-0.00672,-0.008832,0.337
0.464173833923,0.541266936809,-0.124010917625,-1.36611580055,0.0790264295813,1.89778296396,0.157913978963,-0.00264644018232,-0.0350031756171,-0.0010423334064,-0.0586830253318,-0.00629624551043,0.0176826187679,-0.00802659765906,0.57398532125,0.818851524044,0.00194408393127,0.0,0.818806802178,-0.573925293075,-0.0120799659461,0.0,-0.00877610855263,0.00852571642765,-0.999925143237,0.0,0.660483606268,0.259320820729,0.303250091423,1.0,-0.00708,-0.00930514285714,0.355
0.464089672265,0.540608696362,-0.124011005802,-1.36712185147,0.0789721475395,1.898146452,0.157793016127,-0.00479550161546,-0.0437137163478,-0.000165445961317,-0.064790630452,-0.00863450378121,0.0181589632832,-0.016443008817,0.573996445469,0.818843685321,0.00196124959367,0.0,0.818799109393,-0.573936264807,-0.0120801199824,0.0,-0.00876626647717,0.0085399797724,-0.999925107854,0.0,0.660365993314,0.259170289329,0.303268039029,1.0,-0.0074,-0.00972571428571,0.371
0.46398820251,0.539873823982,-0.124009111548,-1.36823380216,0.0789095875823,1.89856423667,0.157652395193,-0.0094896397204,-0.040394855303,0.000965908881245,-0.0661949153215,-0.00232483728868,0.0302294818393,-0.01011519127,0.574007921822,0.818835549592,0.00199882743404,0.0,0.818791416497,-0.573947529643,-0.0120663329078,0.0,-0.00873328841299,0.00856295828593,-0.999925199912,0.0,0.660241066117,0.259000269692,0.303294272173,1.0,-0.00774,-0.0101725714286,0.388
0.463883703351,0.539110810747,-0.124014102077,-1.36940210568,0.0788425350159,1.89900524101,0.157507732949,-0.0050521689001,-0.0479357264349,0.00120644159557,-0.0696283026738,-0.002876194573,0.0276370674142,-0.016922484233,0.574025257832,0.818823321243,0.00202949765574,0.0,0.818779587391,-0.573964730139,-0.012050839392,0.0,-0.00870281581661,0.00857936262157,-0.999925324979,0.0,0.660110863486,0.258818796599,0.303315681019,1.0,-0.00808,-0.0106194285714,0.405
0.463780765385,0.538388701985,-0.124021206911,-1.3705212742,0.0787737396004,1.89943747552,0.157363694246,-0.006183475972,-0.0484074537425,-0.00289535359306,-0.0681519784829,-0.000968036445942,0.0274602696725,-0.00764712758918,0.574040115704,0.818812838939,0.00205602804745,0.0,0.818769515635,-0.573979536325,-0.0120299230131,0.0,-0.00867030431943,0.0085892368563,-0.999925522643,0.0,0.659989147104,0.258641556505,0.303330760767,1.0,-0.0084,-0.01104,0.421
0.463671729982,0.537544035957,-0.124029661672,-1.37183688652,0.0787027960122,1.89994783649,0.157200186928,-0.0060230313978,-0.0536522356852,0.000339358906065,-0.0728886609138,-0.00417188666548,0.0291869307985,-0.0122761689333,0.574055198489,0.818802176791,0.00209075842575,0.0,0.818759294314,-0.573994457942,-0.0120136226148,0.0,-0.00863686288526,0.00860847614781,-0.999925646605,0.0,0.659842499876,0.258442759187,0.303345597464,1.0,-0.00876,-0.0115131428571,0.439
0.46355604008,0.536711425164,-0.124032967615,-1.37313564935,0.0786264596149,1.90042978145,0.157043252327,-0.00882354176685,-0.0587610482819,-0.000712859968273,-0.0780530922546,-0.0100593704807,0.0270551196832,-0.0134776183319,0.574074840611,0.81878837168,0.00210396784026,0.0,0.818745648852,-0.574014029358,-0.0120084756989,0.0,-0.00862485926146,0.00861654418252,-0.999925680723,0.0,0.659694307228,0.258241621367,0.303357137097,1.0,-0.0091,-0.01196,0.456
0.463451895098,0.535904529932,-0.124035502688,-1.37441484072,0.0785538260414,1.9008995872,0.156888143398,-0.00695399863732,-0.0527519237517,0.00149642971724,-0.0870222034497,-0.00567708624341,0.0323913520724,-0.0174076238391,0.574085777569,0.8187807057,0.00210306171657,0.0,0.818737920758,-0.574024918507,-0.0120148635952,0.0,-0.00863049482662,0.00861958464018,-0.999925605893,0.0,0.659543898042,0.258050322207,0.303358620416,1.0,-0.00942,-0.0123805714286,0.472
0.463327859476,0.534996661705,-0.124034223851,-1.37583195968,0.0784750612001,1.90140684137,0.156719139608,-0.0079558897394,-0.05528880128,-0.00278639117762,-0.0833439409583,-0.00192129379825,0.0337799571992,-0.0113519053194,0.574104634762,0.818767477225,0.00210558413327,0.0,0.818724617064,-0.574043654675,-0.0120262563253,0.0,-0.00863817665249,0.00862838918161,-0.999925463624,0.0,0.659375875814,0.25783464282,0.303368667144,1.0,-0.00976,-0.0128274285714,0.489
0.463196089161,0.534111335138,-0.124037070856,-1.37730660235,0.0783996069506,1.90193826831,0.156545747435,-0.0100223975349,-0.050553584603,0.00156590788234,-0.0903203816111,-0.00294424640683,0.0298867862712,-0.00926193852035,0.574133183905,0.818747570663,0.00206144934639,0.0,0.818703975045,-0.574072229685,-0.0120674459123,0.0,-0.00869693864519,0.00861620380612,-0.999925059337,0.0,0.659201090126,0.257606529791,0.30333752221,1.0,-0.0101,-0.0132742857143,0.506
0.463072452383,0.533245346956,-0.124039687097,-1.37870063147,0.0783163426705,1.90246827649,0.156363717142,-0.00602430225478,-0.0526310128972,-0.00151919645974,-0.0845125845282,-0.0101436463458,0.0355127196256,-0.0145780317797,0.574141293993,0.818741883912,0.00206130097327,0.0,0.818698289545,-0.574080342539,-0.0120672245572,0.0,-0.00869675723823,0.0086160413887,-0.999925062314,0.0,0.659042201293,0.257391892065,0.303330773524,1.0,-0.01042,-0.0136948571429,0.522
0.462939715662,0.532283446429,-0.124034990499,-1.38025420616,0.0782306004585,1.90304349588,0.156164511243,-0.0134297831853,-0.0538162207962,0.0017186723521,-0.0883193058108,-0.00233990690902,0.0360800988055,-0.0119402849231,0.574145477534,0.818738974685,0.00205155070476,0.0,0.81869512913,-0.574084445011,-0.0120864567183,0.0,-0.00871805768296,0.00861914497862,-0.999924850081,0.0,0.658858127968,0.257160516079,0.303319226797,1.0,-0.01076,-0.0141417142857,0.539
0.462807169965,0.531289756989,-0.124045657603,-1.38185857075,0.0781395442869,1.90362776904,0.155964769963,-0.00904124778118,-0.0626683394353,-0.00143260339598,-0.0978668640403,-0.00239144075314,0.0326551960741,-0.011750607483,0.574160995394,0.818728149353,0.00202872531331,0.0,0.818683962653,-0.574100017615,-0.0121031388543,0.0,-0.00874465759918,0.00861020090365,-0.999924694867,0.0,0.658668171854,0.256914510336,0.303306982019,1.0,-0.0111,-0.0145885714286,0.556
0.462673691704,0.530253361381,-0.124043592722,-1.38351162742,0.0780304774829,1.90420603355,0.155756143122,-0.00781016838357,-0.0610336652152,-0.000395336682417,-0.101778394151,-0.00971851774317,0.0378219390277,-0.0107491934694,0.574158396776,0.81873006225,0.00199185353313,0.0,0.818685387921,-0.574097575106,-0.0121225724844,0.0,-0.00878176531768,0.00859114357106,-0.999924533577,0.0,0.658464637019,0.256666804263,0.303300453466,1.0,-0.01144,-0.0150354285714,0.573
0.462541610252,0.529272625999,-0.124046066668,-1.38505873076,0.0779369681641,1.90478912505,0.155539680071,-0.0148009166359,-0.0674435152738,-0.000362996452546,-0.104148462303,-0.00328422355763,0.0349258004534,-0.0149662517222,0.574148749271,0.818736793209,0.00200600532974,0.0,0.81869231701,-0.574087879593,-0.0121137721012,0.0,-0.00876653636061,0.00859757378215,-0.999924611941,0.0,0.658271863817,0.256418166404,0.3033096723,1.0,-0.01178,-0.0154822857143,0.59
0.462397400579,0.528127603038,-0.12404924772,-1.38685826982,0.0778234252844,1.90548236031,0.155296964382,-0.00815887334563,-0.0589424233164,-0.000284494607777,-0.103415918826,-0.00676899832564,0.0370914215588,-0.0224638198381,0.574138741873,0.818743745421,0.00203256382822,0.0,0.818699679492,-0.574077819792,-0.012092912098,0.0,-0.00873431449571,0.00860723440818,-0.999924810806,0.0,0.658076005189,0.256165385946,0.303315399383,1.0,-0.01212,-0.0159291428571,0.607
0.462274676773,0.527103740524,-0.124046769366,-1.3884194589,0.0777321628234,1.90607297841,0.155070849957,-0.00648872272233,-0.0709421221285,0.00025413237153,-0.106144843776,-0.00125502060907,0.0426102950816,-0.0155083331212,0.574112246766,0.818762204262,0.00208035735761,0.0,0.818718722352,-0.574051081829,-0.0120729458705,0.0,-0.00869080770614,0.00863461983986,-0.999924953785,0.0,0.657890909273,0.255939508388,0.303344096428,1.0,-0.01242,-0.0163234285714,0.622
0.462116767044,0.52586667709,-0.124049363891,-1.39033074838,0.0776001880092,1.90678381805,0.154817507773,-0.0065943865604,-0.0744256283578,-0.000539184668064,-0.106779887657,-0.00971390729583,0.039601367052,-0.0169019240285,0.574103432381,0.818768330077,0.00210178306827,0.0,0.818725268747,-0.574042317249,-0.0120457138851,0.0,-0.00865630328005,0.00863643487245,-0.999925237408,0.0,0.657665204676,0.255650402673,0.303366462819,1.0,-0.01278,-0.0167965714286,0.64
0.461959941228,0.524704865228,-0.12405836857,-1.39218517717,0.0774940550228,1.90743443362,0.154568918382,-0.010323040817,-0.0671426313167,-0.000470810745141,-0.109368172131,-0.0096964133575,0.0333201572871,-0.017124437927,0.574105717806,0.818766813964,0.002067857733,0.0,0.818723208963,-0.574044647282,-0.012074640081,0.0,-0.00869943941709,0.00862528909335,-0.999924959255,0.0,0.657437975805,0.255364169901,0.303357684906,1.0,-0.01312,-0.0172434285714,0.657
0.461809650707,0.523569868424,-0.124059480898,-1.39398371478,0.0773849153704,1.90809501941,0.154315933046,-0.00811712504635,-0.0692830623481,-0.000917128927646,-0.11577791508,-0.00963612097924,0.0489956709161,-0.0167864596164,0.574089577029,0.818778139514,0.00206463116585,0.0,0.818734458456,-0.57402848884,-0.0120800429614,0.0,-0.00870588560828,0.00862557750275,-0.999924900664,0.0,0.657221296778,0.255093326527,0.303356952192,1.0,-0.01344,-0.017664,0.673
0.461637539485,0.522281918195,-0.124061322484,-1.39602723654,0.077255841029,1.90889829529,0.154051737608,-0.00529805174606,-0.0610737928778,-0.000698653372876,-0.113488501837,-0.00503130581384,0.0403876139039,-0.0129385268288,0.574090475967,0.818777422113,0.00209889104331,0.0,0.818734281199,-0.574029333064,-0.0120519074297,0.0,-0.00866317146395,0.00863748562064,-0.999925168851,0.0,0.656985668456,0.254787112047,0.303359199695,1.0,-0.0138,-0.0181371428571,0.691
0.461471817552,0.521101510251,-0.124062770504,-1.39791647916,0.0771387801262,1.90962068766,0.153794741322,-0.00669686430694,-0.0816883990438,-0.00428290010482,-0.123789349575,-0.00972339436077,0.046703560499,-0.0144658528455,0.574086330324,0.818780308846,0.00210667582494,0.0,0.818737297515,-0.574025182741,-0.0120446726048,0.0,-0.00865282237358,0.00863966230758,-0.999925239656,0.0,0.656764363563,0.254498738788,0.303351956194,1.0,-0.01412,-0.0185577142857,0.707
0.461304259155,0.519807599243,-0.124073042704,-1.39996703558,0.0770154191312,1.91036695426,0.153506686714,-0.00889042024822,-0.0730251018616,0.000127965594794,-0.116742810995,-0.0116112905998,0.0506812220724,-0.0151361087233,0.574070907881,0.818791149649,0.00209592053609,0.0,0.818747979196,-0.574009789331,-0.0120521871803,0.0,-0.00866531212587,0.00863500699066,-0.99992517171,0.0,0.656514879757,0.254187033913,0.303349656366,1.0,-0.01446,-0.0190045714286,0.724
0.461132388833,0.518456282828,-0.12407762985,-1.40203625418,0.0768833074434,1.91110934225,0.153241428,-0.0131453374115,-0.079347252062,-0.00119462315338,-0.116990286206,-0.0101629912845,0.050839826274,-0.0158124124685,0.574071751787,0.818790512908,0.00211345074273,0.0,0.818747589232,-0.574010576537,-0.0120411814704,0.0,-0.00864622853956,0.0086430512464,-0.999925267406,0.0,0.656261273434,0.253872748411,0.303377798918,1.0,-0.0148,-0.0194514285714,0.741
0.46095748452,0.517096065887,-0.124085826221,-1.40417215133,0.0767412920893,1.9118762222,0.152931927474,-0.00403911459393,-0.0799906671905,-0.00181292138081,-0.121424343177,-0.00995890268426,0.0519950617745,-0.0159550839952,0.574041976538,0.818811427596,0.00209812102098,0.0,0.818768376865,-0.573980943011,-0.0120403075792,0.0,-0.0086546265838,0.00862968325182,-0.999925310214,0.0,0.655998366067,0.2535466942,0.303382299782,1.0,-0.01514,-0.0198982857143,0.758
0.460781458539,0.515837515137,-0.124084022054,-1.40620281026,0.0766158155942,1.91264844187,0.152659427897,-0.0150620981638,-0.0742934070303,-0.000214037325517,-0.124848520004,-0.00635266284,0.0486300783809,-0.022984363274,0.574035339392,0.818816088041,0.00209523149182,0.0,0.818772995917,-0.573974315312,-0.0120421518495,0.0,-0.00865786529883,0.00862830581128,-0.999925294063,0.0,0.655755158791,0.25323991856,0.303365395847,1.0,-0.01546,-0.0203188571429,0.774
0.460593665749,0.514429969153,-0.124083975508,-1.40842775588,0.0764782982344,1.91345409624,0.152351722537,-0.0136604828292,-0.0770904661182,-0.00170010868904,-0.132853204298,-0.0128887366149,0.0421778665409,-0.0246733637667,0.574017113291,0.818828893287,0.0020842429918,0.0,0.818785605125,-0.573956085965,-0.012053676827,0.0,-0.00867380190412,0.00862573100812,-0.999925178163,0.0,0.655479682991,0.252903727088,0.303363011978,1.0,-0.0158,-0.0207657142857,0.791
0.46040447319,0.51302761361,-0.124087386473,-1.41069436611,0.0763378882724,1.91424622671,0.152043340977,-0.0104244241823,-0.0806029859852,0.000163883314676,-0.131597797296,-0.00687536970418,0.0486578670147,-0.00751144087274,0.574002836993,0.818839058882,0.00202130512368,0.0,0.81879486007,-0.573941995119,-0.0120958779327,0.0,-0.00874463376866,0.00859826803852,-0.999924797756,0.0,0.655191870442,0.252558304212,0.30333569083,1.0,-0.01614,-0.0212125714286,0.808
0.460212035066,0.511685691374,-0.124093572825,-1.41285611295,0.0762152987788,1.91502932504,0.151734572593,-0.0140532455568,-0.0870134520853,-0.000339632734936,-0.130254882249,-0.00521818003861,0.0468773350778,-0.0157007935208,0.573992161469,0.818846610999,0.00199327105753,0.0,0.818801914021,-0.573931314434,-0.0121251312753,0.0,-0.00878479110906,0.0085919898883,-0.999924499727,0.0,0.65492526754,0.252223061504,0.303314843057,1.0,-0.01646,-0.0216331428571,0.824
0.460001156182,0.510124365862,-0.124093986376,-1.41532546413,0.0760646745944,1.91597102887,0.151387555435,-0.0124349609128,-0.0891215064364,-0.000395374630853,-0.143017559168,-0.00331852206987,0.056282584385,-0.0267252394632,0.573969451978,0.818862463975,0.00201994808439,0.0,0.81881810997,-0.57390848516,-0.0121119919268,0.0,-0.00875895884474,0.00860604913442,-0.999924605437,0.0,0.654626741506,0.251851763183,0.303314272347,1.0,-0.01682,-0.0221062857143,0.842
0.45979453924,0.508611884286,-0.124099886503,-1.41769311723,0.0759128802487,1.91680992732,0.151058495481,-0.0127625316048,-0.0853536515789,-0.000569982055877,-0.136438403115,-0.00249421633682,0.0480551642214,-0.0166949789549,0.573955253818,0.818872459416,0.00200218057219,0.0,0.818827862567,-0.573894356298,-0.0121221365523,0.0,-0.0087776126375,0.00859717072224,-0.999924518237,0.0,0.654329870841,0.251484497019,0.303318598743,1.0,-0.01716,-0.0225531428571,0.859
0.459599587742,0.507167892602,-0.124102942822,-1.41995090609,0.0757654570338,1.91763203677,0.150747073701,-0.0105619171589,-0.0906006467899,-0.000317093198296,-0.140146164583,-0.00162455540293,0.0548038776015,-0.0229279283251,0.573939127375,0.818883758593,0.00200371692159,0.0,0.818839217718,-0.57387826032,-0.0121171267529,0.0,-0.00877279762118,0.00859538063917,-0.999924575882,0.0,0.654049383045,0.251138281519,0.303325256172,1.0,-0.01748,-0.0229737142857,0.875
0.459379370498,0.505579318365,-0.124104992218,-1.4224086627,0.0756160739241,1.91856383383,0.150411344426,-0.0176959551474,-0.0996925696858,-0.00283722214267,-0.141389316035,-0.00502013696043,0.0623407186461,-0.0168785624779,0.573932836884,0.81888803735,0.00205619377004,0.0,0.818844176931,-0.573871736668,-0.0120909330503,0.0,-0.00872129685754,0.0086232518257,-0.999924786426,0.0,0.653751996691,0.250761438369,0.303346781725,1.0,-0.01782,-0.0234205714286,0.892
0.45914233342,0.50383762099,-0.12411301466,-1.42503691729,0.0754447643601,1.91956146059,0.150053740261,-0.0127647468525,-0.0985613778315,-0.00183455609662,-0.144916149889,-0.0146098805662,0.0524096212201,-0.0278366052943,0.573928859134,0.818890602062,0.00214322412747,0.0,0.818848016931,-0.573867526109,-0.012030567212,0.0,-0.00862195769885,0.00865983126992,-0.999925331796,0.0,0.653436515471,0.250352937883,0.303399331882,1.0,-0.01818,-0.0238937142857,0.91
0.458937981898,0.502353732209,-0.124115266871,-1.42721632361,0.0753086549771,1.92038470875,0.149733995834,-0.0153125535226,-0.103709815714,0.00460815494785,-0.148073297209,-0.00684775895139,0.0458573802783,-0.0240048368626,0.573910977243,0.818902843759,0.00225157356701,0.0,0.818861714756,-0.573849240482,-0.0119703051757,0.0,-0.0085106170235,0.00871378470064,-0.999925816925,0.0,0.653174883527,0.250012960464,0.303469501381,1.0,-0.01848,-0.024288,0.925
0.45870290547,0.500633083032,-0.124122253437,-1.42980807193,0.075146351476,1.92128978583,0.149376106259,-0.0164839843161,-0.104762854955,-0.000859669893392,-0.155848102952,-0.0163981889557,0.061214419733,-0.0231379058196,0.573903601169,0.818907931913,0.00228090259459,0.0,0.818867131397,-0.573841690645,-0.0119616928887,0.0,-0.00848681158199,0.00873278292265,-0.999925853517,0.0,0.652845710175,0.249605885641,0.303515379617,1.0,-0.01882,-0.0247348571429,0.942
0.458459453369,0.498933553925,-0.124122371852,-1.43242582356,0.0749776493727,1.92224971151,0.149011021341,-0.0132687987744,-0.101955640814,-0.00155232585263,-0.157522210962,-0.00887987757693,0.053703304053,-0.0192355904593,0.573891668849,0.818916204797,0.00231275758115,0.0,0.818875833893,-0.573829646019,-0.0119437396859,0.0,-0.00845395587536,0.00874844242809,-0.999925994954,0.0,0.652520384278,0.249196746847,0.303538079674,1.0,-0.01916,-0.0251817142857,0.959
0.458214134136,0.497369343864,-0.124117160847,-1.4349143215,0.0748276615245,1.92317391372,0.148639021435,-0.0154318342043,-0.103715826026,-0.000830196981856,-0.159627294185,-0.00555295464927,0.0619458423874,-0.0300152388038,0.573870815093,0.818930822061,0.00231152848476,0.0,0.818890362922,-0.573808725166,-0.0119527126254,0.0,-0.00846223248733,0.00875236984692,-0.999925890576,0.0,0.652192237403,0.248774405771,0.303527600157,1.0,-0.0195,-0.0256285714286,0.976
0.457931764801,0.49558534647,-0.124120270312,-1.43776944794,0.0746512158422,1.92415589284,0.148221290391,-0.0157070681163,-0.0992947114447,-0.000326861853318,-0.156876369385,-0.0128391857068,0.0518549114082,-0.0192404272721,0.573857821443,0.818940125956,0.00224003769556,0.0,0.818898536629,-0.573795822178,-0.0120119965012,0.0,-0.00855194630791,0.0087277097697,-0.999925342861,0.0,0.651844860494,0.248341044297,0.303493617593,1.0,-0.01984,-0.0260754285714,0.993
0.457625662948,0.493741696436,-0.124148996082,-1.44077787144,0.0744571204988,1.92522135677,0.147793633997,-0.0221415112081,-0.118141902447,-0.00358512258408,-0.175683014137,-0.0137445542631,0.0664098099031,-0.02312931263,0.573877711935,0.818926444503,0.00214409401904,0.0,0.818883650953,-0.573816161087,-0.0120551390771,0.0,-0.00864212277102,0.00867410617233,-0.999925033988,0.0,0.651469185175,0.247833456182,0.303439000906,1.0,-0.0265857142857,-0.0349412244898,1.011
0.457336936776,0.491265170092,-0.124223034931,-1.44450569967,0.0742561336059,1.9266450401,0.147242464889,-0.0170178508104,-0.167841406707,-0.0035129697948,-0.262081158471,-0.0173661901818,0.101831145653,-0.0393985558098,0.573849439734,0.818945860324,0.00229025669229,0.0,0.818905075702,-0.573787388941,-0.0119689674556,0.0,-0.00848797936254,0.00874405644875,-0.999925745085,0.0,0.651011388922,0.247256707374,0.303513616981,1.0,-0.0371548571429,-0.0488320979592,1.027
0.456857789528,0.487832488286,-0.124244291008,-1.44998847415,0.0739673192299,1.92870665846,0.146427557156,-0.030218709089,-0.230223799285,-0.00258068310526,-0.358924531819,-0.0166720491888,0.143225354696,-0.054089463673,0.573786310679,0.818990009765,0.00231958714459,0.0,0.818949175055,-0.573723701821,-0.0120045636082,0.0,-0.0085009792136,0.00878784743587,-0.999925250751,0.0,0.650315202154,0.246420923795,0.303470058237,1.0,-0.0483845714286,-0.0635911510204,1.044
0.456187544833,0.483403985656,-0.124367870868,-1.45695548794,0.0735505029254,1.93127235525,0.14535255191,-0.0410295127714,-0.28317027962,-0.00882273065121,-0.437657251797,-0.0308724257285,0.157027565742,-0.0700478111674,0.573775981549,0.818997234775,0.00232364604378,0.0,0.818956691609,-0.573713604316,-0.0119743222559,0.0,-0.00847399261958,0.00877371290342,-0.999925603938,0.0,0.649453270993,0.245252489339,0.303454994757,1.0,-0.0596142857143,-0.0783502040816,1.061
0.455449663688,0.478700664544,-0.124498561911,-1.4644215844,0.0730938013206,1.93384944568,0.144248238719,-0.0547540931676,-0.333491153514,-0.00761901034159,-0.516771528716,-0.0318575615018,0.183287091534,-0.0756215178991,0.573811270388,0.818972990153,0.00214808681157,0.0,0.818930173601,-0.573749635647,-0.0120612297356,0.0,-0.00864552380915,0.00868016978272,-0.999924951969,0.0,0.648489299039,0.24397628154,0.303389489682,1.0,-0.0695228571429,-0.0913728979592,1.076
0.454401619357,0.47208152559,-0.124643130544,-1.47476020287,0.0724855149063,1.93752354954,0.142752394148,-0.0592109990779,-0.383705673591,-0.00904725354694,-0.598417111463,-0.0345278335407,0.218242130332,-0.0891531012873,0.573884134504,0.818922043194,0.00210576290987,0.0,0.81887849145,-0.573822489564,-0.0121042807368,0.0,-0.00870429578168,0.00867098557277,-0.999924521774,0.0,0.647159157518,0.242227458499,0.303371496513,1.0,-0.0814131428571,-0.107000130612,1.094
0.453232889918,0.464834623526,-0.124726729224,-1.48570419328,0.0718324300928,1.94161821589,0.140994975563,-0.0716444086201,-0.438347098938,-0.00642605772365,-0.676149964254,-0.0460841976076,0.250704485914,-0.109730104708,0.573807067944,0.818975087511,0.00244983970023,0.0,0.81893599042,-0.573743973274,-0.0119349750182,0.0,-0.00836902757616,0.00885480540488,-0.999925773145,0.0,0.645777578302,0.240396407186,0.303521738588,1.0,-0.0926428571428,-0.121759183673,1.111
0.452008473597,0.457789159765,-0.124792020268,-1.49670941809,0.0711368599225,1.94541838379,0.139323148383,-0.0846789576126,-0.488748771537,-0.00753254825804,-0.771858008037,-0.0470076225947,0.254679430278,-0.107604257049,0.573812318643,0.818971804202,0.00231382712395,0.0,0.818930487974,-0.573749310691,-0.0120553411067,0.0,-0.00854559226813,0.00881253647681,-0.999924653188,0.0,0.644306325755,0.238508002167,0.30346657635,1.0,-0.102551428571,-0.134781877551,1.126
0.450355923727,0.448296336629,-0.124957572727,-1.51108213817,0.0701292253578,1.95051985175,0.1370537894,-0.0971944358901,-0.553497753696,-0.00630720339678,-0.796816308094,-0.0565820790798,0.296662573406,-0.120138015939,0.573808320168,0.818974258611,0.00243358585361,0.0,0.818935396699,-0.57374576169,-0.0118896542133,0.0,-0.00834122176965,0.00881550183367,-0.999926352761,0.0,0.642423132662,0.235962626096,0.303589699276,1.0,-0.114441714286,-0.150409110204,1.144
0.448621273981,0.438579839214,-0.125049981132,-1.52597776819,0.0691630890424,1.95569085906,0.134727117291,-0.110408991044,-0.583316764515,-0.00514296749182,-0.906297178629,-0.0609653174332,0.309631631583,-0.138773357574,0.57379203184,0.818985702359,0.00242289693896,0.0,0.818946293416,-0.57372908731,-0.0119436081616,0.0,-0.00839171943608,0.00883753981204,-0.99992573571,0.0,0.640389828399,0.233367429774,0.303599699015,1.0,-0.125671428571,-0.165168163265,1.161
0.446782621493,0.42858455547,-0.125146671097,-1.54091717177,0.0681675774799,1.96099852531,0.132272379582,-0.122492594684,-0.632791833258,-0.00941341821787,-0.968085378044,-0.06613734438,0.337316458388,-0.146398877436,0.573735861084,0.819024131531,0.00271672158224,0.0,0.818988621211,-0.573671885124,-0.0117878516995,0.0,-0.00809618408596,0.00898825035964,-0.999926828902,0.0,0.638366989257,0.230713440281,0.303766628634,1.0,-0.136240571429,-0.179059036735,1.177
0.444592021716,0.417345196052,-0.12526551744,-1.55788190289,0.0669613590944,1.96687652563,0.129455730828,-0.137467306105,-0.678408072814,-0.0108389066284,-1.01493108363,-0.0676503501273,0.357254416752,-0.163340857104,0.573693911063,0.819053249483,0.00279603679791,0.0,0.819019105833,-0.573630033601,-0.011706226205,0.0,-0.00798428565228,0.00900597164629,-0.999927569206,0.0,0.636017429121,0.227616824309,0.303839237833,1.0,-0.147470285714,-0.193818089796,1.194
0.442180463848,0.405327031306,-0.125386754552,-1.576002296,0.0656990658393,1.97317932456,0.126429491956,-0.148640632871,-0.720175735291,-0.00402567192552,-1.10496389264,-0.0706669049802,0.372646178439,-0.179662847824,0.573673227123,0.819067256977,0.00293324594653,0.0,0.819034954694,-0.573608952954,-0.0116300894843,0.0,-0.00784344036666,0.00907447663889,-0.999928064571,0.0,0.63346936511,0.224286153766,0.303893528626,1.0,-0.1587,-0.208577142857,1.211
0.439641962726,0.393266070967,-0.125520792579,-1.5939273377,0.0644791496423,1.97929934753,0.123374034997,-0.156982922617,-0.751132706035,-0.0069608957739,-1.15267205288,-0.0788688329111,0.390597857703,-0.201479318813,0.57372164159,0.819032547914,0.00314806778028,0.0,0.819002704456,-0.573656277826,-0.0115668451058,0.0,-0.00766786140326,0.00921460279765,-0.999928144917,0.0,0.630907291084,0.220900515238,0.304017337154,1.0,-0.169269142857,-0.222468016327,1.227
0.436520748871,0.379070002338,-0.125679018849,-1.61521722053,0.0628167170541,1.98638856136,0.119583278303,-0.176379945885,-0.821898362143,-0.0128392735179,-1.21090760499,-0.0926148345262,0.416534892266,-0.211937454826,0.573629097536,0.819097771447,0.00304075196569,0.0,0.819067243287,-0.573564925902,-0.0115270833819,0.0,-0.00769788784171,0.0091030260291,-0.999928936195,0.0,0.627781142357,0.216789575776,0.304016083162,1.0,-0.181159428571,-0.23809524898,1.245
0.43304625236,0.364129364187,-0.125844339389,-1.63745929751,0.0611627410096,1.99372635274,0.11561645396,-0.202874241704,-0.87883811864,-0.0114697953218,-1.24111539443,-0.0898058109679,0.419498205208,-0.218603600446,0.573690437787,0.819054861907,0.00302682676948,0.0,0.819024018998,-0.573626143652,-0.0115520788151,0.0,-0.00772566809442,0.00910653630739,-0.999928689982,0.0,0.624457260048,0.212397744725,0.304027083083,1.0,-0.193049714286,-0.253722481633,1.263
0.429626507156,0.350307518901,-0.126038157005,-1.65817670851,0.0595722055478,2.00042910112,0.111790088192,-0.2159725936,-0.880955916371,-0.0121781122348,-1.30990027368,-0.099269086096,0.411434583461,-0.251713153982,0.573767654776,0.819001559136,0.00280559560117,0.0,0.818967756215,-0.573703979299,-0.0116749868479,0.0,-0.00795240417904,0.00899659536993,-0.999927907671,0.0,0.62129815573,0.208180159656,0.30391433703,1.0,-0.203618857143,-0.267613355102,1.279
0.425939547182,0.335727757956,-0.126211605541,-1.67937746429,0.0579451053917,2.00734492262,0.107740426126,-0.230075901911,-0.899431983567,-0.0131499764013,-1.35272891837,-0.100791256525,0.438506278108,-0.248158959709,0.573835012175,0.81895361869,0.00301598051806,0.0,0.81892254582,-0.573770628661,-0.0115705028301,0.0,-0.00774537324735,0.0091095894642,-0.999928509731,0.0,0.618038547399,0.203801458317,0.304034875931,1.0,-0.214188,-0.281504228571,1.295
0.421822765006,0.319728995229,-0.12633015659,-1.70262289911,0.056049577935,2.01477367348,0.103186303742,-0.25035077834,-0.96052057615,-0.00777879026014,-1.38621088873,-0.109515970121,0.426487783328,-0.265399874976,0.573738322118,0.819021048555,0.00309946100687,0.0,0.818991229834,-0.573673892653,-0.0115055310391,0.0,-0.00764533943138,0.00913977142422,-0.999929004161,0.0,0.614342190886,0.199009630059,0.304096878743,1.0,-0.225417714286,-0.296263281633,1.312
0.417670030098,0.304131325028,-0.126463131168,-1.72513919697,0.0541765512052,2.02189190281,0.0985670181845,-0.26258569677,-0.985746466328,-0.00622273815764,-1.42466271203,-0.111962942221,0.436349881913,-0.306115023343,0.573566098183,0.819141293896,0.00319664686155,0.0,0.819112949362,-0.573501659157,-0.0114267244625,0.0,-0.00752696449972,0.00917257320423,-0.999929601875,0.0,0.610689711379,0.194287722599,0.304151146561,1.0,-0.235986857143,-0.310154155102,1.328
0.412518326042,0.285956521563,-0.126639183611,-1.75120474816,0.0520283072293,2.02987677498,0.0931831017332,-0.294129037489,-1.00876248779,-0.0122239106794,-1.45369322349,-0.120324253176,0.454016257043,-0.299564526488,0.573587938504,0.819125843709,0.00323664520441,0.0,0.819097560455,-0.573522820636,-0.0114676748736,0.0,-0.00753732408599,0.0092290258685,-0.999929004393,0.0,0.606362496499,0.188642469126,0.304187021861,1.0,-0.247877142857,-0.325781387755,1.346
0.407254856172,0.268218043101,-0.126839887384,-1.77645669974,0.0498478744949,2.03748252662,0.0877056700279,-0.318203190469,-1.0733580645,-0.0098117669934,-1.48925849744,-0.134619316988,0.458145002445,-0.332129368153,0.573548890992,0.819153146686,0.00324635454329,0.0,0.819124931478,-0.573483678633,-0.0114701296153,0.0,-0.00753420647842,0.00923802792385,-0.999928944762,0.0,0.602083363448,0.183031273947,0.304208966166,1.0,-0.259106857143,-0.340540440816,1.363
0.401848742923,0.251041448342,-0.127086608432,-1.80066972629,0.0476590321062,2.04465523246,0.0823716778867,-0.343773700653,-1.11125756967,-0.0166931066828,-1.54514709993,-0.151008835207,0.46177160733,-0.337639932289,0.573691615944,0.819053139879,0.00326048324906,0.0,0.819025547381,-0.57362688421,-0.0114060224926,0.0,-0.00747198154775,0.00921413595376,-0.999929632119,0.0,0.597921996596,0.177445771392,0.304244882666,1.0,-0.269676,-0.354431314286,1.379
0.395761784182,0.232278991392,-0.127284652432,-1.82690091131,0.0453181302045,2.05221513415,0.0762547016865,-0.361347919248,-1.1431669652,-0.015070082595,-1.55588237162,-0.154733236746,0.474174028558,-0.372783730252,0.573654417917,0.819079056051,0.00329479037746,0.0,0.819051437096,-0.573589010118,-0.0114515398025,0.0,-0.00749000506638,0.00926800763108,-0.999928999409,0.0,0.593271300993,0.171366365815,0.304268210323,1.0,-0.280905714286,-0.369190367347,1.396
0.389307857235,0.213003587308,-0.127482729418,-1.85360830682,0.0428111644454,2.05976345922,0.0698097237489,-0.385049838192,-1.18324281918,-0.0243748726072,-1.60716564056,-0.160458225705,0.46853309013,-0.392601511371,0.573534178241,0.819163174544,0.00331462838149,0.0,0.819135771996,-0.573468678133,-0.0114459223225,0.0,-0.00747538643318,0.00927993699912,-0.999928998163,0.0,0.58841794396,0.165087620284,0.304283907029,1.0,-0.292135428571,-0.383949420408,1.413
0.382733368102,0.194396951231,-0.12769583898,-1.87909818185,0.0403778636244,2.06667703904,0.0634164464038,-0.420543176062,-1.19541364668,-0.0212375116352,-1.63397588289,-0.16505097454,0.455765392652,-0.404152594993,0.573501671754,0.819186043138,0.00328726717707,0.0,0.81915789462,-0.573435773216,-0.0115110633096,0.0,-0.00754481107045,0.00929458386108,-0.999928340701,0.0,0.58367224066,0.158904954923,0.304303702568,1.0,-0.302704571429,-0.397840293878,1.429
0.375159284037,0.174111575513,-0.128071464769,-1.90649988139,0.0377564276855,2.07399577003,0.0562167004074,-0.452124325339,-1.21949965259,-0.0197799256723,-1.59766586792,-0.161310039405,0.449562718979,-0.424626260739,0.573662102389,0.819073166794,0.00341857024031,0.0,0.819046326078,-0.573595297498,-0.0115020575675,0.0,-0.00746029453626,0.0093984428709,-0.999928004047,0.0,0.578509133157,0.15197762865,0.304376477072,1.0,-0.313934285714,-0.412599346939,1.446
0.366696374332,0.152165521258,-0.12835611258,-1.93590489875,0.0347061122151,2.08156817666,0.0481532749657,-0.480128489078,-1.23741281962,-0.0152805865525,-1.6163455329,-0.176692097071,0.41977483526,-0.443651966678,0.573562746784,0.819142808384,0.00340321551505,0.0,0.81911600952,-0.573496303865,-0.011476031667,0.0,-0.00744892070451,0.00937003295952,-0.999928355465,0.0,0.572781395296,0.144501711957,0.304401833143,1.0,-0.325824571429,-0.428226579592,1.464
0.358639720495,0.132202498694,-0.128644995546,-1.96233344032,0.03192713974,2.08811070373,0.0406089732016,-0.516827412372,-1.28109584358,-0.0159217739432,-1.63737505349,-0.185077592295,0.404125002094,-0.484154365128,0.573538384786,0.819159899019,0.00339527865571,0.0,0.819132874779,-0.573471814654,-0.0114960060259,0.0,-0.0074701143462,0.0093747655868,-0.999928153,0.0,0.567501369186,0.137612231425,0.304421916565,1.0,-0.336393714286,-0.442117453061,1.48
0.349414471574,0.110542144807,-0.12908398762,-1.99062194564,0.028847641638,2.09490455739,0.0320739231042,-0.558226901285,-1.28348624262,-0.0296342426134,-1.69543453308,-0.1866239706,0.392163507956,-0.518182993252,0.573614668568,0.819106313332,0.0034360391237,0.0,0.819080073279,-0.573548291921,-0.0114427833975,0.0,-0.00740226426915,0.00937832014503,-0.99992862425,0.0,0.561750661753,0.129941387782,0.304464867394,1.0,-0.347623428571,-0.456876506122,1.497
0.339649958714,0.0885074091446,-0.129413731651,-2.01910548423,0.0256755371754,2.1013801147,0.0230679074517,-0.582321947312,-1.29744035176,-0.0134025492778,-1.71722586673,-0.176107626136,0.364288003358,-0.53414040858,0.573541294855,0.819157863415,0.00339481998683,0.0,0.819130757119,-0.573474630207,-0.0115064395588,0.0,-0.00747889129975,0.00938040031158,-0.999928034548,0.0,0.555762016374,0.122147356657,0.304462794481,1.0,-0.358853142857,-0.471635559184,1.514
0.329879831466,0.067527652987,-0.129793309694,-2.04589302274,0.0226649638291,2.10724202323,0.014116854387,-0.618808487054,-1.29541590708,-0.0182661847695,-1.64535598495,-0.188102716005,0.346309861759,-0.554788000426,0.573529285737,0.819166191616,0.00341406169009,0.0,0.819138719844,-0.573461792998,-0.0115791418106,0.0,-0.00752755248968,0.00943774876028,-0.999927129771,0.0,0.550005327112,0.114596453254,0.304453033034,1.0,-0.35998,-0.473116571429,1.53
0.318853060004,0.0454631934143,-0.130277912431,-2.07377406189,0.0193115336313,2.11291048084,0.00441537647135,-0.653606987979,-1.28274183091,-0.0230740755315,-1.63350500015,-0.189461360257,0.325925392511,-0.569170443411,0.573804898273,0.818973978457,0.00321064335319,0.0,0.818943598987,-0.573737696112,-0.0117125846605,0.0,-0.00775038415587,0.00935025429375,-0.999926249425,0.0,0.543866801718,0.106346761337,0.304390466039,1.0,-0.35998,-0.473116571429,1.547
0.307544482924,0.0235159025662,-0.130623450573,-2.10084677094,0.0160577041165,2.11818356148,-0.00557059602261,-0.67677204734,-1.26223598615,-0.0242848632281,-1.6089227511,-0.197952178917,0.305877040707,-0.598812119995,0.573922033607,0.818891502659,0.003309549186,0.0,0.818861961083,-0.573853940093,-0.0117256569798,0.0,-0.00770299132998,0.0094398585825,-0.999925773742,0.0,0.537744969732,0.0982580786539,0.304451617786,1.0,-0.35998,-0.473116571429,1.564
0.29647837274,0.00310804138107,-0.131017899464,-2.12559135143,0.0129618874206,2.1227418276,-0.0152709238554,-0.704427485066,-1.25927942119,-0.0329088445291,-1.53607773675,-0.171679419174,0.261223805997,-0.618095684048,0.574101047648,0.818765437285,0.00344857921436,0.0,0.818737765338,-0.574032553376,-0.0116553067615,0.0,-0.00756351122633,0.00951498905499,-0.999926126412,0.0,0.532029780831,0.0905787021968,0.304542153535,1.0,-0.35998,-0.473116571429,1.58
0.284503959753,-0.0182577579807,-0.131260164186,-2.15128274535,0.00968496385096,2.12720829409,-0.0258966184622,-0.711794504625,-1.24335674681,-0.0158316743078,-1.5073752305,-0.190491565821,0.252994638979,-0.625462799362,0.573979190493,0.818850544198,0.00352449266515,0.0,0.818823681703,-0.573910248744,-0.0116426616103,0.0,-0.00751100194338,0.00956876777488,-0.999926009029,0.0,0.525545050724,0.0821238236495,0.30457024143,1.0,-0.35998,-0.473116571429,1.598
0.271279516649,-0.0406767865514,-0.131649067897,-2.17775895994,0.00613675516443,2.13137258366,-0.0374506711549,-0.743856983813,-1.22130674152,-0.0312176104522,-1.4721811921,-0.191308210028,0.22365375218,-0.655272350485,0.574080949279,0.818779014071,0.00356885037107,0.0,0.818752798516,-0.574011945293,-0.0116141502259,0.0,-0.00746100337476,0.00958965324611,-0.999926183265,0.0,0.519441017456,0.0740292303732,0.304621993387,1.0,-0.35998,-0.473116571429,1.615
0.259251296759,-0.0603887463684,-0.131865712718,-2.20065224833,0.00310856484602,2.13472603731,-0.048069872046,-0.751158430189,-1.20833920284,-0.00161242651237,-1.43860589434,-0.179255626926,0.195203414262,-0.664535297107,0.573982126067,0.818847590767,0.00372678844865,0.0,0.818823055193,-0.57391216967,-0.0115919235208,0.0,-0.00735331097689,0.00970532406879,-0.999925865003,0.0,0.513687541749,0.0665531291017,0.304686810151,1.0,-0.35998,-0.473116571429,1.631
0.246037942755,-0.0810790657343,-0.132223311379,-2.22441204329,-0.0001932117879,2.13785206393,-0.0597121784238,-0.786806850533,-1.20656257972,-0.0268257997507,-1.39010678894,-0.190468206337,0.161856108881,-0.679569798963,0.573944650437,0.818873698352,0.00376181915026,0.0,0.81884940901,-0.573874317096,-0.0116043285664,0.0,-0.00734380944526,0.00974079323106,-0.999925589937,0.0,0.507558599689,0.0585178398372,0.304711320932,1.0,-0.35998,-0.473116571429,1.648
0.23240460988,-0.1015010973,-0.132494124725,-2.24751135259,-0.00349721521388,2.14059785804,-0.0717300488971,-0.807060924116,-1.1963940487,-0.0131837975105,-1.35018009992,-0.192322375837,0.157471832406,-0.706008418364,0.573814407871,0.818964811203,0.00379608126395,0.0,0.818940987026,-0.573744016707,-0.0115849023747,0.0,-0.00730978921006,0.0097565382771,-0.99992568571,0.0,0.50143829538,0.050532156115,0.304733947224,1.0,-0.35998,-0.473116571429,1.665
0.219172965827,-0.120393291885,-0.132854244994,-2.26865735745,-0.00658742347316,2.14278350497,-0.0833099859191,-0.851176815826,-1.1964670107,-0.0313694504023,-1.31417838361,-0.186152205622,0.155894171197,-0.740022335791,0.573845188558,0.818943462087,0.00374864981935,0.0,0.818918604665,-0.57377438506,-0.0116627991224,0.0,-0.00740043632739,0.00976266820259,-0.99992495911,0.0,0.495680232692,0.0429647398317,0.304706789167,1.0,-0.35998,-0.473116571429,1.681
0.204714410077,-0.140216205483,-0.133190039303,-2.29061429128,-0.00979753007028,2.14463414841,-0.0960539538234,-0.856604732523,-1.17671466305,-0.0178654719906,-1.25996451696,-0.189052250658,0.0890928675183,-0.755896706119,0.57378997623,0.81898279036,0.00360543657958,0.0,0.818954521969,-0.573717658268,-0.0119283879617,0.0,-0.00770079008993,0.00979726666324,-0.999922352684,0.0,0.489504915956,0.0349685149815,0.304622873417,1.0,-0.35998,-0.473116571429,1.698
0.189714735952,-0.15987492263,-0.133656120393,-2.31200388855,-0.0131199313207,2.14627883221,-0.109224560742,-0.899613336825,-1.14387728051,-0.0314641777027,-1.25084500311,-0.199785194393,0.0801353409776,-0.783080079981,0.573837141072,0.818950048171,0.00353567926102,0.0,0.818920635834,-0.573764773645,-0.0119884790661,0.0,-0.00778946726916,0.00977506346187,-0.999921883116,0.0,0.483357312492,0.0268552909993,0.304572376944,1.0,-0.35998,-0.473116571429,1.715
0.174397285205,-0.179322672289,-0.133996649029,-2.33262900818,-0.0162376180298,2.14747049682,-0.122771551754,-0.908494154211,-1.13802954116,-0.0193486724853,-1.21223479939,-0.18729991449,0.056599511181,-0.807153733189,0.573786228824,0.818985246095,0.00364378816781,0.0,0.818956434275,-0.573712442566,-0.0120473609475,0.0,-0.0077762739778,0.00989690411658,-0.999920787289,0.0,0.477235860565,0.0188965517889,0.304606441188,1.0,-0.35998,-0.473116571429,1.732
0.158446329794,-0.198530561624,-0.13450355781,-2.35263016466,-0.0194683897666,2.14838436502,-0.136795713884,-0.93556320238,-1.12516008801,-0.0203341198717,-1.16552435306,-0.179964134763,0.0405236983697,-0.835646701007,0.573908632528,0.818898970408,0.00375561939791,0.0,0.818871933139,-0.57383482184,-0.0119624939762,0.0,-0.00764111592765,0.0099409412699,-0.999921392427,0.0,0.471140611669,0.0107657102465,0.304663055998,1.0,-0.35998,-0.473116571429,1.749
0.142133942726,-0.217412324808,-0.13497097886,-2.37201933174,-0.0225465660659,2.14887851559,-0.151301979388,-0.971059341951,-1.10744520621,-0.0381462473989,-1.10666208418,-0.185906101953,0.0333585149158,-0.853449053439,0.573934617753,0.818880250464,0.0038648216731,0.0,0.81885381245,-0.573859322956,-0.012027393492,0.0,-0.00763127797225,0.0100678552853,-0.999920197759,0.0,0.46502214351,0.00272347708852,0.304691624919,1.0,-0.35998,-0.473116571429,1.766
0.126419270367,-0.234889342127,-0.13535572648,-2.38984159742,-0.0255769426991,2.1490663742,-0.165268684337,-0.986397035571,-1.09290553087,-0.017162375982,-1.11338739115,-0.178113043013,0.00467662487243,-0.87805254324,0.573863310703,0.81893067565,0.0037677590713,0.0,0.818902644694,-0.573787966795,-0.0121067987171,0.0,-0.00775288330351,0.0100332686334,-0.999919609929,0.0,0.459219589913,-0.00480357741519,0.304649168239,1.0,-0.35998,-0.473116571429,1.782
0.10812817635,-0.254266522373,-0.135889160277,-2.40899951868,-0.0287706300643,2.14908809102,-0.181601121389,-1.02590107541,-1.05399769835,-0.0283724724144,-1.06592187188,-0.186034298548,-0.0149184513422,-0.920846897966,0.573931529388,0.818881552667,0.00404341156215,0.0,0.81885753329,-0.573855707286,-0.0119463086304,0.0,-0.00746242063275,0.0101675369572,-0.999920463572,0.0,0.45280600369,-0.0133411228326,0.304741605588,1.0,-0.35998,-0.473116571429,1.8
0.0915150965151,-0.271156481025,-0.136299417894,-2.42544684654,-0.0316442263674,2.1489315726,-0.196518508295,-1.06040211075,-1.05160480012,-0.0396055610621,-1.00584638895,-0.184680768614,-0.0102114043507,-0.943999507817,0.573867588795,0.818925260669,0.00426085314141,0.0,0.818905382794,-0.573792882501,-0.0116811353626,0.0,-0.00712126672228,0.0101928568018,-0.999922693627,0.0,0.447127907078,-0.0208654510472,0.304822758409,1.0,-0.35998,-0.473116571429,1.816
0.0744782147024,-0.287682610251,-0.136774522401,-2.44153916301,-0.0344193239096,2.14828522195,-0.211903641084,-1.06595947978,-1.03521930328,-0.0310901928508,-1.00351577236,-0.17164735605,-0.055870092672,-0.967833273187,0.573840365283,0.818944371048,0.00425431571622,0.0,0.818923170013,-0.573763922333,-0.0118553762135,0.0,-0.00726806067719,0.0102872491909,-0.999920670752,0.0,0.441327842638,-0.0283970990079,0.304769889479,1.0,-0.35998,-0.473116571429,1.832
0.0546548176805,-0.305908199642,-0.137347380996,-2.45878745605,-0.0376028293543,2.14743222303,-0.229777253306,-1.11933860306,-0.992894004554,-0.0278384025317,-0.972952682602,-0.184741502262,-0.0594595637252,-1.0065307602,0.573875702128,0.818918965352,0.00437648217348,0.0,0.818900213101,-0.573800089703,-0.0116895227223,0.0,-0.00706168194871,0.0102924334055,-0.999922096197,0.0,0.434897292166,-0.0369658641101,0.304821965312,1.0,-0.35998,-0.473116571429,1.85
0.0355244817639,-0.322692573608,-0.137915696345,-2.47449418508,-0.0404108036949,2.14625740429,-0.247106200279,-1.13810487697,-0.983491851036,-0.0500464131236,-0.895552782181,-0.162330343088,-0.0773264094814,-1.01807614236,0.573969397395,0.818852891351,0.00445197496101,0.0,0.818834020973,-0.573891919386,-0.0118176927409,0.0,-0.00712213653773,0.010428623323,-0.999920256314,0.0,0.429125463485,-0.0445163186934,0.30480552948,1.0,-0.35998,-0.473116571429,1.866
0.0171453842262,-0.338167697746,-0.138326207174,-2.48872669123,-0.0430835557988,2.14501716231,-0.263972937822,-1.14762730193,-0.973727025805,-0.0218703241987,-0.85385318366,-0.162817746606,-0.0925869750496,-1.06685570616,0.573794344744,0.818974993114,0.00455603936041,0.0,0.818958023552,-0.573717368765,-0.0116997153162,0.0,-0.00696802951285,0.010444636565,-0.999921174959,0.0,0.423032783667,-0.0524887074102,0.304842366204,1.0,-0.35998,-0.473116571429,1.883
-0.00303259760432,-0.354215352202,-0.138893499465,-2.50314053332,-0.0458909227856,2.14344398615,-0.28233183754,-1.18687159567,-0.939307006428,-0.0304150206622,-0.815610183072,-0.154324719507,-0.0868581697908,-1.09873774316,0.573893130618,0.818905122004,0.00467147594328,0.0,0.818890216618,-0.573816645852,-0.0115765699761,0.0,-0.00679967270649,0.0104693414998,-0.999922075634,0.0,0.416931911415,-0.0605749901222,0.304911503302,1.0,-0.35998,-0.473116571429,1.9
-0.0235905766269,-0.369701365894,-0.139423817444,-2.5169722817,-0.0485556695497,2.14170867085,-0.301303089542,-1.22240052446,-0.899446539266,-0.0226185596585,-0.815260897903,-0.16236097368,-0.105177394351,-1.11732275772,0.573834241563,0.818945895367,0.00475716016586,0.0,0.818931829941,-0.573757092076,-0.0115846494808,0.0,-0.00675787686833,0.0105436614267,-0.999921578077,0.0,0.410819027342,-0.0685850810205,0.304917179397,1.0,-0.35998,-0.473116571429,1.917
-0.0433919593868,-0.383776246873,-0.139965447665,-2.5292874632,-0.0510129536941,2.13987013554,-0.319561868749,-1.26153044212,-0.856091606706,-0.0455100957891,-0.734045374637,-0.148830290513,-0.0958947138983,-1.14555432588,0.573880352939,0.818913140232,0.00483282186566,0.0,0.81889987995,-0.573802694048,-0.0115845510116,0.0,-0.00671378410187,0.0106059476661,-0.999921216385,0.0,0.405084993997,-0.0761502218269,0.304948205065,1.0,-0.35998,-0.473116571429,1.933
-0.0687234322403,-0.400766209642,-0.14058718929,-2.54405268379,-0.0539443351116,2.13751089147,-0.34313218743,-1.29253224606,-0.826896642134,-0.0481871575965,-0.727551793389,-0.146563825248,-0.129619110014,-1.17804709553,0.573821985804,0.818953392875,0.00494123533487,0.0,0.818941081367,-0.573743281567,-0.0116146032313,0.0,-0.00667694669908,0.0107115015285,-0.999920337886,0.0,0.397881412142,-0.0855583311757,0.304936279766,1.0,-0.35998,-0.473116571429,1.953
-0.0880723454558,-0.412966325005,-0.141019639259,-2.55434984073,-0.0561188108065,2.13557569765,-0.361295878778,-1.30163845846,-0.805850064516,-0.0249852695291,-0.675110434965,-0.140798694794,-0.119598048103,-1.22165623371,0.57366821765,0.819060783669,0.00499555954388,0.0,0.819049546455,-0.57358997456,-0.0115381297454,0.0,-0.00658515350425,0.0107108753223,-0.999920953327,0.0,0.392531547836,-0.0925908577621,0.304989219171,1.0,-0.35998,-0.473116571429,1.968
-0.110611847571,-0.426173040577,-0.141607550574,-2.56549916155,-0.058528599173,2.1333750331,-0.382369655391,-1.33141837839,-0.748769723805,-0.0352975553249,-0.647172151079,-0.136894124615,-0.142956213661,-1.24478609831,0.573700478934,0.819038005118,0.00502529052632,0.0,0.819027004618,-0.573621900687,-0.0115510891137,0.0,-0.00657829093386,0.0107429208383,-0.999920654722,0.0,0.386417785326,-0.100658497613,0.30498069078,1.0,-0.35998,-0.473116571429,1.985
-0.13215163183,-0.43796897525,-0.142093839613,-2.57547554494,-0.0606341946177,2.13112697142,-0.402628680591,-1.34852956997,-0.732531434649,-0.0223111402444,-0.607448811883,-0.136839041202,-0.138246432863,-1.27417218952,0.573682234692,0.819051053614,0.00498117196025,0.0,0.819037620379,-0.573600805327,-0.0118422731222,0.0,-0.00684235376656,0.0108736782896,-0.999917469252,0.0,0.380618299469,-0.108165733936,0.304895311859,1.0,-0.35998,-0.473116571429,2.001
-0.155509513656,-0.449979234165,-0.142671898511,-2.58511956731,-0.0628434653625,2.12893844364,-0.424720960058,-1.37155027045,-0.680272105681,-0.01809599749,-0.562772175417,-0.134124385978,-0.140765924696,-1.32354940118,0.57367480171,0.819055225348,0.0051484575068,0.0,0.819045547727,-0.573595411093,-0.0115517108341,0.0,-0.0065084828287,0.0108439554005,-0.999920020943,0.0,0.374589078376,-0.116233915287,0.305002962088,1.0,-0.35998,-0.473116571429,2.018
-0.177923137207,-0.460588100947,-0.143210093907,-2.59386831253,-0.0648396040644,2.12664765338,-0.44599630908,-1.40625314853,-0.643133871681,-0.0254371178803,-0.523086294664,-0.138800942203,-0.132601579842,-1.34834569455,0.573663330267,0.81906359652,0.00509463079045,0.0,0.819051478802,-0.573581255408,-0.0118306980838,0.0,-0.00676803970297,0.0109598135554,-0.999917034621,0.0,0.368760590664,-0.123791674204,0.304924984964,1.0,-0.357609714286,-0.470001338776,2.034
-0.201821058766,-0.470940059747,-0.143568103526,-2.602313106,-0.0665706595252,2.1244586992,-0.46875785145,-1.40958780451,-0.584197461129,-0.0277727215526,-0.475045663488,-0.0977579319457,-0.11913812578,-1.32852952168,0.573640078361,0.81907906443,0.00522432878542,0.0,0.819067272702,-0.573555322608,-0.0119933980781,0.0,-0.00682723114059,0.0111591853922,-0.999914427087,0.0,0.36273779522,-0.131638467373,0.304865473096,1.0,-0.34638,-0.455242285714,2.051
-0.227079573033,-0.480952520555,-0.143792351525,-2.61003030343,-0.0682321485556,2.12225293396,-0.492598105228,-1.39930276095,-0.531202902128,-0.0238029590807,-0.42002834249,-0.0803253413447,-0.128757307061,-1.33682125779,0.573774330103,0.818983797748,0.00541332079355,0.0,0.818975627757,-0.573690812651,-0.0117694316489,0.0,-0.0065335272146,0.0111865909317,-0.999916083082,0.0,0.356946232745,-0.139349067625,0.304974470155,1.0,-0.335150285714,-0.440483232653,2.068
-0.247807347981,-0.488428478828,-0.143776083841,-2.61594301837,-0.0694898925784,2.12044274323,-0.512314845355,-1.38480671594,-0.481165828924,0.00405492110081,-0.380868642935,-0.073825491548,-0.125119256437,-1.32117892873,0.573743887922,0.819005111613,0.0054152678203,0.0,0.818996383084,-0.573659372728,-0.0118572964275,0.0,-0.00660479440581,0.0112383524839,-0.999915034453,0.0,0.351583587948,-0.146327353601,0.304961835296,1.0,-0.324581142857,-0.426592359184,2.084
-0.272334842352,-0.496345052174,-0.143722131939,-2.62209000021,-0.070696198637,2.1185717545,-0.535632873477,-1.35045512243,-0.42404438799,0.00939887037982,-0.321828780807,-0.062509133719,-0.0874028357716,-1.29964378005,0.573819000882,0.818951544839,0.00555592779177,0.0,0.818944758864,-0.5737341647,-0.0118041131262,0.0,-0.00647949583978,0.0113236403612,-0.99991489203,0.0,0.345801991502,-0.153959962272,0.304984762282,1.0,-0.312690857143,-0.410965126531,2.102
-0.294923324576,-0.502840851822,-0.143550622941,-2.62706372279,-0.0715967920373,2.11693414979,-0.557105503313,-1.30992725603,-0.357486121537,0.00520188114401,-0.277441793526,-0.0400113596109,-0.0882466587592,-1.25790887386,0.573930102208,0.818872698882,0.0056997987096,0.0,0.81886775121,-0.573844677535,-0.0117745061279,0.0,-0.00637114512274,0.0114253448304,-0.999914431342,0.0,0.34056752068,-0.160873624643,0.305015932391,1.0,-0.301461142857,-0.396206073469,2.119
-0.315754766439,-0.508156538349,-0.143296429667,-2.63106919901,-0.0723408797714,2.11563211678,-0.577000182294,-1.27959250042,-0.315710970929,0.0248895511748,-0.239011137085,-0.0494313185542,-0.0788828327262,-1.24741328365,0.573958264428,0.818852246603,0.00580136444234,0.0,0.818849454539,-0.573874008176,-0.0116163867972,0.0,-0.0061829712022,0.0114179851458,-0.999915696688,0.0,0.335835894644,-0.167187278074,0.305067676443,1.0,-0.290892,-0.3823152,2.135
-0.337302882512,-0.513040768483,-0.142985574387,-2.63482115025,-0.0729685679798,2.11429732089,-0.59759906853,-1.25182031022,-0.272880496603,0.0355988132688,-0.209137665773,-0.0387573889853,-0.0867792837333,-1.21447884657,0.574021294399,0.818807451641,0.00588707185829,0.0,0.818805366555,-0.5739359844,-0.0116620929754,0.0,-0.0061703250456,0.0115148774331,-0.999914663702,0.0,0.330937818813,-0.173621957819,0.305065505043,1.0,-0.279662285714,-0.367556146939,2.152
-0.358173165829,-0.51708087241,-0.142593167002,-2.6381331065,-0.073483548052,2.11311128109,-0.617643930226,-1.22378131784,-0.221781227362,0.0131468352692,-0.18717655145,-0.0281255196896,-0.061330247,-1.17495180887,0.574000955395,0.818821680501,0.00589115003546,0.0,0.818817812415,-0.57391224749,-0.0119527885426,0.0,-0.00640632258556,0.0116849155986,-0.999911206947,0.0,0.326193963874,-0.17975629691,0.304960216078,1.0,-0.268432571429,-0.352797093878,2.169
-0.37715456559,-0.520266682188,-0.142071183441,-2.64069733157,-0.0738407634689,2.11221256616,-0.635939550318,-1.17539363721,-0.187731458301,0.0344520733084,-0.151029211787,-0.0203949158277,-0.0516920444196,-1.13360022321,0.573886321643,0.818902103132,0.00588066474598,0.0,0.818897352615,-0.573796326881,-0.0120684729132,0.0,-0.00650871933236,0.0117418183865,-0.999909879076,0.0,0.321964423315,-0.185271970713,0.304904165865,1.0,-0.257863428572,-0.338906220408,2.185
-0.397854318873,-0.523221655463,-0.14155364097,-2.6429892829,-0.0741185173883,2.11131435844,-0.65585997626,-1.12838564376,-0.15296577779,0.0284386052457,-0.119304184723,-0.00255301662134,-0.0458978267363,-1.09197781459,0.573901681923,0.818890928603,0.00593746066181,0.0,0.81888636691,-0.573810445046,-0.0121424110582,0.0,-0.00653645916923,0.0118308835001,-0.999908648276,0.0,0.317389963079,-0.191282387399,0.304884188238,1.0,-0.245973142857,-0.323278987755,2.203
-0.416724630888,-0.525475661915,-0.140987778273,-2.64469531298,-0.0743371494633,2.11062679394,-0.673995852964,-1.09670526991,-0.121740467087,0.0431142385267,-0.0955449924631,-0.0149838759058,-0.0411990093548,-1.06117845833,0.573906849378,0.818887355418,0.00593079041493,0.0,0.818882825079,-0.573815854525,-0.0121256252353,0.0,-0.00652646526643,0.0118158292768,-0.999908891564,0.0,0.313260259555,-0.196725223418,0.30489074885,1.0,-0.234743428572,-0.308519934694,2.22
-0.433744192021,-0.527137557995,-0.140507192616,-2.64595227062,-0.074386583292,2.11011084909,-0.690374504299,-1.05866102726,-0.094455453895,0.0190666255015,-0.0728448812311,-0.00205468959261,-0.0356794211837,-1.0152990719,0.573995451303,0.818824571938,0.00602404970152,0.0,0.818821259581,-0.573904038424,-0.0121097663023,0.0,-0.00645867210687,0.0118837995382,-0.999908526248,0.0,0.309547822812,-0.20161539142,0.304896056694,1.0,-0.224174285714,-0.294629061225,2.236
-0.451022087053,-0.528461507531,-0.139914999911,-2.64696547428,-0.0744050983896,2.10968238215,-0.707115108186,-0.996923603936,-0.068985487887,0.038028999641,-0.0525730346191,-0.000540696787385,-0.0148161582745,-0.970994503616,0.573948721629,0.81885710412,0.00605432684723,0.0,0.81885428432,-0.573857368169,-0.012088380791,0.0,-0.00642446010823,0.011895951213,-0.999908602152,0.0,0.305800745974,-0.206541303172,0.304898389204,1.0,-0.212944571429,-0.279870008163,2.253
-0.467706274486,-0.529417581448,-0.139336124214,-2.64765242892,-0.0744207249288,2.109333866,-0.723068135139,-0.966505016932,-0.050569444711,0.0400312617421,-0.0385650949702,-0.00138667730714,-0.0226766182294,-0.919498488156,0.57409098783,0.81875744847,0.00604360557377,0.0,0.818754864293,-0.574000346344,-0.0120341802349,0.0,-0.00638416592602,0.0118571741675,-0.999909320812,0.0,0.302191117144,-0.211297089317,0.304920713661,1.0,-0.201714857143,-0.265110955102,2.27
-0.482481016858,-0.529916101414,-0.138658945601,-2.64804392664,-0.0743741402753,2.10911774768,-0.737403593438,-0.917902028388,-0.0236477886598,0.0432892914977,-0.0162160595939,0.00182860763537,-0.0125230791006,-0.883179423951,0.573969737732,0.818843020124,0.00596619342774,0.0,0.818839621772,-0.573879803128,-0.012016333854,0.0,-0.00641573671692,0.0117825944119,-0.999910000346,0.0,0.299031850966,-0.215462838153,0.304924103055,1.0,-0.191145714286,-0.251220081633,2.286
-0.497418952276,-0.530171609136,-0.137976420384,-2.64824230104,-0.0742945880105,2.10894162908,-0.751854387205,-0.846457878431,-0.00918225988946,0.0547561412757,-0.00781654783529,0.00618851255075,-0.0141096504604,-0.833197062976,0.573909540455,0.818885775082,0.0058884331325,0.0,0.818881483262,-0.573820155586,-0.0120121736479,0.0,-0.0064578208449,0.0117160554861,-0.999910511293,0.0,0.295834188303,-0.219669429834,0.304930095118,1.0,-0.179916,-0.236461028572,2.303
-0.512345489279,-0.530228403282,-0.137245384052,-2.64832085348,-0.0741002485741,2.10885937812,-0.766278898899,-0.825723574192,0.000258135344033,0.0360140241053,-0.0025420388918,0.00945907246739,-0.00618532432576,-0.784985075567,0.573883553268,0.818904159438,0.00586445614867,0.0,0.818899680569,-0.573794498008,-0.0119972547234,0.0,-0.00645973349278,0.0116876534605,-0.999910831324,0.0,0.292640066853,-0.223836411787,0.304927370834,1.0,-0.168025714286,-0.220833795918,2.321
-0.524840799254,-0.530091565315,-0.13653510629,-2.6482668712,-0.0738554637184,2.10882063241,-0.77837742229,-0.757137760298,0.0126625206132,0.0456018313715,0.00721185684256,0.0247107702716,-0.000280663907682,-0.736816758432,0.573815350266,0.818952081868,0.00584622133836,0.0,0.818947249126,-0.573726172733,-0.0120178522236,0.0,-0.00648803981956,0.0116839999192,-0.999910690755,0.0,0.289977235588,-0.227285086027,0.304917379942,1.0,-0.157456571429,-0.206942922449,2.337
-0.53727917062,-0.529819216332,-0.135841240439,-2.64811198911,-0.0735098685074,2.1088270925,-0.790352959793,-0.723619419788,0.025827723797,0.0350748757209,0.0123144580538,0.0187929001298,0.00430578788438,-0.695920525081,0.573861506682,0.818919298834,0.00590762625084,0.0,0.818915102874,-0.573771772905,-0.0120313674949,0.0,-0.00646321428223,0.0117424091148,-0.99991016731,0.0,0.287321657643,-0.23070553024,0.304907223523,1.0,-0.146226857143,-0.192183869388,2.354
-0.548906199754,-0.529403183955,-0.135107080126,-2.64784270382,-0.0731443635571,2.10885549626,-0.801513918482,-0.655574022133,0.0322332384387,0.0480135158726,0.0165293341014,0.0283837317934,0.00726094536514,-0.647271655124,0.573896821962,0.818894303069,0.00594180485603,0.0,0.818890352972,-0.573806575698,-0.0120561352413,0.0,-0.00646337820825,0.0117848912716,-0.99990966646,0.0,0.28485393847,-0.233879893494,0.304899427095,1.0,-0.134997142857,-0.177424816327,2.371
-0.559013168913,-0.528888619211,-0.134382619545,-2.64752431836,-0.0727674678454,2.10895121846,-0.811274598167,-0.624735045984,0.0369150588266,0.0433697066776,0.0221724965401,0.0253957157924,0.00250696203115,-0.594592675845,0.573848518478,0.818927981436,0.00596539716384,0.0,0.818924199302,-0.573757928123,-0.0120723905677,0.0,-0.00646384897066,0.0118131589776,-0.999909329855,0.0,0.282731451262,-0.236618053689,0.304883311183,1.0,-0.124428,-0.163533942857,2.387
-0.569136947775,-0.528289585215,-0.133713324406,-2.64707398636,-0.0723868269279,2.10905443332,-0.820776885116,-0.576677098036,0.0396431060333,0.0410521665259,0.0278308585639,0.0202885176578,0.0107737500694,-0.540727873112,0.574072930523,0.818770395003,0.00600479881878,0.0,0.818767326722,-0.573982495645,-0.0120377027349,0.0,-0.00640958861577,0.0118272800739,-0.999909512216,0.0,0.280599731088,-0.239385297595,0.304895351778,1.0,-0.113198285714,-0.148774889796,2.404
-0.578053140095,-0.527555498384,-0.132879620897,-2.64657235895,-0.0719294342924,2.10919321963,-0.829518653768,-0.50679243659,0.0403752026206,0.0489721227561,0.0282269603177,0.0223399941198,0.0132301924624,-0.491928371885,0.573850807173,0.818926066584,0.00600795116822,0.0,0.818922925294,-0.573760194772,-0.0120510673684,0.0,-0.00642193360782,0.011835791558,-0.999909332293,0.0,0.278787957209,-0.241765924264,0.304888372274,1.0,-0.101968571429,-0.134015836735,2.421
-0.585891095377,-0.526889094256,-0.132163749481,-2.64610360428,-0.0715586979648,2.10930445476,-0.836922100971,-0.470776413449,0.041198724985,0.047174219162,0.0307580758584,0.0274581392236,0.00894039633896,-0.443759221882,0.573885620968,0.818901815653,0.00598809380681,0.0,0.81889831447,-0.573794899478,-0.0120710725113,0.0,-0.00644920967971,0.011831282658,-0.999909210101,0.0,0.277177140093,-0.243859557156,0.304885517609,1.0,-0.0913994285715,-0.120124963265,2.437
-0.593821630763,-0.526121538363,-0.131400508151,-2.64557368688,-0.0710935413255,2.109437609,-0.844364120423,-0.419932296902,0.0449230961875,0.0438002316425,0.033151131369,0.0235942211233,0.0161387033998,-0.402006363645,0.573974564354,0.818839260301,0.00601765449594,0.0,0.818835897091,-0.573883243365,-0.0121055161846,0.0,-0.00645916519755,0.0118759585449,-0.999908616221,0.0,0.275561636935,-0.245963471257,0.304876307651,1.0,-0.0795091428572,-0.104497730612,2.455
-0.600215673782,-0.525416624106,-0.130589155573,-2.64512348725,-0.0706226146837,2.10957279703,-0.850485303815,-0.362142922001,0.0344773317744,0.0533793380144,0.0211181980066,0.029493271913,0.00838535933428,-0.345801138246,0.573850764986,0.818925990501,0.00602233411286,0.0,0.818922301823,-0.573758740295,-0.0121621713907,0.0,-0.00650467665369,0.0119113244004,-0.999907900525,0.0,0.274304274612,-0.247605590374,0.304854868193,1.0,-0.0682794285715,-0.0897386775512,2.472
-0.605598630819,-0.524877107147,-0.12984534277,-2.64474935451,-0.0702005216789,2.10964893225,-0.855522544199,-0.324291983253,0.0325238519277,0.0423518832729,0.0258658714174,0.0285053121046,0.00875863432228,-0.298675696617,0.573808738581,0.818955447936,0.00602102352626,0.0,0.818951506309,-0.57371629737,-0.0121978419344,0.0,-0.00653525560528,0.011930384277,-0.999907473902,0.0,0.273246978034,-0.24896129132,0.304852428861,1.0,-0.0577102857144,-0.0758478040818,2.488
-0.610550511301,-0.52437830479,-0.129086583927,-2.64435874353,-0.0697175769196,2.10978930646,-0.859939391501,-0.266487670631,0.0273472523115,0.0446631280343,0.0168312469924,0.0278202303692,0.0087623654287,-0.241449541797,0.5739373932,0.818865069738,0.00605088024498,0.0,0.818862050032,-0.573845770474,-0.0121128703435,0.0,-0.00644665850048,0.0119070946795,-0.999908326643,0.0,0.27231467518,-0.250198730967,0.304878081015,1.0,-0.0464805714287,-0.0610887510206,2.505
-0.614559349265,-0.523894841397,-0.128334912876,-2.64402593292,-0.0692446551004,2.10990997673,-0.863649632009,-0.222853789723,0.0268389527989,0.0469465523744,0.0154637941945,0.0262671484547,0.00269568903105,-0.205502184522,0.573870065016,0.818912074617,0.00607531281087,0.0,0.818909456499,-0.573778503995,-0.0120945157161,0.0,-0.00641858463826,0.011916041053,-0.999908400673,0.0,0.271594990742,-0.251162441386,0.304881028337,1.0,-0.035250857143,-0.0463296979593,2.522
-0.61763204213,-0.523591426859,-0.127628528199,-2.64378458263,-0.0688079744069,2.1099461796,-0.866217450173,-0.176844950292,0.0158268460039,0.0470564763776,0.0146830163858,0.0280251316447,0.00227461082808,-0.146146666821,0.573982823259,0.818832901617,0.00609464801624,0.0,0.818830617822,-0.573891307769,-0.0120802766947,0.0,-0.0063941856057,0.0119245853087,-0.999908455138,0.0,0.27106403636,-0.251852918984,0.304899940205,1.0,-0.0246817142858,-0.0324388244899,2.538
-0.620196907037,-0.523360246163,-0.126846622076,-2.64360593381,-0.0683733282311,2.11000355244,-0.868405239873,-0.127501905858,0.00964576703603,0.0383297261479,0.00841475743477,0.0150005178135,0.000193434844828,-0.108394705264,0.573933145798,0.818867866121,0.00607526866812,0.0,0.818865617632,-0.573842260599,-0.0120377370154,0.0,-0.00637119278169,0.0118839137059,-0.999909086116,0.0,0.270665609432,-0.252376566591,0.304920349859,1.0,-0.0197623529412,-0.0259733781513,2.556
-0.622045640949,-0.523195442509,-0.126313466495,-2.64343256269,-0.0680824645835,2.11003231571,-0.870100748312,-0.0995820577635,0.00883583307764,0.0249691910745,0.0111214829732,0.0107846355936,0.000857660939184,-0.0974691093951,0.573814241425,0.818951344173,0.00605467724044,0.0,0.818949240393,-0.573724237732,-0.0119744561294,0.0,-0.00633290378645,0.0118298145478,-0.999909970856,0.0,0.270377998395,-0.252772195931,0.304954098207,1.0,-0.0194223529412,-0.0255265210084,2.573
-0.62358849378,-0.523008098547,-0.125975470323,-2.64323171923,-0.0679192143624,2.11009927744,-0.871533704731,-0.0989978311859,0.0125364954476,0.0213693922507,0.0126369316055,0.00320672367336,0.00762360212416,-0.0810153661736,0.573744903199,0.819000224519,0.00601375030548,0.0,0.818998239141,-0.573656294684,-0.0118779945296,0.0,-0.00627837534739,0.0117404157718,-0.999911368392,0.0,0.270127127483,-0.25315326324,0.304990517122,1.0,-0.0191023529412,-0.0251059495798,2.589
-0.625140971049,-0.522767790746,-0.125798541174,-2.64304412087,-0.0677819840692,2.11019212206,-0.873073771057,-0.0898050732224,0.0158395128857,0.00752431359682,0.0123404500092,0.0103808487027,0.00196992064455,-0.0992014605236,0.573698212327,0.819032794558,0.00603237211786,0.0,0.819031372154,-0.573610143565,-0.0118220779664,0.0,-0.00622255952126,0.0117232327169,-0.999911918905,0.0,0.269836844015,-0.253574541216,0.304999793328,1.0,-0.0187623529412,-0.024659092437,2.606
-0.626674627345,-0.522544142597,-0.125704027446,-2.64289237185,-0.0677433203086,2.11018051445,-0.874498967875,-0.0870083385302,0.0133596037862,0.00513090541758,0.00772554071969,0.00119450925216,-0.00023970467525,-0.0803544492094,0.573744811145,0.819000239217,0.00602052718521,0.0,0.818998218567,-0.573655945256,-0.0118962749265,0.0,-0.00628946188882,0.0117564533987,-0.999911110286,0.0,0.269499736681,-0.253995940014,0.304987921982,1.0,-0.0184223529412,-0.0242122352941,2.623
-0.628029131709,-0.522335674077,-0.125666806422,-2.64274613127,-0.0677166147124,2.1101917262,-0.875846419197,-0.0833075303764,0.0146868803873,0.000994838666287,0.0104173780326,0.00054106077486,0.00325984361622,-0.0876403825698,0.573743466813,0.819001149461,0.00602481299517,0.0,0.81899890997,-0.573654071511,-0.0119389533951,0.0,-0.00632197976686,0.0117844386738,-0.99991057579,0.0,0.269197083743,-0.254384605557,0.304979684214,1.0,-0.0181023529412,-0.0237916638656,2.639
-0.629406702349,-0.522101012663,-0.125618450489,-2.64257336371,-0.0676733883065,2.11023389093,-0.877236961258,-0.0789061103146,0.0159189846396,0.00235002965847,0.0102242496608,6.62447828615e-05,0.0103943253781,-0.0762661293838,0.573726219315,0.819013175256,0.00603248948951,0.0,0.819010958679,-0.573636652994,-0.011949343368,0.0,-0.00632633437558,0.011796553714,-0.999910405393,0.0,0.268902424151,-0.254785430067,0.30497678546,1.0,-0.0177623529412,-0.0233448067227,2.656
-0.63076894418,-0.521879379645,-0.125594258455,-2.64243218389,-0.0676468347034,2.11028140212,-0.878533318361,-0.0797452240878,0.0120066968321,-0.00133238681422,0.00974821430242,0.000174901845473,0.00109679175985,-0.0763723748304,0.573782011284,0.818974032148,0.00604028933418,0.0,0.818971755953,-0.573692101194,-0.0119742590722,0.0,-0.00634146304719,0.0118176683433,-0.999910060236,0.0,0.268598245741,-0.255181860315,0.304964171766,1.0,-0.0174223529412,-0.0228979495798,2.673
-0.632015364394,-0.521690432417,-0.125593811658,-2.64229986693,-0.067621107019,2.11029183338,-0.879853166735,-0.0774786258121,0.0105856354131,-0.00017851333103,0.0112940525721,0.000229818652999,-0.000329606984657,-0.0822976725321,0.573739617231,0.819003560444,0.00606353868159,0.0,0.819001316049,-0.573649114533,-0.012011852728,0.0,-0.00635952899677,0.0118579502488,-0.999909468605,0.0,0.268310660607,-0.255545405212,0.30495579683,1.0,-0.0171023529412,-0.0224773781513,2.689
-0.633324663856,-0.521505710262,-0.125590368349,-2.64216241074,-0.0675836152421,2.1103281986,-0.881113643027,-0.073170413552,0.0111669734208,0.000603902717241,0.00857922236512,-0.00010700055129,0.0037632639607,-0.0718164670247,0.573807220279,0.8189559661,0.00609478834002,0.0,0.818954106767,-0.573716531338,-0.0120108109416,0.0,-0.00633976651277,0.0118834707743,-0.999909291127,0.0,0.267996231566,-0.255952355163,0.304955365739,1.0,-0.0167423529412,-0.0220042352941,2.707
-0.634673677578,-0.521310127052,-0.125573633203,-2.64200363051,-0.0675600318249,2.11036407935,-0.882467201193,-0.0709720012651,0.00512914362621,0.00413764560666,0.00775194545019,0.00385575715503,-0.000462235027466,-0.0713978481868,0.573810872823,0.818953354142,0.00610187437039,0.0,0.81895157793,-0.573720136121,-0.0120110497542,0.0,-0.00633584327325,0.0118894394955,-0.999909245041,0.0,0.26772636265,-0.256304548408,0.304955443246,1.0,-0.0164223529412,-0.0215836638656,2.723
-0.635819787346,-0.521131460812,-0.125538867367,-2.64187686198,-0.0675361163851,2.11040085767,-0.883635081549,-0.0652462491212,0.00787029940124,0.00325528103565,0.013707838864,0.000260376347763,-7.77151522302e-05,-0.0608737087553,0.573777751805,0.81897657063,0.00610042570469,0.0,0.818974751517,-0.573686983075,-0.0120145216074,0.0,-0.00633999895043,0.0118899887417,-0.999909212169,0.0,0.267459132353,-0.256656378101,0.304953254286,1.0,-0.0160823529412,-0.0211368067227,2.74
-0.63700716426,-0.520951367455,-0.12547085228,-2.64173564975,-0.0675110696816,2.11044051118,-0.884805537746,-0.0677407009414,0.00772985538177,0.00486603855756,0.0098106889156,-0.000308478408367,0.00114973018333,-0.0718834512054,0.573761531151,0.818988059503,0.00608363899822,0.0,0.818986086111,-0.573670956911,-0.0120071168121,0.0,-0.00634380043041,0.0118718659895,-0.999909403393,0.0,0.267206134554,-0.256994495556,0.304956231466,1.0,-0.0157423529412,-0.0206899495798,2.757
-0.638157580851,-0.520777338547,-0.125404067935,-2.64157902521,-0.0674812369613,2.1104618166,-0.886053057942,-0.0670574752579,0.0101398788845,0.00386589314397,0.0121457583219,-0.000108469387767,-0.000565921899137,-0.0705725075739,0.573655521023,0.819062403219,0.00607204529769,0.0,0.819060352119,-0.573565154404,-0.0119958385364,0.0,-0.00634274885912,0.0118550788123,-0.999909609236,0.0,0.266963173259,-0.25732375383,0.304966839184,1.0,-0.0154023529412,-0.020243092437,2.774
-0.639232844086,-0.52059845758,-0.125364649245,-2.64143334426,-0.0674566441992,2.11051080444,-0.887155935193,-0.0643512597732,0.00314307759301,0.00527769203738,0.00758900342921,0.00271021622832,0.00391285911471,-0.0639129234977,0.573623068781,0.819085170772,0.00606670301365,0.0,0.819083193268,-0.573532998733,-0.0119736699397,0.0,-0.00632812295147,0.0118377356855,-0.999909907379,0.0,0.26673460057,-0.257640277135,0.304972389898,1.0,-0.0150823529412,-0.0198225210084,2.79
-0.640435568942,-0.520386438621,-0.125351412683,-2.6412707035,-0.0674323293582,2.11055839623,-0.888339398844,-0.0618385827573,0.012750902861,-0.00041632785699,0.00721400948975,-0.000190353706612,0.000455668718014,-0.0656460802932,0.573648394329,0.819067381159,0.00607385435411,0.0,0.819065524291,-0.573558341117,-0.011968423171,0.0,-0.00631935686297,0.0118407794074,-0.999909926779,0.0,0.266470077832,-0.257999923576,0.304972708645,1.0,-0.0147223529412,-0.0193493781513,2.808
-0.641406246383,-0.520215678999,-0.125342498156,-2.6411587856,-0.067407992697,2.11056439585,-0.889365550687,-0.0632727281728,0.0102730913549,0.000369472949696,0.00605348073022,0.00023060853303,-0.000648166139555,-0.0664906572735,0.573613043915,0.81909200818,0.00609137811341,0.0,0.819090064555,-0.573522335352,-0.012014320624,0.0,-0.00634741481311,0.0118811870655,-0.999909269744,0.0,0.26624664083,-0.258280474711,0.304961490883,1.0,-0.0144223529412,-0.018955092437,2.823
-0.642428789864,-0.520059319329,-0.125338109871,-2.64105609084,-0.0673827005271,2.11058241268,-0.890397093038,-0.067970435127,0.00617042655249,-6.20526043162e-05,0.00706579666747,0.000823450050645,0.00583592689857,-0.0647047577009,0.57361886935,0.819087777198,0.00611169951761,0.0,0.819085895181,-0.573527693024,-0.0120427800559,0.0,-0.00635898745272,0.0119142021353,-0.999908803375,0.0,0.266008711729,-0.258575092239,0.304952290847,1.0,-0.0141023529412,-0.0185345210084,2.839
-0.643516490712,-0.519894814638,-0.125314460504,-2.64093445891,-0.0673583764087,2.11061965144,-0.891412746751,-0.0648105603462,0.0113197632118,0.000664539953684,0.00996938556977,0.000449693909438,0.00316783194681,-0.0594375839277,0.573677912483,0.819046385134,0.00611707683154,0.0,0.819044578591,-0.573586710876,-0.0120420217596,0.0,-0.00635442275427,0.0119186299914,-0.999908779625,0.0,0.265764925588,-0.258890051727,0.304950787215,1.0,-0.0137623529412,-0.0180876638656,2.856
-0.644812638839,-0.519683519421,-0.125267016044,-2.64076190999,-0.0673286670169,2.11067878044,-0.892740594404,-0.0630475282977,0.0124859944993,0.00320456005242,0.0151761469604,0.00350344723522,0.00441539200029,-0.0595761386293,0.573639975551,0.819073001182,0.00611098080467,0.0,0.819071295799,-0.573549146713,-0.012013975394,0.0,-0.00633549703393,0.0118972545766,-0.999909154279,0.0,0.26548655495,-0.259269627883,0.304957626508,1.0,-0.0133423529412,-0.0175356638656,2.877
-0.645595891212,-0.519554440061,-0.125236404851,-2.64064606669,-0.0673137497045,2.11070734006,-0.893492768432,-0.0609608833151,0.00919111062446,0.00345457500569,0.00767359618839,0.000410476704011,0.00304216429924,-0.0620793370109,0.573656067374,0.819061795659,0.0061023076405,0.0,0.819060110663,-0.573565522004,-0.0119947483902,0.0,-0.00632448865374,0.0118792456743,-0.999909438082,0.0,0.265319730831,-0.259500677284,0.304965929642,1.0,-0.0130823529412,-0.0171939495798,2.89
-0.64676471596,-0.519360423162,-0.125194661284,-2.64049319583,-0.0672938903293,2.1107346439,-0.894637051412,-0.0583549618369,0.00756421346531,0.00275378865241,0.00916743010348,0.0011882768827,0.000114327293899,-0.0594155857224,0.573661481893,0.819058067722,0.00609366826661,0.0,0.819056193794,-0.573570828212,-0.0120084692554,0.0,-0.00634060534638,0.0118800817334,-0.99990932608,0.0,0.265051154878,-0.259853874476,0.304965147168,1.0,-0.0126623529412,-0.0166419495798,2.911
-0.647555233995,-0.519228647916,-0.125175356613,-2.64040845764,-0.0672829799091,2.11075599737,-0.895450980562,-0.0563925435764,0.012937481059,0.00379567404077,0.0076497154068,0.000333313355468,-0.000232857810392,-0.0623646206912,0.573639384908,0.819073543195,0.00609375265847,0.0,0.81907157149,-0.573548550367,-0.0120236455034,0.0,-0.00635330924192,0.0118886850712,-0.999909143187,0.0,0.264881908484,-0.260065669573,0.304959586547,1.0,-0.0124023529412,-0.0163002352941,2.924
-0.648673402856,-0.519048096097,-0.125162787469,-2.6402900542,-0.0672718001264,2.11080232923,-0.89656604734,-0.0535293711294,0.00940664339861,-0.000793103373079,0.003056030188,0.000134128753775,0.0033307974503,-0.064936760085,0.573644108676,0.819070227099,0.00609479800127,0.0,0.819068205584,-0.573553150063,-0.0120335179998,0.0,-0.00636072819204,0.0118952409898,-0.99990901805,0.0,0.264625209991,-0.260391578857,0.304951170502,1.0,-0.0120023529412,-0.0157745210084,2.944
-0.649373647833,-0.518916329287,-0.125159710757,-2.64019958111,-0.0672591504855,2.11082816851,-0.897220514942,-0.0523426768236,0.0132567808303,0.00271602617262,0.00589808926506,0.00195774264245,-0.000135810674676,-0.0526540537311,0.573689627333,0.819038301243,0.00610077772904,0.0,0.819036282358,-0.573598492906,-0.0120450827271,0.0,-0.00636610975155,0.0119071265807,-0.999908842337,0.0,0.264466543875,-0.260599448485,0.304946046479,1.0,-0.0117423529412,-0.0154328067227,2.957
-0.650439841879,-0.518739152996,-0.125145401539,-2.64007131313,-0.067251810947,2.11086058746,-0.898273701934,-0.0527023818157,0.0125158818258,0.00388750214294,0.00238632990923,-4.14473499809e-05,0.00265556173975,-0.0602450437205,0.573700035341,0.81903103905,0.00609700123552,0.0,0.819028903894,-0.573608789537,-0.012056452737,0.0,-0.00637743829941,0.011910636917,-0.999908728339,0.0,0.264222933895,-0.260911867113,0.30494219023,1.0,-0.0113423529412,-0.014907092437,2.977
-0.651109593381,-0.518617579407,-0.125134799193,-2.63997379374,-0.0672450943418,2.11088240182,-0.898970661218,-0.0550105654459,0.0130621378923,0.00365719320784,0.0121119847575,-0.000254882777475,0.000130577555192,-0.0498037668217,0.573678181311,0.819046370404,0.00609379322667,0.0,0.819044201788,-0.57358696943,-0.0120553274254,0.0,-0.00637867459186,0.0119071935721,-0.999908761464,0.0,0.264074147486,-0.261111819992,0.304943840211,1.0,-0.0110823529412,-0.0145653781513,2.99
-0.652171385158,-0.518442255952,-0.125129454977,-2.63983060851,-0.0672349116032,2.11091923844,-0.899997472404,-0.0431127916584,0.00226821997615,0.00020111225029,0.00470651471414,0.000301709588198,0.000128674560964,-0.0543412659524,0.573714831428,0.819020698714,0.00609378199925,0.0,0.819018596813,-0.573623736749,-0.0120454810518,0.0,-0.00637008294992,0.0119018210604,-0.999908880198,0.0,0.263833546433,-0.261428872345,0.304947594943,1.0,-0.0106623529412,-0.0140133781513,3.011
-0.652914306886,-0.518315725782,-0.125135054271,-2.63973732015,-0.0672253696831,2.11093539237,-0.900705037446,-0.0495252163265,0.00824451306437,0.000304561891534,0.00439245735264,-0.000400179134591,0.00311444821583,-0.048402300098,0.57375674883,0.81899126877,0.00610260205231,0.0,0.818989193891,-0.5736654433,-0.0120584557075,0.0,-0.00637504076694,0.0119168149137,-0.999908670018,0.0,0.263659969448,-0.261649178605,0.304944621911,1.0,-0.0103623529412,-0.013619092437,3.026
-0.653715655584,-0.518172026008,-0.125139310525,-2.63962508597,-0.0672137548314,2.11095755411,-0.901498113881,-0.0463993186504,0.00655957927473,-0.000509968054575,0.00585160800158,0.00345231777829,0.00322255427388,-0.045955407388,0.573777369092,0.818976761836,0.00611074392146,0.0,0.818974755922,-0.573685954747,-0.0120632246629,0.0,-0.00637397542971,0.0119263799412,-0.999908562769,0.0,0.263476289581,-0.261889695197,0.304944471773,1.0,-0.0100223529412,-0.0131722352941,3.043
-0.654434801414,-0.51804374586,-0.125133947988,-2.63953831488,-0.0671998616978,2.11099473432,-0.902244442616,-0.0413542300824,0.00314730494661,0.000198434657388,0.00423006795343,0.000303991829512,0.000357319427841,-0.0491096215252,0.573761834479,0.818987599012,0.0061169322667,0.0,0.818985666234,-0.573670382695,-0.0120630602789,0.0,-0.00637051655238,0.011931233156,-0.999908526913,0.0,0.263313146203,-0.262101939777,0.304939938345,1.0,-0.00970235294118,-0.0127516638656,3.059
-0.655101107757,-0.517912007433,-0.125124141443,-2.63945433389,-0.067188904233,2.11102008955,-0.902880130985,-0.0410668571154,0.0111999297403,0.00163091365983,0.00222540413591,0.000668057050449,0.00614104149828,-0.0408646927963,0.573789126405,0.818968462331,0.00611907079146,0.0,0.81896643796,-0.573697435967,-0.0120819022534,0.0,-0.00638432460496,0.0119440077081,-0.999908286334,0.0,0.263161828877,-0.26229706196,0.304931952236,1.0,-0.00940235294118,-0.0123573781513,3.074
-0.655818805032,-0.517767940609,-0.125090671661,-2.63936399869,-0.0671748914825,2.11104957531,-0.903556667811,-0.046085458289,0.00956791955082,0.00117797917353,0.00609835527443,0.00132435147834,0.000310944087109,-0.0326453334335,0.573809908424,0.81895395654,0.00611170702489,0.0,0.818951713721,-0.573718016924,-0.0121026671644,0.0,-0.00640525404562,0.0119500533546,-0.999908080248,0.0,0.263004178025,-0.262502170662,0.304923217145,1.0,-0.00906235294118,-0.0119105210084,3.091
-0.656581648364,-0.517623978429,-0.125021257829,-2.63927347615,-0.0671524441372,2.11107419928,-0.904294073517,-0.0466246824772,0.0074587938275,0.00678120669063,0.00788732412773,0.00492692204597,0.00348139232126,-0.0379719372364,0.573795906766,0.818963891125,0.00609502363042,0.0,0.818961287323,-0.573703824559,-0.0121275905952,0.0,-0.00643544431851,0.0119505803268,-0.9999078801,0.0,0.26284245227,-0.262709751231,0.30491503741,1.0,-0.00868235294118,-0.011411092437,3.11
-0.657183761115,-0.517497642805,-0.124988450784,-2.63920431917,-0.067138720815,2.11109848943,-0.904936523384,-0.0370716736398,0.0107880762568,0.00538890666063,0.00179923059348,0.000587761175403,0.00161402301383,-0.0384947405511,0.573749222395,0.818996631752,0.00609047465888,0.0,0.818993778976,-0.573656818671,-0.0121569442447,0.0,-0.00646277850031,0.0119633284949,-0.999907551359,0.0,0.262709452639,-0.262878579623,0.304902744939,1.0,-0.00836235294118,-0.0109905210084,3.126
-0.657798489419,-0.517382241809,-0.124964435314,-2.6391256001,-0.067124120016,2.11112423008,-0.90558946543,-0.0367680127388,0.00823860420411,0.00160029647511,0.00631886582881,0.00116339167458,-0.00031391397595,-0.0350744422008,0.573711275681,0.819023224871,0.00608902132251,0.0,0.819020303731,-0.573618795097,-0.0121641641471,0.0,-0.00647008044233,0.0119659806056,-0.999907472403,0.0,0.262573822084,-0.263055338477,0.304898739252,1.0,-0.00802235294118,-0.0105436638656,3.143
-0.658490512563,-0.517277092661,-0.124953984871,-2.63903546892,-0.0671057915686,2.11114888745,-0.906269921542,-0.0368540276324,0.00602200216318,-0.000496048168597,0.00389167112072,2.57425237843e-06,0.000389501563581,-0.0401509243122,0.573725797592,0.819013003093,0.00609564130241,0.0,0.819010253591,-0.573633442269,-0.0121501162257,0.0,-0.00645456374518,0.011963458185,-0.999907602869,0.0,0.262417732336,-0.263257856044,0.304903283218,1.0,-0.00764235294118,-0.0100442352941,3.162
-0.659037339584,-0.51721506794,-0.124951854277,-2.63897409299,-0.0670930712363,2.11117771912,-0.906779611748,-0.0363189298588,0.00384301292952,0.000349767394004,0.00510647383032,-0.000111920008577,0.00254837202501,-0.0321255956237,0.573763236072,0.818986732574,0.00610145078502,0.0,0.818984259688,-0.573671220017,-0.0121186058816,0.0,-0.00642487441737,0.0119504327644,-0.999907949836,0.0,0.26229246947,-0.263418466493,0.30491081643,1.0,-0.00734235294118,-0.00964994957984,3.177
-0.659674704574,-0.517147053561,-0.124960270904,-2.63887288571,-0.067078330056,2.11120598601,-0.907376513253,-0.0373291290461,0.00581446263054,-0.00029181123946,0.00887448703318,0.000107930290514,0.000446124768167,-0.0352519244721,0.57381361315,0.818951378484,0.0061093325038,0.0,0.818949422478,-0.573722325055,-0.0120533836127,0.0,-0.00636619724542,0.0119198594214,-0.999908690073,0.0,0.262149934766,-0.263614962526,0.304933939848,1.0,-0.00698235294118,-0.0091768067227,3.195
-0.660141138915,-0.517091522649,-0.124956461435,-2.63880432816,-0.0670645723617,2.11120866465,-0.907821971057,-0.0325061238514,0.00107434682693,0.000686534735443,0.00621836620267,0.000342866380431,-0.000613408533464,-0.0277267913733,0.573837383681,0.818934672292,0.00611608620187,0.0,0.81893291892,-0.573746276643,-0.0120345855035,0.0,-0.00634657984085,0.0119147887813,-0.999908875214,0.0,0.262043800169,-0.26375217477,0.304944936957,1.0,-0.00670235294118,-0.0088088067227,3.209
-0.660771117162,-0.517024790732,-0.124953345388,-2.63870355727,-0.067041914861,2.11122583773,-0.908451741352,-0.0289894328922,0.000753630057279,0.00079079564956,0.00238310793217,-1.7418678923e-05,0.00107929034913,-0.0257705236224,0.573849961873,0.818925779816,0.00612660687965,0.0,0.818924505797,-0.573759452568,-0.011978785169,0.0,-0.00629465856809,0.0118914828716,-0.999909480857,0.0,0.261904424693,-0.263941646206,0.304967663603,1.0,-0.00628235294118,-0.0082568067227,3.23
-0.661225054662,-0.516951787275,-0.124928546991,-2.63863385771,-0.0670273691514,2.11124193399,-0.908916136287,-0.0335695066739,0.00449348479503,0.000194693566076,0.00406644086728,0.000727355393343,-0.000364811420056,-0.0323816439724,0.573833547373,0.818937309635,0.0061228832033,0.0,0.818936086886,-0.573743245463,-0.0119633098283,0.0,-0.00628435887788,0.0118794272439,-0.999909688943,0.0,0.26180810835,-0.264072765213,0.30497437383,1.0,-0.00596235294118,-0.00783623529412,3.246
-0.661610730766,-0.516866296036,-0.124888444037,-2.63856711023,-0.0670039862919,2.11125309759,-0.909298199072,-0.0258353062175,0.00782591698232,0.0026741209926,0.00750551967915,-0.000125245341477,0.000171117864774,-0.0288201366407,0.573821485116,0.818945784763,0.00611978261354,0.0,0.818944493783,-0.573731145914,-0.0119680913921,0.0,-0.00629022921201,0.0118795389691,-0.999909650704,0.0,0.261732230264,-0.264180102275,0.304975080209,1.0,-0.00566235294118,-0.00744194957984,3.261
-0.662035255059,-0.516752256606,-0.124840487396,-2.63852052362,-0.0669815738989,2.11127277206,-0.909753417462,-0.0240231421741,0.00961425839077,-0.000370669496933,0.00294353928169,0.000741349526661,0.00135460295299,-0.0201232413596,0.573774535407,0.818978704392,0.00611646728901,0.0,0.818977087573,-0.573683687242,-0.0120126568688,0.0,-0.00632931451036,0.0119020323315,-0.999909136574,0.0,0.261643822095,-0.264291470441,0.304957005419,1.0,-0.00530235294118,-0.0069688067227,3.279
-0.66242804553,-0.516681164853,-0.124799624048,-2.63850754016,-0.0669577800259,2.11128914039,-0.910148828533,-0.0217175023181,0.000841571014379,0.00237908066293,0.0019166364187,0.00316587006204,0.00161393537218,-0.0207364683151,0.573754451137,0.818992743423,0.00612069630316,0.0,0.818990932944,-0.573663122023,-0.0120507712581,0.0,-0.00635839888167,0.0119272080603,-0.999908652064,0.0,0.261555126851,-0.264387461266,0.304939054691,1.0,-0.00496235294118,-0.00652194957984,3.296
-0.662769551622,-0.516583562657,-0.124762733392,-2.6384952367,-0.0669319359036,2.11130179029,-0.910490096121,-0.0252833030491,0.00624813427644,0.00560969241062,0.000875949541544,0.00118523813087,-3.29356604259e-05,-0.0124403743408,0.57374050422,0.819002444794,0.00612993801133,0.0,0.819000302901,-0.573648291913,-0.0121197333137,0.0,-0.00640978615268,0.0119742335315,-0.999907761932,0.0,0.261477942981,-0.264469503019,0.304910606036,1.0,-0.00464235294118,-0.00610137815127,3.312
-0.663117942952,-0.516528050868,-0.124743772969,-2.6384840539,-0.0669073568918,2.1113089547,-0.910836578068,-0.0213268106917,0.000328062418013,0.00237524638557,0.000103142992029,0.00469877551326,-0.000487943150158,-0.0218505172639,0.573739870806,0.819002770061,0.00614574494807,0.0,0.819000605073,-0.573647159975,-0.0121528451054,0.0,-0.0064278484261,0.0120061717678,-0.999907263002,0.0,0.261394644438,-0.264556983119,0.304896282152,1.0,-0.00430235294118,-0.00565452100841,3.329
-0.663451570447,-0.516471179748,-0.124720775825,-2.63845584077,-0.0668843132069,2.11131213306,-0.911172188094,-0.0206158213809,0.00252060133594,0.00697163217289,0.00565805016239,0.000162033454436,-0.00030398769493,-0.0190235025122,0.573733319248,0.819007282571,0.00615600370157,0.0,0.81900509876,-0.573640278409,-0.0121748138992,0.0,-0.0064400535611,0.0120271263686,-0.99990693264,0.0,0.261319183225,-0.26464368902,0.304888946031,1.0,-0.00396235294118,-0.00520766386555,3.346
-0.663739296741,-0.516438835424,-0.124709418431,-2.63842111366,-0.0668653773906,2.11131853066,-0.911458150331,-0.0183734946435,-7.36247216619e-05,0.00360541240106,-0.000231054973721,0.00204329700066,0.000478576447152,-0.0183604598065,0.573736527167,0.819004966125,0.00616520539898,0.0,0.819002968653,-0.573643567913,-0.0121631093811,0.0,-0.00642514026851,0.0120279732357,-0.999907018393,0.0,0.261255413471,-0.264723884525,0.304893613794,1.0,-0.00364235294118,-0.00478709243698,3.362
-0.664013614252,-0.516389046005,-0.124688380263,-2.63835543892,-0.0668436714961,2.11132765537,-0.911734617488,-0.0162290508153,-0.000578527689926,0.00134131101165,0.00382616091856,0.000128086665157,0.000641263814484,-0.0128826308422,0.573732337674,0.819007883963,0.00616746420764,0.0,0.819006089281,-0.573639694042,-0.0121356516741,0.0,-0.00640141536409,0.0120140378531,-0.999907338095,0.0,0.261204615377,-0.264806316298,0.304906365374,1.0,-0.00330235294118,-0.00434023529412,3.379
-0.664245845617,-0.51636068117,-0.124667568557,-2.63831038468,-0.066824555272,2.11133120621,-0.911974547799,-0.0137756436307,0.000731740129514,0.000227568112825,-0.000101353503243,0.0019670902459,-0.00050257866437,-0.0156253399229,0.573721611483,0.819015378139,0.00617007212178,0.0,0.81901375751,-0.573629221655,-0.0121131323178,0.0,-0.0063816308431,0.0120031708443,-0.999907595069,0.0,0.261159590395,-0.264872276091,0.30491717084,1.0,-0.00300235294118,-0.00394594957984,3.394
-0.66448695532,-0.516344597317,-0.124632092002,-2.63827450902,-0.066807209124,2.1113461534,-0.912205016167,-0.0157851017008,-0.00224256443709,0.000216068266597,-0.000480811039134,0.000123271618165,4.35607313292e-06,-0.0161330002081,0.573714242429,0.819020591769,0.00616321292242,0.0,0.819019119998,-0.57362233294,-0.01207671859,0.0,-0.006355847001,0.0119766052677,-0.999908077843,0.0,0.261115264611,-0.264937006554,0.304929652799,1.0,-0.00266235294118,-0.00349909243698,3.411
-0.664733950929,-0.516335113442,-0.124599001703,-2.63826467378,-0.0667848186305,2.1113518434,-0.912434092237,-0.01352625844,0.000494471319069,0.00199592560356,0.00285238304004,0.00124196679407,-7.18124057372e-06,-0.0170503293102,0.573715463317,0.819019709761,0.00616677186736,0.0,0.81901833637,-0.573623636097,-0.0120679617937,0.0,-0.00634661465616,0.0119745060737,-0.999908161626,0.0,0.26106210117,-0.264995306157,0.304931897676,1.0,-0.00228235294118,-0.00299966386555,3.43
-0.664909099892,-0.516333190666,-0.124576686932,-2.6382520565,-0.0667699694742,2.11135681909,-0.91259917581,-0.0109973865031,0.000410517008786,0.000707539519537,0.00189276357253,0.00192852997317,-1.22021576493e-05,-0.00880674437944,0.573714777939,0.819020182599,0.00616773632405,0.0,0.819018931205,-0.573623153311,-0.0120505275224,0.0,-0.00633179079941,0.0119652889025,-0.999908365945,0.0,0.261025574887,-0.26503867592,0.304937877314,1.0,-0.00198235294118,-0.00260537815127,3.445
-0.665104828476,-0.516323292306,-0.124551375837,-2.63824853064,-0.0667527842876,2.11136348163,-0.912777314643,-0.0112608597433,0.00120647747988,0.00302791997587,0.00321658859953,0.00051256989372,-2.86632371553e-05,-0.0106572611789,0.573718744306,0.819017379361,0.00617103211902,0.0,0.819016183281,-0.573627127979,-0.0120480899779,0.0,-0.00632784547954,0.0119666206209,-0.999908374984,0.0,0.260982494927,-0.26508427066,0.304936999958,1.0,-0.00162235294118,-0.00213223529412,3.463
-0.665269594406,-0.516298933641,-0.124531791456,-2.63823600456,-0.0667340162207,2.11136864246,-0.912912202846,-0.0109145542639,-0.00160861414347,0.00195052626663,-0.000282204197367,0.000958495877904,-0.000402835187881,-0.0102923021138,0.573738002011,0.819003840421,0.00617748542195,0.0,0.81900269482,-0.573646290092,-0.012052661244,0.0,-0.00632760607772,0.0119746775385,-0.999908280043,0.0,0.260947970078,-0.265124732433,0.304934614376,1.0,-0.00128235294118,-0.00168537815127,3.48
-0.665410258053,-0.516282418061,-0.124497971449,-2.63822440435,-0.0667209640347,2.11137202013,-0.913012218802,-0.00778392253318,0.00079853823429,0.00207910284422,8.44025680063e-05,0.000646061647372,-0.00107739677477,-0.00669324355199,0.57375344828,0.818993063756,0.00617162925957,0.0,0.81899184583,-0.573661765957,-0.0120532835257,0.0,-0.00633124975933,0.0119703574915,-0.999908308705,0.0,0.260922156468,-0.265156037688,0.304934879876,1.0,-0.000982352941182,-0.00129109243698,3.495
-0.665530032632,-0.516252689239,-0.12447751713,-2.6382145861,-0.066701662502,2.11137979162,-0.913087120144,-0.00826244986766,0.00243233552862,0.00202154012365,0.00253847139571,0.00369741875524,-0.00514904117042,-0.000295267065893,0.573784495594,0.818971265998,0.00617778170781,0.0,0.818970059697,-0.573692650329,-0.0120636304753,0.0,-0.00633574074442,0.0119815730637,-0.999908145929,0.0,0.260899470514,-0.265184088036,0.304929525713,1.0,-0.000622352941182,-0.000817949579839,3.513
-0.665574929716,-0.516230019273,-0.124475450371,-2.63820809917,-0.0666917048998,2.11138443422,-0.913104335835,-0.002990986973,0.00276787800524,-0.000767545452277,0.000883479733293,0.000364175918197,-0.000380116236469,-8.8633555087e-05,0.573810351423,0.818953096134,0.00618496836705,0.0,0.818951912112,-0.573718334264,-0.0120741657174,0.0,-0.00633986771057,0.01199370386,-0.999907974338,0.0,0.260890619917,-0.265196316512,0.304924558717,1.0,-0.000322352941182,-0.000423663865554,3.528
-0.665571222665,-0.51620270401,-0.124447790787,-2.63820652369,-0.0666757288267,2.11138576474,-0.913147869484,0.00112570554633,0.00231185942285,0.0010073967482,-0.000409981191058,0.00022876964036,0.00010010520119,-0.00221349092056,0.573759037941,0.818989036321,0.00618640991073,0.0,0.818987716622,-0.573666733481,-0.0120973476702,0.0,-0.00635877997122,0.0120077874749,-0.999907685218,0.0,0.260899159777,-0.265187905186,0.304915967622,1.0,0.0,0.0,3.549
-0.66557122496,-0.516201846334,-0.124413356893,-2.63820902935,-0.0666681902664,2.11138331899,-0.913159053533,-0.00086092543893,0.000382217621798,0.00153659636335,-0.000620714809848,-0.000152542562964,-0.00193480910868,-0.00605543762814,0.573728527992,0.819010483096,0.00617670208114,0.0,0.819009006444,-0.573636215642,-0.0121031553122,0.0,-0.00636955370593,0.0120029312095,-0.999907674952,0.0,0.260906524539,-0.265178699663,0.304915115868,1.0,0.0,0.0,3.564
