nelsonifechukwu/NELSON_IML_WORK/CNN-GradCAM/train2dof/data_sample_2022-02-21-16-36-04/robot_state.csv
position_joint1,position_joint2,position_joint3,position_joint4,position_joint5,position_joint6,position_joint7,velocity_joint1,velocity_joint2,velocity_joint3,velocity_joint4,velocity_joint5,velocity_joint6,velocity_joint7,ee_T_00,ee_T_10,ee_T_20,ee_T_30,ee_T_01,ee_T_11,ee_T_21,ee_T_31,ee_T_02,ee_T_12,ee_T_22,ee_T_32,ee_T_03,ee_T_13,ee_T_23,ee_T_33,v_x,v_y,time
0.465077349431,0.547799435137,-0.123892288991,-1.35587113401,0.0795222775245,1.89409709864,0.159161759536,-0.000997195643646,-0.00169600241856,-0.000393952763784,-0.00279404710691,-0.000123180971732,-0.000351949144706,-0.00161473076387,0.573745607243,0.819019535871,0.00193000810564,0.0,0.81897537562,-0.573686393677,-0.0120001141804,0.0,-0.00872127646811,0.00846580490365,-0.999926132014,0.0,0.661642844021,0.260947187598,0.303179860009,1.0,0.0,0.0,0.0
0.465078755016,0.54780722767,-0.123894817361,-1.35586083393,0.0795248889803,1.89409473062,0.159160229282,0.00028067500711,0.00138574755307,-0.000711087450806,0.000580241883085,4.25024094616e-05,0.000147679831589,-0.000970424159716,0.573746522406,0.81901889024,0.00193193138448,0.0,0.818974732643,-0.573687278719,-0.0120016844191,0.0,-0.0087214497102,0.00846829072838,-0.999926109454,0.0,0.661644327612,0.26095021757,0.303177544704,1.0,-0.00024,-0.000315428571429,0.013
0.46507863248,0.5478076344,-0.123890142824,-1.35586412882,0.0795250943898,1.89409710006,0.159170867166,0.00106242723819,0.000530523125054,0.000808102185362,-0.00107479923958,-9.99746445775e-05,-0.000144452911548,0.00081235536092,0.573750894573,0.819015830682,0.00193053610858,0.0,0.818971648172,-0.573691649798,-0.0120032222052,0.0,-0.00872346451385,0.00846807685341,-0.99992609369,0.0,0.661643247002,0.260950458641,0.303177319989,1.0,-0.00054,-0.000709714285714,0.028
0.465070560787,0.547769851446,-0.123893367527,-1.35589124394,0.079523560239,1.89410064013,0.159167536093,-0.00376514018615,-0.00564012101286,-0.000291815085292,-0.00431854752431,0.000361663507938,0.000205860212207,0.000141162009873,0.573758061825,0.819010780876,0.00194273018471,0.0,0.818966766549,-0.573698772919,-0.011995838465,0.0,-0.00871034680655,0.00847390363419,-0.999926158682,0.0,0.661641672433,0.260940524963,0.303191591763,1.0,-0.0009,-0.00118285714286,0.046
0.465074757166,0.547697753912,-0.123890900309,-1.35596859455,0.0795232048168,1.89410910029,0.15916367053,-0.000392874689231,-0.0051800062008,-0.000378195589974,-0.00873499631793,0.000195803047282,-0.00873459946422,-0.000809086219299,0.573753792751,0.81901375472,0.00194981661616,0.0,0.81896975412,-0.573694397532,-0.012001124028,0.0,-0.00871065448919,0.0084826945812,-0.999926081464,0.0,0.661625892488,0.260937012936,0.30320650372,1.0,-0.00118,-0.00155085714286,0.06
0.465069355787,0.547559077275,-0.123892522498,-1.35614890563,0.079519604441,1.89414934502,0.159155728337,-0.000858236526784,-0.00672690284174,-0.000423764087841,-0.011323174041,-0.000212641074358,0.000763072584133,-0.00143142772935,0.573761764083,0.819008161075,0.00195373209273,0.0,0.818964118155,-0.573702260165,-0.0120098608354,0.0,-0.00871548132025,0.0084909988978,-0.999925968921,0.0,0.661598228536,0.260915068923,0.30322246361,1.0,-0.00154,-0.002024,0.078
0.465052005334,0.547400143993,-0.123894876929,-1.35637111903,0.07951711685,1.89423450857,0.159157485757,-0.00239231221967,-0.00899247080124,-0.00122544958289,-0.0101743020306,0.000404722634836,0.00685294283941,0.000931144160136,0.573790835807,0.818987736416,0.00197768696667,0.0,0.81894392565,-0.573731147537,-0.0120068266961,0.0,-0.00869895068629,0.00850918568174,-0.999925958267,0.0,0.661573669804,0.260883323542,0.303236751885,1.0,-0.0019,-0.00249714285714,0.096
0.465021500979,0.547209944872,-0.123887817496,-1.35658482636,0.0795148802118,1.89435118987,0.159145544824,-0.00553116956316,-0.00981215785807,-0.00266342727377,-0.0125839385457,-3.55113943209e-05,0.00201312078877,-0.00134786971735,0.573812646325,0.818972241516,0.00206432662152,0.0,0.818929489254,-0.573752519607,-0.0119701619061,0.0,-0.00861898366934,0.00855933301979,-0.999926222748,0.0,0.661559430334,0.260851940034,0.303279654923,1.0,-0.00224,-0.002944,0.113
0.464998057821,0.547008630899,-0.123888028939,-1.3568263671,0.0795120682702,1.89447995733,0.159125627715,-0.00316030977146,-0.0142504024198,0.000436751176498,-0.0139552294442,-1.74856097643e-05,0.00618888321431,-0.00350528086814,0.573828644754,0.818960823076,0.00214560668019,0.0,0.818919088051,-0.573768138353,-0.0119330439675,0.0,-0.0085417792146,0.00860476638193,-0.9999264953,0.0,0.661541359721,0.260818587418,0.303318465145,1.0,-0.00256,-0.00336457142857,0.129
0.464960158008,0.546768092117,-0.123890483928,-1.35718050779,0.0795038619877,1.89461144771,0.159101020199,-0.00148041987211,-0.0172568084579,0.000607987536533,-0.0257115662925,1.13708580887e-05,0.00910131878914,-0.00223046136208,0.573861735853,0.818937600409,0.00215908831638,0.0,0.818895910112,-0.573801038157,-0.011941687999,0.0,-0.00854077463373,0.00862111237912,-0.999926363084,0.0,0.661498087979,0.260758948053,0.303326099831,1.0,-0.00292,-0.00383771428571,0.147
0.46492076817,0.546489783424,-0.123890642745,-1.35760552651,0.0794936813157,1.8947773312,0.158971921138,-0.00412919849393,-0.0167413487421,-0.000491875146204,-0.0249520360078,-0.00071389954803,0.00488925821041,-0.00558865517987,0.573806641426,0.81897611504,0.00219274945136,0.0,0.818934758067,-0.573745706803,-0.0119361993832,0.0,-0.00851754560455,0.00864495566311,-0.999926355367,0.0,0.661457382873,0.260697495383,0.303340947314,1.0,-0.00326,-0.00428457142857,0.164
0.464882787123,0.546225554925,-0.1238941667,-1.35804410724,0.0794802510653,1.89493237417,0.158929369738,-0.000800589378882,-0.0129927603287,-0.000508504371359,-0.0272625253666,-0.000343016080701,0.0109672184167,-0.00140574901072,0.573826311712,0.818962361447,0.00218206815657,0.0,0.818920751385,-0.573765302745,-0.0119552172024,0.0,-0.00853904231822,0.0086473255751,-0.999926151532,0.0,0.661406068204,0.260630092129,0.303332862971,1.0,-0.00358,-0.00470514285714,0.18
0.464825401266,0.545908272711,-0.123893514554,-1.35857602501,0.0794561092742,1.89511485384,0.158895662914,-0.00493983559601,-0.0185060864692,0.000869249335916,-0.0357425469474,0.000448327744158,0.0196378905658,-0.00376265523186,0.573868520235,0.818932847877,0.00215848390035,0.0,0.818890830912,-0.573807502573,-0.0119793129662,0.0,-0.00857186366171,0.00864227967065,-0.999925914333,0.0,0.661344852733,0.260542017948,0.303320127341,1.0,-0.00392,-0.005152,0.197
0.464766371902,0.545556476954,-0.12389869248,-1.35918442651,0.0794033033577,1.89532017371,0.15878721354,-0.0035637737705,-0.0196638009015,-0.00263172219451,-0.0402803435609,-0.00555141892762,0.00287839223302,-0.0121316774898,0.57385156804,0.818944867502,0.00210445972701,0.0,0.818902274889,-0.57379090658,-0.0119919392956,0.0,-0.00861338311722,0.00860510570143,-0.999925878147,0.0,0.661274848146,0.260437765394,0.303297523989,1.0,-0.00426,-0.00559885714286,0.214
0.464717002564,0.545193085059,-0.123894088585,-1.35982953409,0.0793456639848,1.89552149452,0.158727835463,-0.00453867317401,-0.0163562714442,0.000615595295915,-0.0402373930547,-0.00459461459662,0.0163967097466,-0.0100891376896,0.573860672674,0.818938684618,0.00202635002855,0.0,0.818895153764,-0.573800419771,-0.0120229910663,0.0,-0.00868353917706,0.0085590547474,-0.999925666602,0.0,0.661191351975,0.260340306622,0.303264954944,1.0,-0.00458,-0.00601942857143,0.23
0.464649283974,0.544762757298,-0.123892083126,-1.36054135571,0.0793252303754,1.89576016672,0.158624988884,-0.00260302248586,-0.0231876981358,0.000262333068852,-0.0427332492605,0.000945893272068,0.0192186353399,-0.0035213241094,0.573864659062,0.818935948856,0.0020029107869,0.0,0.818891849008,-0.573804247617,-0.0120653199588,0.0,-0.00873161364221,0.00856419292956,-0.999925203964,0.0,0.661104952085,0.260230742226,0.303251377858,1.0,-0.00492,-0.00646628571429,0.247
0.464583052257,0.544287565685,-0.123900451095,-1.36134390177,0.0792908565172,1.89604650886,0.158535942493,-0.00162107715391,-0.0314946574503,-0.000822416290927,-0.0447616973544,-0.00189605635724,0.0165846467991,-0.00335503441544,0.573887428051,0.818920066999,0.00197248386006,0.0,0.818875455695,-0.57382703454,-0.012094188424,0.0,-0.0087724779278,0.00855608603997,-0.999924915693,0.0,0.661011051248,0.260106955594,0.303230786526,1.0,-0.00528,-0.00693942857143,0.265
0.46452463884,0.543836511034,-0.123894509737,-1.36207765273,0.0792609751386,1.89630234461,0.158440959571,-0.000994113110713,-0.0287684232578,0.00563621122453,-0.0539332463405,-0.000449886288795,0.0199581039204,-0.00363652382907,0.57388616956,0.818920981745,0.00195881268975,0.0,0.818875995137,-0.573825644811,-0.0121235657384,0.0,-0.00880439491382,0.00856173623355,-0.999924586808,0.0,0.660920591597,0.260003139012,0.303222695652,1.0,-0.00558,-0.00733371428571,0.28
0.464440075138,0.543280975524,-0.123902937112,-1.36296611171,0.0792114370613,1.89661238753,0.158343264184,-0.00531475072326,-0.0329553451216,0.000214964117484,-0.0484499090634,-0.000921563877435,0.0223874393709,-0.00541913997465,0.573917468089,0.81889909377,0.0019393159721,0.0,0.818853822286,-0.573856996668,-0.012137215636,0.0,-0.00882643478207,0.00855394105369,-0.999924459218,0.0,0.660819161249,0.259857228454,0.303219984032,1.0,-0.00594,-0.00780685714286,0.298
0.464355636791,0.542723972387,-0.123898330587,-1.36386767017,0.0791535511342,1.89693518472,0.158207019955,-0.00686075058508,-0.0345593503616,0.000982770256111,-0.0530650725884,-0.00159117004293,0.0178880454913,-0.0066643278519,0.573906478586,0.818906841692,0.00191973134886,0.0,0.818861292924,-0.573846075365,-0.012149553084,0.0,-0.00884789219303,0.00854486543637,-0.999924347178,0.0,0.660714596814,0.259716940849,0.303212672226,1.0,-0.00628,-0.00825371428571,0.315
0.464296551599,0.542189220892,-0.123903608182,-1.36467800802,0.0791058631699,1.89723981633,0.158096709263,-0.00558304602199,-0.0337366781294,0.000805789077353,-0.0564617564463,-0.00321098822505,0.0211208993204,-0.00354644417445,0.573904012205,0.81890851749,0.00194207587904,0.0,0.818863244859,-0.573843494131,-0.0121399078854,0.0,-0.00882719631145,0.00855760115963,-0.999924421178,0.0,0.660615288214,0.259589263301,0.303229282129,1.0,-0.0066,-0.00867428571429,0.331
0.464201506466,0.541515745768,-0.123909328075,-1.36569593473,0.0790495652824,1.89760951561,0.157971140644,-0.00711747414827,-0.0395454604028,-0.00140140508552,-0.0589789986876,-0.00614921467391,0.0214305315265,-0.00976669243602,0.573919995839,0.818897248614,0.00197015003231,0.0,0.818852303339,-0.573859312665,-0.0121301890106,0.0,-0.00880295894676,0.00857518501723,-0.999924484207,0.0,0.660500108404,0.259430719174,0.303254462964,1.0,-0.00696,-0.00914742857143,0.349
0.46411062711,0.540798739055,-0.123906554195,-1.3667954337,0.0789913143024,1.89802498809,0.157827223546,-0.00927029886847,-0.0439096172667,-0.00110498624333,-0.0638814169095,-0.00159198363335,0.0223704548676,-0.00730082562856,0.573921010131,0.818896465406,0.00199999440251,0.0,0.818851870952,-0.573860156905,-0.0121194330093,0.0,-0.00877701273708,0.00859346184407,-0.999924555385,0.0,0.660381730196,0.259275807679,0.303275117089,1.0,-0.0073,-0.00959428571429,0.366
0.464027878356,0.540176971831,-0.123907120663,-1.36776873541,0.0789241671476,1.89838518601,0.157703838481,-0.00593088968501,-0.0359467654858,6.318897429e-05,-0.0644815469354,-0.00606077768798,0.0267099617686,-0.00363895604506,0.573924078546,0.81889430966,0.00200214189844,0.0,0.818849814628,-0.57386328539,-0.0121102298321,0.0,-0.00876821138578,0.00858997140334,-0.999924662592,0.0,0.66027041157,0.259127052565,0.303282518336,1.0,-0.0076,-0.00998857142857,0.381
0.463924163788,0.539391596492,-0.123909742592,-1.36898084795,0.0788625963316,1.89884462102,0.157562633328,-0.00524375285148,-0.0472790828939,-0.00204689993511,-0.0702384779974,-0.000706219573792,0.0184941703156,-0.00132372902574,0.573945866185,0.818878958574,0.00203489456604,0.0,0.818834808054,-0.57388484516,-0.0121032440367,0.0,-0.008743465058,0.00861301521092,-0.999924681057,0.0,0.660133392356,0.258944707307,0.303300466269,1.0,-0.00796,-0.0104617142857,0.399
0.46382293286,0.538672674943,-0.123911907668,-1.37008984944,0.0787977884441,1.89927783239,0.157411883582,-0.00560764986238,-0.0467972882944,0.000612788413912,-0.0687012258344,-0.00288546509459,0.0274171120649,-0.00853887900765,0.57395090106,0.818875338545,0.00207123062184,0.0,0.818831680732,-0.573889739676,-0.012082724284,0.0,-0.00870575454898,0.00863104591571,-0.999924854619,0.0,0.660012439126,0.258773342692,0.30331811098,1.0,-0.00828,-0.0108822857143,0.415
0.463707876177,0.5378909146,-0.123918803141,-1.37131327922,0.0787294559089,1.89975530289,0.157260749486,-0.00647058708182,-0.0489965574969,-0.000633582953591,-0.0683865026721,-0.000234910474489,0.0325923370644,-0.00961842900912,0.573975581463,0.818857962439,0.00210146011918,0.0,0.818814711256,-0.573914298851,-0.0120661968683,0.0,-0.00867461038426,0.00864657529762,-0.999924991122,0.0,0.65988009441,0.258579793529,0.303329552608,1.0,-0.00862,-0.0113291428571,0.432
0.463589712706,0.537019286482,-0.123922107012,-1.37267605103,0.0786503887891,1.90026430965,0.157103302115,-0.00891186233412,-0.0504378170992,-0.00156120091895,-0.0769781481537,-0.000529939148697,0.0322331704102,-0.00956280933686,0.573999657532,0.818841046613,0.00211670382058,0.0,0.818797977642,-0.573938289958,-0.012060598262,0.0,-0.00866102228398,0.00865609873628,-0.999925026513,0.0,0.659724401318,0.258371341834,0.303340588855,1.0,-0.00898,-0.0118022857143,0.45
0.463482744564,0.536232055621,-0.123925303374,-1.37389972516,0.0785748111171,1.90073049966,0.156945961364,-0.00857138289617,-0.0429385056227,-0.000273125094431,-0.074970034646,-0.0141239997425,0.03799749018,-0.0118714105358,0.574007782905,0.818835291691,0.00213942654943,0.0,0.818792560006,-0.573946358487,-0.0120444244399,0.0,-0.00863464996597,0.00866550674832,-0.999925173107,0.0,0.659586797911,0.258183416915,0.303354369983,1.0,-0.0093,-0.0122228571429,0.466
0.463374780166,0.535385363882,-0.123925715501,-1.3752370508,0.0784960683786,1.90120584601,0.156790676646,-0.0100210042136,-0.0550221295358,6.54087463566e-05,-0.0890996178436,-0.00953683218358,0.0297245823661,-0.00655120995117,0.574021531208,0.818825685405,0.00212732998251,0.0,0.818782734856,-0.573960095265,-0.0120577380576,0.0,-0.00865234969456,0.00866338912083,-0.999925038457,0.0,0.659425707082,0.257983871306,0.30335658356,1.0,-0.00962,-0.0126434285714,0.482
0.463251457603,0.534443710131,-0.123931368199,-1.37678122655,0.0784186568581,1.90176885206,0.156607225861,-0.00773098424372,-0.0537401534241,-0.00116350461232,-0.0910246761849,-0.0056358499578,0.0374541523178,-0.00805213210901,0.574040225824,0.818812651631,0.00209942066862,0.0,0.818769180773,-0.573978751383,-0.012090015658,0.0,-0.00869460232318,0.00865926297709,-0.999924707693,0.0,0.65924127218,0.257754015075,0.303334985248,1.0,-0.00998,-0.0131165714286,0.5
0.463117922264,0.533516965975,-0.123928911961,-1.37825965102,0.0783254284644,1.90230778425,0.156417790566,-0.00617419251167,-0.0582205477812,0.00288287275106,-0.0901779036946,-0.00720371746496,0.03854849573,-0.00895307788138,0.574039956688,0.818812874007,0.0020862376502,0.0,0.818769204348,-0.573978512772,-0.0120997433525,0.0,-0.00871013774263,0.00865404990825,-0.999924617619,0.0,0.659055972024,0.257515784741,0.303331426192,1.0,-0.01034,-0.0135897142857,0.518
0.463004843862,0.532631785502,-0.123927119555,-1.37969539407,0.0782633864301,1.90285395561,0.156236278982,-0.00812336562981,-0.0607159511158,0.00129973806258,-0.0882124031235,-0.00733948234644,0.0349555590283,-0.00371263368181,0.574053281365,0.818803511073,0.00209459032413,0.0,0.818759730882,-0.573991581145,-0.0121208399597,0.0,-0.00872247703887,0.0086731411467,-0.999924344647,0.0,0.658898192882,0.25732031267,0.303319694626,1.0,-0.01064,-0.013984,0.533
0.462860487864,0.531603205007,-0.123924255505,-1.38134885501,0.078162252584,1.9034546435,0.15602022915,-0.00554361877499,-0.058016003274,0.000444695047302,-0.0873162797049,-0.00177463355688,0.0329904556112,-0.00922987426276,0.574055513378,0.818802000642,0.00207321156195,0.0,0.81875789218,-0.573993857773,-0.0121372209784,0.0,-0.00874813854568,0.00866506377755,-0.999924190497,0.0,0.658701650784,0.257068517199,0.303309719722,1.0,-0.011,-0.0144571428571,0.551
0.462723999129,0.530587013195,-0.123929610054,-1.38299669004,0.0780527045548,1.90402941999,0.155813851604,-0.00888342307855,-0.0557567921085,-0.000289915318244,-0.0974868799695,-0.00696139272337,0.0299882913191,-0.0153794690902,0.574062066909,0.818797544136,0.0020179086075,0.0,0.818752744037,-0.574000685428,-0.0121615854623,0.0,-0.00879976480819,0.00863383932512,-0.999924007591,0.0,0.658500755944,0.256814560879,0.303291466278,1.0,-0.01134,-0.014904,0.568
0.462605769114,0.529724659612,-0.123929849221,-1.38436166131,0.0779752480244,1.90453391044,0.155634010147,-0.012309271931,-0.0642260100484,0.000725271284155,-0.10029730682,-0.00262201932873,0.0439445115729,-0.0193559907779,0.574065127364,0.818795389239,0.00202163442697,0.0,0.81875057107,-0.574003663386,-0.0121673207136,0.0,-0.00880229000396,0.00864021520764,-0.999923930293,0.0,0.658339843741,0.256607578718,0.303293021047,1.0,-0.01162,-0.015272,0.582
0.462467079198,0.528577006596,-0.123935304543,-1.38614457919,0.0778628192296,1.90520767178,0.155384226009,-0.00605489623969,-0.0648236248526,0.000493384671373,-0.0988001629696,-0.00802902600463,0.0383933783362,-0.01135046562,0.574044479978,0.818809794656,0.00204989840028,0.0,0.818765414229,-0.573982960651,-0.0121451326568,0.0,-0.00876811563736,0.00865039882005,-0.999924142497,0.0,0.658130449319,0.256344087471,0.30331117967,1.0,-0.01198,-0.0157451428571,0.6
0.46232349529,0.527454028602,-0.123937435426,-1.38786574249,0.0777496570743,1.90587336882,0.155137792543,-0.00825212554466,-0.0636909282134,-0.000255506018774,-0.0991546304018,-0.0101330364866,0.0469597739761,-0.0093974984056,0.574024523404,0.818823655597,0.00210106324822,0.0,0.818780063471,-0.573962901746,-0.0121054526094,0.0,-0.00870646622604,0.00866930227537,-0.999924517473,0.0,0.657933262305,0.256085675992,0.303340243883,1.0,-0.01232,-0.016192,0.617
0.46216202754,0.526294309091,-0.123931120948,-1.38966517095,0.0776446281036,1.90655280999,0.154908462936,-0.00981970310651,-0.0695581107978,0.00696272417374,-0.108562520898,-0.00757756745264,0.0436513450339,-0.00972192222314,0.574033410808,0.818817330354,0.00213768308431,0.0,0.818774151269,-0.573971564747,-0.0120945846396,0.0,-0.00867645325015,0.00869314269597,-0.99992457137,0.0,0.657723104093,0.255813881879,0.303358572844,1.0,-0.01266,-0.0166388571429,0.634
0.462029541538,0.525173942385,-0.123936942257,-1.39139919963,0.0775327819521,1.90717364974,0.154673405285,-0.010750800037,-0.0680260286054,0.000391470498234,-0.111230228283,-0.0118747186981,0.031080893954,-0.0142787334821,0.574013788022,0.818831082268,0.00213933965914,0.0,0.818787975051,-0.573951987704,-0.0120877882102,0.0,-0.00867014537981,0.00869039000373,-0.999924650012,0.0,0.657498603929,0.255536535511,0.303375362211,1.0,-0.013,-0.0170857142857,0.651
0.461857752501,0.52393970396,-0.1239493545,-1.3934015255,0.0774044166692,1.90789657471,0.15439454892,-0.00787900930683,-0.0677843240733,-0.000493557570284,-0.106899860807,-0.00203374713672,0.0441683453989,-0.0126716185118,0.574010573754,0.818833454114,0.00209345269915,0.0,0.818789785462,-0.573949009649,-0.0121065456453,0.0,-0.00871187721533,0.00866354969863,-0.999924520202,0.0,0.657270532575,0.255243023217,0.303353280234,1.0,-0.01334,-0.0175325714286,0.668
0.461713196005,0.522862913102,-0.123947993634,-1.39509396736,0.0773088296454,1.90853980234,0.154172815585,-0.0112453133465,-0.0701084582016,0.000284712876222,-0.113800553947,-0.00479880972547,0.0469357551096,-0.0172485224113,0.574001364255,0.818839835107,0.00212254022546,0.0,0.81879648425,-0.573939613558,-0.0120989367254,0.0,-0.00868904872753,0.00868290183346,-0.999924550978,0.0,0.657057875972,0.254974778642,0.303360323945,1.0,-0.01366,-0.0179531428571,0.684
0.461543027115,0.521557640464,-0.123951112943,-1.39718079526,0.0771818515432,1.90934553848,0.153888412187,-0.00989854152212,-0.0698593356529,-0.00118687098912,-0.117492115213,-0.0133709375202,0.0386996116592,-0.0200231811685,0.573997787378,0.818842305307,0.0021368260568,0.0,0.818799165752,-0.573936000392,-0.0120888592569,0.0,-0.00867263495694,0.00868877714392,-0.999924642438,0.0,0.656825117561,0.254680207544,0.303354248783,1.0,-0.014,-0.0184,0.701
0.46136642933,0.520278151326,-0.123954365504,-1.39921240067,0.0770499813068,1.91009259,0.153611555969,-0.0107808160903,-0.0786068345868,0.000709467079767,-0.12002708352,-0.00256345807813,0.0370781683582,-0.00854355361545,0.573990679259,0.818847315257,0.00212634007643,0.0,0.818804087423,-0.573928986945,-0.0120884764967,0.0,-0.00867841540526,0.00867989589626,-0.999924669419,0.0,0.656581333543,0.254367405033,0.303350807803,1.0,-0.01434,-0.0188468571429,0.718
0.46120964126,0.519037251413,-0.123957675348,-1.40116837431,0.0769273530446,1.91078468019,0.153356910627,-0.0100215627244,-0.0825041855736,0.000732962014204,-0.125127465551,-0.0130968150046,0.0499092561192,-0.0143317696473,0.573983579503,0.818852348265,0.00210454334998,0.0,0.818808802872,-0.573921949293,-0.0121031962809,0.0,-0.0087030546351,0.00867042147821,-0.999924537468,0.0,0.656337196089,0.254073877739,0.303351141043,1.0,-0.01466,-0.0192674285714,0.734
0.461038842281,0.517669092734,-0.123960558928,-1.40328192334,0.0767852090337,1.91155050783,0.153064500042,-0.0113084272601,-0.083296262925,-0.00010168461865,-0.120513187538,-0.0143862587991,0.0412236575005,-0.0160169681508,0.573959497481,0.81886920246,0.00211457196408,0.0,0.818825869935,-0.573897908731,-0.0120885061133,0.0,-0.00868552415514,0.00866994604544,-0.999924694017,0.0,0.656077684416,0.253756275157,0.303371748757,1.0,-0.015,-0.0197142857143,0.751
0.460839349734,0.516235999111,-0.123963830537,-1.40556223052,0.0766459876896,1.9124019539,0.152741172635,-0.0121948987352,-0.0850351325023,0.000923679309072,-0.131050214049,-0.0064258680354,0.0494846010278,-0.0193555630641,0.57394349202,0.818880417379,0.00211586921114,0.0,0.818837089308,-0.573881887269,-0.012089149694,0.0,-0.00868547615338,0.00867120792474,-0.999924683492,0.0,0.655803855667,0.253406978314,0.30336561306,1.0,-0.01536,-0.0201874285714,0.769
0.460676744954,0.515027264167,-0.123967240757,-1.40748925528,0.0765277914984,1.9131243623,0.152475662375,-0.00876619325041,-0.0831392605763,0.000714701360427,-0.133505963199,-0.00948528325433,0.0466208794549,-0.0212240738943,0.573931433921,0.81888886638,0.0021167374567,0.0,0.818845550123,-0.573869827452,-0.0120885518147,0.0,-0.00868461593841,0.00867144787645,-0.999924688883,0.0,0.655570919368,0.253115469044,0.303358704534,1.0,-0.01566,-0.0205817142857,0.784
0.46049208784,0.513609771963,-0.123967137112,-1.40976259474,0.0763903959419,1.91390185549,0.152170548069,-0.0101996157157,-0.0856567620273,0.000345431588946,-0.128292981712,-0.00678926698764,0.041022763472,-0.0144766082393,0.573914756929,0.818900718897,0.0020521380967,0.0,0.818856396465,-0.573853272718,-0.0121396153514,0.0,-0.00876368230357,0.00864767729512,-0.999924204902,0.0,0.65527725789,0.252773969079,0.303337590085,1.0,-0.016,-0.0210285714286,0.801
0.460277005688,0.512098784015,-0.123978612923,-1.41218307341,0.0762495697404,1.91477070623,0.151825288029,-0.015169205554,-0.091528736222,-0.001700094185,-0.137282452093,-0.0106538357873,0.0541753706385,-0.0208006618851,0.573905097982,0.818907571475,0.00201861132532,0.0,0.818862707642,-0.573843661986,-0.0121681770421,0.0,-0.00880641454656,0.00863651065274,-0.99992392598,0.0,0.654978858877,0.252395206935,0.30331977904,1.0,-0.01636,-0.0215017142857,0.819
0.460105127542,0.510832524479,-0.123973661462,-1.41420566788,0.0761246693914,1.91554689324,0.151536944789,-0.0116200491281,-0.0898412752601,-0.00432883908884,-0.136359916184,-0.011051095193,0.0531571855469,-0.0107319395849,0.57387822448,0.818926372199,0.00203157203172,0.0,0.818881696771,-0.573816752932,-0.0121592618773,0.0,-0.00879195942364,0.00864171914943,-0.999924008182,0.0,0.65471590783,0.252073640645,0.303309806651,1.0,-0.01668,-0.0219222857143,0.835
0.459889325458,0.509249756384,-0.123979690151,-1.41670780127,0.0759733077642,1.91647604325,0.151186280423,-0.00986353157656,-0.089613570257,0.000152252464048,-0.138909786173,-0.00313142642325,0.0498590496623,-0.0185400459927,0.573861724039,0.818937912714,0.00204051551995,0.0,0.818893296393,-0.573800158075,-0.0121611930905,0.0,-0.0087885831652,0.00864997425257,-0.999923966485,0.0,0.654427661282,0.25171235559,0.303308557118,1.0,-0.01702,-0.0223691428571,0.852
0.459686870931,0.507731686636,-0.123983156756,-1.41909433831,0.0758134936296,1.91731754582,0.150854519804,-0.0117235830446,-0.0858826348923,-0.00018875328496,-0.141190027764,-0.0062345407921,0.0477658980986,-0.0145464670867,0.573838554122,0.818954222705,0.00201042724801,0.0,0.818909242404,-0.573777153892,-0.012172808938,0.0,-0.00881560578524,0.00863175072314,-0.99992388609,0.0,0.65412522004,0.251346039882,0.303307656696,1.0,-0.01736,-0.022816,0.869
0.459474962414,0.506262677027,-0.1239885686,-1.42138650169,0.0756690274921,1.91816911847,0.15054788867,-0.0196109019166,-0.0921442847426,0.000685782264193,-0.145670363611,-0.0100205825831,0.0595797647607,-0.0159540113423,0.573844368715,0.818950098887,0.00203049936189,0.0,0.818905412505,-0.573782909287,-0.0121591645371,0.0,-0.00879285245853,0.00864042137031,-0.999924011545,0.0,0.653847146273,0.250986116804,0.30331779503,1.0,-0.01768,-0.0232365714286,0.885
0.459249705032,0.504539392087,-0.12400164177,-1.42400366121,0.0755030461853,1.91918524661,0.15017811966,-0.0134432483684,-0.102294842226,-0.000437816227299,-0.146547318673,-0.0123285629146,0.0507052216085,-0.0260473628977,0.573825631129,0.818962982719,0.00212718045346,0.0,0.818919719423,-0.573763909917,-0.0120919691754,0.0,-0.00868254293457,0.00868083899681,-0.999924625401,0.0,0.653535941296,0.250585489138,0.303364839187,1.0,-0.01804,-0.0237097142857,0.903
0.459029704605,0.502972210121,-0.124007001709,-1.42633048399,0.0753512236704,1.92006958251,0.149855284415,-0.0144113334733,-0.101722144823,0.00531033299173,-0.141805571651,-0.00647872020277,0.0548024909516,-0.0242539177165,0.573823647702,0.818964105373,0.0022276333617,0.0,0.818922282735,-0.573761631544,-0.0120263006966,0.0,-0.00857114305993,0.0087254023228,-0.999925198633,0.0,0.653259126867,0.250218675977,0.303428657114,1.0,-0.01836,-0.0241302857143,0.919
0.458796277315,0.501263347885,-0.124009609484,-1.4288822751,0.0751903496149,1.92097737173,0.149500569937,-0.0119888736506,-0.104779773444,0.000122412535628,-0.156816275364,-0.0187559701167,0.0595999291629,-0.0196231292936,0.573812886452,0.818971492398,0.00228317387269,0.0,0.81893036526,-0.573750611893,-0.0120016294175,0.0,-0.00851918396944,0.00875661862375,-0.999925369783,0.0,0.652938771117,0.249820192525,0.303485657545,1.0,-0.0187,-0.0245771428571,0.936
0.458572640984,0.499650967035,-0.124017330437,-1.4313252238,0.0750375259925,1.92185530555,0.149147565359,-0.0110744644573,-0.103826555353,-0.000133512763272,-0.155891667934,-0.011377401212,0.0545509766752,-0.0175596565188,0.573805287366,0.818976708581,0.00232161470409,0.0,0.818936044175,-0.573742816558,-0.0119867802545,0.0,-0.00848504744348,0.00877950088299,-0.999925459389,0.0,0.652613637123,0.249408864325,0.303523852106,1.0,-0.01904,-0.025024,0.953
0.45830361281,0.497872510311,-0.124020790282,-1.43413093796,0.0748650117983,1.92289581434,0.148747184439,-0.0168063114387,-0.100265140044,-0.000374377852012,-0.157611966589,-0.00392643133737,0.0541226632133,-0.0283515847217,0.573786410505,0.818989904275,0.00233210565434,0.0,0.818949368751,-0.573723891212,-0.0119822775886,0.0,-0.00847554282506,0.00878531364525,-0.999925488943,0.0,0.652287388212,0.248991983487,0.303519186646,1.0,-0.01938,-0.0254708571429,0.97
0.458054699335,0.496291097181,-0.124024746681,-1.43664229019,0.0747102587488,1.9237886339,0.148365191948,-0.0122796617473,-0.0945864026683,-0.000517061990889,-0.15639425073,-0.00881012498702,0.0564092867374,-0.026208642679,0.573765387259,0.819004721975,0.00230057973788,0.0,0.818963679526,-0.573702900684,-0.0120091742257,0.0,-0.0085158850862,0.00877470868779,-0.9999252393,0.0,0.651970816997,0.248586051979,0.30350357745,1.0,-0.0197,-0.0258914285714,0.986
0.457767810447,0.494514613209,-0.124030651359,-1.43953706282,0.0745269825461,1.92478401729,0.147974594278,-0.0162803326868,-0.0932997557566,-0.00172694145251,-0.161403989513,-0.0108316576868,0.0531572439975,-0.0201368662197,0.57378069139,0.818994295426,0.00219297723059,0.0,0.818951716406,-0.57371851842,-0.012078688592,0.0,-0.00863439164417,0.00872662877306,-0.999924643776,0.0,0.651597097253,0.248113928361,0.30344979102,1.0,-0.0209674285714,-0.0275571918367,1.004
0.457503854381,0.492664262483,-0.124076717369,-1.44242249456,0.0743537904375,1.92586479441,0.14755509155,-0.0215258581935,-0.129036468084,-0.00258258050943,-0.188651437804,-0.0110559548387,0.0760452038392,-0.0277451947485,0.573784781635,0.818991348043,0.00222330723241,0.0,0.818949301285,-0.573722618016,-0.0120476721052,0.0,-0.00859154298605,0.00873371496372,-0.99992495099,0.0,0.651246034682,0.247642645751,0.303459644367,1.0,-0.0262337142857,-0.0344785959184,1.02
0.457190996695,0.490442450586,-0.124085998369,-1.44596191443,0.0741522910951,1.92716817282,0.147038941812,-0.0188557600698,-0.144249573847,0.0015177636471,-0.238470637742,-0.0080826574597,0.0865869854522,-0.0380706520309,0.573747856941,0.81901723179,0.0022175634078,0.0,0.818974903513,-0.573685512555,-0.01207422884,0.0,-0.00861698338398,0.00874386004553,-0.999924643415,0.0,0.650793800477,0.247099167213,0.303434054097,1.0,-0.0315,-0.0414,1.036
0.456709838299,0.487393863115,-0.124111499659,-1.4507894466,0.0738680373155,1.9289279874,0.146337135926,-0.0304063605734,-0.183860160542,-0.00206513373554,-0.277705711286,-0.0147625301386,0.0992541188422,-0.0431147259238,0.57374884615,0.819016576942,0.00220343721868,0.0,0.818973897431,-0.573686392881,-0.0121006136865,0.0,-0.00864668772606,0.0087474391224,-0.999924355689,0.0,0.650187179112,0.246312883485,0.30340874308,1.0,-0.0374245714286,-0.0491865795918,1.054
0.456188895497,0.484018634125,-0.124177023904,-1.45602612875,0.07354054037,1.93087668996,0.145545530252,-0.0294275947661,-0.204628779814,-0.00228578719806,-0.326238628819,-0.0315029315764,0.11164332457,-0.0492156838219,0.573744393179,0.819019538256,0.00226144918947,0.0,0.818977857328,-0.573681940323,-0.0120435648647,0.0,-0.00856672731155,0.00876217332565,-0.999924914932,0.0,0.64954349661,0.245439377106,0.303430635285,1.0,-0.04302,-0.0565405714286,1.071
0.455648740151,0.480651671873,-0.12423808255,-1.46133388462,0.0732307673505,1.93271964304,0.144743227735,-0.0372069388115,-0.236212407827,-0.00753525888264,-0.373163949242,-0.0252465441004,0.12922914511,-0.0578687441213,0.573751914744,0.819014504104,0.00217469452467,0.0,0.818971440288,-0.573689575727,-0.0121160057731,0.0,-0.00867575191585,0.00873276235113,-0.999924232225,0.0,0.648811823065,0.244477791846,0.303397194414,1.0,-0.0482862857143,-0.0634619755102,1.087
0.454916104915,0.476093832793,-0.12432278965,-1.4683581323,0.0727923025069,1.93526193901,0.143724255122,-0.0421177626649,-0.260522126102,-0.00447221380952,-0.402982243465,-0.0248683291795,0.146459229411,-0.0584473173493,0.57379860025,0.818981648093,0.00223009845832,0.0,0.818939491349,-0.573736204256,-0.0120674908731,0.0,-0.00860373098746,0.0087507935485,-0.999924696877,0.0,0.647975123351,0.243349742388,0.303437503712,1.0,-0.0538817142857,-0.0708159673469,1.104
0.454123660487,0.471341575903,-0.124374876348,-1.47569005916,0.0723621299742,1.93789681394,0.142640692767,-0.049476183308,-0.291885440831,-0.000988193135907,-0.439722456939,-0.0321556006039,0.151075900215,-0.0681488518135,0.57383389007,0.818956767019,0.00228632047094,0.0,0.818915057754,-0.573770959669,-0.0120731489638,0.0,-0.00857572786178,0.00880045373182,-0.999924501603,0.0,0.647036710422,0.242110854006,0.303463945138,1.0,-0.0594771428571,-0.0781699591837,1.121
0.453302393247,0.46639402959,-0.124411809054,-1.48310695922,0.0719066976871,1.94067187053,0.141447482762,-0.0517419884289,-0.315504098521,-0.0035870483756,-0.470819350125,-0.0241821300191,0.171278996756,-0.0827319600139,0.573785210364,0.818990102622,0.00254775883635,0.0,0.818951852128,-0.57372127558,-0.0119377025926,0.0,-0.00831531691752,0.0089363410634,-0.999925495881,0.0,0.646105714417,0.240861287643,0.303590552141,1.0,-0.0647434285714,-0.0850913632653,1.137
0.452340114518,0.4607858282,-0.124437357948,-1.49182214934,0.0713371126172,1.94367348515,0.140121663691,-0.0619462204381,-0.343696119567,-0.00073510152823,-0.532227494398,-0.0363388941108,0.177071546386,-0.0841648109026,0.573758365701,0.819009198783,0.00245295695162,0.0,0.818969433053,-0.573694515296,-0.0120173934344,0.0,-0.00843527022385,0.00890414821332,-0.999924778351,0.0,0.644938936976,0.239382438613,0.303568144931,1.0,-0.0703388571429,-0.092445355102,1.154
0.451219124784,0.454403566005,-0.124505694009,-1.50174165233,0.0706766182899,1.9470917997,0.138608146597,-0.0675075013403,-0.35845548477,-0.00428030213764,-0.562433748664,-0.0323773583607,0.204073490573,-0.0976474816163,0.573763454655,0.819005986069,0.00233233491093,0.0,0.818964562608,-0.573700015406,-0.0120865386582,0.0,-0.00856105176435,0.0088450841108,-0.99992423357,0.0,0.643610228078,0.237660439262,0.303534333902,1.0,-0.0762634285714,-0.100231934694,1.172
0.450222512982,0.448580976376,-0.124548561089,-1.51029162804,0.0700756788515,1.95034697423,0.137230167845,-0.0662237100299,-0.392064061227,-0.000494558720029,-0.573607763525,-0.039984165204,0.21558386147,-0.0909539788646,0.573706549365,0.819044574909,0.00274343375116,0.0,0.819009297245,-0.573642352539,-0.0117885241346,0.0,-0.008081732546,0.00901022472672,-0.999926748042,0.0,0.642526698768,0.236187440339,0.303742800048,1.0,-0.0812005714286,-0.10672075102,1.187
0.448914609636,0.441347627607,-0.124578694509,-1.52143273398,0.0693510837123,1.95418753685,0.135529161936,-0.0775251725948,-0.399418208023,-0.00289828648597,-0.629631688898,-0.047727665601,0.218964936762,-0.104112711024,0.573706344853,0.819044899285,0.00268881626388,0.0,0.81900845553,-0.573641845328,-0.0118713925094,0.0,-0.00818094346735,0.00901302998909,-0.999925915983,0.0,0.640998920802,0.234259784986,0.303726350986,1.0,-0.0871251428571,-0.114507330612,1.205
0.447572846957,0.434050008116,-0.124606158637,-1.53256977644,0.0685928148293,1.95801003284,0.133721550926,-0.0786376381204,-0.442114750731,-0.00166886447189,-0.665171373009,-0.0471911000383,0.24001831376,-0.100465408996,0.573624241804,0.819102482586,0.0026644205147,0.0,0.819065484506,-0.573559585832,-0.0119113598503,0.0,-0.00822857892315,0.00901515321244,-0.999925505976,0.0,0.639457141015,0.232311273904,0.303741168,1.0,-0.0927205714286,-0.121861322449,1.222
0.446199306025,0.426868657306,-0.124632737173,-1.54351972876,0.0678110212802,1.96190174753,0.131937135662,-0.0873260153776,-0.45002018791,-0.00136781641127,-0.701953079093,-0.0529726472799,0.232129166479,-0.120427334028,0.573561895044,0.819145911944,0.00273393485641,0.0,0.819110087898,-0.573497281575,-0.011843936451,0.0,-0.00813416452487,0.0090327981655,-0.999926119233,0.0,0.637960936538,0.230368409216,0.303759061042,1.0,-0.0979868571428,-0.128782726531,1.238
0.444600514123,0.418877015034,-0.124743870727,-1.5557715215,0.0669267548391,1.96600731063,0.129915224916,-0.0989420194115,-0.485046877449,-0.00885129044129,-0.721628890914,-0.0537762375883,0.244635571973,-0.115977370883,0.57356724785,0.819142734086,0.00255739903833,0.0,0.819104781449,-0.573503489239,-0.0119101527786,0.0,-0.00828959743904,0.00892622318854,-0.999925799804,0.0,0.636242105863,0.228094967437,0.303715682414,1.0,-0.103582285714,-0.136136718367,1.255
0.442789143757,0.409941649251,-0.124830397157,-1.56918157816,0.066000150124,1.97075441888,0.127686448251,-0.103022408002,-0.496570580789,-0.000258917234953,-0.762690975941,-0.0483101809688,0.260765522491,-0.131136152217,0.573585608863,0.819129211641,0.00276239809111,0.0,0.819094127342,-0.573521299661,-0.0117845785002,0.0,-0.00806895370532,0.00902230239529,-0.999926742339,0.0,0.634390001632,0.22562008303,0.303797665372,1.0,-0.109506857143,-0.143923297959,1.273
0.441119941744,0.402259536977,-0.124907993933,-1.58098275516,0.0651926364088,1.97461292277,0.125718343354,-0.115545636724,-0.51488760968,-0.00472678840409,-0.79646322419,-0.0500810885326,0.255094764889,-0.143148791205,0.573648557331,0.819085848995,0.00253998997802,0.0,0.819047253929,-0.573584409895,-0.0119694384911,0.0,-0.00834725974642,0.00894679519253,-0.999925136253,0.0,0.632680710619,0.223379587045,0.303704942973,1.0,-0.114444,-0.150412114286,1.288
0.439009508383,0.392511954861,-0.125033666078,-1.59535939371,0.0641282407419,1.97967892627,0.123254893126,-0.117424164415,-0.5314883946,-0.000763229239817,-0.801981429419,-0.0689723627077,0.281604127527,-0.142420139143,0.573718437932,0.819035887009,0.00284897695828,0.0,0.819002149407,-0.573654053605,-0.011715500398,0.0,-0.00796124135808,0.00905489117512,-0.999927311149,0.0,0.630675187997,0.22060731206,0.303863461272,1.0,-0.120368571429,-0.158198693878,1.306
0.436875191669,0.383079852993,-0.125113587665,-1.60962567739,0.0630526654655,1.98432565928,0.120725331929,-0.125111615573,-0.571817208513,-0.0052323968827,-0.85014439778,-0.0674163623658,0.276641314081,-0.152056936336,0.573692761639,0.819054541458,0.00264957752673,0.0,0.819018120492,-0.573628997114,-0.0118253488874,0.0,-0.00816588842981,0.00895434146544,-0.999926566321,0.0,0.628564519478,0.217839207918,0.303803783308,1.0,-0.125964,-0.165552685714,1.323
0.434766151863,0.373828025861,-0.125179144567,-1.62333939548,0.0620628378145,1.98899636791,0.118266847375,-0.139022460313,-0.57939220722,-0.00614388375459,-0.872129496084,-0.0680041621739,0.284175899203,-0.160341631364,0.57368481688,0.81905957219,0.00280980182022,0.0,0.819025160503,-0.573620387932,-0.0117551653673,0.0,-0.00801657545056,0.00904523242669,-0.999926956477,0.0,0.626554432049,0.215180821242,0.303865070043,1.0,-0.131230285714,-0.172474089796,1.339
0.432336485552,0.363686355179,-0.125293784253,-1.63838631051,0.0608879599234,1.99394636835,0.115645274243,-0.143496523431,-0.608868468288,-0.00759892171032,-0.8884954347,-0.069903497798,0.302486699068,-0.166848489951,0.573817185137,0.818966924848,0.00278584783533,0.0,0.81893257519,-0.573753244393,-0.0117217209433,0.0,-0.00800146657398,0.00900771988505,-0.999927416123,0.0,0.624310709945,0.212155138468,0.303886974183,1.0,-0.136825714286,-0.179828081633,1.356
0.429794839408,0.353258940943,-0.125403087937,-1.65391170672,0.0596932755009,1.99897940167,0.112748309018,-0.152366080033,-0.61472087178,-0.0032163172508,-0.945914895951,-0.0660845385026,0.295918082938,-0.166274006384,0.573804518356,0.818976119597,0.00269019407526,0.0,0.818940470576,-0.573740858442,-0.0117762434259,0.0,-0.00810114385836,0.00896054300718,-0.999927037407,0.0,0.621939944338,0.209029660536,0.303851665577,1.0,-0.142421142857,-0.187182073469,1.373
0.427221153423,0.34305997556,-0.125508946138,-1.66879510546,0.0585946853876,2.00382217711,0.109951972967,-0.162635755433,-0.649352885288,-0.0037445497197,-0.930448034418,-0.072459542693,0.302773930484,-0.160576753874,0.573887426254,0.81891759237,0.00281882864842,0.0,0.818883268763,-0.573822905662,-0.0117563590595,0.0,-0.00801013503035,0.00905529260291,-0.999926917036,0.0,0.619660533923,0.205973067497,0.303925212912,1.0,-0.147687428571,-0.194103477551,1.389
0.423706278048,0.32939978975,-0.125560200809,-1.68890121558,0.05696595593,2.01021096785,0.10606625548,-0.176530947774,-0.668297401804,-0.00263672893355,-0.968351069272,-0.0813275198444,0.313578296968,-0.192818103058,0.573791349108,0.818985265168,0.00271477959923,0.0,0.818949471047,-0.573727086201,-0.0118212237767,0.0,-0.00812402191282,0.00900635665601,-0.999926440198,0.0,0.616476876321,0.201867983515,0.303890501031,1.0,-0.154599428571,-0.203187820408,1.41
0.420697533848,0.317926458428,-0.125571904404,-1.70554015426,0.0555887406765,2.01551014232,0.102819909456,-0.183622273758,-0.674287944553,-9.7159197683e-05,-0.983179971559,-0.0778688106632,0.31035477449,-0.186216268252,0.57370800733,0.819043435884,0.00277837394068,0.0,0.819008549492,-0.573643613452,-0.0117791131423,0.0,-0.00805396389662,0.00903345746212,-0.999926762474,0.0,0.613807416438,0.198448645434,0.303934067349,1.0,-0.160194857143,-0.210541812245,1.427
0.418472130131,0.309634907405,-0.125628397315,-1.7174706257,0.0546303277067,2.01926927319,0.100368461575,-0.187300419963,-0.701325132602,-0.00886238133685,-0.995000672296,-0.083282832161,0.321143421146,-0.205286142249,0.573625824932,0.819100625832,0.00288524396637,0.0,0.819067132197,-0.573561067213,-0.0117252732743,0.0,-0.0079494681204,0.009089303053,-0.999927092606,0.0,0.611718766645,0.19572893762,0.303997438775,1.0,-0.164473714286,-0.216165453061,1.44
0.414957402521,0.297011289991,-0.125708552816,-1.7358178565,0.0530455596861,2.02487552167,0.0966205008825,-0.200077801203,-0.709376075001,-0.00131788512403,-1.03882697014,-0.0884210384795,0.305977371543,-0.211844388422,0.573548030477,0.819155763713,0.00269042969543,0.0,0.819119697698,-0.573483938964,-0.0118253750178,0.0,-0.00814406268309,0.00898637752551,-0.999926456927,0.0,0.608836615157,0.192032604322,0.303927282706,1.0,-0.170069142857,-0.223519444898,1.457
0.41140507018,0.284685153377,-0.125835289005,-1.75327854137,0.0516343614267,2.03029174937,0.0929725029858,-0.208600421248,-0.731285528855,-0.0114500173789,-1.04518979029,-0.0941373703639,0.315540872518,-0.217530502529,0.573616145298,0.819107307505,0.00291265290365,0.0,0.819073896427,-0.573550979603,-0.0117461861399,0.0,-0.00795098505743,0.00912365563687,-0.999926767691,0.0,0.60595396342,0.188205257804,0.304040374197,1.0,-0.175664571429,-0.230873436735,1.474
0.407879802794,0.2729191232,-0.125950460247,-1.77005661773,0.0501772635253,2.03528810674,0.0893303148929,-0.230413810731,-0.750819734673,-0.0107162232938,-1.04082609587,-0.0935761789976,0.337918036173,-0.233063241779,0.573593286223,0.819123529699,0.00285166510285,0.0,0.8190892474,-0.573528250424,-0.0117854851193,0.0,-0.0080184120522,0.0090960184888,-0.999926481055,0.0,0.603107681534,0.184464064905,0.304043327388,1.0,-0.180930857143,-0.237794840816,1.49
0.403891773983,0.260178816367,-0.126122083054,-1.78820371723,0.0485670223442,2.04066586569,0.0853700365258,-0.24118925931,-0.765187732691,-0.00834183108299,-1.07905217182,-0.0984390920003,0.314388682588,-0.24065385723,0.57369163203,0.819054965909,0.00276062659481,0.0,0.819019618293,-0.573627046895,-0.0118162101624,0.0,-0.00809471137886,0.00904004228123,-0.999926373931,0.0,0.600004106414,0.180310329703,0.30401208518,1.0,-0.186526285714,-0.245148832653,1.507
0.39966516779,0.247132536752,-0.12629358422,-1.80652278415,0.0468878310312,2.04605358077,0.0812417377535,-0.252333202081,-0.752604474116,-0.00241568195769,-1.09833522386,-0.101002990388,0.311444897177,-0.248230399739,0.573803720923,0.818976457872,0.00275648455858,0.0,0.818941470666,-0.573739599146,-0.0117680455753,0.0,-0.00805640304637,0.00901012133012,-0.999926953374,0.0,0.59664489693,0.175774109544,0.304036417448,1.0,-0.192450857143,-0.252935412245,1.525
0.39557262687,0.234555990813,-0.126388269879,-1.82393893514,0.0453806221733,2.05112315742,0.0771813059367,-0.2577828121,-0.816810035974,-0.0075970291982,-1.08390114366,-0.0899566427468,0.333203343255,-0.254563455206,0.573798470086,0.818979406578,0.0029655065595,0.0,0.818946693247,-0.573733109052,-0.0117209256686,0.0,-0.00789793951011,0.00915421725438,-0.999926908758,0.0,0.593759922513,0.171996024151,0.304137825344,1.0,-0.197388,-0.259424228571,1.54
0.390764644778,0.220310128737,-0.126463052839,-1.84394512024,0.0434848647135,2.05674454414,0.0724164306073,-0.272494097782,-0.782809710384,-0.00697184933858,-1.1054534773,-0.101963066154,0.310992389396,-0.267964962183,0.573681032366,0.819062317902,0.00278197716486,0.0,0.819027043107,-0.573616141067,-0.0118309876319,0.0,-0.00809468499476,0.00906590227661,-0.999926140018,0.0,0.590120693013,0.167331316163,0.304047646375,1.0,-0.203312571429,-0.267210808163,1.558
0.385897749335,0.206471452341,-0.126624546735,-1.86292735705,0.0417142429967,2.0621084806,0.0677493060806,-0.289656811449,-0.792902451133,-0.0122457613645,-1.12129553665,-0.100881846152,0.312037107542,-0.274373887306,0.573748808236,0.8190143644,0.00291939283597,0.0,0.818980935044,-0.573683479759,-0.0117575501884,0.0,-0.00795494821097,0.0091369833982,-0.999926614474,0.0,0.586673352105,0.162728291394,0.304109187225,1.0,-0.208908,-0.2745648,1.575
0.381138846465,0.193205388943,-0.126768109741,-1.88098757225,0.0399935980665,2.0670310023,0.0631532081778,-0.304953628546,-0.825715383185,-0.0105007667311,-1.13646746114,-0.103337445445,0.313832269565,-0.276690325343,0.573737271585,0.819022194609,0.00298911902207,0.0,0.818989528939,-0.573671536142,-0.0117416783667,0.0,-0.00790207482264,0.00918487252704,-0.999926594971,0.0,0.583311350407,0.158311229103,0.3041618536,1.0,-0.214174285714,-0.281486204082,1.591
0.375702951829,0.178908483136,-0.126996626373,-1.90037123085,0.0381396261778,2.07219407964,0.0580607602582,-0.324907698731,-0.843701443996,-0.0147194391364,-1.13471933962,-0.108144184932,0.309923303668,-0.302714172875,0.573886308016,0.818917643759,0.00302408872066,0.0,0.818885099381,-0.573820042445,-0.0117685938216,0.0,-0.00790237854997,0.00923039376505,-0.999926173397,0.0,0.579668436669,0.153381700132,0.304188603712,1.0,-0.219769714286,-0.288840195918,1.608
0.370124182568,0.164467157668,-0.127106168953,-1.92005468162,0.0361237916949,2.07723161451,0.0528221981315,-0.330728371563,-0.838835958051,0.00122401682664,-1.1639461664,-0.119576818646,0.289016937909,-0.30741955218,0.573842378956,0.818949255031,0.00279082418279,0.0,0.81891334216,-0.5737765902,-0.0119209677057,0.0,-0.00816151517287,0.00912637533762,-0.999925046663,0.0,0.575839281455,0.148441281339,0.30409152114,1.0,-0.225365142857,-0.296194187755,1.625
0.364695729705,0.150505774593,-0.127222936651,-1.93848868712,0.0342268010045,2.08208673982,0.0476608599123,-0.348042307578,-0.856708042454,-0.0087221273167,-1.17774496967,-0.127085196173,0.303013645208,-0.320326244143,0.573733305757,0.819024770719,0.00304396374563,0.0,0.818992683292,-0.573667224243,-0.0117323247671,0.0,-0.00786299375673,0.00922438710677,-0.999926539308,0.0,0.572252943996,0.143753620456,0.304214826826,1.0,-0.230631428571,-0.303115591837,1.641
0.358250271457,0.134575715261,-0.127382349333,-1.9594853385,0.0321041324244,2.08726419092,0.0416377279606,-0.359340720065,-0.895638344191,-0.00950530122844,-1.17242700529,-0.119297841609,0.300933905189,-0.340161600326,0.573701422699,0.819046789999,0.00312734491367,0.0,0.8190151607,-0.573634318982,-0.0117720657001,0.0,-0.00784807135322,0.00931517308322,-0.999925814912,0.0,0.5680495253,0.138306978297,0.30427250202,1.0,-0.236556,-0.310902171429,1.659
0.351742689394,0.11933750966,-0.127598768114,-1.97941113064,0.0299451777529,2.09208056366,0.0357192149489,-0.392818765503,-0.922993517993,-0.0162935648588,-1.15678895069,-0.124065395819,0.286714194299,-0.350130491285,0.573779499003,0.818991968148,0.00316062225038,0.0,0.818961056228,-0.573712610013,-0.0117207676916,0.0,-0.00778607566551,0.00931374206893,-0.999926312902,0.0,0.564023342161,0.132928603202,0.304320296068,1.0,-0.242151428571,-0.318256163265,1.676
0.345725061927,0.105755023362,-0.127771281919,-1.99715786894,0.0279831265149,2.09627282702,0.0302444438224,-0.397014482485,-0.922584086749,-0.00725285646438,-1.19935865038,-0.119774113,0.269685812135,-0.370353752413,0.573798454002,0.818978845353,0.00311960754603,0.0,0.818947526249,-0.573731851555,-0.0117242766508,0.0,-0.00781226675089,0.0092823454131,-0.999926400567,0.0,0.56037192567,0.128078359211,0.304302961334,1.0,-0.247088571429,-0.324744979592,1.691
0.338788483493,0.0901210395994,-0.127890502728,-2.01723315109,0.0257721073367,2.10089759688,0.023811203114,-0.410958849286,-0.911053834407,-0.00961848140975,-1.18258957474,-0.122174742786,0.264757109089,-0.381518469868,0.573655729104,0.819078392385,0.00323086611942,0.0,0.819048263616,-0.573588465025,-0.0117030576691,0.0,-0.00773268300155,0.00935994157287,-0.999926295838,0.0,0.555891866324,0.122309583437,0.304354031664,1.0,-0.253013142857,-0.332531559184,1.709
0.331016543833,0.0733147920066,-0.128074708962,-2.0386056349,0.0233604734269,2.10561316617,0.0167055663146,-0.434017142908,-0.924881576387,-0.00241231439189,-1.19328897828,-0.147555326996,0.262896298764,-0.391685794158,0.573539909085,0.819159174465,0.00331156741333,0.0,0.819130224966,-0.573472555843,-0.0116468512193,0.0,-0.00764167912756,0.00939271978868,-0.99992668809,0.0,0.551569834397,0.116669308587,0.304412792056,1.0,-0.258608571429,-0.33988555102,1.726
0.324149590015,0.0592135330536,-0.128312524617,-2.05648908849,0.0213137604147,2.10935011027,0.0105796095238,-0.469190338022,-0.944725686558,-0.0204661191141,-1.17152052724,-0.139431181707,0.24606127112,-0.418951022898,0.573633129965,0.819094131106,0.00325322852213,0.0,0.819063980559,-0.573565415406,-0.0117327278269,0.0,-0.00774441824023,0.00939506457349,-0.999925875627,0.0,0.547670156366,0.111496323813,0.304396074185,1.0,-0.25998,-0.341688,1.741
0.31569365555,0.0424257743853,-0.128499647587,-2.07770945507,0.0188579798418,2.1136335883,0.00311134854607,-0.468390688007,-0.935852736701,-0.0060132979354,-1.17829498667,-0.126958914148,0.220375439972,-0.411081713204,0.573701073454,0.819047037766,0.00312652287178,0.0,0.819014313247,-0.57363268931,-0.0119096328087,0.0,-0.00796122702801,0.00939341696186,-0.999924188417,0.0,0.542940785694,0.105330140879,0.304315485536,1.0,-0.25998,-0.341688,1.759
0.307501773194,0.0265303882758,-0.128686635869,-2.09719573633,0.0164917449416,2.11748533497,-0.00413523844374,-0.494191496402,-0.916831332438,-0.0145001203678,-1.15705056698,-0.148033616106,0.220629186756,-0.439467632313,0.57371792075,0.819034609613,0.00328672588985,0.0,0.819004385488,-0.573649461707,-0.0117838251477,0.0,-0.00776608161326,0.00945261657207,-0.999925165208,0.0,0.53854964714,0.0995119703648,0.304419916402,1.0,-0.25998,-0.341688,1.776
0.299086029114,0.0108182135849,-0.128901925628,-2.11632081226,0.0141404670395,2.12104676542,-0.0115537590518,-0.500046947594,-0.910178538987,-0.0145863294759,-1.11987076461,-0.146618229352,0.195262149686,-0.430737879394,0.573765765031,0.819000733727,0.00337519390744,0.0,0.81897170517,-0.573697054597,-0.0117380824234,0.0,-0.00767730712589,0.00949928104193,-0.999925408526,0.0,0.53414902776,0.0936683377856,0.304488308375,1.0,-0.25998,-0.341688,1.793
0.290402514764,-0.00467976045459,-0.129068526347,-2.13508444567,0.0118675808742,2.12435977343,-0.0191626631856,-0.506909827254,-0.903593420581,-0.00542232480905,-1.07393390386,-0.120406467863,0.198318606792,-0.45366680318,0.573832195029,0.8189539334,0.0034371236684,0.0,0.818925024983,-0.573762414651,-0.0118000801685,0.0,-0.00769177778352,0.0095861970546,-0.999924467838,0.0,0.529742947912,0.0878286958985,0.304510125468,1.0,-0.25998,-0.341688,1.81
0.282190316541,-0.0191584692092,-0.129198450057,-2.15254231462,0.00958236214023,2.12735079002,-0.0264353174058,-0.519064428823,-0.901043173228,-0.00865082233875,-1.0940322285,-0.141679481527,0.175173035827,-0.476570063203,0.573723677158,0.81903028356,0.00335913405803,0.0,0.819000410332,-0.57365424349,-0.0118272440597,0.0,-0.00776003895387,0.00953688573903,-0.999924411946,0.0,0.525288689711,0.082058404811,0.304475168842,1.0,-0.25998,-0.341688,1.827
0.273687738587,-0.0336305432997,-0.129397509916,-2.16950629668,0.00733214512481,2.13010836742,-0.0338307195381,-0.540479769284,-0.894146609994,-0.0155794716543,-1.07246897183,-0.141850958306,0.177078968632,-0.472741204124,0.573793059241,0.818980896699,0.00354441942937,0.0,0.818954303783,-0.573724094682,-0.0116300644028,0.0,-0.00749142597812,0.00957615214953,-0.999926085192,0.0,0.521190850239,0.0765532518477,0.304597302192,1.0,-0.25998,-0.341688,1.843
0.263851533724,-0.049696775065,-0.129582430283,-2.18835366367,0.00496712074582,2.13290786523,-0.0423786585377,-0.548100850932,-0.909818456072,-0.00992728761725,-1.01771678156,-0.133691988549,0.167354656426,-0.469000074498,0.573885547975,0.818915740129,0.00362426486546,0.0,0.818889165282,-0.573815006124,-0.0117311820406,0.0,-0.00752733698199,0.00970041382725,-0.999924617744,0.0,0.516764708806,0.0707298645851,0.304620221159,1.0,-0.25998,-0.341688,1.86
0.2544780917,-0.0646303922108,-0.129741273893,-2.20586384709,0.00257724802263,2.13539802585,-0.0506391799124,-0.554175237738,-0.866350713859,-0.0120075067041,-1.03579500334,-0.135306381767,0.130510835711,-0.487140111623,0.57378784437,0.818984633994,0.00352503002312,0.0,0.818956593774,-0.573717424602,-0.0117966572565,0.0,-0.00763905695457,0.00965581102295,-0.999924202189,0.0,0.512322540108,0.064957308007,0.304560391956,1.0,-0.25998,-0.341688,1.877
0.245351487927,-0.0787041576656,-0.129953664537,-2.22190132225,0.000386423941967,2.13754084187,-0.0586265979801,-0.586384541444,-0.863833237211,-0.0122934867758,-0.996957360657,-0.137455387765,0.126741054543,-0.513429952535,0.573819708785,0.818961725304,0.00365803200978,0.0,0.818935647328,-0.573749141428,-0.0117079095761,0.0,-0.00748968130083,0.00971410910205,-0.999924767549,0.0,0.508201702707,0.0594536266465,0.304633079887,1.0,-0.25998,-0.341688,1.893
0.234939911798,-0.0942917654415,-0.130081983136,-2.23972433601,-0.00199692775265,2.13960783854,-0.0677473545597,-0.578235927874,-0.86381828973,-0.00577624685765,-0.957746117395,-0.131449678517,0.113562640663,-0.501316257543,0.573776951958,0.81899195783,0.00359573529616,0.0,0.818963774992,-0.573704940133,-0.0119047813624,0.0,-0.00768717709473,0.00977565432752,-0.999922668955,0.0,0.503478749621,0.0533671300815,0.304587347791,1.0,-0.25998,-0.341688,1.911
0.224870642199,-0.108909436858,-0.130270844905,-2.25621621811,-0.00438702698053,2.14142947491,-0.0765332642345,-0.596755795889,-0.834937450194,-0.00757060340606,-0.964732958576,-0.133277360349,0.0977473322889,-0.520665175343,0.573753699349,0.819008553003,0.0035255484789,0.0,0.818979468522,-0.57368195849,-0.011932625159,0.0,-0.00775052773056,0.00973392705569,-0.999922586996,0.0,0.499043661345,0.0475675598834,0.304564769479,1.0,-0.25998,-0.341688,1.928
0.21504203508,-0.12263384663,-0.130508719574,-2.27141239137,-0.0065832830032,2.14299555173,-0.0850269644022,-0.620985655363,-0.850337319865,-0.0105165180903,-0.956315956231,-0.134283055774,0.0971003614253,-0.539461220303,0.573884232708,0.818916780566,0.00359734042325,0.0,0.818888786009,-0.573812412551,-0.0118835286141,0.0,-0.00766757003185,0.00976577945413,-0.99992291599,0.0,0.494897350766,0.0420181911925,0.304599494024,1.0,-0.25998,-0.341688,1.944
0.203960696241,-0.137861144191,-0.130678306638,-2.28823029944,-0.00897440001631,2.14441621857,-0.0948460426787,-0.619778516507,-0.85368550972,-0.0167136117195,-0.91265963177,-0.128016092853,0.0847907408172,-0.55285390478,0.573763305076,0.819001785141,0.00353448511467,0.0,0.818971816997,-0.573690276275,-0.0120572291107,0.0,-0.00784734350924,0.00981282824845,-0.999921060685,0.0,0.49016580126,0.0359391611029,0.304560440826,1.0,-0.25998,-0.341688,1.962
0.193081707643,-0.152146338476,-0.13095311775,-2.30361966554,-0.0112958051527,2.14573474442,-0.10429947441,-0.648738450381,-0.822268902179,-0.0204764504256,-0.905845653128,-0.1327100625,0.0586016763262,-0.562195601696,0.573883142893,0.818917164914,0.00368269111869,0.0,0.818889867995,-0.573810491325,-0.0119017243254,0.0,-0.00763350651058,0.00984610697382,-0.999922388866,0.0,0.485803423168,0.0300562406227,0.304629882102,1.0,-0.25998,-0.341688,1.979
0.182787601976,-0.165471327443,-0.131078567356,-2.31785883942,-0.0134135890749,2.14663298238,-0.113384150971,-0.647795192359,-0.817032336769,-0.00240334229811,-0.883066631077,-0.121656263117,0.0624681067323,-0.574501453085,0.573788510063,0.818983356666,0.00370865541602,0.0,0.818956059688,-0.573715343298,-0.0119341554556,0.0,-0.00764630939394,0.00988509742271,-0.999921906351,0.0,0.481635830639,0.0246661790732,0.304660859331,1.0,-0.25998,-0.341688,1.995
0.172289915035,-0.17861261502,-0.131259251838,-2.33183823064,-0.0154949955249,2.14744039638,-0.122703154743,-0.663035358844,-0.802340789604,-0.00694839614037,-0.881261123063,-0.143708822289,0.0420713694983,-0.585335705736,0.57371190725,0.81903685604,0.00374470681432,0.0,0.819009507172,-0.573637945909,-0.0119867041533,0.0,-0.00766959422243,0.00994405683782,-0.99992114342,0.0,0.477475942482,0.0192578206793,0.304657150486,1.0,-0.25998,-0.341688,2.011
0.160695456016,-0.192519538034,-0.131531677953,-2.34635256902,-0.0177946988017,2.14816847396,-0.132829260359,-0.675366743847,-0.803871415917,-0.00779558040948,-0.830614470968,-0.130381749307,0.0413721859478,-0.586876005942,0.573814054509,0.818964903234,0.00382949343689,0.0,0.818939222627,-0.573740512865,-0.0118794125107,0.0,-0.00753183139991,0.00995288786015,-0.999922102736,0.0,0.473083829246,0.0133650526804,0.304707333071,1.0,-0.25998,-0.341688,2.028
0.149797679623,-0.205434525006,-0.131690915089,-2.35981363174,-0.0198094921494,2.14864184501,-0.142608454001,-0.682399526202,-0.800172329427,-0.00532126908349,-0.867306333735,-0.129863101513,0.0232673631419,-0.605455747128,0.573665980293,0.819068436918,0.00387112393854,0.0,0.819042445111,-0.573591184503,-0.0119738493726,0.0,-0.00758710559954,0.0100397981514,-0.999920816006,0.0,0.468900503983,0.00799406684076,0.304690231998,1.0,-0.25998,-0.341688,2.044
0.136295638692,-0.220635521629,-0.132042181446,-2.37528503073,-0.0223011431517,2.14900766016,-0.154388407041,-0.71724684346,-0.816500243446,-0.0169578070952,-0.821120595026,-0.13629496509,0.0211322776692,-0.619432740735,0.573881360111,0.818917033037,0.00397799203678,0.0,0.818892704016,-0.573806512799,-0.011898406618,0.0,-0.0074613537611,0.0100860166157,-0.999921297137,0.0,0.463989408537,0.00139864826184,0.304750915594,1.0,-0.25998,-0.341688,2.063
0.124946074744,-0.233234449549,-0.132194049349,-2.38817988488,-0.0243655595878,2.14913860416,-0.164607137794,-0.71461774593,-0.79903393458,-0.0221906158618,-0.816477571171,-0.138848760574,0.000440046582596,-0.65451830882,0.573683454277,0.819056009104,0.00391090021855,0.0,0.81903013499,-0.5736079789,-0.0120113038973,0.0,-0.00759475328678,0.0100940257854,-0.999920212,0.0,0.459785880819,-0.00396446169974,0.304699455416,1.0,-0.25998,-0.341688,2.079
0.112384247503,-0.246544478931,-0.132522306687,-2.40129726772,-0.0264783668962,2.14921853863,-0.175685459574,-0.748418266533,-0.782092496128,-0.0209268398491,-0.784579781306,-0.122708059341,0.000280519966985,-0.658133449783,0.573866265473,0.818926632726,0.00417450179281,0.0,0.818904878016,-0.573790770894,-0.0118194289211,0.0,-0.0072840947667,0.0102014878266,-0.999921432718,0.0,0.455437230302,-0.00985063293348,0.304810567232,1.0,-0.25998,-0.341688,2.096
0.0997450850194,-0.259588475873,-0.13269114757,-2.41435307245,-0.0285984704705,2.14913266656,-0.187032102008,-0.74836396795,-0.756768673758,-0.0195799301851,-0.77632561639,-0.129519916816,-0.00702724606352,-0.664586248761,0.573745101662,0.819011539122,0.00417181070501,0.0,0.818989315052,-0.573669028089,-0.0118783391942,0.0,-0.00733539950228,0.0102320043181,-0.99992074586,0.0,0.450994732185,-0.0155853843407,0.304761586451,1.0,-0.25998,-0.341688,2.113
0.0867573618533,-0.272536881871,-0.133027886465,-2.42679346125,-0.0307327589207,2.14894067913,-0.19862064331,-0.773397659006,-0.775080148726,-0.0186622338387,-0.726773425162,-0.124247330273,-0.0168374846184,-0.684310644565,0.573833785743,0.818948153163,0.00441085849514,0.0,0.818930372392,-0.573758844404,-0.0116008854286,0.0,-0.00696988881572,0.0102693637105,-0.999922977443,0.0,0.446663279308,-0.0214464822381,0.304881748929,1.0,-0.25998,-0.341688,2.13
0.075195614171,-0.283677789641,-0.133156381692,-2.43771187445,-0.0325637796093,2.14855111452,-0.209073025107,-0.76890968143,-0.746788347294,-0.00983026066233,-0.713133462835,-0.119334132526,-0.0346333319106,-0.703566087421,0.57368734683,0.819051056212,0.00435227597822,0.0,0.819031966202,-0.57361180616,-0.0116996185104,0.0,-0.00708620444484,0.0102767741138,-0.999922083775,0.0,0.442748254469,-0.0264867916854,0.304828314729,1.0,-0.25998,-0.341688,2.145
0.060911424943,-0.29695478354,-0.133499554901,-2.45032591975,-0.0347027291476,2.14799498506,-0.221889892833,-0.806828174721,-0.745366315767,-0.0232183814262,-0.688638936722,-0.130116177949,-0.0177343374254,-0.703805652279,0.573793604787,0.818975712521,0.00451976855653,0.0,0.818959011294,-0.573717848486,-0.0116066812598,0.0,-0.0069126512528,0.0103615441598,-0.999922423819,0.0,0.438110207877,-0.03267989557,0.304881248676,1.0,-0.25998,-0.341688,2.163
0.047281804809,-0.30926148699,-0.133698566128,-2.46204249607,-0.0367232348625,2.147296862,-0.234228340874,-0.802361291379,-0.729666563857,-0.0146008316892,-0.69891180767,-0.120656727439,-0.047059830601,-0.72488878852,0.573707555589,0.819036008951,0.00451703473883,0.0,0.819018956437,-0.573631348769,-0.0116521074448,0.0,-0.00695251670524,0.0103846390941,-0.999921907842,0.0,0.433679725128,-0.038419201265,0.304855054553,1.0,-0.25998,-0.341688,2.18
0.0340933421646,-0.32063246911,-0.134018545955,-2.47271778782,-0.0386113070557,2.14646584125,-0.246123576723,-0.831036896679,-0.716639823794,-0.0249113474475,-0.646612068729,-0.114763419218,-0.0483052321969,-0.748082789549,0.573796528119,0.818973667424,0.00451921304448,0.0,0.818956060707,-0.573719432127,-0.0117358737865,0.0,-0.0070187463864,0.0104352414562,-0.999920918341,0.0,0.429504868522,-0.043930747841,0.304837158129,1.0,-0.25998,-0.341688,2.196
0.0199873349592,-0.332531476298,-0.134196320894,-2.48364860544,-0.0404978173542,2.14565529823,-0.259056905566,-0.838342501299,-0.695241745868,-0.00760701773945,-0.648067581689,-0.108751601435,-0.0566155666507,-0.768562079609,0.573630080362,0.819089222817,0.00470349540986,0.0,0.819074629383,-0.573553384289,-0.0115764318226,0.0,-0.00678455545797,0.010493305305,-0.999921927128,0.0,0.424894911584,-0.0499779914737,0.304889467952,1.0,-0.25998,-0.341688,2.214
0.00545890021373,-0.344200122079,-0.134538640817,-2.49440499842,-0.0425245925038,2.1445030382,-0.272200595088,-0.855709017362,-0.674572158184,-0.0156949938481,-0.622591572632,-0.131804104927,-0.0615742688597,-0.785965592379,0.573740155059,0.819012704108,0.00460129161761,0.0,0.818996219691,-0.573662890739,-0.0116972997538,0.0,-0.00694078048316,0.0104798527847,-0.999920996005,0.0,0.420684156867,-0.0555134393482,0.304848421663,1.0,-0.25998,-0.341688,2.23
-0.00828545040194,-0.355033362528,-0.13472431229,-2.50398201271,-0.0442753488057,2.14344649101,-0.284882540088,-0.857587022651,-0.666884524055,-0.0125402344699,-0.587821337547,-0.116596947807,-0.0587002459074,-0.801321107359,0.573596568146,0.819112297521,0.0047715785217,0.0,0.819099131858,-0.573520533489,-0.0114698194096,0.0,-0.00665860006812,0.010487646795,-0.999922833178,0.0,0.416604455735,-0.0609106055341,0.304959099936,1.0,-0.25998,-0.341688,2.246
-0.023308161439,-0.366190571591,-0.135066808588,-2.51407325872,-0.0461292705817,2.14216493452,-0.298636477319,-0.890979408463,-0.65071764446,-0.013420408274,-0.583764581664,-0.109174397909,-0.0782261553335,-0.817065371569,0.573665330056,0.819064193515,0.00476265632746,0.0,0.819049996082,-0.57358787488,-0.011610366511,0.0,-0.00677796405789,0.0105615217249,-0.999921253631,0.0,0.412148822472,-0.066756759848,0.304911317444,1.0,-0.25998,-0.341688,2.263
-0.0393252283247,-0.37777147846,-0.135316607955,-2.52437437602,-0.0480690836715,2.14066434523,-0.313438766736,-0.901990990294,-0.635663250868,-0.0202228252131,-0.555830870338,-0.10012813155,-0.0765526764293,-0.827879421138,0.573558268327,0.819139428328,0.00471769999955,0.0,0.819123979448,-0.573479938021,-0.0117223667229,0.0,-0.006896879259,0.0105880454084,-0.999920159988,0.0,0.407444316486,-0.0728355513375,0.30488572555,1.0,-0.25998,-0.341688,2.281
-0.0530219570978,-0.387194285107,-0.135577688809,-2.53246483339,-0.0496520014334,2.13953642698,-0.326014291751,-0.904205474069,-0.61751756297,-0.0114285091103,-0.543992261745,-0.104587499739,-0.0817287953312,-0.838971719075,0.57362389802,0.819092597207,0.00486700346314,0.0,0.819080413818,-0.573547190432,-0.0114735761326,0.0,-0.00660659230893,0.0105681881464,-0.999922330152,0.0,0.403618906414,-0.0779966831744,0.304972013042,1.0,-0.25998,-0.341688,2.296
-0.0687172524255,-0.397568148564,-0.135902854616,-2.54154278908,-0.0514551549231,2.13798794035,-0.340602203149,-0.938406418719,-0.602895510804,-0.0265858583184,-0.522746582869,-0.114161700343,-0.0920698901585,-0.866825550452,0.573589007195,0.819117405021,0.00480359432956,0.0,0.819103674691,-0.573511341048,-0.0116042534425,0.0,-0.00675046010851,0.0105909178864,-0.999921128763,0.0,0.398897824238,-0.0841613982015,0.304935060711,1.0,-0.25998,-0.341688,2.314
-0.0855236715689,-0.408236493094,-0.13616977656,-2.55073336055,-0.0530941967419,2.13630898606,-0.356300148741,-0.940335663393,-0.575982026066,-0.0164538848644,-0.497084086682,-0.0826257459454,-0.081415650965,-0.877545949456,0.573544628262,0.819147908646,0.00490000560016,0.0,0.819134172051,-0.573464686662,-0.011756199675,0.0,-0.00682021751155,0.010756674302,-0.999918886006,0.0,0.394476984476,-0.0898790528043,0.304911134684,1.0,-0.25998,-0.341688,2.331
-0.0999171137571,-0.416898021749,-0.136503184588,-2.55792424776,-0.0546249749373,2.13504558322,-0.369626900553,-0.965354111976,-0.561741755143,-0.0133017353851,-0.480121262414,-0.113352840897,-0.0889377246041,-0.899366517525,0.573643636777,0.819077879867,0.00501513699163,0.0,0.819067241746,-0.573565905494,-0.0114783471974,0.0,-0.00652527432878,0.0106924211155,-0.999921543385,0.0,0.390380637304,-0.0954369133514,0.304996282265,1.0,-0.25998,-0.341688,2.347
-0.117246467506,-0.426906946906,-0.136749584325,-2.56647504006,-0.0563235420445,2.13319557658,-0.385937721259,-0.971409473027,-0.542487201338,-0.0198170034172,-0.465187301817,-0.0896774970599,-0.102026995175,-0.910064160535,0.573520244291,0.819164795754,0.0049308909719,0.0,0.819151513795,-0.573440289989,-0.0117378944103,0.0,-0.00678782901511,0.0107712742541,-0.999918949229,0.0,0.385906380175,-0.101174286836,0.304929267452,1.0,-0.25998,-0.341688,2.364
-0.133896439394,-0.436012925081,-0.137062179945,-2.5741405982,-0.0579079554746,2.13157100105,-0.401523695988,-0.980771963367,-0.525585103761,-0.0123767321194,-0.438717671784,-0.0822386069739,-0.0887100124516,-0.928511709834,0.573554349043,0.819140944123,0.00492638374259,0.0,0.81912710401,-0.573473613393,-0.0118130910647,0.0,-0.00685156739581,0.0108109923492,-0.999918085879,0.0,0.381471997238,-0.106972093462,0.304894104665,1.0,-0.25998,-0.341688,2.381
-0.149854254651,-0.444306914494,-0.137412675257,-2.58075301886,-0.0592517582427,2.1300723228,-0.416530426731,-1.00928698338,-0.507616599732,-0.025933647085,-0.400586094882,-0.083296127664,-0.0974740229577,-0.936412923716,0.573672702744,0.819056671621,0.00515225196955,0.0,0.819046777858,-0.573592859461,-0.011591124043,0.0,-0.00653861842779,0.0108696561065,-0.999919545286,0.0,0.377388430952,-0.112497742797,0.305003915269,1.0,-0.25998,-0.341688,2.397
-0.166939921808,-0.452739850238,-0.137620414305,-2.58772166767,-0.0606849558116,2.12839688986,-0.432713518329,-1.01102885769,-0.484304498978,-0.0148083615649,-0.408427606536,-0.0855188793357,-0.107145105197,-0.959710544949,0.573584250785,0.819118661991,0.00514506858098,0.0,0.819108083318,-0.573503465737,-0.0116820174525,0.0,-0.00661837126653,0.0109151986434,-0.999918524481,0.0,0.372961005906,-0.118249978439,0.304972808441,1.0,-0.25998,-0.341688,2.414
-0.184249620576,-0.46082435193,-0.137933371345,-2.59432388961,-0.062179904412,2.12665636192,-0.449162345292,-1.01883291347,-0.464751396094,-0.011353391611,-0.372915171388,-0.0851382598591,-0.0870774689197,-0.981102839299,0.573524464096,0.819160932143,0.00507968838731,0.0,0.819148817599,-0.573442784678,-0.0118039920407,0.0,-0.00675658855419,0.0109311094033,-0.99991742627,0.0,0.368506612948,-0.124048955536,0.304943435893,1.0,-0.25998,-0.341688,2.431
-0.200820861113,-0.468017875946,-0.138252648526,-2.6001889807,-0.0633965933653,2.12516642281,-0.46488509483,-1.04910714445,-0.44714223172,-0.0240404454881,-0.355648526054,-0.0820158931372,-0.0953158618822,-0.999482359803,0.573614356807,0.819097441739,0.00516696258495,0.0,0.819085758613,-0.573531213536,-0.0118833513296,0.0,-0.0067703387017,0.011048859123,-0.999916039088,0.0,0.364336111021,-0.129536822116,0.30490877279,1.0,-0.25998,-0.341688,2.447
-0.21960004951,-0.47582002014,-0.138463441588,-2.60616666998,-0.0647888436192,2.12351051673,-0.482785082407,-1.05067414482,-0.418285716549,-0.0119409282433,-0.321651882653,-0.0696392321965,-0.0878732241497,-1.00977973027,0.573560675294,0.819134509963,0.00524911860727,0.0,0.819125665456,-0.573480208385,-0.011590585971,0.0,-0.00648410816596,0.0109478028679,-0.9999190477,0.0,0.359743948373,-0.135679303893,0.305026921577,1.0,-0.258114857143,-0.339236669388,2.465
-0.237387710539,-0.482596637345,-0.138657499161,-2.61157657096,-0.0658992814301,2.12195599222,-0.499807369876,-1.04263252748,-0.394427997814,-0.00585075005757,-0.312546446656,-0.070623496472,-0.0869281048313,-1.01240309121,0.573552670074,0.819139619629,0.00532589016089,0.0,0.819131065883,-0.573470767452,-0.0116757305834,0.0,-0.00650993652753,0.0110594614644,-0.999917651129,0.0,0.355378917698,-0.141386581627,0.30500537886,1.0,-0.252519428571,-0.331882677551,2.482
-0.254115141057,-0.488450321363,-0.13880664687,-2.61632789514,-0.0668285147799,2.12044155891,-0.515694352146,-1.03980361775,-0.362417134201,-0.0106098372188,-0.28326628961,-0.0610203877482,-0.0923762304843,-1.005644352,0.573685435213,0.819046415694,0.00536071485725,0.0,0.819036197637,-0.573599818699,-0.0119875706293,0.0,-0.00674360152185,0.0112679311295,-0.999913775066,0.0,0.351285343869,-0.146670935026,0.304925693004,1.0,-0.247253142857,-0.324961273469,2.498
-0.271707963947,-0.494195115722,-0.138806480281,-2.62083639291,-0.0677567296531,2.11914178886,-0.532493098394,-1.03122535708,-0.328403399514,-0.000940117017283,-0.252568857313,-0.0498028148435,-0.0641985535201,-0.995258020624,0.573683287238,0.819047528544,0.00542022427652,0.0,0.819038366569,-0.573597919936,-0.0119300978356,0.0,-0.00666241604911,0.0112836866272,-0.999914141628,0.0,0.34711950155,-0.152168347099,0.304927107752,1.0,-0.241657714286,-0.317607281633,2.515
-0.28909966228,-0.499428496902,-0.13879174406,-2.62486335855,-0.0685931253095,2.11785030355,-0.549078180305,-1.00795474008,-0.300708678257,0.00296267386538,-0.231052847131,-0.0452417501741,-0.0799870026691,-0.972875497399,0.573745344492,0.819003671626,0.0054783609427,0.0,0.818995396347,-0.573659971534,-0.0118964164233,0.0,-0.0066006194298,0.011312483731,-0.999914226089,0.0,0.343043895422,-0.157556817884,0.304947244524,1.0,-0.236062285714,-0.310253289796,2.532
-0.305218807693,-0.50390560114,-0.138776433694,-2.62826547582,-0.0691896170748,2.11672585623,-0.564530797423,-1.00955862357,-0.266841880325,0.000315766563719,-0.20251389388,-0.0290318131695,-0.0739202504211,-0.973209407779,0.573829641135,0.818943500431,0.00564207027108,0.0,0.818937333113,-0.573743610526,-0.0118600469903,0.0,-0.00647573130721,0.0114263684823,-0.999913747784,0.0,0.339307555439,-0.162502483466,0.304975908507,1.0,-0.230796,-0.303331885714,2.548
-0.323038163431,-0.508433388081,-0.138687497829,-2.63167905781,-0.069880443652,2.11560829352,-0.581683770794,-0.980629548304,-0.24403992023,0.00975761673546,-0.18114286621,-0.0350158242556,-0.0605886110583,-0.951711371623,0.573818806636,0.81895051488,0.0057252274749,0.0,0.818946065629,-0.573733615966,-0.0117399489793,0.0,-0.0063298036682,0.0114254760045,-0.999914692403,0.0,0.33522208061,-0.167929363158,0.305014519625,1.0,-0.224871428571,-0.295545306123,2.566
-0.339669563907,-0.512266719182,-0.138607911009,-2.63462644066,-0.070490720431,2.11454409028,-0.597628197441,-0.950753759094,-0.213464091528,0.00943405074673,-0.171441071783,-0.031168022289,-0.063991719275,-0.937290527449,0.573892742724,0.818898500746,0.00575432238048,0.0,0.818894026214,-0.573806705776,-0.0117976751519,0.0,-0.00635935216231,0.0114830014563,-0.999913845948,0.0,0.331390092846,-0.172944715759,0.305006294125,1.0,-0.219276,-0.288191314286,2.583
-0.355965885612,-0.51556410012,-0.13849192034,-2.63727047611,-0.0709110582484,2.11358170311,-0.613349739963,-0.963781708845,-0.180939979121,-0.00103072829138,-0.148561854497,-0.0305394890851,-0.0509082752966,-0.927675026868,0.573948256815,0.818858939967,0.00584652336219,0.0,0.818854238695,-0.573859281105,-0.0120003401115,0.0,-0.00647162868829,0.0116752495097,-0.999910899316,0.0,0.327654591088,-0.177797107276,0.304943597611,1.0,-0.213680571429,-0.280837322449,2.6
-0.371913429725,-0.518433891756,-0.138300528092,-2.63956074019,-0.071298768914,2.11278855416,-0.628728496373,-0.924757539397,-0.156890439331,0.00792651690449,-0.129986525566,-0.0181047969609,-0.0469788885877,-0.889063023663,0.573979441247,0.818836706803,0.00589877265934,0.0,0.818831987625,-0.573888981732,-0.0120979167475,0.0,-0.00652110322524,0.0117742859277,-0.999909416599,0.0,0.324049583399,-0.182515755839,0.304897464674,1.0,-0.208085142857,-0.273483330612,2.617
-0.387630281621,-0.520948884905,-0.138144438823,-2.6414986844,-0.0716614709203,2.11205675698,-0.643825809594,-0.917104269804,-0.142078431026,0.0129287146753,-0.111385651487,-0.017089865002,-0.0449344670957,-0.874800038672,0.574107847322,0.818746277147,0.0059548470463,0.0,0.818741956177,-0.574016517389,-0.0121405873407,0.0,-0.0065220056933,0.0118457176496,-0.999908567028,0.0,0.320519611272,-0.18716833337,0.304882976296,1.0,-0.202489714286,-0.266129338776,2.634
-0.402781073264,-0.5231462721,-0.1378574789,-2.64314318431,-0.0719086674358,2.11140044248,-0.658663271407,-0.886209606545,-0.128973922403,0.0168300774656,-0.0935473762453,-0.0184368498028,-0.044124150984,-0.856008990695,0.573959005845,0.818850204401,0.00601242574786,0.0,0.818846624215,-0.573867437619,-0.0121291777458,0.0,-0.00648176911266,0.0118851341533,-0.999908360929,0.0,0.317149041442,-0.191590261393,0.304893445863,1.0,-0.196894285714,-0.258775346939,2.651
-0.417821214904,-0.525012605509,-0.137667881427,-2.64448989506,-0.0721491465263,2.11083689954,-0.673154847205,-0.865853404732,-0.0983183550583,0.020998047226,-0.0684043906803,-0.0103152738914,-0.0341746877384,-0.847489119654,0.574091880229,0.818756496651,0.00608762254931,0.0,0.818754225785,-0.574000566917,-0.0120670559446,0.0,-0.00638580460216,0.0119120948681,-0.999908657576,0.0,0.313815881602,-0.196009263889,0.304922000073,1.0,-0.191298857143,-0.251421355102,2.668
-0.43151481936,-0.526472687369,-0.137450214881,-2.64556658502,-0.0723227902842,2.1104198592,-0.686505430999,-0.851942995263,-0.0801415985924,0.0107077199954,-0.0643492062622,-0.0138592074742,-0.0223103627211,-0.828015774111,0.574081405986,0.818763385512,0.0061485565694,0.0,0.818762261449,-0.573990498907,-0.012000553812,0.0,-0.00629652224186,0.0119237304552,-0.999909085097,0.0,0.310791260463,-0.200004631764,0.30493696928,1.0,-0.186032571429,-0.24449995102,2.684
-0.444940274064,-0.527639379609,-0.137191885241,-2.64645726704,-0.0724579943967,2.11003419262,-0.699546559975,-0.811417180348,-0.0692238606992,0.0274851787881,-0.0474898490957,-0.00811224804834,-0.0191963512903,-0.813404978457,0.574103736149,0.818747493505,0.00617971837617,0.0,0.818746692883,-0.574012536029,-0.0120086750029,0.0,-0.0062849577468,0.0119540793219,-0.999908795488,0.0,0.307829292115,-0.203895705276,0.304932392155,1.0,-0.180766285714,-0.237578546939,2.7
-0.458774825269,-0.528611428929,-0.136914417872,-2.64720291766,-0.0725280909166,2.10971118407,-0.712986312152,-0.824990008348,-0.0515863858997,0.00690775956251,-0.0402108477703,-0.00412320652652,-0.0149499739834,-0.791012546522,0.57415756559,0.818709273569,0.00624196684165,0.0,0.818709256727,-0.574066036858,-0.0120035485144,0.0,-0.00624423553837,0.0120025153125,-0.999908470386,0.0,0.304787214385,-0.207891251068,0.304928162071,1.0,-0.175170857143,-0.230224555102,2.717
-0.472272614517,-0.529305544058,-0.136579610782,-2.6477356302,-0.072579104514,2.10941552909,-0.726108028762,-0.781894415978,-0.0408374668742,0.0253889392936,-0.0285808795601,-0.00394665540164,-0.0131198237996,-0.763517753896,0.574176354486,0.818695990048,0.0062559354986,0.0,0.818695956256,-0.574084379148,-0.0120334421119,0.0,-0.00626041648919,0.012031258658,-0.99990802377,0.0,0.301831011837,-0.21176950476,0.304922827615,1.0,-0.169575428571,-0.222870563265,2.734
-0.484523490125,-0.529731420824,-0.13628756851,-2.64806881072,-0.072597268971,2.10922536716,-0.73813326659,-0.772874865845,-0.0266543469102,0.0168174335614,-0.0197880062621,0.00101058397483,-0.0121730218963,-0.738880871429,0.574127983185,0.81872972518,0.00628036075907,0.0,0.818729953288,-0.574035803431,-0.0120377269615,0.0,-0.00625061329647,0.0120533474377,-0.999907819076,0.0,0.299153741451,-0.215292313197,0.304918104823,1.0,-0.164309142857,-0.215949159184,2.75
-0.497922044328,-0.529977008323,-0.135913873589,-2.64828839405,-0.0725960766549,2.10905015902,-0.751237172901,-0.724097386792,-0.006330290231,0.0257748952636,-0.0120562969617,0.000565526525614,-0.0101877448432,-0.71579302289,0.574093678205,0.818753831493,0.00627367211477,0.0,0.818753690044,-0.574000992192,-0.0120831661231,0.0,-0.00629216568494,0.0120736939341,-0.999907312987,0.0,0.296228299984,-0.219124096421,0.304902579986,1.0,-0.158384571429,-0.208162579592,2.768
-0.510160034277,-0.530082789198,-0.135593363625,-2.64839570461,-0.0725988326866,2.10894057514,-0.763200851857,-0.725079417981,-0.00562684191278,0.0199237752092,-0.00326443259062,-0.000286209868626,-0.00405833386489,-0.691845085136,0.574085114723,0.81875990841,0.00626421067923,0.0,0.818759532164,-0.573992259264,-0.0121021360608,0.0,-0.00631325692218,0.0120767708892,-0.999907142885,0.0,0.293539298534,-0.222620201657,0.30489128698,1.0,-0.152789142857,-0.200808587755,2.785
-0.521384714467,-0.530051772991,-0.135278889179,-2.64838693851,-0.0725950315713,2.10886858153,-0.774098471781,-0.683107060605,0.00424667075594,0.0256028347156,0.00204640472766,0.0015230826487,-0.00282712953386,-0.663716452934,0.574133470549,0.818726210376,0.00623677320461,0.0,0.818725439719,-0.574040657453,-0.0121130033376,0.0,-0.00633719393872,0.0120609177394,-0.999907182811,0.0,0.291070316491,-0.225818416228,0.304885895741,1.0,-0.147522857143,-0.193887183674,2.801
-0.532711590308,-0.52986039803,-0.134899624229,-2.6482705539,-0.0725708047695,2.10887166303,-0.785290626607,-0.667236248166,0.0126626070393,0.0210145390047,0.0104273516097,-5.57797958729e-05,0.00100040524735,-0.650828555339,0.573993686456,0.818824631711,0.00618201533872,0.0,0.818823274521,-0.573901388469,-0.0120991039856,0.0,-0.00635929961481,0.0120070185146,-0.999907691147,0.0,0.288593424543,-0.229032912551,0.304878988547,1.0,-0.141927428571,-0.186533191837,2.818
-0.54385481156,-0.529594699258,-0.134603839606,-2.64806484717,-0.0725267965576,2.10887761594,-0.796067494051,-0.63941536114,0.0252043185724,0.0268535841676,0.0142824217851,0.00275467396249,0.00123854544641,-0.619012726497,0.574115690847,0.818739165992,0.00617239791862,0.0,0.818737856773,-0.574023736367,-0.0120755486422,0.0,-0.00634374384531,0.0119865685727,-0.999908035315,0.0,0.286130300035,-0.232205292783,0.304883646367,1.0,-0.136332,-0.1791792,2.835
-0.553643211024,-0.529144063202,-0.134180986793,-2.64775674422,-0.072431191326,2.10890214622,-0.805847916928,-0.610210497074,0.0319124016267,0.019223205435,0.0206334926916,0.0112870475092,0.00240034734128,-0.594857142965,0.573882662152,0.818902958476,0.00611404781465,0.0,0.818900644542,-0.573790555376,-0.0121193989677,0.0,-0.00641655231695,0.0119621409477,-0.999907863276,0.0,0.284004141357,-0.234955234038,0.304872160597,1.0,-0.131065714286,-0.172257795918,2.851
-0.564492574182,-0.528555431546,-0.133815383967,-2.64735201048,-0.0723099173731,2.10899309351,-0.816398114704,-0.601404859503,0.0354349346572,0.0146693891635,0.0262369254363,0.0106826793392,0.00773668615268,-0.576781018008,0.57394479764,0.818859497771,0.0061023826022,0.0,0.818856938432,-0.573852555597,-0.0121369567046,0.0,-0.00643671834683,0.0119631518223,-0.99990772157,0.0,0.281621834707,-0.238024486494,0.304858330075,1.0,-0.125141142857,-0.164471216327,2.869
-0.574179333742,-0.527854779984,-0.133433327775,-2.6468320357,-0.0721201234629,2.10911833717,-0.825958590022,-0.549468800887,0.0470621475151,0.02597208806,0.0354324656903,0.0159659999371,0.00878144988375,-0.558674536929,0.573861368597,0.818917885948,0.00611331393253,0.0,0.818915483535,-0.573769122568,-0.0121314350142,0.0,-0.00642714208667,0.0119682797618,-0.999907721804,0.0,0.279408417883,-0.240915629718,0.304856133663,1.0,-0.119216571429,-0.156684636735,2.887
-0.582886407463,-0.527109347023,-0.133080004574,-2.6463064141,-0.0719586467323,2.10923175793,-0.834552557388,-0.543756213716,0.0437378575612,0.0165951418942,0.0338919524852,0.0142438948584,0.00743462340775,-0.530479629418,0.573831104775,0.818939140016,0.00610696677137,0.0,0.818936423993,-0.573738464537,-0.0121677717895,0.0,-0.00646098722083,0.011983694181,-0.999907319064,0.0,0.277633743995,-0.243222212723,0.304844318814,1.0,-0.114279428571,-0.150195820408,2.902
-0.591901975461,-0.526291219751,-0.132750363544,-2.64569082698,-0.0717417329946,2.1093652509,-0.84323638267,-0.527243623839,0.0514675460545,0.0180220739187,0.0394023191866,0.00936695258427,0.00670733808684,-0.503088130033,0.57399712525,0.818822469925,0.00614897166886,0.0,0.818820235079,-0.573904135645,-0.0121742603961,0.0,-0.00643976168168,0.0120231243792,-0.999906982649,0.0,0.275666547378,-0.245773500829,0.304844681327,1.0,-0.108684,-0.142841828572,2.919
-0.600272094934,-0.525332922306,-0.132335702353,-2.6449953463,-0.0714918255011,2.10953842509,-0.851556538771,-0.484456332703,0.0596422854973,0.0262712968384,0.0417327536742,0.0188789910882,0.0133596135863,-0.487615051287,0.573890801627,0.81889690621,0.00616049588162,0.0,0.818894617597,-0.573797401361,-0.0122022277918,0.0,-0.00645761438873,0.0120477751653,-0.9999065708,0.0,0.273879016087,-0.248132393252,0.304835336673,1.0,-0.103088571429,-0.135487836735,2.936
-0.607768932079,-0.52445359367,-0.131956352645,-2.64435738921,-0.0712755969598,2.10968691099,-0.858972427093,-0.473401633602,0.0562926483144,0.0226401055038,0.0360903396805,0.0050373515542,0.0188187622682,-0.448974255557,0.57381693307,0.818948673337,0.00615992398193,0.0,0.818946117052,-0.573723066761,-0.0122411981814,0.0,-0.00649094750361,0.0120690849912,-0.999906097985,0.0,0.272264043075,-0.250235712875,0.304825454015,1.0,-0.0978222857144,-0.128566432653,2.952
-0.615480660082,-0.52354932448,-0.131573542338,-2.64362883881,-0.0710170545459,2.10985971142,-0.866393415069,-0.444614668061,0.057035391929,0.0200180112475,0.0446615006394,0.016844060927,0.00911940833612,-0.424521012149,0.573934738629,0.818865947321,0.00618247634278,0.0,0.81886401415,-0.573841356425,-0.0121889658378,0.0,-0.0064334923117,0.0120585104814,-0.999906596889,0.0,0.270607992737,-0.252407126168,0.304849504547,1.0,-0.0922268571429,-0.121212440816,2.969
-0.622695680519,-0.522557978011,-0.131212395455,-2.64284927425,-0.0707589631522,2.11005039517,-0.873455451744,-0.404603769405,0.0602611798494,0.0279510877432,0.0435789272325,0.0175405069315,0.0129450843448,-0.400366299297,0.573957497163,0.818849831106,0.00620422838894,0.0,0.818848361803,-0.573864349421,-0.0121579495141,0.0,-0.00639527254697,0.0120587006937,-0.999906839774,0.0,0.269069476854,-0.254452765916,0.304865475489,1.0,-0.0866314285715,-0.11385844898,2.986
-0.628914135032,-0.521679344913,-0.130798316815,-2.64216411701,-0.0704882989879,2.1102217977,-0.879668930494,-0.388844226195,0.0457157612175,0.0265110397216,0.0411779810571,0.0212055877346,0.011465744378,-0.385182225826,0.573821466973,0.818945099339,0.00621250434684,0.0,0.818943880754,-0.573728580864,-0.0121318826924,0.0,-0.00637117723906,0.0120494591321,-0.999907105003,0.0,0.267761165128,-0.256184671147,0.304879285515,1.0,-0.0813651428572,-0.106937044898,3.002
-0.635377007193,-0.520763209915,-0.13041202536,-2.64146649375,-0.0702494003986,2.11039399957,-0.885887326098,-0.368021330651,0.0581912659886,0.0230540269137,0.0427208341213,0.0153546446741,0.00996617093208,-0.354564910703,0.573888209732,0.818898369082,0.00620731405577,0.0,0.818897089611,-0.573795345405,-0.0121328116697,0.0,-0.00637393449401,0.0120462609106,-0.999907125966,0.0,0.266372261096,-0.257987041615,0.304884056807,1.0,-0.0757697142858,-0.0995830530613,3.019
-0.641996032349,-0.519717387075,-0.129999423454,-2.64065158583,-0.0699213635382,2.11061013567,-0.892339808777,-0.338037515129,0.0559588980338,0.0239292986002,0.0404757692442,0.0145603945966,0.00863829822941,-0.330053822279,0.573916458916,0.818878241451,0.00625066110356,0.0,0.818877724825,-0.573823769884,-0.0120954455554,0.0,-0.0063180409091,0.0120605346279,-0.999907308636,0.0,0.264975557103,-0.259842498382,0.304898566876,1.0,-0.0695160000001,-0.0913638857144,3.038
-0.646536735413,-0.518969502332,-0.129736125122,-2.64011266655,-0.0697049818102,2.11076091844,-0.896725542477,-0.313920529302,0.0497346094492,0.0185123323147,0.0352913608099,0.0185111788958,0.00942573031568,-0.302221889274,0.573978479287,0.818834497383,0.00628634331263,0.0,0.818834274874,-0.573885289297,-0.0121182474399,0.0,-0.00631532069054,0.0121033196316,-0.999906808847,0.0,0.264000137723,-0.261110891459,0.304887684193,1.0,-0.0649080000001,-0.085307657143,3.052
-0.651861656648,-0.51807055389,-0.129267858052,-2.63946223576,-0.0694113931557,2.11095362445,-0.901987276318,-0.288446723541,0.0478895026128,0.0279638070687,0.0360315514385,0.0190698846255,0.010573496699,-0.286247339635,0.573858753371,0.818918446793,0.00628136793408,0.0,0.818918067225,-0.573765435614,-0.0121314042175,0.0,-0.00633072077623,0.0121058712645,-0.999906680573,0.0,0.262893525892,-0.262561693676,0.304880261941,1.0,-0.0589834285715,-0.0775210775511,3.07
-0.656792012114,-0.517242255422,-0.128806132558,-2.63884339557,-0.0691339923659,2.11113313501,-0.90667946383,-0.261739540134,0.0474344963526,0.0244315657343,0.0349450347031,0.0173799642676,0.0105302567578,-0.251447630268,0.573883700514,0.818901092517,0.00626465156293,0.0,0.8189005575,-0.573790572546,-0.012124466344,0.0,-0.00633426268237,0.0120883930087,-0.999906869599,0.0,0.261818674758,-0.263970731856,0.304882215995,1.0,-0.0527297142858,-0.0693019102042,3.089
-0.66102947458,-0.516454461538,-0.128420469727,-2.63827101068,-0.0688829967742,2.11130692665,-0.910798323751,-0.240022939867,0.0444992736588,0.0223940384632,0.0370893870644,0.0125130638612,0.0172653875761,-0.225192030536,0.573839197831,0.818932311747,0.0062602484295,0.0,0.818931672287,-0.573746009794,-0.0121317464541,0.0,-0.00634340874272,0.0120886201122,-0.999906808872,0.0,0.260999366069,-0.265057868253,0.304876826575,1.0,-0.0474634285715,-0.0623805061225,3.105
-0.664795328461,-0.515735852124,-0.128058116661,-2.63776640773,-0.0686177960928,2.11145789152,-0.914386845366,-0.21525189004,0.0388630660788,0.0181307786746,0.0186752855501,0.0144297792119,0.00352981385993,-0.204415780816,0.573871526009,0.818909450036,0.00628738258194,0.0,0.818908941523,-0.573777781677,-0.0121634554751,0.0,-0.00635333052449,0.0121292880965,-0.999906253387,0.0,0.260181413968,-0.266131502626,0.304860530066,1.0,-0.0415388571429,-0.0545939265307,3.123
-0.668429279779,-0.51512030015,-0.127688716733,-2.63731714763,-0.0683726788984,2.11159134169,-0.917751953414,-0.196647609279,0.0329910705456,0.0184339303586,0.0266820092062,0.012464542821,0.00172023757752,-0.17399502605,0.573953836131,0.818851716938,0.00629337421492,0.0,0.81885128713,-0.573860047171,-0.0121639930852,0.0,-0.00634911283892,0.0121351417093,-0.999906209153,0.0,0.259469651525,-0.267041550188,0.304860030156,1.0,-0.0359434285715,-0.047239934694,3.14
-0.671071705938,-0.514652532004,-0.127346864481,-2.63696072569,-0.0681589204251,2.11170309788,-0.920247021003,-0.165694305766,0.0243861420269,0.0212534304105,0.0208925836561,0.0132907526619,0.0158734014006,-0.16172536976,0.573941698004,0.818860263645,0.00628830786403,0.0,0.818859923073,-0.573848231979,-0.0121400140097,0.0,-0.00633256264418,0.0121171368408,-0.999906532454,0.0,0.258946144373,-0.267733151677,0.304867057961,1.0,-0.0310062857144,-0.0407511183674,3.155
-0.673746256451,-0.514153904406,-0.126933766129,-2.63658137578,-0.0678943932371,2.11181665893,-0.922789484574,-0.142039460037,0.020418567218,0.0190277348451,0.0164472157798,0.0145130857513,0.0119855978695,-0.123615289518,0.573889176186,0.818897064452,0.00628953012099,0.0,0.818896867479,-0.573795960579,-0.0121187027536,0.0,-0.0063151847194,0.0121055019221,-0.999906783288,0.0,0.258437674632,-0.268417495498,0.304874888054,1.0,-0.0250817142858,-0.0329645387756,3.173
-0.675524815844,-0.513848528938,-0.126593966883,-2.63634252868,-0.0677082381074,2.11186438116,-0.924343304912,-0.121208990383,0.0144405688653,0.0262025156103,0.0165003091979,0.0123052216051,0.00620761340217,-0.111685197915,0.573922454756,0.818873874021,0.00627226228556,0.0,0.818873524615,-0.573829449074,-0.0121103658126,0.0,-0.00631777499375,0.0120868331092,-0.999906992767,0.0,0.258088175354,-0.268877884727,0.304887211341,1.0,-0.0201445714287,-0.0264757224491,3.188
-0.677256839628,-0.513563990484,-0.126265798752,-2.63610596446,-0.0674999751457,2.11192722403,-0.925940292614,-0.100667567564,0.0207397709282,0.0156260797007,0.0162342809896,0.0147390286854,0.000132976436826,-0.0958281330679,0.57390692023,0.818884733775,0.00627587476711,0.0,0.818884542736,-0.573814114827,-0.0120919061913,0.0,-0.00630081316826,0.0120790780406,-0.999907193507,0.0,0.257769537126,-0.269298863799,0.304895751915,1.0,-0.01967,-0.025852,3.204
-0.678989108319,-0.513226707306,-0.126027034741,-2.63585315714,-0.0673322708931,2.11202372509,-0.927576125702,-0.0935481475011,0.0142801983042,0.0141954896322,0.0201699102935,0.00935697685681,0.00104403069807,-0.0846117554028,0.573896045776,0.818892315706,0.0062809889225,0.0,0.818892405481,-0.573803631353,-0.0120568566564,0.0,-0.00626933371935,0.0120630687386,-0.999907584643,0.0,0.257457223223,-0.26972577718,0.304902474986,1.0,-0.01933,-0.0254051428571,3.221
-0.680523873151,-0.512906572497,-0.125866081291,-2.63560178774,-0.0672496982195,2.11207939137,-0.929113719994,-0.0859482461224,0.0195298670503,0.0114325778617,0.0165555936736,0.00300562464524,0.000384747793681,-0.0874596106325,0.573827578227,0.81894045777,0.00625971198461,0.0,0.818940262376,-0.57373525716,-0.0120601929275,0.0,-0.00628528346283,0.0120470334184,-0.999907677837,0.0,0.257144415885,-0.270146928105,0.304906854321,1.0,-0.01899,-0.0249582857143,3.238
-0.681913002452,-0.512616146194,-0.125761222959,-2.63539022868,-0.06719830941,2.11214483606,-0.930437243049,-0.0880392378834,0.0129107625711,0.00416709841333,0.0138773206579,-0.000626533967632,0.00324880775888,-0.0851487573076,0.573839726921,0.818932089693,0.00624076757756,0.0,0.818931627534,-0.573747448521,-0.0120665505502,0.0,-0.00630118230029,0.012035259738,-0.999907719554,0.0,0.256848058545,-0.270536761487,0.304903597425,1.0,-0.01867,-0.0245377142857,3.254
-0.683335308988,-0.512309760213,-0.125687618101,-2.63515864306,-0.067147530372,2.11220366796,-0.93189582025,-0.0806974796276,0.0206896068908,0.0020249506508,0.0126011301252,0.000738019274341,0.00335258804477,-0.0861613923397,0.573791409303,0.818965974824,0.00623679335777,0.0,0.818965413006,-0.573699067474,-0.0120739049524,0.0,-0.00631019629669,0.0120358527139,-0.999907655572,0.0,0.256538050256,-0.270945552417,0.304902199406,1.0,-0.01833,-0.0240908571429,3.271
-0.684606304807,-0.512033033817,-0.125663532701,-2.63492851531,-0.0671008348647,2.11224470846,-0.933187474699,-0.0804910802111,0.0167462842676,-0.000378544975101,0.0121994641611,0.00282047548676,0.00253506930392,-0.0802764515453,0.573789174401,0.818967422162,0.00625233375769,0.0,0.818967068679,-0.573696775571,-0.0120705020348,0.0,-0.00629852548519,0.0120466107817,-0.999907599604,0.0,0.256254409252,-0.271323705168,0.304908398303,1.0,-0.01801,-0.0236702857143,3.287
-0.685948591079,-0.511732783538,-0.125640727304,-2.63468934758,-0.0670609533813,2.11231050032,-0.934533822734,-0.0779864751895,0.022441572218,0.00238342029893,0.0187073164651,0.000353935428853,0.00941266895343,-0.0746839231405,0.573799026957,0.818960461637,0.00625985937033,0.0,0.818960280806,-0.573706735651,-0.0120576462271,0.0,-0.0062835330129,0.0120454737729,-0.999907707628,0.0,0.255955205229,-0.271726351582,0.304912047366,1.0,-0.01767,-0.0232234285714,3.304
-0.687353611377,-0.51144321371,-0.1256449291,-2.63447540445,-0.0670213290984,2.11235607548,-0.935939080284,-0.0723669684224,0.0129805581865,-0.000298008135197,0.00896927981236,0.00323877013672,0.000777968175467,-0.0780587879296,0.573829936762,0.818938589131,0.00628790972618,0.0,0.818938625249,-0.573737229367,-0.0120775252036,0.0,-0.00628326451789,0.0120800902498,-0.999907291706,0.0,0.255623707349,-0.272141017411,0.304905807888,1.0,-0.01731,-0.0227502857143,3.322
-0.688496110448,-0.511206313558,-0.125639062846,-2.63429065955,-0.0669931331526,2.11239099628,-0.937059828635,-0.0776871800207,0.0121229305041,-0.000347629903258,0.0100009110254,0.000376820116984,0.00092268047865,-0.0821677125205,0.573865209193,0.818913771854,0.00630101948798,0.0,0.81891390699,-0.573772297328,-0.0120876242092,0.0,-0.00628349248347,0.012096892385,-0.999907087142,0.0,0.255357427257,-0.272478864101,0.304905111527,1.0,-0.01701,-0.022356,3.337
-0.689765860952,-0.510942889609,-0.125622021795,-2.6340942885,-0.0669594048332,2.11246976378,-0.938375427298,-0.075599685686,0.00890578846691,0.000314669864095,0.0113813878725,0.0020976277541,0.010505358708,-0.0779126182728,0.573840143398,0.818931275462,0.00630894577957,0.0,0.818931627282,-0.573747420199,-0.0120679142613,0.0,-0.00626317163844,0.0120918816901,-0.99990727524,0.0,0.255067736743,-0.272855057664,0.304903858902,1.0,-0.01667,-0.0219091428571,3.354
-0.691147338201,-0.510654876056,-0.125589236691,-2.63385416511,-0.0669215853533,2.11252494195,-0.939766495192,-0.0712760815672,0.0161031294984,0.000775894654947,0.0122321576274,0.000249460581676,0.00184622092501,-0.0719143098174,0.573837438741,0.818933155853,0.00631086727488,0.0,0.818933625489,-0.573744886865,-0.01205274829,0.0,-0.00624968768908,0.0120847322945,-0.999907446041,0.0,0.254756452365,-0.273263433843,0.304911703539,1.0,-0.01629,-0.0214097142857,3.373
-0.692287273432,-0.510406277633,-0.125549103411,-2.63367027572,-0.066886909776,2.11254883953,-0.940931642505,-0.0730600585558,0.0137038477093,0.00137369970085,0.0133076399041,-0.000165059506216,-0.00165409080373,-0.0770856950212,0.573812615921,0.81895050844,0.0063161252056,0.0,0.818950827837,-0.57371962346,-0.0120864446311,0.0,-0.00627463580734,0.0121081834968,-0.999907006095,0.0,0.254495803579,-0.273589872524,0.304906097025,1.0,-0.01597,-0.0209891428571,3.389
-0.693459248936,-0.510136160329,-0.125528491584,-2.63346848509,-0.0668612067434,2.1126167127,-0.942159641186,-0.0677113620533,0.0159669618787,0.00120316401916,0.0111558436905,0.00520004845675,0.00616583550959,-0.0706308122859,0.573775026402,0.818976872853,0.00631250432972,0.0,0.818977205165,-0.573682174372,-0.0120767185119,0.0,-0.00626930265512,0.0120993495865,-0.999907146481,0.0,0.254216321498,-0.273959691451,0.304904233337,1.0,-0.01561,-0.020516,3.407
-0.694602307984,-0.509865550602,-0.125501296538,-2.63326078739,-0.0668129762652,2.11268988616,-0.943269492642,-0.0671600896705,0.0194041800786,0.00273292938019,0.00831395346668,0.00429617638121,0.00108461407155,-0.0673799795435,0.573812671499,0.818950380583,0.00632764344043,0.0,0.818950990558,-0.573719899101,-0.0120623107698,0.0,-0.00624825933777,0.0121037696658,-0.999907224704,0.0,0.253978920296,-0.274281455775,0.304904819881,1.0,-0.01529,-0.0200954285714,3.423
-0.69567589739,-0.50960395685,-0.125487055848,-2.63306329076,-0.0667939907282,2.11272030134,-0.944361713554,-0.0657904192591,0.010069760596,0.00259364151258,0.0137291039174,0.000508757257586,0.00277174803028,-0.0712556227339,0.573805635385,0.81895529958,0.0063290592335,0.0,0.818955748365,-0.573712510571,-0.0120906714056,0.0,-0.00627077969262,0.0121211481988,-0.999906873208,0.0,0.25373145664,-0.274601685819,0.304900450713,1.0,-0.01497,-0.0196748571429,3.439
-0.696881067566,-0.5093278376,-0.125451917453,-2.63284961324,-0.0667569257075,2.11276120931,-0.945577915546,-0.0663784881005,0.013545937594,0.00192838021108,0.012953394181,0.000727922896822,0.0068350019991,-0.058189650608,0.573798447002,0.818960301732,0.00633350669635,0.0,0.818960713764,-0.5737051206,-0.0121049911007,0.0,-0.00628006285194,0.0121329518562,-0.99990667179,0.0,0.253458763022,-0.274954515768,0.304899416962,1.0,-0.01461,-0.0192017142857,3.457
-0.697927422954,-0.509083233435,-0.125436554882,-2.63266290252,-0.0667298372883,2.11283894834,-0.946608826653,-0.0642359906972,0.017869234878,0.001049582669,0.0095941239951,5.1122383312e-05,0.00691959739435,-0.0676728797113,0.573821346648,0.818944256049,0.00633360227594,0.0,0.818944830759,-0.573728327014,-0.012079646362,0.0,-0.00625891046895,0.0121186631083,-0.999906977696,0.0,0.253224176053,-0.275270794335,0.304900475731,1.0,-0.01429,-0.0187811428572,3.473
-0.698935947875,-0.508853032501,-0.125414925285,-2.63247162938,-0.0667017875765,2.11288558243,-0.947598501249,-0.061523910542,0.0180150491704,1.18585498128e-05,0.0142193418774,0.000212519880586,0.00135205496863,-0.0554743986291,0.573843139864,0.818928984003,0.00633378968893,0.0,0.818929645084,-0.573750277216,-0.0120665943196,0.0,-0.00624779052597,0.0121114936976,-0.999907134105,0.0,0.252997781538,-0.275572778871,0.304906426329,1.0,-0.01397,-0.0183605714286,3.489
-0.700103537394,-0.508582090762,-0.125370288993,-2.6322509654,-0.0666646684264,2.11292761618,-0.948789679724,-0.0623381859134,0.0140135585849,-0.000432725000204,0.00703754394208,0.00533918999938,0.00310979147143,-0.057825090973,0.573819179723,0.818945791255,0.00633141915465,0.0,0.818946409652,-0.573726310058,-0.012068395325,0.0,-0.0062509801603,0.0121104028534,-0.999907127382,0.0,0.252738168822,-0.275915541461,0.304910740039,1.0,-0.01359,-0.0178611428572,3.508
-0.701101273369,-0.508334027783,-0.125332590275,-2.63207039246,-0.066646335084,2.11297682742,-0.949763263362,-0.0560224298521,0.0178986668266,0.000908834013036,0.00962600533707,-0.000359768940969,0.0044843398656,-0.0551975732246,0.573829273907,0.818938816144,0.00631875949218,0.0,0.818939189582,-0.573736304023,-0.0120832161671,0.0,-0.00627023374745,0.0121086160657,-0.999907028471,0.0,0.252514520447,-0.276209163597,0.304905758457,1.0,-0.01325,-0.0174142857143,3.525
-0.70189141366,-0.508123754354,-0.125313707637,-2.63190648608,-0.0666253660173,2.11301690019,-0.950580508631,-0.053061547679,0.0189330408496,0.00383642671805,0.0155024546014,-4.6606340309e-05,-0.000153618132235,-0.0566422962087,0.573804879128,0.818955918172,0.00631756922567,0.0,0.818956266935,-0.57371190223,-0.0120844109996,0.0,-0.00627225600818,0.0121081400213,-0.999907021552,0.0,0.252328101678,-0.276465859458,0.304906068784,1.0,-0.01295,-0.01702,3.54
-0.702912774059,-0.507872735915,-0.125296718261,-2.63170823768,-0.0665996819015,2.11308044339,-0.951647984615,-0.0518179437183,0.0119768344392,4.31693203178e-05,0.0157879215165,8.40374787029e-05,0.00489694772418,-0.0608305816298,0.573782258912,0.818971778131,0.00631608140238,0.0,0.818972200301,-0.573689472837,-0.0120694155475,0.0,-0.00626116184854,0.0120981445267,-0.999907212071,0.0,0.252110646982,-0.276758514904,0.304908651141,1.0,-0.01261,-0.0165731428572,3.557
-0.703875070793,-0.507649278344,-0.125289171174,-2.63152293052,-0.0665812939135,2.11311561521,-0.952575105379,-0.0567366066474,0.0113553592919,-0.000733803094989,0.0099524530712,0.00188230225883,0.000787209570486,-0.0532865996147,0.573823007386,0.81894322298,0.00631669462471,0.0,0.818943666299,-0.573730235103,-0.0120679600064,0.0,-0.00625901587574,0.0120981230851,-0.999907225766,0.0,0.251888294057,-0.277048671319,0.304912997696,1.0,-0.01227,-0.0161262857143,3.574
-0.704760076622,-0.507430180789,-0.125292399195,-2.63135855014,-0.0665496397905,2.11315589771,-0.953420259702,-0.0550378045436,0.0140434626023,-0.00264244238779,0.00638699697143,0.00331207935653,0.00029098087254,-0.0518890223028,0.573879970337,0.818903160735,0.006335604587,0.0,0.818903790668,-0.573786985285,-0.0120757628596,0.0,-0.00625371332144,0.0121185223632,-0.999907011919,0.0,0.251682134618,-0.277315396449,0.30490963869,1.0,-0.01195,-0.0157057142857,3.59
