nelsonifechukwu/NELSON_IML_WORK/CNN-GradCAM/train2dof/data_sample_2022-02-22-14-29-03/robot_state.csv
position_joint1,position_joint2,position_joint3,position_joint4,position_joint5,position_joint6,position_joint7,velocity_joint1,velocity_joint2,velocity_joint3,velocity_joint4,velocity_joint5,velocity_joint6,velocity_joint7,ee_T_00,ee_T_10,ee_T_20,ee_T_30,ee_T_01,ee_T_11,ee_T_21,ee_T_31,ee_T_02,ee_T_12,ee_T_22,ee_T_32,ee_T_03,ee_T_13,ee_T_23,ee_T_33,v_x,v_y,time
0.465079738111,0.547748734774,-0.124003559676,-1.35584795925,0.0795457395464,1.89410432409,0.159160413136,-0.000891324077497,0.00230017739321,-0.000885001269995,-6.62244184205e-05,0.000108165851145,-9.44852794675e-05,2.47255994445e-05,0.573825208751,0.818963635567,0.00198502436359,0.0,0.818920591757,-0.573766143135,-0.0119257825415,0.0,-0.00862800856994,0.00846905503842,-0.999926913617,0.0,0.661674571684,0.260892102396,0.3032311594,1.0,0.0,0.0,0.0
0.465081507914,0.547745918066,-0.12400514773,-1.3558514187,0.0795457395464,1.89410391784,0.159154919972,0.000362887759861,0.000714042467423,-0.000726721763934,-0.00132053375216,0.000190306691979,-0.000324692872624,-0.00164344487589,0.57382055149,0.818966901245,0.00198399925821,0.0,0.818923847441,-0.573761494004,-0.0119258958104,0.0,-0.0086287376879,0.00846823145651,-0.9999269143,0.0,0.661673674961,0.260891952926,0.303231525536,1.0,-0.00026,-0.000341714285714,0.014
0.465078816511,0.547741357617,-0.124008721112,-1.35585165701,0.0795453826635,1.89410362476,0.159152534992,3.90655253033e-05,-0.000901035643168,-0.0022930581982,-0.000502342684713,0.000112245287129,-7.33881813421e-05,-0.000789396676995,0.573823207535,0.818965034115,0.00198652785308,0.0,0.818922034484,-0.573764160067,-0.0119221206337,0.0,-0.00862416748839,0.00846816397205,-0.999926954299,0.0,0.661675226038,0.260888058813,0.303234734934,1.0,-0.0006,-0.000788571428571,0.031
0.465075811323,0.547724922952,-0.124006516599,-1.35587068191,0.079546349898,1.89410687506,0.159159661568,0.000248645640759,-0.0033082053178,-7.90912452554e-05,0.000119452300823,0.000290195271846,-0.000111448458193,0.000923342354216,0.573831253206,0.81895939081,0.00198895706507,0.0,0.818916388258,-0.57377216072,-0.0119249120293,0.0,-0.00862497655569,0.00847183985943,-0.999926916184,0.0,0.661672170981,0.260885681365,0.303237533513,1.0,-0.00092,-0.00120914285714,0.047
0.465077889969,0.547609163041,-0.124001242504,-1.35598454263,0.0795409962193,1.89412787962,0.159159758007,0.000297275107864,-0.00915874161591,0.000486119161261,-0.00823327428652,-8.37838736672e-05,-0.000389363006761,0.00163932286215,0.57383068408,0.818959732145,0.002012469518,0.0,0.818916969812,-0.573771429256,-0.0119201687766,0.0,-0.00860760643986,0.00848836747035,-0.999926925695,0.0,0.661651867685,0.260878677026,0.303266984269,1.0,-0.00126,-0.001656,0.064
0.465074344951,0.547478943516,-0.124001913467,-1.35616516685,0.0795393089605,1.89416310232,0.159148479301,0.00172542536937,-0.00984640161636,-0.00052038171944,-0.0123124524337,0.000119411755006,0.00387879993253,-0.00126708954304,0.573834248496,0.818957250601,0.00200595187556,0.0,0.818914279954,-0.573774898655,-0.0119379504877,0.0,-0.00862587234988,0.00849327100428,-0.999926726652,0.0,0.661622092938,0.260858327496,0.303276336805,1.0,-0.0016,-0.00210285714286,0.081
0.465058728321,0.547317727823,-0.124003180121,-1.35638036643,0.0795351308726,1.89426066359,0.159142227403,0.000246448282241,-0.00992044834817,0.000534361110391,-0.0126464880467,-7.50703472128e-05,0.00928543686525,-0.00124559081458,0.573853836774,0.818943422954,0.00204717384332,0.0,0.818900943305,-0.573794268407,-0.0119218077432,0.0,-0.00858879478423,0.0085179717035,-0.999926835705,0.0,0.661601068877,0.260829789936,0.303296614438,1.0,-0.00194,-0.00254971428571,0.098
0.46504139748,0.547120298531,-0.124001348362,-1.35658795975,0.0795390408012,1.89437293382,0.159132922331,-0.00196264830198,-0.0148452321535,0.000709563117448,-0.0146716863623,0.000451447237822,0.0113384609256,-0.00164458739196,0.573871920732,0.818930503757,0.00214371474902,0.0,0.818889180452,-0.573811856446,-0.0118832000315,0.0,-0.00850158973017,0.00857506473704,-0.999927092961,0.0,0.661584959306,0.26080560947,0.303347346977,1.0,-0.00226,-0.00297028571429,0.114
0.465019681416,0.546922770937,-0.124004235413,-1.35684989768,0.0795305366955,1.89449882824,0.159125522946,0.00103857882257,-0.0111881725935,-0.00102906075543,-0.0165024353836,-3.61630714855e-05,0.00409951445271,0.00156473208986,0.573898220954,0.818911927527,0.00219859981582,0.0,0.818871312295,-0.573837928113,-0.0118555076087,0.0,-0.00844713925823,0.00860439070274,-0.999927302507,0.0,0.661562014144,0.260768251719,0.303373591554,1.0,-0.0026,-0.00341714285714,0.131
0.464983457088,0.54668317747,-0.124003551043,-1.35719830766,0.0795228640241,1.89463516084,0.159093229656,-0.00277546007227,-0.0138004314713,0.000278200840936,-0.0238148300767,-0.000143605679831,0.00631161539074,0.00113611552043,0.573918455837,0.818897663126,0.0022294117844,0.0,0.81885733841,-0.573857926066,-0.0118527180389,0.0,-0.00842695972593,0.00862822995454,-0.999927267354,0.0,0.66152532188,0.260714488169,0.303389249736,1.0,-0.00294,-0.003864,0.148
0.464943846691,0.546416551346,-0.123998918626,-1.35758377641,0.0795127276193,1.89478183867,0.158968363949,-0.00401998270732,-0.0143562156592,0.000799114848312,-0.022665808923,0.000271517382672,0.0136684782165,-0.00613793100345,0.573858876209,0.818939326389,0.00226203243859,0.0,0.818899279491,-0.573798075116,-0.0118526766428,0.0,-0.00840883506275,0.00865430705467,-0.999927194581,0.0,0.661478016442,0.260657856782,0.303407262771,1.0,-0.00328,-0.00431085714286,0.165
0.464906452051,0.546112409014,-0.123996337517,-1.35808233893,0.0794948948169,1.89495059033,0.158951675477,-0.000844198491772,-0.0154546108332,0.00176775364599,-0.0277383009115,9.45234603024e-05,0.00320990016761,0.00122070069623,0.573902523181,0.818908779588,0.0022475544524,0.0,0.818868405816,-0.573841631426,-0.0118769903463,0.0,-0.00843659378657,0.00865685273021,-0.999926938724,0.0,0.661420389653,0.260587163236,0.303399764204,1.0,-0.00362,-0.00475771428571,0.182
0.46485683216,0.545802184005,-0.124004271485,-1.35859161618,0.0794693931431,1.89512808529,0.158891221123,-0.00015129478202,-0.0199325984582,-0.000247029147359,-0.0371010943395,-0.00354542459002,0.00614275981964,-0.0105921288393,0.573920871299,0.818895969144,0.00222982244595,0.0,0.818855336921,-0.573860019443,-0.0118895829285,0.0,-0.00845688840409,0.00864974833843,-0.999926828769,0.0,0.661363215199,0.260501284361,0.303392645259,1.0,-0.00394,-0.00517828571429,0.198
0.464797219741,0.545453924891,-0.124002028593,-1.35919157743,0.0794090967032,1.8953258118,0.158779887979,-0.00738699163546,-0.0235934321917,5.86767091951e-06,-0.0400476206841,-0.00149503807961,0.0155016891898,-0.00575521133055,0.573894371918,0.818914697994,0.00217121905768,0.0,0.81887345938,-0.57383391778,-0.0119012280731,0.0,-0.00850033511283,0.0086081672048,-0.999926819202,0.0,0.661292409273,0.260400161309,0.303370624633,1.0,-0.00428,-0.00562514285714,0.215
0.464734738712,0.545056977236,-0.124003010757,-1.35988694934,0.0793770918441,1.89554989433,0.158737435332,-7.34623595662e-05,-0.0256794739308,-0.000145341117082,-0.0430029887455,-0.00477077783142,0.0148257999071,-0.0045245124148,0.573941660105,0.818881710592,0.00211228673875,0.0,0.81883956464,-0.573881299596,-0.0119485670497,0.0,-0.0085724262118,0.00858756969928,-0.999926380868,0.0,0.661206047476,0.260290960409,0.303340079745,1.0,-0.00462,-0.006072,0.232
0.464668976837,0.544631927236,-0.12400590566,-1.36058936114,0.079352651102,1.89580063565,0.158622431767,-0.00878690266692,-0.0265191681759,-0.000663566696946,-0.04201252617,-0.00484090040573,0.014951399419,-0.0020214431702,0.573936061796,0.818885669873,0.0020984632215,0.0,0.818843171717,-0.573875587179,-0.0119757034309,0.0,-0.00860264074028,0.00859176576251,-0.999926085335,0.0,0.661124915051,0.260181061143,0.303328431224,1.0,-0.00496,-0.00651885714286,0.249
0.464598018489,0.544170148989,-0.124002718841,-1.36135507228,0.0793193499106,1.89607255902,0.158523870729,-0.00668672534992,-0.0294095026525,0.000549809572299,-0.0471142754724,-0.00080753299502,0.0153669583042,-0.00506414962587,0.573945058489,0.818879415324,0.00207843603738,0.0,0.818836495675,-0.57388450678,-0.012004712771,0.0,-0.00863779623921,0.00859211027958,-0.999925779304,0.0,0.661034774912,0.26006422488,0.303314228784,1.0,-0.0053,-0.00696571428571,0.266
0.464529563379,0.543700200526,-0.124008081342,-1.36213502735,0.0792789151912,1.89635216256,0.158452697374,-0.00427527452085,-0.0333851150919,-5.23443369751e-05,-0.0497614177785,-0.00458799152408,0.0179140692172,-0.00154414608475,0.573981913357,0.81885363861,0.0020563498782,0.0,0.818810363638,-0.573921383674,-0.0120241699183,0.0,-0.00866601896914,0.00858558194681,-0.999925591181,0.0,0.660939886759,0.259932400132,0.303303703735,1.0,-0.00564,-0.00741257142857,0.283
0.464441794816,0.543166667084,-0.12400865799,-1.36298522561,0.0792288106964,1.89663967064,0.158327102063,-0.00407876672608,-0.0263955410995,-0.000903913085631,-0.0501117600428,-0.00464318145273,0.0179137110548,-0.00884267571017,0.573982551976,0.818853256494,0.00203008818971,0.0,0.818809593441,-0.573922089345,-0.0120429212544,0.0,-0.00869644026491,0.0085748474525,-0.999925419178,0.0,0.66084606679,0.259801019889,0.303297612562,1.0,-0.00596,-0.00783314285714,0.299
0.464369347423,0.542596554861,-0.124020090416,-1.36389128967,0.0791781124041,1.89696397548,0.158219636428,-0.00849171384126,-0.0372520226143,0.000286417726523,-0.0567704831907,-0.00577032593536,0.0206838719253,-0.00470408720131,0.573998730906,0.818841942282,0.00201925205063,0.0,0.818798134529,-0.573938309494,-0.0120490118763,0.0,-0.00870747782493,0.00856964233005,-0.999925367745,0.0,0.660741267813,0.259660252732,0.303298079032,1.0,-0.0063,-0.00828,0.316
0.464289098939,0.542036257128,-0.124020104547,-1.36475985531,0.079126763871,1.8972874344,0.15809833506,-0.00509973239446,-0.0337711611691,-0.00094316512779,-0.0524956136692,-0.00237325817494,0.0186245814282,-0.007658798203,0.57399972055,0.818841215601,0.00203257075879,0.0,0.818797567667,-0.573939228077,-0.0120437767103,0.0,-0.00869553608563,0.008577553604,-0.999925403831,0.0,0.660643995329,0.259525117625,0.303308926707,1.0,-0.00662,-0.00870057142857,0.332
0.464196218183,0.541397184545,-0.124018081595,-1.36572203612,0.0790641877187,1.89765120825,0.157970422515,-0.00844820162922,-0.0437561791273,0.000746601528197,-0.0535042170026,-0.00115652230496,0.0231754174248,-0.00970766664283,0.574006357821,0.818836481249,0.00206520164637,0.0,0.818793297437,-0.573945763376,-0.0120226318482,0.0,-0.00865942254318,0.00859220581109,-0.999925591432,0.0,0.660538541788,0.259373671392,0.303334251612,1.0,-0.00696,-0.00914742857143,0.349
0.464105174196,0.540719283889,-0.12402359647,-1.36676955539,0.079008297349,1.89803039719,0.157829907966,-0.00416625522633,-0.0393088802174,0.000144883727866,-0.0592711896702,-0.00293338639886,0.0166469012353,-0.00655506819423,0.574012832496,0.818831914456,0.00207627068754,0.0,0.818788815305,-0.573952130982,-0.0120239001347,0.0,-0.00865403979796,0.00860206580687,-0.999925553258,0.0,0.660418183385,0.259211582407,0.303347916487,1.0,-0.0073,-0.00959428571429,0.366
0.464014288218,0.539984714996,-0.124028994305,-1.36787534715,0.0789364007099,1.89843875684,0.157699471971,-0.00680665913245,-0.0474806999978,-0.00146444289385,-0.0649971772776,-0.00839046240276,0.0279780609021,-0.00682858107554,0.574026228609,0.81882245276,0.00210395463702,0.0,0.818779783262,-0.573965477003,-0.0120018594703,0.0,-0.00861996064332,0.00861222346174,-0.999925760187,0.0,0.660292302426,0.259042895943,0.303376284768,1.0,-0.00764,-0.0100411428571,0.383
0.463920270528,0.539246334267,-0.124032276674,-1.36902695023,0.0788665985253,1.89887746302,0.157560396214,-0.0076460305564,-0.0430025366585,-0.000886851891357,-0.0691379177118,-0.00699427804145,0.0213578311744,-0.0039599125445,0.574036781016,0.818815004146,0.00212365881866,0.0,0.818772618912,-0.573975973028,-0.0119886532987,0.0,-0.00859772559651,0.00862088761972,-0.999925876958,0.0,0.66016197281,0.258870382674,0.303387998509,1.0,-0.00798,-0.010488,0.4
0.463810245557,0.5384848817,-0.124038235506,-1.37022072864,0.0787998166758,1.89933904759,0.157414947884,-0.00583250795172,-0.0467617302306,-0.00290094876896,-0.0678720609409,-0.00451013470471,0.0281000773734,-0.011459990584,0.574060210887,0.818798512908,0.00214858946665,0.0,0.818756453081,-0.57399929676,-0.0119760076162,0.0,-0.00857281343704,0.00863428718535,-0.999925975237,0.0,0.660031406505,0.258683095359,0.303397895743,1.0,-0.00832,-0.0109348571429,0.417
0.46371435018,0.537748554476,-0.12404398916,-1.37137285787,0.0787393415909,1.89978253055,0.157265809836,-0.00298944936166,-0.0473769111771,-0.000681522700126,-0.0732641980275,-0.00075280939964,0.0259625935978,-0.00867964457677,0.574068186346,0.81879285254,0.0021746162791,0.0,0.818751092315,-0.57400712374,-0.0119673568128,0.0,-0.00855070561413,0.00865071482786,-0.999926022547,0.0,0.659901914593,0.258509669641,0.303408175698,1.0,-0.00864,-0.0113554285714,0.433
0.463615246435,0.536925949576,-0.124047423684,-1.37267005633,0.0786630118305,1.90025747464,0.157110034841,-0.00924639141358,-0.0483734403577,-0.00151074427958,-0.0818375981045,-0.000928939873786,0.0335439540739,-0.0100254252757,0.574075225983,0.818787916944,0.0021745988667,0.0,0.818746133367,-0.574014139163,-0.011970131127,0.0,-0.00855291290462,0.0086523667304,-0.999925989377,0.0,0.659748271805,0.258318971006,0.3034128301,1.0,-0.00898,-0.0118022857143,0.45
0.463499207576,0.536073440274,-0.124048780449,-1.37398910453,0.0785818812373,1.90075079501,0.156946006864,-0.0025497621527,-0.0493155583011,0.000504946670118,-0.0809128314038,-0.00479962049174,0.0377154965447,-0.00630919920767,0.574087743232,0.818779084137,0.00219575763013,0.0,0.818737592353,-0.57402658418,-0.011957525804,0.0,-0.00853031300917,0.00866258510054,-0.999926093959,0.0,0.659597886951,0.258116590602,0.303429554022,1.0,-0.00932,-0.0122491428571,0.467
0.463383099384,0.535177037635,-0.124049274909,-1.37541157988,0.0785153453312,1.90125724664,0.156770357454,-0.00646014967745,-0.0524450081947,0.000405842402613,-0.0874029265916,0.000494375320225,0.0295078109543,-0.0105475728246,0.574099576905,0.818770803475,0.00218953769982,0.0,0.818729011839,-0.574038219975,-0.0119864124384,0.0,-0.00855741097586,0.00867419935204,-0.999925761736,0.0,0.659425946489,0.257906227658,0.303429008902,1.0,-0.00966,-0.012696,0.484
0.46325358494,0.534285624572,-0.124055303046,-1.37687392817,0.0784267923056,1.9017847952,0.156598483687,-0.00774267173237,-0.0500337467043,-0.00184973251084,-0.0828951828384,-0.00822419194084,0.0282403362628,-0.00529506939587,0.574125575548,0.818752678906,0.00214969447046,0.0,0.818710354,-0.57406436714,-0.0120085608767,0.0,-0.00859814393281,0.00865456567297,-0.999925582438,0.0,0.659254393912,0.257676908482,0.303407774572,1.0,-0.01,-0.0131428571429,0.501
0.4631262755,0.533370872452,-0.124054946082,-1.3783450546,0.0783327970001,1.9023330898,0.156406959341,-0.00888021252999,-0.0571084786254,-0.000704736594338,-0.0902198063438,-0.00189325084603,0.0376277989817,-0.0150188715304,0.574128124057,0.818750920511,0.0021387450517,0.0,0.818708479302,-0.574066987815,-0.0120110916162,0.0,-0.00860647508889,0.00864708068948,-0.999925575522,0.0,0.659083454902,0.257452565848,0.303400220932,1.0,-0.01034,-0.0135897142857,0.518
0.463001761021,0.532479180364,-0.124055263153,-1.37977215139,0.0782729400105,1.90288016529,0.156224863769,-0.0102730632278,-0.0543856447996,-9.62586157786e-05,-0.0948078046341,-0.00730240113382,0.0329511416743,-0.0105193527374,0.574143376088,0.818740165912,0.00216132299983,0.0,0.818697790586,-0.574081913111,-0.0120262891243,0.0,-0.00860579519858,0.00867445161442,-0.999925344302,0.0,0.658919103167,0.257240031696,0.303397157596,1.0,-0.01066,-0.0140102857143,0.534
0.462868266012,0.531514435976,-0.124047705091,-1.38134179672,0.0781686264757,1.9034474668,0.156020931219,-0.0108908906463,-0.0550960381302,0.00129469569,-0.0930533915954,-0.00552649541186,0.0305981706322,-0.0167924160845,0.574137933007,0.818744078007,0.00212497338537,0.0,0.818701225672,-0.574076621394,-0.0120450302559,0.0,-0.00864206603638,0.0086553937324,-0.999925196629,0.0,0.658730051384,0.2570044377,0.303378986886,1.0,-0.011,-0.0144571428571,0.551
0.462726970441,0.530496081886,-0.12405315807,-1.38298813981,0.0780712447036,1.90402784903,0.155814836932,-0.00614662238431,-0.0586856547316,-0.00126611192774,-0.0899717165895,-0.00503400518961,0.0327345299655,-0.0177527761114,0.574152057588,0.818734278235,0.00208406116182,0.0,0.818690825923,-0.574090853019,-0.0120735633177,0.0,-0.00868876698417,0.00863842929163,-0.999924938617,0.0,0.658531263877,0.256749779057,0.303363447849,1.0,-0.01134,-0.014904,0.568
0.46258493256,0.529447793909,-0.124063326043,-1.38463026924,0.077968467861,1.90463004054,0.155595564261,-0.0111561820126,-0.064032054375,-0.0011477849161,-0.0942225124152,-0.00626697181506,0.0305464753151,-0.0167236420431,0.5741575406,0.818730426578,0.00208664045204,0.0,0.81868705867,-0.574096374715,-0.0120664578767,0.0,-0.00868141062988,0.00863651959218,-0.999925019008,0.0,0.658339701552,0.256493416534,0.30337278158,1.0,-0.01168,-0.0153508571429,0.585
0.462444265393,0.528353060128,-0.124056683834,-1.38632694274,0.0778571932187,1.90527747171,0.155357075797,-0.0089502905633,-0.0703330815175,0.00173944545762,-0.102636662227,-0.00391597625738,0.0305220759719,-0.0143193159301,0.57413489965,0.818746214354,0.00212141137084,0.0,0.818703352868,-0.574073640908,-0.0120424963582,0.0,-0.0086420683417,0.00865099059863,-0.999925234713,0.0,0.658141440353,0.256243586019,0.303391969587,1.0,-0.01202,-0.0157977142857,0.602
0.4623035925,0.527309997773,-0.124066975142,-1.38795275064,0.07775622619,1.90590423435,0.15513221939,-0.00854189433035,-0.06166454133,8.20645180088e-05,-0.104368080464,-0.00384628303232,0.0431473386476,-0.0139298910712,0.574134198215,0.818746621783,0.00215375491153,0.0,0.81870427184,-0.574072893189,-0.0120156347105,0.0,-0.00860151362031,0.00866204191826,-0.999925488721,0.0,0.657957097803,0.255991918081,0.303407025686,1.0,-0.01234,-0.0162182857143,0.618
0.462159483393,0.526133712514,-0.124073738137,-1.38975608583,0.0776475900185,1.90658160375,0.154883903493,-0.00747181296125,-0.0723959800799,-0.000755728499972,-0.101598900833,-0.00403128512511,0.0387973767959,-0.015887334722,0.574121803144,0.818755203421,0.00219520568428,0.0,0.818713416141,-0.574060349421,-0.0119918453479,0.0,-0.00855837001016,0.00868219137814,-0.999925684166,0.0,0.657744738712,0.255722947028,0.303435328228,1.0,-0.01268,-0.0166651428571,0.635
0.462010603768,0.524961065508,-0.124074425704,-1.39160122139,0.0775296626163,1.90724333714,0.154636169005,-0.0148965015434,-0.0710335530681,0.000394239403649,-0.110944057946,-0.00613292307106,0.0437607246474,-0.0170104020199,0.574108811211,0.818764346393,0.00218285752297,0.0,0.81872239475,-0.574047406943,-0.0119984090226,0.0,-0.00857097083808,0.00867571371334,-0.99992563246,0.0,0.657519109688,0.255446863043,0.303439317255,1.0,-0.01302,-0.017112,0.652
0.461852694505,0.523788116304,-0.124080805165,-1.39349993954,0.0774073164287,1.90792486154,0.154388349115,-0.00717795777757,-0.0664967784886,-0.00242128396659,-0.10901938232,-0.00263626764195,0.0433930486466,-0.0105596750688,0.574108665624,0.818764564198,0.00213901144602,0.0,0.818722066035,-0.574047470026,-0.0120178053037,0.0,-0.00861202482129,0.00865094859454,-0.999925494283,0.0,0.657288079675,0.25515584022,0.303419632977,1.0,-0.01336,-0.0175588571429,0.669
0.461715480911,0.522635032459,-0.124083670331,-1.39532061716,0.0773050587921,1.90862721425,0.154130231417,-0.0134306937128,-0.0668681351818,-0.000803636336034,-0.114828251172,-0.00554193381018,0.0499047252834,-0.00765523493195,0.574082014742,0.818783167462,0.00217069868526,0.0,0.818741034282,-0.574020641259,-0.0120070434985,0.0,-0.00858530454995,0.00867043474211,-0.999925555283,0.0,0.657071288279,0.254894109076,0.303424529036,1.0,-0.01368,-0.0179794285714,0.685
0.461547354638,0.521400946454,-0.124084013279,-1.3972997699,0.0771811909458,1.90939829615,0.153871698771,-0.00693529782925,-0.0727631603812,-3.52696631662e-05,-0.117834674256,-0.0072933275053,0.0498395998962,-0.0139976062537,0.574080977003,0.818783849906,0.0021876647744,0.0,0.818741994719,-0.574019590533,-0.0119917750459,0.0,-0.00856307416695,0.00867554998672,-0.999925701536,0.0,0.65684088318,0.25459700041,0.303416475507,1.0,-0.01402,-0.0184262857143,0.702
0.461380197295,0.520109767394,-0.124090431669,-1.39932801622,0.0770495280997,1.91014008622,0.153598583959,-0.0152013416022,-0.0784425813531,-0.000584754549956,-0.119079460262,-0.00501630922927,0.0478002590331,-0.0190716723483,0.574071329665,0.818790620171,0.00218533246318,0.0,0.818748794194,-0.574010014471,-0.0119859164734,0.0,-0.00855971806484,0.00867017625404,-0.999925776881,0.0,0.656595405114,0.254288758271,0.303422416054,1.0,-0.01436,-0.0188731428571,0.719
0.461218245311,0.51884583014,-0.124095417445,-1.4012973813,0.0769210312288,1.91083475399,0.153329352578,-0.0125309995797,-0.0847573268521,-0.000137429026404,-0.124823612762,-0.0163508656384,0.0394846676431,-0.0170981934427,0.574051054393,0.81880486114,0.00217559776873,0.0,0.818762934691,-0.573989808834,-0.0119876199337,0.0,-0.00856691546749,0.00866297146547,-0.999925777688,0.0,0.656335630958,0.253974203024,0.303436903533,1.0,-0.0147,-0.01932,0.736
0.461037815909,0.517419906824,-0.124096612255,-1.40352662674,0.0767750873907,1.91164373646,0.153025163729,-0.00917183889489,-0.0784447367648,-0.000555983456711,-0.127209242903,-0.00658816225575,0.0441343787716,-0.0143657506036,0.574034988253,0.818816137797,0.00217063260734,0.0,0.818774176155,-0.573973795166,-0.011986568547,0.0,-0.00856907450879,0.0086581343558,-0.999925801083,0.0,0.656076613486,0.253655158389,0.303442442749,1.0,-0.01504,-0.0197668571429,0.753
0.46085102826,0.516074152105,-0.124099996114,-1.40568514532,0.0766403901923,1.91244905923,0.152728876072,-0.00825708248225,-0.0839840226626,0.00104165538934,-0.126852962631,-0.00614026233664,0.049771518802,-0.0154920294893,0.574025617339,0.818822735048,0.00216011762097,0.0,0.818780647594,-0.57396448046,-0.0119905461403,0.0,-0.00857846615932,0.00865170972721,-0.999925776164,0.0,0.655816617857,0.253325017344,0.303428944952,1.0,-0.01538,-0.0202137142857,0.77
0.460680578376,0.514780471267,-0.124103901009,-1.4077565544,0.0765168734649,1.9132256738,0.152442202432,-0.0100538401746,-0.0850186467274,-0.00155651661819,-0.135389540108,-0.00253267849824,0.0475840218797,-0.0208549254714,0.574018593434,0.818827661974,0.00215899968644,0.0,0.818785539619,-0.573957441597,-0.0119934251771,0.0,-0.00858153958166,0.00865237335894,-0.99992574405,0.0,0.655551119132,0.252987920484,0.303418194625,1.0,-0.01572,-0.0206605714286,0.787
0.460481190737,0.513385390112,-0.124103597203,-1.41002508167,0.0763846088272,1.91400321825,0.152133836591,-0.0108078570406,-0.0796078422821,-0.000579445959147,-0.137015784572,-0.0106659923199,0.0439494347777,-0.017911950458,0.57400313582,0.818838700241,0.00208085483668,0.0,0.818795340704,-0.573942097768,-0.0120584141258,0.0,-0.00867977307215,0.00862552783432,-0.999925128102,0.0,0.655274969334,0.252664879281,0.30338294917,1.0,-0.01604,-0.0210811428571,0.803
0.460286623791,0.511952962289,-0.124114931816,-1.41231340242,0.0762392672333,1.91482517871,0.151816421617,-0.0107692232729,-0.0843862877482,0.000199610791596,-0.13840996446,-0.00800114031135,0.0451221415324,-0.0060461648487,0.573991155445,0.818847185759,0.00204615423138,0.0,0.818803391668,-0.573930286352,-0.0120739017215,0.0,-0.00871249830445,0.00860587651419,-0.99992501282,0.0,0.654991539391,0.252310376949,0.303368833664,1.0,-0.01638,-0.021528,0.82
0.460086988682,0.510503396803,-0.124115888458,-1.41463947117,0.0760931916341,1.91571175454,0.151483506024,-0.00924349785652,-0.0870605474705,-0.000688135945623,-0.137653426633,-0.00812926196855,0.0499939165659,-0.0203542153,0.573965004232,0.818865507057,0.0020499196599,0.0,0.818821790579,-0.573904150331,-0.0120684881881,0.0,-0.00870617891979,0.00860557444437,-0.999925070461,0.0,0.654710532821,0.251958632373,0.303353578055,1.0,-0.01672,-0.0219748571429,0.837
0.459882485844,0.509008744431,-0.124113192143,-1.41699693837,0.0759448071251,1.91657820779,0.151150693513,-0.00885218930027,-0.0912453588733,0.00134655282677,-0.142154227566,-0.00908432459623,0.0501515861001,-0.0219067106546,0.573940649244,0.818882574972,0.00205096406946,0.0,0.818838841479,-0.573879763636,-0.0120712665161,0.0,-0.00870811069059,0.00860776531016,-0.999925034782,0.0,0.654418768965,0.251601084141,0.303352546799,1.0,-0.01706,-0.0224217142857,0.854
0.45967158102,0.50749566599,-0.124117006656,-1.41937407931,0.0757899812081,1.91742705762,0.150818036648,-0.00994085430335,-0.0895330012094,0.000470783939927,-0.146518489008,-0.0119068249215,0.047393324637,-0.0237110686449,0.573924932518,0.81889363544,0.00203287246702,0.0,0.818849674524,-0.573864135758,-0.0120793676953,0.0,-0.00872529271336,0.00859743277458,-0.999924973894,0.0,0.654121717669,0.251231346401,0.303353188588,1.0,-0.0174,-0.0228685714286,0.871
0.459463879037,0.506020142983,-0.124127099458,-1.42166345959,0.0756530678256,1.91828551705,0.150504449135,-0.0112414095879,-0.0855277088505,-0.000702604386162,-0.144635177331,-0.00775973256722,0.055884232129,-0.0174935092271,0.573927018909,0.81889208085,0.00206973149117,0.0,0.818848598929,-0.573866060828,-0.0120608110084,0.0,-0.00868892125423,0.00861698794309,-0.99992512228,0.0,0.65384533062,0.250873491709,0.303369859494,1.0,-0.01772,-0.0232891428571,0.887
0.459240482404,0.504382556081,-0.124121297142,-1.4241400196,0.0754881542678,1.91924271809,0.150159700173,-0.0149803953552,-0.0982439293086,0.00131110900384,-0.14767672498,-0.0131013783868,0.0556183501005,-0.0194709199512,0.573906644834,0.818906117057,0.00216364573257,0.0,0.818863983431,-0.573845415398,-0.0119984484994,0.0,-0.00858416995902,0.00865788757596,-0.999925673742,0.0,0.653548933666,0.250496852597,0.303418123,1.0,-0.01806,-0.023736,0.904
0.459007352668,0.502717756772,-0.12413445586,-1.42661340012,0.0753315615417,1.92017237781,0.14981611965,-0.0108102993292,-0.0950266543061,-0.000135171060857,-0.14319372692,-0.00863358484937,0.0481617348315,-0.0233756679107,0.573910277817,0.818903304883,0.00226211608872,0.0,0.818862559374,-0.57384875066,-0.0119359592238,0.0,-0.00847644716186,0.0087026993981,-0.99992620371,0.0,0.653253706502,0.250103085525,0.303484450829,1.0,-0.0184,-0.0241828571429,0.921
0.458794473926,0.501100082548,-0.124137689157,-1.42903349209,0.0751814788409,1.92102464533,0.14947601598,-0.01060853042,-0.0984949582924,-0.004274809965,-0.148361242684,-0.0127929105035,0.047205096806,-0.0277824262333,0.573891324796,0.818916463531,0.00230650892733,0.0,0.818876231201,-0.573829554673,-0.0119208665408,0.0,-0.00843881335254,0.0087301953128,-0.999926282342,0.0,0.652945869952,0.249730039019,0.303535610376,1.0,-0.01872,-0.0246034285714,0.937
0.458543953423,0.49940057415,-0.124136394382,-1.43162648366,0.0750152984065,1.92196613828,0.149132152426,-0.017835470649,-0.0988756209223,0.00142176122772,-0.152265989994,-0.00816709596901,0.0488646435497,-0.0114514814472,0.573901034444,0.818909549026,0.00234522475976,0.0,0.818869812819,-0.573839100816,-0.0119022237234,0.0,-0.00840122474398,0.00875130075675,-0.999926414372,0.0,0.652624501312,0.249319173594,0.303568587771,1.0,-0.01906,-0.0250502857143,0.954
0.458288555029,0.497728286011,-0.124144701324,-1.43427340294,0.0748552724745,1.92294384044,0.148733108441,-0.0195436611435,-0.10254034276,0.000309834693281,-0.156527978197,-0.00774653356851,0.0568187827205,-0.0192983921181,0.573880750138,0.818923759013,0.00234700804889,0.0,0.818883999532,-0.573818763602,-0.0119066682817,0.0,-0.00840405809391,0.008755103626,-0.999926357272,0.0,0.652298482104,0.248896276914,0.303559837607,1.0,-0.0194,-0.0254971428571,0.971
0.458031900849,0.496047152504,-0.12414124142,-1.4369512566,0.0746820092781,1.92389266195,0.148339734026,-0.0172902635226,-0.0957651942437,0.00325890908642,-0.159119914638,-0.0109002164804,0.0603767669343,-0.0260470196116,0.573854704355,0.81894213435,0.00230342719702,0.0,0.818901736946,-0.573792822071,-0.0119368952486,0.0,-0.00845409924822,0.00873649223094,-0.999926098224,0.0,0.651956550638,0.248472048774,0.303539011688,1.0,-0.01974,-0.025944,0.988
0.457774536629,0.494487828743,-0.124139447137,-1.43953126449,0.0745228120153,1.92478284976,0.14797236335,-0.0113050690245,-0.0933157995314,0.00101450943096,-0.162501109842,-0.010686845885,0.0621995659992,-0.0246844971197,0.573850176991,0.818945609556,0.00219313869389,0.0,0.81890358749,-0.573788555789,-0.0120147635541,0.0,-0.0085812051935,0.00869081066137,-0.999925413582,0.0,0.651621964368,0.248054839803,0.303474404855,1.0,-0.0225874285714,-0.0296863346939,1.004
0.457426155955,0.491867695484,-0.124236815692,-1.44341778953,0.0743123745789,1.92621783613,0.147410316556,-0.0167434105741,-0.169002056001,0.000344541507442,-0.258258123132,-0.0143333082824,0.0956789539648,-0.0346435492624,0.573883951233,0.818921552752,0.00233406432303,0.0,0.818881511302,-0.573821897781,-0.0119267336628,0.0,-0.00842788429395,0.00875605174118,-0.999926148435,0.0,0.651152899995,0.247407897063,0.303575426849,1.0,-0.038232,-0.0502477714286,1.022
0.457005906658,0.488514932561,-0.12427042198,-1.44872545268,0.0740355297471,1.92827135783,0.146597001381,-0.0332697252222,-0.235166826242,3.38722759325e-05,-0.368958110039,-0.0130507842342,0.138316252887,-0.0530235148858,0.57377810155,0.818995430065,0.00243364242411,0.0,0.818956405233,-0.573715373829,-0.0119089488129,0.0,-0.00835731748575,0.00882631102641,-0.99992612301,0.0,0.650484389342,0.246624028886,0.303559746854,1.0,-0.0521382857143,-0.0685246040816,1.038
0.456309293766,0.483691309515,-0.124379016865,-1.45633223637,0.0735950674992,1.9311339559,0.14543366532,-0.0467788090222,-0.303118906189,-0.00581449386218,-0.484199921456,-0.0296309901476,0.172282330476,-0.0838669113057,0.573732694718,0.819027067536,0.00249089450548,0.0,0.818988899273,-0.573669868517,-0.0118664115961,0.0,-0.00829012077882,0.00884833360878,-0.999926487743,0.0,0.649541291376,0.245392591812,0.303540369999,1.0,-0.0669137142857,-0.0879437387755,1.055
0.455370803725,0.477621232236,-0.124545241954,-1.4660378188,0.0730161109042,1.93447409814,0.143983669099,-0.0616508262886,-0.381053463492,-0.0062698472855,-0.602331301986,-0.0309091618629,0.210359942135,-0.0872357439293,0.573751279408,0.819014813021,0.00222538342451,0.0,0.818973025432,-0.573689347446,-0.0120192821716,0.0,-0.00856745632585,0.00871877538286,-0.999925288033,0.0,0.648277623367,0.243750253129,0.303423274291,1.0,-0.0816891428571,-0.107362873469,1.072
0.454198529134,0.470296164119,-0.124702816132,-1.47748106971,0.0723432736829,1.9384901745,0.142314747687,-0.0723650521286,-0.44983153427,-0.0102908597141,-0.686153819264,-0.0379412369465,0.253604585071,-0.113761221119,0.573827612835,0.818961564974,0.00213839754209,0.0,0.818918327586,-0.573765722385,-0.0121002256306,0.0,-0.00868284768019,0.00869478392877,-0.999924501594,0.0,0.646793338289,0.241805251186,0.303395522266,1.0,-0.0964645714286,-0.126782008163,1.089
0.452830561407,0.461736682505,-0.124822872696,-1.49049705777,0.0715400279002,1.94333761991,0.140193987103,-0.0865263695384,-0.510957274419,-0.00209693901928,-0.78085534372,-0.0491358471293,0.281758629075,-0.130473903421,0.573696681592,0.819052388011,0.00245970026793,0.0,0.819013536404,-0.573633686293,-0.0119150341179,0.0,-0.00834823094491,0.00885031374537,-0.999925986754,0.0,0.645136218604,0.239624275517,0.303527037639,1.0,-0.11124,-0.146201142857,1.106
0.451256853122,0.452722439115,-0.124965610863,-1.50454611932,0.0706489963976,1.94812862143,0.138019193951,-0.101213265508,-0.590029992003,-0.0109811822811,-0.885640673542,-0.0623762537949,0.313640233784,-0.145468761312,0.573715045761,0.819040145053,0.00224364900993,0.0,0.818998045767,-0.573652481661,-0.0120738649794,0.0,-0.00860207091803,0.00876467090073,-0.999924589617,0.0,0.64324661285,0.237169900202,0.303458220545,1.0,-0.125146285714,-0.16447797551,1.122
0.449252941448,0.441234030082,-0.125128483685,-1.52196216919,0.0694577606739,1.95436322694,0.13532127074,-0.114461163461,-0.654407429916,-0.00532977593548,-1.01464588015,-0.0671588568049,0.356126459755,-0.160735892922,0.573724294282,0.819033088179,0.00244571440016,0.0,0.818994309027,-0.573661619818,-0.0118917883547,0.0,-0.00833691616716,0.00882580398085,-0.99992629779,0.0,0.640936655482,0.234119395277,0.303584405798,1.0,-0.140790857143,-0.185039412245,1.14
0.447193019115,0.429984738111,-0.125265291081,-1.53897510136,0.0683323426838,1.9602510867,0.132540435266,-0.133617989426,-0.731964333872,-0.00506209148305,-1.09766869248,-0.071001188173,0.380717497855,-0.17755146031,0.573670557836,0.819070445657,0.00253831146488,0.0,0.819032660949,-0.57360730749,-0.0118702988182,0.0,-0.00826677609923,0.00888877207454,-0.999926322358,0.0,0.638604912862,0.231090383419,0.303676937501,1.0,-0.154697142857,-0.203316244898,1.156
0.444860917737,0.417902667902,-0.12543424078,-1.55719852501,0.0670415784731,1.96652571593,0.129518538652,-0.157825027463,-0.76134833826,-0.00863733319246,-1.14650033326,-0.0793102602921,0.409841341401,-0.18823515762,0.573651724266,0.819083221291,0.00266884754496,0.0,0.819047590199,-0.573588487585,-0.0117489915116,0.0,-0.00809273739763,0.00892591424085,-0.999927415194,0.0,0.635930950585,0.227539615092,0.303796114348,1.0,-0.169472571429,-0.222735379592,1.173
0.442077553977,0.404083452974,-0.125595562149,-1.57791045228,0.065586118491,1.97379180593,0.126052234016,-0.165633722738,-0.798854509707,-0.0135594589336,-1.2484094799,-0.0868553914956,0.419260821217,-0.217472914414,0.573651687098,0.819082594683,0.00286214583741,0.0,0.819049786875,-0.573588132258,-0.0116124094811,0.0,-0.00786998112466,0.00900589161954,-0.999928476099,0.0,0.63319324166,0.223915348559,0.303883347322,1.0,-0.183378857143,-0.241012212245,1.189
0.438725071349,0.388372224087,-0.125796374465,-1.60121766502,0.0639518054452,1.98179110406,0.122039813033,-0.191727188224,-0.86905417396,-0.014976470877,-1.34016793713,-0.107477088884,0.453382630109,-0.229556834749,0.573721954641,0.819032239107,0.00317127225904,0.0,0.819003477024,-0.573657462004,-0.0114528516427,0.0,-0.00756117630571,0.0091682119539,-0.999929383758,0.0,0.629870746902,0.219465090333,0.304055655111,1.0,-0.199023428571,-0.26157364898,1.207
0.435474485747,0.373600904312,-0.125953057286,-1.62320415913,0.0623144544117,1.98909625376,0.118035596324,-0.210490994739,-0.933902812846,-0.0093436724011,-1.40851487606,-0.0958267742965,0.462281645645,-0.25186948218,0.573584365643,0.819128508028,0.00319526632198,0.0,0.81910009425,-0.5735198657,-0.0114344281667,0.0,-0.00753386242272,0.00917602883899,-0.999929518222,0.0,0.626612060433,0.215227403274,0.304106957218,1.0,-0.212929714286,-0.279850481633,1.223
0.431609196813,0.357035446978,-0.126145524553,-1.64768300606,0.0604161791622,1.99717223355,0.113658530637,-0.235737375202,-0.985821297085,-0.00908678406791,-1.46793662513,-0.11606915592,0.479971018507,-0.274273530347,0.573641411561,0.819088358455,0.00324636499917,0.0,0.819061036317,-0.573577285089,-0.0113518155947,0.0,-0.00743624194899,0.00917101917253,-0.999930294927,0.0,0.62293051225,0.210364292137,0.304173085053,1.0,-0.227705142857,-0.299269616327,1.24
0.427268255464,0.339664443364,-0.126398113274,-1.67327152973,0.0584917562195,2.00545513425,0.10880827138,-0.251486499053,-1.04508059703,-0.0100967860873,-1.51642729212,-0.120445153664,0.493308132599,-0.291712239229,0.573729735448,0.819026420424,0.00326499785108,0.0,0.818998999856,-0.57366512589,-0.0113889627805,0.0,-0.0074549895468,0.00920839386774,-0.999929811843,0.0,0.619002205229,0.205104959525,0.304190391291,1.0,-0.242480571429,-0.31868875102,1.257
0.422913269675,0.32260230989,-0.126538041147,-1.69826067393,0.0564764585255,2.01348656144,0.103932521772,-0.278248816862,-1.10486107256,-0.00832716459843,-1.602095662,-0.143564171755,0.5064729742,-0.309204559758,0.57361492371,0.819106770841,0.00328087820621,0.0,0.819079629347,-0.573550375313,-0.0113699018746,0.0,-0.00743155776324,0.00920942321138,-0.999929976785,0.0,0.615046616554,0.199983191788,0.304187780863,1.0,-0.256386857143,-0.336965583673,1.273
0.417893223412,0.303658304088,-0.126733751155,-1.72570417885,0.0542159794312,2.02208984522,0.0983512780479,-0.307639402786,-1.15181354271,-0.0161698343447,-1.61821405298,-0.142802875363,0.51779656531,-0.339835553251,0.573451190633,0.819221359448,0.00329288418369,0.0,0.819194373923,-0.57338663078,-0.0113620542795,0.0,-0.00742008464498,0.00921327313595,-0.999930026523,0.0,0.610586284686,0.194226438671,0.304211117981,1.0,-0.271162285714,-0.356384718367,1.29
0.412313352534,0.283949706351,-0.126940937644,-1.75398666471,0.0518604075585,2.03072877978,0.0925107119505,-0.339327168454,-1.18482881484,-0.0138904941725,-1.70544803977,-0.143899319917,0.516470781481,-0.347470113847,0.573469072815,0.819208838571,0.00329366561276,0.0,0.819181481481,-0.573404035024,-0.0114131466942,0.0,-0.00746129314842,0.00924337449239,-0.999929442077,0.0,0.605879448966,0.188095483989,0.30423361379,1.0,-0.285937714286,-0.375803853061,1.307
0.4062411742,0.263479172772,-0.127210897421,-1.78296668394,0.0493875919475,2.039412382,0.0861724726101,-0.365585061531,-1.22271214202,-0.0184111278795,-1.70180025903,-0.158591678644,0.507608522306,-0.37787038054,0.573439343275,0.819229278645,0.00338459693901,0.0,0.819202816061,-0.573373696968,-0.0114059933454,0.0,-0.00740362738368,0.0093134959907,-0.999929220042,0.0,0.60094901161,0.181628558789,0.304307730289,1.0,-0.300713142857,-0.395222987755,1.324
0.39952106327,0.242377439634,-0.127568664366,-1.81268507706,0.0466976440314,2.04817978559,0.0794938178118,-0.402515644331,-1.24911972272,-0.01513214021,-1.7605863395,-0.166661070648,0.507118745086,-0.394993200855,0.573596102727,0.819119489655,0.00339403952153,0.0,0.819093600292,-0.573530978189,-0.011341865813,0.0,-0.00734389792245,0.00928586486086,-0.999929917483,0.0,0.595805962193,0.174716482791,0.304322751293,1.0,-0.315488571429,-0.414642122449,1.341
0.392385795599,0.220610134682,-0.127794293016,-1.84293792852,0.0439649384692,2.05686121871,0.0722823788232,-0.435522040554,-1.27548686587,-0.00599778314141,-1.79355468079,-0.176006174284,0.492294301214,-0.439979938713,0.5734684453,0.819208369984,0.00351222089391,0.0,0.819183518538,-0.573402389869,-0.0113494118673,0.0,-0.00728375757671,0.00938586375535,-0.999929423728,0.0,0.590375461778,0.167681261263,0.304363776459,1.0,-0.330264,-0.434061257143,1.358
0.384620810503,0.198151496315,-0.128101115119,-1.87374739774,0.041009246173,2.06531258076,0.0646042927948,-0.468835887058,-1.32693679307,-0.0231547986162,-1.79060675449,-0.167458988663,0.47947871596,-0.46798548262,0.573380180816,0.819270175375,0.00350640707436,0.0,0.819245179895,-0.573314064444,-0.0113607055784,0.0,-0.00729735525687,0.00938679123796,-0.99992931588,0.0,0.584687426617,0.160254521298,0.304412716727,1.0,-0.345039428571,-0.453480391837,1.375
0.376610712318,0.176330390267,-0.128526005503,-1.90332916217,0.0381304152766,2.07327499144,0.0568823948355,-0.521563953256,-1.35745968488,-0.0338284861243,-1.83975083717,-0.17579157887,0.512434028748,-0.488715580501,0.573468808334,0.819207743879,0.00359793505418,0.0,0.819183915106,-0.573402412056,-0.0113196281724,0.0,-0.00721020123691,0.00943900593292,-0.999929456594,0.0,0.579129578181,0.152837343959,0.304467709896,1.0,-0.358945714286,-0.47175722449,1.391
0.367500183321,0.152553103368,-0.128914322844,-1.93519261975,0.0349145088401,2.08152591763,0.0481917443766,-0.546742514864,-1.41576554476,-0.0197388291464,-1.87860353862,-0.199915513899,0.49437881658,-0.517687547837,0.573459252883,0.819214161843,0.00365912816175,0.0,0.819190935798,-0.573392448945,-0.0113162317172,0.0,-0.00717243891544,0.00948710506521,-0.999929272978,0.0,0.572946029898,0.14472832611,0.30450589216,1.0,-0.373721142857,-0.491176359184,1.408
0.357674209498,0.128225402035,-0.129337630997,-1.96736035013,0.0315163168964,2.08944698673,0.0389328494232,-0.584707970984,-1.43880343351,-0.0231769252255,-1.90636376736,-0.197693326415,0.452002961392,-0.558362571252,0.573430476587,0.81923440141,0.00363743994304,0.0,0.819210755073,-0.5733635495,-0.011345738356,0.0,-0.00720938249672,0.00948600470995,-0.99992901774,0.0,0.566510407717,0.136297953862,0.304530630735,1.0,-0.388496571429,-0.510595493877,1.425
0.346924367778,0.103226995968,-0.129917039886,-1.99993049071,0.0279001520566,2.09713017941,0.0290434903359,-0.650624434321,-1.47122207372,-0.0357436461709,-1.91225670363,-0.209102905953,0.428570998703,-0.60108120519,0.573581932244,0.819128522101,0.00360252481769,0.0,0.819104784961,-0.573515550878,-0.0113141971349,0.0,-0.00720181622974,0.0094406461322,-0.999929501537,0.0,0.559839758771,0.127380663211,0.304559918092,1.0,-0.403272,-0.530014628571,1.442
0.335529612584,0.0777352179843,-0.130366682309,-2.03247256248,0.0243114069891,2.1044182286,0.018446991872,-0.683773520277,-1.48424180691,-0.0269088466235,-1.87727993362,-0.194950996186,0.411491727796,-0.637646278882,0.573480516419,0.819198742023,0.00377693757375,0.0,0.819176609635,-0.57341282843,-0.0113206589477,0.0,-0.00710826196795,0.00958634082278,-0.999928784805,0.0,0.552938945903,0.118380694313,0.304658714495,1.0,-0.40998,-0.538830857143,1.459
0.324057532442,0.0539190333569,-0.130878965829,-2.06270551058,0.0206758154786,2.11087340314,0.00814751324266,-0.733495732416,-1.51918340726,-0.0372479729635,-1.87517660057,-0.220891281022,0.397903735625,-0.654575120464,0.573592955771,0.819120463104,0.00367898287825,0.0,0.819097476484,-0.573526058845,-0.0113106473437,0.0,-0.00715492789396,0.00950133616331,-0.999929263307,0.0,0.546374173232,0.10963231854,0.304622316762,1.0,-0.40998,-0.538830857143,1.475
0.311357611713,0.0287920922349,-0.131311510786,-2.09388699008,0.0169495551036,2.11699433668,-0.00305549473787,-0.75284355587,-1.5157125212,-0.0187265128948,-1.81966165703,-0.221881463606,0.35868310073,-0.666541458766,0.573773896285,0.81899358581,0.00371069328472,0.0,0.818970300627,-0.573705948141,-0.0113964318686,0.0,-0.00720489650891,0.00957810712014,-0.999928172086,0.0,0.539365944442,0.100405088363,0.304665168581,1.0,-0.40998,-0.538830857143,1.492
0.298942407784,0.00552749538758,-0.131749393319,-2.12219339783,0.0133177837053,2.12227189117,-0.0140375323637,-0.796180195664,-1.46475756028,-0.0315998916628,-1.7699979368,-0.21719085355,0.313296430744,-0.704130562311,0.573838867807,0.818947653427,0.00380021599404,0.0,0.81892598795,-0.573771294939,-0.0112904501922,0.0,-0.00706596888088,0.00959117945259,-0.999929038162,0.0,0.532438664971,0.0911640303338,0.304754905587,1.0,-0.40998,-0.538830857143,1.509
0.285310901107,-0.0188663097446,-0.13211785511,-2.151442389,0.00962415939251,2.12738533003,-0.0260959359762,-0.799920473,-1.42491665989,-0.019043064547,-1.71641897921,-0.218482330336,0.277391433307,-0.726546797751,0.573847103192,0.81894093168,0.00399993491842,0.0,0.818921649059,-0.573778763381,-0.0112254308024,0.0,-0.00689801985695,0.00971750133954,-0.999928991224,0.0,0.525917658197,0.0825734153665,0.30483334148,1.0,-0.40998,-0.538830857143,1.525
0.271092834651,-0.0429147917068,-0.132615141237,-2.17988653049,0.00581997799306,2.13185515301,-0.0385357430993,-0.858769175672,-1.39667829261,-0.0424569637339,-1.64670827439,-0.214306260306,0.243654710494,-0.752721483139,0.573988954058,0.81884142953,0.00401756213718,0.0,0.818822238681,-0.573920360138,-0.0112387081352,0.0,-0.00689709191723,0.00974075109033,-0.999928771409,0.0,0.518960319604,0.0733240734728,0.304856197586,1.0,-0.40998,-0.538830857143,1.542
0.256419395064,-0.0666570934097,-0.133032858086,-2.20754605789,0.00204957499315,2.13576593277,-0.0514371873131,-0.876413744258,-1.36829921823,-0.0268385025652,-1.59587809766,-0.218161163662,0.213349768068,-0.775918643542,0.573989694881,0.818840952399,0.00400895814291,0.0,0.81882110958,-0.573920360871,-0.0113206353552,0.0,-0.00696911130892,0.00978073589772,-0.999927881746,0.0,0.511965351973,0.0641643019956,0.304850051943,1.0,-0.40998,-0.538830857143,1.559
0.241144045416,-0.0900663503352,-0.133542625414,-2.23439162058,-0.00171147522284,2.13912757359,-0.0648474731594,-0.913191025603,-1.36570759538,-0.0268981071251,-1.58360382796,-0.217088209638,0.187149892237,-0.804857136929,0.574066353313,0.818787396946,0.00397083074151,0.0,0.81876627354,-0.573996012427,-0.0114504992087,0.0,-0.00709642005723,0.00982471776969,-0.999926555174,0.0,0.504967932949,0.0549349501737,0.304820411803,1.0,-0.40998,-0.538830857143,1.576
0.225518641321,-0.113082484352,-0.133881943262,-2.26035321277,-0.0055485026873,2.14195572603,-0.0786409251556,-0.935704837153,-1.33585192283,-0.0153347912562,-1.53054073624,-0.245608954636,0.15954729971,-0.828341695997,0.573870211289,0.818925496393,0.0038417253834,0.0,0.818902465641,-0.573799946553,-0.0115377642662,0.0,-0.00724432698503,0.00976736565808,-0.999926056413,0.0,0.4979686561,0.0458903940993,0.304778302795,1.0,-0.40998,-0.538830857143,1.593
0.210183560104,-0.134471378878,-0.134333545911,-2.28403189503,-0.00904286232234,2.14416380559,-0.092092365667,-0.961142834338,-1.30943325588,-0.0194828244426,-1.47955431254,-0.21353386503,0.118398669629,-0.865438044724,0.573914748175,0.818894368384,0.00382389292965,0.0,0.818870286268,-0.573843430598,-0.0116584016289,0.0,-0.00735282516599,0.0098223900444,-0.999924725475,0.0,0.49139976564,0.0372751084517,0.304753848008,1.0,-0.40998,-0.538830857143,1.609
0.193393201749,-0.156899428633,-0.134816775892,-2.30847433249,-0.0127862700045,2.14609985569,-0.106968168733,-1.01100663593,-1.28941574367,-0.0402045994425,-1.42058394208,-0.221599499526,0.0907779065304,-0.88757447869,0.5738195283,0.818961244695,0.00379150760668,0.0,0.818936190458,-0.573747595451,-0.011745619301,0.0,-0.00744398194973,0.00984505807029,-0.999923828081,0.0,0.484410271665,0.0281500207165,0.304713429461,1.0,-0.40998,-0.538830857143,1.626
0.176062859085,-0.178987022396,-0.135264103137,-2.33210341886,-0.0164374076904,2.14745606668,-0.122310145625,-1.0335046893,-1.28966956619,-0.035670254356,-1.36569126606,-0.20247126046,0.0624043583262,-0.910505019293,0.573740858893,0.819016595804,0.00374025873734,0.0,0.818989586619,-0.573667425371,-0.0119368747219,0.0,-0.00763098081922,0.00991209655115,-0.999921756176,0.0,0.477401802048,0.0190774170965,0.304669148469,1.0,-0.40998,-0.538830857143,1.643
0.158008739434,-0.200822452333,-0.135843635921,-2.35491535501,-0.0201641746723,2.14845745017,-0.138284121028,-1.06536399641,-1.26899190649,-0.0312915766017,-1.33478547243,-0.210595640085,0.0462605851792,-0.955218208552,0.573759634105,0.819003241216,0.00378418437852,0.0,0.818976794153,-0.573686027893,-0.0119205260289,0.0,-0.00759216192237,0.00993886719746,-0.999921785939,0.0,0.470430158894,0.00987716054626,0.304687847213,1.0,-0.40998,-0.538830857143,1.66
0.139325713627,-0.22236350422,-0.136508438987,-2.37690679836,-0.0237724625389,2.14900711645,-0.154815544824,-1.12228349425,-1.27969759031,-0.0444341558584,-1.27968735708,-0.214952864288,0.0305800360754,-0.974772288263,0.573913537945,0.818894602131,0.00395328533854,0.0,0.818870081344,-0.573838947259,-0.0118911475152,0.0,-0.00746919122157,0.0100619113504,-0.999921481479,0.0,0.463463729475,0.000646639932604,0.304748612251,1.0,-0.40998,-0.538830857143,1.677
0.120165934557,-0.243406733139,-0.137064296537,-2.39806016331,-0.0273839904162,2.14912418401,-0.171916533359,-1.14324708489,-1.24805267083,-0.0373466219857,-1.21097295054,-0.210715271075,0.020325377221,-1.02680096077,0.57386458182,0.818928611124,0.00401478732309,0.0,0.818904831604,-0.573789704851,-0.0118742698006,0.0,-0.00742067851379,0.0101021461079,-0.999921437001,0.0,0.456504075011,-0.00847127240005,0.304777485935,1.0,-0.40998,-0.538830857143,1.694
0.101459561542,-0.262840191655,-0.13772717919,-2.41732225427,-0.0306972008175,2.14897452313,-0.188615745129,-1.17007959738,-1.20376998389,-0.0426899387401,-1.17898364056,-0.198451775923,-0.0254796009191,-1.04692222714,0.57399254971,0.818838288029,0.00414220177091,0.0,0.818815797615,-0.573916705319,-0.0118765244693,0.0,-0.00734781563928,0.0102089333624,-0.999920890513,0.0,0.449942458296,-0.0171487780193,0.30477620137,1.0,-0.40998,-0.538830857143,1.71
0.0810127768389,-0.283099852208,-0.138399829257,-2.43679752852,-0.0341904219154,2.14852931695,-0.20696940718,-1.22011513212,-1.18253967446,-0.0272787097146,-1.13148020142,-0.204710506289,-0.0428343115421,-1.0894621079,0.574060694733,0.818788993375,0.00443283118344,0.0,0.818771581918,-0.57398577709,-0.0115832311408,0.0,-0.00693997373026,0.0102791518219,-0.999923084943,0.0,0.443060699724,-0.0263409889071,0.304894072033,1.0,-0.40998,-0.538830857143,1.727
0.0599813770467,-0.302859667012,-0.139065808937,-2.45546549739,-0.0376226463701,2.1476465364,-0.226009755689,-1.25645072514,-1.1507502068,-0.0513130987344,-1.08658239799,-0.208441471821,-0.0518499065342,-1.12909059933,0.574044533465,0.818799154471,0.00464382795672,0.0,0.818785332617,-0.573970331232,-0.0113747465077,0.0,-0.00664834135352,0.0103321081956,-0.9999245207,0.0,0.436158193683,-0.0355051769864,0.304990435884,1.0,-0.40998,-0.538830857143,1.744
0.0383941654589,-0.321951151661,-0.139682510776,-2.47350792317,-0.0409371618924,2.14630940287,-0.245629111119,-1.28318280655,-1.12105676139,-0.0413764064701,-1.03920451394,-0.191678177002,-0.0760252080973,-1.17979636651,0.574001475129,0.818829556919,0.00460544968443,0.0,0.818813966899,-0.573925430587,-0.0115773329408,0.0,-0.00683680933882,0.0104166132636,-0.99992237309,0.0,0.429161289894,-0.0445942770947,0.304920445315,1.0,-0.40998,-0.538830857143,1.761
0.0175086937497,-0.339512800258,-0.14029115674,-2.48969565562,-0.0440527414182,2.14487132189,-0.264764733543,-1.31435630732,-1.08046093939,-0.0333305752888,-0.987271549764,-0.187968010073,-0.100164528881,-1.21145232559,0.573891310543,0.81890651598,0.00465066336725,0.0,0.818891493203,-0.57381512175,-0.0115618040125,0.0,-0.00679954658835,0.0104438086018,-0.999922343499,0.0,0.422611757419,-0.0531620415082,0.304918871643,1.0,-0.40998,-0.538830857143,1.777
-0.00545081378587,-0.357660824497,-0.141028764024,-2.5060514156,-0.0472815877753,2.14301783829,-0.285744864942,-1.35509119747,-1.04850016806,-0.0477882986242,-0.944774542142,-0.16965620398,-0.111671661231,-1.25292298678,0.573973753623,0.818848251608,0.00473475359598,0.0,0.818834211197,-0.573897139324,-0.0115479413978,0.0,-0.00673887982346,0.0105053957581,-0.999922109046,0.0,0.415638908741,-0.0623604597306,0.304948054304,1.0,-0.40998,-0.538830857143,1.794
-0.0289706959352,-0.375088326017,-0.141734109288,-2.52172982984,-0.0504864490139,2.14092182549,-0.307447772789,-1.38659744096,-1.01228456041,-0.0359350048349,-0.92119929745,-0.195124550736,-0.129283205437,-1.2856745584,0.573902213036,0.818899001376,0.00462842515937,0.0,0.818882523214,-0.573824312344,-0.0117396183681,0.0,-0.00695779283295,0.0105277321261,-0.999920374818,0.0,0.408608127135,-0.071506165579,0.304862544562,1.0,-0.40998,-0.538830857143,1.811
-0.0530829704969,-0.391991740801,-0.142476999871,-2.53626456019,-0.0534174249364,2.13871235291,-0.329746843807,-1.42197332968,-0.969450013741,-0.0324862223779,-0.85084858517,-0.171151502872,-0.141925260181,-1.31037701375,0.573993319242,0.818833527594,0.00490616485958,0.0,0.818821281101,-0.573915524632,-0.0115510650478,0.0,-0.00664280305579,0.0106477113646,-0.999921246604,0.0,0.401701964924,-0.0806506734501,0.304975082756,1.0,-0.40998,-0.538830857143,1.828
-0.0763968998769,-0.407172844124,-0.143201997033,-2.54931043137,-0.0561818789182,2.13639309601,-0.351435199741,-1.45120295922,-0.943183540512,-0.0341979193257,-0.799354564143,-0.17754029822,-0.159601229851,-1.3810236735,0.573989327077,0.818836110559,0.00494199837121,0.0,0.81882366608,-0.573910363057,-0.0116381246042,0.0,-0.00669358147781,0.0107269910619,-0.99992006062,0.0,0.394715235489,-0.0898012046032,0.304976895286,1.0,-0.40998,-0.538830857143,1.845
-0.103194478334,-0.423493656035,-0.14393925397,-2.56276943419,-0.0591694644692,2.13387821688,-0.376600601406,-1.48431980334,-0.886788695653,-0.032600389187,-0.732639118083,-0.166406875048,-0.147618924365,-1.41690748318,0.573939056334,0.818869705888,0.00520685072642,0.0,0.818863061461,-0.573863334804,-0.0111761551422,0.0,-0.00616391282698,0.0106783352532,-0.999923986778,0.0,0.387872057329,-0.0989737105805,0.30514378721,1.0,-0.40998,-0.538830857143,1.862
-0.129126149677,-0.437970281761,-0.144624134347,-2.57487292659,-0.061823068376,2.13116146299,-0.400996782946,-1.52631238739,-0.809397240754,-0.0269994874295,-0.69264634569,-0.171815771639,-0.148435178325,-1.44646265913,0.57392025076,0.818882882776,0.00520739532866,0.0,0.818875042222,-0.57384246233,-0.0113684015689,0.0,-0.00632128659592,0.0107889696699,-0.999921816678,0.0,0.380872359638,-0.108080591491,0.305108519098,1.0,-0.40998,-0.538830857143,1.879
-0.154013519768,-0.450983348488,-0.145274438774,-2.58509546021,-0.0642383871593,2.12885256998,-0.424615391247,-1.55684085251,-0.759546080424,-0.0358387968339,-0.627569156937,-0.155720166623,-0.140184233585,-1.48226246391,0.573837849613,0.818938812029,0.00548556324485,0.0,0.818937445755,-0.573764642137,-0.0107862076218,0.0,-0.00568593129583,0.0106820730025,-0.99992677907,0.0,0.374467650589,-0.116700916244,0.305329470097,1.0,-0.40998,-0.538830857143,1.895
-0.180893912956,-0.463722440648,-0.145793274667,-2.5952143241,-0.0665414446239,2.12624974179,-0.450215148123,-1.58440450994,-0.721754989207,-0.00804410071555,-0.568560208205,-0.141516183757,-0.138499541433,-1.50746369269,0.573708948852,0.819028249642,0.00561383966722,0.0,0.819029183597,-0.573636826983,-0.0106176290311,0.0,-0.00547593837558,0.0106895331169,-0.999927871389,0.0,0.367617998077,-0.125735123414,0.305417925753,1.0,-0.398190857143,-0.523336555102,1.912
-0.210955615091,-0.476496214179,-0.146070161746,-2.60488548912,-0.068757156675,2.12361860842,-0.478658254772,-1.57772499115,-0.638075642876,0.000170712689757,-0.472161033237,-0.106927811558,-0.138373505703,-1.48269799933,0.573726954605,0.819013943574,0.00585565463204,0.0,0.819020758153,-0.573660424461,-0.00997306485357,0.0,-0.00480901444196,0.0105179213253,-0.999933121119,0.0,0.360306138006,-0.135604869041,0.305676827725,1.0,-0.381677142857,-0.501632816327,1.931
-0.235901353067,-0.486100242708,-0.146193552254,-2.61197449501,-0.07026075671,2.12157299504,-0.502295737311,-1.5393826247,-0.567922883402,0.00961258421555,-0.431704886347,-0.0864773461713,-0.12710215025,-1.47189337821,0.573826213933,0.818942232069,0.00615171827965,0.0,0.818954809098,-0.573764561603,-0.0093805865496,0.0,-0.00415260049564,0.0104210063702,-0.999937077288,0.0,0.354369638174,-0.143618543698,0.305918296146,1.0,-0.367770857143,-0.483355983674,1.947
-0.262029638727,-0.495053862485,-0.146080534906,-2.6187187256,-0.071607082675,2.11937931158,-0.527058644649,-1.51821659898,-0.492137272728,0.0206639357949,-0.376903681294,-0.0697941951574,-0.12602519923,-1.43759544704,0.573885673702,0.818899714348,0.00626404513394,0.0,0.818914259224,-0.573825614852,-0.00918404486879,0.0,-0.00392641776488,0.0104005078994,-0.99993820443,0.0,0.348182426114,-0.151783147332,0.306038228997,1.0,-0.352995428572,-0.46393684898,1.964
-0.287445514045,-0.50273169079,-0.145852023253,-2.62449515005,-0.0726319116064,2.11755559911,-0.551239124046,-1.46948753203,-0.428402338895,0.0264583221116,-0.323141504682,-0.0625080629703,-0.108639024738,-1.42889436267,0.573948488441,0.818854354151,0.00643631929281,0.0,0.818871627213,-0.573890347353,-0.00893724020161,0.0,-0.00362462632384,0.0104002349939,-0.999939346759,0.0,0.342292664519,-0.159589883199,0.30613366023,1.0,-0.33822,-0.444517714286,1.981
-0.309303231255,-0.508498245784,-0.145660390548,-2.62884440302,-0.0734156994103,2.11613048603,-0.572023244964,-1.44539143383,-0.344775024621,0.0111554057005,-0.269169711389,-0.0442709763133,-0.0908025533359,-1.37102433483,0.574092717572,0.818752396995,0.00654300744331,0.0,0.818771310544,-0.57403573543,-0.00878990226117,0.0,-0.00344089970403,0.010403645958,-0.999939960378,0.0,0.337287465429,-0.166247056861,0.306184576981,1.0,-0.325182857143,-0.427383183674,1.996
-0.334813219352,-0.514047325232,-0.145153400389,-2.63331047918,-0.074144100888,2.11458690634,-0.596332079666,-1.41048157726,-0.291369443561,0.0324970830048,-0.230738196655,-0.044683319663,-0.0890560560669,-1.33432233958,0.574134618865,0.818723597716,0.00646968819435,0.0,0.818740914678,-0.57407545088,-0.00902431325172,0.0,-0.00367439978872,0.0104783708203,-0.999938349365,0.0,0.331510904804,-0.173848066708,0.306090261305,1.0,-0.309538285714,-0.406821746939,2.014
-0.355277410262,-0.518228332353,-0.144654987642,-2.63661053681,-0.0745970262061,2.11337293989,-0.616004221742,-1.35622651697,-0.26075755803,0.0256719906135,-0.214268500614,-0.0221902512713,-0.0782820935544,-1.28853049445,0.574035461564,0.818793226807,0.00645658598019,0.0,0.818809807848,-0.57397468045,-0.00918213897207,0.0,-0.00381242972424,0.010557792579,-0.999936997213,0.0,0.326856947577,-0.179825239919,0.306041585482,1.0,-0.296501142857,-0.389687216327,2.029
-0.377632302129,-0.52172469468,-0.14400524364,-2.63961306594,-0.0749367122897,2.11226534465,-0.637414144627,-1.29873021296,-0.194752704082,0.0410512505205,-0.162557253016,-0.0173793860563,-0.0668296848479,-1.25412638644,0.574022891114,0.818802681676,0.00637462617799,0.0,0.81881673773,-0.573958048741,-0.0095945400818,0.0,-0.00419734795781,0.0107273427826,-0.999933650992,0.0,0.321863893585,-0.186302566852,0.305884747989,1.0,-0.281725714286,-0.370268081633,2.046
-0.399074711117,-0.5247862824,-0.14332852675,-2.64197182344,-0.0751280169083,2.11143125848,-0.658022688265,-1.23229595739,-0.150788355812,0.042385026145,-0.124323516817,-0.00172614164866,-0.0480898317241,-1.21615330055,0.574001208554,0.818817587903,0.0064122710373,0.0,0.818832245934,-0.573936723304,-0.00954659955796,0.0,-0.00413676544019,0.010730540575,-0.999933869149,0.0,0.317154157982,-0.192485825629,0.305882264749,1.0,-0.266950285714,-0.350848946939,2.063
-0.419621825901,-0.526919342606,-0.142491858493,-2.64371795362,-0.0752521428103,2.11066935082,-0.677745857261,-1.18790648398,-0.120502164169,0.0628297095512,-0.0894095279223,-0.00249198340038,-0.0387602531761,-1.14204795865,0.573925918008,0.818871322781,0.00628842329844,0.0,0.818883877389,-0.573860016068,-0.00972749773337,0.0,-0.00435697812652,0.0107325581548,-0.999932912218,0.0,0.312694633427,-0.198348269251,0.305826427916,1.0,-0.252174857143,-0.331429812245,2.08
-0.439126919587,-0.528661538173,-0.14175756533,-2.64509371226,-0.0752550096401,2.11016031846,-0.696496741285,-1.12988012266,-0.0760878266278,0.0477611295109,-0.0677599512552,0.000294398673154,-0.0363980433258,-1.08432428983,0.573940366198,0.818861192356,0.00628892698471,0.0,0.818873849541,-0.573874699171,-0.0097054155053,0.0,-0.00433841555946,0.0107203739791,-0.99993312363,0.0,0.308467916202,-0.203900853845,0.305813956222,1.0,-0.237399428572,-0.312010677551,2.097
-0.457529608212,-0.529844885805,-0.140846036234,-2.64603888273,-0.0752387898148,2.1097459061,-0.714241858917,-1.07306720731,-0.06816013192,0.0526260924127,-0.0554535434187,-0.00167648403717,-0.0166711966285,-1.02030662724,0.573785556442,0.81897079746,0.00614125623053,0.0,0.818981852019,-0.573720495677,-0.00970905789878,0.0,-0.004428155577,0.0106006986867,-0.999934006135,0.0,0.304524699412,-0.209078912489,0.305805254928,1.0,-0.222624,-0.292591542857,2.114
-0.474047880868,-0.530621371997,-0.140099693639,-2.64659966636,-0.0751542321864,2.10946209595,-0.73002804637,-1.01150044956,-0.0429689908844,0.0479298262752,-0.0247992664622,0.00370316427165,-0.00975415428506,-0.977847287448,0.573860531832,0.818918767594,0.00607363061319,0.0,0.818929432831,-0.573796531445,-0.00963698329758,0.0,-0.00440696315394,0.0105043614752,-0.999935116428,0.0,0.300988475794,-0.213741491069,0.305829325057,1.0,-0.208717714286,-0.274314710204,2.13
-0.489620010601,-0.531084539445,-0.139320198417,-2.64690152197,-0.0750044251402,2.10927099232,-0.744906529042,-0.952943351013,-0.0243776368217,0.0500740354055,-0.0170081667118,0.0101479250982,-0.0159268341823,-0.912174047515,0.573921172921,0.818876878987,0.00599092934364,0.0,0.818887116486,-0.573858562093,-0.00953876659042,0.0,-0.00437321351412,0.0103805948237,-0.999936557115,0.0,0.297469046851,-0.218376902817,0.305864743914,1.0,-0.193942285714,-0.25489557551,2.147
-0.504904137762,-0.531243697824,-0.13833507267,-2.64699506293,-0.0746979468111,2.10914043498,-0.759720529452,-0.876181483688,-0.00532959536936,0.0586256852306,0.00154846107954,0.0141893012287,-0.00277220184819,-0.840667231613,0.573734236658,0.819008455706,0.00590948982227,0.0,0.819018201485,-0.57367283803,-0.009455550945,0.0,-0.00435414621047,0.0102651506655,-0.999937832114,0.0,0.294287349064,-0.222567022114,0.305899185984,1.0,-0.179166857143,-0.235476440816,2.164
-0.519355150826,-0.531172140646,-0.137438568129,-2.64700347829,-0.0743608680212,2.10910264382,-0.773428337029,-0.831566804504,0.0165185604846,0.0591143019988,0.000952519935067,0.0166314298999,-0.00360744214623,-0.783970974754,0.573858352709,0.818921712665,0.00587932414765,0.0,0.818931121774,-0.573797001254,-0.00946393382331,0.0,-0.00437676659614,0.0102459162591,-0.999937930631,0.0,0.291409317846,-0.226301061046,0.305886875625,1.0,-0.165260571429,-0.217199608163,2.18
-0.532431097252,-0.530950716732,-0.136399487137,-2.64687613189,-0.0738489550453,2.1091073242,-0.786035922563,-0.746551989723,0.0106308168441,0.05983638511,0.00449919815192,0.0313456773084,0.00421358081996,-0.715023605678,0.573734187904,0.819008643626,0.00588814040508,0.0,0.819018247067,-0.573673062453,-0.00943797052763,0.0,-0.00435199569149,0.0102375778943,-0.999938124152,0.0,0.288691801912,-0.229816058493,0.30589196438,1.0,-0.150485142857,-0.19778047347,2.197
-0.544622608321,-0.53049332243,-0.135450751627,-2.6466553888,-0.073360729216,2.1091149837,-0.79755561993,-0.691041601064,0.0318147809687,0.0664793343097,0.0180740463598,0.0221668703275,0.003953236143,-0.65336130021,0.5738361475,0.818937179102,0.00589231779113,0.0,0.818946284518,-0.573773723935,-0.00956261981137,0.0,-0.00445041345577,0.0103130672333,-0.999936915242,0.0,0.286137164476,-0.233088159829,0.305851008008,1.0,-0.135709714286,-0.178361338776,2.214
-0.554811072525,-0.529973264358,-0.134411894159,-2.64638467693,-0.0728340819142,2.10918377249,-0.807424690428,-0.619848287916,0.0364761339998,0.0584451134698,0.019998556201,0.0377562150059,0.00355685841842,-0.585153293401,0.573611985814,0.819094390022,0.00586658899178,0.0,0.819102791866,-0.573548709611,-0.0096561359516,0.0,-0.00454459973881,0.0103444139024,-0.99993616782,0.0,0.283935283614,-0.235915877339,0.305813887327,1.0,-0.120934285714,-0.158942204082,2.231
-0.56538817887,-0.529324279301,-0.133413119326,-2.64601723871,-0.0722836183273,2.10929425192,-0.817300707271,-0.572213953229,0.037995148801,0.0565820022116,0.0267375085857,0.0309600015856,0.0153288102705,-0.530004261007,0.57372982821,0.81901185787,0.00586581553938,0.0,0.819019949945,-0.573665851949,-0.00972413490612,0.0,-0.00459925227671,0.0103834461121,-0.999935513383,0.0,0.281888098587,-0.238549423921,0.305782618121,1.0,-0.106158857143,-0.139523069388,2.248
-0.57316228342,-0.52875336666,-0.132539597125,-2.64567609272,-0.0718056643962,2.10939607993,-0.824632438238,-0.488015127123,0.0397456085081,0.0667738675584,0.0222922488493,0.035638295835,0.00825498341043,-0.480764002728,0.573698471778,0.819033920707,0.00585210319841,0.0,0.819041614838,-0.573633990278,-0.00977881704839,0.0,-0.00465230712914,0.0104034087481,-0.999935060454,0.0,0.280326651744,-0.240567547451,0.305760296555,1.0,-0.0931217142858,-0.122388538776,2.263
-0.581313649257,-0.528122163139,-0.131514191788,-2.64525293725,-0.0712179311476,2.10949907069,-0.832207220029,-0.438190807996,0.0267771257603,0.0503109029252,0.0250033404365,0.0322564599169,0.00739779997079,-0.403034368297,0.573720484231,0.819018509523,0.0058509771971,0.0,0.819026075289,-0.573655743896,-0.00980420281461,0.0,-0.00467346687848,0.0104171754395,-0.999934818457,0.0,0.278717873161,-0.242653037927,0.305756957798,1.0,-0.0774771428573,-0.101827102041,2.281
-0.587995803512,-0.527617382403,-0.130566556949,-2.64488283189,-0.0706574972371,2.10961876959,-0.838185690646,-0.366968121334,0.0372927059551,0.0556103088801,0.0226615118186,0.0358551533051,0.00339669319289,-0.321918728272,0.573886283872,0.818902288295,0.00585852456623,0.0,0.818910190835,-0.573822058835,-0.00975146363787,0.0,-0.00462383428209,0.0103940368174,-0.999935289984,0.0,0.277427732113,-0.244332177871,0.305774915656,1.0,-0.0627017142858,-0.0824079673471,2.298
-0.59349127211,-0.527104266316,-0.129605855564,-2.64449337283,-0.0700562177759,2.10974415238,-0.843121063196,-0.296870131502,0.0243033844305,0.0578767523129,0.0218310900921,0.0373551942451,0.00577777174378,-0.272330748606,0.573943253556,0.818862191341,0.00588219270689,0.0,0.818870641286,-0.573879592737,-0.00968673222652,0.0,-0.00455651614997,0.010376589306,-0.999935780215,0.0,0.27643087551,-0.24567459083,0.30579919818,1.0,-0.0479262857144,-0.0629888326532,2.315
-0.597734686256,-0.526704561948,-0.128551396702,-2.64422500531,-0.0694474849527,2.10983389709,-0.846888328264,-0.224257953645,0.0198743331134,0.0654663082648,0.0181415292205,0.0329569636462,0.00452980462833,-0.188283113592,0.573861698651,0.81891943749,0.00586963573137,0.0,0.818927824693,-0.573798262097,-0.00967053559801,0.0,-0.00455149042064,0.0103565574022,-0.99993601078,0.0,0.27572423523,-0.246613165923,0.305808899223,1.0,-0.033150857143,-0.0435696979593,2.332
-0.600784208141,-0.526453701949,-0.127488398824,-2.64406340392,-0.0688892750708,2.10983620244,-0.849423882123,-0.169130207675,0.0145073460672,0.0636447365127,0.00801345745129,0.0295991597561,-0.000679152762837,-0.136604303818,0.573777580788,0.81897875785,0.00581625965855,0.0,0.818986409685,-0.573713989362,-0.00970907114961,0.0,-0.0046147423462,0.0103344839423,-0.999935949246,0.0,0.275270704343,-0.247189093338,0.305816970197,1.0,-0.0199630769231,-0.0262371868132,2.348
-0.603127301473,-0.526235903207,-0.126667668332,-2.64390595101,-0.0684268836106,2.10992970923,-0.851371244787,-0.123177988763,0.0166891599028,0.042430861522,0.00334513553346,0.0227407799324,0.0119661878362,-0.109885157151,0.573726586495,0.81901465003,0.00579257161435,0.0,0.81902238129,-0.573663838064,-0.00963777699172,0.0,-0.00457057968322,0.0102738924965,-0.999936776469,0.0,0.274947626804,-0.247646522874,0.305836965321,1.0,-0.0196230769231,-0.0257903296703,2.365
-0.604995752538,-0.525988722725,-0.126085540763,-2.64372717399,-0.0681767251209,2.10995115015,-0.853045787386,-0.107159146676,0.00475912122934,0.0238216852203,0.00810518848203,0.0141319027115,-0.000583566670905,-0.101413343167,0.573589869523,0.819110998425,0.00570795416464,0.0,0.819117746006,-0.57352727321,-0.00966084694294,0.0,-0.00463972792655,0.0102170471969,-0.999937040454,0.0,0.274666827847,-0.248044713205,0.305843679748,1.0,-0.0192830769231,-0.0253434725275,2.382
-0.606656771732,-0.525779674132,-0.125821501906,-2.64357419785,-0.068004058816,2.10998506289,-0.854624367792,-0.0958125222301,0.0140509943285,0.012208855234,0.00654574403051,0.0108233151527,0.00429709999533,-0.085546716739,0.573552277468,0.81913724846,0.00571839993287,0.0,0.819144081113,-0.573489590876,-0.00966490736448,0.0,-0.00463753207406,0.0102277200042,-0.999936941532,0.0,0.274361281363,-0.248461636192,0.305845966529,1.0,-0.0189430769231,-0.0248966153846,2.399
-0.608278446191,-0.525607003514,-0.125700745216,-2.64342083055,-0.0679005439634,2.11000364968,-0.856104352649,-0.0975462066612,0.00927192646244,0.00792736212271,0.00972217723326,0.00375625128283,0.00277847202983,-0.0833290545345,0.573634964638,0.819079179077,0.00574218160041,0.0,0.819086320066,-0.573572298463,-0.00965223387427,0.0,-0.00461247630372,0.0102403983928,-0.999936927662,0.0,0.274027676842,-0.248905645555,0.305856969386,1.0,-0.0186030769231,-0.0244497582418,2.416
-0.609815817317,-0.525447132172,-0.125643565604,-2.6432721287,-0.0678691116442,2.11002989626,-0.857540181989,-0.0872024263375,0.00931894876084,0.0038824891484,0.0105886378342,0.00327136437724,0.00364874394192,-0.0825046167259,0.573698807396,0.819034506509,0.00573606502372,0.0,0.819041700263,-0.57363641544,-0.00962824037132,0.0,-0.0045955338004,0.010221983273,-0.999937194091,0.0,0.273695434197,-0.249348119761,0.305869624187,1.0,-0.0182630769231,-0.0240029010989,2.433
-0.611162479886,-0.525298955476,-0.125589436495,-2.64312116316,-0.0678351897296,2.11009807862,-0.858815848477,-0.0839805666201,0.0116616135613,0.00444827764286,0.0126051653257,0.000563699454835,0.000381999775581,-0.0816040936213,0.573740872646,0.819005091583,0.0057286924617,0.0,0.819012573768,-0.573679319762,-0.00954929256964,0.0,-0.00453457414561,0.0101708864305,-0.999937993431,0.0,0.273417347091,-0.249744799813,0.305891126577,1.0,-0.0179430769231,-0.0235823296703,2.449
-0.612528337942,-0.52512282323,-0.125560941095,-2.64298546431,-0.0678123349262,2.11012998857,-0.86023948369,-0.0789317461987,0.0102057948481,-0.000843087407577,0.00313137179971,0.000364244010623,-0.000419171844604,-0.0737907789763,0.573690308788,0.819040498949,0.00573040880382,0.0,0.819047994056,-0.573628746007,-0.00954945485339,0.0,-0.00453435035186,0.010172105384,-0.999937982046,0.0,0.273117428677,-0.250144277283,0.305891667307,1.0,-0.0176030769231,-0.0231354725275,2.466
-0.613885635187,-0.524973363526,-0.125557238873,-2.64286265598,-0.067789860047,2.11013272883,-0.861561650519,-0.080041361038,0.0106986354569,-0.000822854088566,0.00912349290602,0.000621127642892,0.00394125256073,-0.0730461347625,0.573732481064,0.819010842877,0.00574685323312,0.0,0.819018436311,-0.57367068172,-0.00956539697558,0.0,-0.00453744998742,0.0101949539723,-0.999937735292,0.0,0.272806640605,-0.250539988402,0.305893028514,1.0,-0.0172630769231,-0.0226886153846,2.483
-0.615247564064,-0.524815630896,-0.125562341312,-2.64273778807,-0.0677700645441,2.11014920289,-0.862888609302,-0.0788662575337,0.00917155858409,0.00127833525853,0.0115596343684,0.000200445342828,-0.000424085217696,-0.0878682182185,0.573776004468,0.818980233015,0.00576381198964,0.0,0.818987970241,-0.573714055382,-0.00957257324536,0.0,-0.00453305559137,0.0102132021472,-0.999937569006,0.0,0.272477041931,-0.250965936819,0.305894584822,1.0,-0.0169030769231,-0.0222154725275,2.501
-0.616554449464,-0.524640476087,-0.12556248835,-2.64260563991,-0.0677551041864,2.11019167232,-0.864166980017,-0.0786576472639,0.0119216922486,0.000591225023815,0.00980814120308,0.000156995256983,0.00116792381101,-0.0727149197738,0.573816565419,0.818951757836,0.00577187050727,0.0,0.818959603794,-0.573754632879,-0.00956741892458,0.0,-0.00452370419764,0.0102170689612,-0.999937571852,0.0,0.272201976079,-0.251331208984,0.305892724109,1.0,-0.0165830769231,-0.0217949010989,2.517
-0.617817402322,-0.524473385758,-0.125536399659,-2.64249363973,-0.0677381915825,2.11022992579,-0.865365455537,-0.0742169205172,0.0122686603928,0.000839828284972,0.00694225614424,4.7584637921e-05,0.00257487085483,-0.0751778962492,0.573864132056,0.8189184416,0.00576982225073,0.0,0.818926225064,-0.573802107324,-0.00957739179392,0.0,-0.00453245385989,0.0102213771774,-0.999937488201,0.0,0.271920276928,-0.25169753402,0.305886244888,1.0,-0.0162430769231,-0.021348043956,2.534
-0.618976675194,-0.524321582038,-0.125470938731,-2.64239673714,-0.0677245948847,2.11024544273,-0.866578893629,-0.0701304296041,0.0107952988965,0.00738330778926,0.0123030696903,9.6418186666e-05,8.76429237501e-06,-0.0829824925814,0.573784505324,0.818974382056,0.00574890309152,0.0,0.818981797131,-0.573722241626,-0.00961001217632,0.0,-0.0045721682435,0.0102225198834,-0.999937295716,0.0,0.271665296676,-0.252020315583,0.305877485231,1.0,-0.0159230769231,-0.0209274725275,2.55
-0.620170762877,-0.52416630539,-0.12539027148,-2.6422976126,-0.0677060501336,2.11027204556,-0.867809673091,-0.0762226861036,0.0111786528775,0.00750263360739,0.00779704423849,0.00276814331335,0.00453949869814,-0.0735012988261,0.57371063642,0.8190263071,0.00572370847394,0.0,0.81903335563,-0.573648257313,-0.0096325567,0.0,-0.00460601063047,0.0102144050517,-0.999937223327,0.0,0.271407028735,-0.252350366729,0.305869770978,1.0,-0.0155830769231,-0.0204806153846,2.567
-0.621334075657,-0.523995890173,-0.125339329853,-2.64218150605,-0.0676861626098,2.1102969216,-0.868972865317,-0.0714057334171,0.0139633243773,0.00174506470192,0.0015063531594,0.000680789533833,-0.000499075340257,-0.0679793514616,0.573689374101,0.819041280511,0.00571224688687,0.0,0.819048105052,-0.57362681491,-0.00965534708974,0.0,-0.00463151902755,0.0102179717445,-0.999937069062,0.0,0.271153378262,-0.252682077509,0.305863359786,1.0,-0.0152430769231,-0.0200337582418,2.584
-0.622469238692,-0.523827297778,-0.125314789261,-2.64204480087,-0.0676692822529,2.11033659575,-0.870157630468,-0.0680091279876,0.00656162609635,0.000685820112823,0.0111159386013,0.00345969436141,0.00213067806459,-0.0642967281246,0.573645733979,0.819071875829,0.00570797815369,0.0,0.819078719212,-0.573583339317,-0.00964113553171,0.0,-0.00462287079953,0.0102060762025,-0.999937230567,0.0,0.270907900186,-0.253019299183,0.30586762735,1.0,-0.0149030769231,-0.0195869010989,2.601
-0.62353510773,-0.523683977033,-0.125314065932,-2.6419382103,-0.0676544747634,2.11036575096,-0.871167756231,-0.0635330288742,0.0146282831564,0.000106323940697,0.00790303043366,0.00177245104661,0.000843723469161,-0.05434325838,0.573702819842,0.819031833627,0.0057163722654,0.0,0.819038758524,-0.573640367988,-0.00964298456818,0.0,-0.00461885836998,0.0102143345396,-0.999937164785,0.0,0.270666122807,-0.253334517836,0.305865995455,1.0,-0.0145830769231,-0.0191663296703,2.617
-0.624676997878,-0.523551488074,-0.125321860191,-2.64184728321,-0.0676360798906,2.11038884952,-0.872271436228,-0.0640117621964,0.00911368697116,0.00150087429991,0.00262475259315,0.000449569245182,0.00138720629242,-0.0712947758864,0.573752309476,0.818997033561,0.00573526733386,0.0,0.819004101376,-0.573689651033,-0.00965469459661,0.0,-0.00461699161061,0.0102368078813,-0.999936943588,0.0,0.270398787849,-0.253667027337,0.305860488689,1.0,-0.0142430769231,-0.0187194725275,2.634
-0.625811772324,-0.523429739059,-0.125334290075,-2.64174571895,-0.0676186360992,2.11039326612,-0.873392417234,-0.0648283609875,0.00565365615292,-0.000753347849723,0.0109547923741,0.00056295237277,0.00315776026305,-0.0697391019274,0.573785133436,0.818973891825,0.00575604533288,0.0,0.81898113379,-0.573722287663,-0.009663645078,0.0,-0.00461199031759,0.0102591459338,-0.999936737734,0.0,0.270131503852,-0.253998754239,0.305862053629,1.0,-0.0139030769231,-0.0182726153846,2.651
-0.626818435331,-0.523294729693,-0.125327150036,-2.64162258034,-0.0676089864718,2.11042781196,-0.874359636955,-0.0653913347896,0.00632533125041,0.000665468237957,0.012233799296,0.00109697621111,0.00776572870358,-0.0616598210382,0.573823991537,0.818946681622,0.00575380737947,0.0,0.818954073547,-0.573761535174,-0.00962668567343,0.0,-0.00458251715979,0.0102363242712,-0.999937107123,0.0,0.269895942817,-0.254321023122,0.305875187959,1.0,-0.0135630769231,-0.0178257582418,2.668
-0.627825601208,-0.523140461598,-0.125315955585,-2.64147074618,-0.0675911642805,2.11047390583,-0.87540038397,-0.0604291510189,0.0126023424218,-0.000829683966896,0.00795191251294,3.20308870322e-05,0.000382097611696,-0.0620880933292,0.573802823365,0.818961520008,0.00575287281216,0.0,0.818969082773,-0.573740778578,-0.00958683266634,0.0,-0.00455067694081,0.010212573245,-0.99993749539,0.0,0.269696757718,-0.254610667036,0.305888228937,1.0,-0.0132430769231,-0.0174051868132,2.684
-0.628876291563,-0.522974978464,-0.125261449784,-2.64133785232,-0.0675713997377,2.11051348714,-0.876487651917,-0.0585431425864,0.0116381660347,0.00681154897215,0.0109705639585,0.00109514290364,0.00176342595774,-0.0669681258705,0.573749657434,0.81899889003,0.00573547075248,0.0,0.819006329463,-0.573687821881,-0.00957403920655,0.0,-0.0045508453777,0.010190684766,-0.999937717936,0.0,0.269476244267,-0.254915852677,0.305892567619,1.0,-0.0128830769231,-0.016932043956,2.702
-0.629791054903,-0.522844944217,-0.125218599841,-2.64125277367,-0.0675562648925,2.11052405156,-0.877369473079,-0.0559484384116,0.00466077527433,0.00323932573731,0.00268666694601,0.000643474301028,0.000248183365992,-0.0484293423658,0.573757312123,0.818993593437,0.00572604538369,0.0,0.819000802858,-0.573695219337,-0.00960349570375,0.0,-0.00458028477831,0.0101999080282,-0.99993748948,0.0,0.269272128736,-0.255171902627,0.30588539886,1.0,-0.0125630769231,-0.0165114725275,2.718
-0.630750440559,-0.522704759188,-0.125192961321,-2.64115341381,-0.067539850704,2.11054162227,-0.878307454518,-0.0574287856389,0.005593509809,0.00190148566995,0.00424621066666,-0.000223884541691,0.0025976496079,-0.0566840118481,0.573768953164,0.818985447924,0.00572462875985,0.0,0.818992561508,-0.573706684008,-0.00962142506009,0.0,-0.00459563780978,0.0102090999132,-0.999937325232,0.0,0.269057053465,-0.25544787598,0.305881184721,1.0,-0.0122230769231,-0.0160646153846,2.735
-0.631688904569,-0.522564050929,-0.125191188609,-2.64106319224,-0.0675212902136,2.1105723907,-0.879287221382,-0.0520556968062,0.0133808619732,0.000142400846592,0.00713044594097,-0.000351362415434,0.000166413600577,-0.0572331199236,0.573746611706,0.81900101063,0.00573733778123,0.0,0.819008189308,-0.573684143746,-0.00963514201369,0.0,-0.00459985989593,0.0102272536176,-0.999937120309,0.0,0.268842117189,-0.255722626666,0.305873179298,1.0,-0.0118830769231,-0.0156177582418,2.752
-0.632590609999,-0.522415199702,-0.125184899856,-2.640969478,-0.0675004374598,2.11059210085,-0.880197652386,-0.0541859640631,0.00719942969973,0.000851115243931,0.00396898626846,0.00197715909214,0.00128656938842,-0.0544851073613,0.573748933115,0.818999296479,0.00574987103616,0.0,0.819006466991,-0.573686103636,-0.00966480331177,0.0,-0.00461693489211,0.0102545495837,-0.999936762063,0.0,0.268636340223,-0.255985316472,0.305862920833,1.0,-0.0115430769231,-0.0151709010989,2.769
-0.633434675377,-0.522276040932,-0.125177707026,-2.64089096761,-0.0674855650484,2.11062083247,-0.880992782604,-0.0541991288863,0.00757406850278,0.000508764865609,0.00460658558349,0.000809318682508,-0.000780119721197,-0.046235426718,0.573794536309,0.818967299204,0.00575672104632,0.0,0.818974417865,-0.573731396644,-0.00969197034083,0.0,-0.00463468440004,0.0102760047403,-0.999936459695,0.0,0.268442866264,-0.256230349311,0.305850094395,1.0,-0.0112230769231,-0.0147503296703,2.785
-0.634291357708,-0.522145017467,-0.125163178887,-2.6408065799,-0.0674730770374,2.11064223044,-0.881853980892,-0.0437094104214,0.00492685918398,0.00454918420385,0.00468264734684,-0.000501389656905,0.00208718994918,-0.0456434657916,0.573790395197,0.8189701893,0.00575832599765,0.0,0.818977229393,-0.573727038189,-0.00971237803315,0.0,-0.00465053029392,0.0102890051967,-0.999936252438,0.0,0.268247666731,-0.256477845557,0.305842475348,1.0,-0.0108830769231,-0.0143034725275,2.802
-0.635114835532,-0.522012431607,-0.12514215505,-2.64070761707,-0.067452743633,2.11065852433,-0.882701428174,-0.0512777835691,0.00510692180169,0.000300440966791,0.00803657129023,-4.43671445196e-05,0.000828729280673,-0.0453130166045,0.573769744693,0.818984632243,0.00576186830825,0.0,0.818991650591,-0.573706245819,-0.00972453970274,0.0,-0.00465871843091,0.0102987669819,-0.99993611383,0.0,0.268065386037,-0.25671700044,0.305840631801,1.0,-0.0105430769231,-0.0138566153846,2.819
-0.635908859448,-0.521911623605,-0.125114537609,-2.64062007869,-0.0674348882673,2.1106933294,-0.883477262464,-0.0446843565035,0.00300695294147,0.00259093671719,0.00791746693693,-0.000327978029275,0.00106888703268,-0.0426761625567,0.573777206877,0.818979429601,0.00575826887355,0.0,0.818986532506,-0.573713992657,-0.0096985104403,0.0,-0.00463937044439,0.010280926829,-0.999936387369,0.0,0.267892665326,-0.256947111958,0.305847024882,1.0,-0.0102030769231,-0.0134097582418,2.836
-0.636632181639,-0.521807981674,-0.125086573599,-2.64053390066,-0.0674190679098,2.11071033904,-0.884165611613,-0.0453572510486,0.00456314531233,0.0018654882075,0.00666514614581,0.000214432656437,0.000137554597832,-0.0499389433565,0.573797259236,0.81896541126,0.00575389908474,0.0,0.818972486842,-0.573734101012,-0.00969505197061,0.0,-0.00463879341675,0.0102754771261,-0.999936446063,0.0,0.267734603514,-0.257155466622,0.305850231353,1.0,-0.00988307692308,-0.0129891868132,2.852
-0.637380548299,-0.521684911012,-0.12504882515,-2.64043800941,-0.0674010738845,2.11073481905,-0.884916029122,-0.0375252374798,0.00570047664389,0.00303268671171,0.00190155357368,-0.00018722158646,4.55617939041e-05,-0.0490195440834,0.573781519775,0.818976497171,0.00574556766402,0.0,0.818983492798,-0.573718415217,-0.00969357857675,0.0,-0.00464256443686,0.0102677190068,-0.999936508255,0.0,0.267575256869,-0.257371215131,0.305851576927,1.0,-0.00954307692308,-0.0125423296703,2.869
-0.638111545363,-0.521568681523,-0.125037555766,-2.6403533475,-0.0673824080224,2.11075904971,-0.885676052387,-0.0438510672903,0.00372578070472,0.00054787465977,0.00505316316107,0.00222059574976,0.0012599350122,-0.0507932757657,0.573762170607,0.818990004705,0.00575244943432,0.0,0.818997057503,-0.573699007329,-0.00969616893339,0.0,-0.00464098026345,0.0102747319144,-0.999936443573,0.0,0.267412080471,-0.257585238554,0.305849676176,1.0,-0.00920307692308,-0.0120954725275,2.886
-0.638826979849,-0.521467090866,-0.12501870404,-2.64028258409,-0.0673684840298,2.11077498274,-0.886385694704,-0.0442285488587,0.0048521568698,0.000183961535845,0.00255145703805,-0.000332245939271,0.00173573432187,-0.0475055296876,0.573763236854,0.81898925127,0.00575336770604,0.0,0.818996263693,-0.573699958916,-0.00970690980637,0.0,-0.00464923749012,0.0102816525989,-0.999936334079,0.0,0.267249737399,-0.257789381039,0.305846300309,1.0,-0.00886307692308,-0.0116486153846,2.903
-0.639514019726,-0.52136976973,-0.125005447505,-2.6402388052,-0.0673509887727,2.11079430738,-0.887057989421,-0.0393393907166,0.00361332562278,-0.000921161200277,0.00345004213419,5.35458576991e-05,0.00111330896355,-0.0468011816295,0.573775835918,0.818980357033,0.00576296898692,0.0,0.818987331291,-0.573712208458,-0.00973652667172,0.0,-0.00466782829526,0.0103065807545,-0.999935990837,0.0,0.26708806381,-0.257980408512,0.305832371823,1.0,-0.00852307692308,-0.0112017582418,2.92
-0.640130719929,-0.521287555237,-0.124988837804,-2.64020106672,-0.0673358941225,2.11080490449,-0.887662616384,-0.0331026304956,0.000172501339741,0.000657723088498,0.00215114663619,0.0045354774091,0.00462859768362,-0.0396258745938,0.573794307019,0.818967340468,0.0057736799574,0.0,0.818974359976,-0.573730482428,-0.00975080183909,0.0,-0.00467314203471,0.0103236491942,-0.999935789944,0.0,0.266935233965,-0.258162999824,0.305825968019,1.0,-0.00818307692308,-0.0107549010989,2.937
-0.640781220683,-0.521212039098,-0.1249707349,-2.64013720059,-0.0673154056082,2.11082401443,-0.888309548824,-0.0359408506314,0.00416249382912,0.00104020130094,0.00602602033175,0.000193740468423,0.000149129210101,-0.0363439223096,0.573784622119,0.818974111645,0.00577570571869,0.0,0.81898113422,-0.573720750212,-0.00975445891959,0.0,-0.00467509712043,0.0103273513791,-0.999935742576,0.0,0.266796369441,-0.258334701989,0.305823922974,1.0,-0.00784307692308,-0.010308043956,2.954
-0.641342169293,-0.52112958409,-0.124935687376,-2.6400668134,-0.0672986110278,2.110840773,-0.888888670335,-0.0309809869927,0.00731956708148,0.00265937526862,0.00447861894668,0.00544811140209,0.0011085263715,-0.0333024743053,0.573755695102,0.818994423401,0.00576920070145,0.0,0.819001414357,-0.573691936798,-0.00974637553261,0.0,-0.00467257324691,0.0103172206411,-0.999935858952,0.0,0.266677613145,-0.258493732084,0.30582786959,1.0,-0.00752307692308,-0.00988747252748,2.97
-0.641917612469,-0.521040120691,-0.124895772287,-2.63997495939,-0.0672820404852,2.1108624144,-0.889479118809,-0.0326309657695,0.00742796640649,0.00183094760502,0.00409141041256,0.000279508927595,0.00146402078137,-0.0290280699346,0.573726844391,0.819014720711,0.00575692497478,0.0,0.819021709419,-0.573663422499,-0.00971926379015,0.0,-0.00465777251105,0.0102914472202,-0.999936193599,0.0,0.266561630389,-0.25866153764,0.305839537227,1.0,-0.00718307692308,-0.00944061538462,2.987
-0.64245536521,-0.520948385751,-0.12487525898,-2.63988437375,-0.0672650729465,2.11089674033,-0.890018846505,-0.0303317572816,0.00270080212221,0.00429959784612,0.0044035500313,-0.000147826250649,0.00261356765232,-0.028246757984,0.573722525107,0.819017773656,0.00575304454559,0.0,0.819024890412,-0.573659493661,-0.00968303255871,0.0,-0.00463037629653,0.0102674582491,-0.999936567446,0.0,0.266452815098,-0.258824886268,0.305850417736,1.0,-0.00684307692308,-0.00899375824176,3.004
-0.64299130827,-0.520874629371,-0.124846542262,-2.63981284328,-0.0672499682559,2.11091869766,-0.890521451242,-0.0355575723149,0.00976139422689,0.00172425226324,0.00344417513939,0.000100042286672,0.000384804759857,-0.0342264472734,0.573739556284,0.819005889013,0.00574649616083,0.0,0.819013044185,-0.573676786675,-0.00966047545832,0.0,-0.00461544370044,0.0102492495468,-0.999936823286,0.0,0.266340010205,-0.258979822575,0.305858377469,1.0,-0.00650307692308,-0.00854690109891,3.021
-0.64346958058,-0.52079453473,-0.124827707859,-2.63977350601,-0.0672322322244,2.11092647558,-0.890982491065,-0.026538123335,0.00498515938565,0.00395433757455,-0.000666363848038,0.000186027318609,-0.000491460907387,-0.0334390805939,0.573750054483,0.818998489755,0.00575288282051,0.0,0.819005574587,-0.573686952246,-0.00969002169711,0.0,-0.00463584857815,0.0102714913346,-0.999936500671,0.0,0.266230339136,-0.259111002443,0.305847897109,1.0,-0.00618307692308,-0.00812632967034,3.037
-0.643965116648,-0.520730061229,-0.124811004936,-2.63973262142,-0.0672206687821,2.11093554122,-0.891446074384,-0.0261254220629,0.00751922903307,0.000154720454475,0.00487708966479,0.000644884422301,0.000285520820094,-0.0210596310678,0.573771493565,0.818983460323,0.00575428452118,0.0,0.81899050732,-0.573708265664,-0.00970163545285,0.0,-0.00464428779812,0.0102794241738,-0.999936379991,0.0,0.26611601846,-0.259248655592,0.30584393131,1.0,-0.00584307692308,-0.00767947252748,3.054
-0.644420665643,-0.520650352259,-0.124795597829,-2.63970219637,-0.0672025812195,2.11094448356,-0.891900965755,-0.0234550994169,0.00528877527174,-0.00119533658801,0.00454892468767,-0.000139369676894,0.000335696269582,-0.0275146769175,0.573770577367,0.818984035398,0.00576378459584,0.0,0.818991008974,-0.573706926889,-0.00973838591364,0.0,-0.00466894933783,0.0103082855364,-0.999935968031,0.0,0.266009538317,-0.259372314453,0.305829552555,1.0,-0.00550307692308,-0.00723261538462,3.071
-0.64485870151,-0.520577530988,-0.124784553913,-2.639669027,-0.0671887982901,2.11094965094,-0.892341878794,-0.0301457119691,3.70183733401e-05,0.000801611578591,0.00107873195101,-3.89459144049e-05,0.000381214980296,-0.0239207790591,0.573768126235,0.818985698388,0.00577148624924,0.0,0.818992604823,-0.573704116738,-0.00976967680769,0.0,-0.00469019046319,0.0103325326461,-0.999935618369,0.0,0.265906397438,-0.259492955531,0.305818529501,1.0,-0.00516307692308,-0.00678575824176,3.088
-0.645276574911,-0.520514909476,-0.124766974481,-2.63962722442,-0.0671745909371,2.11096324407,-0.892732013777,-0.0282461233385,0.00632627606025,0.00148080601941,0.00200859226009,-5.14652108456e-05,0.000486440873916,-0.0226536591573,0.57378664699,0.818972709553,0.00577335647992,0.0,0.818979615398,-0.573722581805,-0.00977423096476,0.0,-0.00469261377902,0.0103367834968,-0.999935563065,0.0,0.265813439741,-0.259610256748,0.305816070858,1.0,-0.00482307692308,-0.00633890109891,3.105
-0.645647653826,-0.520483673858,-0.124740888387,-2.63958885778,-0.0671605401748,2.1109739919,-0.893072837939,-0.0216426337015,0.000849734693693,0.000934478052718,0.00310381977189,-9.17838457792e-06,0.000556342612078,-0.0198544828304,0.573800828781,0.818962796296,0.00577010180737,0.0,0.818969764011,-0.573736987057,-0.00975408733107,0.0,-0.00467780387221,0.0103226410529,-0.999935778554,0.0,0.265733857394,-0.25971247821,0.30582357023,1.0,-0.00450307692308,-0.00591832967034,3.121
-0.646010743783,-0.52046898871,-0.124720371382,-2.6395479664,-0.0671458279919,2.11098043386,-0.893415708307,-0.0257396566134,-0.00249373796711,0.00200177296155,0.00488324222066,0.000714325391491,-0.000551323876892,-0.0206702581164,0.573815104986,0.818952793031,0.00577018001769,0.0,0.818959924823,-0.573751621622,-0.00971931693563,0.0,-0.00464910111819,0.0103028354228,-0.99993611668,0.0,0.265650485539,-0.259819272302,0.305835824801,1.0,-0.00414307692308,-0.00544518681319,3.139
-0.646337229197,-0.520459708982,-0.124699775514,-2.63951367588,-0.0671329182565,2.11099239714,-0.893726946972,-0.0195740548858,-0.00203981601771,0.00258651835817,0.00159848656881,-0.00011279366468,0.000348501590825,-0.0112044500079,0.573816067358,0.818952137032,0.00576758124783,0.0,0.818959424617,-0.573753001253,-0.00967994243541,0.0,-0.0046183314101,0.0102781194063,-0.999936513623,0.0,0.265585784784,-0.259905164234,0.305851526286,1.0,-0.00382307692308,-0.00502461538462,3.155
-0.646637968773,-0.520432844565,-0.12467966031,-2.63946238928,-0.0671174189535,2.11100576596,-0.894017120188,-0.0225273542732,0.0049226732615,0.00290139686783,0.00250060187132,0.00018420496162,-0.000138577125681,-0.0150486381797,0.573819549634,0.818949710346,0.00576569883024,0.0,0.81895716213,-0.573756900978,-0.00964012853088,0.0,-0.00458675928459,0.0102537519802,-0.999936909115,0.0,0.265526689514,-0.259993535396,0.305866601842,1.0,-0.00348307692308,-0.00457775824176,3.172
-0.646914004032,-0.520394682547,-0.12464161925,-2.63940594151,-0.0671030388472,2.11101943084,-0.894282409992,-0.0157083043539,0.00328710233589,0.00151857778988,0.00376161127079,0.000400804031163,-0.000239252612318,-0.018948953432,0.573810287371,0.818956287095,0.00575333252563,0.0,0.818963764196,-0.573748036737,-0.00960677758212,0.0,-0.0045666555806,0.010224435519,-0.999937301322,0.0,0.265478778397,-0.260072685604,0.30588031081,1.0,-0.00314307692308,-0.00413090109891,3.189
-0.647159809224,-0.52035317913,-0.124598989509,-2.63936433971,-0.0670889697709,2.11103276131,-0.894518401432,-0.0183621444188,0.00304727802796,0.00125834398412,0.00375371275204,0.000656668995813,0.00170852708498,-0.0147647224638,0.573796201724,0.81896624682,0.00574041439172,0.0,0.818973658133,-0.573734160413,-0.009592046732,0.0,-0.00456217851604,0.0102053246393,-0.999937516986,0.0,0.265436144558,-0.260138939399,0.305886109413,1.0,-0.00282307692308,-0.00371032967034,3.205
-0.647378971773,-0.520304732584,-0.124568888622,-2.63934419014,-0.0670738064472,2.1110425367,-0.89473178885,-0.00962224012624,0.00343103952602,0.000143504379929,0.00124878285336,0.000310393739014,0.00055311584232,-0.0118964303757,0.573787191185,0.818972575714,0.00573814960149,0.0,0.818979886724,-0.573724989241,-0.00960878569867,0.0,-0.00457730028196,0.0102130238997,-0.999937369271,0.0,0.265392157909,-0.260194672269,0.305878982712,1.0,-0.00248307692308,-0.00326347252748,3.222
-0.647577044213,-0.520268070091,-0.124540851176,-2.63933987787,-0.0670571403127,2.11104174677,-0.894934288894,-0.0106807445866,0.00271269492594,0.00546472596677,-0.000561480162178,0.00294951784473,-0.000180226048872,-0.0068517532573,0.573771142269,0.818983799024,0.00574109193067,0.0,0.818990996636,-0.573708609787,-0.00963978142942,0.0,-0.00460119953397,0.0102331280235,-0.999937054046,0.0,0.265348276743,-0.260239777629,0.305868035617,1.0,-0.00214307692308,-0.00281661538462,3.239
-0.647761328319,-0.52023501556,-0.124532616956,-2.63934516331,-0.0670455128954,2.11104510259,-0.895104894914,-0.0079045791286,0.00205644471676,-0.000396945039597,-0.00148353988348,0.000547001234541,0.000422590984425,-0.016239416311,0.573781780068,0.818976298422,0.00574790268359,0.0,0.818983439552,-0.573718933951,-0.00966734025131,0.0,-0.00461973087866,0.0102545782403,-0.999936748856,0.0,0.265300562664,-0.260288654222,0.305857150662,1.0,-0.00180307692308,-0.00236975824176,3.256
-0.647946919501,-0.520217269587,-0.124521848693,-2.63933447283,-0.0670308156597,2.11104445902,-0.895280952832,-0.0115340880888,0.00259122436329,-0.00142585641468,0.000942645992232,-0.000250426101753,0.00217801082263,-0.0161017927104,0.573788353329,0.818971621515,0.00575809331627,0.0,0.818978816287,-0.573725345943,-0.00967847074319,0.0,-0.00462291780398,0.0102693479555,-0.999936582551,0.0,0.265259060443,-0.260331990044,0.305852467553,1.0,-0.00146307692308,-0.00192290109891,3.273
-0.64810997757,-0.520211439265,-0.124505920949,-2.63932759363,-0.067018314785,2.11104987112,-0.895410124654,-0.0111587247399,-0.00191972607044,-0.00066983599301,0.00102834762506,-0.000223826191632,0.000120261323238,-0.00944140702797,0.57381047099,0.818956106981,0.00576065290709,0.0,0.818963366401,-0.573747533484,-0.00967053332721,0.0,-0.00461467077609,0.0102670146525,-0.999936644605,0.0,0.265223502457,-0.260372893049,0.305854297729,1.0,-0.00112307692308,-0.00147604395605,3.29
-0.648244931382,-0.52020404751,-0.124479249338,-2.63932975475,-0.0670036898604,2.11105382548,-0.895469642339,-0.012493602431,-0.00118641137936,0.00299848851508,-0.000536411215708,0.000578918009592,0.000527187370623,-0.00366621762129,0.573859490965,0.818921759323,0.00576052407522,0.0,0.818929000856,-0.57379650926,-0.00967493767537,0.0,-0.00461773728234,0.0102697127586,-0.999936602742,0.0,0.265195446928,-0.260401228644,0.305851567153,1.0,-0.000803076923082,-0.00105547252748,3.306
-0.648333548359,-0.520206275622,-0.124476991086,-2.63931803092,-0.0669910890679,2.11105855482,-0.895520875974,-2.84465282388e-05,-0.00219358200526,0.00113515077911,-7.17664513788e-05,0.000164086304282,-0.000197166770466,-0.0019930047061,0.573894391355,0.818897247168,0.00576827982363,0.0,0.81890466274,-0.573831578642,-0.00965502965552,0.0,-0.00459654458672,0.0102648362411,-0.999936750457,0.0,0.265177474572,-0.260426645062,0.305858191873,1.0,-0.000463076923082,-0.000608615384622,3.323
-0.648370673559,-0.520206486676,-0.124473212225,-2.63930955282,-0.0669785916551,2.11106416646,-0.895592534002,-0.000171296280268,-0.00124723304846,0.00250299066925,-0.000355625131994,0.000532516099126,0.000377382837011,-0.00219760333268,0.573869135198,0.8189148932,0.00577583444439,0.0,0.818922456161,-0.573806448174,-0.00963938434375,0.0,-0.00457971252626,0.0102619032602,-0.999936857794,0.0,0.26517258381,-0.260437345067,0.305862707341,1.0,-0.000123076923082,-0.000161758241765,3.34
-0.648371412472,-0.520200244218,-0.124456176432,-2.63930879089,-0.066966190144,2.11106488396,-0.895593008145,-0.000150123261633,0.000446609204417,0.00111093078983,-0.000673795246931,0.00148543969935,0.000388840004575,0.000745155512898,0.573862612072,0.818919449586,0.00577792848349,0.0,0.818927015438,-0.573799874831,-0.00964333607213,0.0,-0.00458182904215,0.0102658494052,-0.999936807593,0.0,0.265177362993,-0.260432738183,0.305861224171,1.0,0.0,0.0,3.357
-0.648364057001,-0.520200897171,-0.124436294427,-2.63930267612,-0.0669559586909,2.11106489296,-0.89559645658,7.49519773418e-06,-0.000906530343943,0.00395724970966,0.000589717278959,-7.75781279287e-05,0.000131663835655,0.00115089710202,0.57384430086,0.818932295651,0.00577584728922,0.0,0.818939872114,-0.573781647769,-0.00963604937255,0.0,-0.00457728498571,0.0102598611897,-0.999936889864,0.0,0.265185941791,-0.260426961027,0.305864724187,1.0,0.0,0.0,3.373
-0.648368647074,-0.520196216713,-0.124418192897,-2.63930416138,-0.0669450867951,2.11106584153,-0.895598375807,-4.0773348987e-06,0.000429262062091,0.000966614437255,0.000348973599754,0.000237111297386,0.000209917721219,0.0013875828871,0.573838230757,0.81893654538,0.00577637126149,0.0,0.818944106003,-0.573775528707,-0.00964058097239,0.0,-0.00458077179647,0.0102628567191,-0.999936843156,0.0,0.265189368155,-0.260422780914,0.305862837838,1.0,0.0,0.0,3.389
-0.648366775731,-0.520189478555,-0.124396651547,-2.63930208247,-0.0669395634536,2.11106868325,-0.895607883072,-0.00126816440365,0.00181568646913,0.00274611814207,0.00028874790383,0.000182241184029,-0.000193993261783,-0.000424447525439,0.57381611603,0.818952085318,0.00577008128844,0.0,0.818959571938,-0.573753425216,-0.0096422760031,0.0,-0.00458604643254,0.0102585541768,-0.999936863129,0.0,0.265195822317,-0.260417816345,0.305862055365,1.0,0.0,0.0,3.407
-0.648369271723,-0.520194846739,-0.124390614042,-2.63930481762,-0.0669352195481,2.11106546964,-0.895610767984,-0.00164088891044,-0.000507866261344,-0.000350854427707,0.000261839025834,-0.000158995973563,-3.2818090735e-05,0.00086469340517,0.573813214643,0.818954109359,0.00577134012133,0.0,0.818961607621,-0.573750515678,-0.00964250503632,0.0,-0.00458554803925,0.010259700327,-0.999936853655,0.0,0.265195854555,-0.260415653355,0.305862658544,1.0,0.0,0.0,3.424
-0.648367261171,-0.520194740654,-0.124386668431,-2.63930208234,-0.0669334042537,2.11106918284,-0.895608785957,-0.00067020417772,0.00031949381274,-0.000887450345504,0.000588892669281,9.57372779229e-05,-4.51008090669e-05,-7.87457826445e-05,0.57381129136,0.818955465674,0.00577009981781,0.0,0.818962980249,-0.573748663375,-0.00963613814478,0.0,-0.00458106914343,0.0102550204566,-0.999936922191,0.0,0.265198613256,-0.260415286114,0.305864277348,1.0,0.0,0.0,3.44
-0.648366401581,-0.520189241644,-0.124383071806,-2.63930208233,-0.0669286065687,2.11106617256,-0.895611983047,0.00027852609206,0.000467707607061,-0.00121183603245,0.000108647735917,-3.343552189e-05,0.000255366323764,0.000585011360654,0.57380748604,0.818958111853,0.00577294510452,0.0,0.818965618213,-0.573744761914,-0.00964423468929,0.0,-0.00458611551382,0.0102619751931,-0.999936827709,0.0,0.265199453063,-0.260413271148,0.305862079568,1.0,0.0,0.0,3.458
-0.648367190422,-0.520191906195,-0.124380883398,-2.63930458798,-0.0669272836449,2.11107070891,-0.895614904087,0.000142495134758,0.000260472885781,3.11789449735e-05,-0.000738113408643,0.000317411401977,0.000178482410538,0.00144790608941,0.573804620344,0.818960120937,0.005772771269,0.0,0.818967647271,-0.573741946179,-0.00963944082924,0.0,-0.00458232482851,0.0102590661086,-0.999936874938,0.0,0.265200043465,-0.260412904443,0.305862363185,1.0,0.0,0.0,3.474
-0.648372510779,-0.520194605377,-0.124380275526,-2.63930131693,-0.0669267666218,2.11106989947,-0.895616694562,-0.000998643896415,-0.000390786048518,-0.000816525346472,-0.000542984308692,2.1777960835e-05,0.000915783245388,0.000259215579976,0.573807439526,0.818958147999,0.00577244071751,0.0,0.818965694836,-0.573744819928,-0.00963427160159,0.0,-0.00457824541356,0.0102558450993,-0.999936926666,0.0,0.265199517475,-0.260414895586,0.305864792261,1.0,0.0,0.0,3.491
-0.648369729832,-0.520191975468,-0.124380276534,-2.63929656358,-0.0669224931558,2.11106836923,-0.89562136101,0.000120252016796,-0.000540903189336,0.000527300455354,0.000791510529736,4.70587524049e-05,-0.00036147912219,-0.000749682782467,0.573803390965,0.818960961745,0.00577568664303,0.0,0.818968545973,-0.573740766345,-0.00963330898832,0.0,-0.00457564520847,0.0102579285527,-0.999936917197,0.0,0.265201414659,-0.260414680814,0.305865857645,1.0,0.0,0.0,3.508
-0.648372516793,-0.520186705556,-0.124378074344,-2.63929898429,-0.0669176086657,2.11106918319,-0.895613917902,-0.000140460822379,0.00279574285388,0.000188797067979,-0.000321445185572,0.00140264025796,-0.000400909299252,0.00156817200465,0.573812196311,0.818954768032,0.00577911620357,0.0,0.81896235844,-0.573749489525,-0.00963979405478,0.0,-0.00457887848989,0.0102645076579,-0.999936834882,0.0,0.265201063947,-0.260413850627,0.30586293796,1.0,0.0,0.0,3.525
-0.648369729844,-0.520191628416,-0.124377698565,-2.63929906792,-0.0669224929213,2.11106918305,-0.895615080214,0.000418135313488,-0.00104240973137,8.20339331588e-05,-0.00036604069118,-6.242412075e-06,-0.000189398832185,-0.000265888054873,0.573803257588,0.818961046556,0.00577691155239,0.0,0.818968622275,-0.573740580142,-0.00963791101435,0.0,-0.00457871325985,0.0102615715985,-0.999936865774,0.0,0.265201075589,-0.260412717458,0.30586344381,1.0,0.0,0.0,3.541
-0.648367232881,-0.520189042949,-0.12437948612,-2.63929647723,-0.0669180739485,2.11107070893,-0.895623670595,0.0010386769171,0.000860069595606,-0.00604187258456,0.00111484648462,-0.000128535310081,0.000266127509602,-0.000803626716793,0.573800789417,0.818962761839,0.00577890016602,0.0,0.8189703783,-0.573738148868,-0.00963342628241,0.0,-0.00457392997279,0.0102606132094,-0.9999368975,0.0,0.265202958536,-0.260413697865,0.305865038167,1.0,0.0,0.0,3.558
-0.648375400898,-0.520183829631,-0.124380087941,-2.63929824114,-0.0669163799339,2.11106918303,-0.895622173563,-0.000782100293836,0.00248327806239,-0.000357276219021,0.00194804396309,-4.17517570498e-06,-0.000176510964862,0.00017507089665,0.57380979467,0.818956435804,0.00578123669057,0.0,0.818964038901,-0.573747058205,-0.00964173686537,0.0,-0.00457928307961,0.0102673456792,-0.999936803893,0.0,0.265200092297,-0.26041507505,0.30586216933,1.0,0.0,0.0,3.575
