nelsonifechukwu/NELSON_IML_WORK/CNN-GradCAM/train2dof/data_sample_2022-02-21-15-25-50/robot_state.csv
position_joint1,position_joint2,position_joint3,position_joint4,position_joint5,position_joint6,position_joint7,velocity_joint1,velocity_joint2,velocity_joint3,velocity_joint4,velocity_joint5,velocity_joint6,velocity_joint7,ee_T_00,ee_T_10,ee_T_20,ee_T_30,ee_T_01,ee_T_11,ee_T_21,ee_T_31,ee_T_02,ee_T_12,ee_T_22,ee_T_32,ee_T_03,ee_T_13,ee_T_23,ee_T_33,v_x,v_y,time
0.465069538041,0.547862925195,-0.123925343822,-1.3558607125,0.0794744519465,1.89409019218,0.15917797299,0.00233473329794,-0.000132121931922,0.000180751719776,0.00207466149796,-0.000218639537036,-0.000364201713226,0.00147303014869,0.573775193742,0.818999010797,0.00184235227407,0.0,0.818954320346,-0.573716943042,-0.0119765334798,0.0,-0.00875194886014,0.00838080152855,-0.999926580083,0.0,0.661654480113,0.260915057439,0.303140248699,1.0,0.0,0.0,0.0
0.465072164,0.547863004559,-0.123926262648,-1.35586359014,0.0794778886505,1.89409275159,0.159165319607,-0.000744513102158,-6.14585142795e-05,-0.00406491688031,1.71563158988e-05,2.09930653357e-05,0.000356786921638,-0.00203681800959,0.573764408312,0.819006563483,0.00184380784858,0.0,0.818961863825,-0.573706125694,-0.011978891518,0.0,-0.00875315544452,0.00838323131945,-0.999926549154,0.0,0.661653661444,0.260916651275,0.303139081975,1.0,-0.0001,-0.000131428571429,0.006
0.465069319314,0.547859573206,-0.123926262359,-1.35586428217,0.0794777312126,1.89409229078,0.159165315221,0.000284324573897,0.000284138922579,-0.00156779449911,0.00110477982325,6.15515468277e-05,4.7879753747e-05,-0.00838878222372,0.573766721363,0.819004938561,0.00184579806651,0.0,0.818960265289,-0.573708430333,-0.0119778021075,0.0,-0.00875109765343,0.00838426094156,-0.999926558532,0.0,0.661654253257,0.26091467597,0.303141143075,1.0,-0.00044,-0.000578285714286,0.023
0.465068337479,0.547844197408,-0.123923849205,-1.35587874381,0.0794782614064,1.89409233204,0.159164901337,-0.000125604071591,-0.00178985190354,0.000447314057696,-0.00140538854557,-0.000209274942724,0.00047996206661,-0.00142834430824,0.573766403382,0.819005155567,0.00184835226205,0.0,0.818960483166,-0.573708070349,-0.0119801472894,0.0,-0.00875155627948,0.00838769497296,-0.999926525719,0.0,0.661651025542,0.260913997452,0.303145077432,1.0,-0.00078,-0.00102514285714,0.04
0.465069169948,0.547780570668,-0.123926435236,-1.35593576042,0.0794747858837,1.8940983033,0.159175531299,0.000490541102597,-0.012136260869,-0.000755359916063,-0.00576421761321,7.91991916756e-05,-0.000213052492933,0.00228366393485,0.573778354688,0.818996757389,0.00185956392676,0.0,0.818952227037,-0.573719968152,-0.0119747599269,0.0,-0.00874058887722,0.00839391367663,-0.999926569464,0.0,0.661641403504,0.260906965542,0.303163612414,1.0,-0.0011,-0.00144571428571,0.056
0.465069028747,0.547653904266,-0.123921387878,-1.35609571047,0.0794751416257,1.8941321607,0.15917067645,0.000355016710979,-0.0103958481936,0.000537768512359,-0.0126809041744,-0.000269863771792,-0.000918272072804,0.00119489122605,0.573775851433,0.818998512571,0.00185892971849,0.0,0.818953804364,-0.573717305119,-0.011994458123,0.0,-0.00875711181489,0.00840466980296,-0.999926334546,0.0,0.661610691011,0.260892921914,0.303174713785,1.0,-0.00146,-0.00191885714286,0.074
0.465056057975,0.547509119289,-0.123921412238,-1.35630285598,0.0794703520335,1.89419335308,0.159162060147,-0.00208493817882,-0.0123095512513,0.00264269609239,-0.0134717427771,-0.00061332059369,0.00500003754187,0.00104036370133,0.573793586139,0.818986057407,0.00187221267056,0.0,0.818941447983,-0.57373490893,-0.0119960807216,0.0,-0.00875063756539,0.00841666877919,-0.999926290298,0.0,0.661585883665,0.260866926646,0.303189267566,1.0,-0.00178,-0.00233942857143,0.09
0.465033995747,0.547328847956,-0.123922132886,-1.35651509722,0.0794663276607,1.89431841153,0.159149620703,-9.22332811129e-05,-0.0117752044385,0.00110929604208,-0.00874364675046,0.000250540265357,0.0121289577588,-0.00473504601383,0.573813040456,0.818972233146,0.00195520829343,0.0,0.818928696718,-0.573753999051,-0.011953458304,0.0,-0.00866790874778,0.00846038932161,-0.999926641895,0.0,0.661573077783,0.260836949306,0.303226820916,1.0,-0.00212,-0.00278628571429,0.107
0.465011649384,0.5471260073,-0.123923930556,-1.35675792945,0.0794637781376,1.89444479068,0.15913088282,-0.000397892155592,-0.0117900174358,-0.00106689962224,-0.0188765216616,1.43418508076e-05,0.0178446243453,-0.000868672683252,0.57383034179,0.818959917361,0.0020345757581,0.0,0.818917368123,-0.573770921853,-0.011917228015,0.0,-0.00859251709463,0.0085047801935,-0.999926916011,0.0,0.661554342869,0.260803151872,0.3032659469,1.0,-0.00246,-0.00323314285714,0.124
0.464978975356,0.546912131447,-0.12392676426,-1.35708699322,0.0794541222661,1.89457381364,0.159108267211,-0.00151312960185,-0.0134101981629,-0.00114858815981,-0.0239496187265,-0.000200892516019,0.00982311663991,-0.00358252132451,0.573856461143,0.818941575233,0.00205067343617,0.0,0.818899167768,-0.573796904443,-0.0119168948336,0.0,-0.00858273580145,0.00851804586603,-0.999926887098,0.0,0.661519950672,0.260750844811,0.303272088574,1.0,-0.0028,-0.00368,0.141
0.464946597059,0.546666572493,-0.123919164328,-1.35744856383,0.0794472799364,1.89470333492,0.15902125579,-0.000716734757541,-0.0173505543476,0.000980052006719,-0.02749360356,0.000314103571762,0.00999103624987,-0.0112789488471,0.573824769285,0.818963725032,0.00207319511825,0.0,0.818921426069,-0.573764940161,-0.0119263685797,0.0,-0.00857790171633,0.00854159405354,-0.999926727702,0.0,0.661476384871,0.260701821045,0.303284888862,1.0,-0.00312,-0.00410057142857,0.157
0.464900898859,0.546392549185,-0.12392637378,-1.35789069988,0.0794348331671,1.89487025554,0.158948441258,-0.00693008386918,-0.0155565045566,-0.00101483227585,-0.0284160588808,0.00049219043684,0.0126620520775,0.000300329518663,0.573829072085,0.818960698428,0.00207782633006,0.0,0.818918367051,-0.573769130983,-0.0119347953231,0.0,-0.00858210093773,0.00855026729018,-0.999926617544,0.0,0.6614296972,0.260627854034,0.30328321455,1.0,-0.00346,-0.00454742857143,0.174
0.464865340024,0.546089196917,-0.12392429783,-1.35838530958,0.0794060151295,1.89504475757,0.158928224015,-0.000833383825053,-0.0197629129252,0.00274209972344,-0.0284044557899,0.000677875808164,0.00923556630934,0.00176444377369,0.573860150583,0.818938956832,0.00206384528905,0.0,0.81889640997,-0.573800230218,-0.0119462312593,0.0,-0.00859916482411,0.0085457060986,-0.999926509935,0.0,0.661369352603,0.260557987117,0.303277636338,1.0,-0.0038,-0.00499428571429,0.191
0.464807178842,0.545778483484,-0.123919351431,-1.35893422466,0.0793296115475,1.89522128659,0.1588359161,-0.00131568618398,-0.0177926921417,0.00165150400347,-0.0340983079988,-0.00304727425108,0.0154493815612,-0.00855830195967,0.573838984824,0.818953974226,0.00198859156974,0.0,0.818910767811,-0.573779697406,-0.0119482261917,0.0,-0.00864420028318,0.00848500040011,-0.999926638594,0.0,0.661304976218,0.26046091068,0.303251397483,1.0,-0.00412,-0.00541485714286,0.207
0.4647432464,0.545408541747,-0.123927454077,-1.35959093936,0.0792900542665,1.89544739672,0.158749640244,-0.00493466553787,-0.0234502930699,-4.82868866438e-05,-0.0404049384583,-0.00020273536684,0.0173046510397,-0.00123174398254,0.57385247901,0.818944649594,0.00193394309214,0.0,0.818900738394,-0.573793427524,-0.0119762301472,0.0,-0.00869835323613,0.00845645959838,-0.999926410763,0.0,0.661229653624,0.260349782481,0.303220566465,1.0,-0.00446,-0.00586171428571,0.224
0.464667254098,0.544913557416,-0.123922519003,-1.36042102342,0.0792630241157,1.89571605787,0.15867010757,-0.0049898570368,-0.0255351761212,0.00144957420008,-0.0453412009004,-0.000979223480132,0.0179503313447,-0.00879954368021,0.57388504555,0.818921928469,0.00189115512702,0.0,0.818877159078,-0.573825883158,-0.0120333311653,0.0,-0.0087693338397,0.00845453531772,-0.999925807056,0.0,0.661125618831,0.260224217069,0.303198984699,1.0,-0.00486,-0.00638742857143,0.244
0.464606309949,0.544546070495,-0.123932448504,-1.36101125874,0.0792412288819,1.89593975409,0.158560126368,-0.00341710670936,-0.020710274134,-0.00129979832885,-0.0416081253757,-0.00139092057424,0.0201629206743,-0.0054672695696,0.573879009471,0.818926145426,0.00189676754675,0.0,0.818881371528,-0.573819748476,-0.012039207792,0.0,-0.00877098822319,0.00846243918082,-0.999925725686,0.0,0.661063529078,0.260124597339,0.303197866908,1.0,-0.00514,-0.00675542857143,0.258
0.464539678974,0.544049484545,-0.123931166033,-1.36181914007,0.0792002413641,1.89622037416,0.158491962493,-0.00626628261015,-0.0361578876912,-0.00142573568904,-0.0481596432892,-0.000695833837078,0.0149784508773,-0.00022478780127,0.573910864586,0.818903872371,0.00187462733863,0.0,0.81885869844,-0.573851589368,-0.0120636756006,0.0,-0.00880340227942,0.00845869225266,-0.99992547254,0.0,0.660966015253,0.26000433093,0.303189023544,1.0,-0.00548,-0.00720228571429,0.275
0.4644567169,0.543531219417,-0.12393660159,-1.36264911256,0.0791567304175,1.89650469617,0.158370739088,-0.00448738991573,-0.0359767003414,-0.000795391807809,-0.047273918413,-0.0018224738012,0.0177884374122,-0.00535224213562,0.573917817469,0.818899046538,0.00185398789733,0.0,0.818853527578,-0.573858559852,-0.0120830690895,0.0,-0.00883105695709,0.00845299591634,-0.999925276855,0.0,0.660870536895,0.259866892061,0.303185486414,1.0,-0.00582,-0.00764914285714,0.292
0.464386195845,0.543011729276,-0.12393678741,-1.36346750295,0.0791041134169,1.89680838305,0.158265927895,-0.00611791289645,-0.0309444356694,0.000102858324224,-0.052586419126,-0.00221553393437,0.0175023711643,-0.00695281418644,0.573921376649,0.818896548202,0.00185571292337,0.0,0.818851076185,-0.57386213434,-0.0120794330172,0.0,-0.0088270525712,0.00845236008488,-0.999925317587,0.0,0.660777578094,0.25974195954,0.303189758216,1.0,-0.00614,-0.00806971428571,0.308
0.464311124708,0.542382968845,-0.12393488968,-1.36445263997,0.0790521544405,1.8971623914,0.158133309651,-0.00542269901865,-0.03492285093,0.000172485663672,-0.0535655835462,-0.000289807918099,0.0248445938448,-0.0103633713657,0.573913739541,0.818901894643,0.00185833732284,0.0,0.818856351655,-0.573854385794,-0.0120899197693,0.0,-0.00883421326817,0.00846044527568,-0.999925185972,0.0,0.660659636631,0.259600398377,0.303196190148,1.0,-0.0065,-0.00854285714286,0.326
0.464233032431,0.54175933491,-0.123935926269,-1.3654073598,0.0789913362261,1.89751535446,0.158009430712,-0.00341434023318,-0.0354638086466,0.000375292524489,-0.0574675767856,-0.0107577929568,0.0292521224976,-0.000964306624826,0.573913712066,0.818901876085,0.00187492648661,0.0,0.818856577028,-0.573854311217,-0.0120781892923,0.0,-0.00881508694137,0.0084672973585,-0.999925296769,0.0,0.660550159282,0.259457190918,0.30321337124,1.0,-0.00684,-0.00898971428571,0.343
0.464154315425,0.541181653045,-0.123940591201,-1.36628953917,0.0789349339933,1.89784761295,0.15789778165,-0.00636212713377,-0.0430829149579,-0.000380966631482,-0.0586547721797,-0.00210998816811,0.0250798321355,-0.00275053149142,0.573923891115,0.818894695002,0.00189541699257,0.0,0.818849719193,-0.573864452668,-0.0120612703769,0.0,-0.00878936711418,0.00847447605855,-0.999925462363,0.0,0.660452678613,0.259318791266,0.303230833758,1.0,-0.00714,-0.009384,0.358
0.464065167878,0.540440412098,-0.12394272514,-1.36741048116,0.078876976142,1.8982646872,0.157745768198,-0.00403319227354,-0.0449851153321,-0.00207530267228,-0.0621833838948,-0.00624432608898,0.0263123573635,-0.0155753822077,0.573920498016,0.818896986873,0.00193229087867,0.0,0.818852408688,-0.573860818329,-0.0120515921951,0.0,-0.00876031517396,0.00849908046844,-0.99992550848,0.0,0.660323335964,0.259154288785,0.303257464616,1.0,-0.0075,-0.00985714285714,0.376
0.463956944991,0.53970874552,-0.123938491964,-1.36856495143,0.0788129249396,1.89870055719,0.157595571763,-0.00305312347302,-0.0446024508192,0.000377081989384,-0.0697817630358,-0.00226650416893,0.0260974306686,-0.012400050197,0.573929978052,0.818890308962,0.00194655645923,0.0,0.818845843865,-0.573870164249,-0.0120526126491,0.0,-0.00875286554083,0.00851144925142,-0.999925468511,0.0,0.660193333951,0.258977073344,0.303262671029,1.0,-0.00784,-0.010304,0.393
0.463869403922,0.539000226903,-0.12394676959,-1.36966692384,0.0787464872564,1.89911619342,0.157472418398,-0.00610914637424,-0.0480572093539,-0.000889993483286,-0.0645822498005,-0.00317706808275,0.0257284797072,-0.0103257045823,0.573949789519,0.818876385236,0.00196257849118,0.0,0.818832173025,-0.57388994658,-0.0120394574215,0.0,-0.00873269143939,0.00851723044672,-0.999925595675,0.0,0.660068245904,0.258810438571,0.303275036256,1.0,-0.00816,-0.0107245714286,0.409
0.463752011836,0.538226949224,-0.123945191505,-1.37087478817,0.078681147016,1.89958075054,0.157322254457,-0.00317078661833,-0.0442338078433,-0.00143108333406,-0.0696437440875,-0.00212187248198,0.0253704159383,-0.0102919833915,0.5739711376,0.818861352358,0.00199141108737,0.0,0.818817453521,-0.573911106541,-0.0120318951288,0.0,-0.00870972866509,0.00853672704845,-0.999925629693,0.0,0.659935291233,0.258621604025,0.303286558539,1.0,-0.0085,-0.0111714285714,0.426
0.463640485284,0.537424244126,-0.123952687471,-1.37214241531,0.0786056934174,1.90005296324,0.157163301332,-0.00535915079948,-0.0486183772046,-0.00035022175517,-0.0709150793893,2.33555566453e-05,0.0323797831985,-0.00535596071425,0.573987246893,0.818850050549,0.00199550003293,0.0,0.818806223399,-0.573927214273,-0.0120278069644,0.0,-0.00870386614219,0.00853790003243,-0.999925670726,0.0,0.659791641294,0.258423569778,0.303291229444,1.0,-0.00884,-0.0116182857143,0.443
0.463531875368,0.536626251388,-0.123952668855,-1.37337934964,0.0785385303844,1.90052525971,0.157014043928,-0.00525865485333,-0.0496469725341,0.000317195719701,-0.0758975597274,0.000324945975193,0.0251116303001,-0.00928759807753,0.57400411237,0.81883815062,0.00202706008859,0.0,0.818794676649,-0.573943885371,-0.0120183542425,0.0,-0.00867783529351,0.00855849554644,-0.999925720906,0.0,0.659651796192,0.258236761474,0.303306808552,1.0,-0.00916,-0.0120388571429,0.459
0.46341285048,0.535769473623,-0.123956568156,-1.37473806425,0.0784576431983,1.90101689381,0.156850257483,-0.00984155395614,-0.0528725217175,-0.00153446798469,-0.0820848631625,-0.00975887908725,0.0338714380382,-0.0177283502795,0.574026241445,0.818822667291,0.00201508403257,0.0,0.818779047723,-0.573966073156,-0.0120235093252,0.0,-0.00868869939098,0.00855188310243,-0.999925683138,0.0,0.659487674733,0.258005608233,0.303306415309,1.0,-0.00952,-0.012512,0.477
0.463275656501,0.534819025947,-0.123959755468,-1.37626843386,0.0783696784699,1.90156514895,0.15665095574,-0.010411143788,-0.0511977754396,-0.000160269111086,-0.0849242686978,-0.00456870534029,0.032729847049,-0.00858583739003,0.574034760273,0.818816752401,0.00199170471044,0.0,0.818772718973,-0.573974584301,-0.0120481593079,0.0,-0.00872221472334,0.00854698027705,-0.999925433269,0.0,0.659312927568,0.257787722089,0.303297431955,1.0,-0.00986,-0.0129588571429,0.494
0.463168815671,0.534019429468,-0.123967705753,-1.37758402114,0.078302271894,1.90204352284,0.156486646094,-0.00550505692764,-0.05761459331,-0.000525931238711,-0.0892890480627,-0.000916441503993,0.0315433817426,-0.0146507629327,0.574051399457,0.818805150272,0.00196559665936,0.0,0.818760684845,-0.573991245306,-0.0120722063062,0.0,-0.00875671801838,0.00853958460505,-0.999925194894,0.0,0.659146960889,0.257576542082,0.303278193127,1.0,-0.01018,-0.0133794285714,0.51
0.463031196452,0.53304363078,-0.123966126541,-1.37916658802,0.0781988437126,1.90265093403,0.156294566,-0.00843932661168,-0.0518295518259,0.000244264103264,-0.0886278786149,-0.00236156553201,0.0387432433246,-0.00676858775403,0.574060501833,0.818798788949,0.00195712883807,0.0,0.818754268238,-0.574000437264,-0.0120703423152,0.0,-0.00875995751735,0.00853167861765,-0.999925234007,0.0,0.65897571502,0.257348218517,0.30326454969,1.0,-0.01052,-0.0138262857143,0.527
0.462919368309,0.532086746213,-0.123963668106,-1.38072255906,0.0781234672929,1.90322143335,0.156098880602,-0.00400134581808,-0.0602983286534,0.000759661016452,-0.0946660381923,-0.00112573500361,0.0325376778518,-0.0066811591012,0.574054826527,0.818802803165,0.00194231091729,0.0,0.818757868626,-0.573994613328,-0.0121030300261,0.0,-0.00879528824477,0.00853824953669,-0.999924867777,0.0,0.658784442015,0.257130339964,0.30324797692,1.0,-0.01086,-0.0142731428571,0.544
0.462798140812,0.531136106784,-0.123963348134,-1.38223299456,0.0780319998612,1.90376311759,0.155901548866,-0.00567224252133,-0.0620477106488,0.00135211142545,-0.0920744079751,-0.0065580358508,0.0354426397108,-0.0129093821291,0.574049850903,0.818806328211,0.00192677482092,0.0,0.818761140599,-0.573989658364,-0.0121166677578,0.0,-0.00881542513997,0.00853330396242,-0.999924732669,0.0,0.658601265735,0.256905834701,0.303245995257,1.0,-0.01118,-0.0146937142857,0.56
0.46264851871,0.530028877783,-0.123964034755,-1.38397280322,0.0779171734168,1.90437990743,0.155669239464,-0.00624158646014,-0.0555733250956,0.00110987631238,-0.0915954465948,-0.00288295465347,0.0390551648905,-0.00568957243257,0.574046075661,0.818809017842,0.00190846010536,0.0,0.818763616698,-0.57398598977,-0.0121231357538,0.0,-0.00883127354664,0.00852198027692,-0.999924689394,0.0,0.658392002496,0.256638235547,0.303251462777,1.0,-0.01154,-0.0151668571429,0.578
0.46251731552,0.529034902633,-0.123966855202,-1.38553056441,0.0778255939742,1.90497423647,0.155461024107,-0.0103754273522,-0.0586719683443,0.000182969628325,-0.092952251652,-0.00436197639292,0.0387111671717,-0.00742444012078,0.574044989852,0.818809719005,0.00193406040349,0.0,0.818764646794,-0.573984785286,-0.0121105872132,0.0,-0.00880631481644,0.00853572653623,-0.999924792268,0.0,0.658211841116,0.256403877498,0.303261701565,1.0,-0.01186,-0.0155874285714,0.594
0.462373519872,0.527996455329,-0.123969223915,-1.38714543884,0.0777222998194,1.90560057876,0.155229877351,-0.00881277938179,-0.0633645896687,-0.000304119185836,-0.0988785644689,-0.00956699872814,0.0374077990221,-0.0135740443834,0.57403490718,0.818816697965,0.00197164242501,0.0,0.818772200461,-0.573974620464,-0.0120816272604,0.0,-0.00876113410584,0.00854976639937,-0.999925069205,0.0,0.658029210899,0.256155605788,0.303278582108,1.0,-0.01218,-0.016008,0.61
0.462223473041,0.526744413579,-0.12397255679,-1.38902756363,0.0776026821537,1.90631884014,0.154975727781,-0.00871659370919,-0.0686700932612,-0.000834582257917,-0.110309250799,-0.0108435123286,0.0380157209073,-0.0181823301297,0.574021489401,0.818825930007,0.002042781131,0.0,0.81878244464,-0.573960979483,-0.0120353346915,0.0,-0.00868253462861,0.00858129928997,-0.999925484671,0.0,0.657810140048,0.255877380281,0.303326288625,1.0,-0.01254,-0.0164811428571,0.628
0.462070067056,0.525573023315,-0.123977267554,-1.39086134223,0.0774884936238,1.90698060719,0.154726777317,-0.00616422552035,-0.0669121990068,-0.00180698213153,-0.104686538534,-0.00607459100347,0.0371884395846,-0.0192245450102,0.574014488355,0.818830845469,0.00203974687364,0.0,0.818787318868,-0.573953990653,-0.0120370251883,0.0,-0.00868573388109,0.00857971091462,-0.999925470516,0.0,0.657589261587,0.255597918665,0.303335106361,1.0,-0.01288,-0.016928,0.645
0.461912820024,0.524453307873,-0.123981546522,-1.39261862001,0.0773773732291,1.90760825912,0.154482052673,-0.0139218066927,-0.0709918247871,-0.000749630282505,-0.112393808751,-0.00794904609736,0.0411152373591,-0.0141445353543,0.574010219936,0.81883386599,0.00202835348423,0.0,0.818790191834,-0.573949772618,-0.0120427226512,0.0,-0.00869698356836,0.0085736068846,-0.99992542509,0.0,0.657378326029,0.255322810637,0.30334071896,1.0,-0.0132,-0.0173485714286,0.661
0.461759611607,0.523248787866,-0.123987041171,-1.39452294754,0.0772480184459,1.90832414412,0.154230157977,-0.00570111583028,-0.0692769221434,-0.000210500313241,-0.109914743528,-0.00505611570198,0.0390924763609,-0.014659688425,0.574000565077,0.818840625594,0.00203176518557,0.0,0.818797133739,-0.5739402403,-0.012025025826,0.0,-0.00868063500045,0.00856614005433,-0.999925631145,0.0,0.657152325883,0.255036374752,0.303343351981,1.0,-0.01354,-0.0177954285714,0.678
0.461585789337,0.521945161501,-0.123990900418,-1.39660542227,0.0771323691823,1.90913350215,0.153936442197,-0.0119577568915,-0.0738992137768,-0.00758820453456,-0.116559955499,-0.0117919458289,0.0429821311388,-0.0151677413264,0.573985713032,0.818850965998,0.00206000502556,0.0,0.81880778294,-0.573925211204,-0.0120172144765,0.0,-0.00865818556023,0.00858462284838,-0.999925667274,0.0,0.656909107105,0.254726046266,0.303338614247,1.0,-0.0139,-0.0182685714286,0.696
0.461444379086,0.520833752186,-0.123991698333,-1.39838366748,0.077022389264,1.90979597017,0.153707719888,-0.00925354457457,-0.068654468293,-0.000123132132193,-0.119154370264,-0.00370651406302,0.040208135137,-0.00838146778631,0.573976178686,0.818857651512,0.00205906833151,0.0,0.818814501852,-0.573915727251,-0.0120123466797,0.0,-0.00865483692479,0.00858096106451,-0.999925727694,0.0,0.656681870395,0.254442789727,0.303335939426,1.0,-0.01422,-0.0186891428571,0.712
0.461254432537,0.519439931658,-0.123994915014,-1.40056019168,0.0768879543041,1.91057612178,0.153411574672,-0.0138726565425,-0.0770030592279,-2.81284779593e-05,-0.120819475469,-0.00651865712366,0.0423074711161,-0.0206435949979,0.573974718749,0.818858697025,0.00205023065008,0.0,0.818815344742,-0.57391421848,-0.0120269673243,0.0,-0.00867189723197,0.00858210073593,-0.999925570103,0.0,0.656427973064,0.254128043569,0.303340930318,1.0,-0.01456,-0.019136,0.729
0.461083460084,0.518096617386,-0.124000487721,-1.40266572707,0.0767450982318,1.91133182663,0.15313264422,-0.0115643346098,-0.0841031250673,0.00015877120954,-0.119906890933,-0.00362446196748,0.0468427955431,-0.0167919721659,0.573963159043,0.818866835997,0.00203564883961,0.0,0.818823384233,-0.573902811996,-0.0120239227186,0.0,-0.00867789403591,0.00856829050576,-0.999925636511,0.0,0.656168579935,0.253808575344,0.30334727013,1.0,-0.0149,-0.0195828571429,0.746
0.46090872169,0.516809636711,-0.123995991664,-1.40467116302,0.0766190513926,1.91206258757,0.152851320761,-0.0115462721057,-0.0741222195928,0.00138603795591,-0.123743843431,-0.0113705984332,0.0448045719647,-0.0171780016019,0.573944642529,0.818879790221,0.00204533167363,0.0,0.818836428833,-0.573884221102,-0.0120229150452,0.0,-0.00867170553284,0.00857544486507,-0.999925628869,0.0,0.655923448209,0.253504698995,0.303358860091,1.0,-0.01522,-0.0200034285714,0.762
0.460735348447,0.515439504986,-0.124009860764,-1.40685566742,0.0764856771132,1.9128918262,0.152554757488,-0.0100774551695,-0.0878518255547,2.70459222511e-05,-0.126523075243,-0.00564551460808,0.0462342192413,-0.0207820574439,0.573933075741,0.81888787933,0.00205245180953,0.0,0.81884466958,-0.573872683708,-0.012012364294,0.0,-0.00865910020881,0.00857509750715,-0.999925741086,0.0,0.655661182561,0.253176355039,0.303352319003,1.0,-0.01556,-0.0204502857143,0.779
0.460528950972,0.513967587812,-0.124010545731,-1.40923595688,0.076347961611,1.91372421086,0.152227255343,-0.0121167997494,-0.0852496740847,0.000672961115739,-0.136255630577,-0.0030097894029,0.0410562313859,-0.0168642128627,0.573922234129,0.818895626767,0.00199211819718,0.0,0.818851439696,-0.573861914749,-0.0120652148734,0.0,-0.00873711914938,0.00855590865694,-0.999925226792,0.0,0.655360418601,0.252811792263,0.303323386939,1.0,-0.01592,-0.0209234285714,0.797
0.460353389839,0.512717691561,-0.12401089794,-1.41123627018,0.0762253270727,1.91442424027,0.15194790899,-0.0161022239806,-0.0861854053203,-0.00187335708673,-0.13214864799,-0.00290013403552,0.0473822613042,-0.0130096327089,0.573909044528,0.81890497295,0.00194956092448,0.0,0.818860132804,-0.57384881754,-0.0120981161338,0.0,-0.00878862344229,0.00853980040608,-0.999924913134,0.0,0.655108208348,0.252503340705,0.303307777169,1.0,-0.01622,-0.0213177142857,0.812
0.46014592114,0.511201248956,-0.124017317607,-1.41367449563,0.0760706147946,1.91535103904,0.15160125524,-0.0147764821003,-0.0877749008825,-0.00101325779542,-0.137560938857,-0.00535913411517,0.0594459570833,-0.0232417235674,0.57388552554,0.818921462262,0.00194656690857,0.0,0.818876651141,-0.573825380856,-0.0120917079839,0.0,-0.00878533883076,0.0085334186771,-0.999924996481,0.0,0.654814355065,0.252132187523,0.303289890105,1.0,-0.01658,-0.0217908571429,0.83
0.459954848098,0.509811663184,-0.124022414524,-1.41587188331,0.0759274167868,1.91617563938,0.151293404945,-0.0183074014619,-0.0893456226146,-0.00138314554616,-0.139632157895,-0.0140213135789,0.0566512162493,-0.0174259399427,0.57386937902,0.818932760712,0.00195349844419,0.0,0.818888120327,-0.573809283992,-0.0120788614398,0.0,-0.00877100867073,0.00853154964153,-0.999925138232,0.0,0.654548201684,0.25179447571,0.303288386234,1.0,-0.0169,-0.0222114285714,0.846
0.459768399841,0.508403836787,-0.124028692997,-1.41810486127,0.0757915995947,1.91697357785,0.150983317146,-0.0109837977046,-0.0837576493934,-0.00113445262122,-0.138645384682,-0.00898756254962,0.0532896522461,-0.0197534146118,0.573851786359,0.818945144942,0.00192970713479,0.0,0.818900126865,-0.573791732914,-0.0120986098536,0.0,-0.00880101724614,0.00852321039267,-0.999924945673,0.0,0.654266541289,0.251454600798,0.303280011186,1.0,-0.01722,-0.022632,0.862
0.459543059058,0.506774524676,-0.124025402688,-1.42066040457,0.0756302715762,1.91790370953,0.150635357785,-0.00888868202229,-0.0887100934019,0.00114621197805,-0.140323107021,-0.0139727887876,0.0558689708988,-0.0169999040861,0.573837599764,0.818955082091,0.00193119511497,0.0,0.81891003961,-0.573777499088,-0.0121027050103,0.0,-0.00880366496972,0.00852662642582,-0.999924893242,0.0,0.653947959041,0.251064444491,0.303283640301,1.0,-0.01758,-0.0231051428571,0.88
0.45932363352,0.505169652921,-0.124032897136,-1.42312369445,0.0754768739569,1.91885108767,0.150288095926,-0.0124850078474,-0.0915594151581,0.00172594430783,-0.145130646842,-0.00826116236271,0.0559713392167,-0.0237555351765,0.573824101364,0.818964368671,0.00200260905262,0.0,0.818920333882,-0.573763764016,-0.0120572284682,0.0,-0.00872558398705,0.00855887034951,-0.999925302171,0.0,0.653653745362,0.250684940828,0.303315281892,1.0,-0.01792,-0.023552,0.897
0.459113066052,0.503595705861,-0.124044337195,-1.42546451862,0.0753246531736,1.91973785215,0.149970440943,-0.0137348198073,-0.0995814692623,-0.000580269714811,-0.144671070164,-0.0136825353766,0.0518096362006,-0.0254714922401,0.573823723756,0.818964394948,0.00209779977213,0.0,0.818921742114,-0.573763120258,-0.0119920400809,0.0,-0.00861757962119,0.00859941650404,-0.999925890933,0.0,0.653373605345,0.250319239831,0.303377794217,1.0,-0.01824,-0.0239725714286,0.913
0.4588786813,0.501908752755,-0.124048207641,-1.42796770668,0.0751703925553,1.92065248101,0.149610062788,-0.0146710169163,-0.096501859537,0.0005163004917,-0.144628348694,-0.00500443069584,0.0475563706404,-0.017901090865,0.573809661727,0.818974025362,0.0021828402065,0.0,0.818932460577,-0.573748687366,-0.0119505506611,0.0,-0.00853495320129,0.00864510657873,-0.99992620563,0.0,0.653066300509,0.249926315539,0.303443507527,1.0,-0.01858,-0.0244194285714,0.93
0.458639813686,0.500193637998,-0.124053918798,-1.43056882032,0.0749984489502,1.92156684846,0.149245520732,-0.0209508282359,-0.0977510606004,-0.00284926396718,-0.148193723351,-0.00901813707471,0.0558178815461,-0.0156536000238,0.573796567451,0.818983147968,0.00220214144517,0.0,0.818941858877,-0.573735540558,-0.0119376790105,0.0,-0.00851347503381,0.00865339165278,-0.999926317063,0.0,0.652737419991,0.249515474663,0.303481669802,1.0,-0.01892,-0.0248662857143,0.947
0.458405954984,0.498601942879,-0.124052393484,-1.4330338319,0.0748494276582,1.92249226448,0.148898789066,-0.0170787513178,-0.0846283874472,-0.0063638714409,-0.154732381828,-0.0116274432942,0.0645086937399,-0.021507713703,0.573788266671,0.818988839943,0.00224766112794,0.0,0.818948092487,-0.573727004327,-0.0119202860056,0.0,-0.00847320045719,0.0086806051672,-0.999926423277,0.0,0.65243512166,0.249131077627,0.303498716298,1.0,-0.01924,-0.0252868571429,0.963
0.458128961338,0.496832534026,-0.124047063571,-1.43585307649,0.0746738470868,1.92350183584,0.148475452842,-0.0164378068324,-0.0945310720994,0.000991418705664,-0.156708546031,-0.00856778631088,0.0519474386098,-0.028604013988,0.573759811767,0.819008866298,0.00221409733386,0.0,0.818967558725,-0.573698563562,-0.0119516870602,0.0,-0.00851847721658,0.00867083854677,-0.999926123324,0.0,0.652078787854,0.248682757041,0.303477686397,1.0,-0.0196,-0.02576,0.981
0.457898062543,0.495336190594,-0.124052440957,-1.43825642274,0.0745243131382,1.9243283209,0.148123915695,-0.0143639774621,-0.101998384752,0.00038996254513,-0.1615933487,-0.00242849742544,0.0546770360561,-0.0227334223741,0.573745428579,0.81901912548,0.00214527012934,0.0,0.818976801086,-0.573684345416,-0.0120007503453,0.0,-0.00859830170698,0.00864246851244,-0.999925685712,0.0,0.651767679341,0.248295910118,0.303448180054,1.0,-0.0199,-0.0261542857143,0.996
0.457616420504,0.493601555725,-0.12406409369,-1.44105951176,0.074347662964,1.92534972504,0.147729270241,-0.0176148575883,-0.110875309038,-0.00597269409853,-0.174637182094,-0.0106650000001,0.0718905729478,-0.0281152885022,0.573761429673,0.819008035832,0.00209903843634,0.0,0.818965119494,-0.573700549873,-0.0120232703188,0.0,-0.00864310190942,0.0086176939486,-0.999925513296,0.0,0.651396878281,0.247805655821,0.303411725777,1.0,-0.0235754285714,-0.0309848489796,1.014
0.457306305538,0.491315415424,-0.124116697317,-1.4446407213,0.0741273109104,1.9266857609,0.147222444302,-0.0208892176228,-0.135995612382,0.000446912095007,-0.212065647194,-0.0139095260438,0.0755134640223,-0.035948488289,0.57375114004,0.819015186085,0.0021215951596,0.0,0.81897272297,-0.573690325638,-0.0119931731438,0.0,-0.00860561800094,0.00861879126728,-0.999925827137,0.0,0.650975826774,0.247264884718,0.303414737342,1.0,-0.0282771428571,-0.037164244898,1.031
0.456918556353,0.488798379427,-0.124122821672,-1.4487147062,0.0739002171203,1.92813359094,0.146634759986,-0.0277314770321,-0.157115144806,-0.000622845628556,-0.250548718515,-0.0141724946011,0.0899784162392,-0.0356576779386,0.573733571592,0.819027697016,0.00204138442967,0.0,0.81898378598,-0.573672701855,-0.0120804117815,0.0,-0.00872327326915,0.00860296418027,-0.999924943939,0.0,0.650447487674,0.246620997567,0.303351780331,1.0,-0.0329788571429,-0.0433436408163,1.048
0.456498283011,0.486159891568,-0.124164105499,-1.45278805039,0.0736503021638,1.9296942366,0.146037255164,-0.0283768331856,-0.184534718295,-0.00479867426299,-0.278618688474,-0.0180839502661,0.109119939391,-0.0428289314458,0.573752741145,0.819014020614,0.00213844992693,0.0,0.818971554958,-0.573691633054,-0.0120103803027,0.0,-0.0086100247997,0.00864248467735,-0.999925584697,0.0,0.649959313639,0.245941112774,0.303382548834,1.0,-0.0371274285714,-0.0487960489796,1.063
0.455937943845,0.482626451909,-0.124222191413,-1.45827148279,0.0733152194077,1.93163564964,0.145181978555,-0.0357029055693,-0.207066859228,-0.00338908775094,-0.322246582618,-0.0163026647477,0.10694985635,-0.0555616067316,0.573731742431,0.819028762477,0.00212623224204,0.0,0.818986098296,-0.573670649095,-0.0120209843614,0.0,-0.00862594099093,0.00863834126622,-0.999925483325,0.0,0.649264185561,0.245017983067,0.303394909037,1.0,-0.0421057142857,-0.0553389387755,1.081
0.455329287545,0.478869104388,-0.124295984549,-1.46414821988,0.0729585140009,1.93371717132,0.144316461116,-0.035501343132,-0.232781320909,-0.00262954649201,-0.353932165332,-0.0220839159626,0.123089325838,-0.0525036361633,0.573764628671,0.819005826096,0.00208676978898,0.0,0.818962618741,-0.573703670165,-0.0120447019488,0.0,-0.00866766046221,0.00861997635344,-0.999925281043,0.0,0.64851708422,0.244017363672,0.303384987356,1.0,-0.0468074285714,-0.0615183346939,1.098
0.454653667469,0.474694878453,-0.124349982627,-1.47053324174,0.0725749488377,1.93606942825,0.143396983573,-0.0404337437457,-0.253560994058,-0.00387753803081,-0.383754463532,-0.0233260166787,0.150149212105,-0.0606971894512,0.57380915412,0.81897432023,0.00220552801047,0.0,0.818932641646,-0.573747671191,-0.0119868740981,0.0,-0.00855169015295,0.00868452417061,-0.999925721059,0.0,0.647716498472,0.242944915834,0.303440854577,1.0,-0.0515091428571,-0.0676977306122,1.115
0.453886204734,0.470165791624,-0.124382633813,-1.47749107745,0.0721581834264,1.93853862431,0.142351595638,-0.0506093172533,-0.276388384579,-0.00452906849439,-0.424866724315,-0.0209756973351,0.154309775198,-0.0690080763493,0.573825130725,0.818963004752,0.00225013248206,0.0,0.818921582619,-0.573763130157,-0.0120024536495,0.0,-0.0085386868452,0.00873015967039,-0.99992543479,0.0,0.646818143687,0.241766396266,0.303474629208,1.0,-0.0562108571429,-0.0738771265306,1.132
0.453026779566,0.464912703091,-0.124407679913,-1.48540271737,0.0716426510972,1.9414675124,0.141081622407,-0.0467332822881,-0.300055913389,-1.51804073979e-05,-0.461445111643,-0.0334191617391,0.16253173376,-0.0715896424441,0.573740935845,0.819021359746,0.0024693555878,0.0,0.818982949747,-0.573678232681,-0.0118726691389,0.0,-0.00830751401786,0.00883436651492,-0.999926466886,0.0,0.645809504349,0.240446194352,0.303588016932,1.0,-0.0611891428571,-0.0804200163265,1.15
0.452225361967,0.460264176651,-0.124424759145,-1.49262119102,0.0711810732477,1.94393105744,0.140013900373,-0.0480456786714,-0.309815342377,-0.00111946900285,-0.492467870612,-0.026251521006,0.16947068211,-0.0740431774326,0.573746064916,0.819018024989,0.00238214996901,0.0,0.818978112294,-0.573683317772,-0.0119603258279,0.0,-0.00842928503003,0.00881328824681,-0.999925633787,0.0,0.644836261639,0.239221452252,0.30356867436,1.0,-0.0653377142857,-0.0858724244898,1.165
0.451249411471,0.454687634415,-0.124478118319,-1.50126250379,0.0705958790345,1.94694669659,0.13868654805,-0.057401736407,-0.330176811914,-0.000893090492749,-0.512891834653,-0.033892407645,0.191011645112,-0.0844244963832,0.57373506268,0.819025917066,0.00231774169985,0.0,0.818985229422,-0.573672644888,-0.0119848820105,0.0,-0.00848646735923,0.00877451218583,-0.999925491128,0.0,0.643685493783,0.237726595864,0.303553551023,1.0,-0.0700394285714,-0.0920518204082,1.182
0.450189587416,0.448640278633,-0.124513708594,-1.51020122932,0.0699850094927,1.95034976168,0.137246900999,-0.0656610193747,-0.357841506087,-0.00265879888852,-0.532547801247,-0.0337564478635,0.19839341396,-0.0833573077078,0.573689537713,0.819056555503,0.00272398748141,0.0,0.819021740893,-0.573626210595,-0.0117091999706,0.0,-0.00802810094473,0.00894862277602,-0.999927733262,0.0,0.642553357922,0.236182748464,0.303744240501,1.0,-0.0747411428571,-0.0982312163265,1.199
0.449122176581,0.442747472054,-0.124546116548,-1.51928619434,0.0693865430174,1.95344499091,0.135873181717,-0.0664170615799,-0.367784758269,-0.000768475101002,-0.578368566986,-0.0383338507949,0.197416034886,-0.0942463546818,0.573704708204,0.819046207278,0.0026391339943,0.0,0.81900996004,-0.573641320129,-0.0117927137481,0.0,-0.00814501797726,0.00892718430297,-0.999926979365,0.0,0.641304070749,0.234601842072,0.303725088838,1.0,-0.0791662857143,-0.104047118367,1.215
0.447910919664,0.436160165876,-0.124574163148,-1.52951973171,0.0686903846623,1.95687779674,0.134221263302,-0.0730848392643,-0.401192323779,0.000405275305077,-0.602509679267,-0.0431725072041,0.215421570922,-0.0985568367077,0.573622636244,0.819104278236,0.00244938039633,0.0,0.819065169141,-0.573559560855,-0.0119342261359,0.0,-0.00837067130219,0.00885211485684,-0.999925783208,0.0,0.639868411447,0.232816344219,0.303654450736,1.0,-0.083868,-0.110226514286,1.232
0.446503335716,0.42876592342,-0.12459997188,-1.54063180607,0.0679020811863,1.960914358,0.132437902838,-0.0860368460736,-0.415383203316,-0.00203306201214,-0.635070914644,-0.0506888474419,0.225823941787,-0.096801898222,0.573596341604,0.819121955735,0.00268429376402,0.0,0.819086336985,-0.573532848268,-0.0117639884379,0.0,-0.00809676645629,0.00894662132739,-0.99992719752,0.0,0.63837889941,0.2308431629,0.30375580361,1.0,-0.0888462857143,-0.116769404082,1.25
0.445135279905,0.421941879945,-0.124683759467,-1.55114626723,0.0671541423539,1.96441291971,0.130667859547,-0.0867537265494,-0.429360155476,-0.00339626901245,-0.666484933933,-0.0446548980454,0.216276152382,-0.116546370127,0.573566519241,0.819143448544,0.00249110710597,0.0,0.819105294391,-0.573503725668,-0.0118633994892,0.0,-0.00828932635794,0.00884509806633,-0.999926522955,0.0,0.636900986943,0.228899734859,0.303697071139,1.0,-0.0932714285714,-0.122585306122,1.266
0.443603910881,0.414317225472,-0.124800111495,-1.56255982196,0.0663358210025,1.96846583897,0.128842220506,-0.0931665741874,-0.450132418124,-0.00578980992151,-0.673006313162,-0.0474563456963,0.256917065859,-0.103386940596,0.573659121298,0.819078051719,0.00266545415455,0.0,0.819042781805,-0.573596343052,-0.0117005859378,0.0,-0.00805495346105,0.00889544009802,-0.999927991843,0.0,0.635347323819,0.226768508017,0.303789156594,1.0,-0.0979731428571,-0.128764702041,1.283
0.441938575318,0.406430766737,-0.124841729183,-1.57457272611,0.0655315601892,1.97249746775,0.126825618422,-0.104157736643,-0.470573018969,-0.00160309867358,-0.718587514951,-0.0503005615541,0.231114281029,-0.115903126557,0.57366846887,0.819071732102,0.00259468629632,0.0,0.819034901188,-0.573605243916,-0.0118153158547,0.0,-0.00818942322835,0.00890338420764,-0.999926828871,0.0,0.633627782941,0.224537880736,0.303755529473,1.0,-0.102674857143,-0.134944097959,1.3
0.440250818051,0.398700352629,-0.124951186381,-1.58615040242,0.0647293554493,1.97646271216,0.12487000462,-0.108821111216,-0.496485722296,-0.00861968012761,-0.714428035198,-0.0558653860565,0.262865962295,-0.124859092698,0.573768601074,0.819001328609,0.00267638948676,0.0,0.818965568917,-0.573705071985,-0.0117743028794,0.0,-0.00810786758005,0.00894776840264,-0.999927097305,0.0,0.631999454083,0.222303460659,0.303803908413,1.0,-0.1071,-0.14076,1.316
0.438391627138,0.390240720123,-0.125013735311,-1.59882943974,0.0637591455149,1.98083435568,0.122688600625,-0.1057419006,-0.504058724746,-0.000607271423742,-0.776534957756,-0.0511622220733,0.255058261352,-0.135747325266,0.573769520661,0.819000451524,0.00274671883275,0.0,0.818966138823,-0.573706334887,-0.0116726891888,0.0,-0.00798428144383,0.00894707525652,-0.999928097962,0.0,0.630188232088,0.219879128353,0.30383669614,1.0,-0.111801714286,-0.146939395918,1.333
0.436304479965,0.380910891924,-0.125073793699,-1.61280745595,0.0627085973193,1.98539490329,0.120199151382,-0.110408767203,-0.532599778792,-0.00132591299694,-0.787726386304,-0.0585704349935,0.266855371328,-0.139709745427,0.573714900402,0.819039064838,0.00264011869124,0.0,0.819003242714,-0.573651959801,-0.0117415647207,0.0,-0.00810244692443,0.00889874773203,-0.999927578699,0.0,0.628110471607,0.217185182705,0.303831872052,1.0,-0.11678,-0.153482285714,1.351
0.434322602921,0.372416790337,-0.125126960895,-1.62551669713,0.0617724461246,1.98968406214,0.117913452899,-0.131881976528,-0.537570118808,-0.000534986072937,-0.780364796734,-0.0693651548727,0.268426118439,-0.145594999071,0.573708975806,0.819043054181,0.00268949423615,0.0,0.8190078033,-0.573645781519,-0.0117252881053,0.0,-0.00806085395431,0.00892979172239,-0.999927638109,0.0,0.626362470288,0.214862763004,0.303828431463,1.0,-0.120928571429,-0.158934693878,1.366
0.432072118727,0.363058562871,-0.125247893085,-1.63937252687,0.0606866053747,1.99421399757,0.115499297793,-0.131858680341,-0.562328317127,-0.00644664011841,-0.79199134952,-0.0690118966587,0.272757566347,-0.145716274179,0.57384893855,0.818945134595,0.00264747975479,0.0,0.818909714832,-0.573786291898,-0.011701157458,0.0,-0.00806367362866,0.00888291470171,-0.999928032907,0.0,0.624166693224,0.211900999875,0.30385684401,1.0,-0.125906857143,-0.165477583673,1.384
0.42973066468,0.353481694868,-0.125340599392,-1.65366468355,0.0596141392887,1.99883739511,0.112818748238,-0.13880245978,-0.573516481088,-0.00367293426041,-0.870777090157,-0.0668783351863,0.275554936841,-0.157928707022,0.573829755409,0.818958887463,0.00254938306266,0.0,0.818921866986,-0.573767111371,-0.0117908685744,0.0,-0.00819364220725,0.00885386723181,-0.999927233984,0.0,0.621977972864,0.209031295658,0.303808352399,1.0,-0.130608571429,-0.171656979592,1.401
0.427512751687,0.34472532328,-0.125417293444,-1.66643846411,0.0586656866248,2.00297859029,0.110406020045,-0.146216800255,-0.594999124259,-0.00934078295305,-0.820310355943,-0.0722798018584,0.283721403285,-0.166206432231,0.573885793096,0.818919302114,0.00264952993598,0.0,0.818883254582,-0.573822414353,-0.0117813009662,0.0,-0.00812773158447,0.0089309488942,-0.999927086407,0.0,0.620020874952,0.206408208647,0.303873974024,1.0,-0.134757142857,-0.177109387755,1.416
0.4247973631,0.334068714866,-0.125476035205,-1.68219451537,0.057405289681,2.00804857649,0.107427547971,-0.1514636931,-0.599560872149,-0.00134000561231,-0.884924629721,-0.068105127902,0.281529852526,-0.169183613076,0.573858856597,0.818938402225,0.00257933478662,0.0,0.818901406809,-0.573795702641,-0.0118205100319,0.0,-0.00820041626622,0.00889569652644,-0.9999268072,0.0,0.617545724527,0.203205015608,0.303830347552,1.0,-0.139735428571,-0.183652277551,1.434
0.422117446255,0.323600441957,-0.125469334617,-1.6972913716,0.0561446204674,2.01286283129,0.104455252138,-0.159145183559,-0.615174441133,0.000344999111926,-0.910291798407,-0.073045352261,0.286013870447,-0.174292858241,0.573711968105,0.819040968528,0.00268634068495,0.0,0.819005556546,-0.573648651702,-0.0117417906806,0.0,-0.00807614739026,0.0089367058475,-0.999927452934,0.0,0.615134482665,0.200134685627,0.303921594483,1.0,-0.144437142857,-0.189831673469,1.451
0.419443336154,0.313661461523,-0.125488338282,-1.71185345191,0.0549778881462,2.01739386296,0.101588778892,-0.167177769687,-0.619626751486,0.00208492212253,-0.921208481988,-0.0718191728945,0.274141709171,-0.189976343368,0.573662104931,0.819076191893,0.00259386607343,0.0,0.819039048846,-0.573598556376,-0.0118524044104,0.0,-0.00822034270115,0.00892392467737,-0.999926392058,0.0,0.612761921831,0.197118791769,0.303872074823,1.0,-0.148862285714,-0.19564757551,1.467
0.416270746879,0.302129750927,-0.125559401439,-1.72838313787,0.0535678741248,2.02263335955,0.0981378904724,-0.174765470284,-0.62493284112,-0.0042074675869,-0.933232559667,-0.0766171857433,0.284756149795,-0.190097968797,0.573542289796,0.819159654508,0.0027293120202,0.0,0.819124759666,-0.573478796301,-0.0117237022824,0.0,-0.00803853610586,0.00895985860957,-0.999927548811,0.0,0.61008641761,0.193599048454,0.303953001667,1.0,-0.153840571429,-0.202190465306,1.485
0.413050709871,0.290954924966,-0.125656758504,-1.74438085395,0.0522960347529,2.0274786605,0.0948937304459,-0.192984986998,-0.672621387096,-0.0123725449242,-0.934698471185,-0.0704311269052,0.297416968586,-0.196775604316,0.573659669712,0.819077384384,0.00275111580434,0.0,0.819042068015,-0.573595296483,-0.0118014225979,0.0,-0.0080884069949,0.0090234534968,-0.999926574784,0.0,0.607432230788,0.19010821911,0.303988061675,1.0,-0.158542285714,-0.208369861224,1.502
0.409940702094,0.280317573981,-0.125775625661,-1.759711795,0.0509946025206,2.032129155,0.0916316745189,-0.195792051055,-0.672367192603,-0.00557720074341,-0.969503283716,-0.0866431116806,0.287953528932,-0.213501569032,0.573636422771,0.819093921394,0.0026738189331,0.0,0.819057479745,-0.573572205966,-0.0118539578994,0.0,-0.00817603405005,0.00899004648799,-0.99992616304,0.0,0.604854552812,0.186742858243,0.303946406312,1.0,-0.162967428571,-0.214185763265,1.518
0.406406993168,0.268673389616,-0.125891457035,-1.77613053341,0.0495462444157,2.03709488773,0.0880455434931,-0.211398185472,-0.684498569045,-0.00517344759975,-0.969008931233,-0.0860415554888,0.299222465886,-0.215653522049,0.573649631323,0.819084340894,0.00277306439232,0.0,0.819049533449,-0.573585430081,-0.0117627827539,0.0,-0.0080442767042,0.00901916673377,-0.999926969455,0.0,0.602084956165,0.183042251753,0.304024450217,1.0,-0.167669142857,-0.220365159184,1.535
0.40262936059,0.256952521227,-0.126087185617,-1.79282255136,0.0480748513513,2.04200383398,0.0843757374982,-0.227957726763,-0.699840362804,-0.0120527533469,-0.978839178703,-0.082348772495,0.293485080917,-0.230419118848,0.573832536787,0.818956570305,0.0026650668532,0.0,0.818920378053,-0.573768726559,-0.0118156563037,0.0,-0.00814753421309,0.00896285814829,-0.999926639739,0.0,0.599230680914,0.179142939376,0.30398275142,1.0,-0.172370857143,-0.226544555102,1.552
0.39896460757,0.245672362838,-0.12619609496,-1.80868939478,0.0466156359186,2.04664485912,0.0808005395123,-0.231428722186,-0.69317423399,-0.00646292909419,-0.989037192827,-0.0854145806106,0.282229614791,-0.222611758006,0.573888857033,0.818917168768,0.00264525454962,0.0,0.818880971787,-0.573825390495,-0.0117950061359,0.0,-0.00814137555219,0.00893534323927,-0.999926936153,0.0,0.596466315262,0.175457412753,0.303990703609,1.0,-0.176796,-0.232360457143,1.568
0.394955912788,0.233370063823,-0.126259048217,-1.82570043699,0.0451445002451,2.05165257292,0.0768101023174,-0.233811442559,-0.721438925139,-0.00577805185052,-1.00530288491,-0.0850660890969,0.301363305222,-0.234092216825,0.573853244084,0.818941283686,0.00289396439835,0.0,0.818907896255,-0.573788417992,-0.0117241516095,0.0,-0.00794102140464,0.00909800789738,-0.999927080557,0.0,0.593460569257,0.171539087718,0.304090826104,1.0,-0.181497714286,-0.238539853061,1.585
0.390785324079,0.221018132747,-0.126300362117,-1.84304050925,0.0434817696356,2.05651825,0.0726838308109,-0.248593479566,-0.723181970827,-0.00375651051317,-1.01534399852,-0.100680146377,0.278122499351,-0.245382260573,0.573729490811,0.819028567578,0.00272465900743,0.0,0.818992933524,-0.573665234656,-0.011811870573,0.0,-0.00811137345603,0.00900846840365,-0.999926523859,0.0,0.5903006273,0.167505974046,0.304013837407,1.0,-0.186199428571,-0.24471924898,1.602
0.386623468027,0.209031976798,-0.126416481629,-1.85935887834,0.0419527724857,2.06114464426,0.0686771557678,-0.263042719783,-0.74311812969,-0.00630230996702,-1.0202743544,-0.0961740108448,0.290254518659,-0.244209946538,0.573755845949,0.819009410232,0.00292610531598,0.0,0.818976600352,-0.57369110583,-0.0116871753677,0.0,-0.00789337798265,0.00910217221881,-0.999927419889,0.0,0.587342620764,0.163571437067,0.30412768101,1.0,-0.190624571429,-0.25053515102,1.618
0.382031259464,0.196180212,-0.126545304187,-1.87694042973,0.0402805998772,2.06591964218,0.064210637361,-0.272608372649,-0.772974968681,-0.00619052572493,-1.03608390919,-0.101485341031,0.29101321278,-0.267308222768,0.573715506176,0.81903766182,0.00292803594163,0.0,0.81900463281,-0.573650483263,-0.0117167140545,0.0,-0.00791691327563,0.00912031113,-0.999927068545,0.0,0.58406965074,0.159291564435,0.304149679125,1.0,-0.195326285714,-0.256714546939,1.635
0.376837842746,0.182364060579,-0.126733033277,-1.89580219499,0.0385200003594,2.07091155525,0.059318152084,-0.295790640201,-0.764216618663,-0.0156576541056,-1.04509912942,-0.0971390502219,0.271759693618,-0.286689435164,0.573829323472,0.818958087595,0.00288187233522,0.0,0.818923612629,-0.573763481537,-0.0118461316138,0.0,-0.00804812713881,0.00915786731092,-0.999925677796,0.0,0.58051072878,0.154562484346,0.304128037559,1.0,-0.200304571429,-0.263257436735,1.653
0.372045910748,0.169846115321,-0.126851824762,-1.91260163514,0.0368356742901,2.07536377921,0.0548886177044,-0.30444583587,-0.792993545782,-0.00243053213187,-1.04471581022,-0.108468050333,0.264288671317,-0.287379018023,0.573894931358,0.818911796323,0.00297060701829,0.0,0.818878652332,-0.573828964085,-0.0117821743865,0.0,-0.00794409419184,0.00919447385463,-0.999926173784,0.0,0.577307521429,0.150312693269,0.304188912601,1.0,-0.204729714286,-0.269073338775,1.669
0.366826590692,0.156323392074,-0.126933749782,-1.93058068466,0.0350226406328,2.08004373983,0.0498891445928,-0.315669061005,-0.789380294036,-0.00380395930058,-1.05265440244,-0.103787080852,0.287172149817,-0.299199151908,0.573756792134,0.819008044961,0.00311651575255,0.0,0.818976814361,-0.573690358677,-0.0117088343476,0.0,-0.00780186469795,0.00927055586475,-0.999926591156,0.0,0.573807519469,0.145782035293,0.304270567539,1.0,-0.209431428571,-0.275252734694,1.686
0.361345944379,0.142783606916,-0.127022120677,-1.94880545064,0.0331068959563,2.0845310445,0.0448081122192,-0.33146610256,-0.823270852367,-0.0115077522498,-1.06387767952,-0.105645189048,0.263460088552,-0.306893819387,0.573702062223,0.819047181453,0.00289918208577,0.0,0.819012742484,-0.573635958218,-0.011860100758,0.0,-0.00805106201166,0.00917880805457,-0.999925462164,0.0,0.570164606668,0.141106345299,0.304179529017,1.0,-0.214133142857,-0.281432130612,1.703
0.355945696214,0.129721010913,-0.127155881017,-1.9658844104,0.0313546814618,2.08882854645,0.0397320660547,-0.343810545619,-0.815555924416,-0.0120313310743,-1.07022482097,-0.109781898824,0.256950166472,-0.313340807288,0.57363930067,0.819090379106,0.00310652279208,0.0,0.819058647696,-0.573572477377,-0.0117597504666,0.0,-0.00785063364298,0.00929045826092,-0.999926024732,0.0,0.566759142934,0.136610215233,0.304271482989,1.0,-0.218558285714,-0.287248032653,1.719
0.349871240188,0.115665269477,-0.127384258213,-1.98417914843,0.0293238513169,2.09330866398,0.0342936949293,-0.361181468739,-0.848607525118,-0.0139906077307,-1.07955052501,-0.118496096372,0.271845691575,-0.327749009955,0.573782765122,0.818989513768,0.00320338702288,0.0,0.818959910143,-0.573716641288,-0.0116029302047,0.0,-0.00766498929795,0.00928118561638,-0.999927551142,0.0,0.56307262969,0.131614640182,0.304340788478,1.0,-0.22326,-0.293427428571,1.736
0.342842585707,0.0997978347094,-0.127529037877,-2.00475988098,0.0270549759938,2.09808667559,0.0278468678163,-0.37353428432,-0.85337061833,-0.00590726869366,-1.06953414067,-0.122116683242,0.267312812751,-0.343759517942,0.573709442183,0.819040895716,0.00319906174766,0.0,0.819011215102,-0.573643316742,-0.0116069632175,0.0,-0.00767160486099,0.00927927049681,-0.999927518182,0.0,0.558794985472,0.126016036744,0.304357215764,1.0,-0.228514857143,-0.300333812245,1.755
0.336738416856,0.0863258236065,-0.12765323141,-2.02231847769,0.0252321654483,2.10197299854,0.0222209488346,-0.382600273,-0.835416727798,-0.0096854285594,-1.10478065388,-0.106786480979,0.238023632266,-0.347241383861,0.573646440038,0.819085466563,0.00308337445863,0.0,0.819052723284,-0.573578859959,-0.0118606403663,0.0,-0.00794647273561,0.0093294399906,-0.999924904741,0.0,0.555041782139,0.121252127727,0.304259306124,1.0,-0.23294,-0.306149714286,1.771
0.330310173737,0.0725200966782,-0.127799242692,-2.03967061725,0.0231837735039,2.1058632207,0.0163867026108,-0.407555123735,-0.843035651242,-0.00767088187351,-1.10258774425,-0.126217519785,0.246803853948,-0.36995780549,0.573568164964,0.819139555423,0.00327044065189,0.0,0.81911025878,-0.573501169624,-0.0116421347944,0.0,-0.00766107908012,0.00935658952231,-0.999926878377,0.0,0.551346396671,0.116348379562,0.304389138125,1.0,-0.237365142857,-0.311965616326,1.787
0.323065894958,0.057766789575,-0.128074042774,-2.05828490694,0.0210361953038,2.10970421807,0.00996577664552,-0.432240589031,-0.878479924425,-0.015936823369,-1.07743298794,-0.133131680466,0.236174625676,-0.389441040973,0.573719301032,0.819033892736,0.0032238291865,0.0,0.819003676712,-0.573652056846,-0.0117064985993,0.0,-0.00773881187043,0.00935675229723,-0.999926278271,0.0,0.547287228294,0.110898876555,0.304405137433,1.0,-0.23998,-0.315402285714,1.804
0.316137328979,0.0440598504555,-0.128217972044,-2.07572743609,0.0190618807521,2.11324806058,0.00386037428272,-0.432464442159,-0.86275138108,-0.00329167144254,-1.10128549906,-0.127937790795,0.210642712199,-0.385669433869,0.57379549549,0.818981044536,0.00308625131311,0.0,0.818947901156,-0.573727371069,-0.011915778565,0.0,-0.00798828372249,0.0093648794041,-0.999924240309,0.0,0.543397362242,0.105853728822,0.304290742478,1.0,-0.23998,-0.315402285714,1.82
0.308626125986,0.0293591717907,-0.128375092208,-2.09375387813,0.0168904921568,2.11682706724,-0.00280966539688,-0.450570959783,-0.876281421661,-0.00771545052168,-1.06754428722,-0.133237206027,0.206900606964,-0.389681789628,0.573777544013,0.818993054387,0.00323322660745,0.0,0.81896211733,-0.57370924171,-0.0118111496878,0.0,-0.00781846810316,0.0094250440294,-0.99992501724,0.0,0.539095467478,0.100193506908,0.304393093601,1.0,-0.23998,-0.315402285714,1.838
0.3008878433,0.0148328771023,-0.128563706259,-2.11146609723,0.0147125415022,2.12015457299,-0.00963993615373,-0.459827328828,-0.845615796732,-0.0165874046631,-1.02059761273,-0.133061535588,0.196581338263,-0.40509085321,0.573813432003,0.818967537301,0.0033264097085,0.0,0.818937996856,-0.5737450295,-0.0117450130112,0.0,-0.00771042179457,0.00946375173485,-0.999925490624,0.0,0.535281670253,0.0951121135021,0.304464653096,1.0,-0.23998,-0.315402285714,1.854
0.29337306129,0.00134368448031,-0.128738125807,-2.12801962723,0.0126991922546,2.12304817595,-0.0161691334337,-0.46964927204,-0.858634255474,-0.00497556420232,-1.03960258009,-0.132272538282,0.179849816395,-0.419160228195,0.573932100772,0.818884867355,0.00320384478599,0.0,0.818852772774,-0.573862952377,-0.0119245675324,0.0,-0.00792643268256,0.0094675515609,-0.99992376566,0.0,0.5313970488,0.0899922307868,0.304404330744,1.0,-0.23998,-0.315402285714,1.87
0.285385218523,-0.0129506574242,-0.128809585862,-2.14507934306,0.0105588823632,2.12615651253,-0.0232507529046,-0.471693675328,-0.804085754119,-0.00222482683395,-0.998800995697,-0.126146850751,0.182831326707,-0.412478761576,0.573817755685,0.818964008533,0.00344715690973,0.0,0.818935639825,-0.573748454541,-0.0117420456763,0.0,-0.00763865891374,0.009560978025,-0.999925116491,0.0,0.527373128493,0.0847241089258,0.304502716064,1.0,-0.23998,-0.315402285714,1.887
0.276669735524,-0.0279737897326,-0.128963695002,-2.16287881487,0.00823283883181,2.12898137994,-0.0309144439516,-0.491399306198,-0.85497725477,-0.00543182340528,-0.966541567543,-0.1215160777,0.167618148899,-0.422834367749,0.573775351447,0.818993697632,0.00345198662672,0.0,0.818965420772,-0.573706076579,-0.0117355945018,0.0,-0.00763109915324,0.00956083661571,-0.999925175565,0.0,0.523053109066,0.079052514443,0.304558739445,1.0,-0.23998,-0.315402285714,1.905
0.268639357706,-0.0411514227612,-0.129157426264,-2.17857631221,0.00619646540401,2.13142149996,-0.037840219452,-0.506081960862,-0.840064584179,-0.00818142574406,-0.972084335543,-0.123004373132,0.143940824181,-0.435552638684,0.573909401821,0.818900038759,0.00338702279573,0.0,0.818870439328,-0.573839734999,-0.011828314819,0.0,-0.00774274827209,0.0095620980271,-0.9999243052,0.0,0.519193540941,0.073923373313,0.304508245256,1.0,-0.23998,-0.315402285714,1.921
0.260080025847,-0.0551633515746,-0.12926675541,-2.1947439933,0.00408449525782,2.1338974359,-0.045347017877,-0.504069786758,-0.837829403418,-0.00462980290396,-0.941617770425,-0.136748064156,0.144171741554,-0.442888954912,0.573868957481,0.818927324244,0.00363375118868,0.0,0.818901356098,-0.573799011974,-0.0116623213359,0.0,-0.00746569450197,0.00966851411181,-0.999925388837,0.0,0.515169182403,0.068622815324,0.304623358342,1.0,-0.23998,-0.315402285714,1.938
0.251318020274,-0.0688433179464,-0.129419023262,-2.21084558524,0.00192633956617,2.13601366744,-0.0530787470015,-0.522815083571,-0.825625892432,-0.0155473720503,-0.926553272243,-0.111965215477,0.121620362381,-0.457747106508,0.573797148003,0.818978593992,0.00341210014837,0.0,0.818948623344,-0.573726546688,-0.0119058325411,0.0,-0.00779315960218,0.00962605280723,-0.999923299944,0.0,0.511031224609,0.0632700918096,0.3045060204,1.0,-0.23998,-0.315402285714,1.955
0.242761412487,-0.0818090267101,-0.129646927328,-2.22559976836,-8.29644217071e-05,2.13796719717,-0.0604802701432,-0.543930703422,-0.777703256017,-0.00899283537134,-0.931217488369,-0.11635177578,0.111692504667,-0.465478924307,0.573936822625,0.818880164954,0.00354203081056,0.0,0.81885205326,-0.573865953054,-0.0118291884214,0.0,-0.0076541842457,0.00968979257727,-0.999923757785,0.0,0.507230323036,0.0581328631375,0.3045658051,1.0,-0.23998,-0.315402285714,1.971
0.233147155352,-0.0962350592163,-0.129740066902,-2.24197418298,-0.00230062386645,2.13990222608,-0.0689470657045,-0.534183040805,-0.806315180065,-0.00930592268975,-0.909272996417,-0.134345617882,0.112095647842,-0.477861343976,0.573828445859,0.818955999038,0.0035683700285,0.0,0.81892764084,-0.573756753456,-0.0118934365864,0.0,-0.00769297295249,0.0097472167455,-0.999922901994,0.0,0.502889337213,0.0525453214048,0.30456905095,1.0,-0.23998,-0.315402285714,1.989
0.224362675797,-0.10891384083,-0.12988335531,-2.25629775595,-0.00433291554117,2.14143911156,-0.0765804333376,-0.552017606012,-0.79223510412,-0.0151792637023,-0.88651516699,-0.125322747963,0.0928372038839,-0.480898394483,0.573839168759,0.818948828848,0.00348869994204,0.0,0.818919003454,-0.573767224025,-0.0119827091636,0.0,-0.00781167435367,0.00973329794194,-0.999922117295,0.0,0.499022647908,0.0475101082991,0.304533635369,1.0,-0.23998,-0.315402285714,2.005
0.215307261504,-0.121605614131,-0.130092634197,-2.27029189838,-0.00636944250771,2.1428673663,-0.0844210262841,-0.567862371592,-0.79972971947,-0.00832772391736,-0.86772476065,-0.120126334085,0.0926609558504,-0.495516623571,0.573934342897,0.818881772001,0.00357217438016,0.0,0.818853406775,-0.573862549873,-0.0119003767767,0.0,-0.00769521268071,0.00975530990631,-0.999922805836,0.0,0.495204786602,0.042397336551,0.304593055353,1.0,-0.23998,-0.315402285714,2.021
0.20507871098,-0.135653447338,-0.130229142614,-2.2858998887,-0.00857287834304,2.14422684498,-0.0934783554358,-0.577218149186,-0.76037503542,-0.00993683816779,-0.851205064054,-0.124273810831,0.0792885704687,-0.511288691861,0.573816070972,0.818965043253,0.00348159805602,0.0,0.81893430416,-0.573743136537,-0.0120898985893,0.0,-0.00790381350519,0.00978876665244,-0.999920851758,0.0,0.490824820067,0.0367830740466,0.304527007219,1.0,-0.23998,-0.315402285714,2.039
0.195110412044,-0.148880510204,-0.130428948818,-2.30008225138,-0.0106721876889,2.14550583275,-0.102181346271,-0.592066990916,-0.752997684843,-0.0127744783212,-0.838670088891,-0.121307214876,0.0736589550068,-0.517957584687,0.573866907578,0.818928376927,0.00371924083269,0.0,0.818901711178,-0.573794331338,-0.011865903071,0.0,-0.0075833914398,0.00985533152881,-0.999922679318,0.0,0.486829264412,0.0314014090441,0.304639195067,1.0,-0.23998,-0.315402285714,2.056
0.18558537248,-0.161165760287,-0.130569664962,-2.31343640333,-0.0126754826746,2.14631512577,-0.11053436124,-0.589321645646,-0.748152118133,-0.00532403646457,-0.809296746749,-0.118362878922,0.0434076695489,-0.512219039768,0.573827192435,0.81895693362,0.00355541832678,0.0,0.818927157911,-0.573753973486,-0.0120596370569,0.0,-0.00783653886998,0.00983196559552,-0.999920957432,0.0,0.48292244372,0.0263674888829,0.30457872649,1.0,-0.23998,-0.315402285714,2.072
0.174122611541,-0.175656182975,-0.130738735358,-2.32876573096,-0.0149067528298,2.14730815967,-0.120696216962,-0.612504349536,-0.75916962261,-0.00721183720096,-0.819360822201,-0.126714408919,0.0472617193747,-0.536149735498,0.573757188542,0.819005145731,0.0037425609982,0.0,0.818977707996,-0.573683149332,-0.0119960359722,0.0,-0.00767791883331,0.00994807743271,-0.999921039542,0.0,0.478403031949,0.0204518138997,0.304639729191,1.0,-0.23998,-0.315402285714,2.091
0.16345455999,-0.188470026566,-0.130992885862,-2.34227227985,-0.017020993855,2.14792122941,-0.129984058651,-0.631893872876,-0.747829882737,-0.0114546059247,-0.786381999757,-0.124486968115,0.0437661078303,-0.551910915482,0.573882225065,0.818917715457,0.00370323721106,0.0,0.818889497756,-0.573807968549,-0.0120479291052,0.0,-0.00774146460488,0.00994682592938,-0.999920562035,0.0,0.474313832418,0.0150006378967,0.304635556155,1.0,-0.23998,-0.315402285714,2.108
0.153451069614,-0.200469723401,-0.131118978487,-2.3546715428,-0.0189020897604,2.14851062855,-0.138952005176,-0.631802907557,-0.725127275204,-0.0141947555344,-0.788252483372,-0.113894256395,0.0288314310997,-0.561474258044,0.573729728245,0.819023735384,0.00388158569169,0.0,0.818998262076,-0.573655392168,-0.0119199267649,0.0,-0.00753615547667,0.0100180211571,-0.999921419719,0.0,0.470515588598,0.0100445203742,0.304699262672,1.0,-0.23998,-0.315402285714,2.124
0.142414887853,-0.213027042691,-0.131360480415,-2.36771146896,-0.0208973051124,2.14880146484,-0.148612657946,-0.656302949457,-0.728914729439,-0.0174318266803,-0.761947298248,-0.11646534825,0.035191514966,-0.576946319942,0.57386417576,0.818929740813,0.00383852744505,0.0,0.818902493857,-0.573788378576,-0.0120974818755,0.0,-0.00770463359603,0.0100858853473,-0.999919453525,0.0,0.466394875711,0.00463200513374,0.304657723946,1.0,-0.23998,-0.315402285714,2.141
0.131290206119,-0.22552586039,-0.131504885418,-2.38033519874,-0.0229635571066,2.14910413757,-0.158449928182,-0.649827067498,-0.727729367382,-0.00433961724899,-0.750200248466,-0.122973034005,0.0124233038745,-0.579184391533,0.573806449747,0.818969666239,0.00394853267835,0.0,0.818944872412,-0.57373160802,-0.0119199333173,0.0,-0.00749681014446,0.0100735591558,-0.999921157514,0.0,0.462359217338,-0.000689543199853,0.304728979327,1.0,-0.23998,-0.315402285714,2.158
0.120691793386,-0.237118207598,-0.131683536671,-2.39211645842,-0.0248347543174,2.14915635231,-0.16796018448,-0.670652952088,-0.726522045002,-0.00993595657728,-0.717736265336,-0.118776938997,0.00134092259019,-0.59392967664,0.573704073141,0.819041533678,0.00391784024735,0.0,0.819015618782,-0.57362839444,-0.0120261458307,0.0,-0.00760267488973,0.0101084158201,-0.999920006433,0.0,0.458485397768,-0.00567750922954,0.304696921427,1.0,-0.23998,-0.315402285714,2.174
0.10964354914,-0.248675103885,-0.131941055357,-2.40340534461,-0.0266383502136,2.14923340558,-0.177670535379,-0.686900334375,-0.720682151455,-0.00922142604215,-0.699193757922,-0.108506517861,-0.00618462834154,-0.604625883794,0.573895364837,0.818906007606,0.00421993205792,0.0,0.818885040345,-0.573819991807,-0.0117751689496,0.0,-0.00722141424908,0.0102135507563,-0.999921764218,0.0,0.454730923612,-0.01081561111,0.304829182628,1.0,-0.23998,-0.315402285714,2.19
0.0980308574201,-0.260663534022,-0.132098664472,-2.41544979029,-0.0285548134366,2.14910406214,-0.188183372984,-0.688722581225,-0.697746644624,-0.0146153770765,-0.696974987523,-0.110449208387,-0.0175107680494,-0.630101421251,0.573726465383,0.819024542108,0.00418201443184,0.0,0.819002123068,-0.573649902072,-0.011918857473,0.0,-0.00736296637492,0.0102634402708,-0.999920221078,0.0,0.45061296139,-0.0160675049825,0.304753609847,1.0,-0.23998,-0.315402285714,2.207
0.0866546463831,-0.271901145908,-0.13237038975,-2.42625602716,-0.0304288392253,2.14896416626,-0.198280761141,-0.714049753906,-0.698405927603,-0.0213222028885,-0.670406547478,-0.121802170906,-0.0166241120491,-0.642965999434,0.573831218177,0.818950140498,0.00437576559369,0.0,0.81893168447,-0.5737560608,-0.0116458476146,0.0,-0.00702688179944,0.0102664016719,-0.99992260897,0.0,0.446853143043,-0.0211936425196,0.304855761362,1.0,-0.23998,-0.315402285714,2.223
0.0738660785028,-0.284271017619,-0.132505238294,-2.43837716482,-0.0324273050043,2.14853464843,-0.209865781211,-0.71921717562,-0.686463912715,-0.018633983876,-0.668881012131,-0.101115040067,-0.0319130385496,-0.663884071794,0.573656751559,0.819072603488,0.00432995470374,0.0,0.819052837889,-0.573580730163,-0.0117618720055,0.0,-0.00715038621201,0.0102939371652,-0.999921450332,0.0,0.442508754331,-0.0267612277862,0.30479810575,1.0,-0.23998,-0.315402285714,2.241
0.0621273144425,-0.295160593732,-0.132792428665,-2.44872251224,-0.0341281115277,2.14806476312,-0.220396863326,-0.754864438465,-0.684808861813,-0.019646388191,-0.635636346408,-0.113454978751,-0.02604527607,-0.667002693146,0.573779499808,0.818985626723,0.00451394746929,0.0,0.818968357821,-0.573703027964,-0.0116795331442,0.0,-0.00697583874721,0.0103984570342,-0.999921601809,0.0,0.438471019649,-0.0321760866696,0.30485472216,1.0,-0.23998,-0.315402285714,2.258
0.0495297922796,-0.306561004899,-0.132950903586,-2.45953345205,-0.0360353549399,2.1474932747,-0.231749040963,-0.742223351867,-0.661844435541,-0.010141280963,-0.644537653324,-0.107122960798,-0.0411803731528,-0.670414057808,0.573701093966,0.819040573392,0.0045100799185,0.0,0.819023624079,-0.573625198452,-0.0116267709286,0.0,-0.00693583517607,0.0103643527467,-0.999922234168,0.0,0.43488821093,-0.0368651690692,0.304851012109,1.0,-0.23998,-0.315402285714,2.273
0.0366577702544,-0.317777544096,-0.133242306564,-2.47014979395,-0.0379049662029,2.14669514911,-0.243355749195,-0.769621489049,-0.653318697931,-0.0223003987053,-0.618875762933,-0.103696967602,-0.0390836571996,-0.690837708491,0.573768061655,0.81899389355,0.00446773469815,0.0,0.81897555462,-0.573691043419,-0.011763270632,0.0,-0.00707108357534,0.0104085548885,-0.999920827747,0.0,0.430522925443,-0.0425652763677,0.30480962914,1.0,-0.23998,-0.315402285714,2.291
0.0236338615254,-0.328841410718,-0.133412364744,-2.48021241714,-0.039642561184,2.14597757031,-0.255248859667,-0.765620874577,-0.637625790423,-0.00933346109134,-0.593415684955,-0.104391924463,-0.0499158045546,-0.711333874136,0.57368784015,0.819048734643,0.00470948459616,0.0,0.819034767686,-0.573611969122,-0.0114936983565,0.0,-0.00671261160107,0.0104512278261,-0.999922853365,0.0,0.426544327983,-0.0478817927236,0.304920090146,1.0,-0.23998,-0.315402285714,2.308
0.0111369192522,-0.339019787571,-0.133669306639,-2.48967940904,-0.0412917190302,2.14501831774,-0.266607712272,-0.793149677704,-0.632907070048,-0.0208835817828,-0.584180438044,-0.107204523932,-0.0548097963752,-0.712741797696,0.573731336506,0.819018479727,0.00467228820516,0.0,0.81900286545,-0.573653771807,-0.0116791856455,0.0,-0.00688532568383,0.0105275349056,-0.999920878519,0.0,0.422661081217,-0.0529276515761,0.304864655428,1.0,-0.23998,-0.315402285714,2.324
-0.00314316005762,-0.350330011589,-0.133865632507,-2.49991845135,-0.0431668162338,2.14388755004,-0.279629826546,-0.790959825116,-0.637149840934,-0.0104308060551,-0.550064631554,-0.0915034433727,-0.0628796845709,-0.720423119852,0.573683165901,0.819052154966,0.00468396304154,0.0,0.819036809562,-0.573605752403,-0.0116572849954,0.0,-0.00686130835333,0.0105241289297,-0.999921079465,0.0,0.418346390057,-0.0585759319971,0.304887213408,1.0,-0.23998,-0.315402285714,2.342
-0.0168967328136,-0.360807602863,-0.134172510895,-2.50923044141,-0.044932039624,2.14283604867,-0.292223739821,-0.834750312104,-0.606000634392,-0.0277692500326,-0.551794312596,-0.101201396732,-0.0701419647095,-0.742107563749,0.573712510145,0.819030979641,0.00479134549767,0.0,0.81901786342,-0.573636075532,-0.0114951793492,0.0,-0.0066665477274,0.0105193282811,-0.99992244743,0.0,0.414304837395,-0.0639837750911,0.304947268902,1.0,-0.23998,-0.315402285714,2.359
-0.0291208811798,-0.369845244149,-0.134300966366,-2.51739382148,-0.0463764646873,2.14170966627,-0.303529250972,-0.823323671404,-0.603322536777,-0.00313489053321,-0.53744009662,-0.0992980123706,-0.078225198672,-0.765297938196,0.573585969889,0.819119897088,0.00474091149432,0.0,0.819104989773,-0.573507931156,-0.0116797059319,0.0,-0.00684826102834,0.0105828234682,-0.999920549428,0.0,0.410418223095,-0.0689505343634,0.304891000115,1.0,-0.23998,-0.315402285714,2.375
-0.0432847267152,-0.379847438339,-0.134619617974,-2.52615319347,-0.0480425382028,2.1404323669,-0.316471019281,-0.854166997069,-0.581056070071,-0.0179674084505,-0.499573455223,-0.100468648318,-0.0682372033133,-0.767180121952,0.573720330496,0.81902535965,0.00481555052791,0.0,0.819011636115,-0.573642373498,-0.011623860661,0.0,-0.00675796293559,0.0106130414307,-0.999920843511,0.0,0.406365374277,-0.0743582785426,0.304932598841,1.0,-0.23998,-0.315402285714,2.392
-0.0584613751718,-0.390187456032,-0.134845025191,-2.53516164268,-0.0497594225364,2.13911669737,-0.330545714775,-0.845010208305,-0.569716959054,-0.0173262774869,-0.496808030005,-0.0898433241001,-0.0755368490687,-0.795786299621,0.573648770641,0.819075145384,0.00487247955842,0.0,0.819062541184,-0.573571258236,-0.0115460926859,0.0,-0.00666253158864,0.0106144717254,-0.999921468748,0.0,0.402315777083,-0.0796956625165,0.304948793069,1.0,-0.23998,-0.315402285714,2.409
-0.0713663951987,-0.398575750072,-0.13511944244,-2.54250581005,-0.0512403511638,2.13782179068,-0.342481525304,-0.860654851457,-0.552090757482,-0.0218204968929,-0.477500541284,-0.106944846037,-0.0891092622706,-0.798462671529,0.573669158951,0.819061505264,0.00476377625098,0.0,0.819046666917,-0.573590681474,-0.0117061709995,0.0,-0.00685574836794,0.0106174287505,-0.999920131271,0.0,0.398421177337,-0.0847821526147,0.304894081353,1.0,-0.23998,-0.315402285714,2.425
-0.0868628560453,-0.408399983291,-0.13531873931,-2.55094574914,-0.052755696123,2.13630726607,-0.356993651903,-0.860583557827,-0.53679232677,-0.013526041859,-0.446803102594,-0.0820081427112,-0.0766869541412,-0.801498666728,0.573575091135,0.819126745139,0.00487207645295,0.0,0.81911269453,-0.573495313245,-0.0117586668712,0.0,-0.0068378571598,0.0107354647846,-0.999918993472,0.0,0.394366423846,-0.0900448820982,0.304899610051,1.0,-0.23998,-0.315402285714,2.442
-0.101986739583,-0.417410107105,-0.135627629272,-2.55847487676,-0.0543010135504,2.13496589222,-0.370963488698,-0.883740170447,-0.518298239914,-0.00901361467803,-0.440675841469,-0.094798562267,-0.0792828552589,-0.82183088193,0.573720743673,0.819024037966,0.00498802716012,0.0,0.819012652386,-0.573642431367,-0.011549158784,0.0,-0.00659782166306,0.0107114555497,-0.999920863603,0.0,0.390337450813,-0.0955012004779,0.304965689805,1.0,-0.23998,-0.315402285714,2.459
-0.116174248129,-0.425628560057,-0.135810641026,-2.5655249108,-0.055676160944,2.13342275807,-0.384363742678,-0.890921170932,-0.508777274598,-0.0153248769949,-0.435623714742,-0.0792031636818,-0.0969973864924,-0.835245216676,0.573563443623,0.819134758276,0.00489600099263,0.0,0.819120623218,-0.573482966925,-0.011808393908,0.0,-0.0068650248871,0.0107834860734,-0.999918290592,0.0,0.386445287621,-0.100466756384,0.304895886217,1.0,-0.23998,-0.315402285714,2.475
-0.131525999682,-0.43410031189,-0.136081465352,-2.57267162185,-0.0571460501839,2.13193032447,-0.398723897081,-0.903786211994,-0.484751701351,-0.0115437303918,-0.406463338556,-0.0815066001713,-0.0806941668064,-0.850938591012,0.573567740518,0.819131854545,0.00487840212813,0.0,0.819117143498,-0.573486779956,-0.0118644571541,0.0,-0.00692098891447,0.0108012606561,-0.999917712955,0.0,0.382109274525,-0.106133839817,0.304862616765,1.0,-0.23998,-0.315402285714,2.493
-0.148103611164,-0.442752709253,-0.136397845136,-2.5796680684,-0.0585540901875,2.13033755556,-0.41428014623,-0.928260762341,-0.473959026117,-0.0244772244936,-0.374591477122,-0.0828591328412,-0.0860464254702,-0.868566768098,0.573693561482,0.819042725641,0.005045591098,0.0,0.819030644104,-0.573612736767,-0.0117464522212,0.0,-0.00672676043652,0.0108715670478,-0.999918276523,0.0,0.378075136694,-0.111549914229,0.304936568646,1.0,-0.23998,-0.315402285714,2.51
-0.161972255322,-0.449756092852,-0.136557342098,-2.58533375755,-0.059688778584,2.12901734747,-0.427375253397,-0.922355614152,-0.458445103031,-0.0102759229152,-0.378661771794,-0.0691925451741,-0.0848337057402,-0.878878391864,0.573660036616,0.819065681626,0.00513015324104,0.0,0.819055048047,-0.573579514574,-0.0116668603563,0.0,-0.00661350145485,0.0108948992091,-0.999918778086,0.0,0.374267825664,-0.116548257688,0.304971543746,1.0,-0.23998,-0.315402285714,2.526
-0.178884735369,-0.457779004508,-0.13687565662,-2.59197718569,-0.0611347866726,2.12725263196,-0.443391215822,-0.941606227709,-0.432925711005,-0.0144984622305,-0.354253349609,-0.0806629269714,-0.0880423753388,-0.897487742783,0.573660543929,0.819065813909,0.00505170534523,0.0,0.819052689973,-0.573577900065,-0.0119092613631,0.0,-0.00685705432726,0.0109696974039,-0.999916319771,0.0,0.370113759499,-0.121922794404,0.304911303671,1.0,-0.23998,-0.315402285714,2.543
-0.195922813197,-0.465405584102,-0.13709802875,-2.59818255588,-0.0624173525182,2.12573024846,-0.459683502303,-0.955139241056,-0.421913131169,-0.0180849564084,-0.342275768708,-0.0675113846252,-0.0900154011516,-0.908952564923,0.573552730766,0.819140917869,0.00511552577255,0.0,0.819128493146,-0.573469665586,-0.0119080338447,0.0,-0.00682089024278,0.0110203704237,-0.999916009919,0.0,0.365817562373,-0.127555371927,0.304895039014,1.0,-0.23998,-0.315402285714,2.561
-0.210403190142,-0.471521977862,-0.137307227915,-2.60299247277,-0.0635083532876,2.12443596326,-0.473340952834,-0.953009130078,-0.406697297934,-0.00260168286351,-0.316032472123,-0.0769743422181,-0.0884266013953,-0.906920907038,0.573649983503,0.819072539745,0.0051592599762,0.0,0.819061320866,-0.573567783963,-0.0118024049301,0.0,-0.00670796961897,0.0109964113992,-0.999917037599,0.0,0.362238757056,-0.132323514559,0.304937476891,1.0,-0.23998,-0.315402285714,2.576
-0.227845499459,-0.478524515205,-0.13761508599,-2.60838620674,-0.064709403169,2.1229006383,-0.490029688787,-0.981887325702,-0.383786846198,-0.0179696539233,-0.301370385244,-0.0759705494279,-0.0847941089828,-0.939803837896,0.573698717368,0.819037525183,0.00529725720787,0.0,0.819028860174,-0.57361732243,-0.0116464806841,0.0,-0.00650043137421,0.01102038974,-0.999918144351,0.0,0.35820921483,-0.137704565811,0.305014844783,1.0,-0.239678285714,-0.315005746939,2.593
-0.244299649453,-0.484635596589,-0.137716411821,-2.61336479965,-0.0656879668062,2.12145164351,-0.505870813001,-0.959983615625,-0.348730379855,-0.00524551615536,-0.287059830778,-0.0632633082382,-0.0871148141191,-0.927324892809,0.573561179274,0.819133697326,0.00532037929039,0.0,0.819123939013,-0.57347738217,-0.0118495390593,0.0,-0.00665536769006,0.0111547004006,-0.999915635811,0.0,0.353915028565,-0.143238063767,0.304945723594,1.0,-0.2347,-0.308462857143,2.611
-0.259020198988,-0.489655630378,-0.137856924766,-2.61739554277,-0.0665496201305,2.12019683053,-0.519814796434,-0.974109150046,-0.322843455121,-0.00369164690419,-0.258461527862,-0.0544393021041,-0.0826898837986,-0.924788195224,0.573704863004,0.819033022132,0.00532782541263,0.0,0.819022237716,-0.573619139179,-0.0120168296854,0.0,-0.00678616836154,0.0112579378702,-0.999913599644,0.0,0.350348686459,-0.147899996948,0.304898364485,1.0,-0.230551428571,-0.30301044898,2.626
-0.275406106339,-0.494934415683,-0.137900168678,-2.62148703164,-0.0673770688378,2.11900230078,-0.535566307736,-0.977514318344,-0.299289633472,-0.00786918201008,-0.232192306955,-0.0531327971711,-0.0742091238577,-0.925679461836,0.573688752095,0.819043571054,0.00543979199511,0.0,0.819034672926,-0.573603326378,-0.0119237332295,0.0,-0.00664590221558,0.0112961073793,-0.999914111282,0.0,0.346256381831,-0.153330430274,0.304919512678,1.0,-0.225573142857,-0.296467559184,2.644
-0.292562067183,-0.500087091597,-0.137872689221,-2.62543466844,-0.0681558761512,2.11766919909,-0.551962503015,-0.939416181452,-0.283456580336,0.00173395618008,-0.209021773166,-0.0399233829044,-0.0774644891192,-0.908317081564,0.573715716599,0.819024228577,0.00550785180071,0.0,0.819015996585,-0.57362965512,-0.011939975089,0.0,-0.00661978920903,0.0113613888379,-0.99991354488,0.0,0.342451037496,-0.158320886069,0.304942197145,1.0,-0.220871428571,-0.290288163265,2.661
-0.307757984944,-0.504229309674,-0.137898611768,-2.6286075992,-0.068782156778,2.11662617075,-0.566419728641,-0.952617977008,-0.246032413612,-0.00177089600162,-0.190016308801,-0.0378055593894,-0.0696039080792,-0.906081594313,0.573890071523,0.818901370582,0.00561052295465,0.0,0.818894435767,-0.573803520251,-0.0119235111472,0.0,-0.00654496780969,0.0114374309004,-0.999913170516,0.0,0.338922975183,-0.16300003659,0.304955377346,1.0,-0.216446285714,-0.284472261225,2.677
-0.323505570959,-0.508252680982,-0.137804945603,-2.63162705785,-0.0693705449517,2.11565278832,-0.58164877283,-0.920700517789,-0.232901565183,0.00599917563449,-0.173696859715,-0.0286186348089,-0.0589075980582,-0.890474650182,0.573822417601,0.818948138727,0.00570316012869,0.0,0.818943141929,-0.573736835363,-0.0117864725921,0.0,-0.00638051959239,0.0114341262148,-0.999914271189,0.0,0.335315646018,-0.167787377857,0.304998044473,1.0,-0.211744571429,-0.278292865306,2.694
-0.339164634874,-0.51188276129,-0.137745612391,-2.63441673669,-0.069970870757,2.11467682073,-0.596678407776,-0.906508694631,-0.205291703845,0.0109674138943,-0.157591701129,-0.034534064554,-0.0537599590514,-0.883411545236,0.573878076303,0.818908997284,0.00572316408992,0.0,0.818904103435,-0.573792129454,-0.0118071357765,0.0,-0.00638518614374,0.0114627996183,-0.999913913106,0.0,0.331709032025,-0.172521264908,0.304993569136,1.0,-0.207042857143,-0.272113469388,2.711
-0.356310404444,-0.515375374161,-0.137640372214,-2.63719704503,-0.0704443491201,2.11366062535,-0.613233509418,-0.908560650676,-0.177776795453,-0.00091677354158,-0.141033000688,-0.0330156853939,-0.0453339317096,-0.873605728361,0.573924486717,0.818875892205,0.00580548127518,0.0,0.818870730289,-0.573835813894,-0.0119971942699,0.0,-0.00649294509848,0.0116396463542,-0.999911176204,0.0,0.327779139855,-0.177640225906,0.304936512174,1.0,-0.201788,-0.265207085714,2.73
-0.369590308753,-0.517795855045,-0.137474962347,-2.63915153141,-0.0708004797356,2.11299053237,-0.626062991692,-0.87229754181,-0.160691243811,0.0121898306572,-0.123842156092,-0.021810537619,-0.0359390999031,-0.847490849121,0.573911026228,0.818885246402,0.00581670865561,0.0,0.818879544311,-0.573821083135,-0.0120997256469,0.0,-0.00657066326237,0.0117075751035,-0.999909875474,0.0,0.324767825027,-0.1815694603,0.304887538261,1.0,-0.197639428571,-0.259754677551,2.745
-0.384446181868,-0.520257529175,-0.137373007856,-2.6410452378,-0.0711472635937,2.11229030565,-0.640373413221,-0.878425942457,-0.134164066962,0.00225993649756,-0.106925590693,-0.020783199029,-0.0370907162665,-0.84218377231,0.574027248403,0.81880319598,0.00589841028269,0.0,0.818798250747,-0.573936381499,-0.0121326611376,0.0,-0.00654907555096,0.0117943131874,-0.999908997752,0.0,0.321421023935,-0.185982385974,0.30487537392,1.0,-0.192937714286,-0.253575281633,2.762
-0.398026568259,-0.522299543732,-0.137153857039,-2.64257962522,-0.0713919786637,2.11168834417,-0.653646892096,-0.85004056581,-0.126869430935,0.0055454070689,-0.0930142270648,-0.00932243462005,-0.0315100724082,-0.817770394865,0.573929235975,0.818871487247,0.00595536471247,0.0,0.818867241372,-0.573838065061,-0.0121269533264,0.0,-0.00651312674074,0.0118368940277,-0.999908729395,0.0,0.318391805234,-0.189963251194,0.304882201138,1.0,-0.188512571429,-0.247759379592,2.778
-0.412430554227,-0.524249435841,-0.137012389617,-2.64394978195,-0.0716674631194,2.111105134,-0.667496151547,-0.850716998941,-0.105225711642,0.0105874316293,-0.0724824646513,-0.0150813273329,-0.0319698120135,-0.819983207763,0.574085004721,0.818761756596,0.00602828264981,0.0,0.818759010154,-0.573994498202,-0.0120310526128,0.0,-0.00639048773308,0.0118427856417,-0.999909450948,0.0,0.315186519068,-0.194213907603,0.304928241233,1.0,-0.183810857143,-0.241579983674,2.795
-0.426278856787,-0.525834014276,-0.136756363851,-2.64510196076,-0.0718589801685,2.11064484735,-0.681094989023,-0.810465504246,-0.0886672610042,0.00459426308218,-0.0632085814787,-0.0123531733795,-0.0247016338081,-0.806218167834,0.573958909763,0.818849843588,0.00607045800176,0.0,0.818848072572,-0.573869049719,-0.0119538579599,0.0,-0.00630488814457,0.0118320339198,-0.99991012164,0.0,0.312133362975,-0.198252220193,0.304952076651,1.0,-0.179109142857,-0.235400587755,2.812
-0.439261922853,-0.52708439519,-0.136620648338,-2.64602979742,-0.0720292304707,2.11024118049,-0.693598779682,-0.804151078411,-0.0666939855251,0.0166917860657,-0.0567458970294,-0.00984744129658,-0.0278832750628,-0.780559708903,0.574113072508,0.818741367054,0.00612378568448,0.0,0.818740350788,-0.574023076933,-0.0119370030446,0.0,-0.00625824438075,0.0118672084144,-0.999909997821,0.0,0.309075259927,-0.202281573526,0.30496040455,1.0,-0.174407428571,-0.229221191837,2.829
-0.453223183042,-0.528193506247,-0.136295086954,-2.64688573216,-0.0721387939894,2.10986529356,-0.707336094375,-0.768185824808,-0.0498258264309,0.0174004093749,-0.043528996708,-0.00355737143751,-0.01816347468,-0.759966856378,0.573985463605,0.818830597777,0.0061552103726,0.0,0.818829799551,-0.573895002899,-0.0119595951138,0.0,-0.00626055847675,0.0119049326284,-0.999909534901,0.0,0.306173292792,-0.206073356462,0.304949230756,1.0,-0.169705714286,-0.223041795918,2.846
-0.466354037033,-0.528958018601,-0.136091492866,-2.64750192516,-0.0722431500885,2.10956400497,-0.720001175862,-0.759808036174,-0.0399328316523,0.0199300160925,-0.0294344179786,-0.00431625825147,-0.00995041661994,-0.736441941968,0.574143028247,0.818719863113,0.0061899725383,0.0,0.818719128937,-0.574051648329,-0.0120183137486,0.0,-0.0062863892809,0.0119683104018,-0.999908616252,0.0,0.303268830384,-0.209881152012,0.304927795005,1.0,-0.165004,-0.2168624,2.863
-0.477417383679,-0.529423786196,-0.135813528784,-2.64787791209,-0.0722765868706,2.10937151073,-0.73096556224,-0.734905394485,-0.0293202468799,0.0195089785391,-0.0212887303911,-0.00870733499135,-0.0113172223772,-0.733067638618,0.573991999499,0.81882568246,0.006199448009,0.0,0.818824940119,-0.573900360658,-0.0120349647916,0.0,-0.00629679404342,0.0119844668875,-0.99990835727,0.0,0.300852400647,-0.213061118767,0.304917617765,1.0,-0.160855428571,-0.211409991837,2.878
-0.490630628881,-0.529789377221,-0.135608449803,-2.64820436246,-0.072300015656,2.10914384684,-0.743743082479,-0.731619261896,-0.0167452902758,0.0154462729887,-0.0173419015163,-0.00169343274938,-0.00726767633067,-0.703781832247,0.57417551006,0.81869652543,0.00626336947083,0.0,0.818695963137,-0.574082304181,-0.0121315650585,0.0,-0.00633650258102,0.0120936756974,-0.999906791528,0.0,0.297929015405,-0.216876737916,0.304888454997,1.0,-0.155877142857,-0.204867102041,2.896
-0.50248384169,-0.529957348084,-0.135255811179,-2.6483601792,-0.0723058400343,2.10902158473,-0.75553498183,-0.691615991196,-0.0103438620467,0.0227410678409,-0.0047148123085,-0.00158067645348,-0.00340934385194,-0.681893105019,0.573965775662,0.818843758647,0.00623972716184,0.0,0.818842782357,-0.573872521626,-0.0121479876848,0.0,-0.0063666185123,0.0120821173428,-0.999906739956,0.0,0.295343631324,-0.220261126689,0.304877528941,1.0,-0.151175428571,-0.198687706123,2.913
-0.51428752511,-0.530013057578,-0.135039343497,-2.64842526337,-0.0723121401322,2.10891695956,-0.766951437851,-0.692393486558,-0.00179217258838,0.0134170160977,-0.000988543430324,-0.00149838195771,0.00136929747162,-0.672822073971,0.57412395059,0.818732644079,0.00626847507279,0.0,0.818731834445,-0.574030134412,-0.0121792838532,0.0,-0.00637340639138,0.0121248520977,-0.999906179425,0.0,0.292729275014,-0.223654142476,0.304864878709,1.0,-0.146473714286,-0.192508310204,2.93
-0.524855500424,-0.529939350822,-0.134717587488,-2.64838677926,-0.0723005951326,2.108896735,-0.777416873964,-0.644714207028,0.00769025742783,0.0155260774866,0.00785491754686,0.00140071795659,4.22938725128e-05,-0.657092028249,0.573988369853,0.818827951491,0.00623570622377,0.0,0.818826888731,-0.573895064665,-0.0121543385142,0.0,-0.00637379379606,0.012082645505,-0.999906687862,0.0,0.290415462584,-0.226662568392,0.30486200188,1.0,-0.142048571429,-0.186692408163,2.946
-0.536481616887,-0.529751926827,-0.134437979845,-2.64824751822,-0.0722909334492,2.10888968171,-0.788762043645,-0.652371063989,0.0149716423555,0.0160802127832,0.00805355981553,0.00140239435757,-0.00064396834009,-0.600993735996,0.574033471605,0.818796447561,0.00622075885225,0.0,0.818795381355,-0.573940587261,-0.0121273520442,0.0,-0.00635960922545,0.0120552667133,-0.999907108643,0.0,0.287844406385,-0.229985296822,0.304863462905,1.0,-0.137070285714,-0.180149518367,2.964
-0.545918088496,-0.529498920624,-0.134197674696,-2.64802425464,-0.0722766863986,2.10890789302,-0.797973126453,-0.613713781703,0.0268646988779,0.0229707242407,0.0207730227357,0.00262625859186,0.00332572710794,-0.60247718712,0.574067287136,0.818772933674,0.00619514530491,0.0,0.818771906393,-0.573975216043,-0.0120732584734,0.0,-0.00632951925736,0.0120035047751,-0.99990792229,0.0,0.285762063416,-0.232684315747,0.304880304655,1.0,-0.132921714286,-0.174697110204,2.979
-0.556627480984,-0.529004880715,-0.133811925603,-2.64766230192,-0.0722175522814,2.10893700239,-0.80867640709,-0.594509525789,0.0264714415533,0.0144101249033,0.020948106828,-7.05716690308e-05,0.00518657227727,-0.593664716626,0.57384625659,0.818928349464,0.00613018299958,0.0,0.818926359137,-0.573754298163,-0.0120983697929,0.0,-0.00639060220006,0.0119630029861,-0.999908019151,0.0,0.283417306821,-0.235717301812,0.304876813699,1.0,-0.127943428571,-0.168154220408,2.997
-0.566669562885,-0.528454961446,-0.13355631371,-2.64726069933,-0.0721243950664,2.10901493871,-0.818394864216,-0.584189005289,0.034497360757,0.0155853529736,0.0274345199014,0.00305020181491,0.0061446083774,-0.571027845883,0.573993621876,0.818824974523,0.00614247869683,0.0,0.818823125384,-0.5739015423,-0.0121018999759,0.0,-0.00638428285906,0.0119762475828,-0.999907900972,0.0,0.281193309523,-0.238580257112,0.304871722508,1.0,-0.123241714286,-0.16197482449,3.014
-0.575553248038,-0.527786497728,-0.133222734925,-2.64676569458,-0.0719803745953,2.10914480612,-0.827291320114,-0.542201681054,0.0513119922754,0.0224646707455,0.032944175105,0.0158629967886,0.00786585178266,-0.54323284988,0.573837285034,0.818934592898,0.00613594018393,0.0,0.818932774773,-0.57374548543,-0.0120820219142,0.0,-0.00637404043835,0.0119582674073,-0.999908181509,0.0,0.279268504624,-0.241103030737,0.304872096058,1.0,-0.118816571429,-0.156158922449,3.03
-0.585296571749,-0.52694957859,-0.132913755671,-2.64614965565,-0.0718145110161,2.1092774576,-0.836831461099,-0.54058895753,0.0505858842556,0.0165901356213,0.0365808550149,0.0121542045029,0.00105611890301,-0.519800770763,0.57389116787,0.818896703363,0.00615333746932,0.0,0.818894959134,-0.573798993552,-0.0121040408289,0.0,-0.00638130314511,0.0119855699221,-0.999907808292,0.0,0.277134331206,-0.243879124966,0.304865339061,1.0,-0.113838285714,-0.149616032653,3.048
-0.59369650293,-0.526134110003,-0.132667899741,-2.64552481781,-0.0716472275044,2.10940193087,-0.845005589295,-0.514954421105,0.0529097946398,0.0159455504429,0.0419026058154,0.00874027031028,0.00642506301541,-0.501768387497,0.574008873793,0.818813936751,0.00618843190718,0.0,0.818812565385,-0.573916359399,-0.0121137146923,0.0,-0.00636735869668,0.0120207769708,-0.999907474552,0.0,0.275292236104,-0.246282296135,0.304867907518,1.0,-0.109413142857,-0.143800130612,3.064
-0.601517136779,-0.525204607776,-0.132291480443,-2.64487979952,-0.0714295165313,2.1095589979,-0.852853805335,-0.477017827221,0.0599501669516,0.0297218183367,0.0397756529942,0.0155228724103,0.0134247810509,-0.484086002046,0.573849672706,0.818925487548,0.0061924050963,0.0,0.81892369809,-0.573756290004,-0.0121837304521,0.0,-0.00642475972288,0.0120629692633,-0.999906599256,0.0,0.273612304754,-0.248485983316,0.30484376376,1.0,-0.104988,-0.137984228572,3.08
-0.609642959762,-0.524268518107,-0.131966169377,-2.64419029808,-0.0712388103315,2.10972523073,-0.860842680801,-0.478911047264,0.0502257205627,0.0185110849398,0.0409060032189,0.0154473470737,0.00973808425369,-0.460929126349,0.573851795466,0.81892396513,0.00619702167136,0.0,0.818922071623,-0.573758082787,-0.0122086013036,0.0,-0.00644244895221,0.0120810382006,-0.999906267291,0.0,0.271837291058,-0.250787706863,0.304836605332,1.0,-0.100286285714,-0.131804832653,3.097
-0.61794611394,-0.523237021472,-0.13164230886,-2.64336540995,-0.0710064747221,2.10991797899,-0.868926324518,-0.447849191377,0.0549571915629,0.0194759050479,0.0461030372257,0.0103204092851,0.0120991532595,-0.44822713999,0.573947144215,0.818856951204,0.00622221928833,0.0,0.818855648919,-0.573853789098,-0.0121656020321,0.0,-0.00639136672799,0.0120777444911,-0.999906634901,0.0,0.270035472217,-0.253156758644,0.304857928072,1.0,-0.0953080000001,-0.125261942857,3.115
-0.624803863537,-0.522243589537,-0.131316823403,-2.64260346222,-0.0707722383893,2.11010510141,-0.87576649152,-0.417902024069,0.0611794587091,0.0254204914354,0.0475218522535,0.0185566987029,0.0115619891548,-0.421268774722,0.573873222212,0.818908613937,0.006241293913,0.0,0.81890756672,-0.573779807865,-0.0121604340381,0.0,-0.00637727854317,0.012089823043,-0.999906578885,0.0,0.268568105758,-0.255108406909,0.304863833214,1.0,-0.0908828571429,-0.119446040816,3.131
-0.631769387222,-0.521237800101,-0.130958882499,-2.64184267164,-0.0705339656749,2.11029607335,-0.882700019069,-0.407386796712,0.0602083841623,0.0165839440652,0.043575455337,0.0107355425784,0.00497931677814,-0.399891060081,0.573789554993,0.818967177387,0.00624946763097,0.0,0.818966192618,-0.573696037683,-0.012164645322,0.0,-0.00637727320799,0.012098282067,-0.999906476605,0.0,0.267066574645,-0.257072888955,0.304865476568,1.0,-0.0861811428572,-0.113266644898,3.148
-0.638538804084,-0.520247043928,-0.130638484049,-2.641038103,-0.0703130158163,2.1105010199,-0.889238271984,-0.386461663406,0.0572653709346,0.0166685487489,0.0489609635031,0.0134636384287,0.0190904922107,-0.373714059072,0.573889951617,0.818896826059,0.00624968837263,0.0,0.818896262263,-0.573797206854,-0.0121005768386,0.0,-0.00632319197575,0.0120624781452,-0.999907252631,0.0,0.26560472606,-0.258999925707,0.304892443292,1.0,-0.0814794285715,-0.10708724898,3.165
-0.64450247137,-0.519268803022,-0.130382533167,-2.64028912325,-0.070080106156,2.11069337049,-0.895099141689,-0.36443890337,0.0615488889066,0.0169913090207,0.0415264870734,0.0183276098696,0.0181488139768,-0.360425192562,0.573932989724,0.818866332887,0.00629277938424,0.0,0.818866336168,-0.57384005298,-0.0120939649616,0.0,-0.00629241303135,0.0120943035195,-0.999907062362,0.0,0.264311981935,-0.260702853506,0.304895778937,1.0,-0.0770542857144,-0.101271346939,3.181
-0.650432734715,-0.518255905135,-0.130060855047,-2.63952801795,-0.0698075345443,2.11089176486,-0.90098133929,-0.333795476084,0.0595984777205,0.0212392637093,0.0446910017443,0.0203277011508,0.00611345573976,-0.343618902084,0.573902026682,0.818887697141,0.00633641391275,0.0,0.818888179754,-0.573808727515,-0.0121012473732,0.0,-0.00627379377967,0.0121339784647,-0.999906698687,0.0,0.26303825261,-0.262375749265,0.304893703834,1.0,-0.0723525714286,-0.0950919510205,3.198
-0.65600825075,-0.517289651821,-0.129681574448,-2.63881910554,-0.069584816335,2.11108727878,-0.906465324626,-0.329091484968,0.0613950664112,0.0232389631087,0.0426917339382,0.0132171739324,0.0097299882142,-0.31455862762,0.573841507575,0.818930297405,0.00631182039217,0.0,0.818930325848,-0.573748075953,-0.0121249185177,0.0,-0.00630818977414,0.0121269561334,-0.999906567474,0.0,0.261844835242,-0.263929021607,0.304885897491,1.0,-0.0676508571429,-0.0889125551021,3.215
-0.661010756133,-0.516400208804,-0.12937326186,-2.63814155152,-0.0693619384177,2.11127257188,-0.911336157781,-0.304704374431,0.0593634010711,0.0159484160515,0.0452638766054,0.0176390834502,0.00960564050852,-0.297208774383,0.573862166761,0.818915769965,0.00631839889504,0.0,0.818915939304,-0.573768806744,-0.0121155958846,0.0,-0.00629647356455,0.0121271531573,-0.99990663893,0.0,0.260771864436,-0.265334522559,0.304889248681,1.0,-0.0632257142858,-0.0830966530613,3.231
-0.665903743433,-0.515430947498,-0.129058174574,-2.63741463011,-0.0691019124865,2.11148046201,-0.916144187953,-0.283817478329,0.0521527061238,0.0149872067989,0.0425245583352,0.0145274080279,0.0100889921287,-0.275173547956,0.573865928693,0.818912921295,0.00634587442599,0.0,0.818913439929,-0.573772425567,-0.012113152554,0.0,-0.00627865026581,0.0121482812874,-0.999906494535,0.0,0.259677101498,-0.266795322324,0.304886346627,1.0,-0.0582474285715,-0.0765537632654,3.249
-0.670802360926,-0.514512633778,-0.128791755965,-2.6367465088,-0.0688651525314,2.11167138055,-0.920849454319,-0.263216725539,0.0507503180467,0.0200063272904,0.0363410492952,0.0168044517267,0.013132120655,-0.266531213825,0.5739642107,0.818843726142,0.0063862269725,0.0,0.818844619685,-0.573870207138,-0.0121334691361,0.0,-0.00627067041274,0.0121937393995,-0.999905991287,0.0,0.258668870779,-0.268092541682,0.304874732303,1.0,-0.0535457142858,-0.070374367347,3.266
-0.674535807625,-0.51380141003,-0.128478988158,-2.63620745611,-0.068666627986,2.1118277811,-0.924455392139,-0.242735126314,0.0506948317839,0.027997672534,0.0306993225198,0.0216252085741,0.0175148494661,-0.229281519877,0.573958798391,0.818847626197,0.00637257572813,0.0,0.818848388824,-0.573864950541,-0.0121277187252,0.0,-0.00627387662588,0.0121792187221,-0.999906148148,0.0,0.2578346599,-0.269185946359,0.304876318546,1.0,-0.0491205714286,-0.0645584653062,3.282
-0.67854275516,-0.512974527752,-0.128038145888,-2.63557969435,-0.0684337889206,2.11201051937,-0.928386339083,-0.21443934336,0.0448432930495,0.0231260450925,0.0356598143506,0.0045471715488,0.0188687708817,-0.22249903822,0.573841342871,0.818930360257,0.00631863613193,0.0,0.818930554533,-0.573748028423,-0.012111714747,0.0,-0.00629346706683,0.0121249602894,-0.999906684451,0.0,0.257073484359,-0.27021434146,0.304883630874,1.0,-0.0444188571429,-0.0583790693878,3.299
-0.682239403116,-0.512224403876,-0.127675020291,-2.63501537846,-0.0682000364979,2.11217282171,-0.931987540045,-0.199789439087,0.039103794111,0.0189499722212,0.0321046759256,0.0155929053772,0.00324514200185,-0.187867266825,0.573790875345,0.818965799393,0.00630854154705,0.0,0.818965896139,-0.573697683271,-0.0121068605718,0.0,-0.00629603029405,0.0121135197294,-0.999906806979,0.0,0.256310266915,-0.271222607246,0.304885150069,1.0,-0.0394405714286,-0.0518361795919,3.317
-0.685073648051,-0.511651881942,-0.127421602934,-2.63457367488,-0.0680154194131,2.11230497463,-0.934651927086,-0.182862151649,0.0345494537844,0.0152285759387,0.0314821131962,0.0142715261832,0.00942872696499,-0.170479094533,0.573851719791,0.818923127094,0.00631367601732,0.0,0.818923441486,-0.573758781707,-0.0120832238613,0.0,-0.00627282518137,0.0121046291376,-0.99990706049,0.0,0.255720565682,-0.272002566157,0.304891305734,1.0,-0.0352920000001,-0.0463837714287,3.332
-0.688095290159,-0.51104210118,-0.127134216721,-2.63412283456,-0.0677774708909,2.11244591735,-0.937453866329,-0.15768958414,0.0271855082087,0.0144413261852,0.0226277316821,0.0178013788141,0.0012811037803,-0.150514315527,0.573952463168,0.81885225229,0.00634868838237,0.0,0.818853067659,-0.573859432468,-0.012072789842,0.0,-0.00624269663277,0.0121280839278,-0.999906964832,0.0,0.255092773405,-0.272819734363,0.304889286191,1.0,-0.0303137142858,-0.0398408816327,3.35
-0.690686116161,-0.510527044792,-0.126815418188,-2.63374264778,-0.0675597848681,2.11255864371,-0.939934379473,-0.134255029377,0.0259072338098,0.0199524570519,0.0155401851717,0.00942248272078,0.00459684972577,-0.132097281374,0.573928759604,0.818868794712,0.00635789644225,0.0,0.818869731433,-0.573835695407,-0.0120708127911,0.0,-0.00623614406026,0.0121343091878,-0.999906930193,0.0,0.254567953827,-0.273499871661,0.304888472131,1.0,-0.0253354285715,-0.0332979918368,3.368
-0.692690711954,-0.510166172706,-0.126507348756,-2.6334521816,-0.0673607906827,2.11261123834,-0.94178404084,-0.118692184658,0.022112318466,0.019825234041,0.0148775974269,0.0156081588931,0.00034121738317,-0.112099386513,0.573936306999,0.8188634637,0.00636319305103,0.0,0.818864479945,-0.573843237796,-0.0120685053506,0.0,-0.00623110275799,0.0121373798426,-0.999906924353,0.0,0.254172457752,-0.274004083815,0.304898561554,1.0,-0.0209102857144,-0.027482089796,3.384
-0.694375821504,-0.509826944659,-0.126242828779,-2.63318655092,-0.0671812141133,2.11271872997,-0.943279797814,-0.104283877217,0.0218700243095,0.0119002135563,0.0223866885308,0.0109742099515,0.00348783461582,-0.100835007436,0.573993391945,0.818823446972,0.00636361485504,0.0,0.818824789642,-0.573900934868,-0.0120178087649,0.0,-0.00618849823121,0.0121090615487,-0.999907532284,0.0,0.253855210171,-0.274439546722,0.3049089757,1.0,-0.0197272727273,-0.0259272727273,3.4
-0.695969405321,-0.50948436377,-0.126028988247,-2.63293030469,-0.0670277672752,2.11277516594,-0.944843617419,-0.0926947809394,0.0206100607651,0.0136931830373,0.0150529290634,0.0139735314948,0.00253467152346,-0.102720467812,0.573944323769,0.818857731534,0.00637774418692,0.0,0.818859158154,-0.573851619128,-0.0120310112689,0.0,-0.00619192698146,0.0121278383613,-0.99990728349,0.0,0.253538400224,-0.274854547801,0.304908268231,1.0,-0.0193872727273,-0.0254804155844,3.417
-0.697509613982,-0.509169349479,-0.125860979565,-2.63267900431,-0.0669545369032,2.11282316483,-0.946368598044,-0.0871672530181,0.0204902336633,0.00826391301466,0.0158952270659,0.00201787108396,0.000960808374372,-0.0813717822681,0.573881317612,0.818902132657,0.00634644210496,0.0,0.818903123442,-0.573788710635,-0.0120389727671,0.0,-0.00621734334456,0.0121062959005,-0.999907386832,0.0,0.253215725062,-0.275270997554,0.304913645647,1.0,-0.0190472727273,-0.0250335584416,3.434
-0.698975957346,-0.508811135064,-0.125720806397,-2.63240354438,-0.0668908385522,2.11291339031,-0.94781264165,-0.0844365652238,0.0190832319933,0.00972075423326,0.0196404316161,0.00531929926704,0.00517861635287,-0.0859866397736,0.573841099076,0.818930582119,0.00631201893919,0.0,0.818931236789,-0.573748870525,-0.0120253849773,0.0,-0.00622656166319,0.0120700019936,-0.999907768238,0.0,0.252916113694,-0.275687113547,0.304916868484,1.0,-0.0187072727273,-0.0245867012987,3.451
-0.700444616994,-0.508450032984,-0.12565713903,-2.63214885073,-0.0668335970327,2.11298771358,-0.949311359462,-0.0782136007633,0.0161992607374,0.00465541234786,0.016688975586,0.00755696495403,0.00172102215571,-0.0787487994887,0.573808853413,0.818953138461,0.00631693360872,0.0,0.818953707792,-0.573716320909,-0.0120480088637,0.0,-0.00624274695393,0.0120867630604,-0.999907464853,0.0,0.252589868423,-0.276112216837,0.304906388835,1.0,-0.0183472727273,-0.0241135584416,3.469
-0.701633502974,-0.508153818061,-0.12562060383,-2.63194242445,-0.066793218258,2.11301494291,-0.95045873324,-0.0753675183114,0.0193952270417,0.00309809530135,0.00858095058037,0.00501684944482,2.42291315243e-05,-0.0740820804682,0.573844877328,0.818927809855,0.00632818397903,0.0,0.818928174933,-0.573751608185,-0.0121030288805,0.0,-0.00628082212413,0.012127822778,-0.999906729244,0.0,0.25231622394,-0.276454897255,0.304893377327,1.0,-0.0180472727273,-0.0237192727273,3.484
-0.70295947068,-0.50780267939,-0.125592931464,-2.631693985,-0.0667374814048,2.11308514538,-0.951865335312,-0.0764240183851,0.023483271944,-0.000606475565606,0.0113882738669,0.00404196044268,0.00284453805349,-0.0830308410223,0.573795891107,0.81896196933,0.0063494126268,0.0,0.818962447888,-0.573702220495,-0.012125099975,0.0,-0.00628744468379,0.0121574971219,-0.999906327264,0.0,0.252017954048,-0.276848935279,0.304882486588,1.0,-0.0177072727273,-0.0232724155844,3.501
-0.704279696621,-0.507490526303,-0.125591090659,-2.6314436236,-0.0666996522363,2.11318414474,-0.953175604842,-0.0792794899414,0.0202460846972,0.000537875601225,0.0123567016569,0.00411469100659,0.00363535647954,-0.0843460133047,0.573831724025,0.81893679392,0.0063582205375,0.0,0.818937666203,-0.573738546188,-0.0120799997374,0.0,-0.00624492028206,0.0121391070792,-0.999906817183,0.0,0.251718537523,-0.277253866964,0.304888746565,1.0,-0.0173672727273,-0.0228255584416,3.518
-0.705515590962,-0.507192208982,-0.125595208096,-2.63122201441,-0.0666606073362,2.11319777138,-0.954420412592,-0.0752086842343,0.0191368971023,-0.00165804198722,0.0121599982854,0.00203312860456,7.25282050812e-05,-0.0778939617977,0.573855585531,0.818919834768,0.00638890275391,0.0,0.818920749254,-0.573761566593,-0.0121333442403,0.0,-0.00627065013703,0.0121950271857,-0.999905975709,0.0,0.251421911086,-0.277618198888,0.304879645834,1.0,-0.0170472727273,-0.022404987013,3.534
-0.706844567387,-0.506882221697,-0.125587087386,-2.63095822867,-0.0666249609697,2.11325090249,-0.955762539951,-0.074451692816,0.0148952890145,-0.000272895713043,0.0164115138545,0.00340787032568,0.00907055118781,-0.0625738884273,0.573867712978,0.818911265591,0.00639796768189,0.0,0.818912384757,-0.573773817893,-0.0121185350993,0.0,-0.00625313896399,0.0121940457672,-0.999906097342,0.0,0.251116199379,-0.278020428086,0.304888981848,1.0,-0.0166872727273,-0.0219318441559,3.552
-0.708096282525,-0.506590991755,-0.12558564519,-2.63072648643,-0.0665843274962,2.11333278224,-0.956961742794,-0.075544621976,0.0145903193748,-0.000173440512403,0.0115958187525,0.00194722034696,0.00514062069718,-0.0740740544836,0.573938929298,0.818861240965,0.00641251765081,0.0,0.818862736601,-0.573845316853,-0.012087920963,0.0,-0.00621865646574,0.0121889348418,-0.999906374707,0.0,0.250828098106,-0.278399861677,0.304893009793,1.0,-0.0163472727273,-0.021484987013,3.569
-0.709166398513,-0.506328591511,-0.125571179057,-2.63052166791,-0.066552855202,2.11337475923,-0.958099760469,-0.0680708795661,0.0192793429663,0.00392634553191,0.0116247839644,0.00136401824623,0.00237978574366,-0.077697005693,0.573896994301,0.818890558136,0.00642188668907,0.0,0.818892109702,-0.573803218539,-0.0120965268962,0.0,-0.00622095218291,0.0122012276778,-0.9999062105,0.0,0.25058111718,-0.278718943871,0.304892403832,1.0,-0.0160472727273,-0.0210907012987,3.584
