nelsonifechukwu/NELSON_IML_WORK/CNN-GradCAM/train2dof/data_sample_2022-02-21-14-47-28/robot_state.csv
position_joint1,position_joint2,position_joint3,position_joint4,position_joint5,position_joint6,position_joint7,velocity_joint1,velocity_joint2,velocity_joint3,velocity_joint4,velocity_joint5,velocity_joint6,velocity_joint7,ee_T_00,ee_T_10,ee_T_20,ee_T_30,ee_T_01,ee_T_11,ee_T_21,ee_T_31,ee_T_02,ee_T_12,ee_T_22,ee_T_32,ee_T_03,ee_T_13,ee_T_23,ee_T_33,v_x,v_y,time
0.465082270334,0.547875994172,-0.123982166554,-1.35585669414,0.0794615882672,1.89409787496,0.159175102877,-0.000165123870396,0.000887586417337,0.000816941709034,-0.00122490697482,-0.000200603343368,0.000189037367014,0.0054556698345,0.573798564951,0.818982688476,0.00181926867803,0.0,0.818938125908,-0.573740820077,-0.011940025658,0.0,-0.00873505378741,0.00834119866365,-0.99992705896,0.0,0.66166703862,0.260889338829,0.303135427552,1.0,0.0,0.0,0.0
0.46508150597,0.547875197671,-0.123984951688,-1.3558518668,0.0794612296959,1.89409519802,0.159175606557,-0.00159823351545,0.000281533227,-0.00108997342433,0.000323741011798,0.000147609772381,-0.000377210155219,6.64639978902e-05,0.573801171222,0.818980858867,0.00182088280586,0.0,0.818936336872,-0.573743437826,-0.0119369427816,0.0,-0.00873157620049,0.00834077942964,-0.99992709283,0.0,0.661668492541,0.2608875656,0.303138148311,1.0,-0.00024,-0.000315428571429,0.013
0.465079081174,0.547873784055,-0.123987460277,-1.35585750391,0.0794605177809,1.89409637541,0.159175556871,-0.00100952067906,0.00177087329522,-0.00149579947252,9.63576297823e-05,-0.000414869219486,-0.000224370633788,0.000414507378617,0.573798919647,0.818982432715,0.00182253034969,0.0,0.818937914257,-0.573741162388,-0.0119380934553,0.0,-0.00873159624894,0.0083427649546,-0.999927076091,0.0,0.661666304571,0.260890573395,0.303138841885,1.0,-0.00056,-0.000736,0.029
0.465084157342,0.54785244245,-0.123985662318,-1.35587810784,0.0794612296932,1.89409985266,0.159176066177,0.00101178550352,-0.000237159444328,-0.00159523415332,-0.000936390496382,-0.000299442071541,2.42870948521e-05,-5.81788720188e-05,0.573801297569,0.818980765865,0.00182289679031,0.0,0.818936252435,-0.573743538704,-0.0119378869652,0.0,-0.00873119265691,0.00834297192496,-0.999927077888,0.0,0.661663479038,0.260886409294,0.303142207228,1.0,-0.0009,-0.00118285714286,0.046
0.465082965037,0.54775704246,-0.123977480508,-1.35597926536,0.0794582936942,1.89411976014,0.159169994766,0.000353109155205,-0.00817419886072,0.00239468652927,-0.0159713851937,0.00034473660714,0.00296793934385,-0.00182058849018,0.573796300552,0.818984228233,0.0018401847489,0.0,0.81893984504,-0.573738377906,-0.0119394650351,0.0,-0.00872261688184,0.00835798239789,-0.99992702738,0.0,0.661645381906,0.2608804811,0.303163096858,1.0,-0.00124,-0.00162971428571,0.063
0.465072623419,0.54763646289,-0.123982829055,-1.3561545147,0.0794564389906,1.89415075448,0.159169984078,-0.00176647684398,-3.35875980736e-05,0.000211564926339,-0.0114642913827,-0.000533680986843,0.0052378058376,9.36177257663e-05,0.573817571116,0.81896935968,0.00182479751128,0.0,0.818924678599,-0.573759618309,-0.0119590166681,0.0,-0.008747241511,0.00835682650765,-0.999926821931,0.0,0.661618597557,0.260853123932,0.303167971645,1.0,-0.00156,-0.00205028571429,0.079
0.465055980713,0.547485600446,-0.123986017129,-1.35636744026,0.0794504817247,1.89423444904,0.159164676995,-0.00017868730021,-0.0152491614901,0.0015850096077,-0.00905800093564,-0.000202799201009,0.00320612975247,-0.00182499732741,0.573830873284,0.818959941042,0.00186835092045,0.0,0.818915771663,-0.573772679846,-0.0119422646791,0.0,-0.00870839532657,0.00838302360472,-0.999926941714,0.0,0.6615964391,0.26082405751,0.303193945824,1.0,-0.00192,-0.00252342857143,0.097
0.465034265424,0.547289699109,-0.123983206766,-1.35657668661,0.0794485540154,1.89437263638,0.159149642897,-0.00164931110078,-0.0147392745089,-0.00135024186022,-0.0159850701045,-3.35915950808e-06,0.00711318816335,0.000535624790384,0.573854476875,0.818943192489,0.00195799597315,0.0,0.818900177576,-0.573795892835,-0.0118961940599,0.0,-0.00861898303644,0.00843024977759,-0.999927319369,0.0,0.661585759078,0.260795790712,0.303231934277,1.0,-0.00224,-0.002944,0.113
0.465009058312,0.547087826949,-0.123980343863,-1.35682852887,0.0794446519857,1.89447896534,0.159133295119,-0.000701796390574,-0.015710018826,0.000389984985707,-0.0221973036739,-5.64141464613e-05,0.00776659866386,-0.00334379221024,0.573872816495,0.818930207218,0.00201323017805,0.0,0.818887813505,-0.573813907348,-0.0118783638944,0.0,-0.00857249657771,0.00846544278801,-0.999927421657,0.0,0.661560676956,0.260760127528,0.303264185665,1.0,-0.00256,-0.00336457142857,0.129
0.46497179187,0.546869348384,-0.123983103245,-1.35717769572,0.079438157747,1.89462143872,0.159098812382,-0.0034431985523,-0.0178673419761,-2.18988449094e-05,-0.0218067751368,0.000525024199529,0.00853107768532,-0.00455278587337,0.573894948849,0.818914656829,0.00202963458413,0.0,0.818872374688,-0.573835869287,-0.0118817504489,0.0,-0.00856562738032,0.00848105154427,-0.999927348257,0.0,0.66152547351,0.260703922793,0.303265188715,1.0,-0.0029,-0.00381142857143,0.146
0.464930271436,0.546570773641,-0.123985220396,-1.35760232871,0.0794281663213,1.89477684071,0.158953627156,-0.00232748559384,-0.0172454468922,-0.000275488225511,-0.0228614217299,-0.000762448506358,0.0101488747954,-0.00392738292528,0.573832589226,0.818958267914,0.00206442689408,0.0,0.8189162962,-0.573773234478,-0.0118794830022,0.0,-0.00854445243404,0.0085075911132,-0.999927303971,0.0,0.661478782587,0.260637685245,0.303288077818,1.0,-0.00326,-0.00428457142857,0.164
0.464894082811,0.546312982443,-0.123982870274,-1.35800087329,0.079412536295,1.89491939296,0.158939371305,-0.00123121889899,-0.0175066139268,-0.000639171073052,-0.0243971105279,0.000338303681393,0.00936886556337,-0.000152925874287,0.573867013757,0.818934129887,0.00207082824676,0.0,0.818892147726,-0.573807535363,-0.0118873737777,0.0,-0.00854688380284,0.0085177206743,-0.999927196956,0.0,0.661432305919,0.260578332134,0.303293211756,1.0,-0.00356,-0.00467885714286,0.179
0.464840840656,0.545979622249,-0.123980615485,-1.35857139468,0.0793720692021,1.89511646909,0.158890966704,-0.000911596211707,-0.0165915369807,-0.000297125322337,-0.0318800020026,0.000714697560619,0.0140865189043,-0.00441420956027,0.57389051068,0.8189177587,0.0020330122987,0.0,0.8188753035,-0.573831202974,-0.0119052388946,0.0,-0.00858297090809,0.00849725079049,-0.99992706201,0.0,0.661365025827,0.260487895972,0.303274677443,1.0,-0.00392,-0.005152,0.197
0.464782292511,0.545628572265,-0.123983541474,-1.35917208233,0.0792740154308,1.89531860852,0.158778699202,-0.00235770609614,-0.0229312339573,-0.00294787389848,-0.0394635060343,-0.00166159962605,0.00368230959903,-0.00809216545083,0.573855986629,0.818942135178,0.0019577389308,0.0,0.81889924022,-0.573797524086,-0.0118820293537,0.0,-0.00860751445919,0.00842192674908,-0.999927488293,0.0,0.661298027123,0.260378623787,0.303254789867,1.0,-0.00426,-0.00559885714286,0.214
0.464726136923,0.545268439498,-0.123986164162,-1.35981322698,0.0792671252281,1.89552619443,0.158728481496,-0.00236327777003,-0.0158071412773,-0.000491499584897,-0.0421884651236,0.000135217352787,0.0200319289108,-0.00336632168065,0.573896530427,0.818913833354,0.00191123196658,0.0,0.818870009797,-0.573837942055,-0.0119444637723,0.0,-0.00868491640823,0.00842009896895,-0.999926834404,0.0,0.661217185732,0.260281559312,0.303222683882,1.0,-0.00458,-0.00601942857143,0.23
0.46465996706,0.544804554656,-0.123987032547,-1.36056161897,0.0792478954961,1.89578170033,0.158627802101,-0.00478943232601,-0.0258130697062,-0.000653032141911,-0.0407600280598,0.000796563478303,0.0180999248238,-0.00655654409339,0.573905401704,0.818907640548,0.0019008021743,0.0,0.818863409282,-0.573846593349,-0.0119812829762,0.0,-0.00872096322598,0.0084327827254,-0.99992641378,0.0,0.661126806967,0.260168788526,0.303217016179,1.0,-0.00494,-0.00649257142857,0.248
0.464582493769,0.54431421665,-0.123993879953,-1.36136463442,0.0792152101571,1.89607580423,0.158512972477,-0.00677893082124,-0.0292064215468,-0.000704837936338,-0.0478112963227,-0.000143789578428,0.0202427772333,-0.00609127104522,0.573915702576,0.818900443562,0.00189123562878,0.0,0.818855963167,-0.573856813772,-0.0120006572557,0.0,-0.0087422134124,0.00843617763522,-0.999926199583,0.0,0.661037222258,0.260039392015,0.303207548747,1.0,-0.0053,-0.00696571428571,0.266
0.464524179041,0.543873511029,-0.123994234616,-1.36209024065,0.0791776944429,1.89633056859,0.158434817965,-0.00407626093745,-0.0318704060831,-0.00104932001751,-0.044413446809,-0.00393975240303,0.0239209680872,-0.0138719811986,0.573930085647,0.818890415736,0.001868343136,0.0,0.818845553524,-0.57387121378,-0.0120223279421,0.0,-0.00877294968986,0.0084300224789,-0.999925982298,0.0,0.660949987141,0.259931510018,0.303196114715,1.0,-0.0056,-0.00736,0.281
0.464441428725,0.543334166161,-0.123993159127,-1.36295328204,0.0791172923432,1.89662423974,0.158309436395,-0.00591887171493,-0.0350522140016,-0.000453806168449,-0.0512602692945,-0.00296227036259,0.0211827421582,-0.00230937026677,0.573926207229,0.818893200499,0.0018389493035,0.0,0.818847979887,-0.573867487866,-0.012034912011,0.0,-0.00880016382771,0.00841313330597,-0.999925885406,0.0,0.660848664315,0.25979223313,0.30319229581,1.0,-0.00594,-0.00780685714286,0.298
0.464370559762,0.542778629508,-0.123999150441,-1.36385233798,0.0790669836527,1.89694200584,0.158201963935,-0.00384777461489,-0.0351890122238,-0.000552205412382,-0.0530973730238,-0.00273920081702,0.0281094599811,-0.00562390270325,0.573936945908,0.818885722435,0.00181730973437,0.0,0.818840182405,-0.573878284768,-0.0120505954708,0.0,-0.0088253158993,0.0084045300085,-0.99992573608,0.0,0.660742110767,0.259655926098,0.303185069955,1.0,-0.00628,-0.00825371428571,0.315
0.464294508656,0.542216220248,-0.124002028629,-1.36472476683,0.0790240921328,1.89726237906,0.158088011716,-0.00741449161465,-0.0340992288761,-0.00187243586886,-0.0573488589154,-0.00491551774178,0.0211243669813,-0.00214062018623,0.573944940953,0.818880089051,0.00183068620217,0.0,0.818834635854,-0.573886136326,-0.0120535703878,0.0,-0.00881999317334,0.00841727707286,-0.999925675822,0.0,0.660642485839,0.259522638504,0.303195440255,1.0,-0.0066,-0.00867428571429,0.331
0.464208858125,0.541584962313,-0.124004948849,-1.36567911266,0.0789651989238,1.89762128113,0.157954723735,-0.00446668550632,-0.0396536161184,-0.000199854205568,-0.05516462912,-0.00260051290493,0.0191123868427,-0.00352523892343,0.573945239771,0.818879813939,0.00185983009943,0.0,0.818834768312,-0.573886333583,-0.0120351664355,0.0,-0.00878819297456,0.00843058234893,-0.999925843723,0.0,0.660536720159,0.259374202476,0.303218744226,1.0,-0.00694,-0.00912114285714,0.348
0.464117818503,0.540915503409,-0.123999698344,-1.36672657474,0.0789068195662,1.89801073647,0.157827141561,-0.0015205697505,-0.0444785590052,-0.000304148557545,-0.0630649577929,-0.000757514435435,0.0244718664117,-0.00458572105095,0.573946012767,0.818879250962,0.00186913730698,0.0,0.818834247066,-0.573886989389,-0.0120393580797,0.0,-0.00878627610755,0.00844061771358,-0.999925775908,0.0,0.660406795503,0.259211475589,0.303225598094,1.0,-0.0073,-0.00959428571429,0.366
0.464030033163,0.54024193403,-0.123999962496,-1.36777023871,0.078838572206,1.89838653364,0.157690540867,-0.00304666426201,-0.0437704854692,0.00180652129671,-0.0663314554214,-0.000275935338735,0.0214409391469,-0.00954811911668,0.573953818379,0.818873766506,0.0018750459806,0.0,0.81882886451,-0.573894792142,-0.0120334990413,0.0,-0.00877800656474,0.00844217703248,-0.999925835374,0.0,0.660294075971,0.259059851714,0.303238917214,1.0,-0.0076,-0.00998857142857,0.381
0.463919939993,0.539462669986,-0.124005832282,-1.36898062642,0.0787728550403,1.89885251651,0.157546066674,-0.00838848529955,-0.0444021933624,0.00069573753341,-0.0672509436767,-0.000384622418435,0.0195477171037,-0.0131087573066,0.573979284754,0.818855844619,0.00190612363244,0.0,0.818811325215,-0.573920098678,-0.0120200222484,0.0,-0.00874887125018,0.00846016227468,-0.999925938711,0.0,0.660161217282,0.258871302846,0.303254047328,1.0,-0.00796,-0.0104617142857,0.399
0.463811204994,0.538693939864,-0.124014031142,-1.37015790374,0.0787107325144,1.89931221441,0.157399857077,-0.00289128224878,-0.0477616960458,-0.000822806547362,-0.0734730039476,-0.00101165150507,0.0202205942284,-0.0102332637403,0.574002916402,0.818839172475,0.00195153365167,0.0,0.81879522936,-0.573943517063,-0.0119982707486,0.0,-0.00870475159662,0.00848511221007,-0.999926112356,0.0,0.660034219103,0.25868625902,0.303276892474,1.0,-0.0083,-0.0109085714286,0.416
0.463705915843,0.537966878289,-0.124015048575,-1.37131763791,0.0786393666588,1.89975700254,0.15725438306,-0.0117108688766,-0.0432773330382,-0.00111423722064,-0.0731665005627,-0.00083013594518,0.0317009524296,-0.011890659119,0.574015727555,0.8188301732,0.0019593056401,0.0,0.818786357007,-0.57395631848,-0.0119913700748,0.0,-0.00869450717949,0.00848765115878,-0.999926179937,0.0,0.659904937344,0.258506696192,0.303276991474,1.0,-0.00862,-0.0113291428571,0.432
0.463586915632,0.537086820747,-0.124028992987,-1.37267187654,0.0785581119285,1.90025602745,0.157083955993,-0.00810122716382,-0.0490667348238,-0.00241849299724,-0.0764839788616,-0.00424582871751,0.0277796733963,-0.0151310917052,0.574036209387,0.818815771415,0.00197729514975,0.0,0.818772239418,-0.573976770098,-0.0119764037936,0.0,-0.00867171378479,0.00849400734947,-0.999926323896,0.0,0.659752213446,0.258291606616,0.30329752628,1.0,-0.00898,-0.0118022857143,0.45
0.463485121603,0.536290016628,-0.124026770299,-1.373905502,0.0784878996002,1.9007269105,0.156931694314,-0.0073698302035,-0.0545299845312,0.000833414635571,-0.0770096806309,-0.00313458914516,0.0244227649743,-0.0137521395937,0.574042447576,0.818811322593,0.00200830196894,0.0,0.81876815181,-0.573982834847,-0.0119651904874,0.0,-0.00864466902741,0.00851302482661,-0.999926396344,0.0,0.659610606599,0.258110362228,0.303313577908,1.0,-0.0093,-0.0122228571429,0.466
0.463369240671,0.53545886745,-0.124030368177,-1.37523457034,0.0784190944853,1.90121032423,0.156771162296,-0.00846066006562,-0.0500984039608,-0.000413514207027,-0.0790559999085,-0.00310089668844,0.0344472066755,-0.0103423690565,0.574062955185,0.81879696369,0.00200065950317,0.0,0.818753577393,-0.574003258016,-0.0119827457062,0.0,-0.0086632175217,0.00851706151652,-0.99992620144,0.0,0.659454842155,0.257906659739,0.303309591853,1.0,-0.00962,-0.0126434285714,0.482
0.463239398528,0.534509625595,-0.124030795321,-1.37677003204,0.0783200501295,1.90176407097,0.156578378928,-0.00711203131266,-0.0503158403799,0.000451812857002,-0.0866135787366,-0.00899420810325,0.0363200981753,-0.00979723867247,0.574069267311,0.818792615972,0.00196856785465,0.0,0.818748826487,-0.574009720281,-0.0119977935632,0.0,-0.00869389507835,0.00849949082258,-0.99992608469,0.0,0.659272454515,0.257672554565,0.303296487763,1.0,-0.00998,-0.0131165714286,0.5
0.463110853693,0.533587261134,-0.124033983796,-1.37825066495,0.0782420058934,1.90231289153,0.156402919812,-0.00327099287112,-0.0482639101398,0.000813846993174,-0.091839404985,-0.00595501998593,0.0384823610993,-0.00506032125031,0.574093255791,0.818775806066,0.00196467746243,0.0,0.818731857764,-0.574033616751,-0.0120124445424,0.0,-0.00870787570709,0.00850497117311,-0.999925916439,0.0,0.65909987028,0.257446928207,0.303290021265,1.0,-0.01032,-0.0135634285714,0.517
0.46298978862,0.532695919994,-0.124037098476,-1.37967984675,0.0781660582551,1.90285900612,0.156225975959,-0.0104636118799,-0.0586720671367,0.00101975810849,-0.0916024950684,-0.00113633196743,0.0303498426946,-0.0164577696599,0.574107569891,0.818765744982,0.00197482624304,0.0,0.818721852918,-0.574047811251,-0.0120160248618,0.0,-0.00870483246027,0.00851548818359,-0.999925853428,0.0,0.658935483891,0.257232144995,0.303285745979,1.0,-0.01064,-0.013984,0.533
0.462857629017,0.531709093381,-0.124039337967,-1.38125568435,0.0780755386514,1.90342454005,0.156010264458,-0.00542177846926,-0.0597358255203,1.23892540179e-05,-0.0932488350287,-0.000279572733009,0.028998797014,-0.0175860924988,0.57410227964,0.818769497763,0.00195676920496,0.0,0.81872528629,-0.574042517285,-0.012034984013,0.0,-0.00873077719027,0.0085115320582,-0.999925660913,0.0,0.658746365736,0.256993406139,0.30328042688,1.0,-0.01098,-0.0144308571429,0.55
0.462725537469,0.530701066204,-0.124037285842,-1.38289802031,0.0779658377402,1.90400064123,0.155798054429,-0.00911532179471,-0.063843695067,-0.000202326144192,-0.0882476384354,-0.000917394290827,0.0306252415133,-0.0174770165496,0.574094935647,0.818774776939,0.00190168749517,0.0,0.818729854773,-0.574035421186,-0.0120626293706,0.0,-0.00878510983051,0.0084822260681,-0.999925434063,0.0,0.658544000342,0.256747250034,0.303258937915,1.0,-0.01132,-0.0148777142857,0.567
0.462594104962,0.529719633872,-0.124040367634,-1.38444668831,0.0778659758831,1.90456894364,0.155587880801,-0.00768816249695,-0.0557077217652,0.000648572587133,-0.0934604320879,-0.00872693200501,0.0305973416128,-0.0150357657909,0.574089853339,0.818778348795,0.00189808848138,0.0,0.81873342063,-0.5740303948,-0.0120597964398,0.0,-0.00878490887214,0.00847759846447,-0.999925475073,0.0,0.658361287316,0.256510391749,0.303262554744,1.0,-0.01164,-0.0152982857143,0.583
0.462457841059,0.52862492066,-0.124043721003,-1.38613897275,0.0777675744411,1.90520997861,0.155367601859,-0.00613196082701,-0.066218003844,-0.00751823386087,-0.0993049217442,-0.0102162942065,0.0384529557009,-0.0131671035687,0.574088785308,0.818779009446,0.00193576235357,0.0,0.818734551864,-0.574029142614,-0.0120425875489,0.0,-0.00874920234962,0.0084985536045,-0.999925610256,0.0,0.658163268817,0.25625981591,0.303283680751,1.0,-0.01198,-0.0157451428571,0.6
0.462313009169,0.527515219544,-0.124046449298,-1.38785514765,0.0776626388643,1.90587623692,0.15511354269,-0.00976323948921,-0.0671070138047,0.00218239159534,-0.104515488761,-0.00642778591554,0.0383945913366,-0.0113222567459,0.574074364862,0.818789008654,0.00198237665785,0.0,0.818745162108,-0.574014526254,-0.0120179064513,0.0,-0.00870238425913,0.00852239739367,-0.999925815874,0.0,0.657954133386,0.255984718579,0.303302514126,1.0,-0.01234,-0.0162182857143,0.618
0.462167292749,0.526419952372,-0.124041173945,-1.38955115461,0.0775516890112,1.90651575882,0.154889573101,-0.00877507754819,-0.0653676227618,0.000377171749756,-0.103676884915,-0.00191884039172,0.0371233981752,-0.0161385786975,0.574059929958,0.818799053325,0.00201345272021,0.0,0.818755694751,-0.574000042294,-0.0119921083004,0.0,-0.00866357177779,0.00853287901614,-0.999926063517,0.0,0.657767958041,0.25574773522,0.303324642276,1.0,-0.01264,-0.0166125714286,0.633
0.462000799364,0.525166539612,-0.124046769366,-1.39150822162,0.0774353321384,1.90721205872,0.154624194949,-0.0104853389094,-0.0671723205715,-0.00162747951311,-0.109297985092,-0.00532778682512,0.0416433581538,-0.0228799408772,0.574056767275,0.81880128408,0.00200799303884,0.0,0.818757790415,-0.573996840225,-0.0120022892353,0.0,-0.00867507520035,0.00853421961214,-0.999925952341,0.0,0.657530649513,0.255447594333,0.30333540691,1.0,-0.013,-0.0170857142857,0.651
0.461835863534,0.523996870587,-0.124055626893,-1.39340448827,0.0773042878989,1.90788621438,0.154364448009,-0.00874481372589,-0.071080897055,4.50238830321e-05,-0.116087875559,-0.00879340068326,0.0349413087339,-0.0217198338511,0.574051731474,0.818804949873,0.00195206451155,0.0,0.818760838696,-0.573992153241,-0.0120184830816,0.0,-0.0087204916214,0.00849766860579,-0.999925868579,0.0,0.657301486996,0.255148881728,0.303314073543,1.0,-0.01334,-0.0175325714286,0.668
0.46168860239,0.522851652418,-0.124059889883,-1.39521244989,0.0772108407782,1.90859049752,0.154125980972,-0.00541575282792,-0.0716144942332,-0.00115233778358,-0.114826027359,3.67443175759e-05,0.0435746120213,-0.0146488670543,0.574052127996,0.818804572944,0.00199313071514,0.0,0.818760891411,-0.573992270546,-0.0120092859844,0.0,-0.0086893839547,0.00852601780834,-0.999925898068,0.0,0.6570902877,0.254882697749,0.303319783414,1.0,-0.01366,-0.0179531428571,0.684
0.461524764065,0.521612215663,-0.124062306734,-1.39717982519,0.0770758701945,1.90935554498,0.153862027997,-0.00705347287654,-0.0732517039615,-0.000718016028932,-0.118644966155,-0.0139444462657,0.0447973221289,-0.0155440781442,0.574040818308,0.818812453231,0.0020130205952,0.0,0.818769203229,-0.573981047349,-0.0119789828203,0.0,-0.00865327124301,0.00852478849806,-0.999926221717,0.0,0.656861603762,0.254586500468,0.303320671925,1.0,-0.014,-0.0184,0.701
0.461344563404,0.520258367047,-0.124070577726,-1.39932769933,0.0769435127815,1.9101428876,0.153563795753,-0.00655877857291,-0.0742917711608,-0.000728539511924,-0.121119766188,-0.00772761357921,0.0435871550526,-0.0117970087446,0.574028806187,0.818820896951,0.00200381752616,0.0,0.818777533585,-0.573969082016,-0.0119829164871,0.0,-0.00866189988842,0.00851938404207,-0.999926193069,0.0,0.656602414495,0.254258225497,0.303317787097,1.0,-0.01436,-0.0188731428571,0.719
0.461193659118,0.519082986625,-0.124077594373,-1.4011736473,0.0768313286972,1.91079120645,0.153319772098,-0.0105203161841,-0.0746928634218,-0.000957211437395,-0.12842513029,-0.00355836178083,0.0468143155686,-0.01884460391,0.574025184021,0.818823483921,0.00198423528244,0.0,0.818779816038,-0.573965494916,-0.011998766429,0.0,-0.00868615637963,0.0085124097972,-0.999926042049,0.0,0.656372550704,0.253977306878,0.30332081575,1.0,-0.01466,-0.0192674285714,0.734
0.461014767955,0.517720022704,-0.124078113364,-1.40329030598,0.0766859006974,1.91155691553,0.153031513175,-0.0113467052889,-0.0787896841543,0.000292091355257,-0.126918112191,-0.0113120753944,0.046128737551,-0.0144047094857,0.574008712927,0.818835026712,0.00198580316915,0.0,0.81879147218,-0.573949110299,-0.0119871086442,0.0,-0.0086758815023,0.00850682728768,-0.99992617876,0.0,0.656113805396,0.253654796399,0.3033362259,1.0,-0.015,-0.0197142857143,0.751
0.460822790994,0.516295630945,-0.124077291649,-1.40556345083,0.0765519082597,1.91240008265,0.152713802354,-0.00823212383263,-0.0850413728944,0.000978895660455,-0.130925023138,-0.0084894274467,0.0442988577352,-0.01347186253,0.573989287249,0.81884865189,0.00198250403588,0.0,0.818804967403,-0.573929615833,-0.0119986802242,0.0,-0.00868745260677,0.00851056191701,-0.999926046517,0.0,0.655836637462,0.253313827062,0.303326574758,1.0,-0.01536,-0.0201874285714,0.769
0.460647356204,0.51500601481,-0.124085082388,-1.40762689357,0.0764298633977,1.91317348116,0.152434678747,-0.0126990367027,-0.0772097857824,0.000708685907581,-0.132733928985,-0.0111197162197,0.0513644222625,-0.0180174008698,0.573985911901,0.818851022237,0.00198071218664,0.0,0.818807291732,-0.57392622634,-0.0120021925685,0.0,-0.00869139231933,0.00851107489207,-0.999926007914,0.0,0.655588031556,0.252999046031,0.303316027466,1.0,-0.01568,-0.020608,0.785
0.460461803176,0.513579487805,-0.124085804198,-1.40988985901,0.0762957046884,1.91395326455,0.152116809514,-0.00734245264171,-0.0808012479235,0.000679394489518,-0.124721795664,-0.0027918347842,0.0389968250434,-0.0173396228288,0.573960471426,0.818868960958,0.00193621287877,0.0,0.818824486015,-0.573900820254,-0.0120439409884,0.0,-0.00875138377499,0.00849832818198,-0.999925593082,0.0,0.655297693355,0.252658490753,0.303306382225,1.0,-0.01602,-0.0210548571429,0.802
0.460257114527,0.512069738808,-0.124095734382,-1.41231104797,0.0761425789935,1.91482480155,0.151777995431,-0.00958001161375,-0.0847895044618,-0.000665198208859,-0.136026628791,-0.00456548703246,0.0543169589565,-0.0141820431722,0.573943067465,0.818881251851,0.00189672804937,0.0,0.818836269383,-0.573883597963,-0.0120634503011,0.0,-0.00879020140545,0.00847700659863,-0.999925433579,0.0,0.654997231295,0.252285550877,0.303287516461,1.0,-0.01638,-0.021528,0.82
0.460081698789,0.510804403314,-0.124094015427,-1.41435078128,0.0760170611564,1.91560572222,0.151493635757,-0.00943089279276,-0.0851812592159,-0.000398419595764,-0.14262235769,-0.00619484208898,0.0536162869092,-0.0136920441664,0.573925516576,0.818893545921,0.00189967733585,0.0,0.818848595446,-0.573866030087,-0.0120625100797,0.0,-0.00878792055541,0.00847869368809,-0.999925439323,0.0,0.654750765947,0.251978949025,0.303270386327,1.0,-0.01668,-0.0219222857143,0.835
0.459884715961,0.509302253032,-0.124099342775,-1.41670226246,0.0758650045351,1.91648312416,0.151164779295,-0.012939165274,-0.087326080219,0.00214475279,-0.13700164688,-0.0122448310031,0.0541734875998,-0.0182171636837,0.573902671097,0.818909516305,0.00191705885477,0.0,0.818864859973,-0.573843176714,-0.0120456025656,0.0,-0.00876433616806,0.00848297894167,-0.999925609973,0.0,0.654463046389,0.251622597621,0.303278741833,1.0,-0.01702,-0.0223691428571,0.852
0.459664548441,0.507702851869,-0.124097601683,-1.41923077135,0.0757018959276,1.9173805353,0.15082113069,-0.0147339632685,-0.0882000384888,0.00149427352441,-0.146323551595,-0.00467867160834,0.0519160625749,-0.0170258831686,0.573887123544,0.818920482558,0.00188668437363,0.0,0.818875388535,-0.573827723875,-0.0120659961941,0.0,-0.00879862902693,0.00846964231491,-0.999925421862,0.0,0.654143352143,0.251235198494,0.303271871956,1.0,-0.01738,-0.0228422857143,0.87
0.459466118522,0.506318188419,-0.124111723969,-1.42137391049,0.0755694430376,1.91818723388,0.150522116944,-0.0139455633832,-0.0952739197632,-0.0053416070909,-0.13995504614,-0.00160804973247,0.0625169125041,-0.0256492495255,0.573889993239,0.818918386479,0.00192323901723,0.0,0.818873831214,-0.573830493397,-0.012039946061,0.0,-0.00875628859304,0.00848465802186,-0.999925666231,0.0,0.653887683765,0.250894436538,0.303290338929,1.0,-0.01768,-0.0232365714286,0.885
0.459237333492,0.504603188463,-0.124112847157,-1.42398536086,0.075398409481,1.9191980675,0.150157121045,-0.009756750755,-0.0940917115952,0.000157878420204,-0.14378979777,-0.00838068197971,0.0586512643223,-0.0230827414746,0.573867756963,0.818933753159,0.00201304665782,0.0,0.818890498614,-0.573808002667,-0.0119780739363,0.0,-0.00865431338461,0.00852245928766,-0.999926232553,0.0,0.653575000624,0.250497894434,0.303333491055,1.0,-0.01804,-0.0237097142857,0.903
0.459002654391,0.502932498259,-0.124116280558,-1.42646241097,0.0752437122151,1.92013115559,0.149809968258,-0.0141457720935,-0.101480206774,0.000464744648644,-0.14989261064,-0.00837329816581,0.0567402343985,-0.0194175216875,0.573863466043,0.818936490701,0.00211977391959,0.0,0.818894661477,-0.573803304394,-0.0119183964087,0.0,-0.00854424095324,0.00857556892536,-0.999926725097,0.0,0.653277884919,0.250108993746,0.303402265526,1.0,-0.01838,-0.0241565714286,0.92
0.458775170323,0.501331619834,-0.124124867926,-1.42887845409,0.0750932525619,1.92098668751,0.149474801828,-0.0174633180329,-0.102508761909,-0.00114507627313,-0.154698631209,-0.006362724982,0.0502649416504,-0.0220955234179,0.573864058504,0.818935986605,0.0021538574819,0.0,0.818894567654,-0.573803724511,-0.0119046085366,0.0,-0.00851338480095,0.0085955746526,-0.99992681651,0.0,0.652976163119,0.249723706668,0.303444195162,1.0,-0.0187,-0.0245771428571,0.936
0.458538529635,0.49960996628,-0.124120269343,-1.43148125178,0.0749251217407,1.92191556137,0.149110113761,-0.0148918129905,-0.105033106748,0.00078949206662,-0.154259373046,-0.01137624025,0.0565577169704,-0.02330876048,0.573842740017,0.818950819107,0.00219374455928,0.0,0.818909880121,-0.573782208275,-0.0118883392166,0.0,-0.00847739675777,0.00861868218068,-0.999926923361,0.0,0.65264643708,0.249321841964,0.303486818225,1.0,-0.01904,-0.025024,0.953
0.458271181235,0.497835662864,-0.124123599283,-1.43429159457,0.0747527956817,1.92295853502,0.148703087086,-0.0142166164879,-0.102916169378,3.28448315276e-05,-0.153440365626,-0.00449031643017,0.0576578496066,-0.0208544848333,0.573827029835,0.818961815087,0.00219821768281,0.0,0.818920888452,-0.573766435481,-0.011891294059,0.0,-0.00847741545851,0.00862387836496,-0.999926878401,0.0,0.652299195736,0.24887848618,0.303476996255,1.0,-0.0194,-0.0254971428571,0.971
0.458030845011,0.496358023105,-0.124125970166,-1.4366551252,0.074614715748,1.92379201474,0.148352422977,-0.0139943374921,-0.103080719821,-0.00292552848647,-0.159627518859,-0.0100074766916,0.0605770094649,-0.0213318431457,0.573820615643,0.818966415836,0.00215816990917,0.0,0.818924795008,-0.573760009067,-0.0119322679387,0.0,-0.00853401942619,0.00861452604137,-0.999926477524,0.0,0.652000349495,0.24849389293,0.303454264515,1.0,-0.0197,-0.0258914285714,0.986
0.457762399722,0.494684594589,-0.124125918682,-1.43938136041,0.0744399351755,1.9247337716,0.147968849129,-0.0169080180952,-0.101167542005,-1.21249897524e-05,-0.161508877515,-0.00854810964184,0.058056839666,-0.0309837119702,0.573808608108,0.818975093952,0.00205515185317,0.0,0.818931982806,-0.573748283093,-0.0120025866575,0.0,-0.00865084624386,0.00857038213214,-0.999925852956,0.0,0.651627125555,0.24802732064,0.303398721193,1.0,-0.0206657142857,-0.0271606530612,1.004
0.457475811042,0.492695390048,-0.124175013505,-1.44252612988,0.0742421368195,1.92589324015,0.147515937719,-0.0134552227536,-0.124094479048,-0.00732712132046,-0.177394764165,-0.00833856792481,0.0705667227715,-0.0248172667391,0.573819676206,0.818967350979,0.00205039786423,0.0,0.818924394237,-0.573759584174,-0.0119801082069,0.0,-0.0086350483081,0.00855370732646,-0.999926132288,0.0,0.651260562551,0.247538338688,0.30339419702,1.0,-0.0245514285714,-0.0322675918367,1.021
0.457192086588,0.49076832315,-0.124189539426,-1.44560428317,0.0740621333729,1.92700836101,0.147072735738,-0.0227814171289,-0.130726287627,-0.00082044254927,-0.214457405521,-0.0141693124688,0.0757805952513,-0.0304757386703,0.57380788725,0.818975700383,0.0020143518231,0.0,0.818932117264,-0.573747794753,-0.01201674791,0.0,-0.0086858618493,0.00854508665265,-0.999925765894,0.0,0.650840680698,0.247019843126,0.303358259153,1.0,-0.0282085714286,-0.037074122449,1.037
0.456745633497,0.487968796267,-0.124206177155,-1.45008803806,0.0737980070943,1.92863219879,0.146422416151,-0.0301305830088,-0.16291812871,-0.00110139490291,-0.24736980654,-0.0210687231354,0.0893287233952,-0.038907518231,0.573804792797,0.818977988874,0.00196479119989,0.0,0.818933568243,-0.573744727108,-0.0120642372981,0.0,-0.00875322473556,0.0085317149132,-0.999925292658,0.0,0.65033008089,0.246363586072,0.303318532402,1.0,-0.0320942857143,-0.0421810612245,1.054
0.456316346928,0.485219691625,-0.124238395077,-1.4542805515,0.0735367443553,1.9302495795,0.14579670224,-0.0248570943207,-0.183045800296,-0.000283149326261,-0.275974813666,-0.0183629307272,0.105653141618,-0.0439588208583,0.573800989826,0.818980286096,0.00211233598504,0.0,0.818937974054,-0.573740479806,-0.0119667617214,0.0,-0.00858877463719,0.00859657738362,-0.999926163178,0.0,0.649796923665,0.245634291434,0.303375394021,1.0,-0.03598,-0.047288,1.071
0.455830704029,0.482212193574,-0.124288688956,-1.45897032209,0.0732537466119,1.93186064815,0.145074175734,-0.0353695158971,-0.19854709146,-0.0040428460912,-0.300990006752,-0.011458821602,0.106439779203,-0.0414309641941,0.573796489791,0.818983593581,0.00205149956182,0.0,0.818940341511,-0.573736089375,-0.0120151443981,0.0,-0.00866335359697,0.00857446851679,-0.999925709638,0.0,0.649192682224,0.244837516587,0.303371192343,1.0,-0.0396371428571,-0.0520945306122,1.087
0.455263771232,0.47867538244,-0.124357975692,-1.46447833949,0.072920389973,1.93382732529,0.144268287375,-0.0355647785121,-0.209560099815,-0.00222700368945,-0.325401504367,-0.0169468967826,0.113780081081,-0.056237407182,0.573829091181,0.818960777534,0.00204104776639,0.0,0.818917382093,-0.573768724094,-0.0120216246685,0.0,-0.0086743167205,0.00856997245017,-0.999925653137,0.0,0.648494564013,0.243903349888,0.303373510639,1.0,-0.0435228571429,-0.0572014693878,1.104
0.45458665189,0.474554219977,-0.124391216823,-1.47073865409,0.0725369055915,1.93614828575,0.143369631206,-0.0390202194663,-0.23849481439,0.00119258741292,-0.359064973348,-0.019535108677,0.135459343462,-0.0560385118501,0.573870567138,0.81893131789,0.00219445931054,0.0,0.818889905357,-0.573809538479,-0.0119450138625,0.0,-0.00852310835667,0.00865207903619,-0.999926246356,0.0,0.647712520205,0.242854125899,0.303448394839,1.0,-0.0476371428571,-0.0626088163265,1.122
0.453923752468,0.470635414514,-0.124420014521,-1.47678521293,0.0721689022154,1.93826636086,0.142460408165,-0.0405717918931,-0.251486713453,-0.00286047300206,-0.379293568815,-0.0255210686484,0.137966130844,-0.0568140838416,0.573887566093,0.818919394307,0.00219863890398,0.0,0.818877741381,-0.573826218856,-0.0119775675738,0.0,-0.00854719029382,0.00867436057077,-0.999925847754,0.0,0.646976804604,0.241894174255,0.303466007408,1.0,-0.0510657142857,-0.0671149387755,1.137
0.45313250516,0.465834949326,-0.124432539126,-1.48397233256,0.0717089903132,1.94097219902,0.141296905397,-0.0439134373899,-0.270570664318,-0.000571008908467,-0.422571564092,-0.0283202026699,0.157153397117,-0.0665123530367,0.573799016043,0.818980698766,0.00245990618637,0.0,0.818942559481,-0.573736760319,-0.0118305126785,0.0,-0.00827778230714,0.00880302788814,-0.999926989845,0.0,0.646020086363,0.240633737656,0.303590662549,1.0,-0.0554085714286,-0.0728226938775,1.156
0.452360362565,0.461332201974,-0.124444419415,-1.4909538705,0.0712516449595,1.94335541374,0.140242919805,-0.0481492009702,-0.284256037798,-0.000566688053723,-0.451345635763,-0.0321899759577,0.155035363462,-0.0673611837949,0.573778179247,0.818995542063,0.00237697317048,0.0,0.818956051059,-0.573715960268,-0.0119050522406,0.0,-0.00838663873687,0.00877766475689,-0.999926305731,0.0,0.645079730604,0.239451997788,0.303577548652,1.0,-0.0590657142857,-0.0776292244898,1.172
0.451547252898,0.456586250383,-0.124468499818,-1.49829418697,0.070752037054,1.94591525757,0.13913862386,-0.0496408958522,-0.30134904578,-0.000102482597275,-0.470417398499,-0.0219187676229,0.161961365256,-0.0747334910942,0.573759650033,0.819008654372,0.00233129978484,0.0,0.818968564539,-0.573697610636,-0.0119284848045,0.0,-0.00843223351882,0.0087535130374,-0.999926133996,0.0,0.644096714022,0.23820412733,0.303571715246,1.0,-0.0627228571429,-0.082435755102,1.188
0.450487249913,0.450558362104,-0.124500116175,-1.50735844594,0.0701363499426,1.94929057936,0.137669201671,-0.053460314646,-0.328523493104,-0.00116948715929,-0.487707474669,-0.0368592968504,0.189607795961,-0.0770855171683,0.573693116382,0.819054468799,0.00259465962304,0.0,0.819018179543,-0.573630478335,-0.0117491618448,0.0,-0.00813498429658,0.00886565736598,-0.999927608455,0.0,0.642930717529,0.236644369519,0.303689927407,1.0,-0.0670657142857,-0.0881435102041,1.207
0.449591669626,0.445584411889,-0.12454282472,-1.51493972746,0.0696269476779,1.95194930053,0.136549354836,-0.0643463884979,-0.329708871188,-0.000436577511644,-0.519343986318,-0.0403133532791,0.171590701519,-0.0760139230183,0.573742243654,0.81901996298,0.00262392624735,0.0,0.818984080935,-0.573679522939,-0.0117314550368,0.0,-0.00810315912308,0.00887995612696,-0.999927739985,0.0,0.641914780346,0.235315913222,0.303722231453,1.0,-0.0704942857143,-0.0926496326531,1.222
0.448583245986,0.440061645573,-0.124576935825,-1.52356524275,0.0690295393043,1.95482168247,0.135183276695,-0.062967752267,-0.348091441056,-0.000489087423123,-0.544621412319,-0.0430781347087,0.169453912994,-0.0904331836097,0.573692004834,0.819055804732,0.00241230717919,0.0,0.819016954849,-0.573629848927,-0.0118646951773,0.0,-0.00833423651346,0.00878257033477,-0.999926700794,0.0,0.640707403888,0.233807957379,0.303645580076,1.0,-0.0741514285714,-0.0974561632653,1.238
0.447349270471,0.433462974269,-0.124599282074,-1.53349113736,0.0683804763544,1.95837919122,0.133565485443,-0.0702776686396,-0.37954651414,-0.00325420065263,-0.556788688692,-0.0359670546488,0.2125782429,-0.0951713055794,0.573650477873,0.819084288202,0.00260863135804,0.0,0.819047835883,-0.573587418393,-0.0117840103005,0.0,-0.00815597659078,0.00889666829699,-0.999927162017,0.0,0.639370288123,0.232063807269,0.30373459822,1.0,-0.0782657142857,-0.102863510204,1.256
0.446076721037,0.427069172884,-0.124646061527,-1.54329753731,0.0676722653191,1.9618052215,0.132000810374,-0.074909311342,-0.388328963723,-0.00851582770533,-0.595174473892,-0.042722652161,0.200586398639,-0.0907506726398,0.573670362015,0.819070447815,0.00258150399014,0.0,0.819033916989,-0.573607698043,-0.0117642878558,0.0,-0.00815516697325,0.0088633332445,-0.999927464657,0.0,0.638031673886,0.230278069769,0.303720425392,1.0,-0.0821514285714,-0.10797044898,1.273
0.444883518779,0.421180484612,-0.124750195502,-1.5523909331,0.067013140807,1.96477953243,0.130482153944,-0.0845637666618,-0.390330076492,-0.00529111868381,-0.622567176082,-0.0417336887717,0.19493575093,-0.0930293188834,0.573680781887,0.819063848397,0.00234939221456,0.0,0.81902441249,-0.5736191163,-0.0118687851591,0.0,-0.00837379778383,0.00873327167092,-0.999926802059,0.0,0.636749045458,0.228567757809,0.303655477179,1.0,-0.08558,-0.112476571429,1.288
0.443371856844,0.413741171337,-0.124844128275,-1.56343809422,0.0662441820263,1.96876715341,0.128693933636,-0.0806828026898,-0.413611987028,-0.000440013655462,-0.619550383676,-0.0334782227116,0.223481782959,-0.110687049348,0.573770000083,0.81900047157,0.0026384606106,0.0,0.818965243074,-0.573707734854,-0.0116667264902,0.0,-0.0080415040606,0.00885499568066,-0.999928459073,0.0,0.635259067567,0.226506256507,0.303788486284,1.0,-0.0896942857143,-0.117883918367,1.306
0.44184151235,0.406545343978,-0.124867359267,-1.57440793437,0.0654928459931,1.97242079422,0.126848114886,-0.089866324889,-0.436017197789,-0.00414624545194,-0.661946600218,-0.0466608046391,0.215618552803,-0.109999609253,0.573765810982,0.819003716585,0.00254032864555,0.0,0.818966661883,-0.573703298857,-0.0117846725167,0.0,-0.00819445343444,0.00884225689551,-0.999927330072,0.0,0.633681875697,0.224467967325,0.303750580101,1.0,-0.09358,-0.122990857143,1.323
0.440320615903,0.399541807097,-0.124962176011,-1.5849729713,0.0647556253395,1.97604480185,0.125071207132,-0.0948161692315,-0.454330203697,-0.00854763968491,-0.661581037827,-0.0422528161221,0.240925281714,-0.10248217999,0.573842790217,0.818949679654,0.00257317141119,0.0,0.818913066065,-0.573780162501,-0.0117669983585,0.0,-0.00816030193681,0.0088597814386,-0.999927454241,0.0,0.632191657398,0.222442929859,0.303762023762,1.0,-0.0972371428571,-0.127797387755,1.339
0.438621277077,0.391830468714,-0.125005266707,-1.59649154731,0.0638656183243,1.98003332747,0.123087521642,-0.103649374044,-0.46027527034,-6.84146780714e-05,-0.701713581627,-0.0524371053559,0.226718270807,-0.121869736923,0.573838794627,0.818952167594,0.00267055696919,0.0,0.818917368923,-0.573776423629,-0.011649268854,0.0,-0.00800804553169,0.00887193869655,-0.999928577405,0.0,0.630553579941,0.220241351613,0.303812530479,1.0,-0.101122857143,-0.132904326531,1.356
0.436618554516,0.382971568048,-0.12506810954,-1.60990259168,0.0628486848112,1.98433377612,0.120692040649,-0.103173747874,-0.48346259405,-0.00529684871129,-0.689741227528,-0.0553359200852,0.230959609843,-0.131006076254,0.573784124061,0.81899124405,0.00242240523548,0.0,0.818953038012,-0.573722458974,-0.0117986652076,0.0,-0.00827337449626,0.00875389144765,-0.999927457698,0.0,0.628550128438,0.217644768283,0.303744270986,1.0,-0.105465714286,-0.138612081633,1.375
0.435073319054,0.376196789011,-0.125100244155,-1.61990814417,0.0621499835711,1.98777709584,0.118951895125,-0.113264358604,-0.483930018463,-0.00250149759648,-0.721489267585,-0.0510456007446,0.242331303919,-0.126483151902,0.573824325711,0.81896252116,0.00260366257888,0.0,0.81892643678,-0.573761734208,-0.0117350075937,0.0,-0.00811680572188,0.00886621164003,-0.999927751268,0.0,0.627090988956,0.215715955784,0.303809943926,1.0,-0.108665714286,-0.142817795918,1.389
0.432825567579,0.366841511858,-0.125196098249,-1.63400102978,0.0610621844355,1.99232159434,0.116488812906,-0.121129835301,-0.499283664138,-0.0102650292186,-0.752727696086,-0.0522423113268,0.242182467719,-0.129611766144,0.573918022457,0.818897504259,0.00239330721953,0.0,0.81885868295,-0.573856201603,-0.0118433162904,0.0,-0.00832520824818,0.00875704166261,-0.9999269999,0.0,0.624967973684,0.212898313284,0.303734595727,1.0,-0.113008571429,-0.14852555102,1.408
0.430890134997,0.358653576387,-0.125293965569,-1.64597775,0.060114581686,1.9963402839,0.114254673256,-0.12459465687,-0.506119678013,-0.00198863705152,-0.752196011424,-0.0591878352493,0.250381760549,-0.139936968642,0.573895427926,0.818912922534,0.00253180064838,0.0,0.818876467851,-0.573833698214,-0.0117031660256,0.0,-0.00813119791445,0.00878979467736,-0.999928308995,0.0,0.623182273722,0.210496713812,0.303822598536,1.0,-0.116665714286,-0.153332081633,1.424
0.428812364291,0.350378469103,-0.125311531661,-1.65839488021,0.0592136724734,2.00023942467,0.11195386429,-0.130971312413,-0.51261572434,-0.00279667987195,-0.776454982505,-0.0584687276519,0.243323408713,-0.147566313222,0.573893098311,0.818915110999,0.00234512013765,0.0,0.818875213614,-0.573830999687,-0.0119212091886,0.0,-0.00841691776474,0.00876202912677,-0.999926188446,0.0,0.621237369102,0.208015733488,0.303731324901,1.0,-0.120322857143,-0.158138612245,1.44
0.426522931311,0.341214718669,-0.125393703698,-1.67157086496,0.0581955626159,2.00465894729,0.109470758202,-0.13694248636,-0.531938731436,0.00191178416699,-0.801680357123,-0.0636732363861,0.2558184279,-0.152188892008,0.573940509943,0.818880934495,0.00265576132498,0.0,0.818845401041,-0.573877578298,-0.0117252386671,0.0,-0.00807764803893,0.00890441884467,-0.999927728852,0.0,0.619242349539,0.205316305085,0.303889863944,1.0,-0.124208571429,-0.16324555102,1.457
0.424028293258,0.331452269219,-0.125384880195,-1.68608133489,0.0570144393585,2.00918054577,0.106682328454,-0.139646777644,-0.545561512418,-0.000618488666463,-0.774917309478,-0.069877226602,0.248375471892,-0.146300157105,0.573811026491,0.818972365879,0.00243242787306,0.0,0.818933528043,-0.573748513555,-0.0118855685979,0.0,-0.00833851090008,0.00881223672023,-0.999926404152,0.0,0.616906445676,0.202400160239,0.303794280172,1.0,-0.128322857143,-0.168652897959,1.475
0.421849017956,0.322991795983,-0.125388196538,-1.69820435925,0.0560088636397,2.01313969473,0.104281176673,-0.149967810343,-0.559617083975,-6.16496680529e-05,-0.804430233931,-0.065650293754,0.259072314769,-0.15503570574,0.573710362975,0.819042242382,0.00264036187555,0.0,0.819006443593,-0.573647444239,-0.0117389084889,0.0,-0.00810018104366,0.00889737814168,-0.999927609244,0.0,0.614991905306,0.199922078922,0.303907379271,1.0,-0.131751428571,-0.173159020408,1.49
0.419079015354,0.312765147131,-0.125420441274,-1.71313483778,0.0548185541105,2.01779092627,0.101308344645,-0.160386659363,-0.575162945226,-0.00197553104602,-0.800645060506,-0.0639640948107,0.257580453242,-0.169670478071,0.573664846421,0.819074307167,0.00258267708839,0.0,0.819037240847,-0.573601580889,-0.0118309512905,0.0,-0.00820915862228,0.00890248097188,-0.999926675085,0.0,0.612565944352,0.196808201846,0.303878673376,1.0,-0.135865714286,-0.178566367347,1.508
0.416338590872,0.302822186148,-0.125486820665,-1.72736189566,0.0535810011254,2.02229838794,0.0983389777183,-0.164821563549,-0.574194969944,-0.00452549016275,-0.87273239834,-0.0688748433688,0.2590713851,-0.178616292466,0.573565242206,0.81914368732,0.00269802879503,0.0,0.81910875327,-0.57350226459,-0.0116940039226,0.0,-0.00803189850777,0.00891742488288,-0.999927981477,0.0,0.610266458409,0.193766735577,0.303959245197,1.0,-0.139751428571,-0.183673306122,1.525
0.413579892932,0.293310086837,-0.125563414715,-1.74109172537,0.0525063965045,2.02640405749,0.0956057380843,-0.174820852977,-0.601602261371,-0.00329926427639,-0.846674176924,-0.0569241681486,0.259215888915,-0.182074452464,0.573706467632,0.819045042982,0.00261791238615,0.0,0.819008160282,-0.573642765426,-0.0118472767394,0.0,-0.00820186469674,0.00894112304072,-0.999926390158,0.0,0.607978227598,0.190774093445,0.303938690795,1.0,-0.143408571429,-0.188479836735,1.541
0.410568502095,0.283041792207,-0.125686916427,-1.75574495307,0.0512585235897,2.03097481206,0.0924787984488,-0.176709044326,-0.607466212009,-0.00587869372843,-0.852542313416,-0.0768362617225,0.256098185316,-0.187605149667,0.573719624138,0.819035487889,0.00272201354669,0.0,0.819000273272,-0.573655883304,-0.0117569907991,0.0,-0.00806804894472,0.00897471897201,-0.999927177851,0.0,0.605562008387,0.187531028602,0.303980822047,1.0,-0.147294285714,-0.19358677551,1.558
0.407194326501,0.271886264223,-0.125768936471,-1.77160284124,0.0498805574475,2.03573100505,0.0890451759034,-0.185461423174,-0.627565577623,-0.00980047002903,-0.893478770343,-0.0824882178379,0.273037701295,-0.198665985598,0.573714773811,0.819038880927,0.00272336961857,0.0,0.819003650443,-0.573650991472,-0.0117604185535,0.0,-0.00807013174449,0.00897774837893,-0.999927133849,0.0,0.602875675223,0.183991403206,0.30400410235,1.0,-0.151408571429,-0.198994122449,1.576
0.404040536304,0.261873511362,-0.125934268636,-1.78584616329,0.0486183702936,2.04000696715,0.0859291643847,-0.19725679297,-0.62918679437,-0.0112012228351,-0.899340168015,-0.0898984295835,0.267897210968,-0.200946797724,0.573829781724,0.818958383046,0.00270098979982,0.0,0.818923163556,-0.573766400102,-0.0117352974331,0.0,-0.00806113821809,0.00894613851698,-0.999927489699,0.0,0.600461413919,0.180702490571,0.30399417097,1.0,-0.155065714286,-0.203800653061,1.592
0.400540487706,0.250995956133,-0.126065733256,-1.80108895736,0.0472360574143,2.04448513849,0.0825593318206,-0.206713869843,-0.644019370607,-0.000475548690486,-0.916789948102,-0.0797181772832,0.265838422369,-0.200341239206,0.573958067281,0.818868368117,0.00273488592776,0.0,0.818833877163,-0.573894870815,-0.0116835680969,0.0,-0.00799792131983,0.00894546763962,-0.99992800334,0.0,0.597832926973,0.177150808731,0.304044653023,1.0,-0.158951428571,-0.208907591837,1.609
0.39695047488,0.240035594784,-0.12608945851,-1.81662372413,0.0458688800246,2.04893226552,0.0789494853578,-0.214697061977,-0.647841379758,9.85046333517e-05,-0.918665809265,-0.071116862797,0.253199452922,-0.216243781925,0.573870678583,0.818929987096,0.00262057214676,0.0,0.818893259745,-0.573807076809,-0.011832778592,0.0,-0.00818667199533,0.00893662560547,-0.999926554865,0.0,0.595062868904,0.173607011698,0.303973633759,1.0,-0.162837142857,-0.214014530612,1.626
0.393693633911,0.230082119389,-0.126111821864,-1.83024219108,0.0446381324852,2.05299422515,0.075764985303,-0.217551819168,-0.649659346953,0.00265258787059,-0.926831153659,-0.0827509405223,0.263346512627,-0.212585268281,0.57383889703,0.818951234844,0.00292268788857,0.0,0.818918639833,-0.573774456705,-0.0116568035446,0.0,-0.00786954151488,0.00908274575031,-0.999927784415,0.0,0.592658686952,0.170464706484,0.304110191784,1.0,-0.166265714286,-0.218520653061,1.641
0.389604432926,0.218048606596,-0.126150883451,-1.84696770083,0.0430321011913,2.05764896872,0.0716978830389,-0.232344049269,-0.684166988905,-0.0059558645825,-0.926954235224,-0.0860172649745,0.269874850209,-0.230511565386,0.573693475487,0.819053433436,0.0028313002073,0.0,0.81901964549,-0.573629359548,-0.0117014985118,0.0,-0.00796018886616,0.00903213773835,-0.999927525314,0.0,0.589602985267,0.166543727316,0.304095289769,1.0,-0.17038,-0.223928,1.659
0.385547444415,0.206481400514,-0.126264248818,-1.86282413586,0.0415851166387,2.06208365821,0.0678119716362,-0.235200053024,-0.674740879026,-0.00355071796135,-0.929506558732,-0.0917113559733,0.257700727893,-0.243902758479,0.573745212343,0.819016821809,0.00293663227302,0.0,0.818984090691,-0.573680370804,-0.0116892365294,0.0,-0.00788914495084,0.0091118740383,-0.999927364934,0.0,0.586702989254,0.162722033647,0.304143500399,1.0,-0.174265714286,-0.229034938775,1.676
0.381594956471,0.195404309947,-0.126377661043,-1.87791710037,0.0401134829725,2.06617399904,0.063968298441,-0.249972534839,-0.700376726963,-0.00328980403498,-0.947352072062,-0.0888414584893,0.272315850331,-0.239249276881,0.573695710598,0.819051456523,0.00294789925868,0.0,0.819018965222,-0.573630945398,-0.011671331962,0.0,-0.00786856669864,0.00911035388654,-0.99992754093,0.0,0.583889112509,0.15904007556,0.304183363526,1.0,-0.177922857143,-0.233841469388,1.692
0.377102123657,0.183558962178,-0.126540796788,-1.89415259332,0.0386107005194,2.07046154666,0.0597814726314,-0.263327182685,-0.697309570419,-0.015829111334,-0.958064104879,-0.0864671912522,0.241689796395,-0.251043673164,0.573838424309,0.818951761778,0.00286732763583,0.0,0.818917356346,-0.573772928449,-0.0118210386868,0.0,-0.00803582019864,0.00913164639355,-0.999926016577,0.0,0.580826927258,0.154955687613,0.304136593319,1.0,-0.181808571429,-0.238948408163,1.709
0.372463767796,0.171481011098,-0.126667823014,-1.91035969986,0.0369769070194,2.07478850463,0.055482347917,-0.275130793265,-0.713968005369,-0.0040294907459,-0.961966146377,-0.102087479807,0.255311840705,-0.250860542283,0.573902266125,0.818906659555,0.00296964217394,0.0,0.818873943676,-0.573836811796,-0.0117270924795,0.0,-0.00789945622039,0.00916214394696,-0.999926824178,0.0,0.577754077899,0.150835530523,0.304204029579,1.0,-0.185694285714,-0.244055346939,1.726
0.367722938038,0.159273946034,-0.126703744688,-1.92674160049,0.0353142766176,2.07899598602,0.0509493041315,-0.283625263174,-0.729362681318,-0.000426531735009,-0.947639921311,-0.0981052278715,0.262982738766,-0.270148731633,0.573751037762,0.819012656999,0.00295993975168,0.0,0.818979601275,-0.57368538977,-0.0117572599092,0.0,-0.00793142319156,0.00917004690357,-0.999926498682,0.0,0.574552704772,0.146725329013,0.304213718416,1.0,-0.18958,-0.249162285714,1.743
0.363088818952,0.147684380754,-0.126779241241,-1.94230102521,0.0336735428413,2.08295674057,0.0466611330097,-0.292387452078,-0.734115533067,-0.00895395600047,-0.985026273185,-0.105840524883,0.238623718676,-0.26970135648,0.573713898388,0.819038930354,0.00288795141752,0.0,0.819005072485,-0.573648663135,-0.0117749492062,0.0,-0.00798762611948,0.00912087447753,-0.999926501038,0.0,0.571480371596,0.142751761022,0.304178054793,1.0,-0.193237142857,-0.253968816327,1.759
0.357633630979,0.134353315122,-0.12691893429,-1.95980077299,0.0318890916023,2.08734966679,0.0415858625311,-0.30671227389,-0.740503058915,-0.00706067008469,-0.977113391858,-0.104322128869,0.246099412313,-0.286378903288,0.573705155633,0.81904447241,0.00304852686428,0.0,0.81901259056,-0.573639234008,-0.0117112173109,0.0,-0.00784340419821,0.00921574506614,-0.999926772846,0.0,0.567999688375,0.138169568986,0.304259042897,1.0,-0.197351428571,-0.259376163265,1.777
0.35285085722,0.123245905805,-0.127085487869,-1.97454106162,0.0303170519918,2.09085285243,0.0372428215815,-0.325351820897,-0.751875460677,-0.00969157279571,-0.982889277583,-0.103299367218,0.230770106562,-0.297627436538,0.573784050962,0.818989731524,0.00290334648222,0.0,0.818955670705,-0.573718290614,-0.0118186012633,0.0,-0.00801376438462,0.00915921331846,-0.999925941454,0.0,0.565007412857,0.13419834633,0.304200249167,1.0,-0.20078,-0.263882285714,1.792
0.346827349584,0.109632844601,-0.127270688149,-1.99214583231,0.0283679064212,2.09512448409,0.0318116784676,-0.343347214422,-0.741940923776,-0.00457258394627,-0.976693196073,-0.108076406498,0.226542195967,-0.309888642358,0.573864856785,0.818932577289,0.00305072169599,0.0,0.818901167154,-0.573799428106,-0.0116551121919,0.0,-0.00779439876776,0.00918687572215,-0.999927421697,0.0,0.561439900696,0.129338412534,0.304288830229,1.0,-0.204894285714,-0.269289632653,1.81
0.341094248919,0.0966022535944,-0.127367488284,-2.00890988226,0.0265297383444,2.09900406066,0.0265373114703,-0.335273495651,-0.774992496268,-0.00436019659895,-0.992549850934,-0.103182741822,0.231835097719,-0.31575121591,0.573768951207,0.818999460018,0.0031340106453,0.0,0.818969113699,-0.573703241776,-0.0116158548208,0.0,-0.00771553530686,0.00923165249632,-0.999927620934,0.0,0.557930887438,0.124807822988,0.304343894548,1.0,-0.20878,-0.274396571429,1.827
0.335455494973,0.0843246536047,-0.127469266511,-2.02491176426,0.0248765589352,2.10245846004,0.0213830044414,-0.356953237755,-0.773933312736,-0.00887250403327,-0.995490843535,-0.114696313258,0.206796491139,-0.325550733818,0.573739320266,0.819020822716,0.0029717400567,0.0,0.818986626347,-0.573672138187,-0.011913464424,0.0,-0.00805272600143,0.00926921680521,-0.99992461477,0.0,0.554487580743,0.120439573104,0.304237773566,1.0,-0.212437142857,-0.279203102041,1.843
0.329192322768,0.0709790998592,-0.12763944625,-2.04168727999,0.022919053231,2.10624945975,0.0157340265955,-0.368208318939,-0.76107501216,-0.0102957251332,-1.00334134998,-0.10906938423,0.222566357307,-0.328119359446,0.573725742323,0.819029531267,0.00318534294399,0.0,0.818999051722,-0.573658910896,-0.0116941921249,0.0,-0.00775073755624,0.00931823131308,-0.999926545618,0.0,0.550920198262,0.115669197796,0.304358423019,1.0,-0.216322857143,-0.284310040816,1.86
0.322133219411,0.0567401981028,-0.127903173022,-2.05961937555,0.0208228173885,2.10995279894,0.00952616551967,-0.405596358934,-0.806983168685,-0.0110933358945,-0.988015710834,-0.108882758685,0.218856694376,-0.350749909268,0.573903158304,0.818905368986,0.00314776680984,0.0,0.818874344466,-0.573836361168,-0.0117211551826,0.0,-0.00779236388496,0.00930461260384,-0.999926348912,0.0,0.547012701012,0.11038038499,0.304383399372,1.0,-0.21998,-0.289116571429,1.878
0.316217023627,0.0449506079359,-0.127992850427,-2.07459777172,0.0191358583476,2.11301295338,0.00425346677794,-0.389833489214,-0.789079892003,-0.00961132596196,-1.01144005989,-0.11378797675,0.196020770415,-0.359306618834,0.573892193193,0.81891337832,0.00306207467279,0.0,0.818880282245,-0.573824568429,-0.0118825467938,0.0,-0.00797383638145,0.0093269529853,-0.999924710106,0.0,0.543667657832,0.106087740887,0.304296973459,1.0,-0.21998,-0.289116571429,1.893
0.308941763007,0.0307192325459,-0.128082070259,-2.0921483443,0.0170152028633,2.11651166121,-0.00222129828995,-0.410299631925,-0.771757447106,-0.00762027406024,-0.976022697286,-0.125400386434,0.195872961773,-0.369948189669,0.573812622707,0.818968761576,0.00316045648213,0.0,0.818937219473,-0.573744979823,-0.011801507993,0.0,-0.00785192151902,0.00936024991092,-0.99992536374,0.0,0.53971343552,0.100930593528,0.304362060226,1.0,-0.21998,-0.289116571429,1.911
0.302309168402,0.0182181771064,-0.128208702781,-2.10751404499,0.0151602335475,2.11938020279,-0.00809328063084,-0.422748849708,-0.779108236725,-0.00769798276392,-0.940551704575,-0.113875559298,0.175966901222,-0.370727957855,0.573805551722,0.818973748293,0.00315203452372,0.0,0.818941757094,-0.573737535577,-0.0118484454436,0.0,-0.00789527726525,0.00938021706433,-0.999924835237,0.0,0.53618346946,0.0963054684202,0.304374031648,1.0,-0.21998,-0.289116571429,1.927
0.295458459774,0.0057660211222,-0.128395357712,-2.12259363842,0.013294954657,2.12212128189,-0.0140525486462,-0.430038439823,-0.791080464656,-0.0117554779876,-0.943393550894,-0.112177807221,0.163851083495,-0.38310919385,0.573924784234,0.818889933176,0.00321967180643,0.0,0.818858868549,-0.573856567758,-0.0118127025228,0.0,-0.00782582403874,0.00941624085094,-0.999925042634,0.0,0.532692146064,0.0916051421852,0.30443149707,1.0,-0.21998,-0.289116571429,1.943
0.287731035471,-0.00817507124534,-0.128463943542,-2.13929805275,0.0112405341398,2.12514400481,-0.0209089693398,-0.428812413128,-0.78590937594,-0.000101037038012,-0.910298428056,-0.119589026513,0.167785882279,-0.374733377595,0.573825811207,0.818958483835,0.00341863242939,0.0,0.818930137522,-0.573757094687,-0.0117035488379,0.0,-0.00762340277544,0.00951560273631,-0.999925665755,0.0,0.528759553274,0.0864750890859,0.304516533709,1.0,-0.21998,-0.289116571429,1.961
0.2802453766,-0.021121457943,-0.128558509512,-2.15499708446,0.00921738622906,2.12767134272,-0.0275035163851,-0.442271622045,-0.760483099239,-0.012004605042,-0.920694884707,-0.121852730556,0.143773478895,-0.39696447198,0.573749276985,0.819012909362,0.00321999350978,0.0,0.818981350924,-0.573680485428,-0.011874105396,0.0,-0.00787794984162,0.00945005596325,-0.99992431431,0.0,0.524954831554,0.0815703870585,0.304432462443,1.0,-0.21998,-0.289116571429,1.978
0.272993161267,-0.0333377889028,-0.128750733617,-2.16928823148,0.00734199577998,2.13004906592,-0.0337455886582,-0.464079674536,-0.744021145774,-0.0157676813675,-0.907939914015,-0.123879052048,0.143263928568,-0.400230084545,0.573891482134,0.818912469672,0.00341769664095,0.0,0.818884231528,-0.573822909779,-0.0116889036608,0.0,-0.00761118287221,0.00950704317387,-0.999925840263,0.0,0.521508894124,0.0768873111451,0.304542756999,1.0,-0.21998,-0.289116571429,1.994
0.265127224177,-0.0461046303027,-0.128894127832,-2.18450274181,0.00550613539202,2.1322577357,-0.040601857599,-0.456540562321,-0.755388234978,-0.00524676499107,-0.881941968875,-0.10209485715,0.131587779513,-0.405788643958,0.57398538741,0.818847011355,0.00333075604422,0.0,0.818815736974,-0.573914757739,-0.0119744158039,0.0,-0.00789379652556,0.00960060000053,-0.999922755245,0.0,0.517710273111,0.0719404247303,0.304457550933,1.0,-0.21998,-0.289116571429,2.011
0.256746561886,-0.059587335763,-0.128968504803,-2.20009342316,0.00335893577299,2.13460685953,-0.0479346888676,-0.475508285536,-0.735669999899,-0.00640901911891,-0.878054496541,-0.110515515897,0.115816001589,-0.413471541334,0.573890049825,0.81891332824,0.00345230978286,0.0,0.818884610207,-0.573820200371,-0.0117949019668,0.0,-0.00767814516264,0.00959620498494,-0.999924476616,0.0,0.513805456356,0.0667938198224,0.304530636846,1.0,-0.21998,-0.289116571429,2.029
0.249617589799,-0.0707421998778,-0.129100744779,-2.21305835506,0.00162153356057,2.13629216877,-0.0542016667661,-0.47971487005,-0.75358355605,-0.0140470739808,-0.83922810234,-0.110542288288,0.118750610511,-0.4096176583,0.573861253391,0.818933856305,0.00336864281723,0.0,0.818903411554,-0.573790912806,-0.0119137663145,0.0,-0.0078238405872,0.00959562671073,-0.999923352796,0.0,0.510465243685,0.0624591208495,0.304495459938,1.0,-0.21998,-0.289116571429,2.044
0.24079648289,-0.0840593621307,-0.129289882919,-2.22827273664,-0.000406806979967,2.13826487924,-0.0618654753878,-0.485169731898,-0.727264296276,-0.00761091296413,-0.85166772699,-0.111326339113,0.110472609784,-0.420765377045,0.573955872891,0.818867170111,0.00345840853464,0.0,0.818837551022,-0.573884770122,-0.0119198388822,0.0,-0.00777618646245,0.00967352255058,-0.999922973976,0.0,0.506521172351,0.0572042696658,0.304518465008,1.0,-0.21998,-0.289116571429,2.062
0.232456230324,-0.0965681541575,-0.129356154259,-2.24239969984,-0.00236081738976,2.13993147423,-0.0692190103592,-0.50451374948,-0.735894231479,-0.00384737938659,-0.801989582959,-0.124935974564,0.10560544306,-0.437938335044,0.573827908089,0.81895667791,0.00349835745924,0.0,0.818927516243,-0.573756601677,-0.0119093271732,0.0,-0.00774616646834,0.00969899221922,-0.99992296026,0.0,0.502773209626,0.0523709735547,0.304547906204,1.0,-0.21998,-0.289116571429,2.079
0.224395479465,-0.108215582804,-0.129484138109,-2.25552134211,-0.00420760625578,2.14135319594,-0.0762296252374,-0.506181430328,-0.727165445599,-0.0073944400244,-0.798800866902,-0.11148701453,0.0913675350993,-0.442659380005,0.573838746141,0.81894922576,0.00346496114413,0.0,0.818919316749,-0.573767169894,-0.0119638751798,0.0,-0.00780987573043,0.00970304555857,-0.999922425365,0.0,0.499235578329,0.0477545075216,0.304533915198,1.0,-0.21998,-0.289116571429,2.095
0.215547328337,-0.120564530851,-0.129695024949,-2.26915989462,-0.0061794434309,2.14275199966,-0.0838642102308,-0.520294357061,-0.733499033276,-0.0106054203805,-0.778619644257,-0.110870973227,0.0906342014021,-0.453214130538,0.573969156081,0.818857507792,0.00354072050982,0.0,0.818828869877,-0.573897642919,-0.0118963947861,0.0,-0.0077095894649,0.00972759513572,-0.999922965094,0.0,0.495520380358,0.0427529175674,0.304586032286,1.0,-0.21998,-0.289116571429,2.112
0.206702329049,-0.132759668083,-0.129784926368,-2.28264688351,-0.00804352121228,2.14397550309,-0.0916604193107,-0.528559927708,-0.717584653066,-0.0041128982102,-0.806890606376,-0.113989462766,0.0692998002563,-0.451299606334,0.573895920229,0.818908783071,0.00355311896811,0.0,0.818879459758,-0.57382330575,-0.0119996277398,0.0,-0.00778788801869,0.00979630215438,-0.999921687566,0.0,0.491754597424,0.0379053000475,0.304568979584,1.0,-0.21998,-0.289116571429,2.129
0.19711469715,-0.145638410135,-0.129945765168,-2.29654310227,-0.0100947819656,2.1452156744,-0.100109340442,-0.535158338465,-0.712137362781,-0.01366095454,-0.782298469578,-0.112066065747,0.0736892618336,-0.469966884489,0.573843183655,0.818945030146,0.00371282547106,0.0,0.818918482102,-0.573770894586,-0.0118417523552,0.0,-0.0075675787469,0.00983599964412,-0.999922989466,0.0,0.487841867896,0.0327147443654,0.304651451152,1.0,-0.21998,-0.289116571429,2.147
0.18836626139,-0.156940144296,-0.130130559578,-2.30881720051,-0.0119181352083,2.14607830785,-0.107736699686,-0.541808513642,-0.702892980079,-0.0127650869892,-0.779694423203,-0.118081603901,0.0523641657124,-0.480416011585,0.57390215171,0.818903964582,0.00365567449455,0.0,0.818876172376,-0.573829409141,-0.0119319076755,0.0,-0.00767350070395,0.00984148170554,-0.99992212828,0.0,0.484293438856,0.0280440318013,0.304624234839,1.0,-0.21998,-0.289116571429,2.163
0.178499420206,-0.169575009016,-0.130221538472,-2.3222102114,-0.0138330775033,2.14695531173,-0.116453463759,-0.551321285595,-0.702850405566,-0.00847447190081,-0.741452243283,-0.10009284373,0.0503485010541,-0.490553346594,0.573830715924,0.81895329659,0.00381501875936,0.0,0.818927358613,-0.573757131429,-0.0118946353818,0.0,-0.00755240204505,0.00994992193925,-0.999921977095,0.0,0.480365234645,0.0229398949061,0.304688065064,1.0,-0.21998,-0.289116571429,2.181
0.170040968485,-0.179968374438,-0.13038239037,-2.33330832162,-0.0155673656256,2.14754008607,-0.123866084023,-0.56966614964,-0.693748643667,-0.0114331597532,-0.738753281293,-0.120595562121,0.0325450361419,-0.495667591014,0.57383492102,0.818950770264,0.00372373509722,0.0,0.818923419208,-0.57376136887,-0.0119612693885,0.0,-0.00765930289766,0.0099134388173,-0.999921526326,0.0,0.477041802877,0.0185835464994,0.304652665482,1.0,-0.21998,-0.289116571429,2.196
0.159648124172,-0.192452407761,-0.130569670576,-2.34626813737,-0.0175284571188,2.14818427581,-0.132982405104,-0.570794100647,-0.696092569443,-0.00498791076386,-0.707731351234,-0.110417193285,0.044776303824,-0.51424061554,0.573895021696,0.818907889995,0.00388827432741,0.0,0.818882989295,-0.573821284289,-0.0118545536213,0.0,-0.00747675687538,0.00998750330251,-0.999922170914,0.0,0.473116001998,0.0133450681721,0.304727185521,1.0,-0.21998,-0.289116571429,2.214
0.150359951584,-0.203346128634,-0.130723034688,-2.35766356334,-0.0192534592311,2.14859596596,-0.141263175096,-0.590487833557,-0.687735794374,-0.00973783967776,-0.703753013476,-0.112026084684,0.019517241053,-0.516956883871,0.573828697179,0.818954383978,0.00388460522486,0.0,0.818928801229,-0.573754137584,-0.0119396408881,0.0,-0.00754935827636,0.0100327168366,-0.999921172784,0.0,0.469580597912,0.00874987245159,0.304699320635,1.0,-0.21998,-0.289116571429,2.23
0.14020005278,-0.214877260001,-0.130946918714,-2.36948490073,-0.0210461490614,2.14886770215,-0.15015351603,-0.606247793469,-0.68448445229,-0.0177268661802,-0.680398801687,-0.106599332597,0.0202713043306,-0.527565048793,0.573977526172,0.818849713934,0.00396135603609,0.0,0.818824526615,-0.573901859331,-0.0119915541994,0.0,-0.00754599641504,0.0101267330663,-0.999920250428,0.0,0.465840175095,0.00378815549702,0.304722242741,1.0,-0.21998,-0.289116571429,2.247
0.13005004046,-0.226255371338,-0.131032842589,-2.38109713281,-0.0229294644264,2.1491232508,-0.159213069034,-0.595149998496,-0.66056406862,-0.00662122947079,-0.69121092828,-0.112369659733,0.00816715666557,-0.532711506591,0.573817692445,0.81896169501,0.0039679773689,0.0,0.818937011209,-0.573742587428,-0.0119315524731,0.0,-0.00749503113756,0.0100962538186,-0.999920941958,0.0,0.462113118293,-0.00103663886431,0.304727144837,1.0,-0.21998,-0.289116571429,2.264
0.119624326086,-0.237525809113,-0.131208734809,-2.39253462167,-0.0247703996663,2.14917381336,-0.168478026768,-0.621671693805,-0.6643669999,-0.00810846316558,-0.663856207843,-0.11356491249,0.00311171913614,-0.553453960329,0.573794935533,0.81897782451,0.00392960791003,0.0,0.818952179194,-0.573719354041,-0.012007409979,0.0,-0.00757945631888,0.0101081466093,-0.999920185422,0.0,0.458349051907,-0.00594184617202,0.3047016303,1.0,-0.21998,-0.289116571429,2.281
0.109527264329,-0.248097820234,-0.131404718267,-2.40287954414,-0.0263977168911,2.14922853807,-0.177402553825,-0.629062279968,-0.648260514085,-0.00284052349102,-0.657030306572,-0.0959047785934,0.00198294883147,-0.559151134237,0.573907255601,0.818897820271,0.00419151811485,0.0,0.818876334682,-0.573831764797,-0.0118068246754,0.0,-0.00726349659882,0.0102085538838,-0.999921510442,0.0,0.454904876262,-0.0106177433297,0.304814259322,1.0,-0.21998,-0.289116571429,2.297
0.0982526735914,-0.259759665534,-0.13155599277,-2.4146284415,-0.0282506736185,2.14912016246,-0.187595059586,-0.636542618917,-0.644605177569,-0.0137358566162,-0.658899797868,-0.104893881025,-0.0115190411969,-0.57395831506,0.573757924841,0.819002671294,0.00414909592926,0.0,0.818979604927,-0.573681170006,-0.011961136899,0.0,-0.00741608764746,0.0102610195873,-0.999919853349,0.0,0.450894590276,-0.0157197654438,0.304730673468,1.0,-0.21998,-0.289116571429,2.315
0.0877746698298,-0.270058048608,-0.131783395006,-2.42455735271,-0.0299572020884,2.14900162705,-0.19683262259,-0.666502917391,-0.645369664628,-0.0124463007678,-0.613492883688,-0.108747565648,-0.00120310291174,-0.584625504609,0.573899862254,0.818902347302,0.00431747479573,0.0,0.818882750193,-0.57382431912,-0.0117234433482,0.0,-0.00712302038154,0.010263785767,-0.999921955596,0.0,0.447447016486,-0.0204398620775,0.304818623256,1.0,-0.21998,-0.289116571429,2.331
0.0773995297583,-0.280179348497,-0.131883116766,-2.43445664715,-0.0316045520541,2.14869877048,-0.206225937315,-0.648795507385,-0.633579596798,-0.00507797696486,-0.61550227656,-0.103333623825,-0.0218115196101,-0.597746852958,0.573745802785,0.819010380402,0.00430086983067,0.0,0.818990390931,-0.573670083402,-0.0117525262305,0.0,-0.00715829844368,0.0102655313041,-0.999921685749,0.0,0.443923989373,-0.0249761860966,0.304794050453,1.0,-0.21998,-0.289116571429,2.347
0.0660907597901,-0.290839875837,-0.132105069001,-2.44475640501,-0.0332572072536,2.14824355127,-0.216437113963,-0.679432925793,-0.621295477092,-0.0198780598696,-0.599496985148,-0.0979071316159,-0.0311323238389,-0.608854346429,0.573755915852,0.819002961466,0.00436406176926,0.0,0.818982957621,-0.573678783328,-0.0118454880356,0.0,-0.00719805871997,0.01037071072,-0.99992031498,0.0,0.440167217809,-0.0298809216159,0.304776394301,1.0,-0.21998,-0.289116571429,2.364
0.0544598896724,-0.301419055623,-0.132293536609,-2.45460011427,-0.035003749472,2.14780618216,-0.226782992282,-0.676268252313,-0.609655752463,-0.00413953795368,-0.583570861841,-0.103348444612,-0.0305624184981,-0.60375827241,0.573851826816,0.818934743479,0.00455122884076,0.0,0.818918791969,-0.573776483112,-0.011545842955,0.0,-0.00684403562942,0.0103528892213,-0.999922985465,0.0,0.436510054572,-0.0348561571479,0.30489496623,1.0,-0.21998,-0.289116571429,2.381
0.0436049191707,-0.311141919121,-0.132475710948,-2.46393588913,-0.0365632366074,2.14713742123,-0.236677141685,-0.686638159149,-0.610236314901,-0.015532554848,-0.580402103992,-0.103450929437,-0.0429248385277,-0.61697000722,0.573768464267,0.818993588963,0.00447186210771,0.0,0.818975296869,-0.573691422482,-0.0117627288296,0.0,-0.00706826665252,0.0104116279095,-0.99992081567,0.0,0.432937526014,-0.0394041837921,0.304818693224,1.0,-0.21998,-0.289116571429,2.397
0.0322838779194,-0.320766953318,-0.132714914298,-2.47292825841,-0.0381600591792,2.14647134569,-0.246785036089,-0.714584300648,-0.606034309486,-0.0124109542501,-0.542433686121,-0.0986909970772,-0.0335575121285,-0.637455885569,0.573920051518,0.818887215615,0.00449994100964,0.0,0.818869306801,-0.573842921139,-0.0117518993757,0.0,-0.00704135643197,0.0104297150747,-0.999920817037,0.0,0.429415396376,-0.0441192685449,0.304824593181,1.0,-0.21998,-0.289116571429,2.413
0.0196899986851,-0.331433034703,-0.132856240244,-2.48271042964,-0.0397992673583,2.14575648877,-0.258399996895,-0.702017949352,-0.580100227126,-0.0100467985113,-0.557344261235,-0.094128055651,-0.0496199666556,-0.643065399449,0.573749241536,0.819005832733,0.00469048904823,0.0,0.818990879769,-0.573672270357,-0.0116108561566,0.0,-0.00681868669473,0.0105033898884,-0.999921589082,0.0,0.425306753558,-0.0494961697235,0.304877101181,1.0,-0.21998,-0.289116571429,2.432
0.00733793663027,-0.341350284754,-0.133133269184,-2.49185602128,-0.0414387389866,2.14478738881,-0.269496735254,-0.736607760548,-0.588009820402,-0.019091220984,-0.538694910191,-0.106204769312,-0.0589016615007,-0.657044497856,0.573915936077,0.818889188976,0.00466276694822,0.0,0.81887321906,-0.573838017116,-0.0117187081195,0.0,-0.00692078369455,0.0105439713248,-0.999920460548,0.0,0.4217410254,-0.0542038771903,0.304853995482,1.0,-0.21998,-0.289116571429,2.448
-0.00501705609675,-0.351103653823,-0.133270486251,-2.50063867827,-0.043011851388,2.14381907643,-0.280850302257,-0.735281864547,-0.579434194946,-0.0166108136447,-0.502187821313,-0.080010747697,-0.0516726317234,-0.662993723311,0.573802682687,0.818968233225,0.00471817874957,0.0,0.818953237857,-0.573724998819,-0.0116604817753,0.0,-0.00684275880489,0.0105549867041,-0.999920881324,0.0,0.418028276166,-0.0590625508697,0.304891369927,1.0,-0.21998,-0.289116571429,2.465
-0.0176641237172,-0.360647011767,-0.133554047131,-2.50918676924,-0.0446201303284,2.14283584297,-0.292397436127,-0.762135078743,-0.553524872766,-0.0158421015914,-0.504120989,-0.098368219392,-0.0701942812544,-0.678208304685,0.573866922697,0.818922912955,0.00477122345881,0.0,0.818908952678,-0.573789605282,-0.011591505271,0.0,-0.0067550008916,0.0105593823658,-0.999921431617,0.0,0.414307964911,-0.0640310854459,0.304913090225,1.0,-0.21998,-0.289116571429,2.482
-0.0303794292688,-0.370045352722,-0.133689008081,-2.5176586419,-0.0460801673895,2.14170370239,-0.304165775009,-0.742193326706,-0.552223466491,-0.0218682475156,-0.501017429831,-0.0863230845637,-0.068355818652,-0.687639950688,0.573752989525,0.819002715791,0.00477550401938,0.0,0.818987821779,-0.573674138226,-0.0117336187879,0.0,-0.00687041477723,0.0106434834123,-0.999919753611,0.0,0.410531407503,-0.0688654165616,0.304870837638,1.0,-0.21998,-0.289116571429,2.499
-0.0441633043842,-0.379735678259,-0.133951080748,-2.52615164589,-0.0477294962189,2.14044502284,-0.31675050806,-0.772643971649,-0.537749580474,-0.02280305263,-0.452088136152,-0.0957365390468,-0.0623211010176,-0.707233276954,0.57384723791,0.818936651668,0.00478069021981,0.0,0.818921991342,-0.5737686122,-0.011708913368,0.0,-0.00684598012179,0.010634344694,-0.999920018436,0.0,0.406586608273,-0.0741111757529,0.304896839961,1.0,-0.21998,-0.289116571429,2.517
-0.0572789109402,-0.388683400405,-0.134102708473,-2.53394585477,-0.0491598953393,2.13934581642,-0.328943295447,-0.771610376247,-0.518864787951,-0.0152036374005,-0.459642467607,-0.0817045039909,-0.0728125274274,-0.723876272566,0.573750545215,0.81900381599,0.0048793606898,0.0,0.818990938276,-0.573672418163,-0.0115994207908,0.0,-0.00670094425886,0.0106515312674,-0.999920817979,0.0,0.402896561628,-0.0789843667094,0.304923592974,1.0,-0.21998,-0.289116571429,2.534
-0.0682972654181,-0.395931207323,-0.134309720694,-2.54029153498,-0.0503941603162,2.13823221346,-0.339105108808,-0.80214337035,-0.511808592307,-0.0193718753709,-0.446135539103,-0.0803600173819,-0.0725849221412,-0.724607944434,0.573784681527,0.818980247744,0.00482078315337,0.0,0.818965886924,-0.573705593069,-0.0117266976017,0.0,-0.00683835510855,0.0106768619623,-0.999919617528,0.0,0.399769994139,-0.0830549851606,0.304891027981,1.0,-0.21998,-0.289116571429,2.548
-0.082485884509,-0.405027282444,-0.13447027187,-2.54816995505,-0.0518590460739,2.13682457593,-0.352342723229,-0.782935271928,-0.49873047045,-0.0180981910016,-0.42205513257,-0.0690958723111,-0.0705971096034,-0.741280706601,0.573685299617,0.819049894159,0.00481609623181,0.0,0.819034785439,-0.573605174966,-0.0118266814936,0.0,-0.00692423781696,0.0107295502371,-0.999918462517,0.0,0.395797776869,-0.0881812651353,0.304866772508,1.0,-0.21998,-0.289116571429,2.566
-0.096254558078,-0.413384970587,-0.134751969383,-2.55515666243,-0.0531448322284,2.13561144612,-0.365100095394,-0.830792787578,-0.482763924323,-0.0186406426195,-0.413561003251,-0.0751814550786,-0.0719878744684,-0.757618721539,0.573838060963,0.818941518484,0.00504142779464,0.0,0.818930007177,-0.573758236569,-0.0116565954155,0.0,-0.00665363733182,0.0108177828865,-0.99991934909,0.0,0.392118694665,-0.0931591325763,0.304939727148,1.0,-0.21998,-0.289116571429,2.583
-0.109238149927,-0.421102130603,-0.134882504741,-2.5616379312,-0.054465946341,2.13431663233,-0.377292331021,-0.816181541145,-0.487136708779,-0.0149386531408,-0.403014349748,-0.0773606300065,-0.0876615955109,-0.769887372347,0.573699220845,0.819038915136,0.00502059710297,0.0,0.819027474566,-0.573620039167,-0.0116100591169,0.0,-0.00662930275151,0.010772896247,-0.999919995325,0.0,0.388605583126,-0.0977448197933,0.304961712674,1.0,-0.21998,-0.289116571429,2.599
-0.12409812078,-0.429454159732,-0.135172608537,-2.56876737139,-0.0558429412281,2.13276194351,-0.39113355342,-0.840694714157,-0.463112071785,-0.0187541776971,-0.392530061862,-0.0828546879807,-0.0755680575424,-0.76095250123,0.573805928137,0.818964297849,0.00499825823848,0.0,0.81895099827,-0.573724277037,-0.0118517202314,0.0,-0.00683864530843,0.0108941256471,-0.999917272056,0.0,0.38458278362,-0.102955903508,0.304895958609,1.0,-0.21998,-0.289116571429,2.617
-0.137344006724,-0.436612495433,-0.135308359103,-2.57479008542,-0.0570423343119,2.13149007881,-0.403659979337,-0.828998956003,-0.439476857329,-0.0126686053179,-0.366085895953,-0.0749035623411,-0.0828841940791,-0.788382150886,0.57365746363,0.819068409098,0.00498021496279,0.0,0.819054576052,-0.573575427592,-0.0118986222735,0.0,-0.00688938933133,0.0109050112844,-0.999916805061,0.0,0.38086328245,-0.107801696552,0.304865567921,1.0,-0.21998,-0.289116571429,2.634
-0.151849416007,-0.444093692014,-0.135557854345,-2.58070216233,-0.058267638016,2.13014801357,-0.417183559875,-0.855773351002,-0.446726615768,-0.00924294181907,-0.339333760644,-0.0734553585981,-0.0743240156317,-0.803142598957,0.573836969498,0.818941500207,0.00516706657987,0.0,0.818931663681,-0.573756827662,-0.0116094717491,0.0,-0.00654296445394,0.0108936282527,-0.99991925598,0.0,0.377406452924,-0.1125240464,0.304994936674,1.0,-0.21998,-0.289116571429,2.65
-0.165358062906,-0.450845714567,-0.135691549015,-2.58626000264,-0.0593488259082,2.12881858253,-0.43004026622,-0.850625827398,-0.417609040557,-0.00981691393416,-0.352367414421,-0.06863464806,-0.0879221926143,-0.803820816985,0.573718402615,0.819024351892,0.00520119304579,0.0,0.81901454348,-0.573637483718,-0.0116602634107,0.0,-0.00656656681852,0.0109497712631,-0.999918488033,0.0,0.37390236839,-0.117061170156,0.304984407736,1.0,-0.21998,-0.289116571429,2.666
-0.180932628146,-0.458177727075,-0.135951169804,-2.59231654163,-0.0606223046379,2.12721155113,-0.444771583886,-0.866486683254,-0.400342865188,-0.0095259988393,-0.321703627262,-0.0728959847105,-0.0902918089231,-0.825654748358,0.573735828612,0.819012445897,0.00515357488712,0.0,0.819000665662,-0.573652836887,-0.0118776798702,0.0,-0.00677173516485,0.0110356442358,-0.999916175566,0.0,0.369873704344,-0.122275364844,0.304930438273,1.0,-0.21998,-0.289116571429,2.684
-0.194816678904,-0.464368392422,-0.136120603357,-2.59736636607,-0.0616938627508,2.12597954367,-0.458044129181,-0.87079586137,-0.386599927394,-0.00986974482988,-0.314360774726,-0.058050663283,-0.0824587141332,-0.82772298021,0.57363314765,0.819084264887,0.00516970343847,0.0,0.81907269261,-0.573550114031,-0.0118717233643,0.0,-0.0067589879396,0.0110445895994,-0.999916163047,0.0,0.366378070321,-0.12687001631,0.304912799067,1.0,-0.21998,-0.289116571429,2.7
-0.209866447098,-0.470717272966,-0.13631067744,-2.60242339267,-0.0627668995883,2.12462583067,-0.472225144898,-0.876892133255,-0.37306119257,-0.00608026458102,-0.287868990085,-0.0631743711879,-0.0777542901542,-0.833776457844,0.573751351484,0.8190011143,0.00522573885288,0.0,0.818990374592,-0.573668269172,-0.011841882084,0.0,-0.00670080307053,0.0110743388858,-0.999916225619,0.0,0.362650791407,-0.131812242916,0.304929551934,1.0,-0.21998,-0.289116571429,2.717
-0.224927226105,-0.476889204856,-0.136563254853,-2.60713008196,-0.0638294767071,2.12330768153,-0.486644406046,-0.899315460415,-0.357681169127,-0.0196986370065,-0.27602017718,-0.0698738867702,-0.0787001935829,-0.84753338153,0.57374766997,0.819002866942,0.00535369450355,0.0,0.818995024526,-0.57366624165,-0.0116163632117,0.0,-0.00644272501142,0.0110497232289,-0.999918194109,0.0,0.358965496106,-0.136743910206,0.305027074323,1.0,-0.21998,-0.289116571429,2.734
-0.239233138472,-0.48235337023,-0.136705845418,-2.6115170498,-0.0647757261779,2.12202903383,-0.500411062026,-0.889048458475,-0.341137031247,-0.008198140791,-0.27074033093,-0.055891901526,-0.0711919806433,-0.865853252708,0.573646959263,0.819073448448,0.00534781043281,0.0,0.819064895112,-0.573564484551,-0.0117143739794,0.0,-0.00652774423667,0.01110033252,-0.999917082149,0.0,0.35543096066,-0.141323159566,0.304996204245,1.0,-0.21998,-0.289116571429,2.75
-0.254635878521,-0.487781023448,-0.136897038147,-2.61589325118,-0.0656723636458,2.12068071512,-0.515093513427,-0.913099643523,-0.30783410125,-0.0116960641698,-0.251743001188,-0.0654494253478,-0.0738864340503,-0.865647552358,0.573749670512,0.819001239656,0.00538812876225,0.0,0.818991795534,-0.573664639146,-0.0119192089901,0.0,-0.00667099643393,0.0112516921104,-0.999914444956,0.0,0.351665763104,-0.146219515496,0.304940157862,1.0,-0.216322857143,-0.284310040816,2.767
-0.270753182783,-0.493065863566,-0.136943782835,-2.62011022081,-0.0665056847094,2.11945073512,-0.53060482611,-0.889576693483,-0.283333824056,-0.00669572813212,-0.22315914866,-0.0384667245727,-0.0638006766899,-0.859566718905,0.573688306496,0.819043821678,0.00544904237219,0.0,0.81903467914,-0.573602226561,-0.0119760991856,0.0,-0.00668349588642,0.0113337209404,-0.999913435079,0.0,0.347818931279,-0.151264228842,0.304907552469,1.0,-0.212208571429,-0.278902693878,2.785
-0.28516153641,-0.497496770518,-0.137027728591,-2.62354892881,-0.0672938344709,2.11836624044,-0.544309726267,-0.893919258948,-0.274249312284,0.00507459429122,-0.216494016928,-0.048907493912,-0.0685969735378,-0.856044492483,0.573793732816,0.818969874484,0.00546294517437,0.0,0.818960972625,-0.573707681188,-0.0119653150724,0.0,-0.00666522730085,0.011339780019,-0.999913488325,0.0,0.344409950563,-0.155772053453,0.304911847568,1.0,-0.208551428571,-0.274096163265,2.801
-0.300150325696,-0.501858475068,-0.136988279846,-2.62688652931,-0.0679083120046,2.11723369838,-0.558710930282,-0.893752842173,-0.248955719312,-0.000731209366847,-0.193110170923,-0.0398955281198,-0.0651884587817,-0.853632972231,0.57379477698,0.818968498094,0.00555877164577,0.0,0.818960581239,-0.573707907014,-0.0119812648643,0.0,-0.00662329476367,0.011427422072,-0.999912769191,0.0,0.34089673419,-0.160366746646,0.304929451329,1.0,-0.204665714286,-0.26898922449,2.818
-0.315107633473,-0.505795477511,-0.136950331338,-2.62987553073,-0.0685504310599,2.11625565418,-0.573030754307,-0.86660750337,-0.224591725284,0.0142041867805,-0.166901411871,-0.0407017583502,-0.053790684301,-0.838717513042,0.573844644498,0.818933272401,0.00560055691065,0.0,0.818926343263,-0.573758376093,-0.0119044980476,0.0,-0.00653574893755,0.0114179958729,-0.999913452933,0.0,0.337451146364,-0.164954085376,0.30495489906,1.0,-0.20078,-0.263882285714,2.835
-0.328981621555,-0.509228636791,-0.1369153244,-2.6324480536,-0.0690289456459,2.11542190869,-0.586342538895,-0.866674544711,-0.208253420655,0.00239869365995,-0.15930296513,-0.0319063306659,-0.0557807387411,-0.827665640995,0.57392818553,0.818873897226,0.00572059414669,0.0,0.81886905672,-0.573842394025,-0.0117949848537,0.0,-0.00637600853237,0.0114541123154,-0.999914071221,0.0,0.334275600724,-0.16917480451,0.304990486656,1.0,-0.197122857143,-0.259075755102,2.851
-0.343486434,-0.512529966936,-0.136788333889,-2.63499696793,-0.0695530500437,2.11449819402,-0.600388625859,-0.837897779599,-0.18199507871,0.00579353277095,-0.142158808602,-0.0190069109636,-0.0551544255819,-0.816589035203,0.573827402382,0.818944489793,0.00572554061771,0.0,0.818939165343,-0.573740630315,-0.0118776889243,0.0,-0.00644231664766,0.01150483434,-0.999913063893,0.0,0.33074139223,-0.173773702418,0.30497170382,1.0,-0.193008571429,-0.253668408163,2.869
-0.35871723351,-0.515584968342,-0.136710914702,-2.63744128918,-0.0700308512628,2.11362778767,-0.615058431501,-0.841737592575,-0.155672912507,0.000897070589103,-0.12671167079,-0.0289367217568,-0.0511757051961,-0.818015417522,0.573903506824,0.818891025472,0.00574457640712,0.0,0.818885108181,-0.57381514959,-0.0120041909809,0.0,-0.0065339250902,0.0115936185862,-0.999911443994,0.0,0.327442284555,-0.178079362613,0.304924327586,1.0,-0.189122857143,-0.248561469388,2.886
-0.371084099565,-0.517863581408,-0.136554809187,-2.63924826366,-0.0703623345867,2.11300121803,-0.627061703067,-0.826242071426,-0.154404787061,0.0076609392203,-0.112556634873,-0.019928612346,-0.0369809664539,-0.797329172047,0.573835085886,0.818938835877,0.00576404368072,0.0,0.818932722267,-0.573745865688,-0.0120675145802,0.0,-0.0065755867112,0.0116453514574,-0.999910569726,0.0,0.324451553319,-0.181981485065,0.30489148205,1.0,-0.185465714286,-0.243754938776,2.902
-0.385891740665,-0.520318281174,-0.136447923191,-2.64110742965,-0.0707362323068,2.11229569097,-0.641320720369,-0.824885780391,-0.133095849297,0.0041130328712,-0.0994738948112,-0.0210780338141,-0.0436417503412,-0.774466444533,0.573951287106,0.818857037376,0.005815433812,0.0,0.818851499229,-0.573861663225,-0.0120731351601,0.0,-0.00654904325868,0.0116915932596,-0.999910204308,0.0,0.321306357125,-0.186140606775,0.304894101406,1.0,-0.18158,-0.238648,2.919
-0.400202678321,-0.522470135286,-0.136212044292,-2.64270419554,-0.0710072484224,2.11166225966,-0.6553787523,-0.790818717054,-0.11398090472,0.018215757503,-0.0821165034047,-0.0201397666774,-0.0342640107687,-0.774186420957,0.573782822407,0.818974756578,0.005862397165,0.0,0.818969933999,-0.573693223854,-0.012044874846,0.0,-0.00650135608718,0.0117124948058,-0.999910270892,0.0,0.318116427123,-0.190336944715,0.304910582384,1.0,-0.177465714286,-0.233240653061,2.937
-0.412200348763,-0.524075681834,-0.136141922865,-2.64386100136,-0.0712467714963,2.11116454218,-0.666867670991,-0.798490288143,-0.107601454959,0.00748460154838,-0.0730559467873,-0.0118155108146,-0.0329729663655,-0.771239906727,0.573980096663,0.818836028583,0.00592906659335,0.0,0.818832199518,-0.573890409846,-0.0120155491108,0.0,-0.00643625397569,0.0117518229388,-0.999910230617,0.0,0.315430865112,-0.193886629503,0.304932803149,1.0,-0.174037142857,-0.228734530612,2.952
-0.426055007909,-0.525679286191,-0.135934001146,-2.64504356584,-0.0714585056517,2.11068840607,-0.680472618738,-0.764253807307,-0.0814668212429,0.0133119930557,-0.0583747614101,-0.0148806741252,-0.0283724881728,-0.746612714504,0.573878383422,0.818906972576,0.0059764712564,0.0,0.818903985287,-0.573788935924,-0.0119694107244,0.0,-0.0063727235117,0.0117633686881,-0.999910501771,0.0,0.31236036557,-0.197938017917,0.304947254098,1.0,-0.169922857143,-0.223327183674,2.97
-0.439138828336,-0.526938598964,-0.135814776726,-2.64600332825,-0.0716601495019,2.11027195643,-0.693081962145,-0.757075792785,-0.0698078650492,0.011441269489,-0.0543364434514,-0.0136463677522,-0.0311125711496,-0.73600538394,0.574041035458,0.818792629211,0.00602219731889,0.0,0.818790027171,-0.573950978246,-0.0119963693328,0.0,-0.006366215314,0.0118175509044,-0.999909904338,0.0,0.309442831919,-0.201773249149,0.304939128629,1.0,-0.166037142857,-0.218220244898,2.987
-0.45090687224,-0.527911649257,-0.135593652289,-2.64675157478,-0.0717708142093,2.10995927302,-0.704707798747,-0.729939031903,-0.0614723869826,0.00964017170569,-0.0458938129579,-0.00598058082826,-0.0211829713025,-0.715127203664,0.573910819237,0.818883659625,0.00605561413685,0.0,0.81888143658,-0.573820546165,-0.0119966880509,0.0,-0.00634917824446,0.0118440871065,-0.999909698691,0.0,0.306841511332,-0.205178624811,0.304933639302,1.0,-0.16238,-0.213413714286,3.003
-0.463437842698,-0.52870325715,-0.135459613884,-2.64737662936,-0.0718914318548,2.10965352666,-0.716819394596,-0.733904529176,-0.0521913494269,0.00609577648364,-0.0325567408861,-0.00290201041936,-0.0212320591521,-0.71280039695,0.574072141447,0.818770186802,0.00610774259872,0.0,0.818768259663,-0.573980898452,-0.0120503975935,0.0,-0.00636090117143,0.0119188528047,-0.999908735777,0.0,0.304057674563,-0.208830684183,0.304915941026,1.0,-0.158494285714,-0.20830677551,3.02
-0.476153096647,-0.529288493475,-0.135161018632,-2.64784599961,-0.0719595364899,2.10941614678,-0.729394451025,-0.706870969756,-0.0251155786016,0.0173966105886,-0.0243531740392,-0.0021015515785,-0.0109044167483,-0.689674541096,0.573920256003,0.8188766521,0.00610862470965,0.0,0.81887456723,-0.573828724575,-0.0120741417452,0.0,-0.00638205131754,0.0119320216653,-0.999908443949,0.0,0.301272796405,-0.212492868106,0.304903601738,1.0,-0.15438,-0.202899428571,3.038
-0.486674346351,-0.529632774972,-0.135036077042,-2.64812761429,-0.0719976282824,2.1092347652,-0.739620721426,-0.697662328524,-0.0220901475577,0.00680401045211,-0.0172691888975,-0.00138346429543,-0.0199168999602,-0.674846757093,0.574041296092,0.81879135327,0.00616904308973,0.0,0.818789699128,-0.57394880452,-0.0121220993983,0.0,-0.00638487819311,0.0120099658144,-0.999907492747,0.0,0.298941954087,-0.215546494345,0.304888928815,1.0,-0.150951428571,-0.198393306123,3.053
-0.498888356681,-0.529872003111,-0.134730881544,-2.64832109926,-0.0720218564231,2.10908276605,-0.751673904396,-0.665355355097,-0.00827957918297,0.0119230906027,-0.0102234196405,0.00542615518891,-0.00547497693408,-0.661505343708,0.573936375097,0.818864944552,0.00616334529423,0.0,0.818863121276,-0.573843753273,-0.0121359938122,0.0,-0.00640106594415,0.0120124557389,-0.99990735934,0.0,0.296269297227,-0.219052607426,0.304883084076,1.0,-0.146837142857,-0.192985959184,3.071
-0.509526981039,-0.529993371246,-0.134540913306,-2.64842534857,-0.0720357112476,2.10899891369,-0.76209914615,-0.668885853037,-0.007215272606,0.00845700563316,-0.00519445395066,0.00655079218564,-0.00250635721606,-0.648191263965,0.573965354636,0.818844400212,0.0061940955213,0.0,0.818843000505,-0.573872631449,-0.0121280789306,0.0,-0.00637651038897,0.0120333205652,-0.999907265356,0.0,0.293917440308,-0.222116069118,0.304877661392,1.0,-0.14318,-0.188179428571,3.087
-0.520007528118,-0.529992725853,-0.134331761832,-2.64842089185,-0.0720390554733,2.10891106147,-0.772321294385,-0.640036519525,0.00024839336228,0.014261146133,0.000965915198743,-8.66856899872e-06,-0.00154647345618,-0.636293743426,0.574028307234,0.818800162749,0.00620829104671,0.0,0.818798874931,-0.573935368393,-0.0121384603878,0.0,-0.00637593828861,0.0120513936198,-0.999907051342,0.0,0.291598150164,-0.225125068613,0.304877281079,1.0,-0.139522857143,-0.183372897959,3.103
-0.530604055135,-0.529854606011,-0.134081818935,-2.64831390716,-0.0720317682739,2.10890829915,-0.782882752915,-0.627303757255,0.00656644128303,0.0113199755287,0.00571767568839,-0.00239547487743,-0.00198339213304,-0.622032506211,0.5738900678,0.818897110804,0.00620152389485,0.0,0.818895997112,-0.573797685362,-0.0120958293852,0.0,-0.00634694187804,0.0120203108677,-0.99990760996,0.0,0.289267665911,-0.22816456548,0.30488165261,1.0,-0.135637142857,-0.178265959184,3.12
-0.542419591957,-0.529618261727,-0.13387294218,-2.64812221755,-0.0720288679084,2.10890825359,-0.79434733155,-0.609575858853,0.0151990610139,0.0113047174856,0.016291614988,0.000588623624125,0.000664073250469,-0.604766769538,0.574042343231,0.81879029646,0.006211723007,0.0,0.818789540229,-0.57395030949,-0.0120614240313,0.0,-0.00631067811606,0.01201009317,-0.999907962266,0.0,0.286634679208,-0.231558333775,0.304887843692,1.0,-0.131294285714,-0.172558204082,3.139
-0.55176661711,-0.529236807509,-0.133560803422,-2.64784784721,-0.0719776647061,2.10892556404,-0.80373221686,-0.575307595706,0.0310279311266,0.00884671515998,0.0189775283266,0.000857808578525,0.0016023569588,-0.585253290879,0.573828826212,0.818940244727,0.00617257455792,0.0,0.818938859758,-0.573736784909,-0.0120827364928,0.0,-0.00635372842784,0.0119886144873,-0.999907947392,0.0,0.284585044313,-0.234210145955,0.304882757195,1.0,-0.127637142857,-0.167751673469,3.155
-0.561055762269,-0.528788826593,-0.133347215346,-2.64752253659,-0.0719539735174,2.10896649274,-0.812897810386,-0.578167433166,0.0329578433924,0.0125319277868,0.0185319122738,0.00350059759788,0.000675610603698,-0.578270329555,0.573808103145,0.818954928405,0.00615084615551,0.0,0.818953155535,-0.573715964741,-0.012102385784,0.0,-0.00638259273191,0.0119819325879,-0.999907843654,0.0,0.282518037885,-0.236867406419,0.304875963417,1.0,-0.12398,-0.162945142857,3.171
-0.570735541508,-0.528199850168,-0.133138966225,-2.64703888881,-0.0719060529792,2.1090810983,-0.822314099694,-0.548850368095,0.0428775300062,0.0143581741992,0.0302088863336,0.00502958763042,0.00257417652822,-0.561297746545,0.573924605682,0.818873396549,0.0061363113911,0.0,0.818871916383,-0.573833412308,-0.0120310589861,0.0,-0.00633081551927,0.0119300035424,-0.999908793736,0.0,0.28038155886,-0.239659911501,0.30489572615,1.0,-0.120094285714,-0.157838204082,3.188
-0.579290404253,-0.527471625516,-0.132853728577,-2.64652938941,-0.0717774849585,2.10920123768,-0.830921713048,-0.536572186896,0.0462699376791,0.0130544325764,0.0343217048354,0.00973000677914,0.0083700074454,-0.533324965779,0.573763964727,0.818985974469,0.0061345990203,0.0,0.818984209684,-0.573672319422,-0.012069843297,0.0,-0.00636590528897,0.0119496109411,-0.999908336823,0.0,0.27851624099,-0.242098604954,0.304878690098,1.0,-0.116437142857,-0.153031673469,3.204
-0.588361914332,-0.526684402579,-0.132621102584,-2.64593077751,-0.0716362534702,2.10932173426,-0.839772035915,-0.534055860598,0.0476561005695,0.0162538722228,0.0389158322478,0.0110922032988,0.00820092354919,-0.514610976326,0.573874771261,0.818908106787,0.00616493721922,0.0,0.818906664249,-0.573782832734,-0.0120782038645,0.0,-0.00635372624771,0.0119801153078,-0.999908049273,0.0,0.276514016791,-0.244697207626,0.304879106018,1.0,-0.112551428571,-0.147924734694,3.221
-0.597065247848,-0.525761746169,-0.132375352986,-2.64524511618,-0.071485210692,2.10947942969,-0.848356556826,-0.498122928055,0.0620796096863,0.0231124348983,0.0375701368467,0.00666837163182,0.00361648778179,-0.50128302779,0.573901467531,0.818889271333,0.00618172812387,0.0,0.818887895276,-0.573809162043,-0.0120998936343,0.0,-0.00636146332452,0.0120065202089,-0.999907683367,0.0,0.274606088913,-0.247198464022,0.304872812936,1.0,-0.108665714286,-0.142817795918,3.238
-0.604769796792,-0.524829169487,-0.132060266443,-2.6445787293,-0.0713173140342,2.1096279844,-0.85616806693,-0.484345033027,0.061660016467,0.0179700420346,0.0428048427144,0.00444287911451,0.00860632060976,-0.48419053332,0.573700315988,0.819030276784,0.00617252362224,0.0,0.819028357987,-0.57360729995,-0.0121639285975,0.0,-0.00642214484334,0.0120341532617,-0.999906963278,0.0,0.272934495676,-0.249388928055,0.304854821278,1.0,-0.105008571429,-0.138011265306,3.254
-0.614341933663,-0.523696067318,-0.131759764534,-2.6437154141,-0.0711076568993,2.10983364467,-0.865500584206,-0.476022473649,0.0642695491831,0.0114651671484,0.0437150118209,0.0116833415397,0.0127977616571,-0.45693900477,0.573821537863,0.818945148177,0.00619950500482,0.0,0.818943560388,-0.573728333838,-0.0121651449382,0.0,-0.00640587807998,0.01205789903,-0.999906781554,0.0,0.270826985139,-0.252126972649,0.304857040539,1.0,-0.100437142857,-0.132003102041,3.274
-0.620783915099,-0.522833176088,-0.131583370295,-2.64302230299,-0.0709639666673,2.10998753711,-0.871823365635,-0.451285134434,0.0681049483745,0.00986755516453,0.0471521955506,0.0142701997104,0.0179268437382,-0.436608040124,0.573896092934,0.818892724172,0.00622315957111,0.0,0.818891570627,-0.573803002744,-0.0121431667356,0.0,-0.00637320594365,0.0120652411541,-0.999906901767,0.0,0.269316890661,-0.254124086119,0.304872048325,1.0,-0.0970085714286,-0.127496979592,3.289
-0.628951600171,-0.521643880676,-0.131225106826,-2.6421034332,-0.0707349134411,2.11021539665,-0.88005607575,-0.426517381413,0.0586624418985,0.0158455509712,0.0431810930799,0.00576840471627,0.0109873664918,-0.426240096268,0.573735409085,0.819005380337,0.00621403595387,0.0,0.819004203801,-0.573642576436,-0.01212664661,0.0,-0.00636727581417,0.0120470400652,-0.999907159002,0.0,0.267650899793,-0.256328258905,0.304882538942,1.0,-0.0928942857143,-0.122089632653,3.307
-0.635758062872,-0.520644537821,-0.13098430333,-2.64133051615,-0.0705414741038,2.11039426156,-0.886709779513,-0.414576259652,0.0656932301134,0.0138770870248,0.0490127010186,0.0132246888166,0.00698093757062,-0.398266470642,0.573814946589,0.818949469192,0.00623866026849,0.0,0.818948583511,-0.57372192857,-0.012129020776,0.0,-0.00635392125804,0.0120691877679,-0.999906976869,0.0,0.266153465941,-0.258276914151,0.304887903112,1.0,-0.0892371428572,-0.117283102041,3.323
-0.642661411884,-0.519545998284,-0.130739866366,-2.64045086446,-0.0703301005272,2.11062481402,-0.893508241482,-0.389727301266,0.0661376996417,0.0116739963514,0.0509012320374,0.0103479769917,0.0137125200565,-0.381688186972,0.573865755092,0.818913694881,0.00626117964371,0.0,0.818913450361,-0.573773288506,-0.0120715001703,0.0,-0.00629314033559,0.0120550168821,-0.999907532201,0.0,0.264649722957,-0.260272914323,0.304909455007,1.0,-0.0853514285715,-0.112176163265,3.34
-0.648840303091,-0.518493852829,-0.130520261308,-2.63966459171,-0.0701361834062,2.11083195646,-0.899596217914,-0.368720806995,0.0668938266012,0.0158742672816,0.0464358964626,0.0135236689688,0.0171884350568,-0.381037350027,0.573910300372,0.818882275716,0.00628749132975,0.0,0.818882244614,-0.573817458644,-0.0120888589833,0.0,-0.0062916011918,0.012086868413,-0.999907157373,0.0,0.263290303858,-0.262050165942,0.304902660897,1.0,-0.0816942857143,-0.107369632653,3.356
-0.654638268902,-0.517452574233,-0.130200067724,-2.63890583367,-0.0699149064316,2.11103657432,-0.905487128259,-0.364432958645,0.0634450840183,0.0184575976452,0.0510429054594,0.013496465216,0.0159074900112,-0.355770218326,0.573742958631,0.818999514249,0.00628967264284,0.0,0.818999257682,-0.573649656581,-0.0121257709336,0.0,-0.00632305369134,0.0121085460437,-0.9999066967,0.0,0.262037964878,-0.263688784731,0.304889294016,1.0,-0.0780371428572,-0.102563102041,3.372
-0.661045359721,-0.516322353875,-0.129902707959,-2.63802583886,-0.0697054987717,2.11125993679,-0.911733910825,-0.343575361204,0.0658969720333,0.0195338048111,0.0536350814154,0.0125898807915,0.00756449347686,-0.341465043309,0.573800126664,0.818959529552,0.00628096316386,0.0,0.818959258986,-0.573707042207,-0.0121123384779,0.0,-0.00631620382915,0.012094147141,-0.999906914255,0.0,0.260636137152,-0.265519177218,0.304898866735,1.0,-0.0739228571429,-0.0971557551021,3.39
-0.666370365634,-0.515277929647,-0.129651575561,-2.6372314486,-0.0694869318482,2.11148894817,-0.917015026842,-0.330529767421,0.0627738703104,0.0200421563584,0.0515905125418,0.0123566259858,0.00947822657871,-0.327724781035,0.573793890433,0.818963749687,0.00630038898211,0.0,0.818963815207,-0.573700878827,-0.0120961942811,0.0,-0.00629192706851,0.0121007459509,-0.999906987475,0.0,0.25948509626,-0.267050480856,0.304900168527,1.0,-0.0702657142858,-0.0923492244899,3.406
-0.671827170769,-0.514197496015,-0.129462157458,-2.6364223938,-0.0692667960499,2.11169717824,-0.922375140481,-0.314845530648,0.0582316985753,0.0135827966698,0.0463829901797,0.0146285630611,0.00937179602901,-0.318368403663,0.573876107199,0.818905715989,0.00635521888991,0.0,0.81890630802,-0.573782465373,-0.012119736632,0.0,-0.00627852932276,0.0121597902301,-0.999906355401,0.0,0.258275439875,-0.268624251548,0.304891203067,1.0,-0.0663800000001,-0.0872422857144,3.423
-0.676882753154,-0.51317105001,-0.129162903762,-2.6356561536,-0.0690413756762,2.11191874644,-0.927368215259,-0.285816910084,0.0612796367129,0.0196408354669,0.0468252265288,0.0130584719546,0.0173115313682,-0.286165068476,0.573851945313,0.818922618003,0.00635904750179,0.0,0.818923231786,-0.573758236715,-0.0121232480982,0.0,-0.00627956709059,0.0121647554452,-0.99990628849,0.0,0.257184027295,-0.270057143231,0.304886191968,1.0,-0.0624942857143,-0.0821353469389,3.44
-0.681387163243,-0.512225822368,-0.128842724276,-2.63496153373,-0.0688507715123,2.11210658424,-0.931829418269,-0.278030759982,0.0604573018754,0.0224347262101,0.0444791750771,0.011913294572,0.0142834878622,-0.266022934849,0.573778196709,0.818974518938,0.00632970879051,0.0,0.818974548627,-0.573684250792,-0.0121579601762,0.0,-0.00632592713506,0.0121600769844,-0.999906053174,0.0,0.25621688372,-0.271321005686,0.304875966278,1.0,-0.0588371428572,-0.0773288163266,3.456
-0.6862109675,-0.511179588296,-0.128579156497,-2.63416003285,-0.0686378619172,2.11232556667,-0.936535191096,-0.263465988153,0.0569268772097,0.0175279805841,0.0426786168488,0.00815929323816,0.0119163198866,-0.256612488376,0.573820814703,0.818944628739,0.00633360666467,0.0,0.818944749381,-0.573726918515,-0.0121518448999,0.0,-0.00631804911728,0.0121600895827,-0.99990610283,0.0,0.255171831529,-0.272704002376,0.304877877891,1.0,-0.0547228571429,-0.0719214693878,3.474
-0.690426951167,-0.510262350858,-0.128329886618,-2.6334817646,-0.0684194411519,2.11252257365,-0.940671419702,-0.244042857168,0.0506141620964,0.019805773122,0.0363992048803,0.0184179255758,0.00867246818603,-0.239978358402,0.573838010464,0.818932381363,0.00635919834012,0.0,0.818932750628,-0.573743827538,-0.0121621220729,0.0,-0.00631152631225,0.0121870783608,-0.999905815443,0.0,0.254255906054,-0.273897228963,0.304869062904,1.0,-0.0508371428572,-0.0668145306123,3.491
-0.694175967085,-0.50944758465,-0.128105271397,-2.63289175469,-0.0682386430444,2.11269076124,-0.944281612092,-0.232232339978,0.0497456008219,0.0174094262819,0.0350214525298,0.0138511963454,0.0143499781182,-0.219832448523,0.573900290068,0.818888634977,0.0063723987941,0.0,0.818888980812,-0.573805653662,-0.0121924497625,0.0,-0.00632786191855,0.0122157728007,-0.999905362051,0.0,0.253432448191,-0.274951920941,0.304854822297,1.0,-0.0471800000001,-0.0620080000001,3.507
-0.697867603759,-0.508646794261,-0.127859263864,-2.63225691783,-0.0680287114744,2.11287278821,-0.947872915975,-0.214522364315,0.0423239935648,0.0170115242996,0.0336663130997,0.0170770279448,0.0135733890609,-0.213055358428,0.573930106279,0.818867618847,0.00638770781072,0.0,0.818868432459,-0.573835910549,-0.0121484561938,0.0,-0.00628260222779,0.0122032919876,-0.99990579985,0.0,0.252640448258,-0.275996738249,0.304867605687,1.0,-0.0432942857143,-0.0569010612246,3.524
-0.701186292641,-0.507864504218,-0.127549953999,-2.63167212166,-0.0678177879402,2.11303959397,-0.95110328085,-0.181457470126,0.0437816690399,0.0161749013562,0.0327704622414,0.00859638162858,0.0134872137821,-0.181663340985,0.573902785884,0.818886828988,0.0063796994824,0.0,0.818887501014,-0.573808561464,-0.0121549321402,0.0,-0.00629290881228,0.0122002404763,-0.999905772276,0.0,0.251949785577,-0.276916631194,0.304864538152,1.0,-0.0394085714286,-0.0517941224491,3.541
-0.704213216767,-0.507159623902,-0.127232154949,-2.63112183116,-0.0676217483933,2.11319612882,-0.954103710085,-0.172139899465,0.0422920346248,0.0177078711851,0.0322245970127,0.013894392199,0.0101010949048,-0.178166112038,0.573810254429,0.818951867806,0.00635429226409,0.0,0.818952362265,-0.573716465941,-0.0121322689757,0.0,-0.00629030334491,0.0121657172357,-0.999906209306,0.0,0.251330267904,-0.277751737276,0.304873659724,1.0,-0.0355228571429,-0.0466871836736,3.558
-0.707311655023,-0.506435844169,-0.126918756644,-2.63054957901,-0.0674028509664,2.11335227886,-0.957079551455,-0.158259278845,0.0416878607648,0.0155755387025,0.0286966167007,0.00775024810368,0.0162317578217,-0.146544717187,0.573810270085,0.818951909703,0.0063474751528,0.0,0.818952497228,-0.573716864884,-0.0121042609461,0.0,-0.00627127481426,0.012144063681,-0.999906592052,0.0,0.250693627436,-0.278607689348,0.304885422967,1.0,-0.0311800000001,-0.0409794285715,3.577
-0.709661427973,-0.505891654361,-0.126710136327,-2.63013222958,-0.0672198566985,2.11345885976,-0.959350678903,-0.139151079499,0.0360479288585,0.0144782637701,0.025578732683,0.0100830069311,0.00966874127802,-0.131872085484,0.573825681855,0.818940890258,0.00637589277568,0.0,0.818941836804,-0.573732121651,-0.0121023724632,0.0,-0.00625319358302,0.0121663717121,-0.999906434107,0.0,0.250198538759,-0.279254122436,0.304886731566,1.0,-0.0275228571429,-0.0361728979593,3.593
