nelsonifechukwu/NELSON_IML_WORK/CNN-GradCAM/train2dof/data_sample_2022-02-22-11-41-20/robot_state.csv
position_joint1,position_joint2,position_joint3,position_joint4,position_joint5,position_joint6,position_joint7,velocity_joint1,velocity_joint2,velocity_joint3,velocity_joint4,velocity_joint5,velocity_joint6,velocity_joint7,ee_T_00,ee_T_10,ee_T_20,ee_T_30,ee_T_01,ee_T_11,ee_T_21,ee_T_31,ee_T_02,ee_T_12,ee_T_22,ee_T_32,ee_T_03,ee_T_13,ee_T_23,ee_T_33,v_x,v_y,time
0.465073730235,0.547806244482,-0.124003298894,-1.35584414693,0.0795677805228,1.89409837497,0.159157361378,0.00142175964101,-0.000421833883718,0.000550528926979,-0.000761320352088,-0.000462044827721,9.87715383081e-05,0.000184804815369,0.573833139281,0.818958174866,0.00194498968501,0.0,0.818914397079,-0.573774033044,-0.0119714728965,0.0,-0.00868831829504,0.00846257085996,-0.999926446305,0.0,0.661672998217,0.260891130489,0.303191749391,1.0,0.0,0.0,0.0
0.465070546231,0.547809194161,-0.124000929036,-1.35583635156,0.0795682667498,1.89409954193,0.15915327562,-0.00150731739272,-0.00650992867311,-0.000258471787302,0.00136537955476,-0.00047824941028,0.00055791796963,-0.00150348916952,0.57383046199,0.818960037315,0.00195065990935,0.0,0.818916326679,-0.5737713255,-0.0119692453418,0.0,-0.00868326806977,0.00846590782667,-0.999926461926,0.0,0.661675200062,0.260891441155,0.303193393701,1.0,-0.00014,-0.000184,0.008
0.465069510819,0.547807668397,-0.124000934896,-1.35584791963,0.0795663560069,1.8940963885,0.159158887311,0.00274219294749,-0.00169080923597,0.00103051039305,-0.000186567717879,-9.56035827952e-07,-0.000445308007152,0.0011455113686,0.573836009628,0.818956178319,0.00193880082722,0.0,0.818912313963,-0.573776923532,-0.0119754316225,0.0,-0.00869508194861,0.00845980464505,-0.99992641092,0.0,0.661672336072,0.260888872809,0.303188691697,1.0,-0.00052,-0.000683428571429,0.027
0.465072006472,0.547805563249,-0.124007003847,-1.35586222411,0.0795654148024,1.8940996852,0.159161645829,0.001526555507,0.00261210231293,-0.00136954799286,-0.00339538074866,0.000245434613997,0.000123773888546,0.00101555052024,0.5738410156,0.818952692629,0.00192949499029,0.0,0.818908735719,-0.573781996358,-0.0119770664404,0.0,-0.00870170885851,0.00845317502295,-0.99992640934,0.0,0.661670563856,0.260885410766,0.303183860541,1.0,-0.0008,-0.00105142857143,0.041
0.465068379821,0.547721976042,-0.124004132423,-1.35593863472,0.0795693147789,1.89411393426,0.159159588827,0.00113146547358,-0.000995298099446,0.000715750233054,-0.00885869986818,0.00019182052511,0.00037868908266,0.00126592091609,0.573845453211,0.818949523667,0.00195458830027,0.0,0.818905784872,-0.573786220838,-0.0119764427513,0.0,-0.00868675349918,0.00847341402406,-0.999926368073,0.0,0.661658170971,0.260878305625,0.303207856393,1.0,-0.00116,-0.00152457142857,0.059
0.465062943238,0.547579316973,-0.123998851447,-1.356111629,0.0795634751711,1.89413866619,0.15914860167,-0.000579065935363,-0.0107392984064,0.000379463711026,-0.00769912957161,-5.76219569484e-05,2.7784507239e-06,-0.000402459409015,0.573845035198,0.818949813255,0.00195597778852,0.0,0.818905970959,-0.573785678358,-0.0119897013931,0.0,-0.00869681911532,0.0084821558158,-0.999926206462,0.0,0.661627745664,0.260859835781,0.303228539807,1.0,-0.0015,-0.00197142857143,0.076
0.465047789354,0.547436557376,-0.124008761059,-1.35631589075,0.0795639750915,1.894203642,0.159151544906,-0.000731582793611,-0.0117367083755,-0.000650339880156,-0.0113808684691,0.000107253792126,0.00139676541763,0.00169675261421,0.573878264719,0.818926509094,0.00196389619391,0.0,0.818882691192,-0.573818793105,-0.0119949008633,0.0,-0.00869618917569,0.00849197699024,-0.999926128582,0.0,0.661603842018,0.260826196498,0.303238418261,1.0,-0.00182,-0.002392,0.092
0.465026916051,0.547254694449,-0.123998867004,-1.35652090031,0.0795613565668,1.89432890296,0.159138026629,0.000627287943117,-0.00821089183785,0.000867979539465,-0.014825006049,0.000477654815422,0.00767370489706,0.000540376921547,0.57388842335,0.8189191595,0.00205782664156,0.0,0.81887650266,-0.573828493092,-0.0119532760613,0.0,-0.00860809295709,0.00854511715599,-0.999926438149,0.0,0.661589948997,0.260804266946,0.303280207723,1.0,-0.00216,-0.00283885714286,0.109
0.465000549676,0.54703288705,-0.124001355157,-1.35677524683,0.0795549948161,1.89446373786,0.159120696903,-0.00595745319058,-0.0127135919735,0.000234295452505,-0.0214527133912,0.000268447355897,0.00924445274308,-0.00172000610038,0.573921912442,0.818895456657,0.0021485775555,0.0,0.818853973687,-0.57386159737,-0.0119072978864,0.0,-0.00851800999026,0.00859339589358,-0.999926795847,0.0,0.661572723538,0.260758042883,0.303325505047,1.0,-0.00254,-0.00333828571429,0.128
0.464965519193,0.546812793184,-0.124003734116,-1.35711124423,0.0795461858787,1.8946014734,0.159095816078,-0.0010006737776,-0.0179204974528,0.000122479057337,-0.0196158290072,-7.59494339986e-05,0.00284534178938,-0.00265906884142,0.573936837351,0.818884933215,0.00217250699512,0.0,0.818843696066,-0.573876357205,-0.0119027289215,0.0,-0.00850037863624,0.00861052402995,-0.99992679854,0.0,0.661538560427,0.260712628241,0.303336018115,1.0,-0.00286,-0.00375885714286,0.144
0.464924632424,0.546532421304,-0.12400595648,-1.35751070311,0.0795407649332,1.89475039411,0.158975175695,-0.00332187171166,-0.016474036148,-0.00321342284074,-0.0251021168704,0.000239836720603,0.00510295706077,-0.00710733352726,0.573893973421,0.818914876326,0.00220895999661,0.0,0.818873954874,-0.573833190467,-0.0119022035154,0.0,-0.00847948021365,0.00863962901616,-0.999926724928,0.0,0.661495480192,0.260649795064,0.303357444119,1.0,-0.0032,-0.00420571428571,0.161
0.464889411886,0.546283884444,-0.124005192443,-1.35791900141,0.0795301926228,1.89489239169,0.158942895165,-0.00151897979664,-0.0190398433366,-0.00068549178875,-0.0286941438512,-0.000973441036517,0.015581297401,-0.00434922785031,0.573915859513,0.818899558645,0.00220135235831,0.0,0.818858392794,-0.573854956541,-0.0119234351412,0.0,-0.00850100248338,0.00864581084015,-0.999926488754,0.0,0.661446242485,0.260589660496,0.30335139345,1.0,-0.0035,-0.0046,0.176
0.46484262254,0.545967569138,-0.124009449209,-1.35843864365,0.0795082444857,1.89506993118,0.158909127996,-0.00122123871049,-0.0194087250737,-0.00116513878071,-0.0319784124366,-0.00567909911036,0.0108447423301,-0.000668731262056,0.573952678497,0.818873802309,0.00218303421925,0.0,0.818832310634,-0.573891756821,-0.011943425622,0.0,-0.00852749718912,0.00864266647822,-0.999926290337,0.0,0.661385088393,0.260507210286,0.303343555093,1.0,-0.00384,-0.00504685714286,0.193
0.464781216257,0.545606477132,-0.124007376429,-1.35906568472,0.0794484403684,1.8952779175,0.158800942509,7.19532234444e-05,-0.0222793148292,-0.000564089418305,-0.0392326027614,-0.00686784430213,0.0164710420096,-0.0103304686735,0.573932010346,0.818888448918,0.00212194033077,0.0,0.818846299651,-0.573871481789,-0.0119585466781,0.0,-0.00857515979707,0.00860110132157,-0.999926241125,0.0,0.661310937086,0.260402530962,0.303318642923,1.0,-0.0042,-0.00552,0.211
0.464722311914,0.545239532678,-0.124010502575,-1.35969612211,0.0793774302927,1.89547701537,0.158716566842,-0.00999414690538,-0.0214360613336,-0.00064002928616,-0.0413666222162,-0.00177901024579,0.00569470345097,-0.00686590113962,0.573929518633,0.81889038288,0.00204826015966,0.0,0.818847528097,-0.573869550438,-0.0119671095512,0.0,-0.00862448283338,0.00854565472313,-0.999926292324,0.0,0.661235481901,0.260293757052,0.303295608398,1.0,-0.00452,-0.00594057142857,0.227
0.464657015873,0.544816033522,-0.124007382102,-1.36039786957,0.0793660818608,1.89572230566,0.158672675128,-0.00474587425906,-0.0241460532746,0.000505261952587,-0.0429101922453,-0.00356198423987,0.0169838158461,0.000790397314934,0.573980978134,0.818854342377,0.00203705953051,0.0,0.818811018216,-0.573920730709,-0.0120107540175,0.0,-0.00866611423772,0.0085620759739,-0.999925791906,0.0,0.661151158539,0.260189458045,0.303282549514,1.0,-0.00486,-0.00638742857143,0.244
0.464586686607,0.544354764095,-0.124010923521,-1.36119349269,0.0793416075822,1.89600605372,0.158543992988,-0.0051868020985,-0.0223233547857,0.000513676221135,-0.047148962007,-0.00128792059289,0.0174324188014,-0.00996322916258,0.573973576693,0.81885960924,0.00200512210224,0.0,0.818815638609,-0.573913240436,-0.01205360208,0.0,-0.00871960964552,0.00856043924752,-0.999925340857,0.0,0.661057385487,0.260067811067,0.303255039019,1.0,-0.00522,-0.00686057142857,0.262
0.464516107771,0.54384708997,-0.124013057747,-1.36200603335,0.0793074188142,1.89629906664,0.158442372843,-0.00529782836758,-0.0323643663843,0.000542202421367,-0.0499257582552,0.000213869009232,0.0166679669206,-0.0138598264835,0.573985828941,0.818851027956,0.00200227159274,0.0,0.818806875138,-0.573925361195,-0.0120717813208,0.0,-0.00873600429185,0.00856867012769,-0.999925127258,0.0,0.660962971776,0.259944483657,0.303252999311,1.0,-0.00556,-0.00730742857143,0.279
0.46443935675,0.543385008392,-0.124016947675,-1.36274878775,0.0792646781412,1.89655083725,0.158369948269,-0.00634245474148,-0.0349292578308,5.40168812333e-05,-0.0492143436876,-0.00366683601379,0.0158846648353,-0.00358390813091,0.574021951815,0.818825765276,0.00197784117482,0.0,0.818781254087,-0.57396154729,-0.0120891310059,0.0,-0.00876385589785,0.00855901064075,-0.999924966268,0.0,0.660877567927,0.259819567406,0.303248323715,1.0,-0.00586,-0.00770171428571,0.294
0.464367549648,0.542860208986,-0.124017082716,-1.36358587809,0.0792149210248,1.89684465183,0.158244498617,-0.00351035641086,-0.040750168395,0.00354042311102,-0.0529727503118,-0.00431701775821,0.0243796408574,-0.00946780565348,0.574006117087,0.818836908916,0.00195985814987,0.0,0.818792101308,-0.573945733395,-0.0121052408043,0.0,-0.00878753492595,0.00855336332201,-0.999924806776,0.0,0.660771357219,0.259683841898,0.303245142371,1.0,-0.0062,-0.00814857142857,0.311
0.464289615998,0.542239647366,-0.12402050735,-1.36456773326,0.0791589619649,1.89720519166,0.158116800332,-0.00874489329344,-0.0331020600295,-3.05211275057e-05,-0.058400842047,-0.00167696644884,0.0210087675835,-0.00688878198613,0.574012691104,0.818832294013,0.00196255777394,0.0,0.818787514276,-0.573952287511,-0.0121047522932,0.0,-0.00878551671342,0.0085553639576,-0.999924807395,0.0,0.660664679656,0.259544974205,0.303249485899,1.0,-0.00654,-0.00859542857143,0.328
0.464203193923,0.541604926781,-0.124023692484,-1.36552502265,0.0791090148529,1.89755831111,0.157991030651,-0.00408929551155,-0.0364492095869,-6.78441247324e-05,-0.0569371626298,-0.0056856679151,0.0213342378906,-0.0107015851983,0.574022516299,0.81882533418,0.00199243272074,0.0,0.818780883474,-0.573961920756,-0.0120964987203,0.0,-0.00876150778187,0.00857519355623,-0.999924848195,0.0,0.660556959841,0.25939661765,0.303273361858,1.0,-0.00688,-0.00904228571429,0.345
0.464108157103,0.540897041858,-0.124023704627,-1.36660700081,0.0790426192777,1.89796523138,0.15785066628,-0.00668103464209,-0.0383564618702,-0.000414075744988,-0.061632200521,-0.00140249063497,0.0263985453837,-0.00419189742465,0.574027738932,0.81882160654,0.00201952996249,0.0,0.818777523168,-0.573967037929,-0.0120811351505,0.0,-0.0087333190056,0.0085886177923,-0.999924979578,0.0,0.660435366668,0.259231567893,0.303294060546,1.0,-0.00724,-0.00951542857143,0.363
0.464023647516,0.540230575682,-0.124026591831,-1.36763007148,0.0789801801047,1.89833977952,0.157726458768,-0.00664388246976,-0.0446774913036,0.000157650158497,-0.0640141005245,-0.00158437459726,0.0203100835881,-0.00654733224278,0.574037229735,0.818814917838,0.00203374186228,0.0,0.818771028444,-0.573976474282,-0.0120729803252,0.0,-0.00871838426527,0.00859567459009,-0.999925049268,0.0,0.660317339279,0.25907670594,0.303310703206,1.0,-0.00756,-0.009936,0.379
0.463924971683,0.539477880434,-0.124030077232,-1.36878521367,0.0789165327479,1.89878127603,0.157580320625,-0.00417869229037,-0.0471897980922,0.000654237718835,-0.0744516819731,-0.00130260731495,0.0269093985497,-0.00342597100408,0.574047824275,0.818807402461,0.00206882138587,0.0,0.818763946666,-0.573986892461,-0.0120579361479,0.0,-0.00868581824689,0.00861587425607,-0.999925158835,0.0,0.660188087468,0.25890195124,0.303331146059,1.0,-0.0079,-0.0103828571429,0.396
0.463829331964,0.538819909502,-0.124032888724,-1.36980928498,0.0788558130329,1.8991760105,0.157462392964,-0.00441554891667,-0.0395121829308,-0.000606874765765,-0.0705619781664,-0.00329607061696,0.0331056273585,-0.00784007889715,0.574075242047,0.818788093071,0.0021028588556,0.0,0.818745092357,-0.574014172401,-0.0120395400954,0.0,-0.00865092784769,0.00863347348348,-0.999925309502,0.0,0.660069591141,0.258730491356,0.303349988429,1.0,-0.00822,-0.0108034285714,0.412
0.463724608672,0.538034702204,-0.124041765964,-1.37102772901,0.0787822195753,1.89964731938,0.157309335551,-0.00631836371253,-0.0469959102966,-0.000819973779359,-0.0674806315031,-0.00669355082861,0.0373480431389,-0.0117144074535,0.574086410306,0.818780215708,0.0021210301101,0.0,0.81873752673,-0.574025337036,-0.0120217164287,0.0,-0.00862578461998,0.00863823728959,-0.999925485572,0.0,0.659941806329,0.258552690455,0.30335864439,1.0,-0.00854,-0.011224,0.428
0.463611995303,0.537232255513,-0.124047481473,-1.3722862329,0.0787118911608,1.90011113523,0.157136998039,-0.00586127032395,-0.048058014963,-0.000404766723951,-0.074517361833,-0.00145960047505,0.0308954163065,-0.00680245434838,0.574092088983,0.818776213259,0.00212905356996,0.0,0.81873358934,-0.574030941513,-0.0120222615605,0.0,-0.00862156516189,0.00864517937131,-0.999925461966,0.0,0.659798140024,0.258356295779,0.303366654808,1.0,-0.00888,-0.0116708571429,0.445
0.463490404856,0.536377367908,-0.124048507961,-1.37360486066,0.0786406092443,1.90061276367,0.156981206118,-0.00656949819316,-0.0491704097791,-0.00442250469174,-0.0792519366965,-0.00129596657822,0.0285727787799,-0.0140204292401,0.574118398652,0.81875767167,0.00216478917583,0.0,0.818715455142,-0.57405703888,-0.0120111000758,0.0,-0.00859163328375,0.00866830678872,-0.999925519374,0.0,0.659650471099,0.258152676065,0.303386046008,1.0,-0.00922,-0.0121177142857,0.462
0.463389173129,0.535565670126,-0.124054209227,-1.37490405207,0.0785599736787,1.90107713538,0.1568265232,-0.00691913399351,-0.046885048328,-0.000691657740521,-0.0831404842141,-0.00410277470018,0.0306266130215,-0.00859336371474,0.574128369377,0.818750739753,0.0021420858589,0.0,0.818708232002,-0.574067108432,-0.0120221782344,0.0,-0.0086136321269,0.00865618357074,-0.999925435134,0.0,0.659494761382,0.257957496557,0.303380957517,1.0,-0.00954,-0.0125382857143,0.478
0.46326780433,0.534661782112,-0.124054546817,-1.37634157645,0.078487869214,1.90160457706,0.156648547428,-0.0104585261802,-0.0541485279941,0.000167767879715,-0.0910994527442,-0.000950097161447,0.0242595978547,-0.0151978776862,0.574141852777,0.818741279506,0.00214406690914,0.0,0.818698640455,-0.574080423857,-0.0120395167338,0.0,-0.00862654858312,0.00866790199165,-0.999925222271,0.0,0.659325106442,0.257742604803,0.303380240966,1.0,-0.00988,-0.0129851428571,0.495
0.463132687819,0.533696267822,-0.124058214333,-1.37790161598,0.0784000641698,1.90217644353,0.156460687129,-0.00619871151206,-0.0550213588546,0.000503648139621,-0.0856769692637,-0.00485310489033,0.0261530787589,-0.00618746490043,0.574163203055,0.818726354004,0.00212612766445,0.0,0.818683407803,-0.574101774224,-0.0120572601198,0.0,-0.00865114951423,0.0086636273339,-0.999925046778,0.0,0.659142230199,0.257503480235,0.303368442288,1.0,-0.01024,-0.0134582857143,0.513
0.463008576983,0.532818641088,-0.124053153216,-1.37933327702,0.0783154759443,1.90272608094,0.156274539179,-0.0126953624078,-0.0541361067501,0.00249184833115,-0.0919165334574,-0.00275328827145,0.0434767833359,-0.0175393340546,0.574164649753,0.81872534927,0.00212234259704,0.0,0.818682314786,-0.57410319795,-0.0120636835721,0.0,-0.00865856657819,0.00866423181635,-0.999924977342,0.0,0.658977091125,0.257289795162,0.303353366236,1.0,-0.01056,-0.0138788571429,0.529
0.462873104678,0.531779488429,-0.12405780178,-1.38099256328,0.078222306448,1.9033288071,0.156066985543,-0.00751832020898,-0.0600783574851,0.000231374493924,-0.094288369226,-0.00725085043348,0.0347622480836,-0.0171912780893,0.57417444731,0.818718511077,0.00210963912924,0.0,0.818675226167,-0.574112964098,-0.0120799592868,0.0,-0.00867908220672,0.00866328003328,-0.999924807729,0.0,0.658778957856,0.257040329737,0.303348538407,1.0,-0.01092,-0.014352,0.547
0.462722398359,0.53071453697,-0.124059267521,-1.38271819124,0.0781209161597,1.9039348157,0.155838656516,-0.00625703354231,-0.0602790829442,-0.000819986934187,-0.0963512782766,-0.00721088016114,0.0362780414022,-0.0146671377242,0.574178540334,0.818715756217,0.00206427786761,0.0,0.818671775924,-0.574117150538,-0.0121147704899,0.0,-0.00873358430433,0.00864617372988,-0.999924481241,0.0,0.658569817392,0.256774077065,0.303330250712,1.0,-0.01128,-0.0148251428571,0.565
0.462585932943,0.529742979959,-0.124063857748,-1.38425665718,0.0780215260495,1.90449474094,0.155640059778,-0.00754247176092,-0.0599004394708,-0.00249959736854,-0.0949134983346,-0.00621876762145,0.0437590615734,-0.0180592476064,0.57418776049,0.818709317326,0.00205336994864,0.0,0.818665237372,-0.574126459483,-0.0121154669741,0.0,-0.00874031995508,0.00863774174888,-0.999924495262,0.0,0.658389215599,0.256533605804,0.303331089575,1.0,-0.0116,-0.0152457142857,0.581
0.462490787868,0.52899257049,-0.124062033895,-1.38542461488,0.0779550610898,1.9049381623,0.155484739454,-0.0121625944553,-0.0593348559172,0.00128871953066,-0.0981861113152,-0.00758152100655,0.0413176706127,-0.00870253299898,0.574182809085,0.818712728985,0.00207751093422,0.0,0.818668919565,-0.574121359164,-0.0121083438226,0.0,-0.00872067971336,0.00865336310538,-0.999924531678,0.0,0.658251964165,0.256362569031,0.303342050164,1.0,-0.01184,-0.0155611428571,0.593
0.462318214167,0.527688561974,-0.124062483551,-1.38744328972,0.0778291231001,1.90572059829,0.155197136258,-0.0118791511863,-0.072808265791,0.000103037874128,-0.104813776554,-0.00822938411532,0.0396064871671,-0.0111216454213,0.574164612167,0.818725351476,0.00213163971868,0.0,0.818682314952,-0.574102997097,-0.0120732269987,0.0,-0.00866104301866,0.0086773225022,-0.99992484238,0.0,0.658021085397,0.256058933856,0.303367117914,1.0,-0.01224,-0.0160868571429,0.613
0.4621381901,0.526327247182,-0.124062750849,-1.38954528134,0.0776963240036,1.90652057637,0.154911637904,-0.0108033900276,-0.0672301891913,0.00146739292778,-0.108299377285,-0.00513556727901,0.0371054070117,-0.00348361192679,0.574156344749,0.818731026878,0.00217814435878,0.0,0.818688657873,-0.574094594255,-0.0120426416923,0.0,-0.00860938925463,0.00869774867555,-0.999925110988,0.0,0.657777194853,0.255741501967,0.303393972385,1.0,-0.01264,-0.0166125714286,0.633
0.462000203045,0.525280110474,-0.124068443558,-1.39117276275,0.0775853974614,1.90709949594,0.154702507936,-0.0100187885064,-0.0720081607224,0.0012048586446,-0.107490694696,-0.0146065184344,0.042304597817,-0.0133034896629,0.57415971872,0.818728683677,0.00216952197653,0.0,0.8186862834,-0.574098086135,-0.0120375981991,0.0,-0.00861017428616,0.0086878291474,-0.999925190464,0.0,0.657580894588,0.255489379457,0.303406297064,1.0,-0.01294,-0.0170068571429,0.648
0.461846690782,0.524102312382,-0.12408156741,-1.39306569869,0.0774672734274,1.90777404201,0.154443469294,-0.00900545083191,-0.0682505568339,-0.00122070532524,-0.114532619589,-0.00859515861332,0.0393349709697,-0.0135070084309,0.574152437587,0.818733893797,0.00212989734347,0.0,0.818690992886,-0.574090990172,-0.012055707046,0.0,-0.00864782759481,0.00866570819988,-0.999925057481,0.0,0.657350271432,0.255198276496,0.303392472262,1.0,-0.01328,-0.0174537142857,0.665
0.461684458504,0.522899726092,-0.124084011815,-1.39499122273,0.0773567302076,1.90850303587,0.154183636167,-0.00478421671711,-0.0746311955619,-0.000412456585634,-0.117778355214,-0.00776869856989,0.0440373964334,-0.0135163172792,0.574147964009,0.818737014884,0.0021360673462,0.0,0.818694138918,-0.574086435195,-0.0120589687565,0.0,-0.00864700327573,0.00867258515038,-0.999925004988,0.0,0.657122266247,0.25490903263,0.30338464517,1.0,-0.01362,-0.0179005714286,0.682
0.461529313944,0.521742365091,-0.124084315928,-1.39682976051,0.0772437496059,1.90922307406,0.153929696862,-0.0129365075989,-0.0712518880844,0.000551652132913,-0.115551584567,-0.0103206113392,0.051869429818,-0.0179874573027,0.574135517473,0.818745664914,0.00216579341816,0.0,0.818703219272,-0.574073907001,-0.0120388934224,0.0,-0.00861363214976,0.00868526556688,-0.999925182953,0.0,0.656909001549,0.254634452997,0.303385259221,1.0,-0.01394,-0.0183211428571,0.698
0.461360810401,0.520475739516,-0.124090432655,-1.39886613106,0.0771194560371,1.90996645431,0.153657269668,-0.00763758066304,-0.0766370279467,-0.00227579596758,-0.121380357845,-0.00405465416732,0.0406593022526,-0.0197255253225,0.574129937505,0.818749643928,0.00214063739629,0.0,0.818706847893,-0.57406841192,-0.012054150718,0.0,-0.00864062565645,0.00867337028285,-0.99992505331,0.0,0.656661293402,0.254325502828,0.303370364913,1.0,-0.01428,-0.018768,0.715
0.461211433339,0.519303944245,-0.124097786154,-1.40068540394,0.0770072653621,1.91061873068,0.153408882261,-0.00785295529893,-0.0764674349802,-0.00132182874565,-0.125063255002,-0.00607499837271,0.0446971722691,-0.0170534892557,0.57412051748,0.81875624338,0.00214295036789,0.0,0.818713468113,-0.574058973822,-0.0120539871255,0.0,-0.00863926366008,0.00867507067588,-0.999925050327,0.0,0.656438277238,0.254048746154,0.303383964194,1.0,-0.01458,-0.0191622857143,0.73
0.461035132684,0.517957147594,-0.124099305452,-1.40279039393,0.0768691666559,1.91137783195,0.153126712504,-0.0135533414942,-0.0776768015488,-0.00082840001738,-0.128931782687,-0.00866529892474,0.0547233411436,-0.0175281254727,0.574109212924,0.8187641823,0.00213829833897,0.0,0.818721379543,-0.574047723808,-0.012052401052,0.0,-0.00864075535912,0.00867023197661,-0.999925079406,0.0,0.656179899497,0.25372922518,0.303393126545,1.0,-0.01492,-0.0196091428571,0.747
0.460841861882,0.516463067947,-0.124105667376,-1.40516701207,0.0767151562496,1.9122602716,0.152795888921,-0.0080568689966,-0.077886398688,-0.000631081029777,-0.128341955228,-0.0112217292388,0.049353597139,-0.0102758025405,0.574085360673,0.81878092731,0.00213040749111,0.0,0.818738093693,-0.574023980411,-0.0120478524891,0.0,-0.00864181322689,0.00866090825893,-0.999925151065,0.0,0.655891116195,0.253371274524,0.303386775718,1.0,-0.0153,-0.0201085714286,0.766
0.460671466453,0.515232058397,-0.124109123749,-1.40710557345,0.0765964118879,1.91298603861,0.152532653917,-0.0127812944175,-0.0813485346328,-0.00185850249646,-0.128835616878,-0.00854528619006,0.0478972600741,-0.0154842571243,0.574082154989,0.818783140009,0.00214379575136,0.0,0.818740482665,-0.574020720001,-0.0120408453195,0.0,-0.00862842408222,0.00866781367938,-0.999925206855,0.0,0.655658822163,0.253073664053,0.30339032015,1.0,-0.0156,-0.0205028571429,0.781
0.460495038154,0.513917099479,-0.124109250424,-1.40922501647,0.0764644490939,1.9137322102,0.152241872215,-0.0108108862035,-0.0901578371028,0.00042244165429,-0.135285135773,-0.00912621260398,0.0488093086136,-0.0181700340908,0.574064345244,0.818795758508,0.00209290947331,0.0,0.818752354645,-0.574003047108,-0.0120760331324,0.0,-0.00868663553805,0.00864616107801,-0.99992489031,0.0,0.65539061207,0.252753038051,0.303367951792,1.0,-0.01592,-0.0209234285714,0.797
0.46028070315,0.512340367754,-0.124115997254,-1.41176404039,0.0763125695314,1.91462782794,0.151888243807,-0.00996678642158,-0.08686147875,-0.00111170163513,-0.127937320726,-0.00457079580255,0.0493398984859,-0.0106221871538,0.574047143609,0.818807960282,0.00203666244172,0.0,0.818763698757,-0.573985969838,-0.0121185365473,0.0,-0.0087539070649,0.00862432260855,-0.999924492235,0.0,0.655070575826,0.252364342524,0.303342034129,1.0,-0.0163,-0.0214228571429,0.816
0.460076091824,0.510888150683,-0.124121324743,-1.41406635958,0.076175771951,1.91550196068,0.151554704044,-0.00959204229688,-0.0870325468556,-0.0013422242655,-0.135936188264,-0.00698221509843,0.0505887360054,-0.0175224603294,0.57402909568,0.818820563884,0.00205630133055,0.0,0.818776538096,-0.573967817845,-0.0121108068948,0.0,-0.0087364951478,0.0086357730799,-0.999924545691,0.0,0.65479477188,0.252010274897,0.303339115474,1.0,-0.01664,-0.0218697142857,0.833
0.459896766658,0.509574028643,-0.124122037603,-1.41615812915,0.0760412246139,1.91628253369,0.151269817335,-0.0117807315382,-0.084119814364,0.000215688510802,-0.142008974529,-0.00376479754239,0.0410672735321,-0.0184832874627,0.5740159213,0.818829806192,0.00205365210368,0.0,0.818785776403,-0.573954686944,-0.012108534022,0.0,-0.008736293517,0.00863215864023,-0.999924578662,0.0,0.654538487584,0.251692755305,0.303331025532,1.0,-0.01694,-0.022264,0.848
0.459678795971,0.508055991928,-0.124127689797,-1.41852549688,0.0758817282361,1.91712846373,0.150933771437,-0.0193728140825,-0.0914502816085,0.000723810405392,-0.141816747393,-0.0134837435975,0.0523100176616,-0.0157496564115,0.574002861082,0.818838989209,0.00204257720335,0.0,0.818794884906,-0.573941745929,-0.0121060164016,0.0,-0.00874072619346,0.00862150580768,-0.999924631831,0.0,0.654246094788,0.251317583845,0.303339760164,1.0,-0.01728,-0.0227108571429,0.865
0.459485438877,0.506620782843,-0.124131948245,-1.4207976094,0.0757401352338,1.91795190209,0.150620808399,-0.0141884067893,-0.0914940637571,0.000602154813955,-0.14757845333,-0.012110974525,0.0553289707861,-0.0162589623301,0.57398732749,0.818849912363,0.002028744934,0.0,0.818805595279,-0.573926243172,-0.012116577078,0.0,-0.00875747672871,0.00861607528485,-0.999924532076,0.0,0.653961418702,0.250970947293,0.303333469239,1.0,-0.0176,-0.0231314285714,0.881
0.459265761311,0.505006356484,-0.124141561279,-1.42325984489,0.0755894372326,1.91890624169,0.150288696322,-0.0116994644184,-0.0892916411943,0.000198684529036,-0.144767341271,-0.0101672715567,0.0543133934859,-0.0112809614466,0.573988821995,0.8188486442,0.00211589656353,0.0,0.818805546217,-0.573927440787,-0.012063046738,0.0,-0.00866360516788,0.0086567284971,-0.999924998686,0.0,0.653669419208,0.250591162046,0.303372880766,1.0,-0.01794,-0.0235782857143,0.898
0.459077481503,0.50362624474,-0.124144381701,-1.42530571705,0.0754586680714,1.91967881643,0.149995368281,-0.010792842449,-0.0965006046525,0.000626105075032,-0.139483398591,-0.00256808870417,0.055960121323,-0.0187878805988,0.573974708791,0.818858303976,0.00220421850309,0.0,0.818816427045,-0.573913026165,-0.0120101665014,0.0,-0.00856975985481,0.00869854961334,-0.999925444446,0.0,0.653423508344,0.250273202805,0.303430179237,1.0,-0.01822,-0.0239462857143,0.912
0.45876511522,0.501333739785,-0.124149728137,-1.42872913555,0.0752393807875,1.92092681529,0.149526148577,-0.0140637214976,-0.100204941245,0.00469065402844,-0.151575568736,-0.0125123391261,0.0538427240357,-0.0208920302569,0.573965927334,0.818864194136,0.00230059176153,0.0,0.818823618694,-0.573903896543,-0.011955998585,0.0,-0.00847018364741,0.00874628307943,-0.999925876513,0.0,0.653000459481,0.249739430731,0.303509452877,1.0,-0.01868,-0.0245508571429,0.935
0.458562271157,0.499827230964,-0.124152204656,-1.43102015916,0.0750948428077,1.92173591802,0.149206915651,-0.0130714882659,-0.0989950835761,-0.00241568766173,-0.147492786022,-0.00823231028801,0.0574980593592,-0.0200690319297,0.573948998746,0.818875968187,0.00233290915165,0.0,0.81883578159,-0.57388680648,-0.0119433260738,0.0,-0.00844143944306,0.00876529828947,-0.999925953082,0.0,0.652692036899,0.249358620674,0.303546207965,1.0,-0.019,-0.0249714285714,0.951
0.458331297927,0.498368215683,-0.124148348313,-1.43334868813,0.0749517400855,1.92260056214,0.148868265321,-0.0192734631416,-0.0981747023292,0.000415281459582,-0.160629105955,-0.00888037631993,0.0493333033443,-0.016844979745,0.573938924912,0.81888307357,0.00231715200695,0.0,0.818842600665,-0.573876713475,-0.0119607678903,0.0,-0.00846487376891,0.00876230174102,-0.999925781236,0.0,0.652421600411,0.249015433792,0.303524365909,1.0,-0.01928,-0.0253394285714,0.965
0.458069524313,0.496682813091,-0.124151268834,-1.43600951671,0.0747891002769,1.92355384685,0.148477837496,-0.0153858046922,-0.100645896817,0.000844341974473,-0.153870643015,-0.00558030836963,0.0630300291234,-0.027700922379,0.573926509278,0.818891825921,0.0022991932555,0.0,0.818851016129,-0.573864266175,-0.0119818317672,0.0,-0.00849256275148,0.00875955626303,-0.999925570506,0.0,0.652087361801,0.24858813305,0.303515442089,1.0,-0.01962,-0.0257862857143,0.982
0.457785212172,0.494907422989,-0.12415431687,-1.4389001002,0.0746053397391,1.92455809371,0.14805186769,-0.0104255221476,-0.094440561469,-0.000662953880673,-0.161565270705,-0.0105786025138,0.0561751134543,-0.0268912344798,0.573908651638,0.818904608297,0.00220204151773,0.0,0.818862408019,-0.573846687423,-0.012045039185,0.0,-0.00860026944705,0.00871608902908,-0.999925029768,0.0,0.651715428508,0.248120299905,0.303463711453,1.0,-0.01998,-0.0262594285714,1.0
0.457484468002,0.492837217856,-0.124207891621,-1.44206696234,0.0744219624485,1.92570708404,0.147609967759,-0.0194480207766,-0.14884845586,-0.00225463934881,-0.219072382004,-0.00672711605611,0.0856464468797,-0.0263969732305,0.573941369091,0.818881567386,0.00224284256515,0.0,0.818839956094,-0.57387928771,-0.01201816722,0.0,-0.00855449941709,0.00873442062044,-0.999925262425,0.0,0.651326998979,0.247593170236,0.303498850074,1.0,-0.0318291428571,-0.0418325877551,1.017
0.45708545089,0.489580510548,-0.124260720546,-1.44715548178,0.0741578290723,1.92767210745,0.146836532525,-0.0300908170646,-0.199824440945,-0.00189210534076,-0.324729109131,-0.012552515671,0.128609472955,-0.0482975290716,0.573857545602,0.818939958249,0.00236834109612,0.0,0.818899807171,-0.57379477876,-0.0119751653236,0.0,-0.00844816228817,0.00881164269914,-0.999925488978,0.0,0.65069129198,0.246832544025,0.303514276962,1.0,-0.0451594285714,-0.0593523918367,1.035
0.456519194799,0.485684063881,-0.124314525337,-1.4533300261,0.0738079070388,1.9300039494,0.145912241944,-0.0379154038943,-0.262704928946,-0.00977915749245,-0.421628961535,-0.0269881063451,0.157768485565,-0.0647630621031,0.573816190017,0.818968795769,0.00241630562385,0.0,0.818929157548,-0.573753117808,-0.0119641809048,0.0,-0.00841208990152,0.00884419411054,-0.999925505712,0.0,0.649921434551,0.245853904761,0.303486491621,1.0,-0.0570085714286,-0.0749255510204,1.051
0.455733588717,0.480493658197,-0.124468353552,-1.46157349679,0.0733095469618,1.93289022372,0.144657718129,-0.0465349440842,-0.328698955344,-0.0100010590524,-0.52538344685,-0.0291970117748,0.180453102729,-0.0712505369732,0.573813253504,0.818971316472,0.00225384138367,0.0,0.81892963818,-0.573750927758,-0.0120360919466,0.0,-0.00856423536987,0.00875237509855,-0.99992502209,0.0,0.648864634112,0.244461120373,0.3034186438,1.0,-0.0695982857143,-0.0914720326531,1.068
0.454868780495,0.474994163267,-0.124603191496,-1.47019413791,0.0727872195113,1.93590245841,0.14340622996,-0.0603496595438,-0.394688918499,-0.00649663267647,-0.595066712798,-0.0326522057749,0.214363994091,-0.0856679736103,0.573870949793,0.818931173035,0.00214795636101,0.0,0.818888078333,-0.573809030518,-0.0120937405856,0.0,-0.00867159136203,0.00869934974265,-0.999924559563,0.0,0.647752114719,0.242993678224,0.303389006466,1.0,-0.0807068571429,-0.106071869388,1.083
0.453730946686,0.4677839348,-0.124735017835,-1.48122471202,0.072157446332,1.9399688332,0.141725989822,-0.072144056668,-0.447917618617,-0.00439922909,-0.672489156539,-0.0406738594185,0.261885133229,-0.108301501406,0.573881599085,0.818923105067,0.00236751364981,0.0,0.818882687026,-0.573818565441,-0.012006071198,0.0,-0.00847368896367,0.00882894926158,-0.999925120322,0.0,0.646353126382,0.24114417353,0.30347705209,1.0,-0.0932965714286,-0.12261835102,1.1
0.452463226778,0.460152629993,-0.124806603868,-1.49301462768,0.0714035953502,1.94421029014,0.13985239156,-0.0838188383361,-0.501043657781,-0.00366680955242,-0.756493131857,-0.0475398736296,0.276718687352,-0.120919583357,0.573783278461,0.818991871354,0.00241058414985,0.0,0.818951876907,-0.573719937818,-0.0120001317156,0.0,-0.00844517273746,0.00885979791028,-0.999925088713,0.0,0.644701391674,0.239024735215,0.303488226381,1.0,-0.105886285714,-0.139164832653,1.117
0.450763116526,0.450423023502,-0.124962886417,-1.50794168076,0.0704138175613,1.94938054867,0.137511837874,-0.0961034706996,-0.585224143943,-0.0112496706363,-0.851193923074,-0.0635549092132,0.311675438582,-0.135286471501,0.573792088266,0.818985820178,0.00236911178864,0.0,0.818945481924,-0.573729121119,-0.0119975046857,0.0,-0.00846672080138,0.00882441656042,-0.99992521936,0.0,0.642826386747,0.236531148685,0.303528046443,1.0,-0.118476,-0.155711314286,1.134
0.448746899712,0.439011699082,-0.125112241483,-1.52535936088,0.0692612543481,1.95548676876,0.134828263447,-0.111862387035,-0.621050883807,-0.00191498754279,-0.957533615154,-0.0556810530975,0.326958920648,-0.151939959686,0.573824809002,0.818962660142,0.00244882997936,0.0,0.818923426834,-0.573761585877,-0.0119503328485,0.0,-0.00838199318604,0.00886297234242,-0.999925592187,0.0,0.640614735184,0.233654133208,0.303587312851,1.0,-0.131806285714,-0.173231118367,1.152
0.447064448367,0.429815732454,-0.125208390955,-1.53912267756,0.0683505400618,1.96034457375,0.132548911264,-0.123799758381,-0.675926693315,-0.0095077954061,-1.01550091239,-0.0640775011867,0.352140855403,-0.159570603132,0.573753080664,0.819012247975,0.00266214132038,0.0,0.818975733797,-0.573688979715,-0.0118511141201,0.0,-0.00817912395203,0.00898001527015,-0.999926227907,0.0,0.63860659309,0.231035684105,0.303727964869,1.0,-0.142914857143,-0.187830955102,1.167
0.444771243883,0.417971000323,-0.125345307626,-1.55699742829,0.0670797705539,1.96651510586,0.129577951796,-0.142762707598,-0.71491037365,-0.0074932537011,-1.06699111742,-0.0710782382205,0.369281426407,-0.180613257343,0.573705078715,0.819045657792,0.00272763805557,0.0,0.819010358657,-0.573641144129,-0.0117735753751,0.0,-0.0080785659101,0.00898869686976,-0.999926967384,0.0,0.636129958187,0.227772993412,0.303807132699,1.0,-0.155504571429,-0.204377436735,1.184
0.442057942447,0.404487892256,-0.125496368299,-1.57726238044,0.0656660606057,1.97358631358,0.126203460123,-0.154929631076,-0.773478731829,-0.0092056294154,-1.15899960932,-0.067173888268,0.391697285089,-0.196604744967,0.57371484682,0.819038108405,0.0029323063051,0.0,0.819005660581,-0.573650416151,-0.0116479563249,0.0,-0.00785815267675,0.00908435584317,-0.999927859356,0.0,0.633292378445,0.22403017425,0.303898355428,1.0,-0.168834857143,-0.221897240816,1.202
0.439182596671,0.390862014349,-0.125657292529,-1.59749249861,0.0642535490316,1.98055025326,0.122725714752,-0.172990963813,-0.786505189097,-0.00987851031155,-1.20833308451,-0.0909640513582,0.414917637997,-0.210137466626,0.573746766189,0.819014700456,0.00321179483053,0.0,0.818985894378,-0.573681456945,-0.0115081565869,0.0,-0.00758294827729,0.00923336005917,-0.999928619431,0.0,0.630409721355,0.220197279372,0.304046951949,1.0,-0.181424571429,-0.238443722449,1.219
0.436401096806,0.37825576708,-0.12579390754,-1.6163593031,0.0627904134456,1.98681267832,0.119345572684,-0.188869375153,-0.856627010759,-0.0111157251721,-1.27293226872,-0.101558173507,0.439112511719,-0.229501636204,0.573657960261,0.819077216227,0.00313135572152,0.0,0.81904785306,-0.573593494457,-0.0114832232448,0.0,-0.00760966776762,0.00915234881577,-0.999929161225,0.0,0.627630014854,0.216549367226,0.304056025208,1.0,-0.192533142857,-0.253043559184,1.234
0.432933951472,0.363275734264,-0.125961289493,-1.63864694195,0.0611361820873,1.99416293702,0.115381293667,-0.216632900775,-0.913712620613,-0.0146297578225,-1.32142967828,-0.104059416462,0.445358382356,-0.237864617084,0.573717404318,0.819035602921,0.00312538514499,0.0,0.819005993351,-0.573652745885,-0.0115089919291,0.0,-0.0076335353425,0.00916279455334,-0.999928883638,0.0,0.624291352057,0.212158227907,0.304069375264,1.0,-0.205122857143,-0.269590040816,1.251
0.429062195093,0.34764058942,-0.126171883414,-1.66196098134,0.0593640475867,2.00166948431,0.111014686328,-0.237368468088,-0.941628622249,-0.012449597046,-1.36374867159,-0.0931854257728,0.437088705247,-0.268185977771,0.57376994349,0.818999513519,0.00293184329499,0.0,0.818967073724,-0.57370552341,-0.0116469509376,0.0,-0.00785698373101,0.00908392839896,-0.999927872425,0.0,0.620722901157,0.207406895149,0.30398492472,1.0,-0.217712571429,-0.286136522449,1.268
0.424866414911,0.331191261465,-0.126348067081,-1.68609146325,0.0574983787447,2.00946148678,0.106419132082,-0.249617395039,-0.975538153898,-0.00475557708579,-1.44167034704,-0.101682438553,0.451404639709,-0.281701687064,0.573826649543,0.818959597143,0.00298352544061,0.0,0.818927580558,-0.573761761481,-0.0116535730362,0.0,-0.00783212345943,0.00913059783349,-0.999927642395,0.0,0.616965444022,0.202436396364,0.304005049985,1.0,-0.230302285714,-0.302683004082,1.285
0.420666322929,0.314998523454,-0.126504699376,-1.70956965685,0.0555173081557,2.01691281663,0.101808466143,-0.27316956224,-1.01750037399,-0.00623893604661,-1.49079342925,-0.12324352695,0.463747321301,-0.291710441044,0.573746472947,0.819015643347,0.00301788599642,0.0,0.818984709884,-0.573682229832,-0.0115538328097,0.0,-0.00773161110144,0.00910074852844,-0.999928696741,0.0,0.613210828794,0.197548473772,0.304066089904,1.0,-0.242151428571,-0.318256163265,1.301
0.415528763044,0.296208156438,-0.126684012435,-1.73670634138,0.0532367122362,2.02535519606,0.0961954988209,-0.29657208887,-1.05476357937,-0.0129693978103,-1.54477255526,-0.137825555014,0.468373572621,-0.312577310239,0.573595319624,0.819121522509,0.00301455933809,0.0,0.81909065203,-0.573531231589,-0.0115402361393,0.0,-0.00772406057875,0.00908879779819,-0.999928863791,0.0,0.608763765266,0.191774840738,0.30408358348,1.0,-0.255481714286,-0.335775967347,1.319
0.410560659977,0.27884867823,-0.126867526232,-1.76143441054,0.0512086355458,2.03294159879,0.0909665071787,-0.324293776687,-1.0858353316,-0.00934062978659,-1.60205923452,-0.132635588189,0.47496603537,-0.345314052955,0.573577036468,0.819133721314,0.00317438872919,0.0,0.819104419542,-0.573511851176,-0.0115262026669,0.0,-0.00762109845651,0.00921149835474,-0.999928531024,0.0,0.604630314977,0.186388220688,0.304158515344,1.0,-0.267330857143,-0.351349126531,1.335
0.406218354396,0.264317787898,-0.12702294613,-1.78185706113,0.0494556904518,2.03906308757,0.08648865512,-0.340288411061,-1.1260522385,-0.00554820015693,-1.59070078591,-0.132634338592,0.454166151138,-0.347364958304,0.57358097645,0.819130376322,0.00332218937189,0.0,0.819102880512,-0.573515210542,-0.0114682743022,0.0,-0.00748882989099,0.00929937789839,-0.999928716958,0.0,0.600874136028,0.181445050598,0.304266135979,1.0,-0.277698857143,-0.364975640816,1.349
0.398128838447,0.239111190191,-0.127379789887,-1.81745712354,0.0462105655034,2.04944137762,0.0784328043303,-0.380898185009,-1.1602596861,-0.0155819747255,-1.60397816921,-0.154519787704,0.468609643247,-0.383081556121,0.573662463733,0.819073863574,0.00318286265253,0.0,0.819044790425,-0.573597384908,-0.011507311012,0.0,-0.00759980231567,0.00920839675045,-0.999928721677,0.0,0.594944846781,0.173556655242,0.304221666574,1.0,-0.293250857143,-0.385415412245,1.37
0.391479810267,0.218920538559,-0.127571552388,-1.84550991679,0.0436894237537,2.05745039623,0.071728876145,-0.408294140967,-1.17656850758,-0.0184013203612,-1.66300335665,-0.149209093017,0.457627560341,-0.411906428802,0.573537435803,0.81916104088,0.00327806927484,0.0,0.819132506037,-0.573471232151,-0.0115512055356,0.0,-0.00758256511171,0.00931040115745,-0.99992790797,0.0,0.589882243399,0.167036962077,0.304246458939,1.0,-0.305840571429,-0.401961893878,1.387
0.384253119686,0.198122857005,-0.127822579227,-1.87405660602,0.0409330304886,2.06527800695,0.0646500913229,-0.431176326719,-1.22344632108,-0.0160193195274,-1.65496833592,-0.154697373492,0.451915618517,-0.426283915961,0.573472400685,0.819206668525,0.00325373598042,0.0,0.819177812816,-0.57340627482,-0.0115629532785,0.0,-0.0076068822619,0.00929660188797,-0.999927851665,0.0,0.58460283745,0.160159658431,0.304279667124,1.0,-0.318430285714,-0.41850837551,1.404
0.376333406871,0.176682796871,-0.128230560044,-1.90307575332,0.0381449720526,2.07309196382,0.0570869516968,-0.483988810194,-1.27501133747,-0.0308732082454,-1.68776822773,-0.153566029649,0.473786321752,-0.450306781331,0.573625754973,0.819098724473,0.0033940682813,0.0,0.819071486209,-0.573558927908,-0.0115240443192,0.0,-0.00749277609711,0.00939065397358,-0.999927834358,0.0,0.579158730203,0.152859143508,0.304355759588,1.0,-0.33102,-0.435054857143,1.421
0.368915649698,0.157353175546,-0.128550380824,-1.92898569769,0.0355074985018,2.07976713307,0.0500424275324,-0.502848987118,-1.29793417382,-0.0131616314739,-1.72294697556,-0.170053824603,0.465184918463,-0.477934460385,0.573650461475,0.819081572615,0.00335743268559,0.0,0.819053738017,-0.573583591214,-0.0115578990893,0.0,-0.00754123905734,0.00938029253722,-0.999927567289,0.0,0.574475565092,0.146681763064,0.304388106231,1.0,-0.341388,-0.448681371429,1.435
0.359447166279,0.133603589575,-0.128919988377,-1.9604059534,0.0321972723562,2.08769378778,0.0411254694281,-0.540046262828,-1.35196923985,-0.0264011736367,-1.76218597282,-0.182854291455,0.445634797819,-0.513363438997,0.573602749341,0.819114380584,0.00350205237227,0.0,0.819088836767,-0.573535983431,-0.0114324142265,0.0,-0.00735604347296,0.00942633772201,-0.999928513836,0.0,0.567913877131,0.138080205482,0.304464305172,1.0,-0.355458857143,-0.467174497959,1.454
0.349732529936,0.110718235638,-0.129400972206,-1.99033812305,0.0289221557665,2.09489413943,0.0321251588938,-0.590588280249,-1.37105252516,-0.0350286852727,-1.77870077939,-0.198673392104,0.423944769653,-0.542894495108,0.573681240712,0.819059345585,0.00351701102733,0.0,0.819034344767,-0.573614871241,-0.0113784219168,0.0,-0.00730233357394,0.00940832116424,-0.999929077194,0.0,0.561833583404,0.129972627379,0.304496300678,1.0,-0.368048571429,-0.483720979592,1.471
0.340046110494,0.0887636986714,-0.129746656307,-2.01865643002,0.0257445201975,2.10135698834,0.023152354892,-0.608803287281,-1.3825150334,-0.0179840072749,-1.77903250468,-0.195778887404,0.381127919891,-0.56909400083,0.573581453629,0.819129212104,0.00352091333918,0.0,0.819104191796,-0.573514996693,-0.0113850099304,0.0,-0.00730663828747,0.00941440667706,-0.999928988471,0.0,0.55588793488,0.122222198116,0.304524385862,1.0,-0.379897714286,-0.499294138775,1.487
0.328425436471,0.0639237384602,-0.130177607245,-2.05049288773,0.0221283715598,2.10824902945,0.0124959787154,-0.656398796985,-1.35956266822,-0.0293402266294,-1.76643333353,-0.202419035625,0.362931979098,-0.601417936556,0.573521043883,0.819172025182,0.00339886520533,0.0,0.819144520107,-0.57345380438,-0.0115644421315,0.0,-0.00752432016486,0.00941679403317,-0.999927351659,0.0,0.549012175324,0.113260223003,0.304440258586,1.0,-0.37998,-0.499402285714,1.505
0.318118164589,0.0433162265367,-0.130641766767,-2.07640768147,0.0190121908098,2.11347557221,0.00344433136001,-0.692804981161,-1.35290812515,-0.0302555022727,-1.74680504421,-0.201599559895,0.342919760616,-0.594754804787,0.573798590765,0.818978173422,0.00326735303157,0.0,0.818948668338,-0.573731368656,-0.0116679967672,0.0,-0.00768139964392,0.0093710549381,-0.99992658702,0.0,0.543286185348,0.105574760558,0.304414962179,1.0,-0.37998,-0.499402285714,1.52
0.306142813631,0.0202071496345,-0.131012506144,-2.10485514599,0.0155611259649,2.11893482073,-0.00715068214462,-0.725280208544,-1.32120001319,-0.0314094894189,-1.64821948184,-0.207635879062,0.313505666576,-0.640137130052,0.573896452618,0.818909303136,0.00334092977594,0.0,0.818880254845,-0.57382836354,-0.0116997573711,0.0,-0.00766406744661,0.00945045262858,-0.999925972768,0.0,0.536825951607,0.097038847052,0.304478127052,1.0,-0.37998,-0.499402285714,1.537
0.292175834349,-0.00523481992859,-0.131503485482,-2.13553390684,0.0117103539479,2.12448954618,-0.0194037838615,-0.73555128448,-1.32383137207,-0.0139458993211,-1.54262811707,-0.196311764965,0.280451633527,-0.646095603742,0.574108250812,0.81875989204,0.00356404792889,0.0,0.818733736453,-0.574039415045,-0.0116002443535,0.0,-0.00745205430134,0.00957798667841,-0.999926361818,0.0,0.529693219792,0.0874418615412,0.30461100338,1.0,-0.37998,-0.499402285714,1.556
0.280913280388,-0.0251352675171,-0.131764251061,-2.1592732668,0.00860290747285,2.12845890891,-0.0294088749648,-0.766178262292,-1.31473528436,-0.0240570460057,-1.50899316613,-0.196683679354,0.238418477811,-0.664255148031,0.573992515752,0.818840756771,0.00362681842673,0.0,0.818815437288,-0.573923532722,-0.0115674174659,0.0,-0.00739049871769,0.00960949098056,-0.999926516406,0.0,0.52398034393,0.0800004648024,0.304660007727,1.0,-0.37998,-0.499402285714,1.571
0.266755600531,-0.0486769625423,-0.132246253993,-2.18697984686,0.0049384827656,2.13273497039,-0.0417259267531,-0.78785227902,-1.29166976615,-0.0217433993347,-1.48440200383,-0.190150807943,0.225287222467,-0.70244504959,0.574198019262,0.818696564315,0.00364926785713,0.0,0.818671071396,-0.574128333844,-0.0116223938672,0.0,-0.00742020871563,0.00966129157382,-0.999925797221,0.0,0.517518332704,0.0713936009966,0.30465898489,1.0,-0.37998,-0.499402285714,1.588
0.254731700056,-0.0680822868302,-0.132492815425,-2.20957108021,0.00182376762754,2.13591056149,-0.0523435965102,-0.814805199425,-1.27676491417,-0.0210406430412,-1.49560966494,-0.214426486322,0.196635562906,-0.725942078813,0.574076544219,0.818781602787,0.00368174099629,0.0,0.8187563249,-0.574006505766,-0.0116343747602,0.0,-0.00741281144875,0.00969365701677,-0.999925538848,0.0,0.511409281697,0.0634812764875,0.304673126044,1.0,-0.37998,-0.499402285714,1.604
0.239727416241,-0.0910357231627,-0.132938625508,-2.23578407995,-0.00181753261912,2.13923190098,-0.0655273839499,-0.835892589763,-1.26838179084,-0.0171901451318,-1.44006469375,-0.195141035396,0.158584134366,-0.740290219913,0.574118297208,0.818751983824,0.00375721915945,0.0,0.818727119065,-0.574047270533,-0.0116782961986,0.0,-0.00740494934526,0.00978104906146,-0.999924746071,0.0,0.504577003875,0.0544722113271,0.304688870478,1.0,-0.37998,-0.499402285714,1.622
0.225219073833,-0.112364746368,-0.133191651685,-2.25983103534,-0.00538410688889,2.14189153183,-0.07832583989,-0.873576552229,-1.24083060361,-0.0144864985828,-1.41785712394,-0.215010058186,0.150333003315,-0.76425918024,0.5738921038,0.818911015666,0.00365356237312,0.0,0.81888493638,-0.573821614115,-0.0117031211821,0.0,-0.00748746595241,0.00970836294376,-0.999924839947,0.0,0.498099158611,0.0461095285138,0.304659054891,1.0,-0.37998,-0.499402285714,1.639
0.210125721975,-0.133481281516,-0.133607842087,-2.283170875,-0.00880719788578,2.14406032006,-0.0916008018779,-0.891520819217,-1.23816810696,-0.0150609192693,-1.3716890273,-0.206977558007,0.121953238078,-0.790297110077,0.573893921966,0.818909717681,0.00365889585717,0.0,0.818882918795,-0.573822393599,-0.011805626294,0.0,-0.00756833143057,0.00977157262724,-0.999923615447,0.0,0.491626972896,0.0376367670069,0.304657897119,1.0,-0.37998,-0.499402285714,1.656
0.195492471243,-0.153113957442,-0.133967945618,-2.30456734476,-0.0120218276608,2.14579857378,-0.104538393161,-0.933626372688,-1.22012727455,-0.0305112735969,-1.32385194267,-0.198949347383,0.0871586908566,-0.821445290332,0.57381158351,0.818967317008,0.00368065271536,0.0,0.818940262728,-0.573739297059,-0.0118664229757,0.0,-0.00760662393631,0.00982351479309,-0.999922815936,0.0,0.485530233159,0.0296930172797,0.304642685665,1.0,-0.37998,-0.499402285714,1.672
0.179460033119,-0.173700668011,-0.134392472643,-2.32662202896,-0.0154264416783,2.14715838615,-0.118682984672,-0.944580526781,-1.19098551245,-0.0220026016557,-1.28927007984,-0.191021257344,0.0578017776136,-0.83880688612,0.57378611421,0.81898526392,0.00365780294931,0.0,0.81895708171,-0.573712846032,-0.0119839690899,0.0,-0.00771631411058,0.0098720087525,-0.999921497889,0.0,0.479039778874,0.0212369807635,0.30462639647,1.0,-0.37998,-0.499402285714,1.689
0.16377333264,-0.192851811145,-0.134934935718,-2.3466822657,-0.0186531234912,2.14811523634,-0.132487436128,-0.994229729617,-1.20998303371,-0.0407271903115,-1.24189561014,-0.19730655796,0.0629363424084,-0.872498260534,0.57391413067,0.818895242463,0.00372818866846,0.0,0.818867908582,-0.5738404976,-0.0119657222651,0.0,-0.00765943486269,0.00992038214743,-0.999921456453,0.0,0.472970119593,0.0131503544746,0.304667112869,1.0,-0.37998,-0.499402285714,1.705
0.147780550629,-0.211659272795,-0.135333566176,-2.36626311232,-0.0217147932515,2.14868832416,-0.146738164497,-1.01366783086,-1.16164290929,-0.0214805440451,-1.18515095903,-0.194616737021,0.0215155374754,-0.898001113878,0.573850818504,0.818939591066,0.00373245070283,0.0,0.818910801018,-0.573775229587,-0.0121586508,0.0,-0.0078157632328,0.0100339890937,-0.999919113183,0.0,0.466466671276,0.00471768506427,0.304631128936,1.0,-0.37998,-0.499402285714,1.722
0.129135542088,-0.232552723657,-0.135931830352,-2.38741551603,-0.0253518868797,2.14905391578,-0.163198404506,-1.04328989119,-1.16250212929,-0.0218678069099,-1.16266149869,-0.200478784645,0.00923165413156,-0.924834241352,0.573980312739,0.818848462125,0.00381360255183,0.0,0.818821373184,-0.573905224246,-0.0120457171329,0.0,-0.00767511829161,0.010036857006,-0.999920173844,0.0,0.46040528067,-0.00333610106133,0.304680724875,1.0,-0.37998,-0.499402285714,1.738
0.112091708324,-0.250813335351,-0.136493147597,-2.40545766393,-0.0283456358116,2.14911143347,-0.178412586377,-1.07456551255,-1.12183055782,-0.0450826428265,-1.1251896353,-0.193758387168,-0.00655127434255,-0.961828468088,0.574066240252,0.818786793744,0.00410914757122,0.0,0.818763845887,-0.573990461195,-0.0118937809711,0.0,-0.0073800013652,0.0101924358292,-0.999920821781,0.0,0.45401129013,-0.0118429741609,0.304783026248,1.0,-0.37998,-0.499402285714,1.755
0.0935354882124,-0.269768172808,-0.136944224555,-2.42404516109,-0.0315938115911,2.14895121938,-0.195067610418,-1.10535223901,-1.11983467753,-0.035781815136,-1.06545428459,-0.195433961366,0.000537059345651,-0.997757438479,0.5739746871,0.818850095858,0.00428088577979,0.0,0.818830391903,-0.573899777916,-0.0116867919512,0.0,-0.00711306825977,0.0102134387745,-0.999922541964,0.0,0.447617342793,-0.0202745054729,0.30483118786,1.0,-0.37998,-0.499402285714,1.772
0.0744644313571,-0.288313714562,-0.137502797459,-2.44208876428,-0.0347544262325,2.14825175442,-0.212321022736,-1.13052925011,-1.08213337344,-0.0274297177413,-1.05021955567,-0.183503328074,-0.0497582172758,-1.03371149789,0.573912290542,0.818893843612,0.00427814914584,0.0,0.81887301945,-0.573835850011,-0.0118381654404,0.0,-0.00723938482782,0.0102975278117,-0.999920772976,0.0,0.441122169045,-0.0287260302085,0.304782025284,1.0,-0.37998,-0.499402285714,1.789
0.0547441017508,-0.306467791374,-0.138102854986,-2.45925032811,-0.0379630003759,2.14738309774,-0.230130778535,-1.17592118444,-1.03807971452,-0.0254458010687,-1.00398155422,-0.197434415836,-0.06610078312,-1.05597864294,0.573924129747,0.818884956052,0.00438964088493,0.0,0.818866493657,-0.573848642413,-0.0116682504095,0.0,-0.00703610072807,0.0102914184435,-0.999922286977,0.0,0.434713523782,-0.0372573386325,0.304836155412,1.0,-0.37998,-0.499402285714,1.806
0.0345225476706,-0.324202902122,-0.138718936935,-2.4757754999,-0.0409048144233,2.14614747185,-0.248402462101,-1.20003113569,-1.04551049452,-0.0452656239305,-0.946900321472,-0.170166547946,-0.0627633367482,-1.0748228018,0.574084808005,0.81877130219,0.00457545948735,0.0,0.818754504141,-0.574007602355,-0.0117081718482,0.0,-0.00696010058394,0.0104678631902,-0.999920987299,0.0,0.428263166566,-0.0457402989603,0.304861665509,1.0,-0.37998,-0.499402285714,1.823
0.0125943631212,-0.342504336886,-0.139284861694,-2.4926420441,-0.0441456290414,2.14458719182,-0.268504445899,-1.2361116728,-1.02161800589,-0.042656248008,-0.925247741175,-0.177467175762,-0.0928479894432,-1.12232652293,0.573921157359,0.818886050969,0.00457029160487,0.0,0.818869086785,-0.573843845982,-0.0117220321318,0.0,-0.00697650920938,0.0104701943442,-0.999920848542,0.0,0.421394561198,-0.0546670438317,0.304843040684,1.0,-0.37998,-0.499402285714,1.841
-0.00874840482494,-0.359189037341,-0.139890039243,-2.50757210398,-0.04703579217,2.14287435266,-0.288095078202,-1.25935937147,-0.952910353502,-0.0257272283573,-0.858892808388,-0.158870336147,-0.0972875465678,-1.17355335353,0.573924843692,0.818882609733,0.00472145855075,0.0,0.818867868147,-0.573847455918,-0.0116300797212,0.0,-0.00681440425431,0.0105412453357,-0.999921219918,0.0,0.414988566539,-0.0631558827898,0.304907869474,1.0,-0.37998,-0.499402285714,1.858
-0.0319027143,-0.376286351367,-0.140545341844,-2.52283895333,-0.0501210827995,2.14081100184,-0.309477582203,-1.29566694109,-0.931060030028,-0.0372458718143,-0.826590248585,-0.163055224362,-0.12303669993,-1.21230967234,0.573851188325,0.818934443254,0.00468382444429,0.0,0.818918628475,-0.573773031931,-0.0117275174514,0.0,-0.00691674899125,0.0105657243385,-0.999920258847,0.0,0.408112114556,-0.0721265051628,0.304869521978,1.0,-0.37998,-0.499402285714,1.876
-0.0516562907052,-0.390097920153,-0.141070166537,-2.53470124215,-0.0525672646805,2.13904572865,-0.327726790075,-1.31899426618,-0.914059596585,-0.0257307552891,-0.808356148124,-0.161463649461,-0.12179646315,-1.23837987272,0.573864745812,0.818923937473,0.00485644411262,0.0,0.818911616961,-0.573788027552,-0.0114808512857,0.0,-0.00661550182108,0.0105656577274,-0.999922297987,0.0,0.402486454718,-0.0796059598311,0.304975259125,1.0,-0.37998,-0.499402285714,1.891
-0.0718956392533,-0.403353679925,-0.1416370669,-2.5462427113,-0.0548600153403,2.13707208503,-0.34651229726,-1.36219777165,-0.867874844035,-0.0461196996687,-0.781687644975,-0.166111872091,-0.143255596974,-1.2649288784,0.573933600041,0.818875355527,0.00491139047994,0.0,0.818862423707,-0.573854596658,-0.0116610392794,0.0,-0.00673064326858,0.0107146216557,-0.999919944458,0.0,0.396743509199,-0.0870911906474,0.30492375541,1.0,-0.37998,-0.499402285714,1.906
-0.0951670137074,-0.417872168249,-0.142220091159,-2.55831536373,-0.0574312910413,2.13481458475,-0.368381146854,-1.38941015666,-0.871328086789,-0.0429866705722,-0.701933162143,-0.148164886603,-0.125861179191,-1.3035407551,0.573801580619,0.818966632614,0.00511347675135,0.0,0.818957667084,-0.573724214986,-0.0113847074318,0.0,-0.00639009310279,0.0107204905129,-0.999922115864,0.0,0.390376261672,-0.0955297184964,0.305053474043,1.0,-0.37998,-0.499402285714,1.923
-0.120453339836,-0.432321272867,-0.14287439548,-2.57061236074,-0.0600290755431,2.13215322579,-0.392160365818,-1.42445819714,-0.807292538693,-0.04693807324,-0.671631465042,-0.123621571178,-0.150091786751,-1.31863817293,0.573766660357,0.818991399382,0.00506498793561,0.0,0.818979581576,-0.573685777959,-0.0117396775857,0.0,-0.00670911260126,0.0108841668562,-0.999918258019,0.0,0.383469072895,-0.104466170217,0.304951678767,1.0,-0.37998,-0.499402285714,1.941
-0.143401858502,-0.444572124122,-0.143403643288,-2.58059575523,-0.0623123830648,2.12988898458,-0.413778907536,-1.46436806742,-0.759243619325,-0.0369961696239,-0.604490530565,-0.141662175609,-0.133995294403,-1.38160848919,0.573729266573,0.819017202439,0.00512812706844,0.0,0.819007011302,-0.573649512822,-0.011597360877,0.0,-0.00655681670567,0.0108539263457,-0.999919596986,0.0,0.377441609915,-0.11243461573,0.305014589102,1.0,-0.37998,-0.499402285714,1.957
-0.166758783883,-0.456072936396,-0.14399543326,-2.59003812637,-0.0644610887451,2.12762318386,-0.43596561274,-1.45531585785,-0.713420936429,-0.0326806293535,-0.580104507873,-0.129353795713,-0.161202110799,-1.41437696986,0.573681905513,0.819050125371,0.00516820258189,0.0,0.819039900541,-0.57360111778,-0.0116681577152,0.0,-0.00659244618661,0.0109269854589,-0.999918567005,0.0,0.371365536946,-0.120396574438,0.304984890975,1.0,-0.37998,-0.499402285714,1.973
-0.191861791268,-0.46734698327,-0.144452350768,-2.5992773911,-0.0664751078737,2.12518922296,-0.459917640044,-1.46552354272,-0.640148903421,-0.0249786138663,-0.519451217992,-0.10422775492,-0.136910123294,-1.40764788461,0.573576995899,0.819123401523,0.00519901481786,0.0,0.819111849997,-0.573493277365,-0.0119157422647,0.0,-0.00677899380517,0.0110933838797,-0.999915487467,0.0,0.364955738398,-0.128725147012,0.304908495334,1.0,-0.367554857143,-0.483072097959,1.99
-0.219971604615,-0.478685133495,-0.144749776401,-2.60813933909,-0.0684356663956,2.12275754682,-0.486354914442,-1.46811655788,-0.56894001786,-0.0114715545883,-0.4406752339,-0.0966631894918,-0.132116777046,-1.38942129243,0.573813671706,0.81895651371,0.00537082089842,0.0,0.818948243996,-0.573731064295,-0.0117126606549,0.0,-0.00651087830056,0.0111195232447,-0.999916978887,0.0,0.358102860308,-0.137881808816,0.304992701365,1.0,-0.353484,-0.464578971429,2.009
-0.241791381208,-0.486701446031,-0.144822248769,-2.61446665464,-0.0697361946,2.12088474268,-0.507064565842,-1.44322878963,-0.520511800904,-0.007714260422,-0.410442390205,-0.0841363681929,-0.114885170527,-1.38726139772,0.57385022464,0.818930309898,0.00546023003842,0.0,0.81892273849,-0.573766513061,-0.0117594121331,0.0,-0.00649736696719,0.0112198638472,-0.999915945906,0.0,0.352817175531,-0.144798884507,0.30499102833,1.0,-0.342375428572,-0.449979134694,2.024
-0.266167580454,-0.4947114031,-0.144725529023,-2.6208180538,-0.0710063883653,2.11888773187,-0.530204015797,-1.43081253324,-0.450579613493,0.00352977824879,-0.349531779079,-0.0728107861717,-0.102043619709,-1.35157673162,0.573876362484,0.818911806267,0.0054882638316,0.0,0.81890349869,-0.57379065174,-0.0119203485802,0.0,-0.00661272702179,0.0113353829774,-0.999913886759,0.0,0.347008230617,-0.152372669173,0.30495034886,1.0,-0.329785714286,-0.433432653061,2.041
-0.292677997266,-0.502500687903,-0.144486108138,-2.62682756711,-0.0720637452183,2.11699524874,-0.555451743459,-1.3732469549,-0.380134096401,0.00597677611033,-0.302084528778,-0.0531336601791,-0.0925950941231,-1.30705997878,0.573929200394,0.818873502242,0.00567513551439,0.0,0.818867692073,-0.573842899179,-0.0118649417309,0.0,-0.00645937453522,0.0114570422248,-0.999913502591,0.0,0.340850947307,-0.160475994754,0.304976294611,1.0,-0.315714857143,-0.414939526531,2.06
-0.31174149105,-0.507449836753,-0.144266540919,-2.63052270316,-0.0726785942784,2.11574967552,-0.573649839531,-1.35684477139,-0.345539221007,0.0269724082169,-0.253654904734,-0.052018734933,-0.0854583208874,-1.29446938072,0.573995980875,0.818825510552,0.00584329614083,0.0,0.818822456413,-0.573910086232,-0.0117364686502,0.0,-0.00625671380361,0.0115215297596,-0.999914050249,0.0,0.336516765519,-0.166251662093,0.305037432498,1.0,-0.305346857143,-0.401313012245,2.074
-0.336976118912,-0.513241945056,-0.143880710322,-2.63492208455,-0.0734740687481,2.1142251212,-0.597771057961,-1.29563463964,-0.276607237799,0.0349190004372,-0.221947279704,-0.0477743835398,-0.0848485676444,-1.25950309203,0.574027474091,0.81880290972,0.00591615789997,0.0,0.818801083325,-0.573941840089,-0.0116746323994,0.0,-0.00616381109965,0.0115459385399,-0.9999143457,0.0,0.33079703008,-0.173799487659,0.305063340102,1.0,-0.291276,-0.382819885714,2.093
-0.357534343456,-0.517241923467,-0.143458530471,-2.63813968575,-0.0739218604037,2.11306503896,-0.617439475897,-1.27238652602,-0.233218277456,0.0139568647781,-0.191984091779,-0.0343662557619,-0.0653044364843,-1.23130614662,0.574071438519,0.818771715381,0.00596728336393,0.0,0.818769123063,-0.573982940392,-0.0118934502456,0.0,-0.00631302335323,0.0117137429842,-0.999911463061,0.0,0.326145934346,-0.179831532056,0.304988972447,1.0,-0.279426857143,-0.367246726531,2.109
-0.377333842186,-0.520542867677,-0.142887008742,-2.64078158227,-0.0742915677963,2.1121160684,-0.636459583883,-1.21837650119,-0.19591922009,0.0384162331775,-0.151311402702,-0.021037544833,-0.0537566705053,-1.18020115305,0.573987278822,0.818830894777,0.00594276119552,0.0,0.818827256998,-0.573897557832,-0.012010962217,0.0,-0.00642453449461,0.011760460793,-0.999910204428,0.0,0.321741938943,-0.185578805582,0.304936820743,1.0,-0.267577714286,-0.351673567347,2.125
-0.397658438919,-0.523400882744,-0.142318894058,-2.64298795298,-0.074551734628,2.11125598441,-0.65603547743,-1.17639779004,-0.147916779788,0.03804893897,-0.121637868193,-0.00101048237733,-0.0445852740894,-1.13164467356,0.573953575938,0.818854260466,0.00597826774323,0.0,0.818850757291,-0.573863113163,-0.0120545234833,0.0,-0.00644031456978,0.0118142733897,-0.999909468548,0.0,0.317271731813,-0.191468997514,0.304924610245,1.0,-0.254988,-0.335127085714,2.142
-0.417216539602,-0.525672529243,-0.141688589754,-2.64473467095,-0.0747281209828,2.11055349256,-0.674831391845,-1.1242459092,-0.121860017894,0.0478318871874,-0.0997186618432,-0.0118131992132,-0.0357111536865,-1.09580430403,0.573951127201,0.818855948837,0.00598210171843,0.0,0.81885239719,-0.573860468216,-0.0120690321388,0.0,-0.00645003125355,0.0118257206144,-0.999909270598,0.0,0.313003225667,-0.197093204544,0.304919552991,1.0,-0.242398285714,-0.318580604082,2.159
-0.434861889134,-0.527297679097,-0.141110052043,-2.64599312991,-0.0747671999405,2.11004193365,-0.691801659513,-1.09746035241,-0.0871373951408,0.0230981755772,-0.0679430355163,0.000180053221043,-0.0336395133774,-1.052444088,0.574002692462,0.818819403484,0.00603659052801,0.0,0.818816469174,-0.573911619788,-0.0120743274198,0.0,-0.00642234777752,0.0118737847978,-0.99990887919,0.0,0.309175370944,-0.202145541148,0.30491369295,1.0,-0.230549142857,-0.303007444898,2.175
-0.454692593842,-0.528752785789,-0.140304068854,-2.6471518823,-0.0747740229212,2.10955879387,-0.710947682017,-1.01924043186,-0.0674486362389,0.0478246343638,-0.055960996832,-0.00759335469878,-0.0258776817249,-0.994027699336,0.573922117273,0.818876072859,0.006010616015,0.0,0.818872705474,-0.573830998598,-0.0120923189941,0.0,-0.00645315714289,0.0118622071019,-0.999908818246,0.0,0.304882343748,-0.207753196404,0.30489877938,1.0,-0.216478285714,-0.284514318367,2.194
-0.468794212347,-0.529473811676,-0.139778928697,-2.64770567826,-0.0747654830945,2.10927236683,-0.724388110181,-0.983728809512,-0.0514604392221,0.0482222130075,-0.0323671746472,0.0066172530219,-0.0153098431004,-0.949609250016,0.574056089054,0.81878231885,0.00598897822777,0.0,0.818778791413,-0.573965259092,-0.0120796932303,0.0,-0.00645329803991,0.0118382977318,-0.999909100694,0.0,0.301628621914,-0.21203416827,0.304906632401,1.0,-0.205369714286,-0.269914481633,2.209
-0.486749703686,-0.530045597359,-0.13892535614,-2.64814466839,-0.0746729598061,2.10902330298,-0.741702407734,-0.933724184481,-0.0259238971519,0.0373169203735,-0.0207904114408,0.00312967889411,-0.00881050310211,-0.879857939336,0.573999855123,0.818822327005,0.00590846997325,0.0,0.818817960834,-0.573909760625,-0.0120615329234,0.0,-0.00648544873254,0.0117615059312,-0.999909798898,0.0,0.297999470116,-0.216805290463,0.304910185989,1.0,-0.192039428572,-0.252394677551,2.227
-0.501756200228,-0.530230216504,-0.138115132339,-2.64828385489,-0.0744946716899,2.10888553038,-0.756296544763,-0.858510184315,-0.00674636178578,0.0466167846233,-0.00756165227325,0.0130132760103,-0.00411713713212,-0.834659570321,0.573833877345,0.818939100679,0.00584615190799,0.0,0.818934208356,-0.57374459072,-0.0120272152166,0.0,-0.00649548383763,0.0116894623845,-0.999910578581,0.0,0.294818996019,-0.220991581003,0.304923976238,1.0,-0.179449714286,-0.235848195918,2.244
-0.51439062187,-0.53025667523,-0.137468723944,-2.64832137909,-0.0742951792912,2.10882728429,-0.768376220586,-0.829948490629,-0.000946669154284,0.0350041321168,-0.000553967308292,0.0153581439275,-0.00168263375656,-0.791650694324,0.573915219077,0.81888215581,0.00583807410869,0.0,0.818877374726,-0.573826338617,-0.011996881792,0.0,-0.00647411638123,0.0116660844497,-0.999910990184,0.0,0.292120137597,-0.224506314899,0.304928703318,1.0,-0.168341142857,-0.221248359184,2.259
-0.529135788954,-0.530042815444,-0.136477597869,-2.64820411041,-0.07386966633,2.10881150118,-0.782645678924,-0.754221714671,0.0105681836882,0.048530023589,0.0116355189869,0.0213454170764,-0.000169184726116,-0.731733053149,0.573794165682,0.8189668971,0.0058501098827,0.0,0.818962317057,-0.573705341126,-0.0119854789693,0.0,-0.00645959560308,0.0116684421037,-0.999911056586,0.0,0.289021386566,-0.228529097871,0.304928826254,1.0,-0.154270285714,-0.202755232653,2.278
-0.540074623964,-0.52973875224,-0.135813164211,-2.64804388297,-0.0735227706225,2.10881883701,-0.793078841355,-0.715233544612,0.0193751901146,0.0392091133661,0.0110257919435,0.0272757738226,-0.00268456707818,-0.680983370357,0.573897114749,0.818894353631,0.0059064519947,0.0,0.818890124965,-0.573807346931,-0.0120348969179,0.0,-0.00646626807941,0.0117437539332,-0.999910131772,0.0,0.286693790443,-0.231516387947,0.30490882902,1.0,-0.143161714286,-0.188155395919,2.293
-0.551458993457,-0.529254849496,-0.134925889159,-2.64775763799,-0.0730825667259,2.10886884832,-0.804027209301,-0.641388349628,0.0279344238612,0.0491360717795,0.0149879908471,0.0318726818236,0.00113425571896,-0.623963137498,0.573832758058,0.818939358169,0.00591948663518,0.0,0.818934951612,-0.573742317956,-0.0120848878771,0.0,-0.00650065549618,0.0117826058942,-0.999909451739,0.0,0.284316188394,-0.234576853345,0.304889786201,1.0,-0.130572,-0.171608914286,2.31
-0.561987816903,-0.528682615398,-0.13411683232,-2.64742414272,-0.0726476247608,2.10896955803,-0.814066782363,-0.608405965846,0.0330507629208,0.0417475100099,0.0212964993817,0.0265810465772,0.00754616798622,-0.577777253732,0.573867529736,0.818914771919,0.00594992008317,0.0,0.818910407525,-0.573776308927,-0.0121341939438,0.0,-0.00652307307156,0.0118360992655,-0.999908673966,0.0,0.282111501037,-0.237406609666,0.30486205279,1.0,-0.117982285714,-0.155062432653,2.327
-0.571101999099,-0.528122316114,-0.133409611319,-2.64700703448,-0.0722213502576,2.10907430789,-0.822616987279,-0.539840291214,0.0422573434315,0.0486831771838,0.0233969157787,0.0326346807832,0.0029612812853,-0.524309395333,0.574035536287,0.818796629691,0.00600243183598,0.0,0.818793151921,-0.57394442234,-0.0120963355297,0.0,-0.006459500856,0.0118587048519,-0.999908818827,0.0,0.280218757301,-0.239864600871,0.304874197259,1.0,-0.106133142857,-0.13948927347,2.343
-0.579594979557,-0.527437300979,-0.132530789866,-2.6465447635,-0.0717399240382,2.10920434376,-0.830779278189,-0.486662029682,0.0405337125407,0.0435077648482,0.0259913891767,0.0249592425488,0.00968467794212,-0.461914969015,0.573917439723,0.818879411173,0.00600243613049,0.0,0.818875827428,-0.57382615588,-0.0121106970643,0.0,-0.00647297025497,0.011866018563,-0.999908644957,0.0,0.278506628447,-0.242101655274,0.304867586898,1.0,-0.0935434285715,-0.122942791837,2.36
-0.58737230587,-0.52681384886,-0.131694676079,-2.64608219475,-0.0712788053869,2.10932125519,-0.838008934845,-0.439873881228,0.0384526782896,0.0524517457384,0.0259960330545,0.0206672099409,0.00513275451386,-0.402767069805,0.573997851766,0.818823073147,0.00599899591115,0.0,0.818819628339,-0.573906903161,-0.0120842729614,0.0,-0.00645214058123,0.011848670446,-0.999908985303,0.0,0.276940561006,-0.244139490103,0.304881114902,1.0,-0.0809537142858,-0.106396310204,2.377
-0.594140087371,-0.526156511898,-0.130864419278,-2.64561134753,-0.0707752499307,2.10944422127,-0.844301048084,-0.373867630748,0.0427370895359,0.0487335656276,0.0236637134877,0.0265985823953,0.00141330774767,-0.351071695941,0.574041703161,0.818792160411,0.00602229053294,0.0,0.818789011665,-0.573950631776,-0.0120819519331,0.0,-0.00643623398663,0.0118667580505,-0.999908873321,0.0,0.275612714107,-0.245888142545,0.304886130486,1.0,-0.0683640000001,-0.0898498285716,2.394
-0.599470312749,-0.525579243238,-0.129984178802,-2.6452392221,-0.0702827893019,2.10956056498,-0.849293020258,-0.309527018368,0.0345545501993,0.0599215547885,0.0231402374423,0.0360522372416,0.00640101446479,-0.28493123654,0.573920051446,0.818877546055,0.00600716369843,0.0,0.818873971769,-0.573828650903,-0.0121179479755,0.0,-0.00647615754664,0.011874071935,-0.999908528716,0.0,0.274558929158,-0.247273735482,0.304875578549,1.0,-0.0557742857144,-0.0733033469389,2.411
-0.604311074125,-0.525103222689,-0.129085857536,-2.64493262501,-0.0697678536914,2.10962033085,-0.853737907313,-0.269576133458,0.0202644635621,0.0519040103604,0.0163114019951,0.0304787954076,0.00152360053529,-0.240556667677,0.573853149851,0.818924416539,0.00600910173825,0.0,0.818920544599,-0.573761163807,-0.0121661597041,0.0,-0.00651550147399,0.0119027951015,-0.999907931616,0.0,0.273718076791,-0.248347151748,0.304868493724,1.0,-0.0439251428573,-0.0577301877553,2.427
-0.60829779359,-0.524694325575,-0.128196860289,-2.64464506732,-0.0692609574842,2.1097386853,-0.85716002835,-0.213756542396,0.0207060909744,0.0524354134928,0.0185247955935,0.030546475337,0.00792195635452,-0.178727836536,0.573918686496,0.81887859076,0.00599514702221,0.0,0.818874860045,-0.573827338863,-0.012120052051,0.0,-0.00648479673403,0.0118654279784,-0.999908575336,0.0,0.273032312364,-0.249264093879,0.304881487023,1.0,-0.0313354285715,-0.0411837061226,2.444
-0.611499114506,-0.524323026494,-0.127240816534,-2.64443609242,-0.0686718902303,2.10982098485,-0.85986964532,-0.147248115195,0.0156698091178,0.0466920662034,0.00908627430519,0.0312221647481,-0.00016705338977,-0.131769367067,0.573907968966,0.818885916335,0.00602047238819,0.0,0.818882291431,-0.573816101799,-0.0121499382219,0.0,-0.00649489434427,0.0119032337668,-0.99990806046,0.0,0.272537262126,-0.249917738592,0.304870930231,1.0,-0.0199066666667,-0.0261630476191,2.463
-0.613435009425,-0.524144828536,-0.126715893857,-2.64431667614,-0.068333419913,2.10981921786,-0.861489183741,-0.114505129561,0.00839833084334,0.0264913243409,0.00829572902899,0.0230900084812,0.00272581950099,-0.102175585521,0.573946511649,0.81885866991,0.00605205579964,0.0,0.818855222798,-0.573854066162,-0.0121812046713,0.0,-0.00650181340583,0.0119473474524,-0.999907489377,0.0,0.272215556064,-0.250318392576,0.304872575132,1.0,-0.0196066666667,-0.0257687619048,2.478
-0.615165520305,-0.524002632077,-0.126262969874,-2.64414128364,-0.0681214481415,2.10985959012,-0.863075721838,-0.10634483105,0.00907810776606,0.02149609108,0.0129135453362,0.0122368029869,0.00914531241434,-0.107152052573,0.573843318819,0.818931354953,0.00600235144349,0.0,0.818927914832,-0.573752316321,-0.012087047877,0.0,-0.00645472372461,0.0118517930039,-0.999908931625,0.0,0.271939844685,-0.250712300545,0.304914584485,1.0,-0.0192866666667,-0.0253481904762,2.494
-0.616773201751,-0.523806679953,-0.125962939877,-2.64393133927,-0.0679443122979,2.10997508934,-0.864588225852,-0.0876937428253,0.0104857159075,0.012917500196,0.00801563168903,0.00687635476929,0.00686034609165,-0.0838911555189,0.573795258772,0.818965128084,0.00598889763197,0.0,0.818962464869,-0.57370607845,-0.0119399994197,0.0,-0.00634269829602,0.0117560237632,-0.999910779062,0.0,0.27167862926,-0.251128243007,0.304955276525,1.0,-0.0189466666667,-0.0249013333333,2.511
-0.618485423979,-0.523596058383,-0.125813271172,-2.64374087798,-0.0678244150107,2.10998602199,-0.866239268527,-0.0887249338868,0.00624436199549,0.00981238084732,0.0126444175224,0.00254203646795,-0.00033869495234,-0.0843362837353,0.573800512354,0.818961262281,0.00601413387793,0.0,0.818958936874,-0.573711247111,-0.0119336312505,0.0,-0.00632292720107,0.0117730790809,-0.999910703613,0.0,0.271332078393,-0.251592637206,0.304969151914,1.0,-0.0185666666667,-0.0244019047619,2.53
-0.619993300268,-0.523442965314,-0.125707691983,-2.64359789903,-0.0678002786359,2.10998439439,-0.867716957459,-0.0900218928271,0.00942262143401,0.00293092725314,0.008260785317,-6.15637144218e-05,0.000601227732207,-0.0857836822927,0.573768269237,0.818984071727,0.00598417713543,0.0,0.818981371813,-0.573679159194,-0.0119365753426,0.0,-0.00634298949122,0.0117499839981,-0.999910848206,0.0,0.271006740878,-0.252008374577,0.304980352185,1.0,-0.0182266666667,-0.0239550476191,2.547
-0.621157088715,-0.523287939283,-0.125636743165,-2.64345422315,-0.0677674786197,2.11000596515,-0.868846914802,-0.0865806890145,0.0148114459085,0.00245640141952,0.00511428099903,-0.000223867300649,0.00117270827986,-0.0824772106387,0.573768788033,0.818983806729,0.00597068645524,0.0,0.818981092194,-0.573680029606,-0.011913906241,0.0,-0.00633215461744,0.0117259326194,-0.999911199218,0.0,0.270748979914,-0.252365979091,0.304993886864,1.0,-0.0179266666667,-0.0235607619048,2.562
-0.622497654149,-0.523071805392,-0.125597011992,-2.64328773845,-0.0677249450015,2.11008823047,-0.870247548544,-0.077857937507,0.00669757817128,-0.000180580542209,0.00771788273356,0.0026478942983,0.00430344588549,-0.0745136585659,0.573719826356,0.819018038792,0.00597995660035,0.0,0.819015676443,-0.573631471408,-0.0118744958782,0.0,-0.00629525622536,0.0117105373776,-0.999911612626,0.0,0.270469768399,-0.252761894997,0.30499741994,1.0,-0.0175866666667,-0.0231139047619,2.579
-0.623991131592,-0.522843772782,-0.125586278267,-2.64314227533,-0.0676988751729,2.11010284604,-0.871661566561,-0.0790553890745,0.0162208732182,0.00125415712871,0.00664878345599,-7.24659075597e-06,0.000114425652044,-0.0699312297778,0.57379332469,0.818966410307,0.00599885255576,0.0,0.8189638877,-0.573704125341,-0.0119362519893,0.0,-0.00633394493369,0.0117620117792,-0.999910764129,0.0,0.270144445457,-0.253172709384,0.304980563492,1.0,-0.0172266666667,-0.0226407619048,2.597
-0.625089546594,-0.522702294134,-0.12558506517,-2.64304391088,-0.0676792114348,2.1101049721,-0.872761778903,-0.071112569338,0.00680851786417,0.000809719948144,0.0101221656359,-0.0001204269571,-0.000179663650227,-0.0862631520515,0.573788653578,0.818969528078,0.0060199673689,0.0,0.818967022104,-0.573698890098,-0.0119727652352,0.0,-0.0063518035884,0.011800218784,-0.999910200682,0.0,0.269870962012,-0.253507489275,0.304972208779,1.0,-0.0169266666667,-0.0222464761905,2.612
-0.62660348265,-0.522476559061,-0.125583861648,-2.64288907471,-0.0676465369451,2.11012871961,-0.874275285064,-0.0719133126627,0.0167889276019,-0.00046773084493,0.00931600489472,0.000900457253421,0.00568772272854,-0.076915823461,0.573826411086,0.818942886791,0.00604524734521,0.0,0.818940463764,-0.573736077672,-0.0120073681584,0.0,-0.0063650947898,0.0118410706187,-0.999909633224,0.0,0.269542582496,-0.253932686854,0.304963101692,1.0,-0.0165466666667,-0.0217470476191,2.631
-0.627679972766,-0.52230963685,-0.125576561065,-2.64277552232,-0.0676176239118,2.11017494415,-0.875392319699,-0.0698668198124,0.0139307707886,-0.000803452108955,0.00899869725514,0.00109807780063,-0.000138759907691,-0.074395207939,0.573806454325,0.818956731615,0.00606396059902,0.0,0.818954530759,-0.573716006868,-0.0120069527446,0.0,-0.00635430585578,0.0118560032533,-0.999909524899,0.0,0.269303476744,-0.254250208045,0.304957542535,1.0,-0.0162466666667,-0.0213527619048,2.646
-0.628904773797,-0.522125740696,-0.125505754211,-2.64264543459,-0.06759069586,2.11020409105,-0.876664187478,-0.0733658208101,0.00668751084497,0.00497786861914,0.00891554548235,-0.000319807285202,0.00141304997387,-0.0764512176994,0.573736205585,0.819006043434,0.0060509602764,0.0,0.819003572872,-0.573645640289,-0.012023888811,0.0,-0.00637665339005,0.0118545266649,-0.99990940014,0.0,0.269040302995,-0.254595068712,0.30495330411,1.0,-0.0159066666667,-0.0209059047619,2.663
-0.630096002043,-0.521946676017,-0.125420031765,-2.64252012011,-0.0675633113712,2.11023827358,-0.87780771707,-0.0718108542269,0.00988280960622,0.000693681494678,0.0077767116758,-6.32429868223e-05,0.00462517781687,-0.0691414907897,0.573732939148,0.819008489998,0.00602948991431,0.0,0.819005683193,-0.573642359919,-0.0120366401292,0.0,-0.00639946284282,0.0118442314635,-0.999909376422,0.0,0.268788270206,-0.25492684861,0.304949444142,1.0,-0.0155666666667,-0.0204590476191,2.68
-0.631182891153,-0.521782186238,-0.125386507781,-2.64241653021,-0.0675430662438,2.11026857669,-0.878922128878,-0.0665658645607,0.00988135505554,0.00113776628368,0.0056770581976,-0.000208665753334,0.000316275770927,-0.0731366551158,0.573700898468,0.819030926489,0.00603054322473,0.0,0.819027976023,-0.573610030433,-0.0120604468645,0.0,-0.00641882246883,0.0118585011266,-0.999909083202,0.0,0.268545344964,-0.255236889359,0.304939481601,1.0,-0.0152466666667,-0.0200384761905,2.696
-0.632451332608,-0.521593422403,-0.12537691259,-2.6422636713,-0.0675169066086,2.11029661633,-0.880273883399,-0.0669785835586,0.00607773242353,0.00063298648425,0.0117711389903,3.37808201515e-05,0.00387586565787,-0.0625674117784,0.57364504335,0.819069935537,0.00604581186301,0.0,0.819067163652,-0.57355408426,-0.012059882128,0.0,-0.00641041021073,0.0118702461197,-0.999908997808,0.0,0.268261686372,-0.255611819168,0.304942223637,1.0,-0.0148666666667,-0.0195390476191,2.715
-0.633452426819,-0.521429306285,-0.125373130609,-2.64213791113,-0.0674895341355,2.11032406638,-0.881230438882,-0.0681957315327,0.0103884236076,-0.000495202306939,0.00931150811243,0.00659587204756,-0.000446389288168,-0.062589112304,0.573697154384,0.819033307296,0.00606329061549,0.0,0.819030720598,-0.573606030771,-0.0120642894711,0.0,-0.00640323812448,0.0118874986924,-0.999908838803,0.0,0.26803893853,-0.255909428585,0.304941511546,1.0,-0.0145666666667,-0.0191447619048,2.73
-0.634703739839,-0.521232930567,-0.125364203888,-2.64200176885,-0.0674620662948,2.1103579858,-0.882479719318,-0.0652873124162,0.00636651895122,0.00122589923161,0.00857084131812,0.00472709483599,0.00200951707361,-0.0646489912462,0.573711482147,0.819023142803,0.00608060084684,0.0,0.819020647126,-0.573620031038,-0.0120824862446,0.0,-0.00640800478437,0.0119122280792,-0.999908513964,0.0,0.267755588699,-0.25627568884,0.304934325807,1.0,-0.0141866666667,-0.0186453333333,2.749
-0.635702671787,-0.521081006804,-0.125342122393,-2.64190300687,-0.0674391574165,2.11038773929,-0.883478058444,-0.0611119880544,0.005085383688,0.00198880689657,0.00487077336187,0.00175496051553,0.00571084255352,-0.0547789367327,0.573711410203,0.819023132311,0.00608879660556,0.0,0.819020625844,-0.573619704874,-0.0120994018109,0.0,-0.00641715980855,0.0119286445454,-0.999908259541,0.0,0.267530550061,-0.256562390475,0.30492643701,1.0,-0.0138666666667,-0.0182247619048,2.765
-0.636657253097,-0.52091331045,-0.125296131315,-2.64178733864,-0.0674171062894,2.11041280257,-0.884429848345,-0.0563448536728,0.013475264228,0.00186709925576,0.00762819086794,0.000703585649113,0.00116351723523,-0.0651213080091,0.573696694242,0.819033487503,0.00608245552189,0.0,0.819030766903,-0.573604775743,-0.0121206852778,0.0,-0.00643844555846,0.0119355450828,-0.999908040363,0.0,0.267324480349,-0.256835228185,0.304920590297,1.0,-0.0135466666667,-0.0178041904762,2.781
-0.637607404753,-0.520761949189,-0.125244991404,-2.64165518841,-0.0673960024254,2.1104475041,-0.885415325594,-0.0564100459354,0.00940369442419,0.00332370099033,0.0116420820143,7.42215158661e-05,0.000468443360429,-0.0662604643672,0.573647378521,0.819068124145,0.00606959863368,0.0,0.819065379621,-0.57355579295,-0.0120997182086,0.0,-0.00642936382372,0.0119125990947,-0.999908372434,0.0,0.267126043716,-0.257111468149,0.304929173833,1.0,-0.0132266666667,-0.0173836190476,2.797
-0.638607102409,-0.520597351825,-0.125198393603,-2.64152052402,-0.067374437379,2.11047691159,-0.886454166032,-0.0590972664007,0.0102228333784,0.0060973098215,0.00994397096896,0.000581373569837,0.000909658370401,-0.0667167368895,0.573598526873,0.819102402849,0.00606057078805,0.0,0.819099579734,-0.573507063163,-0.0120943740722,0.0,-0.00643087452397,0.0119017552823,-0.99990849185,0.0,0.26691308115,-0.257401419797,0.304933465692,1.0,-0.0128866666667,-0.0169367619048,2.814
-0.63952999554,-0.520449998942,-0.125167919446,-2.64139697262,-0.0673576496827,2.11049634726,-0.887358165048,-0.0556906818501,0.00569236910484,0.000297359725199,0.00445433146505,0.000585377839505,-3.01723688532e-05,-0.0521946644836,0.573606003417,0.819097201497,0.00605592651239,0.0,0.819094328166,-0.573514577356,-0.0120937185194,0.0,-0.00643289271381,0.0118976336708,-0.999908527919,0.0,0.266711925806,-0.257670835561,0.304937805921,1.0,-0.0125666666667,-0.0165161904762,2.83
-0.640535226045,-0.520278114451,-0.125172224989,-2.64128881932,-0.067343704576,2.1105175717,-0.888350708619,-0.0572802697443,0.0118835454091,-0.000241623764618,0.00573399102173,0.0014314434466,0.00362833793109,-0.0543908083264,0.573631237742,0.819079426137,0.00606989840623,0.0,0.819076486784,-0.573539286476,-0.0121302335942,0.0,-0.00645442383802,0.0119302216662,-0.99990800088,0.0,0.266477681506,-0.257965903637,0.304925447466,1.0,-0.0122066666667,-0.0160430476191,2.848
-0.641578481255,-0.520119372013,-0.12516172825,-2.64117361593,-0.0673308257588,2.11055826057,-0.889428328164,-0.0564835887916,0.00859071209877,0.00168497644391,0.00405950402968,0.00249417445656,0.00525321550996,-0.0558806021163,0.573607233878,0.819096211012,0.00607332274669,0.0,0.819093330215,-0.573515298309,-0.0121270731793,0.0,-0.0064502203718,0.0119310247647,-0.999908018422,0.0,0.266241425271,-0.258272460799,0.304923128575,1.0,-0.0118266666667,-0.0155436190476,2.867
-0.642324645192,-0.52000360903,-0.125168453127,-2.64108476038,-0.0673230928272,2.11058974756,-0.890167091118,-0.0497462825406,0.0104600220144,-0.000320314219197,0.00803824187036,0.000268807665699,0.00477580469694,-0.0526500311642,0.573626026975,0.819082999583,0.00608012115472,0.0,0.819080257996,-0.573534151176,-0.0121183867437,0.0,-0.00643893140801,0.0119317589685,-0.999908082421,0.0,0.266070855773,-0.258496806349,0.304923447164,1.0,-0.0115466666667,-0.0151756190476,2.881
-0.643215776377,-0.519857994549,-0.125156028297,-2.64096743039,-0.067315439925,2.11061695236,-0.890998970137,-0.0487819570395,0.00993679817145,-0.000922374419469,0.00379327943338,8.03933370857e-05,-8.63802081247e-05,-0.0511307180831,0.573675145216,0.819048630031,0.00607587912909,0.0,0.819045862576,-0.573583332196,-0.0121154003462,0.0,-0.00643820301429,0.011926957346,-0.999908144396,0.0,0.265871957552,-0.258761550884,0.304925803425,1.0,-0.0112066666667,-0.0147287619048,2.898
-0.64413718376,-0.519702490277,-0.125133777874,-2.64085095906,-0.0673088548921,2.11065700581,-0.891902530848,-0.0492685297841,0.00475377531704,-0.000548361264903,0.00628952424986,0.00107473849084,0.00192593000282,-0.0565411499684,0.573682923192,0.8190432568,0.00606580821523,0.0,0.819040403596,-0.573591236913,-0.0121102070829,0.0,-0.00643961299514,0.0119157904244,-0.999908268454,0.0,0.265668614388,-0.259033546642,0.304925451564,1.0,-0.0108466666667,-0.0142556190476,2.916
-0.644936170824,-0.519582688536,-0.125117708242,-2.64076411314,-0.0673016521099,2.11067757813,-0.892719434576,-0.0477125503109,0.0033619788677,-4.12393031278e-05,0.00564433809049,-0.00021703317633,0.000368056018719,-0.0478391590382,0.573664518911,0.819056165558,0.00606335756623,0.0,0.819053228543,-0.573572751317,-0.0121183605276,0.0,-0.00644796536839,0.011918315517,-0.999908184534,0.0,0.265486321044,-0.25926449787,0.30492296327,1.0,-0.0105266666667,-0.0138350476191,2.932
-0.6458164364,-0.519457309324,-0.125106750828,-2.64067842066,-0.0672893260053,2.11070328745,-0.893545120015,-0.0458358031948,0.00721871949426,-0.00125876697625,0.00475127584782,-0.000227845091207,0.00100844438873,-0.0526956151694,0.573711271119,0.819023386229,0.00606770982637,0.0,0.819020447184,-0.573619365917,-0.0121275323129,0.0,-0.00645230094513,0.0119275100357,-0.999908046931,0.0,0.265282510323,-0.259517812355,0.304918214527,1.0,-0.0101666666667,-0.0133619047619,2.95
-0.646522128755,-0.519380192242,-0.125102070654,-2.64060430716,-0.06727814549,2.11072403767,-0.894200304673,-0.0475086412955,0.00474729144322,0.000783833467355,0.00138479676118,6.40769976335e-05,0.0055047120808,-0.0423249078139,0.573757880512,0.818990698613,0.00607264658088,0.0,0.818987963212,-0.573666201659,-0.012105870004,0.0,-0.00643104665144,0.011919492257,-0.999908279465,0.0,0.265119966339,-0.259723342571,0.304925392288,1.0,-0.00986666666667,-0.0129676190476,2.965
-0.647306148305,-0.519285305968,-0.125090002662,-2.64052829708,-0.0672716147464,2.11074340398,-0.894959441178,-0.0442509223922,0.00762628422765,-0.000225361674899,0.00498538997643,-0.000528090846255,0.000346820980716,-0.0448416384563,0.573776454067,0.818977693033,0.00607173558172,0.0,0.818974977676,-0.573684834438,-0.0121013874316,0.0,-0.00642762749101,0.0119163201084,-0.999908339259,0.0,0.264937914433,-0.259948371371,0.304926942556,1.0,-0.00952666666667,-0.0125207619048,2.982
-0.648044904327,-0.519173924311,-0.125079319592,-2.64043268268,-0.067257845479,2.11076514275,-0.895683275199,-0.0412798506288,0.00149340733447,-0.00179243368165,-0.000464397661266,6.28349589604e-05,-0.000196300847909,-0.0388913981196,0.573791923061,0.818966833128,0.00607471548392,0.0,0.818964220386,-0.573700405532,-0.0120912084535,0.0,-0.00641735551319,0.011913041744,-0.999908444301,0.0,0.264772313881,-0.260165930756,0.304931499059,1.0,-0.00918666666667,-0.0120739047619,2.999
-0.648715657098,-0.519069207226,-0.125072315908,-2.6403520802,-0.0672473297927,2.11078558948,-0.896355858376,-0.0393107366193,0.0105762159772,-0.00546829591646,0.00409129378108,0.000842697583236,0.0034644010064,-0.0431370791822,0.573794166319,0.818965235477,0.00607821357908,0.0,0.818962665879,-0.57370262859,-0.0120910192213,0.0,-0.006415160808,0.0119158157069,-0.999908425331,0.0,0.264619644832,-0.260362612411,0.304931485557,1.0,-0.00886666666667,-0.0116533333333,3.015
-0.649452676591,-0.51893319022,-0.125048821248,-2.64024775128,-0.0672317339731,2.11083215638,-0.897065444877,-0.0381971905237,0.00737756755263,0.00331943077313,0.00269656528868,0.00194711180446,0.00259740589404,-0.0408014447767,0.573812073969,0.818952726386,0.00607310585699,0.0,0.818950217648,-0.573720791317,-0.0120723455455,0.0,-0.00640253646903,0.0119010581308,-0.999908682002,0.0,0.264462500779,-0.260581826295,0.304933345213,1.0,-0.00848666666667,-0.0111539047619,3.034
-0.650037508846,-0.518818492721,-0.12502125531,-2.64016818014,-0.0672177043981,2.11085653327,-0.897635625122,-0.0372461693977,0.0128299292001,0.00236206798886,0.00265465012366,0.0034345964826,0.00296331919136,-0.0353035927444,0.573814722464,0.818950906694,0.00606824607214,0.0,0.818948291744,-0.573723380542,-0.0120799408476,0.0,-0.00641150730089,0.0119014567994,-0.999908619775,0.0,0.264336893592,-0.260750888523,0.304930003041,1.0,-0.00818666666667,-0.0107596190476,3.049
-0.650675404343,-0.518692614758,-0.124985905867,-2.64008919205,-0.0672053556281,2.11086867431,-0.898277290574,-0.0346966493774,0.00802430027891,0.00215669948511,-0.000230009033155,0.00259957244587,0.00185890752197,-0.037128112353,0.573796078535,0.818964024074,0.00606089359821,0.0,0.81896111778,-0.573704410197,-0.0121113247353,0.0,-0.00644170187778,0.0119132962028,-0.999908284719,0.0,0.264196564332,-0.260930323731,0.304921413019,1.0,-0.00784666666667,-0.0103127619048,3.066
-0.651308904822,-0.518574445622,-0.124964775528,-2.64002409734,-0.0671919461114,2.11088889364,-0.898945024644,-0.0304149237258,0.00603400177914,-0.000798344738677,0.00104454784598,0.00201156314382,0.00214835644463,-0.0388512033584,0.573762337266,0.818987650201,0.00606267721636,0.0,0.818984575249,-0.573670313655,-0.0121401662751,0.0,-0.00646479277768,0.0119310390112,-0.999907924142,0.0,0.264052516323,-0.26110921754,0.304909699775,1.0,-0.00748666666667,-0.00983961904763,3.084
-0.651897356873,-0.518480554877,-0.124943929758,-2.63996880349,-0.067177440422,2.11090765208,-0.899507100942,-0.0327574221693,0.00715963350197,0.00440151091994,0.0001817722375,-6.49953832462e-05,0.000236155063577,-0.033424001735,0.573778332474,0.818976427516,0.00606492025822,0.0,0.818973276026,-0.573686100381,-0.012156409263,0.0,-0.00647657687172,0.0119423217752,-0.999907713193,0.0,0.263918219671,-0.261273784679,0.304902341375,1.0,-0.00714666666667,-0.00939276190477,3.101
-0.652460836898,-0.518405376236,-0.124941243064,-2.63991503983,-0.0671651192294,2.11091760385,-0.900040344629,-0.0316492573461,0.000495259616017,-0.000807769440096,0.00858338823061,0.000400291781488,0.000368255288145,-0.029772249796,0.573809285696,0.81895467013,0.0060744400728,0.0,0.818951585241,-0.573716898401,-0.0121642271028,0.0,-0.00647706637989,0.0119548489599,-0.999907560326,0.0,0.263784860501,-0.261434563648,0.304899996741,1.0,-0.00680666666667,-0.00894590476191,3.118
-0.652982615046,-0.518337672322,-0.124937310281,-2.63986927119,-0.0671514399087,2.11094091521,-0.900566963203,-0.0325855968633,0.00636313192128,-0.000216813830655,0.00248141408501,0.000985563095118,0.000941948708023,-0.0245863564489,0.573810792061,0.818953545425,0.00608376943636,0.0,0.81895060528,-0.57371840537,-0.0121591263409,0.0,-0.00646751364614,0.0119595748376,-0.999907565646,0.0,0.263663152515,-0.261583823224,0.304897941421,1.0,-0.00646666666667,-0.00849904761905,3.135
-0.653398192548,-0.518294899926,-0.124930920972,-2.63981424009,-0.067138744085,2.11094508266,-0.900971336425,-0.0315346625658,0.00168516024289,-0.000638135661491,0.00396813087141,-0.0001812689275,0.00157500775735,-0.0275766095198,0.573823596083,0.818944532657,0.00608932762701,0.0,0.81894178473,-0.573731403615,-0.0121398776719,0.0,-0.00644837211113,0.0119531832322,-0.9999077657,0.0,0.26356926047,-0.2617047144,0.304907700857,1.0,-0.00618666666667,-0.00813104761905,3.149
-0.653929827193,-0.518242827707,-0.124918473969,-2.63972033443,-0.0671188586009,2.11096358555,-0.901492225219,-0.030687831361,0.00704763779224,0.00058458998171,0.00685015307574,0.000386455974851,0.000187587644703,-0.0364680794784,0.573836621319,0.81893538415,0.00609225093534,0.0,0.818933082454,-0.573745171928,-0.0120760528705,0.0,-0.00639423054497,0.0119190566944,-0.999908520767,0.0,0.263457845083,-0.261865971299,0.304933065597,1.0,-0.00580666666667,-0.00763161904763,3.168
-0.65441161577,-0.518183428945,-0.124897172205,-2.63962202292,-0.0671000410986,2.11098249966,-0.901977772493,-0.0246292230213,0.00197205108265,-2.15462147821e-05,0.00267639957772,0.000253858831164,-9.86754057219e-05,-0.0254651855756,0.573831265739,0.818939160971,0.00608900563846,0.0,0.818937207105,-0.573740560072,-0.0120153005682,0.0,-0.00634641284899,0.0118814971605,-0.999909272419,0.0,0.263362147506,-0.262013302013,0.30495797599,1.0,-0.00544666666667,-0.00715847619048,3.186
-0.654790008427,-0.518142239942,-0.12488304843,-2.63955115526,-0.0670856542816,2.11100239287,-0.902347617443,-0.0203558524581,-6.88143834957e-05,0.000639492835106,0.00311888215244,-0.000109997384,8.6406682878e-05,-0.0326420639441,0.573837834853,0.818934570085,0.0060873731937,0.0,0.818932925643,-0.573747754915,-0.0119634413525,0.0,-0.00630478038412,0.0118504537801,-0.999909904186,0.0,0.263285790156,-0.262128767239,0.304977038138,1.0,-0.00514666666667,-0.0067641904762,3.201
-0.655189840898,-0.518055295328,-0.124856000395,-2.63948935264,-0.0670617040413,2.11102292741,-0.90272639359,-0.0242102860769,0.0107656726878,0.00536052570447,0.00566056497996,0.00251790299846,-6.91336963423e-05,-0.0231005983831,0.573849356684,0.818926470888,0.00609081390626,0.0,0.818924859332,-0.573759237803,-0.0119648946686,0.0,-0.00630382958927,0.0118541942597,-0.999909865843,0.0,0.263204471028,-0.262243050353,0.304975486161,1.0,-0.00480666666667,-0.00631733333334,3.218
-0.655572541607,-0.517999571809,-0.124817397596,-2.63945338424,-0.0670360630336,2.11104244533,-0.90310756521,-0.018216902494,-0.000369633778451,4.49493819216e-05,0.00388069893988,0.000114178037568,0.00287508889244,-0.030408012342,0.573836065809,0.818935770317,0.00609266550884,0.0,0.818934199226,-0.573745972862,-0.0119617249363,0.0,-0.00630036342682,0.0118537895495,-0.999909892487,0.0,0.263124920924,-0.262343848066,0.30497388549,1.0,-0.00444666666667,-0.0058441904762,3.236
-0.655874749478,-0.517930177442,-0.124768101196,-2.63943906876,-0.0670152918423,2.11105687521,-0.903397017089,-0.0136228516433,0.0035275448442,0.00436299048606,0.00306883975729,0.00136998354215,0.000132714131311,-0.0206798908598,0.573821373019,0.818946096297,0.00608852429012,0.0,0.81894423332,-0.573730853444,-0.0119998925141,0.0,-0.00633421284645,0.0118721852317,-0.999909460384,0.0,0.263062317775,-0.262415078036,0.304957222033,1.0,-0.00414666666667,-0.00544990476191,3.251
-0.656206894391,-0.517870583715,-0.124712240074,-2.63942893191,-0.0669925367648,2.11106213319,-0.90370606848,-0.0119866750512,0.00196517903083,0.00351854680085,0.00115567214532,0.0043711442385,7.58793299306e-05,-0.00722257388972,0.573811099296,0.818953325799,0.00608435600178,0.0,0.818951148869,-0.573720113751,-0.0120413348293,0.0,-0.00637069644371,0.0118924708801,-0.99990898754,0.0,0.262991277491,-0.262490332666,0.304941643466,1.0,-0.00378666666667,-0.00497676190477,3.269
-0.656479752383,-0.517815123061,-0.124680275235,-2.63942191603,-0.0669690532202,2.11106542851,-0.904006697406,-0.0191602284102,0.00163376662268,0.00135352275649,-0.000695221036166,-0.000113341722824,0.000239556578378,-0.00974453201083,0.573776277533,0.818977658265,0.00609307022969,0.0,0.818975314366,-0.573684738791,-0.0120831220708,0.0,-0.00640042884301,0.0119233124703,-0.999908430373,0.0,0.262929669209,-0.262554090738,0.304925440044,1.0,-0.00344666666667,-0.00452990476191,3.286
-0.656719100338,-0.517777872333,-0.124668850025,-2.63940612957,-0.0669483084881,2.11107018191,-0.904247094668,-0.0182208404622,0.000799739361868,0.000525920044492,0.000584321088982,0.000282808899283,0.000250244549066,-0.01395281284,0.573777064112,0.818977006595,0.00610657580528,0.0,0.818974736423,-0.57368527576,-0.0120967920292,0.0,-0.00640386519495,0.0119422230511,-0.999908182694,0.0,0.262874721581,-0.262616547295,0.30491957123,1.0,-0.00312666666667,-0.00410933333334,3.302
-0.65693723282,-0.517728621586,-0.124654763831,-2.63938841431,-0.0669287658437,2.11107444893,-0.904481447011,-0.0120735275157,0.00539619908099,0.0011982968383,0.00038490900016,-0.000148763486022,0.000413723677607,-0.0215677200299,0.573763171863,0.818986654132,0.0061179954354,0.0,0.818984362173,-0.573671018066,-0.0121212395187,0.0,-0.00641754028491,0.0119654937954,-0.999907816819,0.0,0.262825904973,-0.262673182199,0.304910176183,1.0,-0.00280666666667,-0.00368876190477,3.318
-0.657166390836,-0.517701871025,-0.124633789328,-2.63935988672,-0.0669075737975,2.11107794272,-0.904713612459,-0.0172201559608,0.000733626339063,0.00219111046653,-0.000354066296412,-0.000305656332581,0.000316564917185,-0.0151438074732,0.573756303401,0.818991415228,0.00612478500536,0.0,0.818989254526,-0.573664200846,-0.0121133207731,0.0,-0.00640725918724,0.0119664576458,-0.999907871217,0.0,0.262778687323,-0.262734109254,0.30491408183,1.0,-0.00246666666667,-0.00324190476191,3.335
-0.657378754208,-0.517681619917,-0.124607804684,-2.63933403789,-0.0668839587902,2.11107753828,-0.904921908231,-0.0129040849111,-0.000783764937898,-0.000647570570512,0.00204155015809,0.00673496208477,0.000599634652123,-0.0147741614175,0.573752554515,0.818993991827,0.00613143043006,0.0,0.818991960688,-0.573660503735,-0.0121054402668,0.0,-0.00639704654079,0.0119673499149,-0.999907925927,0.0,0.26273611014,-0.262788151479,0.304918952304,1.0,-0.00210666666667,-0.00276876190477,3.353
-0.657562909307,-0.517664493499,-0.124573342209,-2.63931461611,-0.0668675286524,2.11108206098,-0.905099764746,-0.00714933649249,0.000545574619642,-9.98175316652e-05,-0.00137433290387,0.0021213182387,0.000427874060977,-0.00842945902749,0.573741234008,0.819001950307,0.00612769893303,0.0,0.818999927374,-0.573649308369,-0.0120969777078,0.0,-0.00639242115457,0.0119593501535,-0.999908051221,0.0,0.262701531283,-0.262832749162,0.304922669313,1.0,-0.00176666666667,-0.00232190476191,3.37
-0.6577381309,-0.517657391471,-0.124541415266,-2.63929860697,-0.0668479951042,2.1110855417,-0.905254236773,-0.0125218492922,0.000115630409116,0.000664968054233,0.000249076054729,0.000130106160982,-0.000296188189355,-0.00483441018989,0.573744667742,0.818999544516,0.00612774198261,0.0,0.818997613804,-0.573652912768,-0.0120826800767,0.0,-0.0063806352893,0.0119512094256,-0.999908223832,0.0,0.262668296834,-0.262874377796,0.304928383843,1.0,-0.00142666666667,-0.00187504761905,3.387
-0.657867253519,-0.517656430502,-0.12452473748,-2.63928507084,-0.0668368078436,2.1110860524,-0.905372631777,-0.0105245171939,-0.00118968405144,-0.00131531277725,0.00109825922076,-0.000121725380554,0.000295825549742,-0.0159829028448,0.573747014999,0.818997896133,0.00612827959163,0.0,0.818996063566,-0.573655428007,-0.0120683338721,0.0,-0.0063685418132,0.0119434373453,-0.999908393794,0.0,0.262642174125,-0.262907093918,0.304934621491,1.0,-0.00112666666667,-0.00148076190477,3.402
-0.658014618411,-0.51764000226,-0.124501625699,-2.63928139448,-0.0668163223035,2.11109183549,-0.905471460509,-0.00791445334664,0.00256644256721,0.00108071070222,0.00171372540675,0.000104682902934,0.000407012899713,-0.00394644133685,0.573779345394,0.818975196855,0.00613487056385,0.0,0.818973415227,-0.573687657392,-0.0120732683423,0.0,-0.00636833040527,0.0119519180153,-0.999908293807,0.0,0.262611743542,-0.262940199814,0.30493128546,1.0,-0.000746666666672,-0.00098133333334,3.421
-0.658088480157,-0.517643754749,-0.124489168841,-2.6392798066,-0.0667994465968,2.11109541819,-0.905492282701,-0.00710225565616,-0.00166010689098,0.000588001102762,-0.0001283048748,2.13792670854e-06,1.33518451295e-05,-0.000675119064188,0.573821193219,0.818945820143,0.00614237612264,0.0,0.818944199006,-0.573729581559,-0.0120628794355,0.0,-0.00635490416157,0.0119524292864,-0.999908373116,0.0,0.262597593794,-0.262956174151,0.304933998633,1.0,-0.000406666666672,-0.000534476190483,3.438
-0.658108928019,-0.51763572211,-0.124482509508,-2.63927485478,-0.0667833861193,2.11109579054,-0.905518579712,0.000285086877681,-0.000569224493756,-0.000628732471764,-0.000117874906328,0.00107083148024,-0.000177675007017,0.000431358162681,0.573818794893,0.818947424291,0.00615254228991,0.0,0.818945917045,-0.573727104724,-0.0120640441833,0.0,-0.00635005989409,0.0119614049767,-0.99990829656,0.0,0.26259614035,-0.262959674999,0.304933485795,1.0,-8.6666666672e-05,-0.000113904761912,3.454
-0.658108368981,-0.517629253115,-0.124455800225,-2.63927392371,-0.0667730876589,2.11109507847,-0.905536328024,0.000625775409446,0.000866769946677,0.00476853934562,0.000450724883002,4.48441534593e-05,-0.000103129455429,-0.00142859882324,0.573789312365,0.818968111604,0.00614850323995,0.0,0.818966516292,-0.573697579296,-0.0120697806231,0.0,-0.00635750642103,0.0119611596923,-0.999908252177,0.0,0.262603049957,-0.262952719212,0.304932096955,1.0,0.0,0.0,3.471
-0.658103722677,-0.517629242813,-0.124422153554,-2.63927072642,-0.0667674075688,2.11109766549,-0.905554558217,0.000306135147484,0.000163127321079,0.00229897700986,0.000726907754353,-0.00022252398159,-4.41485948733e-05,-0.000855995414942,0.573749261885,0.818996263597,0.00613609007387,0.0,0.818994551053,-0.57365767485,-0.0120641755707,0.0,-0.00636062201302,0.0119474661899,-0.999908396074,0.0,0.262613321954,-0.262944810512,0.304934559456,1.0,0.0,0.0,3.488
-0.658108367921,-0.517626326562,-0.124390758212,-2.63926854912,-0.0667558975277,2.11110260187,-0.905550714216,-0.00112784519173,-0.000880332101611,0.00165016866749,0.000459081971532,0.000214800686007,0.000364097831446,0.00080463905151,0.573738950216,0.819003536986,0.00612946252893,0.0,0.819001772924,-0.573647459427,-0.0120596493053,0.0,-0.0063608672949,0.0119393610804,-0.999908491325,0.0,0.262621253782,-0.262939263322,0.30493563856,1.0,0.0,0.0,3.505
-0.658102386707,-0.517623143267,-0.124386196435,-2.63926831858,-0.066755523404,2.11109961701,-0.90555835195,0.000770893408565,-0.000826971774123,-0.000222982840974,0.000850955802295,0.00172580304575,-0.00551795789648,0.000306201854893,0.573724745898,0.819013497681,0.00612808795779,0.0,0.81901167783,-0.573633192987,-0.0120655867156,0.0,-0.00636672629456,0.0119415311842,-0.999908428122,0.0,0.262623376564,-0.262936246354,0.304934422529,1.0,0.0,0.0,3.52
-0.658102947036,-0.517615391359,-0.124380848641,-2.6392682816,-0.0667530203291,2.11110377708,-0.905558758209,6.25422681715e-05,0.000812018597242,-0.000792427784557,0.00131508048123,-0.000182363885762,-0.000477023042439,0.000581878325138,0.573722180066,0.819015300017,0.00612742515152,0.0,0.819013449996,-0.573630590186,-0.0120690360101,0.0,-0.0063699692844,0.0119429472027,-0.999908390556,0.0,0.262625121784,-0.262935445214,0.304932063945,1.0,0.0,0.0,3.536
-0.658108345045,-0.517620642405,-0.124375558813,-2.63926776522,-0.0667516978792,2.11110393687,-0.90556101104,-0.000644539312336,-0.000921336175734,0.00212696271087,3.61623016628e-05,5.53543637485e-05,0.00045740837573,0.000756317117957,0.573721563358,0.819015745603,0.00612560962258,0.0,0.819013911631,-0.573630055914,-0.0120631011374,0.0,-0.00636615855029,0.0119380505861,-0.999908473298,0.0,0.262625244981,-0.262935826769,0.304934372565,1.0,0.0,0.0,3.554
-0.658113661631,-0.517619706069,-0.124382980156,-2.63926498072,-0.0667513430293,2.11110576443,-0.905562288196,-0.00126087584476,0.00265214947372,3.81672642786e-05,0.000168779340723,9.0523132879e-05,-0.000287420596304,0.000316964519903,0.57373042216,0.819009514654,0.00612898811387,0.0,0.819007746449,-0.573638939051,-0.012059260475,0.0,-0.00636094529756,0.0119386832031,-0.999908498923,0.0,0.262623147516,-0.262939761003,0.304935274582,1.0,0.0,0.0,3.57
