nelsonifechukwu/NELSON_IML_WORK/CNN-GradCAM/train2dof/data_sample_2022-02-21-14-18-36/robot_state.csv
position_joint1,position_joint2,position_joint3,position_joint4,position_joint5,position_joint6,position_joint7,velocity_joint1,velocity_joint2,velocity_joint3,velocity_joint4,velocity_joint5,velocity_joint6,velocity_joint7,ee_T_00,ee_T_10,ee_T_20,ee_T_30,ee_T_01,ee_T_11,ee_T_21,ee_T_31,ee_T_02,ee_T_12,ee_T_22,ee_T_32,ee_T_03,ee_T_13,ee_T_23,ee_T_33,v_x,v_y,time
0.465085027826,0.547817806891,-0.123984261091,-1.3557820039,0.0794859716766,1.89408570142,0.159173148228,-0.000192664240413,-0.000904050576413,-0.0024744039837,-0.0015348844773,1.75372732403e-05,-0.000916359656602,0.00070574184229,0.573798376507,0.818982555066,0.00193507531071,0.0,0.818939351665,-0.573740001439,-0.0118952067653,0.0,-0.008631902909,0.00841032157527,-0.999927375734,0.0,0.661681689502,0.260902735725,0.303211252021,1.0,0.0,0.0,0.0
0.465085027826,0.547822551115,-0.123979234424,-1.35578242839,0.0794888100882,1.89408803059,0.159171622205,-0.000130430640492,0.000938671722164,0.000384803242186,-0.000133262330733,0.000113601586559,-6.63091432398e-05,0.00018323067167,0.573794414478,0.818985330495,0.00193526450214,0.0,0.818942079966,-0.573735990795,-0.0119008163031,0.0,-0.00863642935463,0.00841365344803,-0.99992730862,0.0,0.661680616743,0.260906149638,0.303207730227,1.0,-0.00032,-0.000420571428571,0.017
0.46508258406,0.547808349033,-0.123979634667,-1.35578640275,0.0794859191095,1.89408831844,0.159171622187,-0.000643738535229,-0.000755161768485,0.0011887055089,0.000115919955551,-1.15680303042e-05,0.000197749461275,0.000233714232355,0.573796123741,0.818984114566,0.00194303127146,0.0,0.818940990581,-0.573737692464,-0.0118937418101,0.0,-0.00862616140752,0.00841597293517,-0.999927377732,0.0,0.66168103239,0.260903569133,0.303215932529,1.0,-0.00064,-0.000841142857143,0.033
0.465084344634,0.547778722664,-0.123982164717,-1.35582008121,0.079487981089,1.89409414222,0.15916985854,-0.000212681854194,0.000128817164287,0.0018222788791,0.000354628386839,-0.000266410961924,0.000209112645996,-0.000918926079875,0.573797378427,0.818983226957,0.00194663172886,0.0,0.818940116644,-0.573738899704,-0.0118956806545,0.0,-0.00862567065394,0.00842004730127,-0.999927347665,0.0,0.661675263328,0.260900391495,0.303221484498,1.0,-0.001,-0.00131428571429,0.051
0.465086415705,0.547661973139,-0.123975016686,-1.35595216051,0.079482605113,1.89412032481,0.159171542875,0.000385506248526,-0.00279645692092,0.0018960903655,-0.00821744202991,-2.03319195578e-05,-0.000396877970522,0.000501398455079,0.573797828507,0.8189828782,0.00196064192703,0.0,0.818939861241,-0.573739204776,-0.0118985492493,0.0,-0.00861997693177,0.00843317191397,-0.999927286161,0.0,0.661651414471,0.260892663049,0.303243354296,1.0,-0.00132,-0.00173485714286,0.067
0.465077890403,0.547533799379,-0.123979661874,-1.35613384294,0.0794820281887,1.89415886677,0.159166722289,-0.000494610500835,-0.0112697481592,-2.91973542883e-05,-0.0115984329317,-6.51306368617e-05,0.000123990598614,0.000434770608095,0.57381391292,0.818971625467,0.0019536940101,0.0,0.818928409122,-0.573755209546,-0.0119149969999,0.0,-0.00863726863845,0.00843708901864,-0.999927103903,0.0,0.661624155837,0.260866971842,0.303251177744,1.0,-0.00164,-0.00215542857143,0.083
0.465056376425,0.547361709023,-0.123977235254,-1.35635365342,0.0794794849852,1.89426236782,0.159156367733,-0.000515786399435,-0.012168676782,0.00156066087447,-0.0143299983177,0.00020599784119,0.00770270902379,0.000101077482009,0.573833094297,0.818958055869,0.00200736606999,0.0,0.818915460422,-0.573774090294,-0.0118957508883,0.0,-0.00859051177383,0.00847020172827,-0.999927226747,0.0,0.661604147802,0.26083693788,0.303277362228,1.0,-0.00198,-0.00260228571429,0.1
0.465037538947,0.547167583541,-0.123974707887,-1.35657200279,0.0794743406262,1.89439289986,0.159141277637,-0.00112247400735,-0.0121464038088,0.00331477800072,-0.0145339476566,0.000266539085913,0.00911578284341,-0.000986933387719,0.573845506306,0.818949120905,0.00210218054082,0.0,0.818907744793,-0.573786102243,-0.0118474171112,0.0,-0.00849639343137,0.0085202430375,-0.999927605758,0.0,0.661589869683,0.260810618973,0.303322183731,1.0,-0.00232,-0.00304914285714,0.117
0.465008901246,0.546958109973,-0.123979908858,-1.35685233319,0.0794685016974,1.89451781364,0.159119716125,0.000902573628017,-0.0113768575232,0.000402062530311,-0.0177339090405,-0.000126781661814,0.00926848945517,-0.00103009917358,0.573869172961,0.818932405679,0.00215270878594,0.0,0.818891644376,-0.57380952274,-0.0118259581141,0.0,-0.00844957820734,0.00854955264537,-0.999927752279,0.0,0.661565012223,0.26076568237,0.303348133077,1.0,-0.00266,-0.003496,0.134
0.464962372379,0.546684317581,-0.12398046109,-1.35726981909,0.0794609064161,1.8946665694,0.159040764701,-0.00199656468065,-0.0150714726741,-0.00199999711141,-0.021501261638,-0.00496261823792,0.00836112528883,-0.00754694850228,0.573859376239,0.818939230917,0.00216777950411,0.0,0.818898560611,-0.573799561466,-0.0118303673341,0.0,-0.00844464358277,0.00856432362442,-0.999927667562,0.0,0.661517594627,0.260690175581,0.303359618918,1.0,-0.00306,-0.00402171428571,0.154
0.46493242778,0.546442581074,-0.123984570711,-1.35763930754,0.079448364831,1.89479985086,0.158933618012,-0.00284308001063,-0.018034554053,-0.00018146404061,-0.0230414446385,-0.000602800998459,0.00970636884869,-0.00202817809582,0.573821279419,0.818965900926,0.0021769949427,0.0,0.818925210469,-0.573761290925,-0.011841773374,0.0,-0.00844909584245,0.00857802274323,-0.999927512525,0.0,0.661476439851,0.260641635787,0.303363269164,1.0,-0.00334,-0.00438971428571,0.168
0.46489155925,0.546163099408,-0.123981140002,-1.35809408982,0.0794295497867,1.8949669481,0.158925432392,-0.00144936492905,-0.0177894573078,0.00485756733833,-0.0289065338239,-0.00163221236163,0.0114551547269,-0.00369593038496,0.573864757228,0.81893545579,0.0021694615028,0.0,0.818894566511,-0.573804690929,-0.0118580144745,0.0,-0.00846626430317,0.00858162205733,-0.999927336426,0.0,0.661418595683,0.260571639598,0.303355561883,1.0,-0.00368,-0.00483657142857,0.185
0.464844772359,0.545808463826,-0.123982858286,-1.3586829105,0.0793644018393,1.89516472398,0.158862621254,-0.00400416601569,-0.0225891618297,-0.00013063607424,-0.0307195263378,-0.00434946348971,0.00691705808941,-0.00239083315331,0.573869706122,0.818932100562,0.00212649140892,0.0,0.818890897909,-0.573810058531,-0.0118516223032,0.0,-0.00848563516275,0.00854281594312,-0.999927504518,0.0,0.66135349172,0.260480260935,0.303347028045,1.0,-0.00402,-0.00528342857143,0.202
0.46479215396,0.545464511691,-0.123982858442,-1.35926260147,0.0792848651139,1.89536264226,0.158759108121,-0.000296610283268,-0.0245491017032,-0.000938658564296,-0.036591811705,-0.00269677130143,0.00712024114213,-8.69785561245e-05,0.573839211359,0.818953614608,0.00206966885221,0.0,0.818912041729,-0.573780164226,-0.0118379877377,0.0,-0.00850739170721,0.00848814171597,-0.999927785261,0.0,0.66128702826,0.260381717668,0.303331663974,1.0,-0.00434,-0.005704,0.218
0.464735452056,0.545089618233,-0.123985968235,-1.35991817036,0.0792789916566,1.89557300713,0.158710000025,-0.00293819234162,-0.0276128452479,-0.000866307354619,-0.0381307696772,-0.0023666280779,0.0161905820435,-0.00765184334939,0.573882505524,0.818923383591,0.00202695899527,0.0,0.818880917221,-0.573823290585,-0.0119004829782,0.0,-0.00858263274864,0.00848948047851,-0.999927130913,0.0,0.66120400779,0.260282845273,0.30330338294,1.0,-0.00466,-0.00612457142857,0.234
0.464678520901,0.544716575504,-0.12398604681,-1.36054633873,0.0792599933382,1.89578913018,0.158605639565,-0.00597370076905,-0.0249342260513,-0.000879777785751,-0.0470722534194,0.000415237337748,0.0107374014288,-0.0109651294379,0.57387365963,0.818929639011,0.00200400409732,0.0,0.818886669612,-0.573814339224,-0.0119362194282,0.0,-0.00862516364171,0.00849109764649,-0.999926751224,0.0,0.66112841652,0.260187078758,0.303287178638,1.0,-0.00496,-0.00651885714286,0.249
0.464598392771,0.544160295072,-0.123989002394,-1.36144921533,0.0792198076085,1.89611136444,0.158504972592,-0.00179569202467,-0.0276690883287,0.00109606064877,-0.0457152398797,-0.000774137538251,0.00965876495199,-0.00331404003394,0.57389851446,0.818912256027,0.00198970615478,0.0,0.8188689601,-0.573839112871,-0.0119601683185,0.0,-0.00865272379716,0.0084933949647,-0.999926493605,0.0,0.661023425285,0.260047886564,0.303279133202,1.0,-0.00536,-0.00704457142857,0.269
0.464537400044,0.543710558827,-0.123983953716,-1.36219140952,0.0791853833998,1.89637030712,0.158403301132,-0.00852233471266,-0.0302882607313,0.00075634158556,-0.0520651852985,-0.00547858891997,0.0176098286651,-0.00836296774482,0.573893786028,0.818915622635,0.00196780682099,0.0,0.818871888248,-0.573834327632,-0.0119892439424,0.0,-0.00868915135706,0.0084920977841,-0.999926188738,0.0,0.660932719532,0.259940296838,0.303266366823,1.0,-0.00566,-0.00743885714286,0.284
0.464457728628,0.543173359554,-0.123991693918,-1.36304497676,0.0791309062664,1.89666971334,0.158291693993,-0.00373577869103,-0.0323327103674,0.000540323063931,-0.0488057745875,-0.00622563642712,0.0201276876618,-0.00199177973909,0.573905951834,0.818907139569,0.00194990100204,0.0,0.818863206756,-0.573846602298,-0.0119946885751,0.0,-0.00870375962052,0.00848068863053,-0.999926158518,0.0,0.660835548688,0.259800390814,0.303266315921,1.0,-0.006,-0.00788571428571,0.301
0.464371722221,0.542567756398,-0.123992545297,-1.3640032531,0.0790721819822,1.89700823062,0.158175049333,-0.00663970051188,-0.0343038285399,-0.000612568846805,-0.0506597222146,-0.000430769482914,0.0139613733849,-0.00874004531662,0.573918989942,0.818898032412,0.00193711029401,0.0,0.81885391362,-0.573859674744,-0.0120036974569,0.0,-0.00871834260099,0.0084755234455,-0.99992607527,0.0,0.660724018104,0.259650735059,0.303267906507,1.0,-0.00636,-0.00835885714286,0.319
0.464292079463,0.542009276907,-0.123993103092,-1.36487786074,0.0790259382086,1.89734023323,0.158054056284,-0.00305679861431,-0.0332786839616,-0.000744944391563,-0.0501161196994,-0.00203676042673,0.021019245749,-0.0123345573784,0.573921835657,0.818895999191,0.00195344964786,0.0,0.818852039187,-0.573862397412,-0.0120014022547,0.0,-0.00870705663073,0.00848761645299,-0.999926071033,0.0,0.660626673613,0.259516354508,0.303275361159,1.0,-0.00668,-0.00877942857143,0.335
0.46420538393,0.541368102608,-0.123998123767,-1.36585020595,0.0789648457494,1.89770477956,0.157932417843,-0.00445864130274,-0.0358968135588,0.000470725706077,-0.0608565414471,-0.00599639869471,0.0185315540395,-0.00987228312818,0.57393439514,0.818887134914,0.00197920427895,0.0,0.818843558777,-0.573874892827,-0.0119825094992,0.0,-0.00867667428228,0.00849799662977,-0.999926246969,0.0,0.660518989774,0.25936402986,0.303297634265,1.0,-0.00702,-0.00922628571429,0.352
0.464115930235,0.540625970055,-0.124004416194,-1.36698573554,0.0788967456343,1.89812030893,0.157792890809,-0.00579858517622,-0.0424136307403,-0.000326737557724,-0.0669574538486,-0.00732030135671,0.0201652583631,-0.00746724058067,0.573942500449,0.818881411239,0.00199684923347,0.0,0.818838077427,-0.573882934738,-0.011971928551,0.0,-0.00865779873818,0.00850645857066,-0.999926338629,0.0,0.660387669627,0.259193434606,0.303317966136,1.0,-0.00738,-0.00969942857143,0.37
0.46402568876,0.539983185825,-0.124003054602,-1.36796381898,0.0788347409699,1.89848864855,0.157674969058,-0.003494655945,-0.04301035859,3.03419253057e-05,-0.0647492700288,-0.00502937976078,0.0279974399572,-0.00280228365968,0.573956470507,0.818871554456,0.00202340498777,0.0,0.818828589369,-0.57389681403,-0.0119555418082,0.0,-0.00862899356374,0.00851894644722,-0.999926481308,0.0,0.66027860341,0.259041936694,0.303338565105,1.0,-0.00768,-0.0100937142857,0.385
0.463921973333,0.539190683529,-0.124009978368,-1.36918563862,0.0787700026823,1.89895013977,0.157517510383,-0.0129412892727,-0.0458367053099,9.54827879612e-05,-0.0694164782235,-0.0102875281586,0.0252906699324,-0.00595941968056,0.573967629458,0.818863657924,0.00205352545425,0.0,0.818821040401,-0.57390780183,-0.0119451118504,0.0,-0.00860304934003,0.0085377417593,-0.999926544556,0.0,0.66014104776,0.258855655553,0.30335720352,1.0,-0.00804,-0.0105668571429,0.403
0.463815536995,0.538419948352,-0.124011617414,-1.37037818419,0.0787061464074,1.89941218543,0.157371851419,-0.00469325564587,-0.0463137339385,0.000367390137183,-0.0721668129702,-0.0018243593893,0.02595759206,-0.00774969251525,0.573985572045,0.818850987094,0.00209067440533,0.0,0.818808807215,-0.57392554272,-0.0119312841952,0.0,-0.00857021740105,0.00856041241458,-0.999926632665,0.0,0.660008992837,0.258674023478,0.303374136983,1.0,-0.00838,-0.0110137142857,0.42
0.463713244883,0.537688124344,-0.124026104002,-1.37153869166,0.078630890838,1.89986587101,0.157225196174,-0.00492770270371,-0.0484550857737,-0.00112229021869,-0.0719651057816,-0.0144196370119,0.0249360025784,-0.00459407320792,0.574003457634,0.818838416077,0.00210377793171,0.0,0.818796546628,-0.573943512278,-0.0119082679448,0.0,-0.00854366205897,0.00855811785041,-0.999926879555,0.0,0.659883917907,0.258488565815,0.303378388518,1.0,-0.0087,-0.0114342857143,0.436
0.463609599488,0.536859554108,-0.124026907236,-1.37284242459,0.0785557972047,1.90033903984,0.157056343684,-0.00726657541587,-0.0508214652158,0.000304790980137,-0.0770257427615,-0.000163549514944,0.0257997142333,-0.00395206447607,0.574002262058,0.818839254443,0.00210367214056,0.0,0.818797325923,-0.573942259499,-0.0119150628514,0.0,-0.00854929944077,0.00856191899604,-0.999926798832,0.0,0.659729026296,0.258295788204,0.303383896426,1.0,-0.00904,-0.0118811428571,0.453
0.463494829554,0.53599737094,-0.124033300486,-1.37417109714,0.0784844836605,1.90084378941,0.156895730975,-0.000638104540989,-0.0515808753254,-0.000586999304415,-0.0838825638771,-0.00791924519641,0.0297852644262,-0.00741758722499,0.5740232506,0.81882445012,0.00213882160344,0.0,0.818782937161,-0.573963060221,-0.0119018576938,0.0,-0.0085180914884,0.00858333893197,-0.999926881532,0.0,0.659579183851,0.258092671263,0.303404030973,1.0,-0.00938,-0.012328,0.47
0.463394048076,0.535145856783,-0.124034691057,-1.3755074641,0.0783988641332,1.90131491402,0.15673134516,-0.00340207614637,-0.0563961460546,0.00168016865962,-0.0852273437041,-0.00457473882301,0.0264310689747,-0.00330389557917,0.574022389917,0.818825090912,0.00212444530874,0.0,0.81878339208,-0.573962259279,-0.0119091846077,0.0,-0.00853235201422,0.00857576425671,-0.999926824941,0.0,0.659416284467,0.257896065612,0.303409703472,1.0,-0.0097,-0.0127485714286,0.486
0.463275025993,0.534250104066,-0.124039685996,-1.37697354179,0.0783147629468,1.90185131343,0.15655702498,-0.00655526746855,-0.0524603522501,0.000262436428512,-0.0805210915129,-0.00569779364192,0.0309088643303,-0.0104735455109,0.574038463642,0.818813897729,0.00209524373823,0.0,0.818771771345,-0.573978402927,-0.0119300596529,0.0,-0.00856603891271,0.00856400442488,-0.999926637712,0.0,0.659242535257,0.257675199869,0.303390493519,1.0,-0.01004,-0.0131954285714,0.503
0.463146799702,0.533334841595,-0.12403728866,-1.37845292339,0.0782326190796,1.90240585854,0.156363860221,-0.00508705687588,-0.0507189158678,0.000484091091021,-0.0841021290781,-0.00225649401762,0.0372088167131,-0.0131059286107,0.574044372342,0.818809751254,0.00209683902195,0.0,0.818767557462,-0.573984216163,-0.0119395705788,0.0,-0.00857284936719,0.00857083207841,-0.999926520846,0.0,0.659060983166,0.257439592634,0.30338301617,1.0,-0.0104,-0.0136685714286,0.521
0.463019761434,0.532444269754,-0.124034998889,-1.3798919988,0.0781781466926,1.90294962906,0.156182375577,-0.0108938904355,-0.0561463348131,0.00215128424132,-0.0873583358084,-0.00882350367727,0.0333561620086,-0.0107519446721,0.574060627615,0.818798339795,0.00210272965366,0.0,0.818755909962,-0.57400013229,-0.0119730921342,0.0,-0.00859674637637,0.00859506859778,-0.999926107644,0.0,0.658901923164,0.257239330632,0.303369949236,1.0,-0.0107,-0.0140628571429,0.536
0.462882827294,0.531470456322,-0.124040367999,-1.3814701419,0.078063389871,1.90352689678,0.155973240662,-0.0103098431198,-0.0538367842304,0.00114238778287,-0.0958950156947,-0.00216290841695,0.034403420986,-0.0117030249213,0.574060458544,0.818798550337,0.00206659233839,0.0,0.81875581363,-0.574000277459,-0.011972720019,0.0,-0.00861718712705,0.00856526454346,-0.999926187441,0.0,0.658717498731,0.25699206447,0.303355385596,1.0,-0.01104,-0.0145097142857,0.553
0.462739989855,0.530394828476,-0.124037871114,-1.38321997654,0.0779461603276,1.90412665695,0.155753034365,-0.0170679140869,-0.0608372362559,0.000784284559647,-0.0976167046971,-0.0120599421832,0.0303939057602,-0.0161445100672,0.574058735206,0.818799929344,0.00199778390563,0.0,0.818756285615,-0.573998834656,-0.0120095579059,0.0,-0.00868686678021,0.00853005398186,-0.999925885516,0.0,0.658499542881,0.256727608394,0.303332328286,1.0,-0.0114,-0.0149828571429,0.571
0.462607026526,0.52940802366,-0.12404357204,-1.38476465532,0.0778623960352,1.90470765107,0.155547488471,-0.0089113844014,-0.0589256686176,0.00082301654629,-0.0961805723301,-0.0118862599047,0.0354073446153,-0.0152400907972,0.57406477412,0.818795639338,0.00202064740777,0.0,0.818752225818,-0.574004708814,-0.0120055770037,0.0,-0.0086704199039,0.00854655296114,-0.999925887379,0.0,0.658320470212,0.256492203325,0.303342767477,1.0,-0.01172,-0.0154034285714,0.587
0.462463121474,0.528313638247,-0.124042120053,-1.38646786099,0.0777474042693,1.90535936131,0.155308852303,-0.00679539597729,-0.0633029717921,0.000906587355222,-0.103358415521,-0.0107051411681,0.036767955997,-0.012715614145,0.574047616709,0.818807595588,0.00204989249733,0.0,0.818764670815,-0.573987536475,-0.0119778419553,0.0,-0.0086311014026,0.00855439588216,-0.999926160474,0.0,0.65812370623,0.256236139932,0.303359130658,1.0,-0.01206,-0.0158502857143,0.604
0.462324645402,0.527176846327,-0.124052363058,-1.38822395192,0.0776464843819,1.90603461866,0.155062088611,-0.0061056753567,-0.0701293663581,-0.000594582895692,-0.110010920218,-0.00490035535271,0.0449912663224,-0.0133771978772,0.574034146367,0.818816919656,0.00209709115386,0.0,0.818774623823,-0.573973885143,-0.0119516299375,0.0,-0.00858268649654,0.00857785385977,-0.999926376248,0.0,0.657920361914,0.255975007217,0.303382343739,1.0,-0.0124,-0.0162971428571,0.621
0.462172250572,0.526008772121,-0.124050713808,-1.39003530096,0.0775242452261,1.90670554671,0.154817196268,-0.0108126684851,-0.0692806907655,0.00137248068313,-0.104599075811,-0.0051452137875,0.0324189040334,-0.018106692232,0.574021955381,0.818825422596,0.00211398988494,0.0,0.818783426544,-0.57396170581,-0.0119334648033,0.0,-0.00855823989278,0.00858113589596,-0.999926557621,0.0,0.657705486218,0.255701813418,0.303400176536,1.0,-0.01274,-0.016744,0.638
0.462016224383,0.524845136518,-0.124060955997,-1.39187115005,0.0774079634141,1.90735828913,0.154573924987,-0.00792854842685,-0.0663062195517,-0.00207089463927,-0.109292001275,-0.00415101989764,0.042335270085,-0.0136114564023,0.574025047941,0.818823309419,0.00209265112997,0.0,0.818781062211,-0.573964912572,-0.0119414489111,0.0,-0.00857699352747,0.00856827886461,-0.999926507189,0.0,0.657483831939,0.255416119485,0.303401752049,1.0,-0.01308,-0.0171908571429,0.655
0.46185911141,0.523646539902,-0.124062740138,-1.39378768532,0.0772906903836,1.90805152048,0.154304093007,-0.00564804395611,-0.0753172071863,0.000212494341337,-0.11572653318,-0.0058378724231,0.0449713548036,-0.0130940082056,0.574005237255,0.818837253811,0.00207033252142,0.0,0.818794674399,-0.573945155446,-0.011957701125,0.0,-0.00860331947078,0.00855912510371,-0.999926359424,0.0,0.657250012023,0.255128131683,0.303392456838,1.0,-0.01342,-0.0176377142857,0.672
0.461712062694,0.522497131378,-0.12406524677,-1.39561128236,0.07718205687,1.9087540356,0.154065076005,-0.00799003551326,-0.0708978628955,-0.000105527908891,-0.117249019752,-0.00783224301311,0.0469487240337,-0.0119475671949,0.574000325772,0.818840639497,0.00209285046331,0.0,0.818798356371,-0.573940154198,-0.0119456228635,0.0,-0.00858055574942,0.00857057894491,-0.999926456915,0.0,0.657035153054,0.254858751566,0.303393342762,1.0,-0.01374,-0.0180582857143,0.688
0.461537401095,0.521250480678,-0.1240712899,-1.39759492506,0.0770594525763,1.90952728099,0.1537929548,-0.00535555473109,-0.078678532224,-0.000256337162494,-0.114104362599,-0.00443332852231,0.0507172845612,-0.0127615882344,0.573998022056,0.818842188635,0.00211841636364,0.0,0.818800308872,-0.573937816171,-0.0119241042121,0.0,-0.00854828491001,0.00857913738036,-0.999926659924,0.0,0.656807243967,0.254554023985,0.30339230757,1.0,-0.01408,-0.0185051428571,0.705
0.461368271992,0.519959188531,-0.124074808564,-1.39963289404,0.0769390598334,1.91026684085,0.153522956364,-0.0114873601866,-0.0804435217259,-0.000192654971773,-0.122908775803,-0.00498817022995,0.0433614851521,-0.0162101548661,0.573993990877,0.818845027685,0.00211328521042,0.0,0.818803010966,-0.573933736179,-0.0119349322925,0.0,-0.00856013909626,0.0085811089237,-0.999926541596,0.0,0.656558147891,0.254246696892,0.303393399656,1.0,-0.01442,-0.018952,0.722
0.461210388702,0.518680196381,-0.124082945331,-1.40160134873,0.0768054470193,1.91096607316,0.153249418092,-0.00562273985589,-0.0834309817805,-0.000899757347447,-0.126973373843,-0.00566473674465,0.0456180557399,-0.0194039367152,0.573973280845,0.818859543969,0.00211353437709,0.0,0.818817621529,-0.573913118985,-0.0119239855609,0.0,-0.0085512489103,0.00857481339655,-0.99992667167,0.0,0.656315312823,0.25394736689,0.303415151994,1.0,-0.01474,-0.0193725714286,0.738
0.461024649821,0.517255125834,-0.124084431224,-1.40385894136,0.0766565249364,1.91176950898,0.152948676512,-0.0118168259074,-0.0789141933269,0.00019152954784,-0.129988183622,-0.0169306840652,0.0462056422314,-0.0219439982338,0.573959328801,0.818869402938,0.00208247824315,0.0,0.818827098467,-0.573899318695,-0.0119374083951,0.0,-0.00858021083586,0.00855694127519,-0.999926576674,0.0,0.656034341841,0.253605883953,0.303410261265,1.0,-0.0151,-0.0198457142857,0.756
0.460849925494,0.515979522388,-0.124087618892,-1.40586475515,0.0765279480493,1.91253548105,0.15265787632,-0.00699484940039,-0.0803749271182,0.000119702841257,-0.122895088808,-0.00565110409747,0.0491346116807,-0.0109453655172,0.573937945279,0.818884327327,0.0021072084787,0.0,0.818842415464,-0.573877906852,-0.0119161052908,0.0,-0.00854879606516,0.00856474156473,-0.999926778963,0.0,0.655797323027,0.253299294819,0.303416753436,1.0,-0.01542,-0.0202662857143,0.772
0.460670728759,0.514676672576,-0.124099295125,-1.4079599402,0.0763944358919,1.91331714045,0.152379179642,-0.0141142296377,-0.0849231164921,-0.00107433550185,-0.129901547606,-0.00914829737768,0.0484121130447,-0.0117889526965,0.57394027393,0.81888273155,0.00209304383184,0.0,0.818840675427,-0.57388033335,-0.0119188153884,0.0,-0.00855912019976,0.00855472229883,-0.999926776413,0.0,0.655528735546,0.252958014833,0.303403034226,1.0,-0.01576,-0.0207131428571,0.789
0.460467213361,0.513195766923,-0.124097106665,-1.41036533741,0.0762648258693,1.91414706466,0.152045983476,-0.0122078432915,-0.0784976133476,0.000368292044534,-0.135692515453,-0.0119744578331,0.0469294084587,-0.0282420916707,0.573922673737,0.818895248628,0.00202070420471,0.0,0.818851977881,-0.573862765988,-0.0119879537555,0.0,-0.00865743814952,0.00853498043156,-0.999926098706,0.0,0.65523625922,0.252612199616,0.303365977259,1.0,-0.0161,-0.02116,0.806
0.460265984205,0.511762312266,-0.124103077966,-1.41265240367,0.0761190498134,1.91497120983,0.15171756043,-0.0108505014098,-0.0810241461623,-1.09128698287e-05,-0.132744433733,-0.00853984406694,0.0492325209998,-0.0197029008339,0.57390300883,0.818909103562,0.00199084409015,0.0,0.818865446653,-0.573843233154,-0.012002955526,0.0,-0.00868706439339,0.0085189297421,-0.999925978635,0.0,0.65495394521,0.252256721214,0.303353134752,1.0,-0.01644,-0.0216068571429,0.823
0.460074391752,0.510374485531,-0.124108886754,-1.41483649766,0.0759843418422,1.91581115989,0.151411589096,-0.0140530785316,-0.079312344184,-0.00148747723883,-0.137249498299,-0.0119543106408,0.0501110025268,-0.0179333983157,0.573891357468,0.818917187591,0.00202400412754,0.0,0.818874007724,-0.573831486924,-0.0119804419568,0.0,-0.0086497190692,0.00853304075668,-0.999926182063,0.0,0.654694216078,0.251922123473,0.303358253683,1.0,-0.01676,-0.0220274285714,0.839
0.459881042864,0.508868121344,-0.124106682621,-1.41721204642,0.0758338138569,1.91667379181,0.151080192128,-0.0101545917833,-0.0944045725327,0.000933473477985,-0.141657191625,-0.0135531137259,0.0508598843915,-0.0250655977478,0.573859548269,0.818939497803,0.00201611017309,0.0,0.818896179464,-0.57379967992,-0.0119883895457,0.0,-0.0086610890948,0.00853080097163,-0.999926102755,0.0,0.654395005255,0.251569022192,0.303356447415,1.0,-0.0171,-0.0224742857143,0.856
0.459659109194,0.507360098647,-0.124107464155,-1.41960401795,0.0756805539062,1.91752983693,0.150761802097,-0.0149628526424,-0.0904164912307,0.00132637956999,-0.136883440686,-0.00755269432122,0.053328411987,-0.0180275106738,0.573863530493,0.81893677451,0.00198862422335,0.0,0.818893072275,-0.57380375314,-0.0120056638448,0.0,-0.00869096691005,0.00851824724243,-0.999925950537,0.0,0.654097615425,0.251192763768,0.303347003389,1.0,-0.01744,-0.0229211428571,0.873
0.4594635953,0.505889552633,-0.124120505496,-1.42190108268,0.0755382225676,1.91838396387,0.150434210312,-0.0151903323313,-0.0970491643046,-0.000666032823302,-0.142888072225,-0.0149089217842,0.0505954013821,-0.0113538082129,0.573845007296,0.818949707365,0.00200781219939,0.0,0.8189062937,-0.573785188489,-0.0119911013109,0.0,-0.00866822289843,0.00852540780641,-0.999926086935,0.0,0.653816186722,0.250839047078,0.303356218043,1.0,-0.01776,-0.0233417142857,0.889
0.459236330642,0.504256677783,-0.124122361299,-1.42438334685,0.0753831608203,1.91935056067,0.150094406301,-0.0108072884146,-0.0905155972836,-0.000199753355022,-0.145668038579,-0.00844195883547,0.0536671492953,-0.0219538547438,0.573840387631,0.818952702667,0.00210409576968,0.0,0.818910612817,-0.573780236506,-0.0119329506946,0.0,-0.00856539856422,0.00857084042357,-0.999926584626,0.0,0.653522242047,0.250456869506,0.303399517647,1.0,-0.0181,-0.0237885714286,0.906
0.458991215977,0.502484584417,-0.124125567351,-1.42699782218,0.0752204188466,1.9203465267,0.149724211758,-0.0157759272383,-0.0983199749402,-0.00111599362658,-0.149106554331,-0.0049138277381,0.0527700075863,-0.0159200367513,0.573830469825,0.818959308549,0.00223377343202,0.0,0.818918955493,-0.573769846714,-0.0118597739191,0.0,-0.00843116273465,0.00863494529522,-0.999927173956,0.0,0.653210123001,0.250049262428,0.30347896547,1.0,-0.01846,-0.0242617142857,0.924
0.458769032311,0.500881100049,-0.12413099145,-1.42942641692,0.0750639070851,1.92118864858,0.149388918217,-0.0154437310966,-0.0950991766359,-0.00119794411251,-0.150853353548,-0.00476971272862,0.0471846419526,-0.0245905788886,0.573823072724,0.818964456784,0.00224647165529,0.0,0.818924239216,-0.573762369974,-0.011856649085,0.0,-0.00842139541408,0.00864347531506,-0.999927182566,0.0,0.652900827963,0.249665996357,0.30351530282,1.0,-0.01878,-0.0246822857143,0.94
0.458526461465,0.499161688564,-0.12412424637,-1.43203175015,0.0749000353585,1.92214037624,0.149022692064,-0.0154999509459,-0.101399544725,-0.00467184198942,-0.158327804991,-0.00195147188193,0.0577046528123,-0.0150820889201,0.573805212504,0.818976811971,0.00230357496962,0.0,0.818937282267,-0.573744231997,-0.0118334637208,0.0,-0.00836983068604,0.0086767536445,-0.9999273273,0.0,0.652575540341,0.249263382118,0.30355690453,1.0,-0.01912,-0.0251291428571,0.957
0.458271947892,0.497489891709,-0.124129043917,-1.43466871441,0.0747358458148,1.92312158861,0.148621017907,-0.0160906912615,-0.100516503655,0.000822061062554,-0.157624000456,-0.00636005210254,0.0599006810246,-0.0263296571397,0.573777695502,0.818996060138,0.002314416577,0.0,0.818956662063,-0.573716666695,-0.01182873283,0.0,-0.00836002717673,0.0086826371061,-0.999927358241,0.0,0.652251645945,0.248843882839,0.303552637455,1.0,-0.01946,-0.025576,0.974
0.458002788116,0.495799616917,-0.124129865655,-1.43737202563,0.0745681164027,1.92404872894,0.1482321857,-0.0166270694686,-0.0954828558736,0.000110957220654,-0.161973153183,-0.0152995663348,0.0497523392391,-0.0255504576796,0.57377124178,0.819000781193,0.00224263531959,0.0,0.818960291722,-0.57371033307,-0.0118844946793,0.0,-0.00844695000023,0.00865577719615,-0.999926860604,0.0,0.65190303339,0.24840558148,0.303524249012,1.0,-0.0198,-0.0260228571429,0.991
0.457721340062,0.494117236444,-0.124133272487,-1.44011836981,0.0743948275556,1.92502173061,0.147852737371,-0.016673095625,-0.101247178085,0.000877916989849,-0.162992472697,-0.0144982891744,0.0616179381233,-0.0198180401023,0.573784737811,0.818991543006,0.0021619531782,0.0,0.818949916605,-0.573724064908,-0.0119364290479,0.0,-0.00853563421579,0.00861963814138,-0.999926419686,0.0,0.65155557172,0.247954875866,0.303473369031,1.0,-0.021276,-0.0279627428571,1.008
0.457459744301,0.492301611651,-0.12417433461,-1.4429640647,0.0742200524612,1.92608544844,0.147451298149,-0.0170695717163,-0.117417940878,-0.0046499197491,-0.1819570705,-0.0117074909849,0.0688749006501,-0.0166607115633,0.573795463196,0.818983978902,0.0021807381728,0.0,0.818942734702,-0.57373485177,-0.0119106693631,0.0,-0.00850364561557,0.00862035369558,-0.999926686069,0.0,0.651207898829,0.247490937981,0.303476173929,1.0,-0.0242382857143,-0.0318560326531,1.024
0.45715704359,0.490324138354,-0.124178563644,-1.44618912521,0.0740282658318,1.92722407071,0.146975034683,-0.0212365443206,-0.125210890946,0.000899202652032,-0.208533531895,-0.0169901764685,0.0620374510112,-0.0231944378382,0.573765596142,0.819005136167,0.00209153473505,0.0,0.818962507314,-0.573705131558,-0.0119825097615,0.0,-0.00861397867433,0.00858820573693,-0.99992601831,0.0,0.650788358401,0.246981623258,0.303415749299,1.0,-0.0272005714286,-0.035749322449,1.04
0.456744653937,0.48772053917,-0.124198651987,-1.45029217234,0.0737805127329,1.92872701217,0.146384007241,-0.0276231184465,-0.150815177009,0.00016418449173,-0.232788248539,-0.0172691986109,0.0954545071342,-0.0323392456853,0.57377080675,0.819001481366,0.00209326149102,0.0,0.818958795474,-0.573710254971,-0.0119908948403,0.0,-0.00861980101126,0.00859448578596,-0.999925914178,0.0,0.650275412091,0.246311692124,0.303403533889,1.0,-0.0305331428571,-0.0401292734694,1.058
0.456308050158,0.484981135127,-0.124230377904,-1.45448790754,0.0735205107445,1.93033744447,0.145745704071,-0.0200026447002,-0.160549848011,-0.00100533357077,-0.252585803615,-0.0095601828342,0.098446143199,-0.0477725853296,0.573765832703,0.819004643317,0.00221593081458,0.0,0.818963711825,-0.573704935088,-0.0119093690324,0.0,-0.00848270141065,0.00864812246805,-0.999926624185,0.0,0.649771099634,0.24561550536,0.303449387211,1.0,-0.0336805714286,-0.0442658938775,1.075
0.455848654296,0.482179677007,-0.124273202335,-1.45886510008,0.073253132599,1.9318237922,0.145079628533,-0.0263822662425,-0.18207409693,-0.00304793420034,-0.283474956559,-0.0134948174078,0.09580289082,-0.0453147483262,0.573769366252,0.819002371471,0.00213934012351,0.0,0.818960289385,-0.573708625988,-0.0119667781221,0.0,-0.00857362684694,0.00861837123617,-0.99992610557,0.0,0.649204230626,0.244868563557,0.303439863321,1.0,-0.0366428571429,-0.0481591836735,1.091
0.455325492691,0.478910515665,-0.124325867215,-1.46392207173,0.0729385879817,1.93365515425,0.144334235953,-0.0260843643974,-0.193406374353,-0.00241997128646,-0.299129806302,-0.0132850430064,0.111161886811,-0.0525209402322,0.573786730121,0.818990132987,0.00216732722968,0.0,0.818948483168,-0.573725940612,-0.0119446174648,0.0,-0.00853923639927,0.00862875847529,-0.999926310269,0.0,0.648567984868,0.244016201083,0.303459107955,1.0,-0.0397902857143,-0.0522958040816,1.108
0.454724546203,0.475384578358,-0.124356342459,-1.4693208584,0.0726145691548,1.93564579613,0.143565865847,-0.0374636318101,-0.210639391407,-0.00194690233767,-0.32623856655,-0.0213228674661,0.12413016688,-0.0450057357384,0.573845435672,0.818948724135,0.00226938255266,0.0,0.818908318678,-0.573784139787,-0.0119026648303,0.0,-0.00844569906665,0.00868887342358,-0.999926584128,0.0,0.647895777003,0.243099135308,0.303503883143,1.0,-0.0429377142857,-0.0564324244898,1.125
0.454131708769,0.471857146289,-0.124371594964,-1.4747730255,0.0722820048493,1.93756327552,0.142760789601,-0.0382379989056,-0.225617324124,0.0010792980605,-0.34138485119,-0.0157098432174,0.118645304347,-0.0537970131563,0.573853822912,0.81894284495,0.00227013994485,0.0,0.818902172598,-0.57379223832,-0.011935068492,0.0,-0.00847171337199,0.00870817487313,-0.999926196158,0.0,0.647185550972,0.242184681292,0.303514647123,1.0,-0.0459,-0.0603257142857,1.141
0.453424262951,0.467556228566,-0.124393714646,-1.48120115183,0.071873461668,1.93999956776,0.141717389053,-0.0420566399011,-0.248076830126,-0.000324278206962,-0.370782770216,-0.0221100814947,0.142576605341,-0.0633509592532,0.573789705447,0.818987016399,0.00252740860669,0.0,0.818949837601,-0.573727285516,-0.0117861040771,0.0,-0.00820278086275,0.00883273611233,-0.99992734594,0.0,0.646384215437,0.241110224366,0.303636500829,1.0,-0.0492325714286,-0.0647056653061,1.159
0.452704945379,0.463295222627,-0.124407443122,-1.48776472534,0.071445739011,1.94226811475,0.140712011621,-0.0429669722565,-0.25526435635,-0.00067113072398,-0.401763374816,-0.0202387137338,0.130737898282,-0.0598543382473,0.573756913057,0.81901008455,0.00249660300537,0.0,0.818972305561,-0.573694398591,-0.0118256775882,0.0,-0.00825322094172,0.00882988298977,-0.999926956088,0.0,0.645508855639,0.24000395932,0.303647590968,1.0,-0.05238,-0.0688422857143,1.176
0.451973781499,0.459073133857,-0.124425545656,-1.49430176041,0.071003070607,1.94451431401,0.139760855534,-0.0490316467864,-0.26872501678,-0.000676258928313,-0.417009647655,-0.0255170478394,0.136972292079,-0.0578797697998,0.573772350119,0.818999481074,0.00242634309202,0.0,0.818960708321,-0.57371001821,-0.0118709786137,0.0,-0.00833046837231,0.00879848835284,-0.999926592255,0.0,0.644631570623,0.23888755079,0.303638508064,1.0,-0.0553422857143,-0.0727355755102,1.192
0.45114456803,0.454429355608,-0.124436092322,-1.50156553783,0.0705116086945,1.94710811533,0.138607432596,-0.0445377986625,-0.280809639269,-0.00228406087878,-0.438607306988,-0.0307134512465,0.160074730454,-0.0698140940904,0.573714213113,0.819040317128,0.00238903584849,0.0,0.819001044042,-0.573652018623,-0.0118911012302,0.0,-0.00836897721432,0.00877888566028,-0.999926442988,0.0,0.643668109648,0.23764911966,0.303599152923,1.0,-0.0584897142857,-0.0768721959184,1.209
0.450258356707,0.449430171204,-0.12447687476,-1.50904325182,0.0699965934261,1.94993697643,0.137426998528,-0.0540164134101,-0.294570359538,-0.00154751197202,-0.453840212742,-0.0351188908628,0.167321008745,-0.0652275134448,0.573702329045,0.819047814812,0.00265736732519,0.0,0.819012536252,-0.573639680233,-0.0116931443814,0.0,-0.00805302805696,0.00888497238148,-0.999928100418,0.0,0.642718834182,0.236348825153,0.303716998207,1.0,-0.0616371428571,-0.0810088163265,1.226
0.449371449076,0.444544239228,-0.124514091245,-1.51655371906,0.0695012287721,1.95245503856,0.136307496256,-0.0554373194328,-0.30652996643,-0.000643816389274,-0.481650244039,-0.0327444021026,0.164595189394,-0.0709084204936,0.573739884733,0.819021804349,0.00256428716349,0.0,0.818985039411,-0.573677263917,-0.011774930464,0.0,-0.00817300890657,0.00885603057682,-0.999927383687,0.0,0.641684125005,0.235029976217,0.303709238661,1.0,-0.0645994285714,-0.0849021061224,1.242
0.448308629848,0.438860234364,-0.124535603277,-1.52542988401,0.0688805376795,1.95541865619,0.134876498282,-0.0566364115534,-0.321723273674,-0.00390281863993,-0.50700907572,-0.0362021220435,0.163310434937,-0.0783089879418,0.573674910066,0.819067949373,0.00235345972205,0.0,0.819028218797,-0.573612866788,-0.0119080968168,0.0,-0.00840372746044,0.00875909493433,-0.999926325096,0.0,0.640443668593,0.233470355169,0.30362965104,1.0,-0.067932,-0.0892820571429,1.26
0.447230770307,0.433156868022,-0.12454957676,-1.53389937342,0.0683300717423,1.95854155871,0.133506279743,-0.0646096873223,-0.339896159904,0.00064324898373,-0.503186632021,-0.0290824722812,0.190491573592,-0.0871887176891,0.573665065696,0.819073916286,0.00265687044467,0.0,0.81903813028,-0.573601871366,-0.0117550505522,0.0,-0.00810442546816,0.00891971178076,-0.999927375878,0.0,0.639325011402,0.231976574084,0.303761450078,1.0,-0.0710794285714,-0.093418677551,1.277
0.446145199303,0.427748945656,-0.124600171176,-1.54227104889,0.0677185355004,1.9614371262,0.132161896652,-0.065514292432,-0.343481053052,-0.00339566923295,-0.530410853594,-0.0425385045892,0.169980896123,-0.0862861171026,0.573680051806,0.819063727159,0.00256045180673,0.0,0.819026952367,-0.573617496082,-0.0117714224262,0.0,-0.00817298252739,0.00885027966255,-0.99992743482,0.0,0.638177887067,0.230442754877,0.303713260874,1.0,-0.0740417142857,-0.0973119673469,1.293
0.444934909514,0.421693744625,-0.124709759021,-1.55159672828,0.0670367222934,1.96448117644,0.13061664128,-0.0721629382646,-0.357406733744,-0.00431492995214,-0.558473657664,-0.0369130380198,0.177142570927,-0.0903209989417,0.573690396149,0.81905717766,0.0023272282339,0.0,0.819017549693,-0.573628916444,-0.0118687158149,0.0,-0.00838635293094,0.00871517683749,-0.999926854713,0.0,0.636860946634,0.228694305946,0.303657910802,1.0,-0.0771891428571,-0.101448587755,1.31
0.443639054795,0.415364857568,-0.124765275185,-1.56098351767,0.0663819181374,1.96788036257,0.129117182484,-0.0785018082795,-0.376483872851,-0.0017025292297,-0.547680155752,-0.0397865316475,0.211057243163,-0.0930033094794,0.573774320192,0.818997594427,0.00259166215236,0.0,0.818961736293,-0.573712195319,-0.0116935166502,0.0,-0.00809024958629,0.00883208174772,-0.999928268524,0.0,0.635597511266,0.226949800384,0.303778042741,1.0,-0.0803365714286,-0.105585208163,1.327
0.442358450129,0.40930252732,-0.124777594652,-1.57015281794,0.0657636023585,1.9710382694,0.127544004469,-0.0824805169844,-0.380613000463,-0.00260001397883,-0.584881986719,-0.0415053013762,0.200485702737,-0.0931096853975,0.573747697374,0.819016091783,0.00263970805934,0.0,0.818980498233,-0.573685011084,-0.0117131751808,0.0,-0.00807907355888,0.0088824477252,-0.999927912748,0.0,0.634305314206,0.225256560352,0.303790357056,1.0,-0.0832988571429,-0.109478497959,1.343
0.440917854454,0.402732039943,-0.124846069059,-1.58033241093,0.0650346109138,1.97438028828,0.125884855568,-0.0866836292465,-0.387515591419,-0.00478368460596,-0.597066379746,-0.0400353809331,0.195350274589,-0.106940745794,0.573824234899,0.818963233269,0.0023910034627,0.0,0.818924178024,-0.573762220486,-0.0118681039331,0.0,-0.00834783403554,0.0087684250238,-0.999926711509,0.0,0.632833321006,0.223318359078,0.303673982607,1.0,-0.0864462857143,-0.113615118367,1.36
0.43932290031,0.395367488901,-0.124918402389,-1.5911284576,0.0642372811441,1.97823679892,0.124018280055,-0.0929748416658,-0.398221634914,-0.000656672985937,-0.608902140504,-0.0473533752224,0.218793529758,-0.0981516060014,0.573856970209,0.818939309148,0.00270787279627,0.0,0.818904988036,-0.573794461181,-0.0116311559333,0.0,-0.00797160187058,0.00889228164774,-0.999928687903,0.0,0.631340797273,0.221246493012,0.303829818298,1.0,-0.0897788571428,-0.117995069388,1.378
0.43783421271,0.388742846487,-0.124947224126,-1.60119895969,0.0634853757527,1.98151941862,0.122296679442,-0.0963952765613,-0.412039044842,-0.00311225130577,-0.635734510539,-0.0491500623453,0.207859839092,-0.113114846047,0.573862575484,0.818935897441,0.00254700659476,0.0,0.818899308656,-0.573800436256,-0.0117357801884,0.0,-0.0081495350893,0.00882063680838,-0.999927888122,0.0,0.629851706249,0.219318116691,0.303772069431,1.0,-0.0927411428571,-0.121888359184,1.394
0.436119411063,0.380966891856,-0.125004167835,-1.61272119044,0.0626335079521,1.98531764502,0.120241646954,-0.0961557260324,-0.444177865949,-0.00447296783307,-0.638670016691,-0.049713810031,0.231250669929,-0.117261239929,0.573819402791,0.818966075711,0.00257035337008,0.0,0.818929702811,-0.573757089506,-0.0117341806815,0.0,-0.00813529406541,0.00883840943916,-0.999927847152,0.0,0.628145950805,0.217103292275,0.30382683933,1.0,-0.0960737142857,-0.126268310204,1.412
0.434397731376,0.373561097286,-0.12502674963,-1.62380813716,0.0618224474561,1.98908711833,0.118249029449,-0.101939552035,-0.440575537231,-0.00414669140703,-0.655937018026,-0.0501896699963,0.219696222088,-0.122007735245,0.573793386919,0.818984113197,0.00263027769892,0.0,0.818948378336,-0.573730707811,-0.0117207268288,0.0,-0.0080901737429,0.00887950815841,-0.999927849109,0.0,0.626511272599,0.214960498633,0.303824086074,1.0,-0.0992211428571,-0.130404930612,1.429
0.432790387121,0.366866564854,-0.125097487382,-1.63389253803,0.0610371990347,1.99227630904,0.116531839085,-0.106082700988,-0.44751192593,-0.012015144042,-0.676223133597,-0.054558119191,0.216007099586,-0.120570934421,0.573904732936,0.818906651002,0.00244976726877,0.0,0.818868469578,-0.573842597707,-0.0118257976055,0.0,-0.00827860288801,0.00879308768492,-0.999927070512,0.0,0.624878966667,0.21280810028,0.303776980278,1.0,-0.102183428571,-0.134298220408,1.445
0.430819357025,0.35854299473,-0.125144029291,-1.64605158054,0.0600810460971,1.99639678616,0.114255996577,-0.108561591789,-0.456851820011,0.000586624833885,-0.684073561368,-0.0583420379753,0.232741463034,-0.129513378863,0.573830992248,0.818957796908,0.00262032811562,0.0,0.818922320666,-0.573768769356,-0.011678138904,0.0,-0.00806059566205,0.00884729355407,-0.999928373532,0.0,0.623162491018,0.210532993361,0.303861471907,1.0,-0.105330857143,-0.138434840816,1.462
0.428939092595,0.351063830013,-0.12515853216,-1.65730696245,0.0592623463159,1.99990127589,0.112193682455,-0.120457695113,-0.465158403627,0.00092527129448,-0.705613124397,-0.0531505531382,0.210729256956,-0.131022085358,0.573843475568,0.818949704264,0.00240714256602,0.0,0.81891049958,-0.573781017686,-0.0119031223515,0.0,-0.00836704690989,0.00880193288607,-0.999926256533,0.0,0.621393263049,0.208284275011,0.303762508161,1.0,-0.108293142857,-0.142328130612,1.478
0.427009786165,0.343318580382,-0.125229925079,-1.66842853137,0.0583999689817,2.00367054079,0.110076521729,-0.122642867844,-0.481743189865,-0.00104258299135,-0.705404829925,-0.0568727800655,0.234501416141,-0.13180879756,0.573865768569,0.818933150682,0.00270578631138,0.0,0.818898231227,-0.573802629404,-0.0117036867606,0.0,-0.00803210441631,0.00893228079654,-0.999927847226,0.0,0.619721863758,0.206006889088,0.303909287997,1.0,-0.111255428571,-0.146221420408,1.494
0.424886015253,0.335026708053,-0.125231329897,-1.68068747871,0.0574269325971,2.00755874531,0.107731912199,-0.12842967587,-0.492170771175,6.29730668973e-05,-0.747514631615,-0.0529441540079,0.220034588783,-0.135850999104,0.573798652185,0.818980460812,0.00261886611903,0.0,0.818944095018,-0.573735485197,-0.0117859730833,0.0,-0.00815010215813,0.00890765191361,-0.99992711213,0.0,0.617777245426,0.203532398458,0.303869379389,1.0,-0.114402857143,-0.150358040816,1.511
0.422688736866,0.326450831656,-0.125241158324,-1.6930591674,0.0563685968619,2.01149827714,0.105302749391,-0.130914423625,-0.507437122564,0.00162008235894,-0.727922895299,-0.0662743620918,0.238809460815,-0.140032304677,0.573689734875,0.81905655816,0.00268133075981,0.0,0.819021422335,-0.573626816875,-0.0117017784951,0.0,-0.00804649010969,0.0089094290692,-0.999927935439,0.0,0.615810879543,0.201000134061,0.303946512769,1.0,-0.117550285714,-0.154494661224,1.528
0.420500340815,0.318322692549,-0.12525082889,-1.70492233902,0.0554378801041,2.01530131431,0.103023241242,-0.13933284123,-0.51594107023,-0.000999255065249,-0.743222405783,-0.0603611956985,0.238672026405,-0.143059453221,0.573710819522,0.819041633137,0.00272867231988,0.0,0.81900679597,-0.573647380126,-0.0117174370253,0.0,-0.00803192766934,0.00895739403001,-0.999927623996,0.0,0.613913889842,0.198545315802,0.303943811283,1.0,-0.120512571429,-0.15838795102,1.544
0.4180849851,0.309489754596,-0.125332955433,-1.71768124996,0.0543917947273,2.01928831731,0.100385239484,-0.14147133483,-0.537415568403,-0.0109314485345,-0.743848551937,-0.0694639871643,0.245377790975,-0.147202059932,0.573657044266,0.819079239336,0.0027462980852,0.0,0.819044644182,-0.573593564293,-0.0117064400926,0.0,-0.00801339742183,0.00896499516436,-0.999927704548,0.0,0.611853292473,0.195826059059,0.30397244253,1.0,-0.12366,-0.162524571429,1.561
0.415390490739,0.299986358496,-0.125392809419,-1.73146037352,0.0532286030883,2.02355534756,0.0975728099459,-0.149687925678,-0.5317697196,-0.00138993377205,-0.795754173992,-0.0580681627111,0.23005349941,-0.153259462565,0.573649137812,0.819084949945,0.00269413475755,0.0,0.819049708928,-0.573585878809,-0.0117286332156,0.0,-0.00806158450829,0.00893492264579,-0.999927586384,0.0,0.609596867217,0.192861768577,0.30395357687,1.0,-0.126992571429,-0.166904522449,1.579
0.412701742819,0.290785893549,-0.125493574568,-1.74458209652,0.0521890599011,2.0275622002,0.0948875204479,-0.15896144957,-0.555579661763,-0.0115729174489,-0.758557591636,-0.0689017403975,0.252925875745,-0.167858256973,0.573779825221,0.81899316836,0.00276572782176,0.0,0.818958403117,-0.57371578745,-0.0117505785356,0.0,-0.00803705656805,0.0090074343598,-0.999927133269,0.0,0.607435646681,0.189962435823,0.304004825382,1.0,-0.13014,-0.171041142857,1.596
0.409968551266,0.281540287145,-0.125581820539,-1.75789317056,0.051054091541,2.03164017357,0.0920511530497,-0.165511778787,-0.556090516322,-0.00265139175999,-0.783116826477,-0.0598310408549,0.240511064831,-0.164712486838,0.57377017238,0.81900003047,0.00273610632602,0.0,0.818964890625,-0.573706253599,-0.0117639026833,0.0,-0.00806507062389,0.00899072458777,-0.999927058093,0.0,0.605211168086,0.187030511312,0.303979368076,1.0,-0.133287428571,-0.175177763265,1.613
0.407239420404,0.272597226633,-0.125621731077,-1.77057552425,0.0499336252635,2.03544114962,0.0892963218604,-0.172937777244,-0.566489470941,-0.00223153926754,-0.810410933302,-0.0610793726597,0.248837604024,-0.179981292596,0.573756107671,0.819009849764,0.00274623396363,0.0,0.818974913666,-0.573692234882,-0.0117497797002,0.0,-0.0080478471529,0.00899077769037,-0.999927196386,0.0,0.603062969433,0.184194678904,0.304009813602,1.0,-0.136249714286,-0.179071053061,1.629
0.404415806668,0.263566664619,-0.125760669365,-1.78337412515,0.0488178968764,2.03930491034,0.0865002092092,-0.181648823237,-0.567859937155,-0.0119320843567,-0.782857549057,-0.0672541721107,0.237624023081,-0.171593297469,0.573855059461,0.818940401335,0.00278149116285,0.0,0.818906121079,-0.573791270922,-0.0117085086236,0.0,-0.00799272928664,0.00899694027034,-0.99992758305,0.0,0.600898837336,0.181253291814,0.304026490192,1.0,-0.139212,-0.182964342857,1.645
0.401284713072,0.253785668867,-0.125882134325,-1.79708742697,0.0475812298945,2.04331504289,0.08345875346,-0.183582172958,-0.586958467013,-0.00333384888534,-0.787790274537,-0.0653264957851,0.241598673096,-0.181933716947,0.573956497473,0.818869265362,0.00279502320943,0.0,0.818835361552,-0.57389287515,-0.0116775607322,0.0,-0.0079585048981,0.00899124880652,-0.999927907224,0.0,0.598535968115,0.178062083457,0.304073220733,1.0,-0.142359428571,-0.187100963265,1.662
0.398094697361,0.243932971638,-0.125902447304,-1.81105038499,0.0463174340627,2.04740343516,0.0802651640446,-0.188035533733,-0.589229565786,-0.000992721283734,-0.840152759157,-0.0703614831193,0.236462698472,-0.191094076069,0.573881649298,0.818921908845,0.00273983832014,0.0,0.818887126852,-0.573818048024,-0.0117246807835,0.0,-0.00802958388546,0.0089723702215,-0.99992750855,0.0,0.596072555736,0.174891904347,0.304027055907,1.0,-0.145506857143,-0.191237583673,1.679
0.394981742309,0.234404547496,-0.125911630843,-1.82412101169,0.0451893383778,2.05122756068,0.0772072645754,-0.195499031511,-0.601515689038,-0.000489770924209,-0.804175448049,-0.071503663512,0.248091304624,-0.191412667999,0.573855930428,0.81893908662,0.00298168060151,0.0,0.818907067853,-0.573791070054,-0.0116519976139,0.0,-0.00783156536226,0.00912846300194,-0.999927666258,0.0,0.593757956272,0.171885498804,0.304147233841,1.0,-0.148469142857,-0.195130873469,1.695
0.391388165673,0.223675142779,-0.125915541096,-1.83917430707,0.0437450909946,2.05545509111,0.0736222561346,-0.204663531841,-0.59568735189,-0.0033029615569,-0.823679662963,-0.0814703745365,0.223349664378,-0.198825312858,0.573700950421,0.819048156993,0.00284304668519,0.0,0.819014303418,-0.573636544835,-0.0117231449379,0.0,-0.00797109824657,0.00905424961561,-0.999927238431,0.0,0.59101364916,0.168414506821,0.304089754368,1.0,-0.151801714286,-0.19951082449,1.713
0.38778933371,0.213268454765,-0.125997704836,-1.85335791084,0.0424618795497,2.05948300165,0.0701827883612,-0.217008575575,-0.60793033521,-0.0054026990533,-0.853649362996,-0.0772674273786,0.230674344067,-0.202626097415,0.573752104026,0.819011625916,0.00303753874312,0.0,0.818980165553,-0.573686876351,-0.0116448802052,0.0,-0.00779484623204,0.00916913503583,-0.999927581045,0.0,0.58844989784,0.165014582824,0.304192317935,1.0,-0.154949142857,-0.203647444898,1.73
0.38429266401,0.203496288157,-0.126092474035,-1.86700134634,0.0411539655657,2.06310469465,0.0667850499051,-0.221397839213,-0.610062541141,-0.00708096333602,-0.841974150299,-0.0821302105694,0.212952468938,-0.226452146959,0.573722836408,0.819032988256,0.00279607457871,0.0,0.818997940793,-0.573657937194,-0.0118190935638,0.0,-0.0080763926406,0.00907103785107,-0.999926241357,0.0,0.585898144241,0.161713615828,0.304096749786,1.0,-0.157911428571,-0.207540734694,1.746
0.380415816462,0.1928432028,-0.126178558149,-1.88139033219,0.0397821966752,2.06711452829,0.0631289008801,-0.232407819503,-0.622984459685,-0.0109916460593,-0.849483197216,-0.0764031641262,0.235055362347,-0.219678410801,0.573761005132,0.819005571558,0.00298825178282,0.0,0.818973201387,-0.573695626358,-0.0117034443043,0.0,-0.00787099065433,0.0091624545023,-0.999927045806,0.0,0.583242171399,0.158171148996,0.304191800635,1.0,-0.161058857143,-0.211677355102,1.763
0.376083773171,0.181509692328,-0.126370862041,-1.89689111863,0.0383209120984,2.07117386649,0.0590561551522,-0.244657023878,-0.634290422126,-0.011090639071,-0.852687220418,-0.0899552831984,0.227785351426,-0.233010130924,0.573884238921,0.818919584248,0.00288820956741,0.0,0.818885283794,-0.573818471357,-0.0118321940547,0.0,-0.00803246208683,0.00915559826472,-0.999925824536,0.0,0.580315186846,0.154228026543,0.304151882313,1.0,-0.164391428571,-0.216057306122,1.781
0.372398219443,0.171907832951,-0.126446736721,-1.90980830805,0.0369932649402,2.07463621372,0.0556638053598,-0.245270568641,-0.626540340332,-0.000565077536754,-0.882578003806,-0.0928459805868,0.224485599623,-0.237248861491,0.573921691283,0.818893129518,0.0029464562528,0.0,0.81886004006,-0.573856231314,-0.0117476583486,0.0,-0.0079293870939,0.00915514749821,-0.999926651357,0.0,0.577860409489,0.150964568668,0.304189896141,1.0,-0.167168571429,-0.219707265306,1.796
0.368128491655,0.160933675163,-0.126469493394,-1.92461704176,0.0355196286459,2.07838414797,0.051565226379,-0.251609476104,-0.653751073001,-0.00180603181136,-0.86221853135,-0.0853086089783,0.229238077492,-0.247791552749,0.573776552965,0.818995129086,0.00286228973789,0.0,0.81896032775,-0.573710708897,-0.0118638513848,0.0,-0.00807446568023,0.00915147768861,-0.999925523957,0.0,0.574952718433,0.147261709033,0.304161391518,1.0,-0.170316,-0.223843885714,1.813
0.363433370837,0.149156736903,-0.126533515914,-1.94026919164,0.0338608884608,2.08247619699,0.0472356700694,-0.262145420882,-0.6528847365,-0.008990849186,-0.897448113215,-0.0996780356771,0.213775622273,-0.241743777123,0.573743613475,0.819017850737,0.0029619372132,0.0,0.818984980587,-0.573678144146,-0.0117360727493,0.0,-0.00791300678557,0.00915945522613,-0.999926741668,0.0,0.571897484102,0.143252114625,0.304209650912,1.0,-0.173648571429,-0.228223836735,1.831
0.35908882539,0.138532543509,-0.126646643271,-1.95428496599,0.0324694814665,2.08594325061,0.0432391709501,-0.272912898471,-0.685238233692,-0.00345363888562,-0.860911351365,-0.0959191963649,0.222668997196,-0.254341076106,0.573793356466,0.818982763481,0.0030272262074,0.0,0.818950229612,-0.573727057024,-0.0117699769677,0.0,-0.0079027588328,0.00923285994863,-0.999926147623,0.0,0.569104411319,0.139588982834,0.304248211153,1.0,-0.176610857143,-0.232117126531,1.847
0.354276245113,0.127172267653,-0.126794200775,-1.96929832072,0.0308434168197,2.08962375338,0.0387740232191,-0.287730584943,-0.678344527977,-0.0137807096334,-0.886921092687,-0.0982244165825,0.21736291239,-0.25266961145,0.573771204614,0.81899844112,0.00298414151595,0.0,0.818965609321,-0.573705364172,-0.0117572433469,0.0,-0.00791729841036,0.00919005389001,-0.999926426941,0.0,0.56608812398,0.135577776187,0.304238674555,1.0,-0.179758285714,-0.236253746939,1.864
0.349233870052,0.115592353614,-0.126970981883,-1.98426813245,0.0292471237064,2.09329017566,0.0343036203067,-0.3023983796,-0.695257682973,-0.00624363859835,-0.893320505471,-0.093810058116,0.214813888463,-0.271401502363,0.573946038163,0.818875246113,0.00316598807142,0.0,0.818845147607,-0.573880001116,-0.0116239175971,0.0,-0.00770178942844,0.00926413378571,-0.999927426499,0.0,0.563073574208,0.131470579802,0.304336690187,1.0,-0.182905714286,-0.240390367347,1.881
0.344391632641,0.104721499001,-0.127050887252,-1.99857594713,0.0276934492692,2.096510481,0.0298798901188,-0.300979569174,-0.675159702157,-0.00414800696312,-0.879916018026,-0.102144331897,0.196078376028,-0.27679327937,0.573903043561,0.818906117072,0.00296899226907,0.0,0.818872811488,-0.573836918292,-0.0118007081066,0.0,-0.00796010793687,0.00920386654814,-0.99992596002,0.0,0.560074230456,0.127604428333,0.304255746239,1.0,-0.185868,-0.244283657143,1.897
0.338824085075,0.0922656824346,-0.127104352797,-2.01453856501,0.0259653489488,2.1002243386,0.0247590756308,-0.314428389315,-0.679141160782,-0.00413848326044,-0.908540146008,-0.0903802106756,0.201815439292,-0.274719009114,0.573788019935,0.818986155086,0.00311975276274,0.0,0.818954723405,-0.573721282439,-0.011738738875,0.0,-0.00782414669996,0.00929066287059,-0.999926230435,0.0,0.556725579274,0.123274820258,0.304320351537,1.0,-0.189200571429,-0.248663608163,1.915
0.333305533761,0.080371134614,-0.127190992502,-2.0297533423,0.0243126755,2.10350741716,0.0197177071298,-0.328139584516,-0.714267373003,-0.00601902276267,-0.870875948405,-0.0988165230686,0.197581912481,-0.299984435023,0.573722697095,0.81903199527,0.00309910698221,0.0,0.818999545773,-0.573655154608,-0.0118429099925,0.0,-0.00792205603007,0.00933289316021,-0.999925066259,0.0,0.553459661667,0.119047665037,0.304329597491,1.0,-0.192348,-0.252800228571,1.932
0.327942298737,0.0690946232013,-0.127353740815,-2.04402927436,0.0226850218265,2.10672605335,0.014946473621,-0.339066347067,-0.70447780541,-0.0122062847071,-0.906198139431,-0.0945089871415,0.196842452092,-0.296909309571,0.57379357216,0.818981833702,0.00323102378653,0.0,0.818951511101,-0.573726051737,-0.0117297452929,0.0,-0.0077528750556,0.00937668479476,-0.999925982616,0.0,0.550413216866,0.114975254314,0.304376941381,1.0,-0.195310285714,-0.256693518367,1.948
0.321939628083,0.0569295238247,-0.127544011132,-2.05930012551,0.0208488939305,2.10987034977,0.00963498235062,-0.35279787402,-0.721498854066,-0.00960573579765,-0.897754640238,-0.104961864184,0.203262088715,-0.312623945409,0.573865485222,0.818931592791,0.00319344649149,0.0,0.81890113008,-0.573798501394,-0.011703241165,0.0,-0.00775190836525,0.0093313827686,-0.999926413899,0.0,0.547077517935,0.110491833794,0.304416207976,1.0,-0.198457714286,-0.260830138775,1.965
0.315886466144,0.0447906321188,-0.127613937038,-2.07465542765,0.0191341024148,2.11304358613,0.00424287022096,-0.35706664051,-0.713953139439,-0.00509505551725,-0.925556875265,-0.103999963852,0.188733821552,-0.317422988673,0.573843638269,0.818946954938,0.00317973537345,0.0,0.818915469169,-0.573775691286,-0.0118176709515,0.0,-0.00785374198703,0.00938561048192,-0.999925111722,0.0,0.543653915641,0.106112771201,0.304360035978,1.0,-0.19998,-0.262830857143,1.982
0.31000208573,0.0333299580448,-0.127680043306,-2.08878877414,0.0174476902129,2.11589316089,-0.000993754328554,-0.372483321898,-0.721483936292,-0.00476500997778,-0.884611703393,-0.113684496281,0.181016896111,-0.321311005598,0.573788970871,0.818984817011,0.00329139984499,0.0,0.818954998322,-0.573720906227,-0.0117379462365,0.0,-0.00772500357899,0.0094307940177,-0.999925689461,0.0,0.540483615414,0.101946862203,0.30441990441,1.0,-0.19998,-0.262830857143,1.998
0.303615940802,0.0212888460531,-0.12779347777,-2.10380243366,0.0156308745645,2.11866441575,-0.00663895488102,-0.380632395129,-0.710691397534,-0.000848492681945,-0.893194899771,-0.0893099297957,0.161417068604,-0.333915539926,0.57377558931,0.818994882132,0.00311497247644,0.0,0.818962099542,-0.573707346199,-0.0119040888895,0.0,-0.00796245858602,0.00938150064006,-0.999924290484,0.0,0.537025918634,0.0974668743739,0.304345374477,1.0,-0.19998,-0.262830857143,2.015
0.297003543496,0.00920892770214,-0.128012239902,-2.11838455864,0.0137919071953,2.12140371902,-0.0123783761092,-0.38969259651,-0.693027776343,-0.007443959106,-0.879771231569,-0.112545105295,0.152693673546,-0.339501555965,0.573922149713,0.818891673541,0.00324653278906,0.0,0.8188613021,-0.573854255908,-0.0117561813885,0.0,-0.00776415187776,0.00940577405218,-0.999925621914,0.0,0.533687053169,0.0928902635415,0.304441766107,1.0,-0.19998,-0.262830857143,2.032
0.290746171454,-0.00201772519178,-0.128078600849,-2.13205274665,0.0122088044409,2.12377494171,-0.0179015932731,-0.387756598633,-0.698191038203,-0.00312415900809,-0.829260816141,-0.102609760387,0.152227101366,-0.346280794565,0.573917665133,0.818894800675,0.00325053482139,0.0,0.818863292897,-0.57384832248,-0.0119061847118,0.0,-0.00788475060786,0.00949509618801,-0.999923834027,0.0,0.530455266917,0.0887079601277,0.304423115657,1.0,-0.19998,-0.262830857143,2.048
0.283630928889,-0.0145977909673,-0.128107361419,-2.14708503181,0.0102998294187,2.12646511025,-0.0241548834534,-0.39975087556,-0.694018608758,-0.000988754432487,-0.857942061248,-0.105526239554,0.140039110816,-0.347345118507,0.573845830893,0.818944372037,0.00343871731262,0.0,0.818915911114,-0.573776575857,-0.0117438674733,0.0,-0.00764466591172,0.00955537367978,-0.999925124155,0.0,0.527100399421,0.0843141934078,0.304509222883,1.0,-0.19998,-0.262830857143,2.065
0.276738990127,-0.0264520644266,-0.128220311539,-2.16112752993,0.00846740218635,2.12863647006,-0.0301991865523,-0.412782707388,-0.7043364924,-0.0105980099552,-0.788405848523,-0.10362098887,0.147176601334,-0.348855843332,0.573800888315,0.818976175946,0.00336313891367,0.0,0.818946555204,-0.573731676432,-0.0118004270644,0.0,-0.00773487822512,0.00952550995568,-0.999924715326,0.0,0.523471404918,0.0795725629823,0.304528919188,1.0,-0.19998,-0.262830857143,2.083
0.270487354814,-0.0367893598498,-0.128399534243,-2.17335349706,0.00688800721752,2.13063551256,-0.0355494337866,-0.424831963245,-0.685393801369,-0.00866075953486,-0.826847356331,-0.100497930862,0.126028855703,-0.360820394765,0.573968127132,0.8188586705,0.00343710415587,0.0,0.818830081206,-0.573898726113,-0.0117599821128,0.0,-0.00765736104937,0.00956444332865,-0.999924940306,0.0,0.520297555865,0.0752908164781,0.30454598831,1.0,-0.19998,-0.262830857143,2.099
0.262543351599,-0.049832461817,-0.128456709355,-2.18862919146,0.00498016586245,2.1329187033,-0.0425328778375,-0.411439947195,-0.692553588204,-0.000818470688946,-0.804359773972,-0.10957647241,0.12844239239,-0.364389803701,0.573914643049,0.818895793021,0.00352272168975,0.0,0.818867696251,-0.573844179496,-0.0118025673497,0.0,-0.00764372657726,0.00965849517813,-0.99992414058,0.0,0.516688728528,0.070624263901,0.30456979167,1.0,-0.19998,-0.262830857143,2.117
0.25528443033,-0.0613397626792,-0.128510718689,-2.20209302553,0.0031579998159,2.13488012761,-0.0489123274713,-0.428650533614,-0.677316604658,-0.0094896568324,-0.801781854978,-0.0984141194258,0.113644276847,-0.373877441772,0.573813394748,0.818966861196,0.00349502090318,0.0,0.818938522273,-0.573743189141,-0.0117981589112,0.0,-0.00765720415718,0.00963233432264,-0.999924289814,0.0,0.513288484279,0.0661886834814,0.304547354371,1.0,-0.19998,-0.262830857143,2.134
0.248764318886,-0.0714766573159,-0.128639895101,-2.21380851614,0.00157038643626,2.13639098812,-0.0546105137352,-0.440728378017,-0.692453879936,-0.00762995762854,-0.781453645238,-0.110281378655,0.111277480892,-0.383389863386,0.573821060598,0.818961715349,0.0034418174039,0.0,0.818932356666,-0.573750628918,-0.0118641443857,0.0,-0.00774168418857,0.00962669689603,-0.999923693605,0.0,0.510271131807,0.0622298121919,0.304539991031,1.0,-0.19998,-0.262830857143,2.149
0.240716064923,-0.0835532322788,-0.12882055578,-2.22763735738,-0.000258959284109,2.13819129348,-0.0615926080412,-0.443946764631,-0.662767276647,-0.00471987695033,-0.755070473009,-0.0946562552527,0.0945779004738,-0.387833443012,0.573932689812,0.818883187875,0.00351270288212,0.0,0.818854352933,-0.573861492641,-0.0118862461627,0.0,-0.00771779082186,0.0096984840034,-0.999923184606,0.0,0.506689134027,0.0574351970827,0.304547276546,1.0,-0.19998,-0.262830857143,2.167
0.233131749693,-0.0949024506061,-0.128871461869,-2.24053029934,-0.00197373042668,2.13967839709,-0.0682730165164,-0.450946837957,-0.672147150723,-0.00401224616167,-0.728663709622,-0.101084495401,0.0982020459771,-0.397734024891,0.573843647456,0.818945578981,0.00351480338826,0.0,0.818916031737,-0.573771528116,-0.0119797073255,0.0,-0.00779418430277,0.00975299556553,-0.999922061847,0.0,0.503261354022,0.0530437123827,0.304541886554,1.0,-0.19998,-0.262830857143,2.184
0.225803822031,-0.105502198321,-0.128982888168,-2.25245714803,-0.00371765234945,2.1410364035,-0.0746067534681,-0.461524712609,-0.656480136866,-0.00337368889701,-0.763810892888,-0.0983530296702,0.0800407220814,-0.391959167277,0.573856753645,0.818936496694,0.0034910713297,0.0,0.818907103263,-0.573785298106,-0.0119304151054,0.0,-0.00776727649107,0.00970539925094,-0.999922734336,0.0,0.50006936795,0.0488302040528,0.304548885423,1.0,-0.19998,-0.262830857143,2.2
0.217797682208,-0.11672449673,-0.129197059982,-2.26500630914,-0.00548503850092,2.14226571739,-0.08152590857,-0.481563841947,-0.667688850233,-0.0147555055063,-0.708101030003,-0.102913709066,0.0748099312101,-0.409394437029,0.573995457635,0.818839479537,0.00344503516119,0.0,0.818808870383,-0.573923387284,-0.0120302207468,0.0,-0.00787378504078,0.00972630467329,-0.999921698188,0.0,0.496642882587,0.0442699699341,0.304534297156,1.0,-0.19998,-0.262830857143,2.217
0.209320688647,-0.128506757603,-0.129268149429,-2.27796558213,-0.0072755419102,2.14357078673,-0.0889961960868,-0.466107667384,-0.648244954241,-0.00619017590909,-0.72269910789,-0.0951947431757,0.0641573630652,-0.410715003607,0.573919242446,0.818892313837,0.00358167423348,0.0,0.818863411002,-0.573846579851,-0.011981811897,0.0,-0.00775663149847,0.00980968325378,-0.999921799333,0.0,0.493069362507,0.0396076589219,0.304576297392,1.0,-0.19998,-0.262830857143,2.235
0.202102979828,-0.138231402347,-0.129367579097,-2.28870281784,-0.00884862712052,2.1444527687,-0.0953402881775,-0.480778930215,-0.646256044281,-0.0120164477231,-0.700047092237,-0.105137002962,0.0589979560912,-0.431452800146,0.573866796948,0.818929460378,0.00349072854342,0.0,0.818898930822,-0.573793931913,-0.0120752514931,0.0,-0.00788597216243,0.00978832822436,-0.999920996916,0.0,0.490037095439,0.0356702591511,0.304541756578,1.0,-0.19998,-0.262830857143,2.25
0.193783730131,-0.149268174434,-0.129544734256,-2.30049578883,-0.0105592977484,2.14555221875,-0.10262254811,-0.489942527349,-0.643750842535,-0.0199782357259,-0.692946349188,-0.109188783238,0.0478215912729,-0.423086919614,0.573920523249,0.818890634608,0.00375612114569,0.0,0.818864478055,-0.573847849631,-0.0118473184418,0.0,-0.00754636136562,0.00987536351203,-0.99992276183,0.0,0.486717731159,0.0311888659545,0.304651989735,1.0,-0.19998,-0.262830857143,2.267
0.185315365335,-0.160170977296,-0.129650361184,-2.31236293154,-0.0123286037695,2.14624374941,-0.110030368688,-0.496932877132,-0.642543107215,-0.00263344922742,-0.697434784175,-0.102048108047,0.0373570418055,-0.437550371984,0.573891720389,0.818911607216,0.0035804660157,0.0,0.818882178078,-0.573818421774,-0.0120475790137,0.0,-0.00781151533068,0.00984617522552,-0.999921013411,0.0,0.483240030934,0.0267212863032,0.304590718488,1.0,-0.19998,-0.262830857143,2.284
0.177257948421,-0.170399923295,-0.129715145011,-2.32307361103,-0.0138429930892,2.14701143858,-0.117134648241,-0.507576887338,-0.622825126924,-0.00157342131914,-0.66867874751,-0.0875629115067,0.0446290634163,-0.453706789936,0.573861267508,0.818931740666,0.00384664593563,0.0,0.81890621368,-0.573787566838,-0.011882265718,0.0,-0.00752375179117,0.0099690062586,-0.999922002995,0.0,0.480112063057,0.0225778454988,0.304700931332,1.0,-0.19998,-0.262830857143,2.3
0.167986782059,-0.181730900058,-0.129904391786,-2.33522192756,-0.0157126911349,2.14761373734,-0.125253026728,-0.522443929849,-0.626236606423,-0.0143466223739,-0.682124490179,-0.113626318299,0.0293847120592,-0.462549113864,0.573895045222,0.818908709675,0.00370798996991,0.0,0.818880677917,-0.573820928353,-0.0120301463021,0.0,-0.00772401804988,0.00994063408434,-0.99992075853,0.0,0.476459143178,0.0178089011908,0.30463263046,1.0,-0.19998,-0.262830857143,2.318
0.159586350383,-0.191820624726,-0.13003245232,-2.34564138562,-0.0172730764195,2.14812647546,-0.132637444677,-0.52340469591,-0.63006183209,-0.00355316394346,-0.649377925231,-0.104428042008,0.0409425863539,-0.464610270112,0.573924071626,0.81888757346,0.00387929664813,0.0,0.81886215049,-0.573849820729,-0.0119125415487,0.0,-0.00752904351393,0.0100136963394,-0.999921516615,0.0,0.473301080974,0.0135919483935,0.304715712414,1.0,-0.19998,-0.262830857143,2.334
0.15061292253,-0.202348886366,-0.130120292687,-2.35666484526,-0.018937272328,2.14855700968,-0.140600920209,-0.536418511206,-0.618320902265,-0.00822698673911,-0.651007244486,-0.0947809700619,0.00849851399311,-0.463685141902,0.573844524332,0.818943324424,0.00387816655107,0.0,0.818917474465,-0.573769742118,-0.0119666179978,0.0,-0.00757495314468,0.0100430699306,-0.999920875285,0.0,0.469890167543,0.00917487208111,0.304690747418,1.0,-0.19998,-0.262830857143,2.351
0.141436652186,-0.212834055107,-0.130310256113,-2.36749067175,-0.0205766975659,2.14878279312,-0.148671551545,-0.546138124554,-0.612419838592,-0.0167807436877,-0.618819178504,-0.0988521285745,0.0115475728025,-0.472846545965,0.57392618139,0.818886104775,0.00387719256573,0.0,0.818859368045,-0.573850234738,-0.0120826469663,0.0,-0.00766953150789,0.0101096175301,-0.999919483718,0.0,0.466463454009,0.00468685213757,0.30468068033,1.0,-0.19998,-0.262830857143,2.368
0.132181286762,-0.223250621948,-0.130423038479,-2.37798408761,-0.0222494498684,2.14908258239,-0.156879348846,-0.534623214921,-0.603405457083,-0.00344415715185,-0.620866161888,-0.100826900147,0.016008139626,-0.492322840846,0.573877731555,0.818919289821,0.00403644476797,0.0,0.818895613419,-0.573802533765,-0.0118900575948,0.0,-0.00742101816378,0.0101290612107,-0.999921162197,0.0,0.463124557917,0.000259541107466,0.304761354701,1.0,-0.19998,-0.262830857143,2.385
0.122746056364,-0.233481597397,-0.13052813321,-2.38851441717,-0.0238870080622,2.14914522053,-0.165274274901,-0.562693477623,-0.593381403691,-0.00522950572861,-0.617833730378,-0.0956536725817,0.00010458068188,-0.499925589884,0.573820113084,0.818960158988,0.00393480779068,0.0,0.818934090593,-0.573743854425,-0.0120702806249,0.0,-0.00762765400733,0.010148713427,-0.999919408008,0.0,0.459673988784,-0.00417437409964,0.30468559978,1.0,-0.19998,-0.262830857143,2.402
0.113059446937,-0.243738310068,-0.130735934432,-2.39859527762,-0.0255673273993,2.14922106333,-0.173830731149,-0.57695363569,-0.608257154347,-0.0136880407821,-0.582510169564,-0.0954419991906,0.00773870547537,-0.510886692076,0.573896100146,0.818906071392,0.00410601717651,0.0,0.818883434731,-0.573820844758,-0.0118450557941,0.0,-0.00734401125591,0.0101603763935,-0.999921413037,0.0,0.456340566047,-0.00871044862949,0.304790546627,1.0,-0.19998,-0.262830857143,2.419
0.103409518602,-0.253807168328,-0.130842434595,-2.40868131903,-0.0270875532375,2.14920000197,-0.18250836137,-0.567745754979,-0.589773525279,-0.00705312149187,-0.594882898961,-0.0949791360433,-0.00123602184328,-0.51067411329,0.573823780836,0.81895634525,0.00418569274915,0.0,0.818934096386,-0.573747359903,-0.0119020872834,0.0,-0.00734590116959,0.0102577047267,-0.999920405447,0.0,0.452937135282,-0.01309507448,0.304768269061,1.0,-0.19998,-0.262830857143,2.436
0.0940559659102,-0.263176230282,-0.13101308993,-2.41805517812,-0.02863446858,2.14905119678,-0.190795006533,-0.583051181685,-0.587494369433,-0.0109648235651,-0.573249535937,-0.0874220396581,-0.00840976522662,-0.525386900347,0.57387581223,0.818920215887,0.00412056425285,0.0,0.818896583607,-0.573798874282,-0.0119993387754,0.0,-0.00746226964258,0.0102606438243,-0.999919513621,0.0,0.449701681663,-0.0173272153787,0.30471094807,1.0,-0.19998,-0.262830857143,2.452
0.0839201585398,-0.273128788888,-0.131201165032,-2.42750052783,-0.0302051656699,2.14892522061,-0.199783447537,-0.585548969221,-0.583928199231,-0.00647772985185,-0.563181070846,-0.0928473027761,-0.0166555893318,-0.521808339956,0.573982785769,0.818843777626,0.00440186164075,0.0,0.818825366114,-0.57390709342,-0.0116796760347,0.0,-0.00703770592346,0.0103084874272,-0.999922099857,0.0,0.446406142452,-0.0218507355962,0.304853299255,1.0,-0.19998,-0.262830857143,2.469
0.073888622364,-0.282853175061,-0.131300319061,-2.43708255523,-0.031803178676,2.14856029084,-0.208962971141,-0.60307486166,-0.577656206386,-0.0108464690221,-0.553178323058,-0.0917281523924,-0.023075970288,-0.539388931511,0.573752098244,0.819006001276,0.00429494304367,0.0,0.818985480919,-0.573675748128,-0.0118179928448,0.0,-0.00721524131497,0.0102982924599,-0.999920939607,0.0,0.442966261233,-0.0262175138315,0.304782514887,1.0,-0.19998,-0.262830857143,2.486
0.0640422867372,-0.291953643598,-0.13148729548,-2.44583783229,-0.0331845342073,2.1481773965,-0.217720991999,-0.624496666144,-0.566519110769,-0.014620603855,-0.534377976636,-0.080873216546,-0.0175742915405,-0.558919146774,0.573896478721,0.818904341602,0.00438838443477,0.0,0.818884426142,-0.573818911442,-0.011870147166,0.0,-0.00720251574113,0.0104060156781,-0.999919916096,0.0,0.439759895725,-0.0304729442684,0.304779567994,1.0,-0.19998,-0.262830857143,2.502
0.0529644600693,-0.30214053683,-0.131604459083,-2.45529674519,-0.034830376598,2.14775831839,-0.227724323456,-0.608083265614,-0.556238768721,-0.00222728186005,-0.532989672539,-0.085932923372,-0.0398208658424,-0.565219584289,0.573822444511,0.818955139619,0.0045856697693,0.0,0.818939426333,-0.573746689449,-0.0115628389235,0.0,-0.00683856517951,0.0103906023181,-0.999922631712,0.0,0.436247151361,-0.0351733663876,0.304901324432,1.0,-0.19998,-0.262830857143,2.52
0.0429976709158,-0.310971419543,-0.131769677394,-2.46381033855,-0.0362423677884,2.14712431147,-0.236723203111,-0.634590488748,-0.545240254783,-0.0149994881219,-0.526369452399,-0.0891994104865,-0.0362162705096,-0.576148584287,0.573829035084,0.818951158122,0.00447057122013,0.0,0.818932468362,-0.573751427693,-0.0118177147969,0.0,-0.00711327155161,0.0104426448563,-0.999920173082,0.0,0.432777090088,-0.0396146469098,0.304809220195,1.0,-0.19998,-0.262830857143,2.537
0.0326707412327,-0.319737319011,-0.131968753361,-2.47199982349,-0.0377178553709,2.14653672989,-0.245913768231,-0.643447005697,-0.544428495514,-0.00987092410819,-0.498212768886,-0.0982705912311,-0.0383770508484,-0.581878217503,0.573968397399,0.818853372432,0.00449223156712,0.0,0.818835275321,-0.573891153947,-0.0117678465256,0.0,-0.00705822474863,0.0104329705502,-0.999920664147,0.0,0.4297781162,-0.0436486757262,0.304823172225,1.0,-0.19998,-0.262830857143,2.552
0.0206371578699,-0.330021263543,-0.132095516223,-2.48134966276,-0.0392725471859,2.14588417241,-0.257053278352,-0.639121848293,-0.531877198117,-0.0164430515485,-0.496938243152,-0.0858060716576,-0.0368624734517,-0.598530135196,0.573770000032,0.818990939581,0.00475129963769,0.0,0.818977286822,-0.573693641884,-0.0115132893699,0.0,-0.00670361835129,0.0104973886355,-0.999922430158,0.0,0.426079822647,-0.0485267225114,0.304924743461,1.0,-0.19998,-0.262830857143,2.571
0.0100660400814,-0.338469343314,-0.132308931125,-2.4892649153,-0.0406107275074,2.14503546047,-0.266531140058,-0.674239197144,-0.526705592419,-0.0179725924649,-0.481098224203,-0.0747980770215,-0.0533328170199,-0.59543034905,0.573942278396,0.8188706216,0.00468113772343,0.0,0.818854493312,-0.573863690699,-0.0117698844978,0.0,-0.00695181150815,0.0105886088473,-0.999919773622,0.0,0.422813235168,-0.0527888209413,0.304847845078,1.0,-0.19998,-0.262830857143,2.587
-0.00115814342662,-0.347377769292,-0.132415892385,-2.49740944592,-0.0421036456859,2.14417624515,-0.276813893444,-0.651906167941,-0.513973521697,-0.00849773119813,-0.469145895435,-0.0802454352474,-0.0492411628272,-0.615452838187,0.573821856588,0.818955269843,0.00463570914035,0.0,0.818938621722,-0.57374354523,-0.0117739143994,0.0,-0.00698273548652,0.0105526938461,-0.999919937824,0.0,0.419404307133,-0.0572212922658,0.304838626074,1.0,-0.19998,-0.262830857143,2.604
-0.0125197392539,-0.35617855393,-0.132626646625,-2.5051250369,-0.0434576646085,2.14337057556,-0.287226152769,-0.679932688615,-0.50830203493,-0.0173508924944,-0.451421284452,-0.0815367643632,-0.0486033097364,-0.630557492767,0.573857711499,0.818928710748,0.00488268027332,0.0,0.81891644683,-0.573780467122,-0.0115141461283,0.0,-0.00662780588195,0.0106061929296,-0.999921787372,0.0,0.416096831189,-0.0616904612305,0.304955964848,1.0,-0.19998,-0.262830857143,2.621
-0.0234956016338,-0.364228835372,-0.132794101911,-2.51248971239,-0.0448675503119,2.14237933419,-0.297211189827,-0.676258476755,-0.498369414168,-0.00469765551932,-0.453411757333,-0.0771359845568,-0.0630427028896,-0.629741390176,0.573877348603,0.81891591138,0.00471865982134,0.0,0.818900691258,-0.573799294946,-0.0116950364335,0.0,-0.00686982000627,0.0105758339073,-0.999920475493,0.0,0.412833726958,-0.0659401941363,0.304881267353,1.0,-0.19998,-0.262830857143,2.637
-0.0343447307211,-0.37220737404,-0.132927946662,-2.51965312268,-0.0460543629908,2.14141546,-0.307313790824,-0.685972649573,-0.486391313309,-0.0029588474442,-0.442181310868,-0.0712787998658,-0.0619445274902,-0.636149935982,0.573772534185,0.818989022094,0.00477573088211,0.0,0.818973581215,-0.573692829263,-0.011813459507,0.0,-0.00693542461608,0.010689641831,-0.999918812426,0.0,0.409618492338,-0.0700461813943,0.304850768551,1.0,-0.19998,-0.262830857143,2.653
-0.046334788678,-0.380535545122,-0.133160449976,-2.52685697091,-0.0474366772739,2.14037949614,-0.318154634176,-0.714223095728,-0.48247702835,-0.00816427343029,-0.411478182155,-0.0857569369278,-0.0558410254841,-0.637614077869,0.573976053656,0.818845870889,0.00486584610028,0.0,0.818832348302,-0.573897186621,-0.0116769629648,0.0,-0.00676926785019,0.0106868150643,-0.999919981297,0.0,0.406251487685,-0.0746075424155,0.304916420838,1.0,-0.19998,-0.262830857143,2.67
-0.0588990148381,-0.389136972313,-0.133286710098,-2.53436733725,-0.048832128405,2.13928692036,-0.32990499552,-0.703581123427,-0.477687045956,-0.0101133130984,-0.42283776141,-0.0876948308458,-0.0612497696736,-0.652052436294,0.573799853251,0.818969086322,0.00491029114373,0.0,0.818956510121,-0.573721465633,-0.0116043656939,0.0,-0.00668660607591,0.0106801038561,-0.999920609189,0.0,0.402690622495,-0.0792618708165,0.304929936247,1.0,-0.19998,-0.262830857143,2.688
-0.0711622241727,-0.39713475638,-0.133526455992,-2.54136144334,-0.0501637819706,2.13805410276,-0.341177293159,-0.731131335343,-0.463665490415,-0.00904178299552,-0.407459739751,-0.076414880977,-0.07048572051,-0.66802662461,0.573898514495,0.818900193717,0.00486977332686,0.0,0.818886202663,-0.573818829732,-0.0117509418118,0.0,-0.00682861236654,0.0107318448585,-0.999919095507,0.0,0.399228258899,-0.0837890620806,0.304895332712,1.0,-0.19998,-0.262830857143,2.705
-0.0826059809483,-0.404504310226,-0.133613126165,-2.5477215465,-0.0513526481401,2.13691977265,-0.351870526643,-0.711633453469,-0.460638367169,-0.0111984180372,-0.382108617647,-0.0757453116467,-0.072068787068,-0.66716461605,0.573770351353,0.818990076537,0.00485647429863,0.0,0.818975640448,-0.573690305789,-0.0117932309977,0.0,-0.00687255925003,0.0107441473003,-0.999918662306,0.0,0.396024424596,-0.0879064099859,0.304886944655,1.0,-0.19998,-0.262830857143,2.721
-0.0950986124514,-0.412115138214,-0.133845732071,-2.55407079376,-0.052506128127,2.13582818196,-0.363482251053,-0.74187213154,-0.447771681464,-0.0148692549499,-0.367115948758,-0.072983558702,-0.0526204605859,-0.681519834107,0.573869324975,0.818919422765,0.00507186084755,0.0,0.818908533045,-0.573789770757,-0.0116129402849,0.0,-0.00660000755229,0.010817908607,-0.999919703153,0.0,0.392692945112,-0.0924218544232,0.304963395007,1.0,-0.19998,-0.262830857143,2.738
-0.106914382415,-0.419118649967,-0.133944102298,-2.55997298225,-0.0536198974313,2.13468594342,-0.374525133864,-0.728094796997,-0.440902220323,-0.00954076957963,-0.370290237781,-0.0784007196888,-0.0813528089745,-0.690618394088,0.573812695642,0.818958856168,0.00511166562309,0.0,0.818948596123,-0.573733216629,-0.0115818800777,0.0,-0.00655247705592,0.0108322297679,-0.99991986071,0.0,0.389514588206,-0.0965930755343,0.30498133282,1.0,-0.19998,-0.262830857143,2.754
-0.119607317655,-0.426369546799,-0.134164305192,-2.56620007209,-0.0548662782933,2.13332015584,-0.386411086002,-0.751851595235,-0.422718390445,-0.0162646104736,-0.364026947687,-0.0708475331776,-0.0744280178962,-0.700416679746,0.573797607852,0.81897003266,0.0050137539987,0.0,0.8189571485,-0.573716246436,-0.0118154304877,0.0,-0.00680014229151,0.0108859250154,-0.999917623958,0.0,0.386044643199,-0.101053865517,0.304912488643,1.0,-0.19998,-0.262830857143,2.771
-0.133174084286,-0.433811886412,-0.134291982853,-2.57244634151,-0.0560576475659,2.13204789576,-0.39913375328,-0.744434317504,-0.403287811277,-0.00790355784211,-0.34190726154,-0.0574084111007,-0.0689688172802,-0.714842021208,0.573762439778,0.818994410248,0.00505624199755,0.0,0.818982031866,-0.57368086464,-0.0118086378383,0.0,-0.00677066945762,0.0109165343784,-0.999917490252,0.0,0.382464091759,-0.105739547267,0.304903968252,1.0,-0.19998,-0.262830857143,2.789
-0.144642937666,-0.439821565675,-0.134488166056,-2.5773605712,-0.0570554360566,2.13092877212,-0.409923875867,-0.769216415105,-0.408070257647,-0.0182022175914,-0.320775543268,-0.0659885813992,-0.0669038530224,-0.722285932513,0.57378703823,0.818976824494,0.00511298365703,0.0,0.818965329674,-0.573705503644,-0.0117699100641,0.0,-0.00670606581734,0.0109409888301,-0.999917658332,0.0,0.379491943289,-0.10970605548,0.30493313748,1.0,-0.19998,-0.262830857143,2.804
-0.158582656551,-0.446938803811,-0.134608552778,-2.5830344348,-0.0582037288913,2.12962579718,-0.423013273835,-0.763383952966,-0.394444943297,-0.00653219923995,-0.32540148938,-0.0485906685533,-0.071580841713,-0.728244802314,0.573788814534,0.818974900996,0.0052206087298,0.0,0.818966019614,-0.573708955503,-0.0115516230291,0.0,-0.00646550382611,0.0109039031691,-0.99991964785,0.0,0.375946662913,-0.114444278052,0.305023880087,1.0,-0.19998,-0.262830857143,2.822
-0.172584161369,-0.453745312231,-0.134860527804,-2.58874174651,-0.0592997196083,2.12818306879,-0.436286689608,-0.790200293866,-0.381510530853,-0.0197010355904,-0.31113598746,-0.0588188855161,-0.0800805695291,-0.739307852432,0.573806735482,0.81896230803,0.00522639864867,0.0,0.81895176829,-0.573723957532,-0.0118139184587,0.0,-0.00667677236002,0.0110592873247,-0.999916552956,0.0,0.372278996054,-0.119149577167,0.304948433073,1.0,-0.19998,-0.262830857143,2.84
-0.185167714125,-0.45961140932,-0.134960361005,-2.5934766847,-0.0602686202091,2.12696718467,-0.448228990206,-0.786097315703,-0.358098701074,-0.00556143102199,-0.291186999719,-0.0552413401779,-0.0662871151902,-0.745356457358,0.573741572671,0.81900786869,0.00524077419038,0.0,0.818997516824,-0.573658758382,-0.011808609976,0.0,-0.00666505679664,0.0110674845902,-0.999916540419,0.0,0.369087564631,-0.12332120977,0.304960296189,1.0,-0.19998,-0.262830857143,2.856
-0.198715220215,-0.46553155149,-0.135174522233,-2.59829868326,-0.0613099903313,2.12577305447,-0.461089498083,-0.805477444021,-0.346248849973,-0.0169584231566,-0.279229260264,-0.0632810866831,-0.0723152861666,-0.749791502711,0.573759458813,0.81899523115,0.0052575353338,0.0,0.818985041337,-0.573676490407,-0.0118124223195,0.0,-0.00665832132286,0.0110835452226,-0.999916407397,0.0,0.365691956286,-0.127818653869,0.304941867487,1.0,-0.19998,-0.262830857143,2.873
-0.21154328143,-0.470940992856,-0.135282791806,-2.60259885091,-0.062219806953,2.12459693998,-0.473256886637,-0.803248703401,-0.338568669032,-0.00934434641112,-0.263124019525,-0.0531995753615,-0.0741992164094,-0.775995787746,0.573759404688,0.818995138027,0.00527790870702,0.0,0.818985328406,-0.573676558496,-0.0117891895062,0.0,-0.00662760398569,0.0110869016058,-0.999916574259,0.0,0.362513402908,-0.132006551229,0.304958397093,1.0,-0.19998,-0.262830857143,2.889
-0.22449855822,-0.476230267322,-0.1355051463,-2.60664139305,-0.0630514863636,2.12346760537,-0.485620333288,-0.821532804927,-0.324465806101,-0.0209433755765,-0.253495382219,-0.0507803375249,-0.063399627809,-0.767321315264,0.573830546441,0.818944187342,0.00544691574398,0.0,0.81893734256,-0.573748442107,-0.0116232973624,0.0,-0.00639379549068,0.0111307000819,-0.999917610053,0.0,0.359349769291,-0.136243844358,0.305038433108,1.0,-0.19998,-0.262830857143,2.905
-0.238344221956,-0.481543962504,-0.135597841865,-2.61089430886,-0.0640188447055,2.12224670757,-0.498878819124,-0.81481609073,-0.306862459718,-0.0083981220179,-0.24432085478,-0.0427618211376,-0.0719451818256,-0.774331199622,0.573732711012,0.819013127698,0.00538700982281,0.0,0.819005352592,-0.573650552461,-0.0116628893619,0.0,-0.00646192274534,0.0111035847896,-0.999917473574,0.0,0.355940473133,-0.140678257069,0.305018800789,1.0,-0.19998,-0.262830857143,2.922
-0.253171250481,-0.486880179784,-0.135812543395,-2.61518079406,-0.0649088698899,2.12095826164,-0.51306942228,-0.83801945153,-0.294657562301,-0.0169276767449,-0.24199684959,-0.0477288746241,-0.0662766043233,-0.793659149808,0.573793505419,0.818970208787,0.00543664963446,0.0,0.818962006512,-0.573709328576,-0.0118146136794,0.0,-0.00655688626065,0.0112317743381,-0.999915423667,0.0,0.352301837875,-0.14540717037,0.304975072156,1.0,-0.19998,-0.262830857143,2.94
-0.266370700654,-0.491295629542,-0.135896117158,-2.61869987085,-0.0656144831905,2.11989272944,-0.525814502445,-0.834983767405,-0.27259986823,-0.00931731679268,-0.213965848711,-0.0402923980822,-0.0629836335881,-0.802530958163,0.573729688405,0.819014607025,0.00548315812792,0.0,0.819006366554,-0.573644253352,-0.0118991193413,0.0,-0.0066002974771,0.011317837351,-0.999914167632,0.0,0.349129159168,-0.149559340999,0.304947290783,1.0,-0.198025714286,-0.260262367347,2.956
-0.280543517856,-0.49573817297,-0.136020814735,-2.62216054646,-0.0663693181471,2.11883207681,-0.539309630996,-0.835518171391,-0.261165707973,-0.00775944311403,-0.196025801947,-0.0360222365855,-0.0677608058011,-0.789851248365,0.573858468251,0.818923991691,0.00554086191635,0.0,0.81891649086,-0.573772776221,-0.0118881943902,0.0,-0.0065564581118,0.0113598629325,-0.999913979486,0.0,0.345771932164,-0.154017875958,0.304949569782,1.0,-0.194878285714,-0.256125746939,2.973
-0.294406690547,-0.499970564359,-0.136008670159,-2.62540151925,-0.067035624317,2.11774342403,-0.55271818743,-0.810201570386,-0.244140139419,-0.000250763173771,-0.184438719922,-0.0375110186793,-0.0581813029952,-0.781918824609,0.573754870916,0.818996318202,0.00557904770102,0.0,0.818989248562,-0.573668943182,-0.0118870210787,0.0,-0.00653502591874,0.0113896356147,-0.999913781102,0.0,0.342487604209,-0.158287328472,0.304968191505,1.0,-0.191730857143,-0.251989126531,2.99
-0.307620469114,-0.503618963421,-0.136064311737,-2.62816862204,-0.0676267794115,2.11682740583,-0.565276085351,-0.822804123209,-0.221721025688,-0.00362887835893,-0.170728629704,-0.0352872197336,-0.0566611296598,-0.772583671852,0.573922629984,0.818878284307,0.00564952948084,0.0,0.818872347893,-0.573836790683,-0.0118390209022,0.0,-0.00645293349712,0.0114211453756,-0.999913954842,0.0,0.339413335204,-0.162374916093,0.304992264162,1.0,-0.188768571429,-0.248095836735,3.006
-0.321302059047,-0.50715053886,-0.135987642439,-2.63082257743,-0.0681425643294,2.11600442099,-0.578556834822,-0.800918829535,-0.204429166894,0.000528070413714,-0.149037862612,-0.0264558038516,-0.0479121245956,-0.78458293087,0.573824905089,0.818946186085,0.00573319260652,0.0,0.818942135257,-0.573740219485,-0.0116913021794,0.0,-0.00628530515739,0.0114041329234,-0.999915216752,0.0,0.336285389902,-0.166546286276,0.305031695375,1.0,-0.185621142857,-0.243959216327,3.023
-0.335820431329,-0.510621264828,-0.135985380007,-2.63345872285,-0.0687068370051,2.11508603381,-0.592439050498,-0.799199146692,-0.184028901066,0.00919626358512,-0.142794485772,-0.029694991199,-0.0463679632154,-0.766652411487,0.573952889165,0.818856153061,0.00578173969021,0.0,0.818852766798,-0.573868075492,-0.0116758357402,0.0,-0.00624299430595,0.011435993377,-0.999915117936,0.0,0.332936569974,-0.170962618738,0.305042803327,1.0,-0.182288571429,-0.239579265306,3.041
-0.347552961848,-0.513231443699,-0.135866490328,-2.63550485993,-0.0690619503708,2.11432683778,-0.603943554348,-0.779676422141,-0.165668425314,0.00822744254343,-0.133873548882,-0.0289361019793,-0.0436164189218,-0.750860246154,0.573789262628,0.818970633515,0.00580779079277,0.0,0.818966698034,-0.573702768268,-0.0118079673869,0.0,-0.00633855491286,0.0115318941732,-0.999913415321,0.0,0.330045408189,-0.174685727218,0.305009870114,1.0,-0.179326285714,-0.23568597551,3.057
-0.361805276971,-0.516019297715,-0.135814951124,-2.63775075627,-0.0695572402448,2.11352511533,-0.617571306739,-0.781806487601,-0.151512293476,0.00701289540551,-0.119141543289,-0.0235116056565,-0.0407435609497,-0.751204765397,0.573922241053,0.81887755263,0.00579326541811,0.0,0.81887264353,-0.573834356336,-0.0119361663865,0.0,-0.00645000816869,0.0115946011617,-0.999911977435,0.0,0.326955206659,-0.178726283867,0.30495850313,1.0,-0.176178857143,-0.231549355102,3.074
-0.374812418091,-0.518383299737,-0.135657617276,-2.63958422452,-0.069880779562,2.11289948433,-0.630272513684,-0.764836907471,-0.13468426734,0.0100687510461,-0.105540307957,-0.0196619750103,-0.0354962520828,-0.744111685566,0.573817946965,0.818950318942,0.00583829997774,0.0,0.818945922213,-0.573729773976,-0.0119360732553,0.0,-0.00642556818484,0.0116306089349,-0.999911716608,0.0,0.324023067604,-0.182579190182,0.304946937973,1.0,-0.173031428571,-0.227412734694,3.091
-0.387121354876,-0.520395376582,-0.135607574048,-2.64107902031,-0.0702384440848,2.11231526404,-0.642114556212,-0.758158608875,-0.12042102188,0.00528155076323,-0.0858543202294,-0.0246489310443,-0.0332810233563,-0.733051800003,0.57392585753,0.818874545055,0.00585972863963,0.0,0.818870542649,-0.573837788734,-0.0119152634735,0.0,-0.00639469534864,0.0116370610271,-0.999911839455,0.0,0.321252823327,-0.18626047903,0.304959004398,1.0,-0.170069142857,-0.223519444898,3.107
-0.399727309183,-0.52232506012,-0.135432013196,-2.64251006017,-0.0704764967116,2.11175645329,-0.654551276205,-0.745166693372,-0.111341433388,0.00930522345707,-0.0844982561361,-0.00876217522255,-0.0305198607742,-0.734848851995,0.573755787557,0.818993285135,0.00591963249785,0.0,0.818990157599,-0.57366769527,-0.0118846144468,0.0,-0.00633763951567,0.0116672117041,-0.999911851363,0.0,0.318432997189,-0.189962811658,0.30497408478,1.0,-0.166921714286,-0.21938282449,3.124
-0.412488809268,-0.524080893752,-0.135374383794,-2.64374436005,-0.0707578635685,2.11120983992,-0.666782055329,-0.745933048732,-0.102042866741,0.0101138103151,-0.0722249732173,-0.0169064730612,-0.040801798361,-0.723191784075,0.573957660858,0.818851379857,0.00598064788256,0.0,0.81884936058,-0.573869877892,-0.0118251776689,0.0,-0.00625106973363,0.0116846259738,-0.999912192966,0.0,0.315571915849,-0.193747559167,0.305011742245,1.0,-0.163774285714,-0.215246204082,3.141
-0.425488814125,-0.525577489435,-0.135206838676,-2.6448812627,-0.0709721872142,2.11077423185,-0.679600569274,-0.721519196166,-0.0752254355271,0.00853642108734,-0.0644588549818,-0.01313316121,-0.0294319708645,-0.701064123869,0.5738307948,0.81893999686,0.00602057999475,0.0,0.818938551035,-0.573742988434,-0.0118059202209,0.0,-0.00621419435282,0.0117053110045,-0.999912180885,0.0,0.312682598269,-0.197556965349,0.305010192383,1.0,-0.160441714286,-0.210866253061,3.159
-0.437821351221,-0.526781683061,-0.135137913488,-2.64579723411,-0.0711862410812,2.11036149117,-0.69147976655,-0.721453582721,-0.0644901214161,0.00234701935977,-0.0470104730925,-0.0079058350294,-0.0229039499398,-0.695068707749,0.57400918108,0.818814663484,0.00606249127861,0.0,0.818813473733,-0.573920632584,-0.0118469248589,0.0,-0.00622116673875,0.0117645196833,-0.999911442659,0.0,0.30992288965,-0.201187206594,0.305000867583,1.0,-0.157294285714,-0.206729632653,3.176
-0.448965171213,-0.527721036838,-0.134956331594,-2.64654513842,-0.0713022063524,2.11005435996,-0.702489877091,-0.693421348792,-0.0555864491474,0.00300471540808,-0.0399425432719,-0.000896458824994,-0.0136832908098,-0.688030197269,0.573898060719,0.818892298162,0.00609645914868,0.0,0.818891287321,-0.573808904326,-0.011880562538,0.0,-0.00623081857843,0.0118107964756,-0.999910837018,0.0,0.307448738908,-0.204417715168,0.304982702244,1.0,-0.154332,-0.202836342857,3.192
-0.460108181563,-0.528498957901,-0.134828658551,-2.64712804371,-0.0714341776845,2.10978789285,-0.713296608833,-0.698557054219,-0.0455424776989,0.00590822310757,-0.0347939071557,-0.0112265860887,-0.0167693450362,-0.672388063945,0.57399336626,0.818825271923,0.006126699831,0.0,0.818824671881,-0.573904103279,-0.0118736624341,0.0,-0.00620643619191,0.0118323242582,-0.999910734142,0.0,0.304978658918,-0.207670869804,0.304982391414,1.0,-0.151369714286,-0.198943053061,3.208
-0.471650681218,-0.529108005226,-0.134610822008,-2.64760863445,-0.0715449351191,2.10953779121,-0.724638657364,-0.663139793544,-0.0341725684078,0.015029155706,-0.0325025384536,-0.00319425966038,-0.0112278244367,-0.667055858392,0.573929025452,0.818870447387,0.00611645659478,0.0,0.818869506243,-0.573839421514,-0.0119078530081,0.0,-0.00624124516939,0.0118430702797,-0.999910390258,0.0,0.302433433504,-0.211012165517,0.304970462532,1.0,-0.148222285714,-0.194806432653,3.225
-0.482936647673,-0.529559767753,-0.134454189328,-2.6479750281,-0.0716014088218,2.10931638349,-0.735774559793,-0.666313067868,-0.0257510079917,0.00603452947663,-0.0137471087339,-0.00348454771308,-0.00987597774365,-0.655763832529,0.573896407569,0.818892946483,0.00616461519274,0.0,0.818892217241,-0.573805824928,-0.0119648954418,0.0,-0.00626079691645,0.0119149953152,-0.999909413551,0.0,0.299931136589,-0.214280576016,0.30495386252,1.0,-0.145074857143,-0.190669812245,3.242
-0.493489695523,-0.529829034502,-0.134299723809,-2.64821165821,-0.0716571122166,2.10913834325,-0.746051220826,-0.638824046025,-0.016780305906,0.0129387806346,-0.00796518661983,-0.00821363071796,-0.00677477254997,-0.649484956032,0.573976687056,0.818836513636,0.00618656238681,0.0,0.818835607108,-0.573885114023,-0.0120362509207,0.0,-0.00630546708018,0.0119745355429,-0.999908421598,0.0,0.297589872635,-0.217333142502,0.304933242224,1.0,-0.142112571429,-0.186776522449,3.258
-0.504236023985,-0.529972518944,-0.13410338972,-2.64835673159,-0.0716784658812,2.10903419936,-0.756771607143,-0.636353526924,-0.00642780868709,0.00641411760695,-0.0112894845841,-0.00314172007128,-0.00657996285141,-0.617630541951,0.573842323619,0.818930488703,0.00621202044788,0.0,0.818929695967,-0.573750254723,-0.0120642102802,0.0,-0.00631572290347,0.0120103937138,-0.999907926805,0.0,0.295218988035,-0.220430662451,0.304915736195,1.0,-0.138965142857,-0.182639902041,3.275
-0.515078360015,-0.530034413323,-0.133973583234,-2.64842294947,-0.0716892999847,2.1089493126,-0.767269178402,-0.636669929715,-0.000371501012756,0.0124025439878,-0.0015764770201,-0.000749239386133,-0.00552128154051,-0.612203421528,0.57402484881,0.818802121116,0.00626947411239,0.0,0.81880193401,-0.573932213804,-0.0120811307428,0.0,-0.00629392349851,0.0120685591337,-0.999907363913,0.0,0.292804576439,-0.223564303869,0.304904258433,1.0,-0.135817714286,-0.178503281633,3.292
-0.524775235909,-0.529981969476,-0.133755376269,-2.64838044153,-0.0716914458513,2.10891730334,-0.776936283959,-0.600719394066,0.00529941499353,0.01458942816,0.0018811523611,5.30443202602e-05,-0.000135369737909,-0.597355316032,0.573875520616,0.818906798039,0.00626816285104,0.0,0.818906800293,-0.573783320077,-0.0120457850005,0.0,-0.00626792861026,0.0120460542463,-0.999907798573,0.0,0.290537890065,-0.226516297521,0.304908865393,1.0,-0.132670285714,-0.174366661225,3.309
-0.535595427495,-0.529834636787,-0.133592378381,-2.64826272577,-0.071693269297,2.10890999621,-0.787556926747,-0.595964032724,0.00512750902349,0.00877688037808,0.00792652175179,0.000389228636374,-0.000162425491093,-0.576107169891,0.573951334619,0.81885344748,0.00629634341641,0.0,0.818853986183,-0.573859321351,-0.0120156361558,0.0,-0.00622594959871,0.012052408359,-0.999907984269,0.0,0.288257815558,-0.229464099231,0.304910508519,1.0,-0.129522857143,-0.170230040816,3.326
-0.545643123811,-0.529570435021,-0.133402694085,-2.64801681338,-0.0716916379613,2.1089264059,-0.797392595758,-0.578155915825,0.0218031838968,0.0188115153327,0.0162802372693,0.000279016729859,0.0017562632409,-0.569423074881,0.574005655463,0.818815417029,0.0062902491158,0.0,0.818816301753,-0.573914481967,-0.0119489863275,0.0,-0.00617406803004,0.0120095754687,-0.999908821334,0.0,0.286032756883,-0.232359897827,0.304932073509,1.0,-0.126375428571,-0.166093420408,3.343
-0.554606271669,-0.529169270708,-0.133196213438,-2.64771489936,-0.0716910438388,2.10894198146,-0.806432946635,-0.559791209847,0.0271428442337,0.0100869519654,0.0166772691476,-0.00051681304143,-0.000635395844842,-0.561269972511,0.573814334215,0.818949783219,0.00625374425434,0.0,0.81895007865,-0.573723135058,-0.0119699573631,0.0,-0.00621499588609,0.0119902683136,-0.999908799487,0.0,0.284047338529,-0.234933503891,0.304929406501,1.0,-0.123413142857,-0.162200130612,3.359
-0.56421139015,-0.528685563476,-0.133022506779,-2.64735051498,-0.0716720351854,2.1089906094,-0.815800048863,-0.564452030399,0.0295246951808,0.00921462582281,0.0250747825999,0.00221433105301,0.0103344047748,-0.534431583164,0.573915569495,0.818878905884,0.00624527748832,0.0,0.818879060234,-0.573824325034,-0.0119781305277,0.0,-0.00622506613349,0.0119887933853,-0.99990875453,0.0,0.28190037137,-0.237694599014,0.304926937962,1.0,-0.120265714286,-0.158063510204,3.376
-0.573966478831,-0.527994123743,-0.132801347119,-2.64681640769,-0.0716264389553,2.10913980824,-0.825503564464,-0.526506855896,0.0395315530878,0.0143369562114,0.0299730233812,0.0079981232265,0.00889262740868,-0.533668114957,0.573851389164,0.818924109586,0.00621552853193,0.0,0.818924249847,-0.573761001228,-0.0119219706474,0.0,-0.00619708063627,0.0119317161805,-0.999909611085,0.0,0.279755790308,-0.240514932525,0.304935428746,1.0,-0.116933142857,-0.153683559184,3.394
-0.581822773941,-0.527335189459,-0.132630845546,-2.64633642398,-0.0715844484653,2.10921316865,-0.833333775004,-0.529369371302,0.0424726247268,0.00970242787341,0.0316259424309,-0.000715482358837,0.004732318188,-0.528035663215,0.573798262469,0.818961541394,0.00618826368111,0.0,0.818960946333,-0.573707270654,-0.011986779414,0.0,-0.00626658012976,0.0119461694816,-0.999909005364,0.0,0.277889262861,-0.242931389253,0.30491881392,1.0,-0.113970857143,-0.149790269388,3.41
-0.590704974803,-0.526533250532,-0.132446744612,-2.6457251648,-0.0715102283224,2.10934586975,-0.842009997174,-0.513491884664,0.0445402846724,0.00516058875035,0.0424629901166,0.00640857461895,0.0103869613998,-0.503395672829,0.573902299431,0.818888642436,0.00618780239253,0.0,0.818888098154,-0.573811395747,-0.0119796374897,0.0,-0.00625947806766,0.0119424891646,-0.999909093811,0.0,0.27603615709,-0.245342663637,0.304923793951,1.0,-0.111008571429,-0.145896979592,3.426
-0.599627708684,-0.525521170524,-0.132191813464,-2.64499388742,-0.0713880898748,2.10951133027,-0.850958808394,-0.485579009313,0.062517462172,0.0187228149537,0.0413232948937,0.00450447202804,0.00296560528581,-0.4801112136,0.573794180965,0.818964515984,0.00617303414214,0.0,0.818963422789,-0.573702685289,-0.0120369401058,0.0,-0.00631646217544,0.0119624456735,-0.999908496913,0.0,0.274077629758,-0.247912215591,0.304906302074,1.0,-0.107676,-0.141517028571,3.444
-0.60729872278,-0.524605865304,-0.13197033,-2.64433373767,-0.0712510865822,2.10966403043,-0.858691729651,-0.482266285671,0.0553464226447,0.0105815298062,0.0449670071446,0.00595820004874,0.0025923478105,-0.480006322811,0.573682449269,0.819042705313,0.00618394503229,0.0,0.819041403041,-0.573590265679,-0.0120885947852,0.0,-0.00635414703934,0.0120001527203,-0.999907806325,0.0,0.272386252997,-0.250113492354,0.304889709043,1.0,-0.104713714286,-0.137623738776,3.46
-0.615417441911,-0.523626493685,-0.131761610796,-2.64355731414,-0.0710923632123,2.10984522453,-0.866611513544,-0.468604881231,0.063671294484,0.0097875469298,0.0460994407237,0.00849499874865,0.0153681914582,-0.454671745871,0.573808472489,0.818954241194,0.00620762693866,0.0,0.818953427207,-0.573716498503,-0.0120586198627,0.0,-0.00631416145543,0.0120033267012,-0.999908021527,0.0,0.270594123387,-0.252457011516,0.304904319127,1.0,-0.101566285714,-0.133487118367,3.477
-0.623200987936,-0.522509658698,-0.13155452774,-2.64269650929,-0.0709258211883,2.11004082604,-0.874337361675,-0.448610305579,0.0673095888025,0.0193504334401,0.0481237373403,0.0151752295604,0.0224354739848,-0.451105815629,0.573827922427,0.818940470699,0.00622637896189,0.0,0.818939817375,-0.573735702865,-0.0120692036539,0.0,-0.00631178493269,0.0120249072248,-0.999907777236,0.0,0.268886691414,-0.254718276299,0.304907708693,1.0,-0.0984188571429,-0.129350497959,3.494
-0.630142821385,-0.521486570219,-0.131318172502,-2.64191331976,-0.0707584196298,2.11022257768,-0.881388353742,-0.434971021431,0.0646441525493,0.0131333999233,0.0486855763383,0.0030481351263,0.00786110630511,-0.44064589224,0.573685856678,0.819039941012,0.0062337610052,0.0,0.819039283255,-0.573593443477,-0.0120814314693,0.0,-0.00631965215006,0.0120368732552,-0.999907583569,0.0,0.267365078887,-0.256716544731,0.304909422011,1.0,-0.0954565714286,-0.125457208163,3.51
-0.637526182272,-0.520386538715,-0.131099363357,-2.64105247708,-0.0705861485582,2.11041814501,-0.888619179989,-0.423744782807,0.0685037135194,0.0137425678722,0.0551404033186,0.0137779732055,0.0157125917905,-0.423259117421,0.573776552323,0.8189763081,0.00624673326749,0.0,0.818975833361,-0.573684088739,-0.0120788078424,0.0,-0.00630872743342,0.0120466922397,-0.999907534307,0.0,0.265729615464,-0.25884702023,0.304918540706,1.0,-0.0923091428572,-0.121320587755,3.527
-0.644604823208,-0.519230803001,-0.130932990569,-2.64015658659,-0.0704015880769,2.11065780544,-0.895643966004,-0.417795569082,0.0691506833532,0.0101183762813,0.0496518119118,0.00913509180656,0.0102848875003,-0.398078605375,0.573830553524,0.818938170915,0.00628609279003,0.0,0.818938338122,-0.573738151854,-0.0120531473806,0.0,-0.00626433181768,0.0120646188971,-0.99990759729,0.0,0.264160397119,-0.260911177561,0.30492517485,1.0,-0.0891617142858,-0.117183967347,3.544
-0.651336461149,-0.518017261826,-0.130687321216,-2.6392432952,-0.0701977673779,2.11089995639,-0.902432033079,-0.388488342285,0.0749227772627,0.0214790112343,0.0524243340632,0.014955320675,0.00628094525065,-0.39971316034,0.573747095732,0.818996542987,0.00629917575571,0.0,0.818996772961,-0.573654446807,-0.0120668321543,0.0,-0.00626926433844,0.0120825471459,-0.999907349898,0.0,0.262688916536,-0.262859580779,0.304920188879,1.0,-0.0860142857143,-0.113047346939,3.561
-0.657462646416,-0.51693148,-0.130443357458,-2.63842744164,-0.0700169885513,2.1111124701,-0.908548740919,-0.381005644182,0.0653397327057,0.0175858085901,0.0540559378763,0.012972445665,0.0137568377625,-0.379195762102,0.57370340024,0.819027149076,0.00629956591253,0.0,0.819027263612,-0.573610527002,-0.012085184052,0.0,-0.00628471751746,0.0120930602433,-0.999907125797,0.0,0.261337414311,-0.264616957981,0.304914985974,1.0,-0.0830520000001,-0.109154057143,3.577
-0.663482141029,-0.515836661119,-0.130228874021,-2.63756364391,-0.0698302096306,2.1113463865,-0.914470333584,-0.369535362008,0.0661566371666,0.0167961758255,0.0564288734039,0.0134183218931,0.0149870206717,-0.362886102897,0.573757710318,0.818989040471,0.00630779995357,0.0,0.818989516302,-0.573665278604,-0.012044385148,0.0,-0.00624577386816,0.0120768133937,-0.999907566172,0.0,0.260010728495,-0.266360954754,0.304928953121,1.0,-0.0800897142858,-0.105260767347,3.593
