nelsonifechukwu/NELSON_IML_WORK/CNN-GradCAM/train2dof/data_sample_2022-02-22-09-05-30/robot_state.csv
position_joint1,position_joint2,position_joint3,position_joint4,position_joint5,position_joint6,position_joint7,velocity_joint1,velocity_joint2,velocity_joint3,velocity_joint4,velocity_joint5,velocity_joint6,velocity_joint7,ee_T_00,ee_T_10,ee_T_20,ee_T_30,ee_T_01,ee_T_11,ee_T_21,ee_T_31,ee_T_02,ee_T_12,ee_T_22,ee_T_32,ee_T_03,ee_T_13,ee_T_23,ee_T_33,v_x,v_y,time
0.465057554839,0.547792048332,-0.124000234725,-1.35583583422,0.0795234773915,1.89410387355,0.159159171827,-0.00112317144201,-0.000248409624877,-0.000525714382531,9.81330139558e-05,2.32478888042e-05,-0.000558022721748,-0.00140363129586,0.573833548516,0.818957887932,0.00194506857718,0.0,0.818914520915,-0.573774841245,-0.0119241724698,0.0,-0.0086495302174,0.00843549751297,-0.999927011341,0.0,0.66168238359,0.260876572702,0.303206056194,1.0,0.0,0.0,0.0
0.465062841384,0.547786793802,-0.123997737886,-1.35584307405,0.0795272514043,1.89410350266,0.159161266793,0.000527098510983,5.55610231076e-05,-0.000894689484334,-0.00786505243712,0.000278838016312,-0.000215403629361,0.00129464550538,0.573830573558,0.818959969972,0.00194610751542,0.0,0.81891656084,-0.573771808042,-0.0119300284945,0.0,-0.0086537607616,0.00843967725708,-0.999926939467,0.0,0.661678624142,0.260881311414,0.303206224916,1.0,-0.00032,-0.000420571428571,0.017
0.465057413095,0.547778900595,-0.124000314995,-1.35584436807,0.0795259289943,1.89410927365,0.159158891794,-0.000364152822866,-0.00124013877539,-0.000233811819254,-0.00142053131475,-5.99446273497e-05,1.99277206228e-05,0.00012526315154,0.573834621617,0.818957111595,0.00195532647783,0.0,0.818913854956,-0.573775848772,-0.011921427287,0.0,-0.00864138492106,0.00844233420114,-0.999927024067,0.0,0.661681771392,0.26087635848,0.303211784737,1.0,-0.00066,-0.000867428571429,0.034
0.465059892023,0.547754237466,-0.123997969132,-1.3558720023,0.0795246850234,1.89411489861,0.159164378471,-0.000633967484178,0.00288595030671,0.000112042428996,-0.00192209695142,0.000313635484665,0.000990311778765,0.00212155475592,0.573836620436,0.818955703056,0.00195866808162,0.0,0.818912468637,-0.573777812611,-0.0119221377018,0.0,-0.00864002872331,0.00844549952316,-0.999927009057,0.0,0.6616760952,0.260876581125,0.303216512429,1.0,-0.00098,-0.001288,0.05
0.465061989578,0.547630778504,-0.123999939235,-1.35601533966,0.0795232048254,1.89414490043,0.159159673595,0.000286930534935,-0.00768097974613,-0.00108566277159,-0.0133273048258,0.000220297297021,-0.000225036098463,0.000403711107646,0.573839850412,0.818953406908,0.00197238263959,0.0,0.818910266178,-0.573780901985,-0.0119247375829,0.0,-0.00863425521614,0.0084582568708,-0.999926951096,0.0,0.661652471716,0.260863235892,0.303238416872,1.0,-0.00132,-0.00173485714286,0.067
0.465055586861,0.547485313165,-0.123997834674,-1.35622104095,0.0795198549942,1.89419546292,0.159148479301,0.00115292172502,-0.00830243292359,-0.00128754256631,-0.0161838315781,3.97563454868e-05,0.00029576657518,-0.00154950645011,0.573844801053,0.818949965107,0.00196108551632,0.0,0.818906518832,-0.573785744279,-0.0119490576341,0.0,-0.00866060416337,0.00846301325331,-0.999926682983,0.0,0.66162022528,0.260842310571,0.303241881474,1.0,-0.00166,-0.00218171428571,0.084
0.465031214739,0.547339342731,-0.124003340772,-1.35642879736,0.0795169805487,1.89429637192,0.159146194199,0.000546731282922,-0.00889067453357,-0.000959384071988,-0.0133161978129,4.64880832388e-05,0.00250645586001,0.000289364319883,0.573877850598,0.818926694545,0.00200710139355,0.0,0.818883853368,-0.573818603362,-0.0119244299705,0.0,-0.00861368774184,0.00848691256372,-0.999926885676,0.0,0.661604739217,0.260804937368,0.303261327143,1.0,-0.002,-0.00262857142857,0.101
0.465014003783,0.547139567452,-0.123995553862,-1.35664961873,0.0795142168262,1.89442236778,0.159129016841,-0.000563985528163,-0.0155489492554,0.000347233740892,-0.0128153469146,-0.000160402229572,0.0030320216317,-0.00144529445821,0.573884273775,0.818921950595,0.00210381756098,0.0,0.818880299472,-0.573824561292,-0.0118817042512,0.0,-0.00852313032945,0.00854166242322,-0.999927195476,0.0,0.661587370851,0.260782596369,0.303308408475,1.0,-0.00234,-0.00307542857143,0.118
0.464988450576,0.54692192448,-0.123998141721,-1.3569396092,0.0795106044224,1.89454658232,0.159123178806,-0.00237698743827,-0.0204808555881,0.000151795697369,-0.0210965316308,-0.00127613981608,4.46999289633e-05,0.000129386612476,0.573917565404,0.818898487155,0.00215470587347,0.0,0.818857414547,-0.573857560114,-0.0118651692974,0.0,-0.00848003819915,0.00857419103666,-0.999927283456,0.0,0.661558840268,0.260740485796,0.30333540118,1.0,-0.00268,-0.00352228571429,0.135
0.464961944377,0.546700584364,-0.123999108544,-1.35729195441,0.0795031070715,1.89467940081,0.159094960175,-0.00284000929693,-0.0148892353969,-0.00188546078761,-0.02393562077,-0.000158757207572,0.00772347211744,0.000268020727997,0.573934603144,0.818886524265,0.00216300560516,0.0,0.818845443195,-0.573874444732,-0.0118747102589,0.0,-0.00848290989225,0.00858663972271,-0.999927152276,0.0,0.661517889183,0.260691275698,0.303336009244,1.0,-0.003,-0.00394285714286,0.151
0.464923938849,0.5464200997,-0.124000925637,-1.35770195591,0.0794906693041,1.8948329388,0.158964633218,-0.00638932763814,-0.0126756626942,-0.00065103295035,-0.0230528802566,-0.000125361611672,0.0120123090505,-0.0144682873624,0.573879901483,0.81892478609,0.0021909592672,0.0,0.818883963053,-0.573819530973,-0.0118721451399,0.0,-0.00846534168411,0.0086074926118,-0.999927121875,0.0,0.661472849396,0.26062850947,0.303352864806,1.0,-0.00334,-0.00438971428571,0.168
0.464883519163,0.546135368289,-0.124003307682,-1.35819182643,0.0794786722433,1.89499859221,0.158921275284,-0.00305097414577,-0.0145719286646,-0.00170108576905,-0.0335906989497,-6.08846342273e-05,0.0134681830136,0.000136162185349,0.573903335771,0.818908430441,0.00216578964768,0.0,0.818867107,-0.573842888125,-0.0119057852849,0.0,-0.00850708874217,0.0086064294936,-0.999926776725,0.0,0.661412697819,0.260555278826,0.303335767295,1.0,-0.00368,-0.00483657142857,0.185
0.464835235989,0.545831567515,-0.124001171849,-1.35870708908,0.0794481260742,1.89517733942,0.158876572394,-0.00579294145872,-0.0148064586994,-0.00164073119502,-0.0405572229496,0.000328445911062,0.00888904232682,-0.00115657600512,0.573925446256,0.818893007652,0.00213800341171,0.0,0.818851284501,-0.573865070463,-0.0119248343625,0.0,-0.00853840238909,0.00859483820026,-0.999926609527,0.0,0.661351838236,0.260474586736,0.303321021528,1.0,-0.004,-0.00525714285714,0.201
0.464765503725,0.545450267948,-0.124003804135,-1.35937073345,0.079328282155,1.8953981274,0.158781037157,-0.00935641146973,-0.0218620421346,-0.00166250692221,-0.0403769408738,-0.00739018513211,0.0181164104017,-0.0032371187917,0.573911300748,0.818903170217,0.00204048601242,0.0,0.818860865563,-0.57385201261,-0.0118952668932,0.0,-0.00857029976931,0.00849786584796,-0.999927165467,0.0,0.661278941042,0.260348745615,0.303294139269,1.0,-0.00436,-0.00573028571429,0.219
0.464698278783,0.545016846708,-0.124001317751,-1.36011565387,0.0793202498234,1.89563345189,0.158697855074,-0.0064573659537,-0.0241339523065,0.00155496543552,-0.0392261222792,-6.8189392477e-05,0.00693444301836,-0.00409812130546,0.573935754383,0.81888614015,0.00199655020157,0.0,0.8188428496,-0.573876237107,-0.0119665802727,0.0,-0.00865366062322,0.00850307284313,-0.999926403247,0.0,0.661183460992,0.260237661779,0.303266737474,1.0,-0.00472,-0.00620342857143,0.237
0.464642424476,0.544643169161,-0.12400087359,-1.36074941374,0.0793012529891,1.8958450537,0.158614407992,-0.000881659187617,-0.0228641918318,0.00436779484644,-0.0409084188839,-0.00426737702394,0.0125316988644,-0.00188909649104,0.573943060453,0.818881093923,0.00196577588381,0.0,0.818837181779,-0.573883456781,-0.0120081085739,0.0,-0.0087052544286,0.00850178465556,-0.999925966361,0.0,0.661105272967,0.260141946962,0.303247907049,1.0,-0.00502,-0.00659771428571,0.252
0.46456393415,0.544164696873,-0.124002028629,-1.36153006959,0.0792733648708,1.89613567077,0.158518179446,-0.00477731705276,-0.0285798616017,0.000121903591174,-0.0493626291669,-0.000654404354151,0.0223770442187,-0.00409647140808,0.573965510048,0.81886536028,0.00196517430543,0.0,0.818821263849,-0.573905733885,-0.0120288562934,0.0,-0.00872235687292,0.0085134390563,-0.999925718164,0.0,0.661018492481,0.260018213133,0.303240184602,1.0,-0.00536,-0.00704457142857,0.269
0.464495873325,0.543656833976,-0.12400487076,-1.3623643295,0.0792286663557,1.89641518859,0.15841852165,-0.00870013316229,-0.03158254963,0.0013872436597,-0.0521132397394,-0.00139636105903,0.014835695956,-0.00485631044756,0.573976049067,0.818858062185,0.00192769122818,0.0,0.818813386254,-0.57391634586,-0.0120587456882,0.0,-0.0087682364367,0.00850001424062,-0.999925431114,0.0,0.660916430334,0.259890947601,0.303226754943,1.0,-0.0057,-0.00749142857143,0.286
0.464412284243,0.543148504944,-0.124009864323,-1.36316928615,0.0791881094857,1.89669648052,0.158313102443,-0.00634546553155,-0.0324417739996,0.0004859982651,-0.0479621563713,-0.00425903171952,0.0174265471457,-0.00593048293162,0.573995576992,0.818844396534,0.00191800937604,0.0,0.818799514198,-0.573935836118,-0.0120730472635,0.0,-0.00878530193016,0.00850050453644,-0.999925277155,0.0,0.660825666307,0.259756459637,0.303227774135,1.0,-0.00602,-0.007912,0.302
0.464342109067,0.54257635336,-0.124010926868,-1.36407005122,0.0791329850422,1.89701703995,0.158199814328,-0.00174158277295,-0.0324295406014,0.000210492953221,-0.0543574495926,-0.00739966055088,0.0138110897471,-0.0106651180934,0.573996341186,0.818843878467,0.00191047190912,0.0,0.818798882488,-0.573936618528,-0.0120786940725,0.0,-0.00879424423027,0.00849758207292,-0.999925223388,0.0,0.660718644194,0.259622894937,0.303231529052,1.0,-0.00636,-0.00835885714286,0.319
0.464256145857,0.541945740237,-0.124006180052,-1.36505312752,0.0790717144576,1.8973899886,0.15806237335,-0.00289447318303,-0.0354100255694,0.00109951448609,-0.0506894809207,-0.000130663538827,0.0170633993918,-0.00514885273408,0.573989201971,0.818848843238,0.00192739435764,0.0,0.818804065268,-0.573929403263,-0.0120701976954,0.0,-0.0087776481239,0.00850648525441,-0.99992529351,0.0,0.660607598657,0.259475833236,0.303241720712,1.0,-0.00672,-0.008832,0.337
0.464170923179,0.5413647779,-0.124014123072,-1.36592750833,0.0790213507452,1.89770924045,0.157952298591,-0.00634393607925,-0.0364589248809,-0.000488027082325,-0.0603553297797,-0.00234159117563,0.0181147109983,-0.00589222856526,0.574009446199,0.818834600677,0.00194918181297,0.0,0.818790115598,-0.573949558271,-0.0120581118137,0.0,-0.00875503569287,0.00851760487662,-0.999925397096,0.0,0.660511563772,0.259332288647,0.303264223679,1.0,-0.00702,-0.00922628571429,0.352
0.464085777752,0.540640645743,-0.124011600025,-1.36704687635,0.0789597832773,1.89811770853,0.157810996823,-0.00775206974851,-0.0403407649517,0.000482319304807,-0.0614432264029,-0.00597706933604,0.0192441279815,0.000527605087213,0.574007265063,0.818836093382,0.00196436529746,0.0,0.818791720102,-0.573947227354,-0.0120601080605,0.0,-0.0087479781797,0.00853115993623,-0.999925343307,0.0,0.660378574904,0.259171908658,0.303278635899,1.0,-0.00738,-0.00969942857143,0.37
0.463985191996,0.539907122724,-0.124016859708,-1.368156358,0.0788915427797,1.89853790112,0.157665195642,-0.00441510543334,-0.0449270793334,0.000603644342298,-0.0673612211124,-0.00708423462298,0.0311858734796,-0.0114643145262,0.574017159222,0.818829071401,0.0019999119524,0.0,0.818785207994,-0.57395701188,-0.0120365520635,0.0,-0.0087081829203,0.00854685029959,-0.999925556679,0.0,0.660256401057,0.258997845348,0.303305528861,1.0,-0.00772,-0.0101462857143,0.387
0.463897060026,0.53918966322,-0.124025767422,-1.36925293934,0.0788263111237,1.89895167529,0.157525810472,-0.00430216650796,-0.0452743819146,-0.00191070817918,-0.0725451113559,-0.0015218343947,0.0192856977055,-0.00827538947517,0.574024680299,0.818823731189,0.00202744933019,0.0,0.818780266711,-0.573964453416,-0.0120178184833,0.0,-0.00867695818297,0.00855872469807,-0.999925726556,0.0,0.660132731509,0.258831268227,0.303326661997,1.0,-0.00804,-0.0105668571429,0.403
0.463779262238,0.538417402785,-0.124023691486,-1.37044947623,0.0787633647007,1.8994137063,0.15736999298,-0.0092289093845,-0.0494238517105,0.000263151580345,-0.0720043925974,-0.00170850637596,0.0242504162367,-0.0158954622229,0.574041476515,0.818811864397,0.00206418630863,0.0,0.818768802047,-0.573981015624,-0.0120078890462,0.0,-0.00864756475596,0.00858328296383,-0.999925770684,0.0,0.660001811755,0.258643984425,0.303342652264,1.0,-0.00838,-0.0110137142857,0.42
0.463672512825,0.537637372767,-0.124026987256,-1.37168522354,0.0786882248842,1.89988730831,0.157231497313,-0.00652848363746,-0.0478817275942,0.00039566426888,-0.0774462319269,-0.0039854372285,0.031262325307,-0.00409301397557,0.574065976384,0.818794656337,0.0020766352647,0.0,0.818751788693,-0.574005492123,-0.0119979342257,0.0,-0.00863201057699,0.00858802000932,-0.999925864405,0.0,0.659863109145,0.258455152161,0.303346498337,1.0,-0.00872,-0.0114605714286,0.437
0.463578942966,0.536850929989,-0.124040740873,-1.37290717525,0.0786224785171,1.90034388413,0.157080182463,-0.00541209908687,-0.0496039966903,-0.000589016063225,-0.0848428409228,-0.00602220489672,0.0232641624337,-0.000619199594819,0.57407809516,0.818786112534,0.002095108654,0.0,0.818743476031,-0.574017522212,-0.0119896435216,0.0,-0.00861449038703,0.00859851380461,-0.999925925314,0.0,0.659722577488,0.258271045034,0.303360176957,1.0,-0.00904,-0.0118811428571,0.453
0.4634526701,0.535938150412,-0.124039765026,-1.37431924985,0.0785354902544,1.9008753882,0.156909895503,-0.00398948714994,-0.0549924622954,-5.99175211402e-05,-0.0796457659335,-0.00624863355731,0.0347237896915,-0.00416443563883,0.574095758701,0.818773660864,0.00212108885579,0.0,0.818731374306,-0.574035086513,-0.0119751024985,0.0,-0.00858748442276,0.00861162334876,-0.999926044793,0.0,0.659562175801,0.258054668812,0.303378379806,1.0,-0.0094,-0.0123542857143,0.471
0.463338421938,0.535034872155,-0.124045929547,-1.37573698262,0.0784553314364,1.90137741045,0.156732413045,-0.00743527368256,-0.0578569129258,-0.000468734217317,-0.0878613012931,-0.00796590319037,0.031455085702,-0.00935772837761,0.574104529285,0.818767533728,0.00211236099612,0.0,0.818725064537,-0.57404382333,-0.0119876810519,0.0,-0.0086027018962,0.00861179068406,-0.999925912546,0.0,0.659392119262,0.25784040879,0.303384689781,1.0,-0.00974,-0.0128011428571,0.488
0.463222559566,0.534206103062,-0.124043572741,-1.37713527217,0.0783848438553,1.90187248074,0.156567395298,-0.00800715662914,-0.0530661315669,0.000866155314896,-0.0842624371823,-0.00025037600114,0.0270939985803,-0.0120542537738,0.574120784894,0.818756248885,0.00206788922949,0.0,0.818713048272,-0.574060113124,-0.0120282172766,0.0,-0.00866125208911,0.00859882299228,-0.999925518704,0.0,0.65925440153,0.257669289678,0.303352844426,1.0,-0.01,-0.0131428571429,0.501
0.463094681369,0.533272005739,-0.12404357599,-1.37862315411,0.078295090456,1.90243189873,0.156369665235,-0.0109959897094,-0.0573217894039,0.000103626287017,-0.0908028414913,-0.0032028286518,0.0369199095401,-0.0131983759687,0.574120590534,0.818756406633,0.00205937444865,0.0,0.818713035223,-0.574059895801,-0.0120394721525,0.0,-0.00867535770347,0.00859831111157,-0.999925400825,0.0,0.659048625144,0.257407246933,0.303345764107,1.0,-0.0104,-0.0136685714286,0.521
0.462937886205,0.532219125034,-0.124048943584,-1.3803426768,0.078210384454,1.90307665626,0.156153322703,-0.00710256397289,-0.0514528641987,0.00131917222533,-0.0870391587582,-0.00691679407446,0.0288543623162,-0.0154399551265,0.574146989086,0.818737924068,0.00204780810256,0.0,0.818694235924,-0.574086176457,-0.0120646991742,0.0,-0.00870237598035,0.00860360504098,-0.999925120513,0.0,0.658850585818,0.257140535907,0.303325754997,1.0,-0.01078,-0.014168,0.54
0.462829431902,0.531392767571,-0.124046894568,-1.3816582113,0.0781257573227,1.90355655535,0.155995104492,-0.00986267349706,-0.053708739114,-2.63512018135e-05,-0.0976013675698,-0.00834860932636,0.0323365271118,-0.0165457143768,0.574153741385,0.818733216009,0.00203694842146,0.0,0.818689392233,-0.574092980748,-0.0120696065482,0.0,-0.00871255773799,0.00859760335236,-0.999925083471,0.0,0.65869333448,0.256943846993,0.303323558483,1.0,-0.01106,-0.014536,0.554
0.46268827738,0.530364335659,-0.124049354124,-1.38330543796,0.0780279602609,1.90413093161,0.155782860709,-0.00869700157496,-0.0644459168369,-0.00193013233334,-0.103884896962,-0.000774786388359,0.0390729717883,-0.0144616522705,0.574161406021,0.818727948921,0.00199308643022,0.0,0.818683500711,-0.574100784101,-0.0120980271256,0.0,-0.00876092912722,0.00857809239531,-0.9999248284,0.0,0.658481748627,0.256671220135,0.303309739637,1.0,-0.01142,-0.0150091428571,0.572
0.46252837962,0.529193566151,-0.124057387641,-1.3851546218,0.0779104513172,1.90481985429,0.155535770281,-0.00826875976322,-0.0603850171489,-0.00105973437359,-0.0979004028555,-0.00767826850703,0.0383285112339,-0.0132317410436,0.574163545952,0.81872642436,0.00200286179422,0.0,0.818682140358,-0.574102916917,-0.0120888687375,0.0,-0.00874779589991,0.00858086012953,-0.999924919635,0.0,0.658277964316,0.256404250493,0.303318513864,1.0,-0.01178,-0.0154822857143,0.59
0.462404516555,0.528168196308,-0.124055664216,-1.38676665683,0.0778086757684,1.90544157133,0.155313531421,-0.0052584939822,-0.0600236172243,1.91879051552e-05,-0.102916471353,-0.00648408171564,0.0377979879118,-0.0138064539082,0.574141911077,0.818741531162,0.00202928455744,0.0,0.818697634755,-0.574081212063,-0.0120702818837,0.0,-0.00871763477413,0.00859159059009,-0.999925090902,0.0,0.658088701085,0.256171551469,0.303327046925,1.0,-0.0121,-0.0159028571429,0.606
0.46226246157,0.527029977609,-0.124061647494,-1.3885176146,0.0776909316018,1.90611734946,0.15505988104,-0.00678129454373,-0.0664746937756,-0.00095123023375,-0.10330440341,-0.0125136818981,0.0414299508775,-0.0193146436035,0.574117848901,0.81875829165,0.0020742057163,0.0,0.818715136532,-0.574057114023,-0.0120292125499,0.0,-0.00865847167224,0.00860453491328,-0.999925493648,0.0,0.657887476133,0.255908508381,0.3033535429,1.0,-0.01244,-0.0163497142857,0.623
0.462107630482,0.525857779861,-0.124067320537,-1.39032377343,0.0775841216707,1.90677533949,0.154828454116,-0.0130802693568,-0.0691544313034,-0.00192653053353,-0.103794255265,-0.00709429845792,0.0434167372372,-0.0178291092111,0.57412772388,0.818751313782,0.00209517394134,0.0,0.818708399298,-0.574066866188,-0.0120223527104,0.0,-0.00864071349829,0.00861786842175,-0.999925532434,0.0,0.657672689401,0.255631736728,0.303375844533,1.0,-0.01278,-0.0167965714286,0.64
0.461972542571,0.524828475113,-0.124065255162,-1.39194924837,0.0774785313006,1.90735900456,0.154600218002,-0.00795256744915,-0.0678237487229,0.000383558027678,-0.11238338619,-0.00447185531336,0.0399160084223,-0.0125966902394,0.574108896722,0.818764550604,0.00208141296233,0.0,0.818721455275,-0.574048098351,-0.0120293953826,0.0,-0.00865457797897,0.00861044613863,-0.999925476472,0.0,0.657474321667,0.255387228772,0.303376660177,1.0,-0.01308,-0.0171908571429,0.655
0.461805534383,0.523570011592,-0.12407163826,-1.39397245716,0.0773613695386,1.90809174631,0.154321002513,-0.0037808718236,-0.0722266039384,0.00036729462187,-0.116185884178,-0.00736616441376,0.0430792869142,-0.0137626323577,0.574098604555,0.818771833663,0.00205512771516,0.0,0.818728312141,-0.574037836956,-0.0120523666783,0.0,-0.00868858457904,0.00860200375227,-0.999925254221,0.0,0.657228392472,0.255080877118,0.303362266629,1.0,-0.01344,-0.017664,0.673
0.461656443175,0.522420698101,-0.124078332256,-1.39579802558,0.0772461059572,1.90880234744,0.154074561064,-0.0115762762852,-0.0744304534211,-0.00104057727322,-0.116330091336,-0.0116444905632,0.0485713571791,-0.0139346755336,0.574090609428,0.818777382035,0.00207791607155,0.0,0.818734251914,-0.574029838977,-0.0120297800685,0.0,-0.00865709267884,0.00860761055437,-0.999925479117,0.0,0.65701645297,0.2548069644,0.303362955176,1.0,-0.01376,-0.0180845714286,0.689
0.461493064058,0.521175089684,-0.124080817846,-1.3977864835,0.0771267612109,1.90957343946,0.153811644154,-0.011395239613,-0.0710625038987,-0.000492211360959,-0.121061365251,-0.00972852348324,0.0530752922613,-0.00969539566791,0.574092421386,0.818776050273,0.00210192928719,0.0,0.818733244223,-0.574031559925,-0.0120162355063,0.0,-0.00863219829596,0.00861951507454,-0.999925591788,0.0,0.656768341758,0.254490484073,0.303360969043,1.0,-0.01412,-0.0185577142857,0.707
0.461333181592,0.519952346837,-0.124084432844,-1.3997093449,0.0770101521695,1.91027430404,0.153550527501,-0.00750698956211,-0.0772394906297,0.000899377907574,-0.122577499473,-0.00963386452805,0.0435164187096,-0.0232102379229,0.574075894838,0.81878764455,0.00209928524287,0.0,0.818744775908,-0.574015018569,-0.0120207021862,0.0,-0.00863754747076,0.00861974014657,-0.999925543655,0.0,0.656548983204,0.254220960708,0.303362951796,1.0,-0.01442,-0.018952,0.722
0.461143483269,0.518447431023,-0.124090783893,-1.4020318325,0.0768601694772,1.91109104025,0.153243359846,-0.013772973124,-0.0767814800308,0.000739632065418,-0.128909549056,-0.000617707176422,0.0432820411654,-0.0113531169189,0.574066788871,0.818794042064,0.00209415804934,0.0,0.818751118045,-0.574005946889,-0.0120219190349,0.0,-0.00864158288315,0.00861614458817,-0.999925539777,0.0,0.65626032144,0.253868073127,0.303384891399,1.0,-0.0148,-0.0194514285714,0.741
0.460994861744,0.517334634199,-0.124099265035,-1.40379565436,0.0767358858004,1.91173066898,0.153005625834,-0.00854413858682,-0.0792054377739,-0.000918677758598,-0.127272814268,-0.00802669648573,0.0459402739416,-0.0197086080131,0.574059592529,0.818799141499,0.00207292245155,0.0,0.818756081702,-0.573998981808,-0.0120164246355,0.0,-0.00864934932569,0.00859552718457,-0.99992565007,0.0,0.65604609119,0.253594232053,0.303381895336,1.0,-0.01508,-0.0198194285714,0.755
0.460774841422,0.515731229459,-0.124104711551,-1.40633271079,0.0765760914811,1.91269108937,0.152644299889,-0.0134207191992,-0.0784143748121,-0.000712368346212,-0.12728857558,-0.0188407462752,0.0548833104272,-0.0196836487892,0.574038849325,0.81881364131,0.00208977800836,0.0,0.818770859595,-0.573978228152,-0.0120008327311,0.0,-0.00862712456775,0.0086001591279,-0.99992580224,0.0,0.655744167981,0.253206024415,0.30338236434,1.0,-0.01548,-0.0203451428571,0.775
0.46060931677,0.514493598093,-0.124106377212,-1.40829656156,0.0764618130367,1.91340871609,0.152381537881,-0.0123254311518,-0.0859429355088,-0.000637940079667,-0.136490862628,-0.0100682975865,0.0502960100904,-0.0214279228623,0.574033057184,0.818817715141,0.00208459403419,0.0,0.818774773625,-0.573972366723,-0.0120141256259,0.0,-0.00864104588988,0.0086034839146,-0.999925653432,0.0,0.655502137778,0.252909944511,0.303377567929,1.0,-0.01578,-0.0207394285714,0.79
0.460408404378,0.513002594604,-0.124105733036,-1.41069892124,0.0763154587121,1.91423930684,0.152045449782,-0.0102334974033,-0.0839182827607,0.000430235514142,-0.136131080498,-0.00644355997808,0.0487940489082,-0.0236597020961,0.57400827342,0.818835258015,0.00201722018967,0.0,0.818791288483,-0.57394772649,-0.0120656563498,0.0,-0.00872217381749,0.00857763403332,-0.999925171139,0.0,0.655194438218,0.252545917209,0.303350961709,1.0,-0.01614,-0.0212125714286,0.808
0.460237610659,0.511740660761,-0.124110302726,-1.41271830291,0.0762028529569,1.91497479193,0.151766326007,-0.0100439583947,-0.0869665593451,-0.000148213994471,-0.139957354777,-0.00958456102937,0.0555134610786,-0.0154229832256,0.573998271446,0.818842304722,0.00200281697149,0.0,0.818798010149,-0.573937653755,-0.0120886343536,0.0,-0.00874936159384,0.00857892294491,-0.999924922558,0.0,0.654943789335,0.252240009654,0.303337659103,1.0,-0.01644,-0.0216068571429,0.823
0.460008277004,0.510106900109,-0.124107482779,-1.4153205216,0.0760496494619,1.91596123299,0.151397290809,-0.014791580742,-0.0909388240738,0.000801308816472,-0.13653756153,-0.00633382168405,0.0534439972882,-0.0152625007876,0.573976640587,0.818857425418,0.00201985124493,0.0,0.818813268391,-0.57391586812,-0.0120894469659,0.0,-0.00874047701778,0.00859310659949,-0.999924878469,0.0,0.654628494957,0.251846307773,0.303328367397,1.0,-0.01682,-0.0221062857143,0.842
0.459838856686,0.508852249399,-0.124110716633,-1.41727389494,0.0759157351447,1.91667165151,0.151125472109,-0.0129069992867,-0.0872174768168,0.000651978173179,-0.139396160207,-0.0122894719806,0.0531811035222,-0.0177146622336,0.573960323081,0.818868858834,0.00202149985109,0.0,0.818824816315,-0.57389963696,-0.012077822053,0.0,-0.00873018241412,0.00858761022999,-0.999925015621,0.0,0.654387319423,0.25154485737,0.303338246796,1.0,-0.0171,-0.0224742857143,0.856
0.459618196541,0.507246058469,-0.124118482827,-1.41980198328,0.0757498272871,1.91758006378,0.150760089081,-0.00927513695478,-0.0967768976804,-0.00283954245109,-0.142240110819,-0.00639997850243,0.0507592675954,-0.0286178890434,0.573933397822,0.818887776507,0.00200281143605,0.0,0.818843535228,-0.573872840696,-0.0120819877571,0.0,-0.00874460136268,0.00857441056654,-0.999925002903,0.0,0.654072287586,0.251152012007,0.303337392782,1.0,-0.01746,-0.0229474285714,0.874
0.459391480588,0.50567783349,-0.124119169561,-1.42225712733,0.0755930219865,1.91850675187,0.150436960331,-0.0158543561563,-0.0937732034747,0.000329756284808,-0.145140188352,-0.0156909463987,0.055529846918,-0.0271274197365,0.57393955079,0.81888339334,0.0020315147814,0.0,0.818839572501,-0.573878913557,-0.0120620886168,0.0,-0.00871176829021,0.00858655973534,-0.999925185244,0.0,0.65377574486,0.250770231233,0.303345497739,1.0,-0.0178,-0.0233942857143,0.891
0.459170579222,0.504024441481,-0.124125548826,-1.42473204278,0.0754439896169,1.91944442985,0.150090987677,-0.0115106011928,-0.101799011224,-0.000141525642486,-0.14712215955,-0.0127819217084,0.0496598908941,-0.0181783906093,0.573929001633,0.818890534286,0.0021309251125,0.0,0.818848022691,-0.573867955145,-0.0120096916522,0.0,-0.00861191898295,0.0086377804588,-0.999925609033,0.0,0.653477267353,0.250389762412,0.303404145177,1.0,-0.01814,-0.0238411428571,0.908
0.458949888165,0.502451193297,-0.124133765673,-1.42705792011,0.0752902923763,1.92032585641,0.149761132696,-0.0125075984729,-0.0995631644429,-0.00130399493885,-0.145212471832,-0.00303038978984,0.0500639845466,-0.0215985084298,0.573923206397,0.818894322295,0.00223360099096,0.0,0.818853296835,-0.573861886721,-0.0119398548308,0.0,-0.00849586442285,0.00868171845367,-0.999926221305,0.0,0.65320084959,0.25002053545,0.303472274062,1.0,-0.01846,-0.0242617142857,0.924
0.458685163666,0.500517560709,-0.124134359961,-1.42995363541,0.075106297996,1.9213453856,0.149359489603,-0.0175748433,-0.105057442,0.00016791608332,-0.153473028493,-0.0146999900232,0.0524589263402,-0.0188734847828,0.57390930027,0.818903931799,0.00228307866517,0.0,0.818863495385,-0.573847726003,-0.0119209977682,0.0,-0.00845217517362,0.0087112689826,-0.99992633455,0.0,0.652834058083,0.249568857025,0.303531800478,1.0,-0.01884,-0.0247611428571,0.943
0.458457001985,0.498914726824,-0.124137659925,-1.43241466087,0.0749530923921,1.92224494604,0.149009866554,-0.0140492499824,-0.103904459281,-0.000688421564401,-0.155242198673,-0.0158133229965,0.0564261829657,-0.0204445039468,0.573896041087,0.81891312742,0.00231746953261,0.0,0.818873115082,-0.573834306705,-0.0119061641957,0.0,-0.00842043275396,0.00873078208633,-0.999926432172,0.0,0.652527980673,0.249183548172,0.303556490147,1.0,-0.01916,-0.0251817142857,0.959
0.458143110017,0.496964245775,-0.124135164491,-1.43553404466,0.0747581894251,1.92338830912,0.148552027144,-0.0143024859478,-0.095797244057,-0.000784552048093,-0.158683064253,-0.0112530033451,0.0571475242396,-0.023733594938,0.573881973658,0.81892305218,0.00229386564066,0.0,0.818882657551,-0.5738202578,-0.0119269359853,0.0,-0.00845113895754,0.00872322830398,-0.999926239049,0.0,0.652141671514,0.248682163189,0.303530621217,1.0,-0.01956,-0.0257074285714,0.979
0.457947050237,0.495671528838,-0.124136129088,-1.43761283679,0.0746362022765,1.92410141663,0.148242315388,-0.0143018730211,-0.102403698963,-0.00139557915497,-0.160972746682,-0.00741241450455,0.0550581,-0.0226475399496,0.573861530591,0.818937536354,0.0022365508412,0.0,0.818896204974,-0.573799854962,-0.0119782647469,0.0,-0.00852628223067,0.0087055359461,-0.999925755321,0.0,0.651870219063,0.248353095826,0.303503821406,1.0,-0.01982,-0.0260491428571,0.992
0.457604505808,0.493600357716,-0.124159015298,-1.44095474995,0.0744286412498,1.92529050245,0.14778125188,-0.0195684019456,-0.1239617604,-0.00256490356011,-0.183017907475,-0.0171037631353,0.0702876979144,-0.0260911354139,0.57389295116,0.818915720548,0.0021610530336,0.0,0.818873363897,-0.573831543575,-0.0120216637582,0.0,-0.00860481471006,0.00866894376326,-0.999925400506,0.0,0.651452776059,0.247794834305,0.303459416798,1.0,-0.0268251428571,-0.0352559020408,1.012
0.45736684438,0.491635973047,-0.124223005187,-1.44391022443,0.0742711011935,1.92641105647,0.14734248087,-0.0225194479524,-0.158146519229,0.00110154275776,-0.241583433441,-0.00823251890114,0.0954565299823,-0.0372806949777,0.57388054332,0.818924118177,0.00227102775749,0.0,0.818883270383,-0.573818759553,-0.0119569048527,0.0,-0.00848880286767,0.00872170961042,-0.999925933261,0.0,0.651091573079,0.247328534657,0.303518748444,1.0,-0.0349148571429,-0.0458880979592,1.025
0.456789806863,0.487513718961,-0.1242598752,-1.45049100634,0.0739116295487,1.9288753503,0.146366266669,-0.0324911682128,-0.223794839018,-0.00320833371807,-0.354796413281,-0.0192547125612,0.126973885871,-0.045816851813,0.573812296476,0.818971886084,0.00229022221261,0.0,0.818930916144,-0.573750060207,-0.0119904085265,0.0,-0.0085059561195,0.00875594620613,-0.999925488282,0.0,0.650257690903,0.246314807525,0.303467403612,1.0,-0.0479828571429,-0.0630631836735,1.046
0.456338784823,0.484507696751,-0.124334509541,-1.45518409676,0.0736253166307,1.93065040536,0.145653167303,-0.040717121018,-0.264506012152,-0.00280516196739,-0.405449350585,-0.0227260571277,0.147879855899,-0.0606043931938,0.573806574137,0.818975728305,0.00234921807852,0.0,0.818935783195,-0.573744364979,-0.011930362852,0.0,-0.00842298913964,0.00876974822818,-0.999926069652,0.0,0.649685815572,0.245535538239,0.303477166419,1.0,-0.0554502857143,-0.0728775183673,1.058
0.455357975535,0.478185448814,-0.124507686875,-1.4651951691,0.0730352752619,1.93411760775,0.144133124284,-0.0479481936092,-0.333943577223,-0.0104775503777,-0.515148033204,-0.034053684612,0.177718755358,-0.0706365248954,0.573820056195,0.818966829088,0.00215008460378,0.0,0.818924130876,-0.573758504512,-0.0120496170577,0.0,-0.00863477359275,0.00867523512778,-0.999925087684,0.0,0.64839313524,0.243835513001,0.303401586226,1.0,-0.0685182857143,-0.0900526040816,1.079
0.45456509027,0.473187989381,-0.124625205415,-1.47297435032,0.0725569168839,1.93689040044,0.143024480379,-0.0603712305931,-0.371042000955,-0.00631046408234,-0.57989540343,-0.0380013954383,0.204226792245,-0.0800514595629,0.573892692564,0.818915993526,0.00212599864911,0.0,0.818873090559,-0.57383134374,-0.0120497884399,0.0,-0.00864796631057,0.00865637527897,-0.999925137121,0.0,0.647399110539,0.242509156049,0.303401011932,1.0,-0.0772302857143,-0.101502661224,1.093
0.453309385505,0.465470042344,-0.124708629947,-1.48469558812,0.0718595368849,1.94126581455,0.1411714613,-0.0696078073941,-0.425166952901,0.000743374236208,-0.645659969152,-0.0395684089779,0.234625241119,-0.100530416475,0.573834509007,0.81895585965,0.00245012630098,0.0,0.818917066596,-0.573771727616,-0.0118991397977,0.0,-0.00833921761728,0.00883475738305,-0.999926199533,0.0,0.645918564028,0.240547860429,0.303532479799,1.0,-0.0890537142857,-0.11704202449,1.112
0.452306552932,0.459647468823,-0.12474854345,-1.4937630811,0.0712851744356,1.94443252142,0.139787105907,-0.0831052980941,-0.465933573846,-0.00880967712937,-0.718520998436,-0.0428407247388,0.249613317157,-0.103547655121,0.573822761385,0.818964324918,0.00237063900182,0.0,0.818924180694,-0.57375996564,-0.0119764353948,0.0,-0.00844825823094,0.00881389452685,-0.999925468321,0.0,0.644614567539,0.238871856442,0.303500712445,1.0,-0.0977657142857,-0.128492081633,1.126
0.450459686437,0.449054375019,-0.124936050983,-1.50990471824,0.0701642150524,1.95010961374,0.13725065641,-0.0956310056335,-0.537723816704,-0.0111827923205,-0.788091468299,-0.0609776124681,0.297095461561,-0.125356835324,0.57382358316,0.818963598906,0.00242197780003,0.0,0.818924912179,-0.573761412452,-0.0118565043072,0.0,-0.00832056823108,0.00878712892194,-0.999926774574,0.0,0.642588967421,0.236148655914,0.303594141509,1.0,-0.110211428571,-0.144849306122,1.146
0.449200663052,0.441956332558,-0.125006737459,-1.52069692347,0.0694952144059,1.95394275947,0.13559381264,-0.0974981321274,-0.548161202452,-0.00426304535603,-0.841572917066,-0.0511980619838,0.298250788642,-0.129823289875,0.573852497126,0.818942952122,0.00254943394712,0.0,0.818905570949,-0.573789459794,-0.0118350580888,0.0,-0.00822955752693,0.0088794942577,-0.999926711797,0.0,0.641140707114,0.234274676325,0.303652159343,1.0,-0.118301142857,-0.155481502041,1.159
0.446913392015,0.429446334775,-0.125118545695,-1.53953685116,0.0682213808227,1.96052986516,0.132509084245,-0.11201308753,-0.609449386102,-0.0102041094642,-0.923865080007,-0.0688122946253,0.322068904448,-0.14913967122,0.573755546308,0.819010253828,0.00274301061989,0.0,0.81897538858,-0.573691811026,-0.0117373660838,0.0,-0.0080395352313,0.00898100999017,-0.999927351027,0.0,0.638568331376,0.230940968922,0.303795213173,1.0,-0.131369142857,-0.172656587755,1.18
0.445333475546,0.421226046975,-0.125196755379,-1.55205057715,0.0673256018201,1.96485407676,0.130409532828,-0.124764902272,-0.6354166138,-0.009010963315,-0.985853958304,-0.0733782814607,0.325546334354,-0.179788516437,0.573671606569,0.819069097891,0.00272902867072,0.0,0.819034273335,-0.573608179872,-0.0117158861349,0.0,-0.00803088173822,0.00895641167429,-0.999927641196,0.0,0.636829158379,0.228681026906,0.303804917359,1.0,-0.139458857143,-0.183288783673,1.193
0.442632029769,0.40771874674,-0.125337686322,-1.57228914636,0.0658978583852,1.97193827088,0.127065685788,-0.137460000239,-0.687770735316,-0.00266464455002,-1.03479494147,-0.0758153355501,0.345893556828,-0.175974101198,0.573690074247,0.819055297718,0.00297739680736,0.0,0.819024072061,-0.573626240389,-0.0115435100037,0.0,-0.00774700923998,0.00906113122326,-0.999928937349,0.0,0.634015677613,0.22494971514,0.303936432722,1.0,-0.151904571429,-0.199646008163,1.213
0.440521890835,0.397633889055,-0.125443508995,-1.58737454361,0.0648893829533,1.97703706773,0.124502839023,-0.154851489693,-0.745032266718,-0.0102644328956,-1.07949995002,-0.0779671265773,0.379612653254,-0.193521237207,0.573722484051,0.819032253277,0.00307022594705,0.0,0.819001692597,-0.573657715947,-0.0115671672627,0.0,-0.00771277275778,0.00915104036859,-0.999928383234,0.0,0.631853165887,0.22211634355,0.304000770205,1.0,-0.160616571429,-0.211096065306,1.227
0.437759527271,0.38496233392,-0.125579363415,-1.60661532403,0.063443404124,1.9834681828,0.121179000825,-0.165576060844,-0.766995896928,-0.0035448125535,-1.16125802428,-0.0813809579029,0.379482276594,-0.199340152816,0.573699677533,0.819048906116,0.00288379769768,0.0,0.819016136405,-0.573635765875,-0.0116328551388,0.0,-0.00787377937018,0.00903581605793,-0.999928176234,0.0,0.629038360732,0.218442649793,0.303913035565,1.0,-0.171195428571,-0.224999706122,1.244
0.435105903673,0.37307634204,-0.125707594645,-1.62418218374,0.0621312721662,1.9893656349,0.11799159809,-0.18560358396,-0.805428721972,-0.00469204317368,-1.20204379415,-0.0841210635056,0.38781692965,-0.212186133824,0.573641075272,0.819089456559,0.00302089664907,0.0,0.819058683674,-0.573576979457,-0.0115355206146,0.0,-0.00771605509405,0.00909171512576,-0.999928899077,0.0,0.626451806003,0.215027407466,0.304009296812,1.0,-0.180529714286,-0.23726762449,1.259
0.431587304456,0.358253390475,-0.125903492714,-1.64614620909,0.0604397465974,1.99661261025,0.114084121323,-0.199469939694,-0.845972693034,-0.00840663819464,-1.24669311112,-0.0968908946131,0.398651085595,-0.217467135239,0.573770603018,0.818998682896,0.00303305610058,0.0,0.818968453594,-0.573706908526,-0.0114805064829,0.0,-0.00766258197804,0.00907132904317,-0.999929495428,0.0,0.62316320663,0.210620477937,0.304044240788,1.0,-0.191730857143,-0.251989126531,1.277
0.427894452823,0.343600979574,-0.126111269487,-1.66772250599,0.0588280353882,2.00356657166,0.109986492668,-0.224244101287,-0.905488976137,-0.00768413510005,-1.2693586336,-0.0957489656394,0.426912815382,-0.235990990108,0.573869523647,0.818929369361,0.00303392962099,0.0,0.818898755649,-0.573805345591,-0.0115325742014,0.0,-0.00770362700184,0.00910284931277,-0.999928893605,0.0,0.619863883691,0.206164393628,0.304069473643,1.0,-0.202309714286,-0.265892767347,1.294
0.424258157935,0.329419201294,-0.12621850498,-1.68862796605,0.0572210805977,2.010274026,0.105966685963,-0.229169392088,-0.895899021266,-0.00361469773674,-1.31264201605,-0.103493186451,0.415590437964,-0.260583163079,0.573848378149,0.818944311965,0.00299994970754,0.0,0.818912695603,-0.573783651272,-0.0116217646729,0.0,-0.00779640608205,0.00912600341431,-0.999927963462,0.0,0.616572263669,0.201889132011,0.304026781606,1.0,-0.212266285714,-0.278978546939,1.31
0.420159009746,0.313667928412,-0.126347818491,-1.71154878551,0.0552783086371,2.01753360841,0.101441244837,-0.242638829847,-0.90892161423,-0.00347012958164,-1.36440463929,-0.116744947198,0.415299511535,-0.281745728594,0.573708897752,0.819042068065,0.00298969588687,0.0,0.819010863014,-0.573644859705,-0.0115554359719,0.0,-0.00774951370036,0.00907822462688,-0.9999287629,0.0,0.612677876025,0.196855759828,0.304050564371,1.0,-0.223467428571,-0.29370004898,1.328
0.415413071929,0.296413811542,-0.12648027759,-1.73648331491,0.0531708661547,2.02528598246,0.096285181552,-0.270007754786,-0.948544607054,-0.00944566127558,-1.39935247142,-0.1331472969,0.416924067156,-0.285946862862,0.573572809971,0.81913750873,0.00295302475719,0.0,0.819105936538,-0.573509033587,-0.0115585476614,0.0,-0.00777460324644,0.00904868298587,-0.999928835908,0.0,0.608795459054,0.191832381012,0.304047049326,1.0,-0.234046285714,-0.307603689796,1.345
0.411132072057,0.281477368986,-0.126641381759,-1.75767684772,0.0514525974602,2.03179595163,0.0918409068644,-0.29519566059,-1.00651620676,-0.0118806968721,-1.43369639424,-0.129027531675,0.423551771938,-0.31102087152,0.573619248197,0.819104241541,0.00315380543844,0.0,0.819074797162,-0.573554270758,-0.0115205056699,0.0,-0.00762776333867,0.00919176332095,-0.999928661812,0.0,0.605268247651,0.187199990544,0.304154734752,1.0,-0.243380571429,-0.319871608163,1.36
0.405574946548,0.263070134015,-0.126854753078,-1.78378594378,0.0491820877392,2.03959821485,0.0861289418857,-0.324358028755,-1.03292514568,-0.0142794359105,-1.46262247524,-0.135903085174,0.438500104148,-0.321985996986,0.57361547838,0.819106824278,0.00316864093982,0.0,0.819077504439,-0.573550373942,-0.0115220299554,0.0,-0.00762054488919,0.00920475445828,-0.999928597346,0.0,0.600820707428,0.181338870807,0.304190302281,1.0,-0.254581714286,-0.334593110204,1.378
0.399860376045,0.245248526888,-0.127078169966,-1.80890623513,0.0469227400996,2.04692714707,0.080506967749,-0.341905627798,-1.05605132198,-0.0166500297637,-1.49523493423,-0.135710739825,0.428299283536,-0.340828930235,0.573738598451,0.819020792498,0.00311592766754,0.0,0.818990786675,-0.573673638703,-0.0115496536639,0.0,-0.0076720286442,0.00917857487337,-0.99992844431,0.0,0.596454316671,0.175517092732,0.304191721414,1.0,-0.265160571429,-0.34849675102,1.395
0.394242159683,0.227952333048,-0.127234618585,-1.83294340654,0.0448052961322,2.05387353613,0.0748614980528,-0.355623896765,-1.08469175077,-0.00612378885693,-1.49335055958,-0.129923815735,0.409348037985,-0.361800167878,0.5736798362,0.819061341083,0.0032729164745,0.0,0.819032753008,-0.573613646079,-0.0115534164996,0.0,-0.00758571330845,0.00930876709811,-0.999927899305,0.0,0.592166862419,0.169962976718,0.304254013421,1.0,-0.275117142857,-0.361582530612,1.411
0.387872702064,0.209064512675,-0.127431875231,-1.85894657384,0.042308017216,2.06115656656,0.0685245335565,-0.381560795473,-1.11896607625,-0.00448789786529,-1.51118902209,-0.13168409029,0.410915677243,-0.377130077562,0.573549612652,0.81915236499,0.00331536725383,0.0,0.819124627679,-0.57348368128,-0.0114916724743,0.0,-0.00751226630187,0.00930692245085,-0.999928470967,0.0,0.587418704997,0.16380535994,0.304315581807,1.0,-0.285696,-0.375486171429,1.428
0.380958109738,0.1897821217,-0.127673254331,-1.88537486683,0.0397614940069,2.06831307707,0.0618136752062,-0.409346661425,-1.14586400068,-0.0147583503337,-1.53159732072,-0.144396945773,0.405251073116,-0.400561514178,0.573533733104,0.819163648638,0.00327423911709,0.0,0.819135032162,-0.573467502584,-0.0115572257073,0.0,-0.00758973557513,0.00931068202821,-0.999927850954,0.0,0.582194559064,0.156963385666,0.30432096639,1.0,-0.296897142857,-0.390207673469,1.446
0.373926957886,0.171165696584,-0.128025101205,-1.91049809654,0.0373222337462,2.07499950027,0.0551849392455,-0.438082630306,-1.16925288022,-0.0185092635161,-1.58287467679,-0.157977918089,0.41224080609,-0.416215022496,0.573696739806,0.819049149451,0.0033598245991,0.0,0.819021517676,-0.573630069843,-0.0115344465461,0.0,-0.00752012699929,0.00936922340783,-0.999927830067,0.0,0.577734772456,0.150950492855,0.304362119304,1.0,-0.306231428571,-0.402475591837,1.461
0.365647535006,0.149816859065,-0.128272686559,-1.93907289294,0.0343500745002,2.08229886459,0.0472945207174,-0.466193255978,-1.19131590244,-0.0180651281094,-1.59961980093,-0.16104339943,0.399029812755,-0.439735274907,0.573563682605,0.819142491791,0.00332069892432,0.0,0.819114458411,-0.573497281096,-0.0115377423942,0.0,-0.00754678854907,0.00933784229991,-0.999927922744,0.0,0.572139812398,0.143683276489,0.30437845681,1.0,-0.317432571429,-0.417197093878,1.479
0.357246036742,0.129188751143,-0.128577413413,-1.96629753802,0.0315184385958,2.08901042536,0.0394314465674,-0.501307435545,-1.21203934534,-0.0134950922441,-1.58293455117,-0.157110263937,0.379886652759,-0.474986367695,0.573555844556,0.819147796697,0.00336559685921,0.0,0.819119996038,-0.573488872448,-0.0115625330217,0.0,-0.00754143629709,0.00938876684132,-0.999927486269,0.0,0.566690265809,0.136544689696,0.304418102668,1.0,-0.328011428571,-0.431100734694,1.496
0.349269683159,0.11059604135,-0.128972417087,-1.99056461362,0.0288284538239,2.09486799842,0.0321163452522,-0.538621812377,-1.24990099993,-0.0291233154483,-1.63088887551,-0.177460405206,0.375686626747,-0.499083395773,0.573668364108,0.819068846373,0.00340291411861,0.0,0.819042186175,-0.573602087292,-0.0114581683051,0.0,-0.00743325316701,0.00936049910492,-0.99992856135,0.0,0.561765068055,0.129922565928,0.304456323541,1.0,-0.337345714286,-0.443368653061,1.511
0.339210970532,0.0879494626169,-0.129326803366,-2.01984440819,0.0255830248946,2.10153239107,0.022845782083,-0.57078586528,-1.26228382678,-0.0217165837317,-1.66095806011,-0.165835941428,0.349016600674,-0.525891303377,0.573617626162,0.819104514983,0.00337036976334,0.0,0.819077025682,-0.57355094208,-0.0115277812837,0.0,-0.00750952352589,0.00937331144138,-0.999927871443,0.0,0.555611909415,0.121895106953,0.304451135226,1.0,-0.348546857143,-0.458090155102,1.529
0.329085739182,0.0662975982472,-0.129707003786,-2.04749368341,0.0224551779336,2.10754973808,0.0135890065086,-0.606743189887,-1.25292472867,-0.0228999562306,-1.61362680432,-0.181902166734,0.339592223505,-0.543703000366,0.573602443229,0.819115218589,0.00335301340275,0.0,0.819086904032,-0.573535068546,-0.0116153214583,0.0,-0.00759136196073,0.00940916729022,-0.999926916727,0.0,0.549659049729,0.114088753659,0.304430903549,1.0,-0.34998,-0.459973714286,1.546
0.31897464332,0.0460832881592,-0.130135690827,-2.07295033743,0.019402465801,2.11274412714,0.00470533493529,-0.630628534048,-1.25315934918,-0.0160866202608,-1.61169453662,-0.18547014893,0.317944525379,-0.553241527187,0.573859644357,0.818935498712,0.00324105363804,0.0,0.818905597509,-0.573792434085,-0.0116881074885,0.0,-0.00771226256409,0.00936163041297,-0.999926437735,0.0,0.544060187082,0.106545627583,0.304411583965,1.0,-0.34998,-0.459973714286,1.562
0.308020712405,0.0247620366872,-0.130452750315,-2.09934154909,0.0162490223366,2.11787246393,-0.00498496359791,-0.649864309518,-1.23975794721,-0.0213431629988,-1.54811404105,-0.196112590196,0.291885517595,-0.570219796809,0.573947746062,0.818873607,0.00327833033977,0.0,0.81884349113,-0.573879548642,-0.0117621250347,0.0,-0.00775047623816,0.00943546627503,-0.999925448268,0.0,0.538085333704,0.09870292506,0.304436234139,1.0,-0.34998,-0.459973714286,1.579
0.295928019233,0.00244595097832,-0.130852032459,-2.12647081714,0.0128405318927,2.12286389483,-0.0155961223018,-0.683264529395,-1.2458634787,-0.0260575130404,-1.50656151347,-0.179158492484,0.252753066377,-0.590861910266,0.574098639329,0.81876745523,0.00336949219177,0.0,0.818738581711,-0.574030185256,-0.0117144412587,0.0,-0.00765736045971,0.00948416064479,-0.999925705004,0.0,0.531811970292,0.0903177635398,0.304505662561,1.0,-0.34998,-0.459973714286,1.597
0.285673689086,-0.0159177646846,-0.131012093138,-2.14844078388,0.0100812584573,2.12673712542,-0.0247210371666,-0.6809889901,-1.21068248949,-0.00655316509491,-1.46999285912,-0.179516661909,0.250870384856,-0.605202950403,0.573972041949,0.818855315234,0.00357975912767,0.0,0.818829082538,-0.573902815175,-0.0116292400644,0.0,-0.00746837498718,0.00960625449845,-0.999925968884,0.0,0.526597361658,0.083518266771,0.304589102765,1.0,-0.34998,-0.459973714286,1.612
0.273624311202,-0.0365653791453,-0.131343538784,-2.17284483531,0.00678726119569,2.13062286944,-0.0352513748058,-0.721478119539,-1.20478511966,-0.0242626443222,-1.4249801688,-0.179917446639,0.208452607579,-0.616118910731,0.574029710785,0.818814847422,0.0035893841301,0.0,0.818789076619,-0.573960880545,-0.0115802640301,0.0,-0.00742206894679,0.00958654870029,-0.999926502787,0.0,0.520300859659,0.0751974294558,0.304646564755,1.0,-0.34998,-0.459973714286,1.63
0.260479769772,-0.0581688228562,-0.131619821056,-2.19802481855,0.00344982252605,2.13435295959,-0.0468515551914,-0.734193005087,-1.19314590217,-0.0111884415977,-1.38484786526,-0.17688598418,0.192759993125,-0.652278849603,0.573936835998,0.818879292939,0.0037361453382,0.0,0.818855190152,-0.5738672698,-0.0115447439881,0.0,-0.00730984100643,0.00968550231423,-0.999926375924,0.0,0.51435403446,0.0674369276173,0.304709233301,1.0,-0.34998,-0.459973714286,1.647
0.24843216551,-0.07714624672,-0.131900736921,-2.21983885228,0.000456850565942,2.13729685289,-0.0574570464294,-0.763943642739,-1.20600462784,-0.0245607961453,-1.35458457738,-0.190053563551,0.189021682225,-0.664045426698,0.573889662056,0.818911976017,0.00381814393185,0.0,0.818888792198,-0.573819669031,-0.0115273738365,0.0,-0.00724911796743,0.00974226351698,-0.999926266577,0.0,0.508755108187,0.0601040854675,0.304747625741,1.0,-0.34998,-0.459973714286,1.663
0.235238594089,-0.0969450993809,-0.132205385795,-2.24242051704,-0.00272217720547,2.14000404795,-0.0690671296426,-0.784866997725,-1.18908898801,-0.0165260282626,-1.32043669725,-0.194691264865,0.166189887583,-0.680390533491,0.573834035492,0.818951188647,0.00376792076136,0.0,0.818926789867,-0.573763449191,-0.0116260100921,0.0,-0.00735938126275,0.00975723939851,-0.999925315104,0.0,0.502797480258,0.0523083855877,0.304715140651,1.0,-0.34998,-0.459973714286,1.68
0.221692872824,-0.116497415383,-0.132511207136,-2.26441892377,-0.00595262190234,2.14227189927,-0.0809409157907,-0.810818816935,-1.16367632902,-0.0272144019485,-1.27057662438,-0.181565853017,0.119917275699,-0.703063738692,0.573777179184,0.818991707657,0.0036163983736,0.0,0.818964821153,-0.573706409453,-0.0117611380167,0.0,-0.00755766909079,0.00971016259321,-0.999924294324,0.0,0.496820485785,0.044533442572,0.30466306127,1.0,-0.34998,-0.459973714286,1.697
0.208484905133,-0.134747445974,-0.132849623738,-2.28470133458,-0.00890911784263,2.14417699623,-0.0925447585887,-0.839119304695,-1.13233906862,-0.0119870202726,-1.26436265031,-0.190633452218,0.103802637499,-0.730275223742,0.573782767109,0.818988021211,0.00356429279094,0.0,0.818959555404,-0.573711026806,-0.0119017324486,0.0,-0.00770265053003,0.00974820830037,-0.999922817826,0.0,0.49118276376,0.0371638048743,0.304599867313,1.0,-0.34998,-0.459973714286,1.713
0.193209807908,-0.155091921561,-0.133300521675,-2.30676973615,-0.0122636082747,2.14595642025,-0.10601623065,-0.870590900827,-1.12337717797,-0.0372849087589,-1.2174145755,-0.191321742883,0.083323812664,-0.756138945704,0.573786466874,0.818985169306,0.00362350526156,0.0,0.818957392865,-0.573714412403,-0.0118873282809,0.0,-0.00765683579054,0.00978847297532,-0.999922776349,0.0,0.484891067243,0.0288564764192,0.304618855644,1.0,-0.34998,-0.459973714286,1.731
0.179269993608,-0.172956519965,-0.133625692296,-2.32583393763,-0.0151152217862,2.14710593817,-0.118285304156,-0.883058727114,-1.1050791806,-0.0272840436315,-1.19219804133,-0.182186660083,0.0651155557031,-0.782438567422,0.573813624186,0.818965948759,0.00366692950582,0.0,0.818937532778,-0.573739866914,-0.0120261973165,0.0,-0.00774533157027,0.0099039727519,-0.999920957457,0.0,0.478920472369,0.0210838085496,0.304619291029,1.0,-0.34998,-0.459973714286,1.748
0.164827120634,-0.190551789951,-0.134086259543,-2.34436384975,-0.018089079541,2.14796957017,-0.130954590666,-0.905198271823,-1.10526175365,-0.0358196157928,-1.12151429954,-0.187731525698,0.0522287914299,-0.801206825257,0.573926643051,0.818886791753,0.00365753885236,0.0,0.818858104395,-0.5738527139,-0.0120504986103,0.0,-0.00776925513164,0.00991129836912,-0.999920699275,0.0,0.473668654722,0.0140990839486,0.304634494887,1.0,-0.34998,-0.459973714286,1.763
0.148267173331,-0.210130314363,-0.134444896263,-2.36471548281,-0.0212454644891,2.14865951655,-0.14568742436,-0.926708852709,-1.07858924986,-0.0161870702183,-1.12451973354,-0.16993827089,0.0190452372811,-0.824489525079,0.57384655026,0.818942614226,0.00372535377814,0.0,0.818913638029,-0.573770870111,-0.0121732889538,0.0,-0.00783187638868,0.0100365361213,-0.999918961544,0.0,0.467329927583,0.00589597226959,0.304617909329,1.0,-0.34998,-0.459973714286,1.781
0.134928563644,-0.225194423492,-0.134871667796,-2.37990984681,-0.0238102175273,2.14902359556,-0.157423496086,-0.952809344247,-1.06236407614,-0.0206880965619,-1.09639211043,-0.175958728839,0.010303025456,-0.837119318676,0.573981585477,0.818847189053,0.00389453639178,0.0,0.818821436254,-0.57390656883,-0.0119771735013,0.0,-0.00757252063106,0.010063800677,-0.999920685278,0.0,0.46248295472,-0.000618600956154,0.304714542346,1.0,-0.34998,-0.459973714286,1.795
0.115508825547,-0.246269736562,-0.135365919451,-2.40095135658,-0.0273181612214,2.14914682164,-0.174789982378,-0.995042852964,-1.07037395892,-0.0375324519451,-1.03011093525,-0.175217128256,0.0115195171519,-0.873177558708,0.573927922194,0.818883886028,0.0040826746165,0.0,0.818860931323,-0.573852721736,-0.0118564669892,0.0,-0.0073663576472,0.0101480955847,-0.999921373374,0.0,0.455538242543,-0.00977950492565,0.304792821624,1.0,-0.34998,-0.459973714286,1.815
0.098557986078,-0.263806369963,-0.135764297401,-2.41840144448,-0.0303024368199,2.14898747942,-0.19001491711,-1.00814714132,-1.02501590281,-0.0226674777849,-1.00992969762,-0.178159472372,-0.00928711516308,-0.895833476736,0.573818548897,0.818960492274,0.00409046908213,0.0,0.818937405677,-0.573743017178,-0.0118837167465,0.0,-0.00738555863879,0.0101691310244,-0.99992101803,0.0,0.449575056703,-0.017532939967,0.304752899306,1.0,-0.34998,-0.459973714286,1.832
0.082075915524,-0.279979034258,-0.136235797485,-2.43410443851,-0.0330694175271,2.14864224234,-0.204793130371,-1.04078340667,-0.992351571907,-0.0225077276072,-0.985965953563,-0.167753106713,-0.0361403326423,-0.935554599642,0.573862714276,0.818928870941,0.00422331665862,0.0,0.818908092109,-0.573787539737,-0.0117534174759,0.0,-0.00720206509022,0.010203552692,-0.999922005844,0.0,0.444034614756,-0.0249230153259,0.304785631552,1.0,-0.34998,-0.459973714286,1.848
0.0652572641278,-0.295911354043,-0.136652828378,-2.44934336934,-0.0357217267779,2.14792824706,-0.22002165182,-1.06464154252,-0.981089874711,-0.03147014831,-0.916367259851,-0.17378079078,-0.0377026769123,-0.970716633211,0.573805802102,0.818968221481,0.00432441668883,0.0,0.818948407379,-0.573729809035,-0.0117626178298,0.0,-0.00715230114691,0.010291130655,-0.999921465525,0.0,0.438448506175,-0.0322432385353,0.304808425446,1.0,-0.34998,-0.459973714286,1.864
0.0458450223926,-0.313519234828,-0.137178566543,-2.46597720562,-0.0386999461332,2.14690878012,-0.237566351852,-1.08030342095,-0.983021282246,-0.0295735925033,-0.917448003824,-0.158741751569,-0.0678287373756,-0.977036591984,0.57383542257,0.818946976958,0.00441629212955,0.0,0.818928031088,-0.573758652178,-0.0117743726318,0.0,-0.00710883791969,0.0103733772327,-0.999920925608,0.0,0.432130777703,-0.0404996633519,0.304811531619,1.0,-0.34998,-0.459973714286,1.882
0.0269986817593,-0.329735065243,-0.137732958318,-2.4809156104,-0.0414392348389,2.145775018,-0.254704365427,-1.09942269201,-0.932937717969,-0.0318906988005,-0.876658949164,-0.160086892452,-0.0796812363958,-1.01102033279,0.573890662701,0.818907117832,0.00462455736898,0.0,0.818891362255,-0.573813949064,-0.0116290836034,0.0,-0.00686963607192,0.0104610339868,-0.999921684367,0.0,0.426226434575,-0.0483378858295,0.30488013097,1.0,-0.34998,-0.459973714286,1.899
0.00765000642082,-0.345471933875,-0.138267129976,-2.49537371173,-0.0442050902245,2.14435174045,-0.272307777956,-1.15158739001,-0.91298545069,-0.0394855228265,-0.837516186165,-0.170012018208,-0.0840789138418,-1.05529875396,0.573937914804,0.818874035276,0.0046185714906,0.0,0.818857878613,-0.573860720487,-0.0116788277176,0.0,-0.00691320511779,0.0104850775508,-0.999921132262,0.0,0.420255881792,-0.0561826717591,0.30485592461,1.0,-0.34998,-0.459973714286,1.916
-0.0120453035936,-0.360833520169,-0.138693282983,-2.5089953749,-0.0468011522409,2.14277445976,-0.29045833647,-1.16977603235,-0.882781443155,-0.0291805854841,-0.783108066494,-0.143621299744,-0.0878185524582,-1.07984547778,0.573818980789,0.818956274579,0.00481087470161,0.0,0.818943517551,-0.57374264203,-0.0114735643088,0.0,-0.00663627128952,0.0105237862439,-0.999922601918,0.0,0.414386195617,-0.0639366027715,0.304964142754,1.0,-0.34998,-0.459973714286,1.933
-0.0310458386038,-0.374771345542,-0.139174048395,-2.52154960949,-0.0492855988579,2.14107584083,-0.308012385743,-1.19259606008,-0.849571599709,-0.0292933776559,-0.791083781761,-0.14929875138,-0.118512369489,-1.11349423813,0.573734229368,0.819016199092,0.00471662777356,0.0,0.819001210191,-0.573656602595,-0.0116561960569,0.0,-0.00684102043694,0.01055068565,-0.99992093861,0.0,0.40873526278,-0.0712712574086,0.304884030452,1.0,-0.34998,-0.459973714286,1.949
-0.0504769170403,-0.388396900476,-0.139662472511,-2.53326329983,-0.0517098027452,2.13932359804,-0.325907432923,-1.21525372032,-0.846069957015,-0.0130528520686,-0.73798372659,-0.158146480768,-0.107646200175,-1.12460878102,0.573769351377,0.81899085263,0.00484372063725,0.0,0.81897882421,-0.573693414111,-0.0114148587986,0.0,-0.0065699808032,0.0105166032384,-0.999923115249,0.0,0.403200314772,-0.0786427579428,0.304990729426,1.0,-0.34998,-0.459973714286,1.965
-0.0728071803437,-0.403043760551,-0.140262345835,-2.54604335786,-0.0541646967063,2.13713848559,-0.346690821149,-1.24871963958,-0.805220104796,-0.033142688685,-0.702730332315,-0.140132606982,-0.133259072904,-1.14803859959,0.573817384741,0.818956710505,0.00492566628182,0.0,0.818943942483,-0.573738322198,-0.0116577704589,0.0,-0.0067212952444,0.0107234823811,-0.999919912351,0.0,0.396861328878,-0.086897718778,0.304927253792,1.0,-0.34998,-0.459973714286,1.983
-0.0929799696427,-0.415630644036,-0.140705231713,-2.55656596361,-0.0563766277208,2.13521100623,-0.365639476694,-1.27614369366,-0.782388747117,-0.0371388164815,-0.643536999999,-0.139376989321,-0.119325940669,-1.19587059491,0.573730937885,0.819016238353,0.00509501020132,0.0,0.819006898188,-0.573653406928,-0.0114112375013,0.0,-0.00642334252217,0.0107200348891,-0.999921907712,0.0,0.390994890947,-0.094682732145,0.305031140997,1.0,-0.34998,-0.459973714286,2.0
-0.114967350633,-0.428296696215,-0.141197654733,-2.56734836682,-0.0586953237953,2.13296812904,-0.386225740385,-1.29714887052,-0.750196996309,-0.0246358174247,-0.624610289067,-0.134715004904,-0.144338354057,-1.22057109216,0.573639360455,0.819081080475,0.00498143005659,0.0,0.819069108343,-0.573560271177,-0.011625746716,0.0,-0.00666540713708,0.0107493283436,-0.999920008945,0.0,0.385368306529,-0.10200762858,0.304956364889,1.0,-0.34998,-0.459973714286,2.016
-0.13728951417,-0.440425625072,-0.14174180338,-2.5775145574,-0.0608082756538,2.13067535161,-0.407261023691,-1.31198208996,-0.719471386228,-0.0334732331795,-0.573112801966,-0.118377779865,-0.137769067706,-1.24349920726,0.573654867659,0.819069908701,0.00503233265626,0.0,0.819057012738,-0.573573061545,-0.0118448240291,0.0,-0.00681545970647,0.010916818496,-0.999917182862,0.0,0.379390402736,-0.109771717071,0.30490232306,1.0,-0.34998,-0.459973714286,2.033
-0.160135605053,-0.451978511431,-0.142249082926,-2.58684124747,-0.0629732704682,2.12856323131,-0.428830865897,-1.36005488263,-0.667558491776,-0.0284702809612,-0.55194937891,-0.120547044952,-0.126955524716,-1.28637064443,0.573639330749,0.819080226115,0.00512331009034,0.0,0.819070000573,-0.57355965375,-0.011593302098,0.0,-0.00655744679357,0.0108469324924,-0.999919668747,0.0,0.373504836743,-0.117616733806,0.304976008288,1.0,-0.34998,-0.459973714286,2.05
-0.181918271566,-0.462236007193,-0.142713086595,-2.59518980647,-0.0648987956932,2.12629248278,-0.449594219758,-1.36509786956,-0.62725180329,-0.0144978630381,-0.508950485969,-0.12300590798,-0.134791511931,-1.30461094333,0.573527207749,0.819159092489,0.00506656351994,0.0,0.819146862522,-0.573445661761,-0.0117998952965,0.0,-0.00676072281687,0.0109180308182,-0.999917541215,0.0,0.367863130547,-0.124925090314,0.304941676871,1.0,-0.347245714286,-0.456380081633,2.066
-0.205284831426,-0.47221555495,-0.143083899058,-2.60323172399,-0.0665674731531,2.12422407661,-0.47177103137,-1.3651792494,-0.571072796467,-0.0123243516044,-0.445107784429,-0.110033868057,-0.119699880053,-1.28521284083,0.573606175109,0.819102703881,0.00524054140513,0.0,0.819092230397,-0.573523189315,-0.0118243952039,0.0,-0.00667995067258,0.0110752460867,-0.999916355093,0.0,0.362031279909,-0.132606359512,0.304927873256,1.0,-0.336666857143,-0.442476440816,2.083
-0.228558672376,-0.481336142976,-0.143331364518,-2.61028362251,-0.0680632859463,2.12221231235,-0.493751572828,-1.37477471659,-0.509124922054,-0.0189678864901,-0.403572474318,-0.0923797780224,-0.104968375807,-1.30930343499,0.57380031885,0.818965376483,0.00544546698365,0.0,0.818958317832,-0.573717885568,-0.0116536833198,0.0,-0.00641992494705,0.0111467122942,-0.999917264262,0.0,0.356384007605,-0.140134455137,0.305015498887,1.0,-0.326088,-0.4285728,2.1
-0.250109604232,-0.489039788657,-0.143329224789,-2.61637853847,-0.069286763259,2.1203102472,-0.514247072483,-1.34498838924,-0.455317539365,-0.00592724406363,-0.362055502251,-0.0631476798824,-0.120741546433,-1.27189437397,0.573786878643,0.818974514493,0.00548720411191,0.0,0.818966988065,-0.57370255711,-0.011798106907,0.0,-0.0065144512691,0.0112636548208,-0.999915342419,0.0,0.351166597069,-0.146905012324,0.304994950313,1.0,-0.316131428572,-0.415487020408,2.116
-0.274037627589,-0.496715343749,-0.143250449494,-2.62233596523,-0.0704882013022,2.11851036116,-0.536962342232,-1.32104429478,-0.41345835965,0.0094368345903,-0.312404976836,-0.0570360597579,-0.0882859615731,-1.24619181473,0.573860704209,0.818922114876,0.00558648668169,0.0,0.818916241623,-0.573776660305,-0.01171666318,0.0,-0.0063897619423,0.0112988147979,-0.999915750314,0.0,0.345534279246,-0.154343378167,0.305019106778,1.0,-0.304930285714,-0.400765518367,2.134
-0.296044372611,-0.502966229099,-0.143087632287,-2.62719132012,-0.0713949221262,2.1169017095,-0.557972094323,-1.27452987444,-0.344925834032,0.012817823569,-0.269140438365,-0.0357653276876,-0.093625019543,-1.21427449669,0.573886320788,0.818903573791,0.0056722610739,0.0,0.818898289535,-0.573801040478,-0.0117772766378,0.0,-0.00638982764615,0.0114040424129,-0.999914555309,0.0,0.340419214739,-0.161074898773,0.305014381662,1.0,-0.294351428572,-0.386861877551,2.151
-0.3163999988,-0.508136816536,-0.14284519541,-2.63112015466,-0.0721320760718,2.1156429086,-0.577394162577,-1.25770964997,-0.314740934363,0.0254689271997,-0.234703702708,-0.0369694086145,-0.0694008541251,-1.19709591291,0.573928783232,0.818873221561,0.0057572293914,0.0,0.818869737958,-0.573844461171,-0.0116461813927,0.0,-0.00623311188471,0.0113987190998,-0.999915605198,0.0,0.335789430837,-0.167243393559,0.30505033788,1.0,-0.284394857143,-0.373776097959,2.167
-0.337461954174,-0.512896634837,-0.142549763417,-2.63478113572,-0.0727425783846,2.11434319484,-0.597524687595,-1.22131299696,-0.26341314075,0.0298504224303,-0.211039119069,-0.0386592688782,-0.0860594181753,-1.17891357827,0.574001747536,0.818821459865,0.00584444966749,0.0,0.818818674109,-0.573916315155,-0.0116956842512,0.0,-0.0062225720392,0.0114991091199,-0.99991452139,0.0,0.331003399893,-0.173536792436,0.305046167655,1.0,-0.273816,-0.359872457143,2.184
-0.357891512705,-0.516889689335,-0.14219105426,-2.63801664148,-0.0732327679078,2.11316888497,-0.617160136583,-1.20375579353,-0.219163358718,0.00922512431745,-0.181917590253,-0.0289192998007,-0.0647810646899,-1.15033733721,0.573995194701,0.818825799861,0.00587986768529,0.0,0.818821781403,-0.573906526444,-0.0119555889597,0.0,-0.00641517376547,0.0116772391682,-0.999911239876,0.0,0.326359569121,-0.179550241963,0.304958591793,1.0,-0.263237142857,-0.345968816327,2.201
-0.376469087457,-0.520035730341,-0.141702304629,-2.64057037447,-0.0736049308741,2.11226875149,-0.63508015716,-1.14950318985,-0.188770698628,0.0337740316878,-0.148162080254,-0.0208796502834,-0.0550887256499,-1.10689535719,0.573875813659,0.818909621676,0.00585908914247,0.0,0.818904377754,-0.573785530279,-0.0121050501713,0.0,-0.00655120761667,0.0117450553936,-0.999909563587,0.0,0.322203690272,-0.184951768876,0.304891837846,1.0,-0.253280571429,-0.332883036735,2.217
-0.395713566896,-0.522842959912,-0.141249703415,-2.64273344247,-0.0739054100232,2.11143300695,-0.653564229901,-1.11423463291,-0.157866691845,0.0246954170636,-0.120379376116,-0.0115964190548,-0.0462008289247,-1.07180965981,0.573906172888,0.818887918919,0.00591843487961,0.0,0.818883181227,-0.573815147922,-0.0121350080077,0.0,-0.00654124980688,0.0118110901858,-0.999908850946,0.0,0.317705232762,-0.190871474531,0.304886329134,1.0,-0.242079428572,-0.318161534694,2.235
-0.415335169346,-0.525275232278,-0.140726935219,-2.64454204307,-0.0741264901961,2.11068432184,-0.672461980388,-1.07721081996,-0.120106036617,0.0361349791404,-0.098335485026,-0.020006209301,-0.0415485102362,-1.03105153459,0.573939647862,0.818864295258,0.00594083031772,0.0,0.81885994214,-0.57384868692,-0.0121172018291,0.0,-0.00651333166108,0.0118194780827,-0.999908934078,0.0,0.31363782594,-0.196232022419,0.304899096107,1.0,-0.231500571429,-0.304257893878,2.252
-0.432093378403,-0.526962419592,-0.140251016609,-2.6458040112,-0.0741938971429,2.11019995886,-0.688621749516,-1.04744797684,-0.0920098584067,0.0164115298677,-0.0716755394135,-0.000281851981612,-0.0293284737217,-1.00195727361,0.573988835223,0.818829200628,0.00602529170113,0.0,0.818826287477,-0.573898124876,-0.0120499004986,0.0,-0.00640903017747,0.0118504037433,-0.999909242013,0.0,0.309988660376,-0.201054074269,0.304914020357,1.0,-0.221544,-0.291172114286,2.268
-0.449182333523,-0.528323491762,-0.139713147691,-2.64681769819,-0.0742276621014,2.10974572754,-0.705144676061,-0.978534545376,-0.0670938673423,0.0326468058502,-0.0551937202052,0.00379272331999,-0.0275059752535,-0.940647883397,0.573997317168,0.818822927394,0.00606962594851,0.0,0.818820716642,-0.573906649904,-0.0120223997537,0.0,-0.00636094033414,0.0118709892268,-0.999909304914,0.0,0.306275113527,-0.205943250575,0.304926082764,1.0,-0.210965142857,-0.27726847347,2.285
-0.465650449829,-0.529301116799,-0.139171378875,-2.6475601821,-0.0742432100752,2.10940501799,-0.720938349599,-0.958085314158,-0.050252717766,0.0335790959013,-0.0380545322262,-0.000831456055015,-0.0146271381009,-0.909806434893,0.574116343954,0.818739424534,0.00607661249274,0.0,0.818737467678,-0.574025927074,-0.0119975400627,0.0,-0.0063348478926,0.0118633625681,-0.999909561076,0.0,0.302700859542,-0.210640208675,0.304930739388,1.0,-0.200386285714,-0.263364832653,2.302
-0.480268461752,-0.529849375054,-0.138527726218,-2.6479844874,-0.074222292179,2.10916388784,-0.735173182921,-0.898778193787,-0.0298864693974,0.0358264998092,-0.0222018270838,-0.000973214857623,-0.0118312376607,-0.872477657076,0.573959879553,0.818849704021,0.00599714849333,0.0,0.818846845961,-0.573870072259,-0.01198874165,0.0,-0.00637551626088,0.011792029875,-0.999910146375,0.0,0.299564552739,-0.214768393697,0.304934312985,1.0,-0.190429714286,-0.250279053061,2.318
-0.496005710578,-0.530156323409,-0.137870484562,-2.64823524468,-0.0741590808207,2.1089609163,-0.750387333017,-0.846526828769,-0.0124324285211,0.0472823148035,-0.011296867334,0.00209927958375,-0.0119803337501,-0.825894199158,0.573936986444,0.81886622524,0.00593191825446,0.0,0.818862473579,-0.573847370284,-0.0120079924851,0.0,-0.006429047567,0.011749482489,-0.999910304482,0.0,0.296178548128,-0.219213581741,0.304932270206,1.0,-0.179228571429,-0.235557551021,2.336
-0.509973904443,-0.530236112206,-0.137187898061,-2.64832491166,-0.074025050349,2.10886981134,-0.763954323329,-0.809607488708,0.00178058702927,0.0336328406196,-0.00200097645682,0.00484498017814,0.00111372630783,-0.780448569392,0.573836244205,0.818937251606,0.00587279065027,0.0,0.818932876503,-0.573747156156,-0.011995477776,0.0,-0.00645417093006,0.0116930863829,-0.999910803726,0.0,0.293187398771,-0.223119879689,0.304930793256,1.0,-0.168649714286,-0.221653910204,2.353
-0.522555391523,-0.530144225006,-0.136568197382,-2.64831246199,-0.0738169317006,2.10884477554,-0.776068688768,-0.760017326459,0.0105013956916,0.040670648582,0.00350627206733,0.0173694295994,0.000605533488853,-0.741856825748,0.573871534956,0.818912511882,0.00587419360955,0.0,0.818908114318,-0.573782360286,-0.0120020927188,0.0,-0.00645827956404,0.0116983094119,-0.999910716105,0.0,0.290486469188,-0.226618526299,0.304917101661,1.0,-0.158693142857,-0.208568130612,2.369
-0.535012133129,-0.529896499476,-0.135874813505,-2.64816909754,-0.0735025015505,2.10885159096,-0.788127011728,-0.723496119034,0.0190776238523,0.0363518133546,0.0109766689456,0.01803994025,0.00120395146551,-0.688415043137,0.573851326218,0.818926399794,0.0059121925061,0.0,0.818922451184,-0.573761917627,-0.0120011553368,0.0,-0.00643599593651,0.0117287318996,-0.999910503397,0.0,0.287829738418,-0.230051502373,0.304910696264,1.0,-0.148114285714,-0.194664489796,2.386
-0.546840054427,-0.529502843141,-0.135225731767,-2.64790611553,-0.07319394604,2.10886552437,-0.799430434597,-0.672473192149,0.0322910913464,0.049400250358,0.0161522611544,0.0183826701409,0.00167122757579,-0.653621479534,0.573969857324,0.818843099126,0.00594380335329,0.0,0.818839371803,-0.573879946947,-0.0120264948416,0.0,-0.00643690668511,0.011770092343,-0.99991001153,0.0,0.285297833215,-0.233311858513,0.304904747745,1.0,-0.137535428572,-0.18076084898,2.403
-0.557642644192,-0.528960619894,-0.134476327719,-2.64756328335,-0.0727916630851,2.10893277812,-0.809974470025,-0.627878053227,0.0377383398429,0.0417713401261,0.0219617534264,0.0242254684377,0.000802553967403,-0.611123155301,0.573844339855,0.818930780824,0.00598303735891,0.0,0.818927232263,-0.573753682343,-0.0120684363694,0.0,-0.00645054849608,0.0118253038001,-0.999909272191,0.0,0.283024032426,-0.236244238295,0.304887903493,1.0,-0.126956571429,-0.166857208163,2.42
-0.568475409662,-0.528310898184,-0.133801779203,-2.64710461473,-0.0724191849599,2.10906714891,-0.82020533843,-0.581648261035,0.042444967264,0.0412981027505,0.0246893011483,0.0174213162857,0.0133747423097,-0.548261647218,0.574046238002,0.818789015628,0.00601759281398,0.0,0.818786078586,-0.573955689458,-0.0120403884782,0.0,-0.0064048295102,0.0118390888718,-0.999909402963,0.0,0.280732906255,-0.239218102922,0.304888029797,1.0,-0.115755428572,-0.152135706123,2.438
-0.577045438908,-0.527610875773,-0.133054171006,-2.64662837074,-0.072006365141,2.10919467937,-0.828611847012,-0.521804109145,0.0479791144316,0.0473193966368,0.0350475655656,0.0223730621995,0.00736309300355,-0.498286157277,0.573855587519,0.818922586512,0.00602568452365,0.0,0.818919591927,-0.573764743341,-0.0120610181461,0.0,-0.00641983844381,0.0118560620314,-0.999909105603,0.0,0.278977892884,-0.241520632404,0.304878816735,1.0,-0.105798857143,-0.139049926531,2.454
-0.584613186436,-0.526968126529,-0.132426073104,-2.64618638907,-0.0716852456234,2.10927032296,-0.835820135906,-0.498522086041,0.0471646039587,0.0412666507496,0.0310358355101,0.0170294537882,0.00515736622437,-0.46061427701,0.573868428738,0.818913703016,0.00601002587155,0.0,0.818910120311,-0.573776942689,-0.0121236047328,0.0,-0.00647989653367,0.0118792537207,-0.999908442945,0.0,0.277400915039,-0.243555112322,0.304867202373,1.0,-0.0964645714287,-0.126782008163,2.469
-0.592929902183,-0.526208465953,-0.131707502778,-2.64564334507,-0.0712465193442,2.10940666395,-0.843648080867,-0.434693158334,0.0439190897024,0.0394544109145,0.0325821951186,0.0322102572155,0.00631212267344,-0.419408646174,0.573978594421,0.818836248475,0.00604303166844,0.0,0.818833010057,-0.57388678271,-0.0121329787246,0.0,-0.00646703129008,0.0119125332386,-0.999908130309,0.0,0.275685299315,-0.245783706272,0.304866047172,1.0,-0.0852634285715,-0.112060506123,2.487
-0.599755906502,-0.525473611168,-0.130962162044,-2.64514877726,-0.0707920072933,2.10954774417,-0.85023140812,-0.381063436803,0.0426451365458,0.0469554185956,0.0297784658131,0.0324762332406,0.0121505312491,-0.376959218103,0.573872160656,0.818910666587,0.00606714723262,0.0,0.818907478269,-0.573779777319,-0.0121678295215,0.0,-0.0064832838196,0.0119514409608,-0.999907560772,0.0,0.274317967082,-0.247572877637,0.304852731219,1.0,-0.0746845714287,-0.0981568653063,2.504
-0.605529464921,-0.524879414467,-0.130261766347,-2.64473723782,-0.0703907519918,2.10964949214,-0.855703138516,-0.350965190633,0.0348137703053,0.0424104898827,0.0222306729236,0.0275690749889,0.00878727462673,-0.329054299676,0.573818175531,0.818948482327,0.00606890646367,0.0,0.818945139748,-0.573725469373,-0.0121938827679,0.0,-0.00650440080689,0.0119674034241,-0.99990723271,0.0,0.273164618725,-0.249059143546,0.304848424688,1.0,-0.0647280000001,-0.0850710857144,2.52
-0.61098143834,-0.524316755423,-0.129539776426,-2.64429170506,-0.0699600725448,2.1097877677,-0.860655826012,-0.296695973378,0.0342994277643,0.0390588478307,0.0286933445449,0.0305766898179,0.0154039929445,-0.282013474412,0.573924348992,0.818874047877,0.00607307570784,0.0,0.818871244953,-0.573832497655,-0.0121200546828,0.0,-0.00643999402652,0.0119292912349,-0.999908105021,0.0,0.272105708691,-0.250458476555,0.304874575302,1.0,-0.0541491428572,-0.0711674448981,2.537
-0.615553336947,-0.523759616384,-0.128837786406,-2.64387591441,-0.069492817904,2.10991694613,-0.864892944954,-0.252787781934,0.0336192975143,0.0421871637332,0.0239189602919,0.0322834907355,0.00610970405936,-0.223630731936,0.573923774898,0.818874146669,0.00611387158688,0.0,0.81887207763,-0.57383212172,-0.0120815339248,0.0,-0.00638504281034,0.0119405881787,-0.999908322589,0.0,0.271251900742,-0.251606736145,0.304887782298,1.0,-0.0435702857144,-0.0572638040818,2.554
-0.619381011665,-0.523336227165,-0.128121627194,-2.64355287101,-0.0690533947136,2.10999605048,-0.868307033794,-0.210070491827,0.0183191188457,0.0434879807365,0.0175497216261,0.0256176354342,0.00201797201847,-0.188888270907,0.573960517103,0.818848284583,0.00612850261391,0.0,0.818846544038,-0.573869051148,-0.0120580410452,0.0,-0.00635687063473,0.011939372529,-0.999908516605,0.0,0.270555045073,-0.252522669624,0.304903760824,1.0,-0.0329914285715,-0.0433601632654,2.571
-0.622345008194,-0.523020097404,-0.127328032468,-2.64331946043,-0.0686284498215,2.1100712269,-0.870933541172,-0.159770309274,0.0180039706179,0.0477127629474,0.0101268451006,0.0234485496078,0.00200500002819,-0.137596750711,0.57386898933,0.818912696461,0.00609307489996,0.0,0.818910724479,-0.573778125439,-0.0120264292865,0.0,-0.00635264484969,0.0118915081489,-0.999909113839,0.0,0.270069787639,-0.253166489333,0.304919729622,1.0,-0.0224125714287,-0.0294565224491,2.588
-0.624551553887,-0.522789106975,-0.126634009051,-2.6431465143,-0.0682552232988,2.11011464954,-0.872753574992,-0.116455304562,0.0107698440476,0.0336210650719,0.0082672422486,0.0203624448683,-0.000161006789831,-0.115096526385,0.573862621485,0.818917381172,0.00606311624894,0.0,0.818915160028,-0.573772148496,-0.0120095456712,0.0,-0.00635610082805,0.0118572354635,-0.999909498879,0.0,0.269732264468,-0.253614464414,0.304934183245,1.0,-0.0197181818182,-0.0259153246753,2.605
-0.626257132217,-0.522592705002,-0.126190787653,-2.6429791482,-0.0680203080002,2.11015499562,-0.874349936578,-0.102732461838,0.0162644441052,0.0222273115909,0.0137980667948,0.0103139811379,0.00122251017696,-0.0904520782151,0.573753354594,0.81899408493,0.00604349589522,0.0,0.818991841593,-0.573663420715,-0.0119745580252,0.0,-0.00634028173403,0.0118202442459,-0.99991003728,0.0,0.269473188652,-0.253971768111,0.304953637756,1.0,-0.0194181818182,-0.025521038961,2.62
-0.627899166908,-0.522369778189,-0.125932326228,-2.64278098223,-0.0678475999422,2.1102292969,-0.875920302241,-0.0942614514777,0.0182969492108,0.0121058810563,0.0120810976102,0.00671894918385,0.00786716256535,-0.0797994616436,0.57370688137,0.819026611118,0.00604743339442,0.0,0.819024823044,-0.573617696569,-0.0119090017534,0.0,-0.00628499553969,0.0117855012293,-0.999910796417,0.0,0.269161001101,-0.254419033634,0.304973168699,1.0,-0.0190581818182,-0.0250478961039,2.638
-0.629473707277,-0.522120341933,-0.125791267398,-2.64260120048,-0.0677449069463,2.11026683407,-0.877423160091,-0.0978321110732,0.0149077330832,0.0088348573803,0.0103788258493,0.00434369956668,-0.000195040699342,-0.0854175026022,0.57371908512,0.819017966909,0.00606037539243,0.0,0.8190162167,-0.573629601053,-0.0119274674165,0.0,-0.00629252054576,0.011806788737,-0.999910497957,0.0,0.268841566583,-0.254846973959,0.304969888711,1.0,-0.0187181818182,-0.024601038961,2.655
-0.630922472442,-0.521904236019,-0.125705465939,-2.64245228136,-0.0677147430377,2.11028300825,-0.87871938628,-0.0911847953953,0.010491037009,0.00252264702216,0.0107132914247,8.92219817945e-05,0.00120968761922,-0.0798743437259,0.573804118697,0.818958528229,0.00604229341141,0.0,0.818956300748,-0.573714237978,-0.011970693686,0.0,-0.0063370739311,0.0118174351232,-0.999910090819,0.0,0.268525543328,-0.2552502925,0.304961618807,1.0,-0.0183981818182,-0.0241804675325,2.671
-0.632341006572,-0.521677411203,-0.125647166388,-2.64229171141,-0.0676793440583,2.11031611152,-0.88021622188,-0.0833653996215,0.01222435952,0.0127585673715,0.010237691635,0.0029553146689,0.0011285593146,-0.0878735283223,0.573722377811,0.819015795957,0.00604202558207,0.0,0.819013405758,-0.573632218554,-0.0119944122819,0.0,-0.00635783499091,0.0118301904523,-0.999909808197,0.0,0.268216446007,-0.255655749813,0.304955484244,1.0,-0.0180581818182,-0.0237336103896,2.688
-0.633697769161,-0.521441007525,-0.12557683381,-2.64212528636,-0.0676446218648,2.11036285709,-0.881540294607,-0.0781889887466,0.0141544974367,0.00123830449675,0.00308236594303,-0.000485225776762,0.00219424024265,-0.0810328829516,0.573723024919,0.819015421287,0.0060313574656,0.0,0.819012808266,-0.573632753949,-0.0120095959308,0.0,-0.0063763828428,0.0118301684884,-0.99990969035,0.0,0.267928416612,-0.256044897089,0.304949923528,1.0,-0.0177181818182,-0.0232867532468,2.705
-0.634939695076,-0.521226376334,-0.125572959178,-2.64198599479,-0.0676094319489,2.11038816114,-0.882852639308,-0.0752044484193,0.00663246709132,0.00299168178035,0.0106653926757,0.00166601050725,-0.000613362994697,-0.0780997938839,0.573685134924,0.819041756141,0.00605925459977,0.0,0.819039208532,-0.573594201289,-0.0120504786909,0.0,-0.00639441503909,0.0118761762386,-0.999909029809,0.0,0.26764582537,-0.256408154638,0.304936610137,1.0,-0.0173981818182,-0.0228661818182,2.721
-0.636258207968,-0.521025696783,-0.12557781931,-2.64183885185,-0.0675876734193,2.11040616194,-0.88412446687,-0.07704748639,0.00967904551795,-0.000318667877424,0.0114400466137,0.00321100130914,-2.1726487692e-05,-0.0715243020943,0.573743920821,0.819000430558,0.00607905980507,0.0,0.81899794828,-0.573652531791,-0.0120780952458,0.0,-0.00640482047119,0.0119087005096,-0.999908576384,0.0,0.267340997114,-0.256796100688,0.304931140776,1.0,-0.0170581818182,-0.0224193246753,2.738
-0.637623530489,-0.520824322261,-0.125571466281,-2.64166570602,-0.0675549849778,2.11044585638,-0.885484541063,-0.0757086149028,0.0139393216802,-0.000524824832885,0.0110137602991,0.00175941665645,0.00370492213131,-0.0768187570606,0.573766681633,0.818984344123,0.00609803495675,0.0,0.81898222019,-0.573675413154,-0.0120577881862,0.0,-0.00637696980246,0.0119127686808,-0.999908705932,0.0,0.267036446366,-0.257202187575,0.304939344346,1.0,-0.0166981818182,-0.0219461818182,2.756
-0.638824840603,-0.520658251063,-0.125559892356,-2.64151141012,-0.0675308394132,2.11051222688,-0.886721362893,-0.0731018926115,0.00862128218756,0.00242854223966,0.00969933084269,0.00313999307731,0.00241123737673,-0.0755308252643,0.573747646974,0.818997630722,0.00610453639955,0.0,0.818995975655,-0.573657074777,-0.0119958042967,0.0,-0.00632274653625,0.011882384006,-0.99990941181,0.0,0.26677458471,-0.257563393886,0.30495434727,1.0,-0.0163781818182,-0.0215256103896,2.772
-0.640065514271,-0.520473747614,-0.125540018762,-2.64135265805,-0.067504243705,2.11054187031,-0.887939786803,-0.0768906817676,0.0113538956898,-3.14278184243e-05,0.012553422594,0.00509829424305,-3.64648314522e-05,-0.0664031326895,0.573771397662,0.818980933746,0.00611230612093,0.0,0.81897944569,-0.573680911919,-0.0119843956097,0.0,-0.00630859961756,0.0118823852707,-0.999909501151,0.0,0.266498852724,-0.257928484512,0.304961651505,1.0,-0.0160381818182,-0.0210787532468,2.789
-0.641250474687,-0.520289591076,-0.125495214875,-2.64120712097,-0.0674830019844,2.11054643353,-0.889171932761,-0.0704169881712,0.0111628360479,0.00120073024569,0.0102334399746,0.00158479040645,0.000336245149297,-0.076153856112,0.573717722958,0.819018569398,0.00610772017731,0.0,0.819016850217,-0.573626945354,-0.0120113914719,0.0,-0.00633412174292,0.0118937028971,-0.999909205245,0.0,0.266234872876,-0.258266676306,0.304961514869,1.0,-0.0156981818182,-0.0206318961039,2.806
-0.642337164494,-0.520103449023,-0.125440591936,-2.64106548407,-0.0674576117952,2.11057584278,-0.89030650968,-0.0638696039148,0.00875817752776,0.000255482010171,0.00993518873562,0.000289177124932,0.00016164025696,-0.0698841577559,0.573658082645,0.819060411156,0.0060986879433,0.0,0.819058523759,-0.573567260818,-0.0120199366099,0.0,-0.00634716868623,0.0118907450666,-0.99990915769,0.0,0.266001385051,-0.258578310649,0.304961220631,1.0,-0.0153781818182,-0.0202113246753,2.822
-0.643554129819,-0.519896225177,-0.125387985519,-2.64090137702,-0.0674329757557,2.11063784593,-0.891478309179,-0.0659559487967,0.0118155458914,0.00396919828744,0.0108721420832,-0.000261812825471,0.00200755808939,-0.0689950357784,0.573676879977,0.81904735038,0.00608458020403,0.0,0.819045456986,-0.573586446346,-0.0119947847018,0.0,-0.00633438584825,0.0118649068738,-0.999909545679,0.0,0.265743215796,-0.258934794897,0.304966101703,1.0,-0.0150181818182,-0.0197381818182,2.84
-0.644625564751,-0.519709347379,-0.125341225892,-2.6407716517,-0.0674095561414,2.11070172058,-0.89260382192,-0.0695427012433,0.0115690931974,0.00247839117873,0.00837913773758,-2.12183059499e-05,0.00481259086258,-0.0754350853332,0.573616309757,0.819089837185,0.00607574702014,0.0,0.819087914959,-0.573526086861,-0.0119817427596,0.0,-0.00632964617822,0.0118497221686,-0.99990975576,0.0,0.265513755846,-0.259245619275,0.30496285422,1.0,-0.0146981818182,-0.0193176103896,2.856
-0.645676699073,-0.51953316391,-0.125326823728,-2.6406408749,-0.0673870424596,2.11070978929,-0.893627561462,-0.0646174093681,0.0141919664533,-0.000916142053714,0.00756141188533,0.00237623300386,0.000247407956074,-0.0671249206301,0.573645059066,0.819069623341,0.00608647937087,0.0,0.819067635843,-0.573554401691,-0.0120126232646,0.0,-0.00634837000451,0.0118764489095,-0.999909319968,0.0,0.265273727751,-0.259550699685,0.304958480342,1.0,-0.0143781818182,-0.018897038961,2.872
-0.64683937254,-0.519362376051,-0.125312992627,-2.64049988189,-0.0673571966417,2.11072883377,-0.894765823539,-0.0646012790105,0.00806166667866,0.000457152318942,0.0040196900291,0.00241539189916,0.00249827737688,-0.056940559738,0.573675333302,0.819048301955,0.00610228872584,0.0,0.819046485966,-0.57358453859,-0.0120157321648,0.0,-0.00634140865496,0.0118914162384,-0.999909186254,0.0,0.265009114433,-0.259888740789,0.304961653183,1.0,-0.0140181818182,-0.0184238961039,2.89
-0.647920320353,-0.519198345532,-0.125284351723,-2.64036037622,-0.0673364421172,2.11078610591,-0.895838334706,-0.0610443808407,0.0143082861424,0.00441910080388,0.00417690666613,0.000565221217403,0.00393044618708,-0.062295283127,0.573678009505,0.819046459126,0.00609804109239,0.0,0.819044837729,-0.573587701192,-0.0119770502508,0.0,-0.0063121207546,0.0118657678774,-0.999909676263,0.0,0.264773622,-0.260207647387,0.304970235853,1.0,-0.0136781818182,-0.017977038961,2.907
-0.648892061668,-0.519036014092,-0.1252740196,-2.64021740548,-0.0673178748753,2.11081438843,-0.896809233063,-0.0572488411368,0.0122955217146,0.000859963990961,0.0130127622383,0.000427394224474,0.00236142286353,-0.056401552845,0.573686687207,0.819040348635,0.00610238735812,0.0,0.819038871154,-0.573596523448,-0.0119625552488,0.0,-0.00629762849702,0.0118610795069,-0.999909823268,0.0,0.264558263739,-0.260498534506,0.304978101636,1.0,-0.0133581818182,-0.0175564675325,2.923
-0.649895771369,-0.518849673487,-0.12525582426,-2.64008467785,-0.0672980356167,2.1108480437,-0.897802899964,-0.0602224447114,0.0134860761757,-0.00013529037949,0.0079924952096,0.00234732442558,6.28585990248e-05,-0.060114328228,0.573697499317,0.819032748399,0.00610599942201,0.0,0.819031225703,-0.573607144683,-0.0119767187794,0.0,-0.00630700143411,0.011872246382,-0.999909631666,0.0,0.264334047655,-0.260793571008,0.304973108784,1.0,-0.0130181818182,-0.0171096103896,2.94
-0.650887557977,-0.518685903937,-0.125237098326,-2.63996383998,-0.0672887385336,2.11087090656,-0.898821320254,-0.0582196457239,0.00750656663341,0.00267648153117,0.00665857181515,0.000437432826812,0.00127493762447,-0.0567124703958,0.573672742455,0.819050112475,0.00610284527907,0.0,0.819048455357,-0.573582230563,-0.0119916413091,0.0,-0.00632139326146,0.0118780324444,-0.999909472069,0.0,0.264107863526,-0.261082035664,0.304970100899,1.0,-0.0126781818182,-0.0166627532468,2.957
-0.651810846412,-0.518534217249,-0.125231799417,-2.63986652266,-0.06727737071,2.11090135103,-0.899746611208,-0.0596208665365,0.00632650954416,0.00114327059512,0.00651458632491,-0.000123734601799,0.00127999189811,-0.0617947735826,0.57367741306,0.819046794055,0.0061091566103,0.0,0.819045094469,-0.573586639547,-0.0120102897682,0.0,-0.00633298064924,0.0118939357124,-0.999909209703,0.0,0.263892601866,-0.261350177529,0.304961179769,1.0,-0.0123581818182,-0.0162421818182,2.973
-0.65277224672,-0.518363465496,-0.125230528473,-2.63973648529,-0.0672676766755,2.11093688949,-0.900664973758,-0.0613220885222,0.00800047632204,-0.000519817819386,0.00669489797442,0.000259830068022,-0.000371954865956,-0.0526523540643,0.57372271847,0.819015043262,0.00611131105302,0.0,0.819013371361,-0.573631925649,-0.0120107580858,0.0,-0.00633147032605,0.0118963192898,-0.999909190912,0.0,0.263673937998,-0.261638049587,0.304960433479,1.0,-0.0120181818182,-0.0157953246753,2.99
-0.653749407753,-0.518193782064,-0.125227625117,-2.63960575674,-0.0672563935836,2.11097570804,-0.901629194379,-0.0522324584799,0.00905087324506,0.001005208952,0.00722638780838,0.00282672399371,0.00193196054086,-0.0560737795408,0.573742914453,0.819000875273,0.00611402633108,0.0,0.818999269123,-0.573652163075,-0.0120058267819,0.0,-0.00632557999985,0.0118958701772,-0.999909233536,0.0,0.263452037787,-0.261930038019,0.304960705505,1.0,-0.0116581818182,-0.0153221818182,3.008
-0.654582269297,-0.518040187587,-0.125215001936,-2.63949512421,-0.0672496537917,2.11099668257,-0.902479552423,-0.0516659204778,0.0108824899693,-0.000258429776442,0.0065532259886,2.77443198654e-05,0.0002370819284,-0.0464856448287,0.573728349304,0.819011100014,0.00611115054513,0.0,0.819009344689,-0.57363740324,-0.012023718904,0.0,-0.00634209682136,0.0119036669851,-0.999909036123,0.0,0.263262333907,-0.262174778931,0.304956470869,1.0,-0.0113381818182,-0.0149016103896,3.024
-0.655444720169,-0.51787697004,-0.125179248248,-2.63938117885,-0.0672380714362,2.11103000046,-0.9032996958,-0.0534838472851,0.0115278281587,0.00369023397327,0.00361810170047,-0.000402252819843,0.000904967848862,-0.044907242822,0.573748600267,0.818997003603,0.00609907223182,0.0,0.818995029194,-0.573657585479,-0.012035932863,0.0,-0.00635873632557,0.0119009386035,-0.999908962922,0.0,0.263072642939,-0.262424080707,0.304951790577,1.0,-0.0109981818182,-0.0144547532468,3.041
-0.656287829539,-0.517722969566,-0.125146226964,-2.63927079121,-0.0672248562255,2.1110584345,-0.904102476005,-0.0502096481434,0.00713290417639,0.00376793580683,0.00641386397104,0.00150919774992,-0.00547179994335,-0.0475770579638,0.573769655624,0.818982318479,0.0060902549125,0.0,0.81898016969,-0.573678562714,-0.0120472087347,0.0,-0.00637272495067,0.0119003499272,-0.999908880873,0.0,0.262885974058,-0.262667142006,0.304948402392,1.0,-0.0106581818182,-0.0140078961039,3.058
-0.657057405236,-0.517589918187,-0.125150423316,-2.63916170063,-0.0672145474325,2.11109245589,-0.904880816473,-0.0457775600607,0.00386699219099,-0.00128058498458,0.00549163053136,0.00285801823149,-0.000117454066103,-0.0518372096088,0.573775512895,0.818978174539,0.00609568146177,0.0,0.818976182042,-0.573684555665,-0.0120329024092,0.0,-0.00635780854614,0.011896631729,-0.999909020073,0.0,0.262711017259,-0.26289994934,0.304951735751,1.0,-0.0103381818182,-0.0135873246753,3.074
-0.657892329265,-0.517416624174,-0.125145360672,-2.6390376348,-0.0672000642385,2.1111274725,-0.905733795994,-0.0441953236815,0.00859059681231,-0.000588609371475,0.00294476819702,0.000989449613422,0.000324381566285,-0.0514740748062,0.573769853693,0.818982104347,0.00610038147721,0.0,0.818980106871,-0.573678753774,-0.0120423801099,0.0,-0.00636295706699,0.0119058749729,-0.999908877308,0.0,0.262523751627,-0.263150689413,0.304947338507,1.0,-0.00997818181819,-0.0131141818182,3.092
-0.658664961379,-0.517260177297,-0.125131887945,-2.63892254679,-0.0671821178407,2.11115638551,-0.906496802025,-0.043893489096,0.0120234859175,0.000948986868144,0.00635434351231,0.000262843495804,0.000154489757078,-0.0384583003889,0.573781878482,0.818973651909,0.00610412198528,0.0,0.818971649655,-0.573690659918,-0.0120503396602,0.0,-0.00636715549575,0.0119135987522,-0.999908758585,0.0,0.262352199136,-0.263379887759,0.304944744613,1.0,-0.00963818181819,-0.0126673246753,3.109
-0.659368521044,-0.517120975993,-0.125109227321,-2.63884530654,-0.0671636724544,2.11117967711,-0.90716564116,-0.040702212826,0.0130650065781,0.000165949037409,0.00651085379747,0.00138909527787,-0.000497202720207,-0.0378890375856,0.573806315718,0.818956498545,0.00610839044515,0.0,0.818954330651,-0.573714659989,-0.0120847061302,0.0,-0.0063924985464,0.0119370033338,-0.999908317754,0.0,0.262191626359,-0.263578530261,0.304931045433,1.0,-0.00931818181819,-0.0122467532468,3.125
-0.660085569575,-0.516982831013,-0.125081125601,-2.63875910078,-0.0671474920152,2.11120540725,-0.907886134849,-0.0405060879248,0.00856210944537,-5.27526471663e-05,0.00677899157043,-0.000555515529648,-3.18506898883e-05,-0.0382114373466,0.573795070743,0.818964387789,0.00610698173968,0.0,0.818962060309,-0.5737031601,-0.0121068066282,0.0,-0.00641157219824,0.011948442358,-0.999908059007,0.0,0.262030786764,-0.263782343373,0.304922137967,1.0,-0.00897818181819,-0.0117998961039,3.142
-0.66075870685,-0.516850374472,-0.125033688821,-2.63868492136,-0.0671261560569,2.11122808981,-0.908576281837,-0.0356470753175,0.00553136123626,0.00391765007971,0.0047132591641,0.000125369458305,-0.000435571381837,-0.0491945392429,0.573760603539,0.818988572441,0.00610204380994,0.0,0.818985980015,-0.573668348865,-0.0121382432876,0.0,-0.00644065714753,0.0119621644331,-0.99990770802,0.0,0.261883040724,-0.26396640242,0.304910058189,1.0,-0.00863818181819,-0.011353038961,3.159
-0.661368633977,-0.516724532882,-0.125001568364,-2.63861443093,-0.0671077068225,2.11124769163,-0.909190762657,-0.0383870325243,0.00473402267872,0.000331961025893,0.00567953729995,5.98096530484e-05,0.00163631284147,-0.0366544948261,0.57374577867,0.818998958531,0.00610199021189,0.0,0.818996157816,-0.573653142329,-0.0121701552712,0.0,-0.00646704314342,0.0119803124093,-0.999907320439,0.0,0.261747043184,-0.264136161374,0.304898111433,1.0,-0.00831818181819,-0.0109324675325,3.175
-0.661990243718,-0.51661799341,-0.124991288992,-2.6385401756,-0.0670912931396,2.11127505967,-0.909821948053,-0.0412129577351,0.00663193815017,7.72664970416e-05,-0.000451770928542,0.0011686520869,0.00168886878919,-0.0345456392284,0.573742808874,0.819001000717,0.00610712626708,0.0,0.818998366635,-0.573650334914,-0.012153830833,0.0,-0.0064507687836,0.0119751300366,-0.999907487642,0.0,0.261600928907,-0.264327333995,0.304901453643,1.0,-0.00795818181819,-0.0104593246753,3.193
-0.662731016083,-0.516501039568,-0.124982431187,-2.63843224693,-0.0670714946237,2.11130044667,-0.910523792464,-0.0403394602558,0.004992924729,-0.000785841905227,0.0073133045834,0.00105082440016,0.000270000083494,-0.0252695573612,0.573781113529,0.818974104857,0.00611524588193,0.0,0.81897159647,-0.573688631904,-0.0121500905497,0.0,-0.00644248652593,0.0119799358187,-0.999907483473,0.0,0.261439058484,-0.264535672695,0.304903411149,1.0,-0.00755818181819,-0.00993361038962,3.213
-0.66314462304,-0.516440105836,-0.124977367077,-2.63837158034,-0.0670604407031,2.11131322596,-0.91094002401,-0.0382052462336,0.0095681042566,-0.000351207939437,0.00956842656195,-3.80583088644e-05,0.000267344820503,-0.0321187490048,0.573793652706,0.818965261527,0.00612302440598,0.0,0.818962933156,-0.573701280004,-0.0121368175186,0.0,-0.00642696873305,0.0119787895123,-0.999907597068,0.0,0.261335964758,-0.26466960342,0.304908944557,1.0,-0.00729818181819,-0.0095918961039,3.226
-0.66385243037,-0.516365322892,-0.124980937827,-2.63828025949,-0.0670307551436,2.11133265898,-0.911633347136,-0.0375171391295,0.00299896188366,-0.000490912907612,0.00587031254138,8.65690130566e-05,2.72896155663e-05,-0.0377577521521,0.573814783572,0.818950320943,0.00614108150206,0.0,0.818948492292,-0.573722820825,-0.0120929210128,0.0,-0.00638034578376,0.0119685567227,-0.999908018189,0.0,0.261182703964,-0.264866012277,0.304925196127,1.0,-0.00689818181819,-0.00906618181819,3.246
-0.664278772896,-0.516306899733,-0.124959022519,-2.6382185098,-0.0670112275922,2.11134696194,-0.91208365791,-0.0284953950933,0.00851451998862,0.000169298802901,0.00206405547126,0.000991686064879,0.00215319476803,-0.0318519848261,0.573791035846,0.818966941134,0.00614356694718,0.0,0.81896527283,-0.57369930757,-0.0120720045032,0.0,-0.00636213498851,0.011958406186,-0.999908255671,0.0,0.261091306591,-0.264987726139,0.304933441092,1.0,-0.00661818181819,-0.00869818181819,3.26
-0.664839201242,-0.516211945604,-0.124911672455,-2.63812376658,-0.0669785525448,2.11136826734,-0.912630095919,-0.0287923092883,0.00656439610624,0.0024830700309,0.00960607660641,-0.000233913179826,0.000855866984859,-0.0220405092354,0.573787605319,0.818969360123,0.00614150328259,0.0,0.81896782678,-0.573696191166,-0.0120468187819,0.0,-0.00634274054553,0.0119422388222,-0.999908572108,0.0,0.260978894046,-0.265146537192,0.304944398294,1.0,-0.00623818181819,-0.00819875324676,3.279
-0.665236204244,-0.516141482491,-0.124876341573,-2.63806017374,-0.0669580304432,2.1113875931,-0.913010787516,-0.0302829108072,0.00313943931349,0.000859549084497,0.00206862485282,0.00032961966584,-0.000276347399869,-0.0285232952605,0.573787873654,0.818969205427,0.00613706048715,0.0,0.818967714215,-0.573696666824,-0.0120318099454,0.0,-0.00633299261499,0.0119299907332,-0.999908780102,0.0,0.26089915871,-0.265258518159,0.304949779562,1.0,-0.00595818181819,-0.00783075324676,3.293
-0.665774679146,-0.516027417919,-0.124814213481,-2.63798947288,-0.0669251658839,2.11142547947,-0.913568090956,-0.0258798016025,0.00433351775121,0.0044156937909,0.00572497108581,0.00515162506441,0.000144104709308,-0.025218985343,0.573746113103,0.818998509054,0.006130804915,0.0,0.81899692939,-0.573654928698,-0.0120332593544,0.0,-0.00633837704731,0.011925375783,-0.999908801036,0.0,0.260792452574,-0.265404096581,0.304944519084,1.0,-0.00553818181819,-0.00727875324676,3.314
-0.666066001606,-0.515957898969,-0.124791478688,-2.63796022066,-0.0669108101395,2.11144061758,-0.913867079099,-0.0226996345091,0.00670479459012,0.000778392011309,0.00326797205786,0.00167889270684,0.00363609929338,-0.0214693695814,0.573731477402,0.819008749576,0.0061324429792,0.0,0.819007042813,-0.573640010014,-0.0120561036179,0.0,-0.00635636207651,0.0119397100064,-0.999908515808,0.0,0.260728919649,-0.265482287116,0.304933987069,1.0,-0.00529818181819,-0.00696332467533,3.326
-0.666540521981,-0.515852614167,-0.124765463941,-2.63792894156,-0.0668839524335,2.11144949832,-0.914363237001,-0.0240688487171,0.00688632644846,0.000780989092932,-0.000261142447352,0.000156248348711,0.000156909973014,-0.0197663193786,0.573708676183,0.819024606129,0.00614787195676,0.0,0.819022696823,-0.57361638897,-0.0121164060183,0.0,-0.00639723772179,0.011986764709,-0.99990769215,0.0,0.260617270076,-0.265605268558,0.304910725859,1.0,-0.00487818181819,-0.00641132467533,3.347
-0.666816480645,-0.5158111785,-0.124758483825,-2.637915466,-0.0668688056991,2.111453792,-0.914654913304,-0.016439468169,0.00713126295764,0.00142249538509,0.00333580759703,0.00190971212105,0.000343420265177,-0.017874325971,0.57369812637,0.819031902516,0.00616030536665,0.0,0.8190300092,-0.573605512212,-0.012137021535,0.0,-0.0064071460809,0.01200869268,-0.999907365599,0.0,0.260549693606,-0.265677563907,0.304902094382,1.0,-0.00461818181819,-0.00606961038962,3.36
-0.667250744485,-0.515743977856,-0.124734192606,-2.63789192383,-0.066845720381,2.11145968204,-0.915076645641,-0.0187010707436,0.00396953545277,-0.00012836371173,0.00416474740041,0.000422345082149,-0.000295742107505,-0.019696015041,0.573702387704,0.819028828818,0.00617209922963,0.0,0.819026861752,-0.573609293096,-0.0121706820917,0.0,-0.00642788978025,0.0120376962014,-0.999906883716,0.0,0.260446552935,-0.265788951643,0.304889073655,1.0,-0.00421818181819,-0.0055438961039,3.38
-0.667528536592,-0.515717314548,-0.124719613013,-2.63785865186,-0.0668301446699,2.11146331229,-0.915343019888,-0.0264966222927,0.00600810518835,-0.00282911051627,0.000437643968495,0.00204058415374,9.43521278744e-05,-0.0206711246766,0.573709682203,0.819023683165,0.00617688128872,0.0,0.81902185575,-0.573616709189,-0.0121580279677,0.0,-0.0064146740306,0.0120344108371,-0.999907008133,0.0,0.260384857296,-0.265865319337,0.304895007245,1.0,-0.00393818181819,-0.0051758961039,3.394
-0.667893341956,-0.515665835257,-0.124697691242,-2.63779183026,-0.0668074181732,2.11146891879,-0.915689952758,-0.018492587292,0.00557635962754,0.00019070942361,0.00405456731871,3.75373122779e-05,0.000332020674223,-0.017035549493,0.573721754949,0.81901519756,0.00618069283871,0.0,0.819013570641,-0.573629045423,-0.0121340947166,0.0,-0.00639270612786,0.0120238969237,-0.999907275307,0.0,0.26030961063,-0.265970622476,0.304907365555,1.0,-0.00353818181819,-0.00465018181819,3.414
-0.668108816451,-0.51564238011,-0.124679486222,-2.63775361927,-0.0667970566699,2.11147792699,-0.915896731854,-0.0162090497264,0.00288549169655,0.00255609165013,0.000105150624948,0.000104915608238,0.000224123416425,-0.0150883557518,0.573722221501,0.819014899668,0.00617685835312,0.0,0.819013386446,-0.573629837075,-0.0121090767838,0.0,-0.00637440678352,0.0120064072707,-0.999907602293,0.0,0.260266795424,-0.2660325912,0.304917266723,1.0,-0.00327818181819,-0.00430846753247,3.427
-0.668387614192,-0.515595190192,-0.1246504036,-2.63769632109,-0.0667763016939,2.11148640265,-0.916154748334,-0.0165835752767,0.000510054077778,0.00284973412336,0.00195113785437,0.000477473823844,0.00494865665579,-0.00923530761541,0.573730283468,0.819009263692,0.00617533161536,0.0,0.819007864976,-0.573638157403,-0.012088357251,0.0,-0.00635819313711,0.0119933327029,-0.999907862431,0.0,0.260214184255,-0.266112138068,0.304927292914,1.0,-0.00291818181819,-0.00383532467533,3.445
-0.668622011497,-0.515578337256,-0.124624494015,-2.6376644729,-0.0667626292135,2.1114964105,-0.916375885808,-0.0121270746658,0.00162156253535,0.00115523900018,0.00383290425943,0.00136271181168,4.38517737198e-05,-0.0131493127919,0.573730100814,0.819009422836,0.00617119330827,0.0,0.819008143155,-0.573638319385,-0.0120617942745,0.0,-0.00633881225098,0.0119747025677,-0.999908208766,0.0,0.26016718799,-0.266175623927,0.304937008657,1.0,-0.00257818181819,-0.00338846753247,3.462
-0.668805104176,-0.515564478534,-0.1246109567,-2.6376540846,-0.0667482890001,2.11150228212,-0.916551429955,-0.0126272426607,0.000147615661126,-0.000512647719685,-0.000881975652978,-8.39806096742e-05,-8.13498100915e-05,-0.0149897183582,0.573734965648,0.819005988564,0.00617468943357,0.0,0.819004748293,-0.573643156368,-0.0120622687556,0.0,-0.00633712401952,0.0119778759267,-0.999908181458,0.0,0.260122401215,-0.26622437958,0.30493559363,1.0,-0.00225818181819,-0.0029678961039,3.478
-0.669013513935,-0.515548487205,-0.124582739005,-2.63763563204,-0.0667345820187,2.11151816145,-0.916747339504,-0.0105758190675,-5.79433124972e-05,0.000167427289817,0.00118186526256,-0.000196715592995,0.00532952902154,-0.0178786461956,0.573730269868,0.819009291591,0.00617289446345,0.0,0.819008186144,-0.573638768647,-0.0120374845533,0.0,-0.00631792175709,0.0119621506675,-0.999908491221,0.0,0.260084057446,-0.266275792127,0.304941942445,1.0,-0.00191818181819,-0.00252103896105,3.495
-0.669207392606,-0.515529727042,-0.124551196085,-2.63762228134,-0.0667225845542,2.11152788393,-0.916908969353,-0.0131605177278,0.00409777310956,0.00375839664852,0.00134721825593,0.00215117048668,-0.000146306423465,-0.00627904930067,0.57374008175,0.819002462197,0.0061670422738,0.0,0.819001322324,-0.573648682723,-0.0120320298711,0.0,-0.00631666802846,0.0119543037363,-0.999908592986,0.0,0.260044666757,-0.266322772947,0.304942657831,1.0,-0.00157818181819,-0.00207418181819,3.512
-0.669371479553,-0.515510965881,-0.124526233999,-2.63760425063,-0.0667120934853,2.11153855111,-0.917034202948,-0.0116698423797,0.000278116832389,0.00168590750419,0.00150295330643,-2.89058969244e-05,0.000141560429155,-0.00175518570861,0.57375954917,0.818988863543,0.00616182029806,0.0,0.818987731595,-0.573668312079,-0.0120212359651,0.0,-0.00631053882918,0.0119439841149,-0.999908755009,0.0,0.260012797539,-0.266364925209,0.304945423888,1.0,-0.00125818181819,-0.00165361038962,3.528
-0.669531716933,-0.515487564721,-0.1244982047,-2.63758763481,-0.0667030852254,2.11154500329,-0.917146789186,-0.0101424848818,-0.00243763405926,0.00188261965085,0.00377573027624,0.000155332252433,0.000372277054317,-0.00530477118935,0.573783369288,0.818972228568,0.00615474324738,0.0,0.818971016414,-0.573692179963,-0.0120209743465,0.0,-0.00631403764421,0.0119382213435,-0.999908801741,0.0,0.259981420412,-0.266404505707,0.304945545333,1.0,-0.000898181818187,-0.00118046753247,3.546
-0.669639874967,-0.51545691744,-0.124490143553,-2.63757524147,-0.0666942378821,2.11155255704,-0.917187310379,-0.00482556725915,0.00142125337909,-0.000553399673552,0.00126167068399,0.000319261468617,-0.00023033555758,0.00130270842663,0.573837518103,0.818934267988,0.00615746973529,0.0,0.818933031747,-0.573746192968,-0.0120308964559,0.0,-0.00631981023933,0.0119465651294,-0.999908665619,0.0,0.259958502775,-0.266433790047,0.304940699086,1.0,-0.000558181818187,-0.000733610389618,3.563
-0.669696115443,-0.515447075006,-0.124486070992,-2.63757459584,-0.0666857169148,2.11155589562,-0.917245994398,0.000285349125887,-0.000754557442714,0.0027954165476,-2.36177351205e-05,9.28612516214e-05,0.00823321357129,-0.00481944897943,0.573836335222,0.818935052315,0.00616338945691,0.0,0.818933856961,-0.573744916466,-0.0120355994052,0.0,-0.00632028254449,0.0119541027083,-0.999908572549,0.0,0.259945653745,-0.266447160966,0.304937744038,1.0,-0.000258181818187,-0.000339324675332,3.578
