nelsonifechukwu/NELSON_IML_WORK/CNN-GradCAM/train2dof/data_sample_2022-02-22-15-20-26/robot_state.csv
position_joint1,position_joint2,position_joint3,position_joint4,position_joint5,position_joint6,position_joint7,velocity_joint1,velocity_joint2,velocity_joint3,velocity_joint4,velocity_joint5,velocity_joint6,velocity_joint7,ee_T_00,ee_T_10,ee_T_20,ee_T_30,ee_T_01,ee_T_11,ee_T_21,ee_T_31,ee_T_02,ee_T_12,ee_T_22,ee_T_32,ee_T_03,ee_T_13,ee_T_23,ee_T_33,v_x,v_y,time
0.465048203559,0.547792341464,-0.123985600262,-1.35584621322,0.0795951302049,1.89410076011,0.159151751371,-0.000266213873724,-8.91786862693e-05,0.0013651836064,-0.000567154087598,6.582201456e-05,0.000153585412236,-0.000693223568065,0.573844437801,0.818950181391,0.00197699400135,0.0,0.818906482151,-0.573784863753,-0.0119937700545,0.0,-0.00868809820077,0.00850169512087,-0.999926116335,0.0,0.661674430222,0.260889018474,0.303200287101,1.0,0.0,0.0,0.0
0.465048194846,0.547789835846,-0.123990274871,-1.35584415543,0.079595477721,1.89410181289,0.159153320589,0.0028033360118,-0.000733536966104,0.000137386760067,-0.000859216658932,-0.000152501731665,0.000539317103326,-0.000761503276153,0.573848978636,0.818946990466,0.00198076398281,0.0,0.818903365637,-0.573789412746,-0.0119889311351,0.0,-0.00868192482343,0.00850205386973,-0.999926166905,0.0,0.661676235573,0.260886713602,0.303203288292,1.0,-8e-05,-0.000105142857143,0.005
0.46505097887,0.547794502501,-0.123987594833,-1.35583910662,0.0795956123547,1.89410028531,0.159152859614,0.000406942617293,0.00177047193894,0.0005413137766,0.00137328116758,0.000377740876827,-0.000609306506564,-0.000896394221486,0.573844206287,0.818950335584,0.00198031794639,0.0,0.818906692773,-0.573784630969,-0.0119905253035,0.0,-0.008683535904,0.00850255279633,-0.999926148673,0.0,0.661675615307,0.260890562558,0.303202164196,1.0,-0.0003,-0.000394285714286,0.016
0.465048817604,0.547787402331,-0.123985965323,-1.35585165553,0.0795947688914,1.89410115524,0.159151067895,-5.95373554593e-05,-0.000521316227612,0.00180242201968,0.000675581805626,-1.14867439824e-05,-0.000490244950903,-0.00169998070428,0.573843825697,0.818950610526,0.0019768992644,0.0,0.81890691003,-0.573784252108,-0.0119938166819,0.0,-0.00868819710294,0.00850163780034,-0.999926115963,0.0,0.661673335966,0.260888600661,0.303201241531,1.0,-0.00072,-0.000946285714286,0.037
0.465053071023,0.547751067873,-0.123988552464,-1.35588152339,0.0795947819804,1.89410534299,0.159154903373,0.00108600368076,-0.007343107353,0.000179711782284,-0.00259563732568,-4.81232106224e-05,-0.000395438578946,0.000662476221951,0.573846890045,0.818948438855,0.00198700398492,0.0,0.818904859475,-0.57378726278,-0.0119897915697,0.0,-0.00867907060957,0.00850763562195,-0.999926144207,0.0,0.661667770752,0.260887138762,0.303213214985,1.0,-0.00098,-0.001288,0.05
0.465053106162,0.547605983404,-0.123986292342,-1.3560463547,0.0795912224371,1.89413132148,0.159156665825,0.000363447993757,-0.00815843181705,0.000470620917263,-0.00835143717502,-0.000407476070757,-0.000279316582576,0.000733033140011,0.573857492489,0.818940992857,0.00199384913405,0.0,0.818897370994,-0.57379770566,-0.0120014857165,0.0,-0.00868460977553,0.00852006435109,-0.99992599029,0.0,0.661636067019,0.260868847916,0.303237464043,1.0,-0.0014,-0.00184,0.071
0.465039260711,0.547497379256,-0.123986048108,-1.35621513945,0.0795933350475,1.8941636366,0.159144644941,-0.00390649266582,-0.00482420343205,0.000501519721581,-0.0155516791841,-0.0016905870679,0.00485924430012,-0.0013757499541,0.573865837327,0.81893517214,0.00198279686523,0.0,0.818891266428,-0.573805959725,-0.0120233628444,0.0,-0.00870878173348,0.00852365632899,-0.999925749445,0.0,0.661612719781,0.260846902252,0.303239116309,1.0,-0.00166,-0.00218171428571,0.084
0.465027518655,0.547294083743,-0.123987074201,-1.35647074798,0.0795873775634,1.89429778597,0.159141130879,0.00113346608052,-0.015603619204,0.00077632644208,-0.0132758233093,-0.000203518304197,0.00462520801086,0.00189181685626,0.573886244718,0.818920689654,0.00205647291014,0.0,0.81887772736,-0.573826034853,-0.0119873375219,0.0,-0.00863678729964,0.00856353285217,-0.99992603317,0.0,0.661589876056,0.260819027535,0.303273133912,1.0,-0.00206,-0.00270742857143,0.104
0.465013688727,0.547146708529,-0.123986127034,-1.35663915381,0.0795884255131,1.89439766247,0.159130068258,-0.000476429437495,-0.0131089729289,-0.00046992846199,-0.0122450170536,9.6889017649e-05,0.00943584258216,-0.00021852123187,0.573897751166,0.818912439617,0.00212940106049,0.0,0.818870382066,-0.573837190592,-0.0119550395262,0.0,-0.00856836602949,0.00860483942897,-0.999926267203,0.0,0.661578406955,0.260799336889,0.303306011894,1.0,-0.00232,-0.00304914285714,0.117
0.464975362823,0.546836211678,-0.123985944331,-1.35709065219,0.0795824490586,1.89457949963,0.159108362285,0.000860714744161,-0.0120191627409,0.000949851583441,-0.0231043054284,-0.00225910960581,0.0081526253052,6.93004642825e-05,0.573935002272,0.818886211965,0.00217529809846,0.0,0.818844586165,-0.573874080709,-0.0119511547508,0.0,-0.00853845303762,0.00864058345826,-0.999926214846,0.0,0.661529596014,0.260735954406,0.303326804527,1.0,-0.00282,-0.00370628571429,0.142
0.464952991017,0.546700584955,-0.123988208327,-1.35729446319,0.0795769487969,1.89465032138,0.159087873101,-0.000781206369688,-0.0126354842472,-0.000121809170604,-0.0236272670657,0.000240562812227,0.00281375385751,-0.00059210633913,0.573948040157,0.818877059,0.00218090459233,0.0,0.818835450623,-0.573887037655,-0.0119549034107,0.0,-0.00853816765587,0.00864746186791,-0.999926157822,0.0,0.661507200879,0.260701349313,0.303332065877,1.0,-0.003,-0.00394285714286,0.151
0.464897946132,0.546317629085,-0.123983874761,-1.35787829417,0.0795629256525,1.89486701722,0.158923616371,-0.00434899693598,-0.0139661718867,0.00180889128208,-0.0293051087614,0.000640534507033,0.0116949829523,-0.005118095083,0.573884534513,0.818921493165,0.00220816248542,0.0,0.818880019457,-0.573823204459,-0.0119662299684,0.0,-0.00853247231648,0.00867562148692,-0.999925962513,0.0,0.661440680508,0.260615613409,0.303344026858,1.0,-0.00346,-0.00454742857143,0.174
0.46486978903,0.546122334361,-0.123989460234,-1.35820023181,0.0795554281762,1.89498238526,0.15892292103,-0.00176340495073,-0.0205888703565,-0.00201814658664,-0.0334766275889,6.47893939116e-05,0.00823598756596,-0.00493655534257,0.573926950727,0.818891781039,0.00220296995716,0.0,0.818850155009,-0.573865550628,-0.0119791629354,0.0,-0.00854559403324,0.00867923384885,-0.99992581911,0.0,0.661403975889,0.260564719561,0.303339273535,1.0,-0.00368,-0.00483657142857,0.185
0.464781745396,0.545699423782,-0.123984633256,-1.35893708852,0.0795251573426,1.89522633897,0.158850690953,-0.00691378752455,-0.021864556444,0.00035025881264,-0.0402899264533,0.000143806114227,0.00940197923163,-0.0052765246911,0.573969599701,0.818862025189,0.00215156281959,0.0,0.818819521869,-0.573908199237,-0.0120298111413,0.0,-0.00861612185752,0.00866665438442,-0.999925322985,0.0,0.661318083206,0.260439015751,0.303308961116,1.0,-0.00412,-0.00541485714286,0.207
0.464739567288,0.545457719571,-0.123989164536,-1.35933991122,0.0794896194016,1.8953692343,0.158765604045,-0.002189479867,-0.0215325255531,0.00293312071183,-0.0339558067312,-0.00232917255295,0.0179376928474,-0.00970879296477,0.573950697473,0.818875333772,0.00212873461421,0.0,0.818832638694,-0.573889502141,-0.012028966794,0.0,-0.00862873188023,0.0086472777494,-0.999925382003,0.0,0.661274424547,0.260367797926,0.303300841711,1.0,-0.00434,-0.005704,0.218
0.464648262817,0.544890711674,-0.123994707632,-1.36029241706,0.0794108797512,1.8956757598,0.158679983205,-0.00409852727461,-0.0231787536113,-0.00021651783616,-0.0406549995624,-0.000667805711503,0.0150691166075,-0.00344460054314,0.573991257465,0.818847109147,0.00204819344123,0.0,0.818803503964,-0.573930539954,-0.0120542152531,0.0,-0.00869520595501,0.00859624764173,-0.999925246166,0.0,0.661161013284,0.260206640193,0.303275508681,1.0,-0.0048,-0.00630857142857,0.241
0.464603231701,0.544613798795,-0.123994582289,-1.36075511029,0.0793958526209,1.89584063578,0.158595077792,-0.00290791659402,-0.0269276267986,-0.000526017966541,-0.0413868828621,-5.0194338699e-05,0.0123715877149,-0.00774406574769,0.573980343812,0.818854786284,0.00203735095583,0.0,0.818810902104,-0.573919538648,-0.0120754567219,0.0,-0.00871893787921,0.00859944554092,-0.999925012018,0.0,0.661107322302,0.260134408452,0.30326556418,1.0,-0.00502,-0.00659771428571,0.252
0.464513165347,0.543959107587,-0.1239977719,-1.36181531873,0.0793540195642,1.89623067909,0.158483292312,-0.00428201235495,-0.0342151572923,0.000625867595062,-0.0467123665081,-0.00129802300383,0.0180726139069,-0.00819974176066,0.574012829731,0.818832021849,0.00203425663237,0.0,0.818787896692,-0.573951836157,-0.0121002852374,0.0,-0.00874070398215,0.00861150947726,-0.999924718166,0.0,0.660984934629,0.259975465137,0.303258153181,1.0,-0.00548,-0.00720228571429,0.275
0.464469156286,0.543660114849,-0.123993476457,-1.36231403584,0.0793289981401,1.89639294047,0.158420194013,-0.00265538428012,-0.0289603760298,9.29106514127e-05,-0.0475720890423,-0.000461712234811,0.0182557458318,-0.00134421278865,0.574015204587,0.818830425923,0.00200633684479,0.0,0.818785824884,-0.573954223817,-0.0121271939703,0.0,-0.00877873891538,0.00860411955233,-0.999924448581,0.0,0.660922218651,0.259900549467,0.303246245906,1.0,-0.00568,-0.00746514285714,0.285
0.464364069461,0.542886598698,-0.124002028592,-1.36352320205,0.0792647643119,1.8968356522,0.158251521743,-0.00496542893913,-0.0350455527015,0.000164835594755,-0.0498810091855,-0.00262129161329,0.0141402892268,-0.0111370276436,0.574019319828,0.818827520016,0.00201490212227,0.0,0.818782976601,-0.573958247555,-0.0121290640152,0.0,-0.00877531066855,0.00861225044592,-0.999924408675,0.0,0.660785242431,0.25971241861,0.303256556206,1.0,-0.00616,-0.008096,0.309
0.464327203666,0.542577354318,-0.124000268665,-1.36401287575,0.0792328480358,1.8970055499,0.158189190901,-0.00247986190889,-0.0373903039674,-0.000469977620017,-0.0501858063319,-0.0026930595835,0.0219297921231,-0.00332115217619,0.574021577863,0.818825940308,0.00201358578747,0.0,0.818781381755,-0.573960513123,-0.0121295163556,0.0,-0.00877641287674,0.00861145646775,-0.99992440584,0.0,0.660720590782,0.259632903188,0.303263327409,1.0,-0.00636,-0.00835885714286,0.319
0.464224266704,0.541693636637,-0.124002798086,-1.36535146789,0.0791635276687,1.89749881046,0.158031151148,-0.00459440099986,-0.042774265436,-0.000449093870891,-0.0597695521729,-0.00191630644551,0.0217326539824,-0.00816533711039,0.574028400017,0.81882108304,0.00204373315759,0.0,0.818776807493,-0.573967092774,-0.0121269462182,0.0,-0.00875693225559,0.00863473909037,-0.99992437585,0.0,0.660569512781,0.259446868742,0.3032874842,1.0,-0.00682,-0.00896342857143,0.342
0.46416842827,0.54131906694,-0.124004964572,-1.36592142087,0.0791286696173,1.89771371666,0.157948685807,-0.00732230832089,-0.0417387438394,7.32110361292e-05,-0.0647406229874,-0.00894366984829,0.024865689204,-0.00623940087347,0.574030468223,0.818819593466,0.00205956520557,0.0,0.818775543542,-0.573969109954,-0.0121168072308,0.0,-0.00873952062573,0.00864190453216,-0.99992446628,0.0,0.660507647893,0.259354934075,0.303299713936,1.0,-0.00702,-0.00922628571429,0.352
0.464078653305,0.540500990521,-0.124005914437,-1.36717721162,0.0790462746083,1.89817444628,0.157779575084,-0.00355404391108,-0.0440952904647,0.000633664967567,-0.0653400824141,-0.000766161214845,0.0203651778246,-0.00421621256367,0.574013760777,0.818831265774,0.00207545888344,0.0,0.818787473382,-0.573952384871,-0.012102901909,0.0,-0.00871918778522,0.00864675845328,-0.999924601824,0.0,0.660359206368,0.25917469696,0.303320200509,1.0,-0.00742,-0.009752,0.372
0.463987308763,0.539898985294,-0.124008421216,-1.36809236542,0.0790017642641,1.89851383478,0.157668848596,-0.00604842347501,-0.042515862061,-0.00118649648963,-0.0612277534412,-0.00455392297389,0.0307501121312,-0.0116945550207,0.574038438536,0.818813895171,0.00210310685392,0.0,0.818770377892,-0.573976854213,-0.0120990089069,0.0,-0.00869986945412,0.00866742464906,-0.999924591167,0.0,0.660258005151,0.259028022536,0.303339561186,1.0,-0.0077,-0.01012,0.386
0.463874552993,0.539108020266,-0.124006222206,-1.36932708371,0.0789293302889,1.89898245811,0.157521329195,-0.00870527521698,-0.0421492373724,0.00170502283136,-0.0720407692488,-5.03037889243e-05,0.0170372444287,-0.00966026273104,0.574057463772,0.818800500712,0.002124905154,0.0,0.81875724679,-0.573995761718,-0.0120906269489,0.0,-0.00868029196975,0.00868066326494,-0.999924646469,0.0,0.66011950105,0.258838749028,0.303351268257,1.0,-0.00806,-0.0105931428571,0.404
0.463770590236,0.538428074096,-0.124009848829,-1.37038515298,0.0788722944136,1.89938492411,0.157390152881,-0.00637530413677,-0.0499520449167,0.00157986209237,-0.0699416056534,-0.00067050106673,0.0279362952958,-0.00804612091308,0.574081016903,0.818783927754,0.00214769269487,0.0,0.818740937164,-0.574019179726,-0.0120832950423,0.0,-0.00866095772623,0.00869536164782,-0.999924686412,0.0,0.66000371227,0.258669427835,0.303362969687,1.0,-0.00836,-0.0109874285714,0.419
0.463641009922,0.537451068826,-0.124020487654,-1.37192593463,0.0787728764357,1.89997451608,0.157206266668,-0.00651227955675,-0.0485562975473,0.00159021998706,-0.0746014445898,-0.00205858268531,0.035167427937,-0.0101663589664,0.574102570214,0.818768778476,0.00216175105475,0.0,0.818726096586,-0.574040796169,-0.012061923741,0.0,-0.00863515952447,0.00869483082671,-0.999924914149,0.0,0.659831589377,0.258431586698,0.303370996517,1.0,-0.00878,-0.0115394285714,0.44
0.463558864418,0.536819884999,-0.124024639479,-1.37291637739,0.0787258785244,1.90034382832,0.157074397853,-0.00496871655264,-0.045390431987,0.000496284487623,-0.0702895648014,-0.00232084768021,0.0255738068398,-0.0143101020439,0.574106805394,0.818765771392,0.00217589014404,0.0,0.818723172837,-0.574044868721,-0.0120665594177,0.0,-0.00863079342715,0.00870911323931,-0.99992482755,0.0,0.659717024401,0.25828314202,0.303377366451,1.0,-0.00904,-0.0118811428571,0.453
0.463411263048,0.535805011302,-0.124039155292,-1.374502539,0.0786333657221,1.90092821983,0.156879807922,-0.00859972838074,-0.0490668649541,-0.00223899736477,-0.0802960026764,-0.00350654159901,0.0273231647344,-0.0129513070633,0.574141001906,0.81874176853,0.00218478727387,0.0,0.818699310533,-0.574079047785,-0.0120595492642,0.0,-0.00861958204813,0.00871273327898,-0.999924892722,0.0,0.659538790719,0.258027071897,0.303389853202,1.0,-0.00944,-0.0124068571429,0.473
0.463321431309,0.535117471413,-0.124036489703,-1.37558002824,0.0785750379022,1.90131811157,0.156757770604,-0.00670566614194,-0.0519816224261,0.000196172705471,-0.0844012390406,-0.00625076069206,0.032238701894,-0.000520897991853,0.574156262067,0.818731056213,0.00218888625847,0.0,0.818688553652,-0.574094189462,-0.0120689952557,0.0,-0.00862480040488,0.00872167324722,-0.999924769787,0.0,0.659410190112,0.257867516315,0.303395868654,1.0,-0.0097,-0.0127485714286,0.486
0.463162613359,0.534008611944,-0.124047185605,-1.37739076635,0.0784753745547,1.90197476549,0.156538190466,-0.00294936999747,-0.0538077872331,-0.00197333589831,-0.0873079663209,-0.0116681005487,0.0330879611199,-0.00992390141515,0.574186630603,0.818709857479,0.00215160498602,0.0,0.818666780028,-0.574124624539,-0.0120981683279,0.0,-0.00866976718266,0.00870822169474,-0.999924498156,0.0,0.659198254275,0.257584630432,0.303373537672,1.0,-0.01012,-0.0133005714286,0.507
0.463061715579,0.533293610252,-0.124045250046,-1.37852975814,0.0784113212998,1.90241434902,0.156379752711,-0.00633368093794,-0.0545806352458,-0.000134713911956,-0.0863241297709,-0.00415821421894,0.033383075862,-0.0110699096917,0.574183484254,0.818712024502,0.00216662138271,0.0,0.818669101446,-0.574121372168,-0.012095423031,0.0,-0.00865893134699,0.008718905986,-0.999924498943,0.0,0.659068765112,0.257412883824,0.303373707628,1.0,-0.01038,-0.0136422857143,0.52
0.462917029431,0.532190378937,-0.124044283354,-1.38032816097,0.0783091669929,1.90308816567,0.156158840228,-0.00768961616431,-0.053543528651,0.00154761456879,-0.0844859641064,-0.00587591467806,0.0308094388724,-0.018340947852,0.574191407108,0.818706511918,0.00214994154181,0.0,0.818663285855,-0.574129280194,-0.0121136665755,0.0,-0.00868336050026,0.00871580926954,-0.999924314095,0.0,0.658855888886,0.257148285606,0.303353938244,1.0,-0.01078,-0.014168,0.54
0.462812836053,0.531359650369,-0.124041068424,-1.38165296323,0.0782362960533,1.9035657316,0.155993736745,-0.0106237254581,-0.0607771142344,0.000813487047864,-0.0998593499143,-0.0124974739121,0.0342304615071,-0.014259927627,0.574191919133,0.81870617813,0.00214027921736,0.0,0.818662703449,-0.574129711326,-0.0121325782329,0.0,-0.00870438645315,0.00871876301303,-0.999924105534,0.0,0.658694118678,0.256955771544,0.303350187131,1.0,-0.01106,-0.014536,0.554
0.462655599064,0.530079758649,-0.124043889124,-1.38368435545,0.0781033621799,1.90427424981,0.155722985808,-0.00726529138536,-0.057835205669,-0.00024020974161,-0.0977901366996,-0.0104196729535,0.0324052041856,-0.00989593726643,0.574175502494,0.818717800217,0.00209829577332,0.0,0.818673779896,-0.574113483405,-0.0121530730569,0.0,-0.0087454457203,0.008695983986,-0.999923945629,0.0,0.65844317878,0.256652842177,0.303346571669,1.0,-0.01148,-0.015088,0.575
0.462553090868,0.52934168459,-0.124046659862,-1.38484240551,0.0780347995755,1.90471230171,0.155570609152,-0.0115507451861,-0.0677569256944,-3.94332868655e-05,-0.0944239367883,-0.0122126232378,0.0333731333264,-0.022915158819,0.574181177087,0.818713782507,0.00211308153389,0.0,0.818669955681,-0.574119092639,-0.0121457002154,0.0,-0.00873085980777,0.0087039163893,-0.999924004076,0.0,0.658310020676,0.256474589221,0.303353299576,1.0,-0.01172,-0.0154034285714,0.587
0.462375766548,0.528008738748,-0.124038234428,-1.38694892732,0.0779055376945,1.90552469237,0.155275338767,-0.0084439937983,-0.063574634002,0.00267015128907,-0.0994678997497,-0.00385943991357,0.0314084977952,-0.0125438046019,0.574158327794,0.818729723549,0.00214506503623,0.0,0.818686308251,-0.574096100367,-0.0121302566446,0.0,-0.00870009570068,0.00872099115235,-0.999924123445,0.0,0.65806489312,0.256164418541,0.303359359851,1.0,-0.01214,-0.0159554285714,0.608
0.462260086979,0.527124331473,-0.124046768355,-1.38830134267,0.0778267284826,1.90603675902,0.155094644764,-0.0140317431462,-0.0698745743223,0.000666287376911,-0.11041188558,-0.00324386430329,0.0356332859782,-0.00944164280701,0.574163132121,0.818726256821,0.00218197316244,0.0,0.818683345344,-0.574100766306,-0.0121093800268,0.0,-0.00866176168291,0.0087392729104,-0.999924296631,0.0,0.657909390682,0.255956400764,0.303382808347,1.0,-0.0124,-0.0162971428571,0.621
0.462082429724,0.525753337286,-0.12405526268,-1.39043163548,0.0776938682364,1.90681255537,0.154806290398,-0.0092192306288,-0.0673286348862,-0.00108667675617,-0.104536568086,-0.00185239022266,0.0308778660069,-0.0151961591815,0.574153072393,0.818733310864,0.00218221084677,0.0,0.818690398272,-0.574090702599,-0.0121096600675,0.0,-0.00866196189189,0.00873952186354,-0.999924292721,0.0,0.657638293029,0.255617334176,0.3033955898,1.0,-0.01282,-0.0168491428571,0.642
0.461955999499,0.524791069629,-0.124061292782,-1.39195822563,0.0775885678177,1.90736053208,0.154588390999,-0.00915240619915,-0.0678901276702,-0.000144286021273,-0.112728124812,-0.00682712426765,0.0382172584321,-0.019914671768,0.574140647437,0.818742056283,0.00217005425078,0.0,0.818699108062,-0.574078455644,-0.0121014100332,0.0,-0.00866231871804,0.00872470084845,-0.999924419059,0.0,0.657470812862,0.255395848063,0.303398875622,1.0,-0.01308,-0.0171908571429,0.655
0.461763238217,0.523317173618,-0.124069388508,-1.39431586289,0.0774473734404,1.90822800878,0.154276661918,-0.00633429640518,-0.0700595152994,-0.000843017568326,-0.109592831855,-0.00791571698313,0.0498383537135,-0.0223393968736,0.574137609206,0.818744229119,0.00215403807123,0.0,0.818701042657,-0.574075457571,-0.0121127481386,0.0,-0.00868082937873,0.00871806532181,-0.999924316405,0.0,0.657187016565,0.255039952987,0.303388453414,1.0,-0.0135,-0.0177428571429,0.676
0.461650337693,0.5224516619,-0.124064082694,-1.39568883572,0.0773651971795,1.90876128272,0.154102147005,-0.0130754669214,-0.0744823804079,0.00156875192307,-0.114019157177,-0.0076461115028,0.0416021598247,-0.00930498857103,0.574135028048,0.818745980867,0.00217607076198,0.0,0.818703063435,-0.57407276298,-0.0121038683231,0.0,-0.00866093733759,0.00873097867666,-0.999924376228,0.0,0.657024995039,0.254840123337,0.303389321435,1.0,-0.01374,-0.0180582857143,0.688
0.461450082072,0.520907577535,-0.124074836553,-1.39815533505,0.0772164403063,1.90971060379,0.153764003185,-0.0114681883339,-0.0751731814571,0.000350802369335,-0.122499052577,-0.00777774340815,0.0437586232689,-0.0160642719041,0.574121814585,0.818755198475,0.0021940578841,0.0,0.818712570042,-0.574059528825,-0.0120885036994,0.0,-0.00863817172209,0.00873674465804,-0.999924522793,0.0,0.656735109457,0.254470146772,0.303382795518,1.0,-0.01416,-0.0186102857143,0.709
0.461322216673,0.51992483741,-0.124080818266,-1.3997157473,0.0771217268478,1.91027826009,0.15355580917,-0.0121157714803,-0.0751798068123,-0.00124822430465,-0.12371530738,-0.00128433674315,0.0495414764594,-0.0167805535766,0.574117896384,0.818757973186,0.00218387211575,0.0,0.81871519568,-0.574055638441,-0.0120954221509,0.0,-0.00864972575746,0.00873233573227,-0.999924461425,0.0,0.656544889363,0.254233600496,0.30337963044,1.0,-0.01442,-0.018952,0.722
0.461115322627,0.518264883652,-0.124081475747,-1.402290819,0.0769516199101,1.91119446598,0.153212022835,-0.00755225916987,-0.0719170082241,-0.0013596656074,-0.12741380874,-0.00841403465601,0.0423452714485,-0.0139093678848,0.574096901911,0.818772708164,0.00217864233031,0.0,0.818729892014,-0.574034698994,-0.0120944274339,0.0,-0.00865213738994,0.00872726094686,-0.999924484866,0.0,0.656224567293,0.25384829479,0.303398579258,1.0,-0.01484,-0.019504,0.743
0.460985000783,0.517299593861,-0.124084430407,-1.40379843186,0.0768601231503,1.9117380323,0.152995704629,-0.0114204738954,-0.0801808705803,-0.00134719243808,-0.128899023942,-0.00910835971419,0.0477195118747,-0.0218433813975,0.574083733579,0.81878193843,0.00217968851353,0.0,0.818739100779,-0.574021492408,-0.0120978514386,0.0,-0.00865448082377,0.00872994401417,-0.999924441165,0.0,0.656040232368,0.253616907651,0.303405512155,1.0,-0.01508,-0.0198194285714,0.755
0.460762547468,0.515626068237,-0.124093543301,-1.40645959822,0.0766890352594,1.9127463971,0.152628075421,-0.00717549462904,-0.0791497071802,-0.00607788900403,-0.127176463877,-0.010771980373,0.0495344989103,-0.00724749818957,0.574066010531,0.81879434244,0.00218797673065,0.0,0.818751723816,-0.574003848085,-0.0120807298513,0.0,-0.0086358924596,0.00872671412624,-0.999924630071,0.0,0.655722343119,0.25321257905,0.303400339373,1.0,-0.0155,-0.0203714285714,0.776
0.460618945782,0.514545139344,-0.124093366379,-1.40815934772,0.0765778898609,1.91337143281,0.152389019093,-0.0135185080871,-0.0873832619217,-0.00101127428849,-0.129585987848,-0.00654806809804,0.048377645871,-0.0247135822569,0.574047236176,0.818807502435,0.00218894867549,0.0,0.818764926648,-0.573985102476,-0.012076585953,0.0,-0.0086321414478,0.0087249331725,-0.999924678001,0.0,0.655514293203,0.252955467357,0.303403259178,1.0,-0.01576,-0.0207131428571,0.789
0.460384640777,0.512811171768,-0.124096119341,-1.4109615293,0.0764170617775,1.91433641372,0.151995305366,-0.00810782317208,-0.083218317759,-0.00233383444541,-0.137879436238,-0.00515996625776,0.0463737825569,-0.0161564322614,0.574022229039,0.818825247802,0.00210737588798,0.0,0.818781344739,-0.573960188452,-0.0121473651959,0.0,-0.00873718767281,0.00869850518331,-0.999923995891,0.0,0.655154709771,0.252530084245,0.303368366881,1.0,-0.01618,-0.0212651428571,0.81
0.46023443741,0.511730662451,-0.124097208755,-1.41272515693,0.0763097251342,1.91497848584,0.151754200816,-0.00653360870378,-0.0848721796305,-0.00156487759667,-0.137658113903,-0.00554530956655,0.0427551581806,-0.0188678103123,0.574012009219,0.818832504187,0.00207129431432,0.0,0.818788068271,-0.573950068358,-0.0121723124298,0.0,-0.00877843456743,0.0086831717631,-0.999923767902,0.0,0.654935236842,0.252262191931,0.303341492971,1.0,-0.01644,-0.0216068571429,0.823
0.460006641031,0.510012515126,-0.12410223257,-1.41546677299,0.076138985436,1.91602683365,0.151373192479,-0.0113020825188,-0.0786932054776,-0.00115870004917,-0.137589479243,-0.00742982375855,0.0491795427355,-0.021963259212,0.573987494728,0.818849649574,0.00208666965729,0.0,0.818805464337,-0.573925538233,-0.0121587432651,0.0,-0.00875875828893,0.00868771036876,-0.999923901025,0.0,0.654603588967,0.251850844222,0.303330519268,1.0,-0.01684,-0.0221325714286,0.843
0.459829233399,0.508753623689,-0.124100381601,-1.41741590705,0.076012469601,1.91672541898,0.151099170658,-0.0166328138092,-0.0889861024676,0.000708874039131,-0.14313925898,-0.00447817769833,0.0484073650856,-0.0144285404582,0.573974090238,0.81885903373,0.00209129493601,0.0,0.818814899185,-0.57391210539,-0.0121574282039,0.0,-0.00875516899609,0.00869059956613,-0.999923907352,0.0,0.654361596882,0.251548081279,0.303344170292,1.0,-0.01712,-0.0225005714286,0.857
0.459596329501,0.507056246214,-0.12410641436,-1.42010378308,0.0758430402036,1.91768562076,0.150722755649,-0.0114252762615,-0.0865829160574,-0.00176507773115,-0.138447953835,-0.00872746860466,0.0528428841118,-0.0230758382017,0.573954335243,0.818872954651,0.00206206164515,0.0,0.81882839878,-0.57389244357,-0.0121763486194,0.0,-0.00878765016403,0.00867730977774,-0.999923737842,0.0,0.654023859388,0.251133416737,0.303335450489,1.0,-0.0175,-0.023,0.876
0.459413859729,0.505756208962,-0.124114958087,-1.4221242898,0.0757192011061,1.9184476726,0.150454336698,-0.0139216551784,-0.0966019947953,-0.00199702447578,-0.145757535102,-0.00843248040653,0.0550506978146,-0.0158664538569,0.573961204554,0.818868057381,0.00209455696,0.0,0.818823960121,-0.573899201681,-0.0121562964568,0.0,-0.00875250681021,0.0086924833392,-0.999923914284,0.0,0.65378042261,0.250818150877,0.303348896489,1.0,-0.01778,-0.023368,0.89
0.459140181089,0.503813395331,-0.124116148811,-1.42503995199,0.0755356283181,1.91956855482,0.150051776106,-0.016346904381,-0.0956137607457,0.00392227921152,-0.147803020642,-0.0104142591404,0.0559778115587,-0.0189643235281,0.573957279502,0.818870485353,0.00221730139358,0.0,0.818828087109,-0.573894841673,-0.0120839299883,0.0,-0.00862284179872,0.00875141673233,-0.999924526804,0.0,0.653434242818,0.250364567084,0.303415651755,1.0,-0.01818,-0.0238937142857,0.91
0.458965837555,0.502540030772,-0.124124916749,-1.42693589164,0.0754184341302,1.9202743018,0.149776994768,-0.0149104617426,-0.0967778613738,-0.00113872159096,-0.143155611366,-0.00306497459477,0.0458453610414,-0.0222600639542,0.57394693716,0.818877543044,0.00228685900155,0.0,0.818836095831,-0.57388425173,-0.0120441139739,0.0,-0.00855042671438,0.00878541416911,-0.999924850527,0.0,0.65320475354,0.25006632424,0.303463824787,1.0,-0.01844,-0.0242354285714,0.923
0.458678069628,0.500410348124,-0.124123664804,-1.43012579829,0.0752054217658,1.92139831336,0.149337982775,-0.0132204903781,-0.10172158139,0.00618004673772,-0.152940439373,-0.00520754176651,0.0538180083868,-0.0212177196448,0.573927052011,0.818891340144,0.00233643077113,0.0,0.818850567832,-0.573864192986,-0.0120159257146,0.0,-0.00849910718669,0.00880962209872,-0.999925075061,0.0,0.65280003187,0.249570789236,0.303529118052,1.0,-0.01886,-0.0247874285714,0.944
0.458489615553,0.499127150158,-0.12412356518,-1.43211240395,0.0750888209413,1.92213412066,0.149062349532,-0.014451592111,-0.105288406546,0.000172015170131,-0.152540703302,-0.00703966576535,0.0562966231554,-0.0171523398658,0.573925441383,0.818892380914,0.00236709003505,0.0,0.818851930905,-0.573862376238,-0.0120097998459,0.0,-0.00847651287695,0.00883119595119,-0.999925076547,0.0,0.652554714246,0.249260193704,0.303542420383,1.0,-0.01912,-0.0251291428571,0.957
0.458191686774,0.497150157564,-0.124123751279,-1.43523230473,0.0748884878324,1.92329109349,0.148595849084,-0.0155590411477,-0.0978811568287,-0.000447678388782,-0.151520493705,-0.0128015501668,0.0581101136145,-0.0208107188661,0.573891803855,0.818915935728,0.00237372725003,0.0,0.818875585135,-0.573828729359,-0.0120046796563,0.0,-0.00846887363417,0.00883334462271,-0.999925122298,0.0,0.652168811217,0.248767937168,0.303536083251,1.0,-0.01952,-0.0256548571429,0.977
0.457974687642,0.49577674106,-0.124123145899,-1.43746269569,0.0747587047805,1.92405102378,0.148277363765,-0.0126766515728,-0.100012295236,0.000231424537306,-0.16017607389,-0.0105429280005,0.0557038362253,-0.0251978665869,0.57388585051,0.818920326643,0.00229697558321,0.0,0.81887873509,-0.573822846581,-0.012070826819,0.0,-0.00856715331806,0.00880839076434,-0.999924505218,0.0,0.651877495742,0.248411134559,0.303497446335,1.0,-0.0198,-0.0260228571429,0.991
0.457624705431,0.493703491587,-0.124155596711,-1.44082144883,0.0745526905753,1.92523885463,0.147793225383,-0.0228688446177,-0.124285215305,-0.00669548045624,-0.188917323867,-0.0146920028908,0.0732162948652,-0.0290894113837,0.573912770817,0.818901706839,0.0022074717323,0.0,0.818858901743,-0.573850098588,-0.0121206554249,0.0,-0.0086590342575,0.00876397555105,-0.999924104049,0.0,0.651459785662,0.247840594541,0.303446735718,1.0,-0.0291228571429,-0.038275755102,1.011
0.457372068157,0.491478982272,-0.124222852544,-1.44406298211,0.074381238793,1.92647041855,0.147313238507,-0.0197756236681,-0.1827024075,0.000522740605029,-0.272274136932,-0.0111911209505,0.110446075286,-0.0428314050719,0.573891860278,0.818915840393,0.00239289799818,0.0,0.818875558592,-0.573828518183,-0.0120165786322,0.0,-0.0084676165046,0.0088558728533,-0.999924933676,0.0,0.651063287558,0.247337373775,0.30356047918,1.0,-0.0410085714286,-0.0538969795918,1.024
0.456751221123,0.486805050424,-0.12426744709,-1.45147582306,0.0739974134852,1.92932753693,0.146191215251,-0.0371122303302,-0.266607898696,-0.0015888601923,-0.419118696412,-0.0243679980501,0.15695792331,-0.0572314455002,0.573781613602,0.818992715299,0.00251775298827,0.0,0.818953628613,-0.573717321832,-0.0120056533383,0.0,-0.00838822562434,0.00895071841956,-0.999924758325,0.0,0.650132800817,0.246221678995,0.303530464726,1.0,-0.0592942857143,-0.0779296326531,1.044
0.456108683357,0.48241793004,-0.124391544651,-1.45842189919,0.0735914305828,1.93185584938,0.145115435897,-0.0508777913771,-0.332579362203,-0.0174327285865,-0.527247491099,-0.0349082034428,0.181907949565,-0.0866184731013,0.573749326762,0.819015542279,0.00244917279585,0.0,0.818975648633,-0.57368541008,-0.0120284707669,0.0,-0.00844661243166,0.00890731137692,-0.999924654433,0.0,0.649186624762,0.244973872025,0.303479044236,1.0,-0.0730085714286,-0.095954122449,1.059
0.454884848248,0.47456263164,-0.124588427296,-1.47088311844,0.0728359681056,1.93615400981,0.143294324829,-0.0676864599327,-0.427883248768,-0.0140885166558,-0.664188262109,-0.0352102677958,0.237128246015,-0.0993838092891,0.573804269126,0.818977765154,0.00219722939663,0.0,0.818934399978,-0.57374122488,-0.0121738369771,0.0,-0.00870962840283,0.00878495550427,-0.999923480537,0.0,0.647633559478,0.242961449775,0.303381154159,1.0,-0.09038,-0.118785142857,1.078
0.45393076486,0.468492120407,-0.124705569867,-1.48022183541,0.0722883946483,1.93952855455,0.141880669682,-0.0752438911237,-0.491000822127,-0.0106614615314,-0.734137087178,-0.0455656492141,0.28228777426,-0.122500602408,0.573812591311,0.818971681046,0.00228967234835,0.0,0.818929393005,-0.573749011077,-0.012143659333,0.0,-0.00863178204097,0.00884343487979,-0.999923640084,0.0,0.646434753208,0.241391073175,0.303426874721,1.0,-0.102265714286,-0.134406367347,1.091
0.452075750411,0.457237962198,-0.124858929461,-1.49766078128,0.0711965210158,1.945816542,0.139140123002,-0.0967404691421,-0.569595723334,-0.0106523503128,-0.906032669349,-0.0603450256038,0.302758321301,-0.13549397191,0.573721139741,0.819035546117,0.00236112543934,0.0,0.818994109223,-0.57365718134,-0.0121175185464,0.0,-0.00857036686204,0.00888599546018,-0.999923791044,0.0,0.644156724121,0.238442666472,0.303429783808,1.0,-0.121465714286,-0.159640653061,1.112
0.450690083015,0.44927550504,-0.125017287635,-1.50977380164,0.0703899267183,1.95011137866,0.13721236465,-0.111545597075,-0.634887624706,-0.00879404476734,-0.965661865793,-0.0682188753689,0.354192072524,-0.151964394331,0.573727325634,0.819030965694,0.00244539501154,0.0,0.818991078559,-0.573663486069,-0.0120235141317,0.0,-0.00844495915484,0.00890114668019,-0.999924723293,0.0,0.642568775991,0.236296257565,0.303508344112,1.0,-0.133351428571,-0.175261877551,1.125
0.448120200888,0.435031317796,-0.125194143532,-1.53157559034,0.0689336431439,1.95762044924,0.133786784295,-0.139539444463,-0.716610775857,-0.00862015952727,-1.06751597229,-0.0712256958902,0.370485756252,-0.17816081701,0.573727447074,0.819031096616,0.00237195115627,0.0,0.818990053227,-0.573663704004,-0.0120828111508,0.0,-0.00853566011892,0.0088750156703,-0.999924185428,0.0,0.639592065936,0.232444258468,0.303530056654,1.0,-0.152551428571,-0.200496163265,1.146
0.446303490707,0.425239099436,-0.125323144268,-1.54626049001,0.0679335744949,1.96276755216,0.13135481747,-0.151214343449,-0.759398213793,-0.00913151078023,-1.15495274703,-0.0840300901891,0.395172024653,-0.187440305697,0.573677375216,0.819065603631,0.00255988602392,0.0,0.819027235842,-0.573613110838,-0.0119638173063,0.0,-0.0083309274543,0.00896016019492,-0.999925152787,0.0,0.6375851874,0.229803767445,0.303658607405,1.0,-0.164437142857,-0.216117387755,1.159
0.443149214722,0.409078541475,-0.125533304032,-1.57040327272,0.0662144267378,1.97126248448,0.127324179518,-0.161103381518,-0.82124550878,-0.00478016984191,-1.24524088955,-0.0835624783068,0.434309618707,-0.205711188924,0.573645122217,0.819087003415,0.00291573228808,0.0,0.819054146073,-0.573580532517,-0.0116801291993,0.0,-0.00789478674595,0.00908856674449,-0.999927532523,0.0,0.634250846753,0.225367069721,0.303862964253,1.0,-0.182722857143,-0.240150040816,1.179
0.44079644653,0.397800077919,-0.125683017526,-1.5871927677,0.0651019590032,1.97698198421,0.124462312535,-0.190683628602,-0.922425070018,-0.0157919782273,-1.30324575453,-0.0894002455041,0.462086234049,-0.225819088815,0.573707249927,0.819042804822,0.0031019594669,0.0,0.819011897581,-0.573641480582,-0.0116494754335,0.0,-0.00776215585798,0.00922410781588,-0.999927329745,0.0,0.631865351388,0.222195320199,0.303977683848,1.0,-0.194608571429,-0.255771265306,1.192
0.436812660122,0.379414585592,-0.125900047654,-1.6145872918,0.0630631955478,1.98623132803,0.119617325409,-0.21474975431,-0.956206138434,-0.0134627084536,-1.39998917584,-0.117461314048,0.489224115454,-0.253567707149,0.573642706092,0.81908755533,0.0032201478525,0.0,0.819058672099,-0.573577159275,-0.0115273985602,0.0,-0.00759509167739,0.00925027622481,-0.999928370921,0.0,0.627881662489,0.216936051993,0.304077373231,1.0,-0.212894285714,-0.279803918367,1.212
0.433937842019,0.366816404332,-0.126034155562,-1.63342761949,0.0616626246984,1.9924190299,0.116261962099,-0.230030985186,-0.972389686243,-0.00368833866442,-1.44748654903,-0.113133454426,0.469878817774,-0.260387298798,0.573643526752,0.819087298571,0.00313822188418,0.0,0.819057130709,-0.573577968662,-0.0115964391826,0.0,-0.00769862933207,0.00922278284962,-0.999927833087,0.0,0.625051663286,0.213256461698,0.304050936122,1.0,-0.22478,-0.295425142857,1.225
0.428699380498,0.345310037465,-0.126325271588,-1.66513593026,0.0592577335134,2.00276658235,0.110338091263,-0.267557551376,-1.05829402829,-0.0135235208002,-1.51352049929,-0.110556819503,0.503770150602,-0.282895391731,0.573714780726,0.819037175511,0.0031941209988,0.0,0.819007670988,-0.573648960879,-0.0115780588398,0.0,-0.0076507037179,0.00925869134708,-0.999927869082,0.0,0.620234438746,0.206817542528,0.304109176623,1.0,-0.24398,-0.320659428571,1.246
0.425165229329,0.331319187813,-0.126507471797,-1.68573825584,0.057626979467,2.00942689215,0.106406356379,-0.280214367854,-1.07532721007,-0.0113121306894,-1.56862342585,-0.131819837596,0.5140787761,-0.309767259616,0.573721048721,0.819032865164,0.00317347380428,0.0,0.819003016352,-0.573655201323,-0.0115981077357,0.0,-0.00767889949775,0.0092533413068,-0.999927702475,0.0,0.616766488983,0.202260081525,0.304092452702,1.0,-0.25678,-0.337482285714,1.26
0.419006389663,0.307682054479,-0.126715643534,-1.71997944791,0.0548675086981,2.02032112542,0.0995654650236,-0.304476898361,-1.15660635178,-0.0107889655458,-1.61437597692,-0.130803112511,0.544703254415,-0.33722059889,0.573560366611,0.819144715403,0.00334484398206,0.0,0.819117176696,-0.573494117896,-0.0115019338276,0.0,-0.00750364443123,0.00933705230918,-0.999928254814,0.0,0.611515834088,0.195475993843,0.304171093395,1.0,-0.275065714286,-0.361514938775,1.28
0.414775566498,0.29240414536,-0.126882636935,-1.74202032865,0.0529476986472,2.02695630114,0.0950134163566,-0.335003259285,-1.17581357797,-0.012802960796,-1.67250974296,-0.139703728919,0.502824757508,-0.350051355553,0.573468388652,0.819209890163,0.00314801171971,0.0,0.819179938572,-0.573402929601,-0.0115782324646,0.0,-0.00768007126826,0.00921871585092,-0.999928013301,0.0,0.607845190596,0.190730269244,0.304153941053,1.0,-0.286951428571,-0.377136163265,1.293
0.407676813008,0.267933497663,-0.127167393617,-1.77681144615,0.0500487850735,2.03761019297,0.0875215015078,-0.368386261278,-1.25196478762,-0.0215871623997,-1.77836513014,-0.146787402444,0.55746022489,-0.387593891718,0.573396626263,0.819259195068,0.00338041238641,0.0,0.819231812843,-0.573329912814,-0.0115236626138,0.0,-0.00750291947285,0.00937715117162,-0.999927885017,0.0,0.601986172685,0.183095349721,0.304239022183,1.0,-0.305237142857,-0.401168816326,1.313
0.402573654356,0.251554339021,-0.127453272633,-1.7998122467,0.0479748045944,2.04445775164,0.0824271717882,-0.406688130697,-1.28453371012,-0.0205193349868,-1.79880133089,-0.158282001695,0.558811786659,-0.395844973885,0.573525006143,0.819168982184,0.00346307038321,0.0,0.819143291172,-0.573458817747,-0.0114017444589,0.0,-0.00735416874633,0.0093761169514,-0.999928999796,0.0,0.597725931375,0.17735953725,0.304311638922,1.0,-0.318037142857,-0.417991673469,1.327
0.393732048268,0.224151663647,-0.127791272015,-1.83801730436,0.0445412069513,2.05549888572,0.0734796021007,-0.428689883696,-1.33132616477,-0.00561477347162,-1.84455099455,-0.165548648783,0.5119387198,-0.440685782942,0.573440545706,0.819227522399,0.00359916454411,0.0,0.819203147445,-0.573373415548,-0.0113963354027,0.0,-0.00727266637,0.00948375030668,-0.999928580852,0.0,0.59125072224,0.168929348307,0.304370415794,1.0,-0.336322857143,-0.442024326531,1.347
0.387772820695,0.206692493685,-0.128020161308,-1.86207974366,0.0422356788842,2.06223720718,0.0675806857068,-0.46757089953,-1.34397266726,-0.0136227444616,-1.86658487126,-0.176400938799,0.511877142116,-0.453575628207,0.573377753339,0.81927135306,0.00362614573965,0.0,0.81924753267,-0.573310826975,-0.0113544171331,0.0,-0.00722357915136,0.00948126368024,-0.999928960248,0.0,0.586856270183,0.163176744859,0.304400695877,1.0,-0.348208571429,-0.45764555102,1.36
0.377200957236,0.177581228457,-0.128577102083,-1.90171395184,0.0383706070417,2.07283975476,0.0573284259346,-0.533177636339,-1.40504766482,-0.0447815296276,-1.88366431318,-0.184002699442,0.508284494126,-0.502432746937,0.573453931746,0.819218224471,0.00358270298882,0.0,0.819193686265,-0.573386910144,-0.0113974804183,0.0,-0.00728288889315,0.00947103997292,-0.999928626919,0.0,0.579421254258,0.153295724561,0.304433886779,1.0,-0.367408571429,-0.482879836735,1.381
0.37065841983,0.160445207171,-0.128909771822,-1.92476980394,0.0360577580784,2.07877178465,0.0511128619074,-0.553143600178,-1.44786243981,-0.0279012492222,-1.88084579566,-0.189288682818,0.486026497864,-0.528178075479,0.573519573247,0.81917224337,0.00358910788779,0.0,0.81914757554,-0.573452248444,-0.0114243224362,0.0,-0.00730044640708,0.00949226430837,-0.99992829763,0.0,0.574605578345,0.146925134119,0.304470581511,1.0,-0.379294285714,-0.498501061224,1.394
0.358409382715,0.129725464053,-0.129444165505,-1.96543273559,0.0318112345685,2.08899275893,0.039535915945,-0.606635523634,-1.48128259852,-0.0244548367896,-1.94081926517,-0.20009363873,0.459906870627,-0.572343882898,0.573499401422,0.819186047806,0.00366094940657,0.0,0.819162258123,-0.573431811928,-0.0113973170946,0.0,-0.00723735763632,0.0095354497013,-0.99992834536,0.0,0.566900673227,0.136819329732,0.304512665458,1.0,-0.39758,-0.522533714286,1.414
0.350112774196,0.11021101539,-0.129905819227,-1.99091192418,0.0290101944753,2.09515015161,0.0318508429629,-0.648717215629,-1.53201676793,-0.0427518557965,-1.97362306903,-0.221241673698,0.475090705524,-0.609949308062,0.573600847382,0.819114759834,0.00371819921555,0.0,0.819092164277,-0.573533693034,-0.0113082393292,0.0,-0.00713037049651,0.00953214702769,-0.999929145485,0.0,0.56172798944,0.129884919059,0.304548932004,1.0,-0.409465714286,-0.538154938775,1.427
0.335822773257,0.078017997795,-0.130505552523,-2.03217844413,0.0244067912619,2.10437811806,0.0185610097786,-0.706563793131,-1.53773573806,-0.026692842213,-1.92443873245,-0.208525142832,0.424297756992,-0.644093791015,0.573484590732,0.819195867547,0.00378175733115,0.0,0.819173477522,-0.573416458297,-0.0113633612594,0.0,-0.00714043416567,0.00961481300024,-0.999928282214,0.0,0.552999103973,0.118496071236,0.304632410614,1.0,-0.41998,-0.551973714286,1.448
0.326357912649,0.0583261204752,-0.130889442107,-2.05734596971,0.0213998917035,2.10973239286,0.0100059790324,-0.756504181596,-1.52768042483,-0.0373762232511,-1.88960638452,-0.227219910416,0.383820997853,-0.670291618022,0.573505355048,0.819182192257,0.00359033720443,0.0,0.819157266548,-0.573437673016,-0.0114610090772,0.0,-0.00732996105395,0.00951418406791,-0.999927873385,0.0,0.547528767493,0.111267365016,0.304539469529,1.0,-0.41998,-0.551973714286,1.461
0.311077221472,0.0278884283919,-0.131465585838,-2.09507180463,0.0168526455693,2.11721517006,-0.00345513517115,-0.770709775801,-1.54313988492,-0.0250742075616,-1.87196055305,-0.227771059453,0.353025647204,-0.67652859892,0.573745288545,0.819013829919,0.00366567522329,0.0,0.818989399326,-0.573676728261,-0.0114944396758,0.0,-0.00731133325852,0.00959721453383,-0.999927216291,0.0,0.538652745351,0.0995524655691,0.304626092337,1.0,-0.41998,-0.551973714286,1.482
0.299970960187,0.00706637317991,-0.131850646325,-2.12045767707,0.013580844926,2.12197746666,-0.0133137823731,-0.796951006144,-1.47334199312,-0.0287173553169,-1.82012163706,-0.237313609783,0.335384729121,-0.707570391619,0.573782610835,0.818987326173,0.0037445925055,0.0,0.818964698598,-0.573714862554,-0.0113501469691,0.0,-0.00714743575355,0.00957939046688,-0.999928572169,0.0,0.53324784367,0.0923133831783,0.30469801332,1.0,-0.41998,-0.551973714286,1.495
0.283500994326,-0.0223782484986,-0.13236875169,-2.155720808,0.00908304456389,2.12806492066,-0.027890821887,-0.838928215325,-1.44147194541,-0.0285452559971,-1.76140581065,-0.232552905278,0.28156142409,-0.742122152841,0.573825452372,0.818956373899,0.00394395256776,0.0,0.818935971937,-0.573756699948,-0.0113079632379,0.0,-0.00699799409257,0.00971882886734,-0.99992828365,0.0,0.524870539713,0.0812492636123,0.304793254718,1.0,-0.41998,-0.551973714286,1.515
0.272356601633,-0.0412443925229,-0.132740371886,-2.1779004374,0.00608457693252,2.13156561294,-0.0375887459818,-0.868073196779,-1.44078893753,-0.0364004343583,-1.74174844951,-0.214164519331,0.25218168038,-0.749037045863,0.573954650187,0.818865363995,0.00404005928567,0.0,0.818846520541,-0.573886087727,-0.0112196708204,0.0,-0.00686899826209,0.00974795840817,-0.999928894557,0.0,0.519449690145,0.074019912876,0.304866537873,1.0,-0.41998,-0.551973714286,1.528
0.253747184127,-0.0712241212613,-0.133306494902,-2.21274487603,0.00132851285601,2.13642664608,-0.0539864817258,-0.886796278597,-1.4160521406,-0.0264548135789,-1.61057065943,-0.224259053139,0.203498910442,-0.798946244537,0.573961645374,0.818860445139,0.00404325714994,0.0,0.818840878917,-0.573891992933,-0.0113288288714,0.0,-0.0069564708824,0.00981328643368,-0.999927650844,0.0,0.510622074682,0.0624144287238,0.304875010088,1.0,-0.41998,-0.551973714286,1.549
0.241710769257,-0.0895763913342,-0.13372819066,-2.23381838186,-0.00160901344086,2.13908521898,-0.064514828292,-0.942032996695,-1.38363822359,-0.0323753272544,-1.58799478179,-0.220524249469,0.187586639918,-0.814743118321,0.574076673788,0.818779905788,0.00402310708337,0.0,0.818759339094,-0.574006019831,-0.0114446819283,0.0,-0.00706152386295,0.00986427134843,-0.999926412808,0.0,0.50512299916,0.0551559014836,0.304829242769,1.0,-0.41998,-0.551973714286,1.562
0.222827181777,-0.117258665958,-0.134162681098,-2.26488712563,-0.00622830184302,2.14244324995,-0.0811589147144,-0.96550722744,-1.36915345948,-0.0301505666741,-1.501858148,-0.229387252622,0.154403103304,-0.85078437252,0.573883524124,0.818915671423,0.00394597747396,0.0,0.818894167054,-0.573813197375,-0.0114675448301,0.0,-0.00712683543667,0.00981256189912,-0.999926458219,0.0,0.496737764572,0.0442483839753,0.30482887841,1.0,-0.41998,-0.551973714286,1.582
0.210039945184,-0.135029331772,-0.134555718423,-2.28465165991,-0.00913289175337,2.14423244548,-0.0924166535203,-0.981153040712,-1.34774409524,-0.0228779056271,-1.50603331209,-0.22794621512,0.113001279938,-0.884953662156,0.573898152742,0.818905880433,0.00384917824394,0.0,0.818881914324,-0.573826474056,-0.0116762565129,0.0,-0.00735313631082,0.00985319419722,-0.999924420119,0.0,0.491225765046,0.0370783092774,0.30474940136,1.0,-0.41998,-0.551973714286,1.595
0.188656794517,-0.163201793439,-0.135189008691,-2.31541495767,-0.0138841202525,2.14654392319,-0.111316125029,-1.03339527496,-1.3008682805,-0.0269312717693,-1.43271180493,-0.219849353658,0.0943464633854,-0.894097898873,0.573826933835,0.818956571137,0.00367851834843,0.0,0.818929166814,-0.573754236961,-0.0119097527749,0.0,-0.00764315196183,0.00984677246463,-0.999922308632,0.0,0.482372520677,0.0255089641442,0.304629227111,1.0,-0.41998,-0.551973714286,1.616
0.175055509638,-0.18057299019,-0.135530690365,-2.33386323072,-0.016733362138,2.14754711606,-0.123425275693,-1.05855516192,-1.33020704332,-0.0307083461959,-1.41436432579,-0.223178294378,0.0633657413418,-0.938452440139,0.573700172413,0.819045265369,0.00370301925388,0.0,0.819017257787,-0.573626217893,-0.0120183398903,0.0,-0.00771956408085,0.00992795148583,-0.999920918928,0.0,0.476867700194,0.0184366202401,0.304628073273,1.0,-0.41998,-0.551973714286,1.629
0.152067352188,-0.208054878039,-0.136301739839,-2.36261951176,-0.0213936138494,2.14866300369,-0.143796969873,-1.10755064319,-1.28983259442,-0.0431698108924,-1.36015474607,-0.211008089218,0.038962553258,-0.997098710256,0.573751170176,0.819009620336,0.00368556900618,0.0,0.818980207238,-0.573675767989,-0.0121770388543,0.0,-0.00785894164777,0.0100051909913,-0.999919063319,0.0,0.468002196244,0.00679338669934,0.304578793192,1.0,-0.41998,-0.551973714286,1.65
0.138485508175,-0.223579952456,-0.136815474687,-2.37834824184,-0.0240343960454,2.14900554655,-0.155784682599,-1.1402231057,-1.29890332478,-0.052487367047,-1.31488238849,-0.216440991892,0.0151869676862,-1.0106330579,0.573900006654,0.818904652284,0.00383402284413,0.0,0.818877417437,-0.573824313936,-0.0120904444893,0.0,-0.00770101398071,0.0100784949401,-0.999919555926,0.0,0.462987022168,0.000108618713637,0.304650718747,1.0,-0.41998,-0.551973714286,1.662
0.114003268363,-0.25019690477,-0.137645108139,-2.404897583,-0.0285594486595,2.14912221406,-0.177587117646,-1.18488994848,-1.25750155355,-0.0546728969778,-1.23401435721,-0.198387715914,-0.00183119049184,-1.05819902138,0.574009856247,0.818826481746,0.00407733051004,0.0,0.818802624381,-0.573933518109,-0.0119718836909,0.0,-0.00746292244278,0.0102107047462,-0.99992001995,0.0,0.45420300057,-0.0115155650632,0.304741378557,1.0,-0.41998,-0.551973714286,1.683
0.0983932787268,-0.266250331113,-0.138109762763,-2.42071943401,-0.031348570735,2.14891372533,-0.191594386116,-1.20971247134,-1.2324002794,-0.0383492594042,-1.18789459023,-0.200759873824,-0.0126187030389,-1.08365048725,0.573971758839,0.818852857893,0.00414295521821,0.0,0.818829960834,-0.573895337332,-0.0119324737978,0.0,-0.00739345993557,0.0102414760122,-0.999920221277,0.0,0.448759821776,-0.0186680933012,0.304748224771,1.0,-0.41998,-0.551973714286,1.696
0.0736378296526,-0.290529809812,-0.138909474637,-2.44402956007,-0.0355659174326,2.14815403062,-0.213923226038,-1.25344868092,-1.18805206556,-0.0404390775845,-1.14808494724,-0.204069565909,-0.0655885805026,-1.13252574595,0.57395044916,0.818866598562,0.00437293598065,0.0,0.8188475154,-0.573874421622,-0.0117320771135,0.0,-0.00709762662463,0.0103145972796,-0.999921613317,0.0,0.440410681163,-0.0296971578358,0.304840533347,1.0,-0.41998,-0.551973714286,1.716
0.0557247786524,-0.307026339962,-0.139507569385,-2.45953327633,-0.0384671762297,2.14738972796,-0.230136917337,-1.28469542431,-1.15842645713,-0.0384566691309,-1.11926008782,-0.20640658326,-0.0680959130046,-1.15445900844,0.573974298589,0.8188487943,0.00457203835832,0.0,0.818833347218,-0.573899232147,-0.0115051173876,0.0,-0.00679719306493,0.0103475783782,-0.999923359957,0.0,0.434613430874,-0.037452040668,0.304923532444,1.0,-0.41998,-0.551973714286,1.73
0.0294068378571,-0.329985251843,-0.140347401032,-2.4807968437,-0.0424705232948,2.14574266789,-0.254027604179,-1.32533752821,-1.12847241563,-0.0393990585943,-1.04575963346,-0.210783427287,-0.0906492731422,-1.22382868485,0.574036708939,0.818804047783,0.00474710718061,0.0,0.818790996179,-0.573961348887,-0.0114202216504,0.0,-0.00662639525189,0.0104427161236,-0.999923517358,0.0,0.426253689557,-0.048480244899,0.304984786845,1.0,-0.41998,-0.551973714286,1.75
0.0118336444896,-0.344419588925,-0.140869429002,-2.49415510857,-0.0450875986164,2.14441811115,-0.270150456677,-1.37353713434,-1.10717915095,-0.0534788267263,-1.00681216896,-0.19623588053,-0.106876053706,-1.26555613984,0.573933925383,0.818876584936,0.00466206387697,0.0,0.818861711952,-0.57385769943,-0.0115578720306,0.0,-0.0067892402404,0.0104512416899,-0.999922335866,0.0,0.420750057428,-0.0556214985566,0.30491649938,1.0,-0.41998,-0.551973714286,1.763
-0.0189221311216,-0.368098384204,-0.14191446037,-2.51532822487,-0.0492979437937,2.14182310506,-0.298342265373,-1.42232949887,-1.04991421192,-0.0529553619998,-0.948869236929,-0.197026664736,-0.121171648871,-1.29954668325,0.574074204475,0.818777392334,0.00481003748587,0.0,0.818764049378,-0.573996916793,-0.0115636438421,0.0,-0.00670723259935,0.0105768790468,-0.999921568254,0.0,0.411513345573,-0.0678182925693,0.304954741619,1.0,-0.41998,-0.551973714286,1.785
-0.0360390726535,-0.380552302171,-0.142359870022,-2.52630869797,-0.0515880786744,2.14019861491,-0.314234656925,-1.44043298853,-1.02831879441,-0.0394935392025,-0.877071551484,-0.18203438,-0.140588552929,-1.3276241526,0.573930585964,0.818878228778,0.0047828683589,0.0,0.818864587296,-0.573853486366,-0.0115633368616,0.0,-0.00672442859146,0.0105532774087,-0.999921702133,0.0,0.406044333479,-0.074935740556,0.304970316109,1.0,-0.41998,-0.551973714286,1.798
-0.0669716839674,-0.401458856401,-0.143331961878,-2.54442318195,-0.0553133781261,2.13732446353,-0.342917631296,-1.48915139614,-0.963038336881,-0.0448434687757,-0.832820025821,-0.184910753726,-0.147174107727,-1.38943372118,0.574004448344,0.818825457825,0.00495073731231,0.0,0.818813455105,-0.573925982761,-0.0115861534714,0.0,-0.00664580859574,0.0107044400495,-0.999920620945,0.0,0.397641934821,-0.0859722784781,0.304966995626,1.0,-0.41998,-0.551973714286,1.818
-0.0864956833772,-0.413807717772,-0.14390038142,-2.55479490066,-0.0576020132835,2.1353868387,-0.361203578711,-1.50182867255,-0.956316188821,-0.039832893024,-0.76707641055,-0.16818738846,-0.133606798202,-1.42414911234,0.573931748362,0.818875892093,0.00503671246996,0.0,0.818865684906,-0.573854157172,-0.0114517807302,0.0,-0.00648737367421,0.0106971374958,-0.999921739554,0.0,0.392234356358,-0.0931150134436,0.305037928616,1.0,-0.41998,-0.551973714286,1.831
-0.117410573819,-0.431840057393,-0.144780385619,-2.56990071293,-0.0608569264133,2.13229973986,-0.390217952791,-1.56794621447,-0.897173974872,-0.0477438151558,-0.757562794183,-0.157409683955,-0.172019902616,-1.46408833555,0.573951551267,0.818861092955,0.00518402777955,0.0,0.8188522927,-0.573872706968,-0.0114798013069,0.0,-0.00642551430132,0.0108340113894,-0.999920665335,0.0,0.383838054842,-0.104132133153,0.305049979954,1.0,-0.41998,-0.551973714286,1.851
-0.137846216804,-0.44287102994,-0.14536675288,-2.57890134018,-0.062969640613,2.13020976028,-0.409530683233,-1.56977342831,-0.828162552454,-0.0516822614165,-0.671007596178,-0.141157232067,-0.153806489798,-1.48907714885,0.573907741961,0.81889153343,0.00522561913893,0.0,0.818883565314,-0.573829286451,-0.0114194295414,0.0,-0.00635278317709,0.0108330812245,-0.999921140139,0.0,0.378422658982,-0.111279311051,0.305097207492,1.0,-0.41998,-0.551973714286,1.864
-0.171753554919,-0.459583586144,-0.146250316817,-2.59235674991,-0.0660707388732,2.12689249801,-0.441682190318,-1.61392135167,-0.770516595699,-0.0399271512739,-0.607832210057,-0.136341552893,-0.176998102957,-1.54189809199,0.573912385199,0.818887127968,0.00540302363686,0.0,0.818881764202,-0.5738339918,-0.0113116317659,0.0,-0.00616262967776,0.0109165332721,-0.999921422561,0.0,0.369658712537,-0.122847949008,0.305165841495,1.0,-0.411751428572,-0.541159020408,1.885
-0.192752374121,-0.468824001898,-0.146540514936,-2.59985555086,-0.0677452828259,2.12497396004,-0.461678007409,-1.60802611467,-0.699010828593,-0.0337910871486,-0.556620417769,-0.112139639255,-0.140671422426,-1.52466466574,0.573799583303,0.818965980476,0.00543211988635,0.0,0.818960693229,-0.573720601705,-0.0113490539742,0.0,-0.00617808897312,0.0109609861421,-0.999920840867,0.0,0.364369381678,-0.129780184424,0.305137649038,1.0,-0.399865714286,-0.525537795918,1.898
-0.224953016085,-0.481831463222,-0.146792619768,-2.60963088693,-0.069886901896,2.12223844744,-0.492052754062,-1.59592391227,-0.636679628837,-0.0115425889635,-0.454997453508,-0.0988670534084,-0.137210054056,-1.51179173119,0.573987321322,0.818831930228,0.00579412646851,0.0,0.818834400589,-0.57391335977,-0.0106970458793,0.0,-0.00543386075526,0.0108846083465,-0.999925996491,0.0,0.356616717941,-0.140231774819,0.305409082876,1.0,-0.38158,-0.501505142857,1.918
-0.247053422563,-0.489811715046,-0.146724040321,-2.61562031283,-0.0711284645883,2.1204530593,-0.513035220224,-1.57299738507,-0.554919001093,0.0104753731634,-0.424262112258,-0.0790559204192,-0.12959065373,-1.49875971602,0.573965546771,0.818846062871,0.00595175118538,0.0,0.818852066988,-0.573894533237,-0.0103491067932,0.0,-0.00505874527989,0.0108138426995,-0.999928732412,0.0,0.351388331348,-0.147206318558,0.305550629541,1.0,-0.36878,-0.484682285714,1.932
-0.279489765713,-0.500347874095,-0.146467342971,-2.62317613848,-0.0725381432993,2.11806250529,-0.543890801748,-1.53320627315,-0.46836277742,0.00225633267002,-0.33985389533,-0.059333160171,-0.107540347468,-1.46656179841,0.574015738071,0.818807978762,0.00633823811514,0.0,0.818821734586,-0.573951277673,-0.00957312535038,0.0,-0.00420079243247,0.0106852174649,-0.999934087563,0.0,0.343910431624,-0.157267333504,0.305870060583,1.0,-0.34958,-0.459448,1.953
-0.297399660322,-0.505379645976,-0.146171965066,-2.62686414621,-0.0732163802545,2.11682313325,-0.561000970796,-1.4803633982,-0.406260712571,0.0226991116511,-0.295357577852,-0.0452093892223,-0.0967604982752,-1.42686663852,0.573945003819,0.818857048537,0.00640418247133,0.0,0.818872506858,-0.573882896443,-0.00932660622324,0.0,-0.00396198273928,0.0105973720313,-0.999935997151,0.0,0.339829167793,-0.162710348939,0.305971037872,1.0,-0.338608571429,-0.445028408163,1.965
-0.328153109516,-0.512978123986,-0.145687334985,-2.63227322369,-0.0742086720603,2.11499328373,-0.590267398791,-1.45353289163,-0.333466256811,0.0212175715627,-0.249978803126,-0.0418503832633,-0.0922522680605,-1.38633400785,0.574061157676,0.818774438256,0.00655388494402,0.0,0.818793661424,-0.574004742635,-0.00873168633367,0.0,-0.00338738575,0.010379001243,-0.999940399199,0.0,0.33293556334,-0.172004386801,0.306186924723,1.0,-0.319408571429,-0.419794122449,1.986
-0.346478310109,-0.516889393712,-0.145270532698,-2.63518868729,-0.0746488715769,2.11391918418,-0.607792699834,-1.39385833946,-0.302643513663,0.0203174519214,-0.231335619606,-0.0364582884162,-0.0634917181223,-1.35981878803,0.574053258419,0.81877981957,0.00657346667494,0.0,0.818799496952,-0.573997556348,-0.00865655815278,0.0,-0.00331472513301,0.0103518759267,-0.999940923886,0.0,0.328814146062,-0.177415959817,0.306224911888,1.0,-0.307522857143,-0.404172897959,1.999
-0.373621124858,-0.521257279375,-0.144468066576,-2.6390165923,-0.0750435186437,2.11247206875,-0.633733819168,-1.32783312767,-0.200367612349,0.0380787978753,-0.177328635607,-0.00734106720235,-0.0779976967055,-1.27627334331,0.574069178441,0.818769550401,0.00646131580158,0.0,0.818785663527,-0.574006952567,-0.0093167864036,0.0,-0.00391953628524,0.0106391174983,-0.999935721141,0.0,0.322727201201,-0.185276168484,0.305989399193,1.0,-0.289237142857,-0.380140244898,2.019
-0.390559019536,-0.523859319741,-0.143933354628,-2.64103511302,-0.0753008931097,2.11172675672,-0.649978497874,-1.28038342411,-0.203000052861,0.0410598418949,-0.155124174383,-0.0216725937948,-0.0470653747326,-1.21029111526,0.574025158841,0.818800804912,0.0064113800591,0.0,0.818816350877,-0.573963038588,-0.00932527597154,0.0,-0.00395572445121,0.0106028899834,-0.999935963434,0.0,0.318970325288,-0.190161738277,0.305977227458,1.0,-0.277351428572,-0.364519020408,2.032
-0.415470998439,-0.526606816704,-0.14305577792,-2.64339702995,-0.075424451426,2.11076367789,-0.67387686778,-1.22378737791,-0.132520359686,0.0421725677623,-0.10743768432,-0.000374455315984,-0.0486681794639,-1.1827289104,0.574039370399,0.818791276584,0.00635558989126,0.0,0.818804752548,-0.57397365378,-0.00968343292265,0.0,-0.0042808516723,0.010762866165,-0.99993291526,0.0,0.313509443605,-0.197286288363,0.30585069577,1.0,-0.259065714286,-0.340486367347,2.052
-0.432060101128,-0.5282350193,-0.142348132556,-2.64469029451,-0.0754436315304,2.11032411478,-0.689827412218,-1.1767026358,-0.103956038026,0.0445401369639,-0.0856643481619,-0.000876365970786,-0.0320566355115,-1.12008987211,0.573975697046,0.818836195052,0.00631915929599,0.0,0.818849464631,-0.573910611857,-0.00963902346358,0.0,-0.00426623085712,0.0107072115648,-0.999933575241,0.0,0.30991863947,-0.201984835567,0.305839520179,1.0,-0.246265714286,-0.323663510204,2.066
-0.454381308479,-0.529615900796,-0.14126719842,-2.64589949864,-0.0754204955379,2.10977328011,-0.711333492295,-1.08372780371,-0.0745442175349,0.0652722468133,-0.052797925874,-0.00320182249812,-0.0270662686818,-1.04622299321,0.573817752259,0.818948251033,0.00613972502324,0.0,0.818958850204,-0.573751648267,-0.00980788892234,0.0,-0.00450956295035,0.0106563280888,-0.999933051016,0.0,0.305132508378,-0.208275937624,0.305775882599,1.0,-0.22798,-0.299630857143,2.086
-0.468240615913,-0.530409481703,-0.140644704776,-2.64650726912,-0.0753957841664,2.10953621478,-0.724532211262,-1.041667894,-0.049210265626,0.0599325639901,-0.0422393077164,0.00130719297296,-0.0195213982554,-0.994548634129,0.573893417651,0.818895792277,0.00606411323121,0.0,0.818905902577,-0.573828378305,-0.00973970622418,0.0,-0.00449613074811,0.0105556946407,-0.999934178893,0.0,0.30214394962,-0.212178862647,0.305785554634,1.0,-0.216094285714,-0.284009632653,2.099
-0.48815188496,-0.531009365828,-0.139541669609,-2.64692585414,-0.0751968361625,2.10926467026,-0.743610863482,-0.977822144883,-0.0244745846582,0.0456072272353,-0.0141654106978,0.0170820391555,-0.0167764571411,-0.923211973663,0.573856497093,0.818922676914,0.00592594986362,0.0,0.818931719396,-0.573792968994,-0.00965477090982,0.0,-0.00450632923291,0.0103936014345,-0.999935830964,0.0,0.297931136021,-0.217743583722,0.305820396987,1.0,-0.197808571429,-0.259976979592,2.119
-0.501066032293,-0.531190645937,-0.138676002295,-2.64702712058,-0.0749488937614,2.10915156227,-0.756109971509,-0.892596730598,-0.00240443542391,0.0604596680453,4.00410168461e-05,0.0294488726321,-0.00737658665225,-0.872603385332,0.573685001178,0.819043445628,0.00583956314813,0.0,0.819051951821,-0.573622709046,-0.00957260600616,0.0,-0.00449076063531,0.0102747639032,-0.999937129171,0.0,0.29523062517,-0.221301345199,0.30585396516,1.0,-0.185008571429,-0.243154122449,2.133
-0.518335226926,-0.531198106479,-0.137566289882,-2.64704517646,-0.0744910933161,2.10909919114,-0.772561985864,-0.823155071234,0.00831140177802,0.0615912016632,-0.00343568411627,0.022266023985,-0.00300756926716,-0.791248078744,0.573765111861,0.818987411244,0.00582782424519,0.0,0.818996161141,-0.57370369521,-0.00949236747839,0.0,-0.00443077046926,0.0102195517307,-0.999937962593,0.0,0.291595378548,-0.226039314936,0.305873614068,1.0,-0.166722857143,-0.219121469388,2.153
-0.528551645206,-0.531001260029,-0.136733676053,-2.64694564206,-0.0740758954292,2.10910414493,-0.782389396522,-0.768202898145,0.014740861126,0.0685244605629,0.00942600086063,0.0277835365063,0.000149946210452,-0.740100302175,0.573678964534,0.819047704817,0.00583521944156,0.0,0.81905651603,-0.573617496143,-0.0094941334259,0.0,-0.00442904949913,0.0102261560242,-0.999937902699,0.0,0.289483043116,-0.228783361703,0.305869604117,1.0,-0.154837142857,-0.203500244898,2.166
-0.544567141377,-0.530475827481,-0.135466358863,-2.64669360429,-0.0734064256913,2.10911399158,-0.797500951829,-0.692471123437,0.0334712754839,0.0631326153201,0.0137551781596,0.0395186274821,0.00605692793351,-0.652762033713,0.573825258491,0.818945030609,0.00586143836113,0.0,0.818953557885,-0.573762377851,-0.00962032703323,0.0,-0.004515533143,0.0103208311548,-0.999936543189,0.0,0.286133318787,-0.233071665114,0.305826687406,1.0,-0.134722857143,-0.177064326531,2.188
-0.55290506073,-0.530071219341,-0.134583721419,-2.64647293823,-0.0729482327278,2.10916093746,-0.805525540053,-0.635164559476,0.0344261520612,0.064867273233,0.0160685214256,0.0421446970994,0.00271143849211,-0.606900740018,0.573667064823,0.819055959371,0.00584645675626,0.0,0.819064059188,-0.57360365849,-0.00967764508022,0.0,-0.00457307193684,0.0103405679382,-0.999936077791,0.0,0.28444296023,-0.23524522279,0.30580640476,1.0,-0.122837142857,-0.161443102041,2.201
-0.564688512453,-0.529380784401,-0.133421119183,-2.64607522581,-0.0722894782956,2.10928128209,-0.816536295301,-0.570173051661,0.0330222520372,0.0597118884109,0.0256358322459,0.0278416699444,0.00227026728321,-0.518402839597,0.573782814164,0.818974747823,0.00586442656676,0.0,0.81898274187,-0.573718646969,-0.00974317917841,0.0,-0.00461497568809,0.0103935330247,-0.999935336145,0.0,0.282037706654,-0.238339975596,0.305775564941,1.0,-0.104551428572,-0.13741044898,2.221
-0.570978944753,-0.528954253013,-0.132705684343,-2.64579128643,-0.0718942988173,2.10936251556,-0.822363633346,-0.502768996105,0.0392588559688,0.0637248331832,0.0202789556243,0.0311723461591,0.00403819130974,-0.472212643537,0.573841316854,0.818933818022,0.00585590913592,0.0,0.818941717826,-0.573777166342,-0.00974541377877,0.0,-0.00462095093132,0.0103881693678,-0.999935364286,0.0,0.280781534974,-0.239973892951,0.305774218446,1.0,-0.0935800000001,-0.122990857143,2.233
-0.580347292422,-0.528198318385,-0.131381493133,-2.6452991607,-0.0711527517111,2.10951340556,-0.831154481349,-0.422983781583,0.0313156743126,0.0650075395727,0.0204746429319,0.0361738304509,0.00384715036295,-0.389285083487,0.573722561085,0.819017169534,0.00583487885287,0.0,0.819024767244,-0.573658340203,-0.00976146799269,0.0,-0.00464767244995,0.0103794845483,-0.99993533063,0.0,0.278977289681,-0.242337965283,0.305768403943,1.0,-0.0743800000001,-0.0977565714287,2.254
-0.585417186185,-0.527826860931,-0.13058485794,-2.64504535748,-0.0707072810113,2.10957405516,-0.83568035061,-0.36856219892,0.030495316448,0.0625929873623,0.0191120043588,0.0277778902952,0.00383374445571,-0.328062064492,0.573809085151,0.818956639665,0.00582263236015,0.0,0.818964099945,-0.573744883806,-0.00976515280643,0.0,-0.00465662085563,0.0103720599627,-0.999935366038,0.0,0.278006918869,-0.243583411367,0.305773330433,1.0,-0.0624942857144,-0.0821353469389,2.267
-0.592024675729,-0.5272387371,-0.129310685773,-2.64464453768,-0.0699284185811,2.10971334951,-0.841568824953,-0.275355415871,0.02229320068,0.0618366870454,0.0191393572916,0.0317117771465,0.00626921629249,-0.258189656813,0.573851189389,0.818926971989,0.00584584356508,0.0,0.818934822076,-0.573787206831,-0.00973372338044,0.0,-0.00461702725543,0.0103732733166,-0.999935537052,0.0,0.276823370411,-0.245149227962,0.30578438743,1.0,-0.0432942857144,-0.0569010612247,2.288
-0.595204778524,-0.526942973801,-0.128501040031,-2.64445859977,-0.0694313795141,2.10979244256,-0.844357135342,-0.22845660305,0.025070288496,0.0666686904813,0.00850331088215,0.0330142235432,0.00384712711584,-0.192393341637,0.573821606784,0.818947585515,0.00586196789349,0.0,0.818955667315,-0.573757699923,-0.00971924132368,0.0,-0.00459628849227,0.0103780023098,-0.999935583525,0.0,0.276301210335,-0.245842812431,0.305787646627,1.0,-0.0314085714287,-0.0412798367349,2.301
-0.598741474969,-0.526649282344,-0.127186194575,-2.6442739683,-0.0687142198767,2.1098250573,-0.847192412577,-0.15439733626,0.00648428015946,0.0590972272354,0.00950505094111,0.0339894103955,-0.0018073621367,-0.112349417302,0.573781964031,0.818975692885,0.00581542070795,0.0,0.818983211476,-0.573718097281,-0.00973607076973,0.0,-0.00463728248322,0.010349312992,-0.999935691598,0.0,0.275803883899,-0.246489136298,0.305799325942,1.0,-0.01983,-0.0260622857143,2.321
-0.600562499763,-0.526516272035,-0.126566439224,-2.64415393386,-0.0683737168837,2.1098321339,-0.848732983538,-0.118546910312,0.0125919229211,0.0457259987457,0.0102000353806,0.0179627749131,0.000558597829886,-0.103728845501,0.573724706454,0.819015948774,0.0057951497038,0.0,0.819023360097,-0.573661171024,-0.00971305186867,0.0,-0.00463078118325,0.010319179491,-0.999936033154,0.0,0.275537865954,-0.246842646269,0.305821007242,1.0,-0.01955,-0.0256942857143,2.335
-0.602694741358,-0.526258745204,-0.12596872077,-2.64392210472,-0.0681082791667,2.10994975554,-0.850693681888,-0.100128345639,0.015393016342,0.0231450700199,0.00994469330548,0.00872858679085,0.0065601967655,-0.0926451239777,0.573567727899,0.819126511387,0.00570672919652,0.0,0.819133548264,-0.573505807876,-0.00959506862995,0.0,-0.0045868210657,0.0101781910106,-0.999937680808,0.0,0.275225795694,-0.247334548584,0.305856739081,1.0,-0.01915,-0.0251685714286,2.355
-0.60395828793,-0.526090069993,-0.12578908991,-2.64379012856,-0.0679844060294,2.11001269684,-0.851854979799,-0.0932436570661,0.00750638533053,0.00939289316658,0.0121866938938,0.00672599629729,0.00302483707639,-0.0869655860164,0.57358413261,0.819114971233,0.00571433469107,0.0,0.819122265383,-0.573522575759,-0.00955595886667,0.0,-0.00455021662718,0.0101620808067,-0.9999380119,0.0,0.274998843797,-0.247666466645,0.305864732408,1.0,-0.01889,-0.0248268571429,2.368
-0.605907684201,-0.525847749195,-0.125634693954,-2.64365033235,-0.0678781484361,2.10999056446,-0.853714713398,-0.0912775781977,0.00723575135988,0.00273152076415,0.00399749212682,0.00262335686335,-0.00146529104419,-0.0866126887865,0.573601300785,0.819102833569,0.0057308531096,0.0,0.819109798642,-0.573538559617,-0.00966464186767,0.0,-0.00462955943475,0.0102380461977,-0.999936872802,0.0,0.274580897782,-0.248183600495,0.305841315674,1.0,-0.01847,-0.0242748571429,2.389
-0.606979803158,-0.525751882654,-0.125587968943,-2.64356312047,-0.0678537819291,2.1099946624,-0.854699259656,-0.0902096245743,0.0075262437787,0.0110852216145,0.0108624754126,0.0021172448058,-0.000160525451033,-0.0846637230186,0.573654907216,0.819065312238,0.00572788070967,0.0,0.819072259783,-0.573592199712,-0.00966274209393,0.0,-0.00462903829762,0.0102348246681,-0.999936908194,0.0,0.274345786863,-0.248485214537,0.305847322014,1.0,-0.01823,-0.0239594285714,2.401
-0.608746447221,-0.525542370816,-0.125510480201,-2.64337332034,-0.067820919776,2.11000801563,-0.856427611687,-0.084865607486,0.01292129205,0.00456590477714,0.0134726765102,0.000594223083791,0.000224680716026,-0.0864937124766,0.573655366758,0.819065100572,0.00571210266721,0.0,0.819071905605,-0.573592773907,-0.00965867856407,0.0,-0.00463475494914,0.0102195723691,-0.999937037711,0.0,0.273968065482,-0.248993815135,0.305859849559,1.0,-0.01781,-0.0234074285714,2.422
-0.609777587008,-0.525426129538,-0.125516796198,-2.64326825487,-0.0678001423088,2.1100413902,-0.857456597183,-0.0803124036547,0.0102907685398,-0.00667782166624,0.00527150155573,0.000434012574539,0.00344747395221,-0.0819738768544,0.573675895867,0.819050603398,0.00572909035756,0.0,0.819057714747,-0.573613514942,-0.00963027987217,0.0,-0.00460149147574,0.0102173118039,-0.999937214437,0.0,0.273739550292,-0.249303975972,0.305867739165,1.0,-0.01755,-0.0230657142857,2.435
-0.611384919227,-0.525263507957,-0.125530945062,-2.64310903751,-0.0677773634046,2.11007680598,-0.858970083549,-0.0811382059494,0.00236802565926,-0.00274661265178,0.0112737754021,-4.04473978351e-05,-0.000552128948245,-0.0750699733861,0.573780671625,0.818977058263,0.00575028782798,0.0,0.818984580482,-0.573718610437,-0.00958957102976,0.0,-0.00455467922136,0.0102119041813,-0.999937484001,0.0,0.273377544434,-0.24978595923,0.305883239445,1.0,-0.01715,-0.02254,2.455
-0.6124962465,-0.525148225895,-0.12552314586,-2.64300381648,-0.0677645570663,2.11010088588,-0.860108638237,-0.0764245423739,0.00716042867939,0.00123769897717,0.0108205006687,-0.000691446029999,0.000566163232534,-0.0790886354386,0.573763776677,0.818988861568,0.00575500662481,0.0,0.818996523569,-0.573701902507,-0.00956913491615,0.0,-0.00453544398293,0.0102039498655,-0.999937652634,0.0,0.273128887077,-0.250113953655,0.305891075754,1.0,-0.01687,-0.022172,2.469
-0.614030520548,-0.524979398557,-0.125526747767,-2.64284165001,-0.0677427373466,2.11014771786,-0.861595170611,-0.0825098409407,0.0091137587328,-0.00558871758657,0.00790959352801,0.00120498368699,0.00280799698176,-0.0717055563689,0.573823086227,0.81894721273,0.00576848133855,0.0,0.818955236011,-0.573761647745,-0.00952049834725,0.0,-0.00448713861881,0.0101874058792,-0.999938039255,0.0,0.272788319332,-0.250575030608,0.305906857674,1.0,-0.01647,-0.0216462857143,2.489
-0.614980385134,-0.524848054121,-0.125511482732,-2.64273831377,-0.0677313553441,2.11016803264,-0.862550512014,-0.0741334316084,0.00780048308668,0.00128148058381,0.0113039646292,-0.000337017475105,0.000112492267663,-0.066296819468,0.573818106981,0.818950712337,0.00576695449581,0.0,0.818958708894,-0.573756650803,-0.00952290332433,0.0,-0.00449004641144,0.0101875081078,-0.99993802516,0.0,0.272579256629,-0.250855684806,0.305907778799,1.0,-0.01621,-0.0213045714286,2.502
-0.616466071806,-0.524623339474,-0.125430420374,-2.64260646712,-0.0677108546344,2.1102015659,-0.864067894046,-0.0736601360893,0.0139951740482,0.00344161563137,0.00976189279744,0.000661492217424,0.00520023654862,-0.0681889298849,0.573750765658,0.818998069244,0.00574180997358,0.0,0.819005575435,-0.573688905884,-0.0095735872027,0.0,-0.00454682429367,0.0101956236665,-0.999937685882,0.0,0.272256719802,-0.251273736548,0.305890082197,1.0,-0.01579,-0.0207525714286,2.523
-0.617367341123,-0.524489703292,-0.125373771278,-2.64255113554,-0.0676949629839,2.11022632406,-0.864945315768,-0.0695456081787,0.00851560985648,0.00438963363241,0.00611038727108,0.00583447101765,0.00195359703444,-0.0718673755757,0.573740192178,0.81900557391,0.00572788669925,0.0,0.819012716936,-0.573677904163,-0.00962178118015,0.0,-0.00459441883737,0.0102118112403,-0.999937303148,0.0,0.272057560887,-0.251519620032,0.30586966115,1.0,-0.01553,-0.0204108571429,2.536
-0.61872957459,-0.524294853419,-0.125312449964,-2.64245771362,-0.0676788636724,2.11024529562,-0.866384837928,-0.0667376981072,0.0132438427575,0.00849068402197,0.00420913507625,0.000226203653896,0.00441738852918,-0.0705199404392,0.573645634863,0.819071904203,0.00571386456384,0.0,0.819078552892,-0.573582651697,-0.00969601802565,0.0,-0.00466445216465,0.0102423795319,-0.999936666268,0.0,0.271749804614,-0.251897287773,0.305843697062,1.0,-0.01513,-0.0198851428571,2.556
-0.619617936619,-0.524170185776,-0.125302742857,-2.64238702304,-0.0676662797129,2.11026441115,-0.867279241955,-0.0671955332447,0.00941716352742,0.00180089268207,0.00862527414327,-0.000356401055896,0.0058373201341,-0.068792804676,0.573643052155,0.819073672759,0.00571963364825,0.0,0.8190802419,-0.573579738228,-0.00972564262281,0.0,-0.00468544206156,0.0102640838459,-0.999936345582,0.0,0.271546087376,-0.252153321866,0.305831947315,1.0,-0.01487,-0.0195434285714,2.569
-0.621045810356,-0.524003922704,-0.125304153534,-2.64227014177,-0.0676467076075,2.11028915076,-0.868651272316,-0.0697613686822,0.00544772913665,0.000907094236976,0.00510256882241,0.00142821078855,0.000215818662208,-0.0705993423409,0.573704347068,0.819030625833,0.00573611403372,0.0,0.819037291425,-0.573640786151,-0.0097422082116,0.0,-0.00468878819849,0.0102874365676,-0.999936089915,0.0,0.271215058299,-0.252568920713,0.305826156555,1.0,-0.01445,-0.0189914285714,2.59
-0.621938270574,-0.523916502585,-0.125309901409,-2.64218619583,-0.0676336898463,2.11030999714,-0.869519964563,-0.0680099556492,0.00476053387497,-0.00116162927345,0.00476594436221,0.000315815332765,0.00477389259213,-0.0685739052257,0.573737743779,0.819007150112,0.00574772395899,0.0,0.819014042735,-0.573674359859,-0.00971975023224,0.0,-0.00466331285791,0.0102842522082,-0.999936241802,0.0,0.271010678384,-0.252833176823,0.305833902801,1.0,-0.01419,-0.0186497142857,2.603
-0.623278151996,-0.523814424112,-0.125315310038,-2.64204262764,-0.0676135508216,2.11033928102,-0.870823595563,-0.0598435295402,0.00843452179866,0.000191832658444,0.00540365133748,0.000190084644065,0.000282847451923,-0.0609008626871,0.573787005997,0.818972540223,0.00576168462593,0.0,0.818979942262,-0.573724361841,-0.009641457545,0.0,-0.00459055852443,0.0102510445648,-0.999936919439,0.0,0.270708530582,-0.253233393193,0.305864139254,1.0,-0.01377,-0.0180977142857,2.624
-0.624091315941,-0.52376554372,-0.125305284202,-2.6419255492,-0.0676052458591,2.11038975059,-0.871591733241,-0.0548880990312,-0.00357500843373,0.00166585620042,0.00744046574413,-0.00359968236828,0.00819614997644,-0.0545671642357,0.573826010664,0.818945270761,0.00575324994227,0.0,0.818953145379,-0.573764654651,-0.00951912013566,0.0,-0.00449471348782,0.0101741567529,-0.999938140129,0.0,0.270539959841,-0.253485678784,0.305904051717,1.0,-0.01351,-0.017756,2.637
-0.625309338886,-0.523495510497,-0.125261396565,-2.64178100602,-0.0675627005531,2.11042981687,-0.872821103496,-0.0571632094544,0.0156704168809,0.00204414665564,0.00480171909878,0.00316852317855,0.00381120005241,-0.0718548559798,0.573811747568,0.818955204411,0.00576180721595,0.0,0.818962816488,-0.573749566405,-0.00959620551629,0.0,-0.00455311571989,0.010225318192,-0.99993735404,0.0,0.27027846909,-0.253838140046,0.305875084905,1.0,-0.01311,-0.0172302857143,2.657
-0.626108322924,-0.523493992071,-0.125226013718,-2.64167514754,-0.0675538533834,2.11047558472,-0.873636837178,-0.0566737659317,-0.0041612251706,-0.000237132422294,0.00536727754352,0.00037226269535,0.0111067486162,-0.0507862106769,0.573781695554,0.818976396017,0.0057424311841,0.0,0.818984501066,-0.57372116786,-0.00944221714619,0.0,-0.00443848409807,0.0101209283614,-0.999938931469,0.0,0.270116025118,-0.2540779113,0.305927502383,1.0,-0.01283,-0.0168622857143,2.671
-0.627211120322,-0.523258925055,-0.125183603648,-2.6415594581,-0.0675350124692,2.11047572258,-0.874768789937,-0.057163859299,0.00225565993036,0.000851357946719,0.00318158989649,0.000782254990198,-0.00155251911006,-0.0576731866757,0.573742312655,0.819004022256,0.00573734244709,0.0,0.819011566726,-0.573680662551,-0.00955499269552,0.0,-0.00453426233253,0.0101812494536,-0.999937889383,0.0,0.2698682826,-0.254389507232,0.305894754795,1.0,-0.01243,-0.0163365714286,2.691
-0.627920573688,-0.523196573263,-0.125161014107,-2.64149684639,-0.067529647805,2.11049794294,-0.875505617203,-0.0510605389405,0.00679898607984,0.000921521542633,0.00530192177765,-6.59143825106e-05,0.00138091701119,-0.0583905840088,0.573709391918,0.819027142638,0.00572888718242,0.0,0.819034717332,-0.573648046476,-0.00952877122902,0.0,-0.00451804431823,0.0101590986357,-0.999938188085,0.0,0.269709879347,-0.254593056246,0.305902776084,1.0,-0.01217,-0.0159948571429,2.704
-0.629062092439,-0.523006397753,-0.125128000693,-2.64139488344,-0.067505069804,2.11050436441,-0.876673583401,-0.051864067809,0.000141476888781,-0.000977860348389,0.00744912136341,0.000431244421604,-0.000584953875112,-0.0536844742017,0.573680448763,0.819047377331,0.00573439577239,0.0,0.819054666936,-0.57361831887,-0.00960331859262,0.0,-0.00457630655235,0.0102062162406,-0.999937443328,0.0,0.269448965771,-0.254914319506,0.305880594633,1.0,-0.01175,-0.0154428571429,2.725
-0.62986728377,-0.522893938638,-0.12511352324,-2.64135706106,-0.0674926345457,2.11051786835,-0.877402924156,-0.0601162536076,0.0117217423226,0.00213548068135,0.00312799236198,0.000783111920972,-0.00101693395504,-0.0483551147644,0.573739888075,0.819005696475,0.00574080779028,0.0,0.819012796167,-0.57367715091,-0.00965987265475,0.0,-0.00461820938926,0.0102442465298,-0.999936861784,0.0,0.269256341866,-0.255136243765,0.305857955027,1.0,-0.01145,-0.0150485714286,2.74
-0.630838698783,-0.522772356624,-0.125114177426,-2.64124078226,-0.0674776306633,2.11054273181,-0.878316654267,-0.0514525700786,0.0046544610795,-0.00116645084902,0.00599893546352,0.000229011049342,0.00110285514351,-0.0497109591233,0.573799956332,0.818963563378,0.00574794525209,0.0,0.818970854529,-0.573737439785,-0.00963517116077,0.0,-0.00459313114663,0.0102362575059,-0.999937059108,0.0,0.269038026262,-0.255426973492,0.305868289665,1.0,-0.01109,-0.0145754285714,2.758
-0.631644930924,-0.52261691265,-0.125117379633,-2.64112272717,-0.067461824232,2.11056812647,-0.879156429533,-0.0543043383566,0.0142952967469,0.000947314183171,0.00598893016543,0.000145667587405,-0.00107440428671,-0.0552364128215,0.573787694687,0.818972092769,0.00575669981482,0.0,0.818979439587,-0.573725064098,-0.0096423680006,0.0,-0.00459415578219,0.0102474881905,-0.999936939371,0.0,0.268860922031,-0.255673573019,0.305866954423,1.0,-0.01077,-0.0141548571429,2.774
-0.632577931108,-0.522480011507,-0.125112015279,-2.64101762695,-0.0674368914615,2.11060993022,-0.880073934577,-0.0502489686399,0.0131506147682,0.00389521356731,0.00279847506919,-0.000948151068086,0.00609001966723,-0.045184047198,0.57381270526,0.8189544798,0.00576941937201,0.0,0.818962031922,-0.573750179881,-0.00962643534729,0.0,-0.00457349500361,0.0102489036437,-0.999937019576,0.0,0.268653804447,-0.255950561853,0.305868156497,1.0,-0.01039,-0.0136554285714,2.793
-0.633235713077,-0.522357165005,-0.125089295662,-2.64092735802,-0.0674189663198,2.11061219386,-0.880713387153,-0.0460806119901,0.00386148021223,0.00206107212566,0.00648393066478,0.00449767265201,0.000151325346767,-0.0458005482302,0.573824030662,0.818946538751,0.00577021689444,0.0,0.818953978965,-0.57376123109,-0.00965282010714,0.0,-0.00459450532538,0.0102647598548,-0.999936760613,0.0,0.268510521483,-0.256141420833,0.305864786342,1.0,-0.01011,-0.0132874285714,2.807
-0.634007220081,-0.522250367642,-0.125038904491,-2.64083163449,-0.0674017346792,2.11065960755,-0.881515636462,-0.0373713196966,0.0110582703707,0.000815504278774,0.00860370842584,0.00454476098711,0.000435901326005,-0.0391900105111,0.573775436239,0.81898070834,0.00575282865871,0.0,0.818988152585,-0.573713131523,-0.00961226008323,0.0,-0.00457187024948,0.0102269741388,-0.999937251533,0.0,0.268352677951,-0.256364501937,0.30587433453,1.0,-0.00975,-0.0128142857143,2.825
-0.634646067563,-0.522154292698,-0.12497244152,-2.64075467051,-0.0673912489258,2.11066819777,-0.882185127113,-0.0418964145764,0.00819616018424,0.00574812648927,0.00119844044069,0.000443668753786,-5.6733699069e-05,-0.0400613477975,0.573711759697,0.81902550186,0.005726341663,0.0,0.819032636495,-0.573649499749,-0.00961970351081,0.0,-0.00459395791324,0.0102091942973,-0.999937331988,0.0,0.268221191403,-0.256539133762,0.30587632901,1.0,-0.00945,-0.01242,2.84
-0.635427305984,-0.52202190364,-0.124965147152,-2.64069500804,-0.0673744797122,2.11068790694,-0.882987365604,-0.0426682672439,0.00462262736492,-0.000225151765917,0.00105162569691,0.00294949938462,0.00554213511219,-0.0375151824164,0.573699902626,0.819033725276,0.00573807359826,0.0,0.819040758386,-0.573637099064,-0.00966755299388,0.0,-0.00462656912555,0.0102461876337,-0.999936803252,0.0,0.26803786446,-0.256760906913,0.305856631593,1.0,-0.00907,-0.0119205714286,2.859
-0.63596750089,-0.521945152332,-0.124970228809,-2.6406398101,-0.0673615140274,2.11069086981,-0.88349411633,-0.0430785630813,0.0056993551439,0.000289886484751,-0.000260450995569,0.000449023241868,-0.00127304800694,-0.0383621555539,0.573739329751,0.819006017479,0.00575080269571,0.0,0.819013114023,-0.573676312186,-0.00968270602314,0.0,-0.0046311843805,0.0102655297311,-0.999936583504,0.0,0.267910796463,-0.256918567707,0.305853646347,1.0,-0.00881,-0.0115788571429,2.872
-0.636790777758,-0.52183779617,-0.124974957512,-2.64056650241,-0.0673471003942,2.11070714387,-0.884249504062,-0.0413455374845,0.00566122282139,-0.000872766922864,0.0029403749855,-0.000654009716736,0.00172636434504,-0.0357987079166,0.573808309319,0.818957597566,0.00576406506385,0.0,0.818964775328,-0.573745097004,-0.00969573808499,0.0,-0.00463338350651,0.010284259332,-0.99993638086,0.0,0.267716720264,-0.257157655021,0.305848787648,1.0,-0.00841,-0.0110531428571,2.892
-0.637302143713,-0.521800869429,-0.124972413851,-2.64053897243,-0.0673330107908,2.1107297222,-0.884746404602,-0.0367513793626,-0.000469983902526,-0.000557040508177,0.000764873903969,5.99015980778e-05,0.00432214069666,-0.0374728624676,0.573825783245,0.818945279792,0.00577460737841,0.0,0.818952644854,-0.573762694799,-0.0096789692372,0.0,-0.00461338070109,0.0102833700758,-0.999936482492,0.0,0.267596164073,-0.257301999484,0.305849731797,1.0,-0.00815,-0.0107114285714,2.905
-0.638067984194,-0.521698215548,-0.124943677681,-2.64043801483,-0.0673095596248,2.11074949048,-0.885534636127,-0.0348027603625,0.00684175606126,0.00307608707952,0.00258952870834,0.00704993334252,0.00145482888525,-0.0432219287887,0.573802228257,0.818961781228,0.00577500102622,0.0,0.818969254427,-0.573739374179,-0.00965596816938,0.0,-0.00459461187732,0.0102703620726,-0.999936702599,0.0,0.267431609636,-0.257524727719,0.305860285153,1.0,-0.00773,-0.0101594285714,2.926
-0.638518693051,-0.521634916781,-0.124896984527,-2.64039453841,-0.0672994006357,2.1107624668,-0.885998974327,-0.0370076233741,0.0101550610118,0.000950460067365,0.00577301824396,0.00100137655126,0.00110428057632,-0.0326975460841,0.573764620068,0.818988239839,0.0057593979209,0.0,0.818995529354,-0.573701791432,-0.00966045064281,0.0,-0.00460770727586,0.0102599434775,-0.999936749296,0.0,0.267337231528,-0.257645656404,0.305858995171,1.0,-0.00747,-0.00981771428572,2.939
-0.639202726569,-0.521520887265,-0.124809525133,-2.64028426151,-0.0672804959344,2.11080020735,-0.886699416962,-0.0330616262936,0.00346081881994,-0.000460879334248,0.00484670701567,0.00109272896092,0.00222413986785,-0.031741911636,0.573702902216,0.819031729269,0.00572305349605,0.0,0.819038812398,-0.573640618967,-0.00962345871529,0.0,-0.00459903062886,0.0102086056803,-0.999937314679,0.0,0.267210524682,-0.257838524733,0.305872526518,1.0,-0.00705,-0.00926571428572,2.96
-0.639602380111,-0.521413285542,-0.124802771401,-2.64022984255,-0.0672650167378,2.11080888919,-0.887110870787,-0.0352629390358,0.0125318331102,-0.000226007573576,0.0085549102802,0.000821094554062,0.000447820730879,-0.0258238380523,0.573698055234,0.819035064913,0.00573155864808,0.0,0.819042042918,-0.573635307855,-0.00966500989891,0.0,-0.00462824670845,0.0102393820269,-0.999936865201,0.0,0.26712192194,-0.257955467584,0.305858585778,1.0,-0.00679,-0.00892400000001,2.973
-0.640223559137,-0.521295890716,-0.124809843811,-2.64016120832,-0.0672473251046,2.1108310847,-0.887703358171,-0.0330793988791,0.00543976685919,-0.00173692472514,0.00148363441246,-0.000154431748288,0.00263670139424,-0.023128720007,0.573737808017,0.819007106154,0.00574757541253,0.0,0.819014147598,-0.573674756987,-0.00968742127879,0.0,-0.00463691721461,0.0102655830714,-0.999936556389,0.0,0.266978535859,-0.258139670972,0.30584833997,1.0,-0.00639,-0.00839828571429,2.993
-0.640608281625,-0.521196263727,-0.124805118477,-2.64012667944,-0.0672389210169,2.11084119055,-0.888080377271,-0.0251476778046,0.00581693757929,-0.00133151257873,-0.000683407631854,0.00115369301675,-0.000240800901075,-0.0324518323645,0.573746401283,0.819001046973,0.00575317068903,0.0,0.819007901746,-0.573682783548,-0.00974000200992,0.0,-0.00467666690886,0.0103003816704,-0.999936013415,0.0,0.266888395139,-0.258249003589,0.305828346782,1.0,-0.00613,-0.00805657142858,3.006
-0.641179750245,-0.521135041,-0.124790404594,-2.64010999542,-0.0672177213403,2.11084516057,-0.888664796796,-0.0261438970889,0.00467459710903,0.00464912418042,0.000787660128144,5.41219700386e-05,0.000738237752339,-0.0332051355369,0.573735434476,0.819008620696,0.00576865263371,0.0,0.819015466557,-0.573671374741,-0.00977579893731,0.0,-0.00469724315355,0.0103335369315,-0.999935574885,0.0,0.266748982039,-0.258399858943,0.30581409311,1.0,-0.00571,-0.00750457142858,3.027
-0.641530322935,-0.521098079705,-0.124759536976,-2.64008840163,-0.0672056054715,2.11085202432,-0.889006255611,-0.0264822737409,0.00251458909132,0.00395138260817,0.00076098573065,-2.07950401979e-05,0.000696008365438,-0.0241590754857,0.57372734742,0.819014316193,0.00576433828066,0.0,0.819021087539,-0.573663243502,-0.0097820305667,0.0,-0.00470492466522,0.0103335320095,-0.999935538822,0.0,0.266671399503,-0.258491149051,0.305811634438,1.0,-0.00545,-0.00716285714286,3.04
-0.642029039589,-0.52101866626,-0.124725823098,-2.64004229356,-0.0671896347389,2.11086436308,-0.889528562233,-0.0273685422481,0.00507277837212,0.00368327081836,0.0055991205543,-0.000123589230604,-8.67102231506e-05,-0.0243750042546,0.573693803785,0.819037826582,0.00576238038781,0.0,0.81904450387,-0.573629552638,-0.00979713850825,0.0,-0.00471884619894,0.0103404027276,-0.999935402195,0.0,0.266567440352,-0.258618778402,0.305804652877,1.0,-0.00505,-0.00663714285715,3.06
-0.642328042199,-0.520990223716,-0.124723261778,-2.6399954247,-0.0671793185725,2.11087485224,-0.889821392862,-0.0257079749184,0.00200909851744,0.000620062121384,0.00246712007979,8.14248036206e-05,-7.26097649204e-05,-0.0273200126108,0.573703358425,0.819031118121,0.0057646320629,0.0,0.819037952678,-0.573639389317,-0.00976882792599,0.0,-0.00469424442151,0.0103260606404,-0.999935666201,0.0,0.266498042274,-0.258718153065,0.305817057031,1.0,-0.00477,-0.00626914285715,3.074
-0.642809030339,-0.520934755991,-0.124700163873,-2.63992115382,-0.0671575583758,2.11089966164,-0.890244627007,-0.0256059353407,-0.000173929120029,0.000425644057901,0.00264900132995,0.00232256873673,0.00139770423095,-0.0208253745145,0.5737472372,0.819000381409,0.00576454315493,0.0,0.819007436314,-0.573683749454,-0.00972223102364,0.0,-0.00465557581976,0.0102995051975,-0.999936120863,0.0,0.26640038247,-0.258860415812,0.305833117376,1.0,-0.00435,-0.00571714285715,3.095
-0.643066163904,-0.520912660649,-0.124685612324,-2.63989060547,-0.0671507638346,2.11090610397,-0.89047791027,-0.0223516280853,0.00111843812639,-0.000749648751049,0.00119130277338,-0.000675369662459,-0.000382497024977,-0.0188200364574,0.573760864407,0.818990858972,0.00576110200975,0.0,0.818997954917,-0.573697559713,-0.00970601469973,0.0,-0.00464409656512,0.0102874602136,-0.999936298236,0.0,0.266345157821,-0.258933310081,0.305839783019,1.0,-0.00411,-0.00540171428572,3.107
-0.643453467468,-0.520883787481,-0.124675700689,-2.63984981761,-0.0671313911682,2.11091716522,-0.890836910752,-0.0202456233929,0.00225802167423,0.00373313550504,0.00181739163016,0.000551337910556,0.000117971577933,-0.0218556054399,0.57378171605,0.818976201825,0.00576802152103,0.0,0.818983533404,-0.573718741384,-0.00967081686991,0.0,-0.00461103559807,0.0102730503333,-0.999936599384,0.0,0.266256712245,-0.259047899827,0.305851232275,1.0,-0.00369,-0.00484971428572,3.128
-0.643704622047,-0.520876612086,-0.12466119157,-2.63983821298,-0.0671237833272,2.11092570212,-0.891075237651,-0.0202036179268,1.92704621219e-05,0.00392714601275,-0.00126545107156,0.001434113479,0.000546253778498,-0.0107877395417,0.573791301049,0.818969476747,0.00576939322503,0.0,0.818976848228,-0.573728376035,-0.00966537632947,0.0,-0.00460567226287,0.0102711060895,-0.999936644074,0.0,0.266201885128,-0.259110644501,0.305852626005,1.0,-0.00343,-0.00450800000001,3.141
-0.64402074083,-0.520854915386,-0.124617211463,-2.63980994287,-0.0671014781235,2.11093594876,-0.891371857994,-0.0143350515367,-0.00118838161125,0.00124329188895,0.0024726978765,-4.87204071323e-05,0.000171599273306,-0.0186302483385,0.573786991428,0.818972527398,0.00576495758021,0.0,0.818979942187,-0.573724285771,-0.00964598943933,0.0,-0.00459239259797,0.0102563253515,-0.999936856867,0.0,0.266139148647,-0.259191095467,0.305859433034,1.0,-0.00303,-0.00398228571429,3.161
-0.644205549411,-0.520805049679,-0.124585234651,-2.6397770316,-0.0670943563366,2.11094366989,-0.891573323723,-0.0128778017333,0.00151792007098,0.00405860969072,0.000454683578763,0.000965722229981,0.000359693845981,-0.0098774823835,0.573755469046,0.818994694033,0.00575324135517,0.0,0.819001947727,-0.573692731074,-0.00965436863071,0.0,-0.00460637262417,0.0102513600481,-0.99993684348,0.0,0.266106536945,-0.259241148148,0.305857462957,1.0,-0.00277,-0.00364057142858,3.174
-0.64447506374,-0.52073889572,-0.124544272016,-2.6397472074,-0.0670760706032,2.11094919491,-0.891841401216,-0.00967496966655,0.0019000874277,0.000986510437322,0.00169111500893,0.000147226642848,1.57060820231e-06,-0.0114312954869,0.573737073383,0.819007615119,0.00574838277214,0.0,0.819014685066,-0.573674063499,-0.00968304784537,0.0,-0.00463288101679,0.0102637310466,-0.999936594109,0.0,0.266053479045,-0.259309262955,0.30584811568,1.0,-0.00235,-0.00308857142858,3.195
-0.644628150353,-0.520695938441,-0.124527336897,-2.63973397777,-0.0670631118905,2.11095241132,-0.891987221647,-0.014037397407,0.00180145725162,0.00106684729884,-0.000616453692028,0.000606310258678,6.86812989708e-05,-0.00884044010759,0.573737340278,0.819007405612,0.00575159326892,0.0,0.819014392672,-0.573674059058,-0.00970801012367,0.0,-0.00465148188384,0.0102806835108,-0.999936333605,0.0,0.266021230314,-0.259348057518,0.305838992668,1.0,-0.00209,-0.00274685714286,3.208
-0.64480157045,-0.520670796697,-0.124508526781,-2.63973728666,-0.0670525545551,2.11095402684,-0.892162949745,-0.0100839603235,0.000370229432611,-0.000888944494461,-0.000791280232921,-0.000209004536548,0.00173835527181,-0.0116658232498,0.573731887436,0.819011194059,0.0057560617292,0.0,0.819018116298,-0.573668341627,-0.00973169520149,0.0,-0.00466838680161,0.0102979009571,-0.999936077657,0.0,0.265975278204,-0.259393755442,0.305829327681,1.0,-0.00175,-0.00230000000001,3.225
-0.644984039575,-0.520654415824,-0.124481854566,-2.63973277955,-0.0670399933146,2.1109524125,-0.892314053416,-0.0108453765313,0.000230792012851,0.00217494182568,0.00101302777924,0.000265533778108,-0.000474390420483,-0.00695572960929,0.573738976341,0.819006249707,0.00575298779574,0.0,0.819013077877,-0.573675306241,-0.0097451617501,0.0,-0.00468109146774,0.0103031497359,-0.999935964194,0.0,0.265940211673,-0.259429987101,0.305825325934,1.0,-0.00143,-0.00187942857144,3.241
-0.645180946795,-0.520660360052,-0.124454104792,-2.63972146277,-0.067020408259,2.11095950728,-0.892463000465,-0.00884459195499,0.00304600123977,9.70317118493e-05,0.00152998959065,1.82626840284e-05,-0.000606712665956,-0.00475548945596,0.573767407953,0.818986319841,0.00575468382137,0.0,0.818993290487,-0.57370400096,-0.00971886417039,0.0,-0.00465822135255,0.0102896130488,-0.999936210384,0.0,0.265900748026,-0.259478219339,0.305833943184,1.0,-0.00101,-0.00132742857144,3.262
-0.645297085496,-0.520660758775,-0.124439838885,-2.63971777853,-0.0670077441914,2.11096400527,-0.892508035432,-0.0101867635922,-0.00116360807957,-0.000606998244515,0.000870038965046,0.000126273848444,-0.000279039616526,-0.000326265897807,0.573821079587,0.818948694277,0.00575774832991,0.0,0.818955745513,-0.573757758085,-0.00970921368415,0.0,-0.00464788458188,0.0102868906087,-0.999936286496,0.0,0.265876404424,-0.259506244881,0.305836497638,1.0,-0.000750000000005,-0.000985714285721,3.275
-0.645413751079,-0.520647530039,-0.124424878915,-2.63970790327,-0.066988450235,2.11097090565,-0.89258494245,-0.00285103333927,0.000637798403105,-0.00103506799747,0.00100262536104,0.00143793909108,-0.00085987411191,-0.00309301003347,0.573851754464,0.818927143996,0.00576572868765,0.0,0.818934304311,-0.573788450676,-0.00970391650406,0.0,-0.0046385814046,0.0102905606479,-0.999936291933,0.0,0.265854172883,-0.259535269277,0.305837075117,1.0,-0.000330000000005,-0.000433714285721,3.296
-0.645433235336,-0.520644079184,-0.12442645236,-2.63970468937,-0.0669813420137,2.11097368073,-0.892608032895,-0.00118113850274,0.000808821120249,0.000861899595609,-0.000248658770736,0.000227997499174,-0.000310873653917,-0.00626074750223,0.573853101538,0.818926154981,0.00577212642807,0.0,0.818933396439,-0.57378980183,-0.00970063991346,0.0,-0.00463220965028,0.0102939275917,-0.999936286815,0.0,0.265850512749,-0.259541220332,0.305837471934,1.0,-7.00000000051e-05,-9.20000000067e-05,3.309
-0.645433413846,-0.520637343627,-0.124424212575,-2.63970922028,-0.0669679263124,2.11097087193,-0.892615369373,0.0018004254834,0.000975912616827,-0.00105726337668,-0.00210696916113,-0.000466392285977,-7.43931838191e-05,0.00112174398226,0.573844610304,0.818932059511,0.00577858383858,0.0,0.818939331583,-0.573781202283,-0.0097082436491,0.0,-0.0046348384184,0.0103035312547,-0.999936175721,0.0,0.26585311639,-0.259538073533,0.305834997083,1.0,0.0,0.0,3.33
-0.645433397946,-0.520637228003,-0.124409109255,-2.63969891928,-0.0669581045593,2.11097567844,-0.892624129456,0.000648644949614,0.00296749591855,-9.0509943988e-05,0.00215038739244,-0.000321279164421,0.000445521971697,-0.000704842737857,0.573837938347,0.818936706587,0.00578256173021,0.0,0.818944066831,-0.573774618014,-0.00969793927749,0.0,-0.00462420033488,0.0103008384243,-0.999936252718,0.0,0.265857799085,-0.259536721569,0.305838168833,1.0,0.0,0.0,3.343
-0.645435903564,-0.520644385285,-0.124393310505,-2.63970362373,-0.0669444861709,2.11097885752,-0.892622966966,-0.000204042755118,-0.00116987979588,0.000778544270068,-0.00174356509037,0.000689829253781,-0.000118536989381,0.000997496349695,0.573835282529,0.81893854099,0.00578632060165,0.0,0.81894597024,-0.573772012778,-0.00969134056471,0.0,-0.00461667236936,0.0103001153994,-0.99993629495,0.0,0.265861366122,-0.259531890846,0.305839319073,1.0,0.0,0.0,3.364
-0.645438713624,-0.52064224211,-0.124392599083,-2.63970612938,-0.0669440349778,2.110974051,-0.892626309342,0.000149328316266,-0.00228384524298,6.86092016326e-05,-0.00108960741138,0.00174343426995,-8.99384707416e-07,0.00140178935529,0.573834430391,0.818939130997,0.00578732414102,0.0,0.818946527326,-0.573771059669,-0.00970068907737,0.0,-0.00462376379984,0.0103062968271,-0.999936198492,0.0,0.265859444653,-0.259531092764,0.305836993333,1.0,0.0,0.0,3.378
-0.645438713351,-0.520642318675,-0.124387549224,-2.6396958192,-0.066940958658,2.11097486464,-0.892633742146,-0.000990951144767,0.000325256279499,0.000443377309405,0.00214181762739,-0.000208339085416,-5.42553482626e-05,0.000311381544293,0.573826548949,0.818944663253,0.00578594440332,0.0,0.818952096968,-0.573763300969,-0.00968938772573,0.0,-0.00461539866882,0.0102986375028,-0.999936316053,0.0,0.265863319085,-0.259532408956,0.3058419052,1.0,0.0,0.0,3.396
-0.64543345143,-0.520642239203,-0.124386424816,-2.63969861442,-0.0669382145294,2.11097603311,-0.892636570916,0.0011866434488,-0.000991378298276,-0.00204929309602,-0.000882232943494,-4.20387820011e-05,1.98339882675e-05,-0.00070728785114,0.57382016307,0.818949123127,0.00578801218381,0.0,0.818956571008,-0.573756890671,-0.00969082610784,0.0,-0.00461547053176,0.010301120357,-0.999936290146,0.0,0.265864713143,-0.259529933458,0.305840732187,1.0,0.0,0.0,3.409
-0.645433423958,-0.520639495132,-0.124372001324,-2.63969761626,-0.0669342276859,2.11097840987,-0.892638587603,0.00148408143897,-0.000627836378008,0.000320441373935,-0.000452285720064,0.000269711763698,-0.000198354753374,0.000178091599591,0.573810019542,0.818956259163,0.00578393910717,0.0,0.818963667663,-0.573746773338,-0.00969009973558,0.0,-0.00461734032855,0.0102973105585,-0.999936320754,0.0,0.265868752841,-0.259526889981,0.305840721889,1.0,0.0,0.0,3.43
-0.645433423958,-0.520629436242,-0.124365606461,-2.63969774905,-0.0669331605596,2.11097685583,-0.892640972778,-3.48858635909e-05,0.00078551515929,0.00026234518935,-0.000911770582544,0.000223117175937,8.16196012652e-05,-0.000842468386053,0.573804028757,0.818960468792,0.00578221746872,0.0,0.818967804872,-0.57374066964,-0.00970182891597,0.0,-0.0046280101382,0.0103025968229,-0.999936216976,0.0,0.265869739933,-0.259524960719,0.305836972738,1.0,0.0,0.0,3.443
-0.645435851611,-0.520627748284,-0.124363512092,-2.63970353439,-0.0669294370427,2.11098027026,-0.892637473746,2.49124078134e-05,0.000684941185841,0.00113922380517,-0.000932804013244,-9.78115163851e-05,0.000232515302186,0.00379914018523,0.573808719284,0.818957164051,0.00578480980312,0.0,0.818964509927,-0.573745309737,-0.00970556208582,0.0,-0.00462952124169,0.0103068885154,-0.999936165754,0.0,0.265869069176,-0.259523742208,0.305834062286,1.0,0.0,0.0,3.464
-0.645433663358,-0.520630840338,-0.124358558752,-2.63969535638,-0.066928724885,2.11097534886,-0.892647466846,0.0012909334462,-0.000348981342687,-0.000578740473114,0.00112256698593,-4.16793078334e-05,-9.780359507e-05,-0.00115064069807,0.573795902327,0.818966161847,0.00578231124535,0.0,0.818973510203,-0.573732569284,-0.00969924890701,0.0,-0.00462594542677,0.0103011473452,-0.999936241464,0.0,0.265871943983,-0.259523445523,0.305838618795,1.0,0.0,0.0,3.477
-0.645433423995,-0.520625560338,-0.124357730227,-2.63969058326,-0.0669250121757,2.11098088947,-0.89263818605,0.00123495627051,0.00345380163098,0.000194198136821,-1.71677361548e-06,-0.000159353266567,-5.01573448078e-05,0.000713991922889,0.573804540931,0.818960098277,0.00578386873646,0.0,0.81896748743,-0.573741254425,-0.00969403961748,0.0,-0.00462067649589,0.0102994826962,-0.999936282973,0.0,0.265874380624,-0.259524722941,0.305839343101,1.0,0.0,0.0,3.497
-0.645438713781,-0.520633355959,-0.124353173506,-2.63969435998,-0.0669239458885,2.11097632126,-0.892647646517,-0.00137343316574,-0.000596872520668,0.000916418309024,0.00045015525555,-0.000146129027627,-0.000187652049687,-0.00205316882798,0.573798140393,0.818964586404,0.00578335537785,0.0,0.818971967877,-0.573734851972,-0.00969445022455,0.0,-0.00462138785299,0.0102992617384,-0.999936281961,0.0,0.265872665584,-0.259523548238,0.305840212774,1.0,0.0,0.0,3.51
-0.645435956103,-0.52063063778,-0.124360315787,-2.6396983785,-0.0669226042827,2.11097572254,-0.892641881797,-8.31279388578e-05,0.000470621702752,1.69043877722e-06,-0.000565462764803,0.000260649601811,0.000354382658349,-0.000313554471905,0.573806062069,0.818958998261,0.00578871328913,0.0,0.818966402851,-0.573742676058,-0.00970152420624,0.0,-0.00462400771858,0.0103077535566,-0.999936182348,0.0,0.265870871325,-0.259523097867,0.305837163164,1.0,0.0,0.0,3.531
-0.645441125378,-0.520630838097,-0.124363809667,-2.63969827644,-0.0669228226761,2.11097822011,-0.892649379797,-0.000326189030043,0.000981929141476,-0.00081878504519,-0.00144109179376,0.00322835045544,-0.000329262578015,-0.00110352831157,0.573806540783,0.818958653405,0.00579004915242,0.0,0.818966085059,-0.573743178162,-0.00969865649403,0.0,-0.00462088642615,0.0103072048654,-0.999936202433,0.0,0.265869176604,-0.259525639933,0.305837415324,1.0,0.0,0.0,3.544
-0.645441931887,-0.52062782772,-0.124360277788,-2.63969494701,-0.0669224844728,2.11097713563,-0.892648566574,0.000909882203007,0.00104426336366,0.00458773283285,0.00069131977987,-0.000809348692829,0.000357836888724,-0.00117658722717,0.573805676617,0.818959271108,0.00578832014459,0.0,0.818966681027,-0.573742313401,-0.00969948878039,0.0,-0.00462257107006,0.0103062614875,-0.99993620437,0.0,0.265870292933,-0.25952569073,0.305837811788,1.0,0.0,0.0,3.564
-0.645436730916,-0.520630849217,-0.124360049783,-2.63969551585,-0.0669192916367,2.1109796154,-0.892643614406,0.000695280905432,0.000445914344437,-0.000353266568665,-0.00110796578548,3.51282130955e-05,-0.000382607996694,0.000781203170007,0.573806627118,0.818958589184,0.00579057670087,0.0,0.818966046337,-0.573743306809,-0.0096943148561,0.0,-0.00461702668504,0.0103051462225,-0.99993624148,0.0,0.265872304661,-0.25952418304,0.305838886573,1.0,0.0,0.0,3.577
