nelsonifechukwu/NELSON_IML_WORK/CNN-GradCAM/train2dof/data_sample_2022-02-21-08-27-46/robot_state.csv
position_joint1,position_joint2,position_joint3,position_joint4,position_joint5,position_joint6,position_joint7,velocity_joint1,velocity_joint2,velocity_joint3,velocity_joint4,velocity_joint5,velocity_joint6,velocity_joint7,ee_T_00,ee_T_10,ee_T_20,ee_T_30,ee_T_01,ee_T_11,ee_T_21,ee_T_31,ee_T_02,ee_T_12,ee_T_22,ee_T_32,ee_T_03,ee_T_13,ee_T_23,ee_T_33,v_x,v_y,time
0.465076549262,0.547594982268,-0.123984536245,-1.35574118463,0.0794264686644,1.89409234545,0.159151749402,-9.57127446417e-05,0.00182155612602,0.000436173304395,-0.00057892257596,-2.33740608929e-06,-0.000443484600896,-0.000356412245352,0.573769635606,0.819002187505,0.00213752642704,0.0,0.818962209432,-0.573711048742,-0.0117166110472,0.0,-0.00836976869361,0.00847335215478,-0.999929072122,0.0,0.661703907721,0.260895595551,0.303389011802,1.0,0.0,0.0,0.0
0.465070189772,0.547591667723,-0.123989588334,-1.35573890859,0.0794270790695,1.89409400363,0.159153733506,-0.00202928120513,9.25689854174e-05,-0.0013299386726,6.88101136031e-05,0.000179404565826,0.000346673442214,-0.0063620066239,0.573780041019,0.818994884083,0.00214272604392,0.0,0.818954998253,-0.573721458197,-0.0117109410846,0.0,-0.00836203392073,0.00847446361915,-0.999929127416,0.0,0.661707633317,0.260888990106,0.303392755848,1.0,-0.00024,-0.000315428571429,0.013
0.46507268733,0.547581650426,-0.123982147991,-1.35574616656,0.0794263501903,1.89409633416,0.159157242566,0.000553900604991,-0.00345672025425,0.00566587521628,-0.000978266873904,-0.00408409949292,-0.000240397103293,0.000529211821659,0.57377587122,0.818997789342,0.00214885090213,0.0,0.818957948207,-0.573717230367,-0.0117117697008,0.0,-0.00835924164753,0.00847991265403,-0.999929104567,0.0,0.661704379852,0.260894259614,0.303396352434,1.0,-0.00064,-0.000841142857143,0.033
0.465072959247,0.547562934746,-0.12398560015,-1.35576878803,0.0794218480374,1.89409981325,0.159150121792,0.00052036671751,-0.00190997339279,-0.00346133912736,-0.00578989261361,-4.90423583387e-05,0.0010663982991,-0.000564217966841,0.573772262649,0.819000324217,0.00214626369082,0.0,0.81896048784,-0.573713670932,-0.0117085457351,0.0,-0.00835812285206,0.00847590712549,-0.99992914788,0.0,0.661701357039,0.260889508535,0.30339925137,1.0,-0.0009,-0.00118285714286,0.046
0.465076500012,0.547403236924,-0.123982860877,-1.35592135964,0.0794247910008,1.89412741685,0.159146995108,0.000664464262902,-0.0106802526905,0.00037173870561,-0.0136401679381,0.000358707596133,0.00042428026245,0.00012552345305,0.573773897462,0.818999074033,0.00218591521359,0.0,0.818959594728,-0.573714995347,-0.0117061188629,0.0,-0.00833336861583,0.00850700546779,-0.999929090399,0.0,0.661674386151,0.260879778215,0.303442070363,1.0,-0.0013,-0.00170857142857,0.066
0.465065956791,0.547303257697,-0.123982858286,-1.35607152814,0.0794226395328,1.89415950003,0.15914404495,-0.000347415117603,-0.00384809882316,-0.00120634357081,-0.0125742250352,4.31400850368e-05,0.00927524425524,-0.000750490210944,0.573787787915,0.818989371225,0.002175123306,0.0,0.818949661184,-0.573728832493,-0.0117228884847,0.0,-0.00835315093816,0.00850793055011,-0.999928917467,0.0,0.661651866272,0.260858117747,0.303444195399,1.0,-0.00158,-0.00207657142857,0.08
0.465039745046,0.547100648935,-0.123985363941,-1.35632340056,0.079414735604,1.89427909244,0.159139340809,-0.002112498819,-0.0149888397948,-0.000500211090673,-0.0131065522229,-0.000669013307176,0.00213728913847,-0.00102286574149,0.573819258549,0.818967152291,0.00223805452842,0.0,0.818928242731,-0.573760045996,-0.0116914403342,0.0,-0.0082909589542,0.0085417441411,-0.999929146793,0.0,0.661631175355,0.26081893929,0.30347828043,1.0,-0.00198,-0.00260228571429,0.1
0.465023600978,0.546943263594,-0.123979694799,-1.35647820866,0.0794141775712,1.89437549295,0.159134695809,-0.000474518841678,-0.0100082613838,0.000361588496436,-0.0101345899254,0.000420443003202,0.00962088618759,-0.00394943642044,0.573833374261,0.818957009954,0.00232837552459,0.0,0.818919219469,-0.573773773672,-0.0116497009034,0.0,-0.00820480137532,0.00859190406656,-0.999929427719,0.0,0.661621998325,0.260801699587,0.303524258631,1.0,-0.00224,-0.002944,0.113
0.464987901495,0.54668531857,-0.123986151309,-1.35681435354,0.0794044430077,1.89453127964,0.159111305074,-0.00260627138632,-0.0113614085918,-0.00140603853255,-0.0180795590695,2.53515804008e-05,0.00426750633436,-0.000433507781213,0.573864318855,0.818935125107,0.00239818915288,0.0,0.818898221191,-0.57380444486,-0.0116150458357,0.0,-0.00813603406291,0.00862949934294,-0.999929665872,0.0,0.661594119422,0.260746840956,0.303560678562,1.0,-0.00266,-0.003496,0.134
0.464951259823,0.54648268345,-0.123979697389,-1.35711968816,0.0793929577518,1.89464065626,0.159084565919,-0.00537724377433,-0.00807860993884,0.00155273284561,-0.0260547591946,-0.00437492361338,0.00602483306997,-0.00492065981596,0.573881917178,0.818922760147,0.00240934627886,0.0,0.818885905248,-0.573821900007,-0.0116210223102,0.0,-0.00813434061778,0.0086422406615,-0.999929569609,0.0,0.661559951484,0.260698319661,0.303568113608,1.0,-0.00294,-0.003864,0.148
0.464912223015,0.546171638507,-0.123985802174,-1.35758328317,0.0793720108104,1.89480670748,0.158952545116,-0.0021393736878,-0.015100335026,0.000344886293709,-0.0246866240783,-0.000855040759059,0.00774170669883,-0.00362420495871,0.573830349216,0.818958850769,0.00242445191178,0.0,0.818922144736,-0.573770234991,-0.0116183131728,0.0,-0.00812399847287,0.00865254465295,-0.999929564579,0.0,0.661507648485,0.26062589908,0.303582296309,1.0,-0.00332,-0.00436342857143,0.167
0.464877788264,0.545921830867,-0.123984251769,-1.35798090523,0.0793444193673,1.89494573501,0.158928629377,-0.00296562181638,-0.0203672598685,-0.000104400770942,-0.0299475917653,-0.002295027551,0.00837431633059,-0.000380626274996,0.57385274773,0.818943183853,0.00241504552675,0.0,0.818906368444,-0.573792677397,-0.0116219614661,0.0,-0.00813214725591,0.00864715716786,-0.999929544945,0.0,0.661460864957,0.260565070023,0.303581887585,1.0,-0.0036,-0.00473142857143,0.181
0.464810817567,0.545546969663,-0.123984523949,-1.35861765461,0.0792772645354,1.89516256385,0.158863839985,-0.00364063451352,-0.0206991855434,0.000164039075695,-0.0339072983003,-0.00377365440086,0.00816532759605,-0.00131466032839,0.573872425225,0.818929555295,0.00236007044996,0.0,0.818892248902,-0.573812782683,-0.0116241996832,0.0,-0.00816531929268,0.0086036167081,-0.999929650196,0.0,0.661389065854,0.260453797607,0.303562921599,1.0,-0.004,-0.00525714285714,0.201
0.46476774695,0.545250200175,-0.123984606909,-1.35913164043,0.0792459535659,1.89532353099,0.158776531575,-0.000917847867739,-0.0258450669967,0.000402098659117,-0.0372139821418,-0.000520678723957,0.0123056844749,-0.0127871830288,0.573856516233,0.818940839789,0.00231227253875,0.0,0.818902872453,-0.573797004703,-0.0116546035467,0.0,-0.00821781397757,0.0085817620388,-0.999929407955,0.0,0.661323920666,0.260374004445,0.303542286587,1.0,-0.00428,-0.00562514285714,0.215
0.464702806938,0.54480532243,-0.123989252198,-1.35989281865,0.0792260648943,1.89558094221,0.158706952023,-0.00298317228774,-0.0196729668688,-0.000461216980898,-0.0339762746523,-0.00305896734953,0.0160697323316,-0.00165269109461,0.573891261122,0.818916614599,0.00226840078725,0.0,0.818877836278,-0.573831655532,-0.0117075729307,0.0,-0.00828600534172,0.00857658204814,-0.99992888965,0.0,0.661223884601,0.260252644434,0.303514952136,1.0,-0.00468,-0.00615085714286,0.235
0.464650343954,0.544459625351,-0.123992413082,-1.36048849543,0.0791981817705,1.89577916008,0.158629903298,-0.00396198887729,-0.0264989710643,-2.01515656645e-05,-0.0438363772327,-0.00108531856799,0.0194337358228,-0.000483855170743,0.573900901994,0.818909953693,0.0022336819952,0.0,0.818870633467,-0.573841331607,-0.0117370646158,0.0,-0.00832998036843,0.00856517346627,-0.999928622068,0.0,0.66115878588,0.260164360935,0.303495763327,1.0,-0.00494,-0.00649257142857,0.248
0.464573898443,0.543921010843,-0.123987968462,-1.36138331029,0.0791581434198,1.89609648731,0.158500390302,-0.00294898157214,-0.0241939564792,0.00172395582802,-0.0452308453387,-0.000113259248791,0.026294108355,-0.00176733843967,0.573893531237,0.818915186825,0.00220873103347,0.0,0.818875367712,-0.573833877647,-0.0117711477889,0.0,-0.00837228818954,0.00856422589635,-0.999928276841,0.0,0.661051545948,0.26003230968,0.303478345905,1.0,-0.00534,-0.00701828571429,0.268
0.464512206506,0.543498323138,-0.123995626282,-1.36207186863,0.0791206576753,1.89633706082,0.158436283028,-0.0111706029835,-0.033004005585,0.0011328586639,-0.0525525479476,-0.00616402934177,0.0143815924136,-0.00149154378258,0.573925222688,0.818893034877,0.00218702835603,0.0,0.818852911881,-0.573865626573,-0.0117855098782,0.0,-0.0083961732062,0.00855502062969,-0.999928155368,0.0,0.660972085123,0.259921171402,0.303470757736,1.0,-0.00562,-0.00738628571429,0.282
0.464423027805,0.542885725956,-0.123998731002,-1.36308150536,0.0790517878625,1.89669239323,0.158296397094,-0.00446828102916,-0.0324852255673,0.000134528387923,-0.0513928854247,-0.0028346615439,0.020090566322,-0.010554810125,0.573923644075,0.818894250219,0.00214584028138,0.0,0.8188536413,-0.573864258632,-0.0118014277141,0.0,-0.00843286261597,0.00853041176388,-0.999928056864,0.0,0.660854324391,0.259761600544,0.303454404699,1.0,-0.00602,-0.007912,0.302
0.464363071064,0.542405650527,-0.123999285427,-1.36383029464,0.0790111217658,1.89695473532,0.158195090437,-0.00655405097245,-0.0333256038808,-4.79425811276e-05,-0.057148233431,-0.00268630835247,0.0190201658883,-0.0120012111069,0.573920855588,0.818896211584,0.00214314608803,0.0,0.818855502803,-0.573861415483,-0.0118105144202,0.0,-0.00844187920026,0.00853339180273,-0.999927955355,0.0,0.660764726986,0.259650305161,0.303460287915,1.0,-0.0063,-0.00828,0.316
0.464285207888,0.541851682672,-0.124002054904,-1.36469838333,0.0789608278246,1.89727987536,0.158094745162,-0.00242766405412,-0.0324186129608,-0.000140220823003,-0.0547026545554,-0.000289305981644,0.0234172612849,-0.00267963824287,0.573939217601,0.818883318339,0.00215228888952,0.0,0.818842721694,-0.573879732582,-0.0118066321255,0.0,-0.00843326148736,0.00853883969587,-0.999927981565,0.0,0.660667687475,0.259515413626,0.303467099022,1.0,-0.00662,-0.00870057142857,0.332
0.464200833144,0.541222969259,-0.12400522477,-1.3656627106,0.0788975823255,1.89763683901,0.157968758994,-0.00399177801255,-0.039657875976,0.000753347676679,-0.055744701002,-0.00337698885905,0.0236165479137,-0.00548266836561,0.573943968366,0.818879950218,0.0021668428154,0.0,0.818839595124,-0.57388447905,-0.0117927547029,0.0,-0.00841349490958,0.00854284160197,-0.999928113897,0.0,0.660559124967,0.259365619783,0.303483629738,1.0,-0.00696,-0.00914742857143,0.349
0.464107014341,0.540580553271,-0.124005915573,-1.36664462996,0.07884513249,1.89799871045,0.157827293418,-0.00405447245694,-0.0389011152262,0.000543538978131,-0.0619293011283,-0.00531291824078,0.0216640589879,-0.014580661999,0.573946400145,0.818878183042,0.0021904335708,0.0,0.818838100175,-0.57388678404,-0.0117843840783,0.0,-0.00839307573739,0.0085573800394,-0.999928161183,0.0,0.660443643536,0.259200287507,0.303500950831,1.0,-0.0073,-0.00959428571429,0.366
0.464009809566,0.539817296073,-0.124016907082,-1.36781111196,0.0787761604052,1.89843472115,0.157707237419,-0.00310901279423,-0.0415143766272,-0.00347160129455,-0.0717532973023,-0.00403303920067,0.0317824760927,-0.00276248496119,0.57398096544,0.818853888741,0.00221519912727,0.0,0.818814133203,-0.573921255294,-0.0117709340946,0.0,-0.00836748639368,0.00857029347372,-0.999928265048,0.0,0.66031808419,0.259030627997,0.303524070297,1.0,-0.00764,-0.0100411428571,0.383
0.463912125293,0.539115793315,-0.124019760325,-1.36889723526,0.0787055788724,1.89883992176,0.157562396549,-0.008335847079,-0.0440880028916,-0.000539604549349,-0.0644213083451,-0.000355063098363,0.0203381007135,-0.00114520927092,0.573985538902,0.818850645668,0.00222892812196,0.0,0.818811120273,-0.57392582878,-0.0117575200772,0.0,-0.00834857422293,0.00857388270404,-0.999928392358,0.0,0.660196140511,0.258860842907,0.303537936547,1.0,-0.00796,-0.0104617142857,0.399
0.463810349073,0.538358591596,-0.124023703489,-1.37006669521,0.0786500878072,1.89929882958,0.157411783981,-0.00255223185849,-0.0438985629947,0.000365489637927,-0.0722034547704,-0.000617318405888,0.0333398466165,-0.00642351509134,0.573998225584,0.818841626668,0.00227472258552,0.0,0.81880260584,-0.573938247124,-0.0117442776942,0.0,-0.00831131317626,0.00860390898973,-0.999928444852,0.0,0.660067351198,0.258684652174,0.30355609887,1.0,-0.0083,-0.0109085714286,0.416
0.463701783535,0.537576461338,-0.124027933988,-1.37130345005,0.0785722377198,1.89976840387,0.157264856536,-0.0038169985647,-0.0496881630991,-0.000976230303162,-0.0765159968246,-0.00915361276431,0.0269953589986,-0.00540431152953,0.574017241348,0.818828272681,0.00228328595986,0.0,0.818789414506,-0.573957281609,-0.0117337326457,0.0,-0.00829756318553,0.00860506089232,-0.999928549133,0.0,0.659928575328,0.258493278428,0.303560605056,1.0,-0.00864,-0.0113554285714,0.433
0.463595190443,0.536747419149,-0.124039510482,-1.37258539927,0.0784926858774,1.90025241491,0.157112931204,-0.0100378275606,-0.0561887710783,-0.00271132669778,-0.0748044943847,-0.000397229619653,0.033465538628,-0.00637853016106,0.574037584851,0.818813950266,0.00230497913033,0.0,0.818775448958,-0.573977619725,-0.0117133743968,0.0,-0.00826822711506,0.00861134326653,-0.999928738055,0.0,0.659784429298,0.258294912935,0.303578067804,1.0,-0.00898,-0.0118022857143,0.45
0.463490255803,0.535907017805,-0.124044857455,-1.37391189405,0.078415271575,1.90074176518,0.15694123624,-0.00349230193368,-0.0561375209385,-0.000706786437448,-0.0762698517784,-0.00392877274284,0.0206538846508,-0.00726154869063,0.574038878092,0.818813037075,0.00230730506598,0.0,0.818774549748,-0.573978887272,-0.0117141176431,0.0,-0.00826748702441,0.0086136874564,-0.999928723983,0.0,0.659629047169,0.258096839993,0.303582459953,1.0,-0.00932,-0.0122491428571,0.467
0.463378772914,0.535055690898,-0.124037783081,-1.37525424982,0.0783422292002,1.90122307437,0.156776661812,-0.00612219571697,-0.0547298669496,-0.00061317451373,-0.0842913909433,-0.00059816701928,0.0311049167677,-0.00911141881092,0.574044458128,0.8188091314,0.0023050661773,0.0,0.818770474261,-0.573984328402,-0.0117323539162,0.0,-0.00828364614352,0.00862237888107,-0.999928515339,0.0,0.659466963172,0.257900099141,0.303585756568,1.0,-0.00964,-0.0126697142857,0.483
0.463254957257,0.53416298448,-0.124045669418,-1.37669627338,0.0782671314895,1.90174868496,0.156610445644,-0.00927538373827,-0.0588228986572,-0.00103695529906,-0.0840995890608,-0.00853294902171,0.0359962442352,-0.0150725485657,0.574074209181,0.81878831972,0.00228839358279,0.0,0.818749349607,-0.574014038249,-0.0117530129467,0.0,-0.00830981967048,0.00862088834923,-0.999928311021,0.0,0.659298029579,0.2576779379,0.303574985135,1.0,-0.00998,-0.0131165714286,0.5
0.463127081582,0.533253852113,-0.12404106449,-1.3781629521,0.0781742578008,1.90229780047,0.1564263177,-0.00944085401125,-0.055236895818,0.000611387958487,-0.0869911557345,-0.00301013186816,0.0317578049004,-0.0101387883507,0.574080311362,0.818784069285,0.00227835309474,0.0,0.818744971697,-0.574020180722,-0.0117579907627,0.0,-0.00831959504613,0.00861558701488,-0.999928275427,0.0,0.659127291903,0.257456391234,0.303565487676,1.0,-0.01032,-0.0135634285714,0.517
0.46300746281,0.532313458762,-0.124044283392,-1.37969349376,0.0780992321862,1.90287564493,0.156236381701,-0.0052731022876,-0.0625401205966,0.000832842336303,-0.0868643348686,-0.000296060235812,0.030793438662,-0.00611218015905,0.574088646449,0.818778235606,0.00227460280167,0.0,0.818738943411,-0.574028378059,-0.0117775475476,0.0,-0.00833767356989,0.00862382826004,-0.999928053805,0.0,0.658946529162,0.257233411935,0.303550237935,1.0,-0.01066,-0.0140102857143,0.534
0.462873101876,0.531343376894,-0.124046765108,-1.3812740222,0.0779967497823,1.90345071323,0.1560341842,-0.00434296179184,-0.0546749937617,0.000549136448958,-0.0924218930205,-0.00155885496963,0.0321067895086,-0.0141297146445,0.574093466404,0.818774954681,0.00223882136214,0.0,0.818735231579,-0.574033369823,-0.0117922772549,0.0,-0.00837022425682,0.0086030368876,-0.999927960956,0.0,0.658759058543,0.256991022201,0.303531608579,1.0,-0.011,-0.0144571428571,0.551
0.462736874016,0.530388539814,-0.124041400733,-1.38283248817,0.077888973602,1.90398718312,0.155836835815,-0.00889121778881,-0.0570757099231,0.00105078365812,-0.095939241761,-0.00367118861752,0.0341829332828,-0.0076036160171,0.574095210596,0.818773902382,0.00217551163066,0.0,0.818733368986,-0.574035373132,-0.0118240350363,0.0,-0.00843255303073,0.0085694508394,-0.999927725669,0.0,0.658567171537,0.256750956712,0.303508913966,1.0,-0.01132,-0.0148777142857,0.567
0.462602040356,0.529345335434,-0.124047837228,-1.38447764498,0.0777962947258,1.90459565563,0.155618746964,-0.00867510071261,-0.0587781136351,0.000746103642495,-0.0999589568395,-0.00786046179147,0.0361131047407,-0.0141193191475,0.574096022922,0.818773313831,0.00218264158888,0.0,0.818732818705,-0.574036101998,-0.0118267527547,0.0,-0.00843067679176,0.00857685715193,-0.99992767799,0.0,0.658372799239,0.256503139836,0.303513641226,1.0,-0.01166,-0.0153245714286,0.584
0.462469594754,0.52825938943,-0.124050567403,-1.38616030658,0.0776792635071,1.9052328223,0.155383035422,-0.0106273231269,-0.0613144084316,-0.00014954020188,-0.0978749189357,-0.010696855596,0.042680493681,-0.0163692519612,0.574073093872,0.818789324049,0.00220740021813,0.0,0.818749293788,-0.574013225018,-0.0117965387722,0.0,-0.0083919646606,0.00857954806252,-0.999927980549,0.0,0.658175915365,0.256253208152,0.303532681525,1.0,-0.012,-0.0157714285714,0.601
0.462325977851,0.527147517938,-0.124056456868,-1.38788410434,0.0775794632484,1.90590252384,0.155135940425,-0.00325007318617,-0.0673636615826,0.00018167062096,-0.100078547128,-0.00353811752074,0.0374464280134,-0.012681331092,0.574059077351,0.818799017712,0.0022563702945,0.0,0.81875962977,-0.573999028011,-0.0117699364313,0.0,-0.00834221864615,0.00860422941324,-0.999928184733,0.0,0.65797871522,0.255994535247,0.303553084912,1.0,-0.01234,-0.0162182857143,0.618
0.462184034173,0.526049402214,-0.124058890115,-1.38958923851,0.0774722582749,1.90654126148,0.154903781547,-0.00629849215494,-0.0716664024148,-0.00172579957106,-0.109021100695,-0.00173208380097,0.0402881369724,-0.0117289137404,0.574050065876,0.81880526969,0.00228015283634,0.0,0.818766222416,-0.573989960064,-0.0117535389213,0.0,-0.00831523486485,0.0086141977664,-0.999928323664,0.0,0.65777801987,0.255737763475,0.303569599519,1.0,-0.01266,-0.0166388571429,0.634
0.462033203681,0.524890523985,-0.124065247259,-1.39142753313,0.0773611678927,1.90719635495,0.154660187788,-0.0100873628914,-0.0735513621372,0.000979005432803,-0.110658923233,-0.00291188337771,0.0316383506302,-0.0140652546918,0.574047497668,0.818807130782,0.00225829633192,0.0,0.818767762723,-0.573987437109,-0.0117694378465,0.0,-0.00834082649698,0.00860540226066,-0.999928186254,0.0,0.657553768797,0.255458386821,0.303566756067,1.0,-0.013,-0.0170857142857,0.651
0.461869815506,0.523632743207,-0.124074413031,-1.39343427474,0.0772213828196,1.90791744267,0.154378103935,-0.0121562819848,-0.0723965241599,-0.0011576505789,-0.113565389858,-0.00505665705245,0.0380210343489,-0.0169420058063,0.574026679985,0.8188218236,0.00222233286807,0.0,0.818782125729,-0.573966900942,-0.0117717505787,0.0,-0.00836358179154,0.00857707046728,-0.999928239606,0.0,0.657310494924,0.255150322193,0.303558747404,1.0,-0.01336,-0.0175588571429,0.669
0.461716411938,0.522494212145,-0.124072227026,-1.39524317855,0.0771209050167,1.90861813804,0.154141559657,-0.0060568019608,-0.0719587209368,0.000232960144005,-0.113880975989,-0.0102572480824,0.0410129351212,-0.0170724388767,0.574027154912,0.81882141109,0.00225145861339,0.0,0.818782012526,-0.573967183099,-0.011765865438,0.0,-0.00834203979253,0.00859754560642,-0.999928243716,0.0,0.65709865452,0.254882285918,0.303558675077,1.0,-0.01368,-0.0179794285714,0.685
0.461548345858,0.52125864875,-0.124074809062,-1.39722219523,0.0769962341011,1.90938369499,0.153872912608,-0.0112242438227,-0.0680104979173,0.000686785085276,-0.121494498603,-0.0023060324873,0.0381363634228,-0.0135031962061,0.574018997662,0.818827093673,0.00226448488324,0.0,0.818787926409,-0.573959041416,-0.0117514783857,0.0,-0.00832286756104,0.0085998703001,-0.999928383489,0.0,0.656867766739,0.254583467404,0.303551265248,1.0,-0.01402,-0.0184262857143,0.702
0.461387960323,0.520041855383,-0.124086389585,-1.39913042448,0.0768823679596,1.91008876061,0.153619157521,-0.00954071988812,-0.0761558770006,-0.000737545631055,-0.121121171184,-0.00451043536659,0.038181814566,-0.0175913642929,0.57402175919,0.818825131414,0.00227399262502,0.0,0.818786091774,-0.57396177092,-0.0117459926078,0.0,-0.00831288915545,0.0086045345383,-0.999928426368,0.0,0.656639839462,0.254290308862,0.303559050447,1.0,-0.01434,-0.0188468571429,0.718
0.461225903192,0.518689426088,-0.124087640662,-1.40120857313,0.0767437122071,1.91082286117,0.153346680291,-0.00862809089875,-0.0830786668792,-0.000495890769127,-0.124579553361,-0.0118338147147,0.0467061057651,-0.013227467917,0.574004904109,0.818836942368,0.002275692124,0.0,0.818797958794,-0.573944946703,-0.0117408573236,0.0,-0.00830788566937,0.00860280737888,-0.999928482813,0.0,0.656379880128,0.253981748574,0.30358294595,1.0,-0.01468,-0.0192937142857,0.735
0.461041966894,0.517348431318,-0.124096854535,-1.40331778111,0.0765983352224,1.91159378571,0.153049938642,-0.00788129978518,-0.0750440950554,-0.00206841456618,-0.120989240615,-0.0082507148004,0.0511330082183,-0.00609323089933,0.573991455623,0.8188463956,0.00226631528901,0.0,0.818807432274,-0.573931682121,-0.011728598023,0.0,-0.00830336993612,0.00858795619892,-0.999928647982,0.0,0.656126601143,0.253651800635,0.303587098105,1.0,-0.01502,-0.0197405714286,0.752
0.460854719603,0.515983902533,-0.124103074027,-1.40546576453,0.0764679657687,1.91238458499,0.15275524171,-0.00927134727842,-0.0793497048653,-0.000207878255585,-0.126832163153,-0.00364838372864,0.0449498946751,-0.0148866474481,0.573986220177,0.818850052844,0.00227088224546,0.0,0.818811131046,-0.573926411783,-0.0117282749666,0.0,-0.00830053908853,0.00859145728932,-0.99992864141,0.0,0.655867281995,0.253320933336,0.303590552045,1.0,-0.01536,-0.0201874285714,0.769
0.460678737352,0.514682245455,-0.124104305905,-1.40753492571,0.0763402440801,1.91317148829,0.152465595865,-0.0109963702,-0.0846620344555,0.000337249509987,-0.130619397027,-0.00878125448194,0.045370003845,-0.0193401507705,0.573968762216,0.818862264892,0.00227992063114,0.0,0.818823449776,-0.573908911028,-0.0117246254469,0.0,-0.00829254623901,0.00859658674254,-0.999928663642,0.0,0.655601890834,0.252990588936,0.303581971063,1.0,-0.0157,-0.0206342857143,0.786
0.460482258872,0.513208294119,-0.124107448081,-1.40993200534,0.0762038101996,1.91400997374,0.15214104719,-0.0152578024252,-0.0785334058945,-0.00106498494025,-0.133792746102,-0.0102483173766,0.048469566601,-0.0208317950579,0.573955119333,0.818872000011,0.00221709066485,0.0,0.818832202451,-0.573895336891,-0.0117776663622,0.0,-0.00837218440593,0.00857544223834,-0.99992818158,0.0,0.655313532189,0.25264826093,0.303551391683,1.0,-0.01604,-0.0210811428571,0.803
0.460279489255,0.511780220561,-0.124109169556,-1.41221865372,0.0760637940697,1.91481517935,0.151822078852,-0.011958561679,-0.084189927168,0.000287210386673,-0.134903850299,-0.00827880019778,0.0571366867384,-0.0204030835699,0.573942933132,0.818880663172,0.00217161055851,0.0,0.818840183358,-0.57388323575,-0.0118123979271,0.0,-0.00842685559716,0.0085580090697,-0.999927871692,0.0,0.655026662218,0.252293889651,0.303533200432,1.0,-0.01638,-0.021528,0.82
0.46008752567,0.510400149679,-0.124113113493,-1.41440755523,0.0759252862273,1.91565441478,0.151504611312,-0.0131383955579,-0.081795758523,0.00113636264098,-0.132216343612,-0.0119591505738,0.0543826072972,-0.0227110283599,0.573915350509,0.818899922822,0.00219857968904,0.0,0.818859851135,-0.573855610106,-0.0117910919761,0.0,-0.00839421863514,0.00856758227374,-0.999928064226,0.0,0.6547493825,0.25194387907,0.303530778696,1.0,-0.01672,-0.0219748571429,0.837
0.459889557447,0.508916286429,-0.12411884518,-1.41675683077,0.0757695879067,1.91651990185,0.15118295839,-0.0145536608636,-0.0865153149984,0.000433232422617,-0.14820560459,-0.0139005384972,0.0536424138136,-0.0220864159131,0.573902942582,0.818908659804,0.0021831845383,0.0,0.818868470148,-0.573843347091,-0.0117893383276,0.0,-0.00840174708676,0.00855384162822,-0.999928118636,0.0,0.654475905913,0.251600230278,0.303525926344,1.0,-0.01704,-0.0223954285714,0.853
0.459729913326,0.507770893209,-0.12411388452,-1.4185740949,0.0756557828763,1.91716207609,0.150924268001,-0.0133057324277,-0.0910464110958,0.00107268469945,-0.137391595286,-0.0075686048533,0.0508985584802,-0.0263366362321,0.573881649036,0.818923648048,0.00215834841517,0.0,0.818883055782,-0.573822072008,-0.0118117538919,0.0,-0.00843457901905,0.00854614828697,-0.999927908014,0.0,0.654244892343,0.251323347279,0.303517701063,1.0,-0.0173,-0.0227371428571,0.866
0.459479028073,0.505948300657,-0.124129742547,-1.42142519718,0.0754869091463,1.91821514321,0.150537432741,-0.0120943236438,-0.0941927975455,-0.00114409282576,-0.14690278343,-0.00742462640288,0.0497397992824,-0.0157317139377,0.57388358824,0.818922236417,0.00217824534422,0.0,0.818881870102,-0.573823899935,-0.0118051506634,0.0,-0.00841773321149,0.00855867262439,-0.999927942849,0.0,0.653896020748,0.250879854277,0.30352676484,1.0,-0.0177,-0.0232628571429,0.886
0.459258627166,0.504325908038,-0.124131198977,-1.42389063447,0.0753262448698,1.91917641223,0.150191464567,-0.00857138175919,-0.0974936818552,0.000634493410937,-0.144301593681,-0.00874899779258,0.048417197013,-0.0189970677152,0.573865562634,0.81893461378,0.00227184443066,0.0,0.818895581898,-0.573805638648,-0.0117414609508,0.0,-0.00831205167729,0.00859858901121,-0.999928484475,0.0,0.653603443411,0.250502994993,0.303570274746,1.0,-0.01804,-0.0237097142857,0.903
0.459023615033,0.502662337712,-0.124134087488,-1.42637896445,0.0751632745368,1.92011863956,0.149852705671,-0.0132618765032,-0.0973726520332,0.000661963364426,-0.143111501495,-0.00917553774131,0.0583948497852,-0.016578025749,0.573866266528,0.818933854331,0.00236585581045,0.0,0.818896138991,-0.573806094147,-0.0116801869279,0.0,-0.0082079160461,0.00864042180816,-0.999928984091,0.0,0.653305672159,0.250112046737,0.303629375586,1.0,-0.01838,-0.0241565714286,0.92
0.458791690958,0.500956790202,-0.124140468793,-1.42894170271,0.0749987878463,1.92101960418,0.149488455371,-0.0147014218094,-0.097515099553,0.00189551264935,-0.156533966076,-0.0113596835902,0.0512483683253,-0.0221630980783,0.573848598902,0.818946131421,0.00240130580515,0.0,0.81890886008,-0.573788283383,-0.0116632600936,0.0,-0.00817389797043,0.00865956278634,-0.999929097169,0.0,0.652981815363,0.249709964117,0.303678243103,1.0,-0.01872,-0.0246034285714,0.937
0.458549638484,0.499248047081,-0.124138039111,-1.43153565877,0.0748404831505,1.92195899295,0.149125296122,-0.0116345563974,-0.104325171797,0.000792917852708,-0.154934925553,-0.00651271480882,0.0579331778672,-0.0180040272986,0.573836905523,0.818954179473,0.00245044570799,0.0,0.818917454781,-0.573776318804,-0.0116483962782,0.0,-0.0081336516964,0.00869115976859,-0.999929151216,0.0,0.652657262406,0.249306420914,0.303716913338,1.0,-0.01906,-0.0250502857143,0.954
0.458301459995,0.497675925912,-0.124142250841,-1.43402764066,0.0746842257162,1.92288559816,0.148758783906,-0.0133358953524,-0.100745829941,-0.00013080208097,-0.157381664556,-0.0100653618283,0.0585226653824,-0.0218312065349,0.573827396675,0.818960835671,0.00245262391535,0.0,0.818924137718,-0.573766801763,-0.0116473498955,0.0,-0.00813164578333,0.00869224874646,-0.999929158065,0.0,0.652352960875,0.248904849568,0.303707447917,1.0,-0.01938,-0.0254708571429,0.97
0.458042483337,0.495997624014,-0.124139818661,-1.4367118031,0.0745206336694,1.92383363505,0.148365053038,-0.0142379242588,-0.100987547231,1.27558247527e-05,-0.156176250696,-0.0142255345743,0.0602001039655,-0.0193272790726,0.573806717512,0.818975463484,0.00240583669024,0.0,0.818938010325,-0.573746135896,-0.0116898969255,0.0,-0.00819355699941,0.00867813957625,-0.999928775222,0.0,0.652009662601,0.248479216362,0.303681602056,1.0,-0.01972,-0.0259177142857,0.987
0.457770845983,0.494336358861,-0.124144735548,-1.43944388693,0.0743529837887,1.9247817312,0.147981389686,-0.0198615166061,-0.10262479707,-0.000593081983189,-0.155829459228,-0.00952101841857,0.0543126801074,-0.024723678135,0.573810689676,0.818972981522,0.00230105456022,0.0,0.818934024939,-0.573750346838,-0.0117621937652,0.0,-0.00831284809323,0.00863385061752,-0.999928174011,0.0,0.651658034842,0.24803465927,0.303620774543,1.0,-0.0201874285714,-0.0265320489796,1.004
0.457544492716,0.492886152887,-0.124146411471,-1.44176939334,0.0741966301044,1.92563678289,0.14765973743,-0.0155617495245,-0.107009675862,0.00042094101924,-0.166247841859,-0.00499753367124,0.0619418676149,-0.0204862949241,0.573808174148,0.818974816173,0.00227522662377,0.0,0.818935582408,-0.573747990205,-0.0117687086326,0.0,-0.00833302972299,0.00861641114543,-0.999928156457,0.0,0.651367225219,0.247662490508,0.303597675757,1.0,-0.0211554285714,-0.027804277551,1.018
0.457194316566,0.490704231109,-0.124149387527,-1.44526473635,0.0739778378297,1.92689096008,0.147154931071,-0.0198254371555,-0.106491861471,0.000449264641709,-0.178599534548,-0.00713748308856,0.0571205182821,-0.0256741301203,0.573799109518,0.818981311388,0.0022227045024,0.0,0.81894129438,-0.573739025216,-0.0118082261141,0.0,-0.00839562583539,0.00859597963075,-0.999927808695,0.0,0.650923892491,0.247097111505,0.303560930038,1.0,-0.0225382857143,-0.0296217469388,1.038
0.456878397592,0.488746390384,-0.124164282467,-1.44840267468,0.0737813125572,1.92799597669,0.146707883851,-0.0147471073245,-0.115342764694,-0.000993082914574,-0.187727206007,-0.00454555381,0.0665284653033,-0.0312003216408,0.573805163586,0.818977250226,0.00215516928151,0.0,0.818936285892,-0.57374527379,-0.0118518924271,0.0,-0.00847007515562,0.00856578831777,-0.999927439916,0.0,0.650522961263,0.246580181296,0.303524903534,1.0,-0.0237137142857,-0.0311665959184,1.055
0.456536961201,0.486628516346,-0.124174571532,-1.45164288826,0.073574483898,1.92926806848,0.146230316172,-0.0209988359803,-0.12735166117,-0.00229451422656,-0.195052267332,-0.0147325748533,0.0737984965425,-0.0412116257588,0.573805950186,0.81897637701,0.00227427632254,0.0,0.818937108006,-0.573745746472,-0.0117719343356,0.0,-0.00833624026466,0.00861746115418,-0.999928120647,0.0,0.650138756342,0.246048941702,0.30356459461,1.0,-0.0248891428571,-0.032711444898,1.072
0.456181126045,0.484418477141,-0.124192588409,-1.45500613821,0.0733641880438,1.93049509343,0.145719507836,-0.0169055876379,-0.138427397559,-0.00162194292525,-0.207412518136,-0.0140337227526,0.0693692256685,-0.0314246107248,0.573800696181,0.81897988915,0.00233433754738,0.0,0.818941407476,-0.573740273672,-0.0117395225042,0.0,-0.00827528870084,0.00864799836309,-0.999928363295,0.0,0.649721347538,0.245487253738,0.303604931172,1.0,-0.0260645714286,-0.0342562938776,1.089
0.455792984139,0.482124795851,-0.124226636155,-1.45857843304,0.0731368786422,1.93169532097,0.145185041614,-0.0186563575946,-0.135272340015,-0.000113722133281,-0.215482498631,-0.0164680391753,0.0722420478526,-0.0321160678922,0.573818279675,0.818967769644,0.00226298376697,0.0,0.818928303799,-0.573758065878,-0.01178397124,0.0,-0.00835244826524,0.00861524543266,-0.999928004485,0.0,0.649259733295,0.244867508097,0.303600904696,1.0,-0.02724,-0.0358011428571,1.106
0.455416035237,0.47985835699,-0.124241018563,-1.46206729249,0.0729268244383,1.93299786175,0.144673377045,-0.0221383445805,-0.141361759732,-0.00532386980585,-0.214807090473,-0.017142658981,0.0778938623566,-0.028191138772,0.573831933653,0.818958009568,0.00233182028322,0.0,0.818919389234,-0.573771406014,-0.0117539133469,0.0,-0.00828818925006,0.00865451029211,-0.999928200108,0.0,0.648828172145,0.244285733651,0.303624735902,1.0,-0.0283462857143,-0.0372551183673,1.122
0.455023134348,0.477520942416,-0.124248433808,-1.46562533674,0.0727066067403,1.93430194352,0.144154390154,-0.0240149602501,-0.149611821201,0.000699797834525,-0.223069106587,-0.0186263352924,0.0765344682646,-0.0380083751525,0.573846958056,0.818947274006,0.00240375311185,0.0,0.81890952602,-0.573786095649,-0.0117239726187,0.0,-0.00822223360714,0.00869638977753,-0.999928381275,0.0,0.648382402887,0.243689293923,0.303663413262,1.0,-0.0294525714286,-0.0387090938775,1.138
0.454583166397,0.474964199685,-0.124269392971,-1.46958339465,0.0724616993315,1.93574843242,0.143600828538,-0.0240209963079,-0.151573300852,0.000597981169762,-0.236163014037,-0.0095042046075,0.0868281451557,-0.0375697171295,0.573893758678,0.818914372507,0.00243949860383,0.0,0.818877057073,-0.573832725822,-0.0117096147196,0.0,-0.00818946532951,0.00871789208798,-0.999928462949,0.0,0.647885399323,0.243015996667,0.303675022135,1.0,-0.030628,-0.0402539428571,1.155
0.45419115303,0.472622685707,-0.124276171735,-1.47321320561,0.0722322056388,1.93698997459,0.143075343704,-0.0249528436947,-0.158127569444,-0.00126276561356,-0.245102769561,-0.0171662606076,0.0852225635569,-0.0340019718409,0.57390062573,0.818909671257,0.0024018763116,0.0,0.818871691807,-0.573839544656,-0.0117505849783,0.0,-0.00824453480557,0.00871066429783,-0.9999280734,0.0,0.647404729669,0.242407310154,0.303674356223,1.0,-0.0316651428571,-0.041617044898,1.17
0.453652731786,0.469405677844,-0.12426648242,-1.47813115187,0.0719222090743,1.93882524938,0.142303170622,-0.0276290983383,-0.164407300788,0.000148018022236,-0.24937738542,-0.0092640067843,0.101574405261,-0.0428466693493,0.573852461127,0.818943074173,0.00251813912422,0.0,0.818906510426,-0.573790859762,-0.0117014245839,0.0,-0.00813807209094,0.00877718080706,-0.999928363874,0.0,0.646779192109,0.241600205846,0.303714773193,1.0,-0.033048,-0.0434345142857,1.19
0.453200326938,0.466740152391,-0.124271575608,-1.48219336359,0.0716442254527,1.94033331532,0.141655506323,-0.0297603176901,-0.165535871448,-0.00123556351774,-0.253993321775,-0.015146811522,0.0874379436401,-0.0428297073358,0.573811629749,0.818971425714,0.00260083242559,0.0,0.81893608345,-0.573749901914,-0.0116399389175,0.0,-0.0080407048299,0.00880921744549,-0.999928869847,0.0,0.646297772832,0.240961768442,0.303752320409,1.0,-0.0340851428571,-0.0447976163265,1.205
0.452690709388,0.463810862493,-0.124280638411,-1.4867521753,0.07133805456,1.94186575044,0.140969039244,-0.0279363698154,-0.176298752408,-0.00121485055004,-0.26886970022,-0.0181255356744,0.0938839643769,-0.0434934648938,0.573803898684,0.818977117569,0.00251269848085,0.0,0.818940500506,-0.573742341702,-0.0117016610067,0.0,-0.00814190784856,0.00877237815369,-0.999928374794,0.0,0.645649020153,0.240138504827,0.303734738789,1.0,-0.0353297142857,-0.0464333387755,1.223
0.452190109502,0.460999787967,-0.124276266434,-1.49116732631,0.0710408590072,1.94343109511,0.140316504132,-0.0329198101858,-0.173615354358,0.000612819440884,-0.278465569901,-0.0190783596122,0.0952818057682,-0.0440248578196,0.573800720266,0.818979466126,0.0024727285858,0.0,0.818942265463,-0.573739239636,-0.0117302020834,0.0,-0.00818825087035,0.00875598893415,-0.999928140021,0.0,0.645064546327,0.239392628599,0.303705342012,1.0,-0.036436,-0.0478873142857,1.239
0.451635975029,0.457947937076,-0.124281476303,-1.49588978494,0.0707163614001,1.94510559734,0.13958784441,-0.0306529856159,-0.179222721524,-0.00157996361644,-0.285041667178,-0.0245615001963,0.0963088524937,-0.045733535063,0.573790955044,0.818986332829,0.0024644372099,0.0,0.818949056332,-0.573729540069,-0.0117305109226,0.0,-0.00819336544339,0.00874927804357,-0.999928156867,0.0,0.644443752903,0.238577170738,0.3037030169,1.0,-0.0376114285714,-0.0494321632653,1.256
0.451038716336,0.454848588818,-0.124312680651,-1.50086283952,0.0703843639437,1.94681457279,0.138836096716,-0.0365866025736,-0.193588649221,-0.00090063732269,-0.297710630942,-0.0208966447299,0.104412770932,-0.0417893145578,0.573824564594,0.818963227924,0.00231241831857,0.0,0.818923909976,-0.573763647847,-0.0118174862256,0.0,-0.00835146588703,0.00867502556006,-0.999927495846,0.0,0.643780158337,0.237691758837,0.303616073962,1.0,-0.0387868571429,-0.0509770122449,1.273
0.450478804029,0.451741386611,-0.124362131539,-1.50554595931,0.0700695665669,1.94852183423,0.138083402549,-0.0335428054051,-0.19998167451,-0.00661750443797,-0.293202698528,-0.0256273264545,0.112982065215,-0.0495875531884,0.573830166183,0.818959028844,0.00240756190593,0.0,0.818921180205,-0.573769133017,-0.0117400813226,0.0,-0.00823341940991,0.00870858392101,-0.999928183107,0.0,0.643179716399,0.23685682256,0.30366986954,1.0,-0.0398931428571,-0.0524309877551,1.289
0.449851922687,0.448348986579,-0.124383648064,-1.51063648343,0.0697275005007,1.95034579229,0.137327917179,-0.0387370567788,-0.208603635598,-0.00231772525994,-0.304452821315,-0.0181970316442,0.102918122721,-0.0441296377834,0.573876756755,0.818926088958,0.0025051510758,0.0,0.81888957769,-0.573815437256,-0.0116811993646,0.0,-0.00812870105271,0.0087551794772,-0.999928632979,0.0,0.642513804095,0.235955509021,0.303732159702,1.0,-0.0410685714286,-0.0539758367347,1.306
0.449216615921,0.444888415179,-0.124382315786,-1.51593100982,0.0693615434546,1.95212810782,0.136532158485,-0.0401469095251,-0.2031527919,0.000436817457291,-0.314444450037,-0.0241825932893,0.116478996041,-0.0517358738067,0.57388002135,0.818923950375,0.00245591109568,0.0,0.818886654933,-0.573818724411,-0.0117245379388,0.0,-0.00819241488232,0.00873975917202,-0.9999282479,0.0,0.641782807476,0.235033995397,0.303737238718,1.0,-0.042244,-0.0555206857143,1.323
0.448571762089,0.441404928958,-0.124388267326,-1.52128555075,0.0689789821105,1.95405467247,0.135660001154,-0.037810616466,-0.210737297322,-0.00126888450197,-0.323010731107,-0.0253594361793,0.113156226796,-0.0542781690389,0.573830206544,0.818958773905,0.00248346611094,0.0,0.818921996569,-0.573768987292,-0.0116901522193,0.0,-0.00814897378584,0.00874209580095,-0.999928582443,0.0,0.64106569247,0.234102964482,0.303739368079,1.0,-0.0434194285714,-0.0570655346939,1.34
0.447873861925,0.437889592,-0.124391463479,-1.52678363901,0.0686200498477,1.95598498526,0.13476139583,-0.0403179329247,-0.212982121517,-0.00207900671459,-0.32575981492,-0.0181641218372,0.117906029155,-0.0502935768541,0.573811716641,0.818971860061,0.00243991291535,0.0,0.818934284877,-0.573750410466,-0.0117409728332,0.0,-0.00821578350277,0.00873540429857,-0.999928094221,0.0,0.640318803517,0.233128258418,0.30369263136,1.0,-0.0445948571429,-0.0586103836735,1.357
0.447142115749,0.434180189991,-0.124409171818,-1.5323384022,0.0682328192164,1.95795658981,0.133875643748,-0.0446581855192,-0.222977520638,-0.000267367173263,-0.329873306798,-0.0210117890009,0.11841053317,-0.0529719078246,0.573833460396,0.818956339033,0.0025340460555,0.0,0.818920091242,-0.573771922678,-0.0116795465868,0.0,-0.0081112304032,0.00877746485414,-0.999928579476,0.0,0.639577679273,0.232118602265,0.303751530791,1.0,-0.0457702857143,-0.0601552326531,1.374
0.446444138395,0.430681857511,-0.124430236131,-1.53773743928,0.0678386599872,1.9598288752,0.133015716628,-0.0392284592448,-0.218664072583,-0.00243694047031,-0.34416570017,-0.0254078327834,0.107902008485,-0.0506984463023,0.573845276534,0.818948269196,0.00246533598865,0.0,0.818911285922,-0.573784152355,-0.0116961189005,0.0,-0.00816410279361,0.00873082214488,-0.999928557533,0.0,0.63878942791,0.231070545648,0.303718869166,1.0,-0.0469457142857,-0.0617000816326,1.391
0.445676453747,0.426838836976,-0.124464194648,-1.54368591375,0.067408912764,1.96174410885,0.132065725379,-0.0446716670005,-0.228433510549,-0.00152586740016,-0.346526304514,-0.0200280149965,0.117625323948,-0.0561023143532,0.573848786745,0.818946265253,0.00230900014634,0.0,0.818907165006,-0.573788152439,-0.0117880500693,0.0,-0.00832906301119,0.00865558164096,-0.999927851205,0.0,0.637990561415,0.230044182483,0.303681572275,1.0,-0.048052,-0.0631540571429,1.407
0.44489361963,0.4229292088,-0.124493684565,-1.54957328133,0.0669860238312,1.96382688995,0.131071543464,-0.0440109567177,-0.232271487118,-0.00247034763224,-0.342962771024,-0.0238368411517,0.120118160709,-0.0569803507257,0.573828679583,0.818960158488,0.00237743543284,0.0,0.818922146441,-0.573767998687,-0.0117281137285,0.0,-0.00824092017078,0.00867702960221,-0.999928395632,0.0,0.637189400184,0.228964492744,0.303718327206,1.0,-0.0492274285714,-0.0646989061224,1.424
0.444075314871,0.418964575648,-0.124503949917,-1.55562028546,0.066571276771,1.96593094701,0.130128332061,-0.0498089954969,-0.237304753862,-0.00109124947828,-0.355176024393,-0.0292563485359,0.126665628029,-0.0559249333704,0.573871879665,0.818929850669,0.00239004490761,0.0,0.818891886753,-0.573811024791,-0.0117359507105,0.0,-0.00823964488379,0.00869228783119,-0.99992827362,0.0,0.636349546557,0.227859980137,0.303714330437,1.0,-0.0504028571429,-0.066243755102,1.441
0.443277314128,0.415087132726,-0.12451246159,-1.56131313157,0.0661849050311,1.96801275242,0.129175845401,-0.0522373471651,-0.239634453893,-0.00227335356141,-0.363323790705,-0.0217005894249,0.132435748905,-0.0589019035379,0.573877983329,0.818924906306,0.00260863632896,0.0,0.818889860519,-0.573816434366,-0.0116121872045,0.0,-0.00801278519256,0.00880033384822,-0.999929172191,0.0,0.635532358727,0.226748597431,0.303807399772,1.0,-0.0515782857143,-0.0677886040816,1.458
0.442429784572,0.410953497813,-0.124525747504,-1.56763679033,0.0657396272569,1.97008204767,0.128088228695,-0.0485423428265,-0.23681362742,-0.00221567635202,-0.373685339117,-0.0278487062646,0.116062166272,-0.0678762727752,0.573822155192,0.818964354241,0.00250351661727,0.0,0.818927649554,-0.573760663052,-0.0117027018622,0.0,-0.00814783319022,0.00876563734883,-0.999928385644,0.0,0.634608017158,0.225589533126,0.303783474712,1.0,-0.0527537142857,-0.0693334530612,1.475
0.44155420967,0.406730821706,-0.124546934357,-1.57404844225,0.065273806659,1.97222210117,0.12707060244,-0.0510621981802,-0.252019893264,-0.00381497159457,-0.378660000804,-0.0266868854501,0.12742401872,-0.06337384641,0.573855101627,0.818941432401,0.00244939478947,0.0,0.818903977754,-0.573793752249,-0.0117367797779,0.0,-0.0082064458156,0.00874119838356,-0.999928120266,0.0,0.63373910033,0.224468913145,0.303769813741,1.0,-0.05386,-0.0707874285714,1.491
0.440626913522,0.402514820672,-0.124538937111,-1.58050411401,0.0648451696637,1.97445136133,0.125980398574,-0.0526867836951,-0.256699674329,0.000722514042949,-0.375572816509,-0.0238855541853,0.133934940566,-0.0723321753312,0.573854875086,0.818941588483,0.00245028441782,0.0,0.81890374276,-0.573793093881,-0.011785262386,0.0,-0.00824564397628,0.00876974619973,-0.999927547829,0.0,0.632817130248,0.223275007916,0.303735711575,1.0,-0.0550354285714,-0.072332277551,1.508
0.439658132959,0.398105972296,-0.124561436647,-1.58691715408,0.0643685990402,1.9767873024,0.124863679952,-0.0581872782304,-0.257189670534,0.0010069434007,-0.379116939575,-0.0312924251799,0.134739448643,-0.0643128387705,0.573869402972,0.818930605161,0.00270539528849,0.0,0.818896485235,-0.57380716115,-0.0116032402229,0.0,-0.00795002640992,0.00887435409097,-0.999929018941,0.0,0.631943409019,0.222045340433,0.303855878665,1.0,-0.0562108571429,-0.0738771265306,1.525
0.438678362225,0.393636694908,-0.124574021128,-1.59365392924,0.0638548515148,1.97897520425,0.123756329212,-0.0563209884871,-0.262188954828,-0.000724131419066,-0.403841498342,-0.0310788500041,0.129924446488,-0.0650474867147,0.573889915528,0.818916516574,0.0026173724674,0.0,0.818881233746,-0.573827950021,-0.0116514245761,0.0,-0.00803977734017,0.00883012226822,-0.999928692918,0.0,0.630949348832,0.220766086685,0.303845640546,1.0,-0.0573862857143,-0.0754219755102,1.542
0.437687564688,0.389135554995,-0.12458151535,-1.60045291274,0.0633547504321,1.98116493259,0.122592155548,-0.0577597565086,-0.265139216209,0.000660889804185,-0.400837244591,-0.0298438009069,0.134641235292,-0.0733843104619,0.573872368616,0.818929122571,0.0025186594785,0.0,0.818892310168,-0.573810487517,-0.0117326751055,0.0,-0.0081631532723,0.00879573827708,-0.999927996366,0.0,0.629932230938,0.219480821624,0.303822376432,1.0,-0.0585617142857,-0.0769668244898,1.559
0.436736056625,0.384895888667,-0.124585416886,-1.606888462,0.0628710612676,1.98335864626,0.121402197397,-0.058247330307,-0.266555195468,-0.00148152188948,-0.393318772058,-0.0298271475597,0.142466250171,-0.073820720705,0.573786406269,0.818989414315,0.00249922430189,0.0,0.81895236191,-0.573724620463,-0.0117403448883,0.0,-0.00818150918928,0.0087833650538,-0.999927955108,0.0,0.628988414177,0.21826534093,0.30379235137,1.0,-0.059668,-0.0784208,1.575
0.435691525717,0.380218487537,-0.124589701912,-1.61369116488,0.0623792759285,1.98577589389,0.120216875621,-0.0617172265334,-0.265899041389,-6.43315992569e-05,-0.405248583298,-0.0367350240713,0.143690468224,-0.067048969097,0.573789785347,0.818986288489,0.00273649403787,0.0,0.818952421814,-0.573727280722,-0.0116053893112,0.0,-0.00793480620502,0.00890028361939,-0.999928909374,0.0,0.628015160674,0.216969784673,0.303893826915,1.0,-0.0608434285714,-0.0799656489796,1.592
0.434574684653,0.375551802902,-0.12461441372,-1.6208298051,0.0618169185706,1.98803023439,0.118961850237,-0.0657819508074,-0.279841804864,-0.00273084474395,-0.416684505695,-0.0411373823206,0.138491909836,-0.073853956861,0.573795770308,0.818982773221,0.00252547903881,0.0,0.818946113343,-0.573733943045,-0.0117206202287,0.0,-0.00815018992819,0.00879364286067,-0.999928120541,0.0,0.626932006459,0.21556112932,0.303810902139,1.0,-0.0620188571429,-0.0815104979592,1.609
0.433508529965,0.371025699069,-0.124657682659,-1.62760129388,0.0612954858271,1.99018254509,0.117768004213,-0.0695599053848,-0.290126981973,-0.000381261751717,-0.426601836808,-0.029633449269,0.133167876114,-0.0746891625213,0.573819358537,0.818966545329,0.0024265822122,0.0,0.818928566696,-0.57375785659,-0.0117758885761,0.0,-0.00825194705198,0.00874459868256,-0.999927716069,0.0,0.625906210058,0.214215609783,0.303794429237,1.0,-0.0631251428571,-0.0829644734694,1.625
0.432352324569,0.36616732237,-0.124689059603,-1.63471746746,0.0607473413636,1.9926078779,0.11654632374,-0.0708168749037,-0.287515400347,-0.00227823456908,-0.404593750662,-0.036302954534,0.1536411358,-0.0725814515524,0.573886436095,0.818919191729,0.00254220065836,0.0,0.818882952637,-0.57382475743,-0.0116877945567,0.0,-0.00811273779066,0.00878940076845,-0.999928462401,0.0,0.624859532357,0.212801555743,0.303852322409,1.0,-0.0643005714286,-0.084509322449,1.642
0.43115094639,0.361241344756,-0.124699323866,-1.64183558908,0.0602059967149,1.99510436663,0.115171801672,-0.0731746875048,-0.285742721247,-0.000910882876003,-0.427132825082,-0.0314392526822,0.147945998649,-0.0781077016919,0.573847715677,0.818945550344,0.00278059085371,0.0,0.818912635843,-0.573785486733,-0.0115350323892,0.0,-0.00785125193269,0.00889658425881,-0.999929601838,0.0,0.623824049796,0.21138077998,0.303953286886,1.0,-0.065476,-0.0860541714286,1.659
0.429904000915,0.356285941795,-0.124732724763,-1.64931009626,0.0596492808232,1.99736075498,0.113809482442,-0.0741929927609,-0.291745129241,-0.00214612458996,-0.443684137621,-0.0308724345557,0.13907268748,-0.0787304046003,0.573876611432,0.818926021321,0.00255995228514,0.0,0.818889721721,-0.573814554777,-0.0117144051024,0.0,-0.00812444970273,0.00881911151473,-0.99992810571,0.0,0.622647852584,0.209865561726,0.303879535223,1.0,-0.0666514285714,-0.0875990204082,1.676
0.428710735372,0.351592777799,-0.12477091701,-1.65641011848,0.0591053061064,1.99960859408,0.112523369324,-0.0778346042752,-0.2916143038,-0.00433398368447,-0.43822538015,-0.0300309773845,0.142942106588,-0.0895189035478,0.573910677857,0.818902566972,0.00242209620028,0.0,0.818864243224,-0.573848877655,-0.0118137075168,0.0,-0.00828451772753,0.00876354958654,-0.999927280838,0.0,0.621479117758,0.208338561802,0.303809740829,1.0,-0.0678268571429,-0.0891438693877,1.693
0.427419515071,0.346432728862,-0.124779592667,-1.66379412725,0.0585630840561,2.00215968333,0.111087699944,-0.0780273940329,-0.303733780615,0.000258736074576,-0.437907779133,-0.0248848875425,0.14906837447,-0.088712087769,0.573899228816,0.818909703778,0.00270538793459,0.0,0.818875089478,-0.573836432118,-0.0116655007719,0.0,-0.00800069565986,0.00891036823597,-0.999928294533,0.0,0.620380651414,0.206845363266,0.303922326537,1.0,-0.0690022857143,-0.0906887183673,1.71
0.426019602926,0.34096002138,-0.124786008021,-1.67178810258,0.0579097465453,2.00473322942,0.109625456788,-0.0758176761013,-0.301078830896,0.00112893631924,-0.458973078162,-0.0432215065218,0.138810333099,-0.078960655029,0.573918738748,0.818896044772,0.0027011242908,0.0,0.818861488413,-0.573856080465,-0.0116536950297,0.0,-0.0079932620635,0.00890029196855,-0.999928443722,0.0,0.619199096147,0.205305993921,0.303945107723,1.0,-0.0701777142857,-0.0922335673469,1.727
0.42476033221,0.336054246958,-0.124777507926,-1.67910984292,0.0573130311598,2.00694805487,0.108193157634,-0.0796207838378,-0.30845197654,0.00114367560838,-0.458599600511,-0.0375704960398,0.142565955028,-0.0807799916828,0.573830180004,0.818958687996,0.00251769202699,0.0,0.818921443395,-0.573767856137,-0.0117840448397,0.0,-0.00820623313991,0.00882400244971,-0.999927394723,0.0,0.618010215303,0.20383113781,0.303880786126,1.0,-0.071284,-0.0936875428571,1.743
0.4234000982,0.330763504165,-0.124770718822,-1.68684649559,0.0566732440866,2.009444782,0.106730714046,-0.0831322015462,-0.318913134818,0.000505722793087,-0.445319024289,-0.0419709748891,0.145557377049,-0.0938456218673,0.57379679191,0.818982034784,0.00253282369441,0.0,0.818945083477,-0.573734520358,-0.0117642381304,0.0,-0.00818168881709,0.00882469551306,-0.999927589737,0.0,0.616784553641,0.202266318984,0.303888840776,1.0,-0.0724594285714,-0.0952323918367,1.76
0.421994258578,0.325400398418,-0.124772894437,-1.6944902252,0.0560858820672,2.01204738351,0.105169817786,-0.0828730805356,-0.310466280311,0.000180438140546,-0.454237129525,-0.0362094276186,0.150538044567,-0.0826035896423,0.573737700123,0.819022575455,0.00279629293463,0.0,0.818989122047,-0.573674592317,-0.0116201118814,0.0,-0.00791312410303,0.0089572022154,-0.999928572947,0.0,0.615606156749,0.200697199249,0.30398930155,1.0,-0.0736348571429,-0.0967772408163,1.777
0.420494340984,0.320023301051,-0.124803576275,-1.702479098,0.0554178352419,2.0144430199,0.1036972645,-0.0863304288415,-0.320439218463,-0.00435280875209,-0.474530974284,-0.0409127805461,0.13291804868,-0.0763647589083,0.573827188555,0.818960565993,0.00258764823268,0.0,0.81892424358,-0.573764622017,-0.0117468590926,0.0,-0.00813566999782,0.00885992558007,-0.999927653679,0.0,0.614304750467,0.198997205084,0.303912121217,1.0,-0.0748102857143,-0.0983220897959,1.794
0.41909235585,0.31485977837,-0.124837419186,-1.71004742606,0.0548012190191,2.0167342915,0.102143264269,-0.0877690138562,-0.321898007064,-0.00264222877989,-0.467909408983,-0.0401846088882,0.136087457465,-0.096368934262,0.573770713672,0.819000471711,0.00247838089272,0.0,0.8189624987,-0.573708312459,-0.0118298283965,0.0,-0.00826692648136,0.00881747985412,-0.99992695232,0.0,0.613063370709,0.197404749956,0.30387866525,1.0,-0.0759165714286,-0.0997760653061,1.81
0.417448179186,0.308940644254,-0.124857796607,-1.71836678033,0.0540838698069,2.01954236725,0.100437583194,-0.0852695716615,-0.33272845949,-0.000405092692034,-0.470546131171,-0.0358803908666,0.154684427901,-0.0924474379391,0.57376345699,0.819004611688,0.00277278876989,0.0,0.818971173179,-0.573700786142,-0.011591910271,0.0,-0.00790322903476,0.00892202035859,-0.999928965739,0.0,0.611770204647,0.195619952484,0.304013924726,1.0,-0.0771611428571,-0.101411787755,1.828
0.415836132672,0.303387579082,-0.124882314393,-1.7264670463,0.0534187969412,2.0220210684,0.0987535023383,-0.0931975340564,-0.3263481418,-0.00471144851403,-0.484672520627,-0.0389390060337,0.142943518648,-0.0970152945641,0.573757414477,0.81900912112,0.00268993603339,0.0,0.818974369888,-0.573694760273,-0.0116640646073,0.0,-0.00800992731081,0.00889550348537,-0.999928352974,0.0,0.610360726452,0.193760223375,0.303975890064,1.0,-0.0784057142857,-0.103047510204,1.846
0.414286870576,0.298114627881,-0.124941302631,-1.73425791989,0.0527803355945,2.02427028532,0.0972452729459,-0.0980253425892,-0.331033054911,-0.00302210009096,-0.479924490756,-0.0371234523792,0.141195666335,-0.0958276473143,0.573859990967,0.818937957765,0.00246556285404,0.0,0.818899880043,-0.573797693167,-0.011829652751,0.0,-0.00827317667124,0.00880778312336,-0.999926986087,0.0,0.609130741127,0.192156667082,0.303887257896,1.0,-0.0794428571429,-0.104410612245,1.861
0.412708611505,0.292696676845,-0.124977708252,-1.74186928565,0.0521727663141,2.02672208437,0.0956249285752,-0.102870271186,-0.348394415669,-0.00110900888698,-0.466984544713,-0.0382086221053,0.15795211337,-0.100870246702,0.573880335287,0.818923043002,0.00267531539084,0.0,0.818887724538,-0.573817298546,-0.0117196156525,0.0,-0.00806247629029,0.00891661156533,-0.999927742647,0.0,0.607904474626,0.190484527381,0.303979275144,1.0,-0.0805491428571,-0.105864587755,1.877
0.411003171166,0.286902880926,-0.124995447212,-1.75006112769,0.0514817382376,2.02931364158,0.0938780045958,-0.103852965509,-0.342485931093,-0.000999388073191,-0.486796805702,-0.0334086432564,0.147760717791,-0.10301424074,0.573869254806,0.818930335886,0.00281607081881,0.0,0.818896977791,-0.573805880584,-0.0116317700057,0.0,-0.00790988361155,0.00898135998705,-0.999928381892,0.0,0.606560335679,0.188690872458,0.30404138846,1.0,-0.0817245714286,-0.107409436735,1.894
0.409268571059,0.281092349905,-0.12501240093,-1.75849822875,0.050717079708,2.03170225077,0.092100449802,-0.104475436894,-0.34882645373,0.000187577515861,-0.510277912859,-0.0588275038973,0.152747517295,-0.109314142593,0.573829689185,0.818958829045,0.00258283567198,0.0,0.818922290751,-0.573766973033,-0.0117681464142,0.0,-0.00815583862719,0.00886822424505,-0.999927415813,0.0,0.605098875285,0.186839337121,0.30397286548,1.0,-0.0829,-0.108954285714,1.911
0.407374701733,0.274844972611,-0.125025030447,-1.76732038332,0.0499715439215,2.03445144621,0.0902190950805,-0.110182338515,-0.350124170856,-0.00139247739783,-0.482413793086,-0.0445483899867,0.168874116929,-0.0994831634587,0.573845707277,0.818947186964,0.00271221414549,0.0,0.818912342588,-0.573782538716,-0.011701295754,0.0,-0.00802667666201,0.00893597602271,-0.999927857795,0.0,0.6036237417,0.184888709608,0.304021237446,1.0,-0.0841445714286,-0.110590008163,1.929
0.40564498494,0.269265101143,-0.125054993238,-1.77514444563,0.0492833800955,2.0368944236,0.0884479626554,-0.108741622401,-0.354687376099,-0.00179549845064,-0.500603215172,-0.0403178424773,0.13903325686,-0.107488194751,0.573815928425,0.818967589864,0.0028484976428,0.0,0.818934794504,-0.573752614488,-0.011596836651,0.0,-0.00786325178415,0.0089873564559,-0.999928695806,0.0,0.602318528855,0.183120785272,0.304080692724,1.0,-0.0852508571429,-0.112043983673,1.945
0.403655715052,0.262914870392,-0.125139045595,-1.78426377181,0.0484856929932,2.03943828848,0.0865115944128,-0.109169730619,-0.368078322364,-0.00475651152356,-0.510087471409,-0.0516642620471,0.14359766424,-0.105545344404,0.573896326732,0.818911949745,0.00264038441525,0.0,0.818876108697,-0.573833337334,-0.0117459129208,0.0,-0.00810388387553,0.00890325541004,-0.999927526928,0.0,0.600719810188,0.181037983098,0.304018266702,1.0,-0.0864954285714,-0.113679706122,1.963
0.401955569246,0.257607828034,-0.125157041417,-1.79180737426,0.0478093631851,2.04164691308,0.0848414082592,-0.112437540595,-0.358727694103,-0.000444144352105,-0.494418184295,-0.0467268357303,0.152026835835,-0.116335237569,0.573899642808,0.818909772735,0.00259441827917,0.0,0.818873276453,-0.573836757076,-0.0117762574892,0.0,-0.00815507678285,0.00888306078988,-0.999927290333,0.0,0.599409042922,0.179323030094,0.304000180265,1.0,-0.0875325714286,-0.115042808163,1.978
0.399890836994,0.251104671008,-0.125136478814,-1.80071882123,0.0469914270773,2.04442231387,0.0828135679558,-0.118556480838,-0.351174769647,0.000897163499405,-0.502660379993,-0.041888947615,0.148195096008,-0.12082582927,0.573860415735,0.818936383964,0.00285817672631,0.0,0.818903762209,-0.573797119138,-0.0115862508949,0.0,-0.00784853994871,0.00898963550791,-0.999928790902,0.0,0.597797510659,0.17718814411,0.304124193552,1.0,-0.0888462857143,-0.116769404082,1.997
0.398009923671,0.245394472784,-0.12514925783,-1.80894839368,0.0462935522558,2.04670583088,0.0809335218603,-0.121347051058,-0.349861063788,-0.000332689401981,-0.513900756089,-0.0464149420145,0.14296928201,-0.115134557585,0.573832747029,0.81895638622,0.00267634215223,0.0,0.818920679672,-0.573769269161,-0.0117683079803,0.0,-0.0081022840888,0.00894492464805,-0.999927168006,0.0,0.59640697414,0.175435195025,0.304028947619,1.0,-0.0898834285714,-0.118132506122,2.012
0.395851124302,0.238829330036,-0.125150876731,-1.81818630547,0.0454839729124,2.04931537597,0.0787818279002,-0.122915877243,-0.380473872363,0.0021551829384,-0.501000133402,-0.0402361102114,0.143214328836,-0.117414768509,0.57378172499,0.818992304607,0.00262373066365,0.0,0.818955408754,-0.573717894162,-0.0118559390827,0.0,-0.00820479960927,0.00895161194265,-0.999926272236,0.0,0.594747344563,0.173325512872,0.304007113278,1.0,-0.091128,-0.119768228571,2.03
0.393904471453,0.232848956411,-0.125150729894,-1.82625052195,0.0447601928122,2.05180710971,0.0769394366042,-0.125017088207,-0.367807746085,-0.000955348778825,-0.511795413179,-0.0401448221115,0.150553494041,-0.120953012413,0.573804189732,0.818975482465,0.002942425542,0.0,0.818943111204,-0.573739650047,-0.0116508144633,0.0,-0.0078536964034,0.00909514039029,-0.99992779633,0.0,0.593346365747,0.171467283284,0.304149994864,1.0,-0.0922342857143,-0.121222204082,2.046
0.391622087439,0.226193420127,-0.125170802111,-1.83566067583,0.0438360805571,2.05435660603,0.0746609532336,-0.129665001634,-0.37420402294,-0.00638593004226,-0.528643055471,-0.0541042904256,0.14155652753,-0.121703212378,0.573710743832,0.819041698259,0.00272503687632,0.0,0.819006469989,-0.573646934368,-0.0117619602127,0.0,-0.00807048219912,0.00897995866726,-0.999927111173,0.0,0.591621596558,0.169257189689,0.30407579936,1.0,-0.0934788571428,-0.122857926531,2.064
0.389662410338,0.220598111857,-0.125199289702,-1.84347686003,0.0431205821662,2.05649211031,0.0728033164183,-0.134392755083,-0.378212557188,-0.00417839924117,-0.516456718326,-0.0437083810441,0.146945429442,-0.129750315952,0.573737325278,0.819023341871,0.00264460864761,0.0,0.818986742479,-0.573673448826,-0.0118421559362,0.0,-0.00818201789537,0.00896035880848,-0.999926380567,0.0,0.59019190234,0.167394098411,0.304047720197,1.0,-0.094516,-0.124221028571,2.079
0.38725868994,0.213762143196,-0.125257835022,-1.85267148551,0.0422991775892,2.05928420574,0.0705505954818,-0.135629821364,-0.380213987486,-0.00262946047882,-0.520469245991,-0.047261022257,0.144707142606,-0.118852893533,0.573815914097,0.818967107427,0.00298673456086,0.0,0.81893532454,-0.573751240842,-0.0116273279064,0.0,-0.00780890678789,0.009118063779,-0.999927938347,0.0,0.588578183327,0.165159534341,0.304182550162,1.0,-0.0957605714286,-0.12585675102,2.097
0.385058542366,0.207705745239,-0.125318650924,-1.8611351354,0.041479935108,2.06150863239,0.0684570597555,-0.135770189442,-0.383439420974,-0.00994024482995,-0.528983579876,-0.0490429065455,0.13655973877,-0.133543122919,0.573834586662,0.81895465898,0.00280723843284,0.0,0.818920333801,-0.573770282467,-0.0117429445481,0.0,-0.00800638330691,0.00903758636695,-0.999927107273,0.0,0.587001604773,0.163086952727,0.304122136539,1.0,-0.0968668571428,-0.127310726531,2.113
0.382708073976,0.201218809873,-0.125368764356,-1.87014450769,0.0405899500727,2.06388225317,0.0662068135403,-0.139080182515,-0.387230799849,-9.8981826545e-05,-0.521257382898,-0.0476520492821,0.146137705206,-0.129726457893,0.573817590161,0.818967096994,0.00264842670541,0.0,0.818930599426,-0.573753746132,-0.011834653541,0.0,-0.00817280446267,0.00895998255213,-0.999926459286,0.0,0.585309182709,0.16089309008,0.30407107012,1.0,-0.0980422857143,-0.12885557551,2.13
0.379819622155,0.193445354363,-0.125413902659,-1.88054568032,0.0396117873853,2.0669249437,0.0635440515221,-0.148432442393,-0.383352952622,-0.00543418363107,-0.52445086459,-0.0477866240044,0.146525422221,-0.132511982577,0.573889066541,0.818915931031,0.00296379991688,0.0,0.81888397159,-0.57382460062,-0.0116239278098,0.0,-0.00781846889073,0.00909802849247,-0.999928046122,0.0,0.583428569293,0.15830407675,0.304194479725,1.0,-0.0994251428571,-0.130673044898,2.15
0.377291663015,0.186866140999,-0.125515515586,-1.88965274107,0.0387675674288,2.0692317621,0.0611676565377,-0.147892856418,-0.391477548507,-0.00534957109723,-0.539927492,-0.0543737843698,0.136104816171,-0.130455408084,0.573959151027,0.818867438615,0.00278528802571,0.0,0.818832460055,-0.573894494916,-0.0118007612225,0.0,-0.00806495292661,0.00905401345661,-0.999926487985,0.0,0.581693164562,0.155996538225,0.304122443968,1.0,-0.100600571429,-0.132217893878,2.167
0.374741604916,0.180167097494,-0.125577941467,-1.8986312087,0.0378916640466,2.07166865425,0.0587805603324,-0.148743488821,-0.407402568328,-0.000356734231523,-0.518609176774,-0.0592794047688,0.149440733431,-0.140100417708,0.573984787088,0.818849103769,0.00289073523493,0.0,0.818815645916,-0.573919922341,-0.0117306285206,0.0,-0.00794671710809,0.0091003567624,-0.999927013934,0.0,0.580008917516,0.153725784743,0.304179886657,1.0,-0.101776,-0.133762742857,2.184
0.37218851555,0.173435287243,-0.125553612047,-1.90766971445,0.0369449573727,2.07411507941,0.0564184916981,-0.149068738543,-0.389972033454,0.00116808288789,-0.532501098594,-0.056684584481,0.134916088661,-0.141932561989,0.573928962124,0.818888005917,0.0029541667672,0.0,0.818855807285,-0.573864390281,-0.0116436825408,0.0,-0.00783973180584,0.00910185848793,-0.999927844785,0.0,0.578281509598,0.151500733005,0.304215941468,1.0,-0.102951428571,-0.135307591837,2.201
0.369576389158,0.166705156652,-0.125556486063,-1.9169049257,0.0360368666178,2.07636226921,0.05391347803,-0.156067509676,-0.395517518936,-0.000409798315457,-0.546998904887,-0.0588896787801,0.133334802587,-0.142832088638,0.573836731636,0.818953376356,0.00274220392239,0.0,0.818917662724,-0.573772054495,-0.0118422151928,0.0,-0.00812497856827,0.00904131136165,-0.999926116977,0.0,0.576446281479,0.149216658634,0.304130366673,1.0,-0.104126857143,-0.136852440816,2.218
0.366904234887,0.159843440933,-0.125559297315,-1.92592003842,0.035161207608,2.07879384575,0.0513707697363,-0.15234989162,-0.415308778234,0.00158339429223,-0.524473276174,-0.0585090114333,0.144995908597,-0.14485888633,0.573777630956,0.818994145595,0.00292687479039,0.0,0.818960853706,-0.573712318615,-0.011749147553,0.0,-0.0079434518754,0.00913856987152,-0.999926691369,0.0,0.574811010533,0.147073132203,0.304207716408,1.0,-0.105233142857,-0.138306416327,2.234
0.364287433953,0.15337010447,-0.125564993773,-1.93451821738,0.0342511163592,2.08102193414,0.049005501315,-0.169027995645,-0.395406941529,-0.0009492171375,-0.545455499413,-0.0559768386154,0.122651251825,-0.149950532813,0.573765027576,0.8190026851,0.00300696390079,0.0,0.818970800462,-0.573699867952,-0.0116634644412,0.0,-0.00782746460501,0.00915487988931,-0.999927456855,0.0,0.573035458777,0.144733978866,0.304257279511,1.0,-0.106408571429,-0.139851265306,2.251
0.362119817661,0.148087117001,-0.125590767325,-1.94168818328,0.0335242218424,2.0826427165,0.0470207414721,-0.169949491343,-0.401835914311,-0.00257538908303,-0.549800625847,-0.051671067164,0.126401945955,-0.15542367588,0.573767043718,0.819002040355,0.00279004301309,0.0,0.818966632893,-0.573701845055,-0.0118572378372,0.0,-0.00811060531153,0.00908841941279,-0.999925806605,0.0,0.571573034053,0.142888326096,0.304185498444,1.0,-0.107307428571,-0.141032620408,2.264
0.359238911213,0.141131382534,-0.125627707076,-1.95084739007,0.0326322432383,2.08499326473,0.0444083152772,-0.173304411713,-0.409273311732,-0.00400727325511,-0.525661310446,-0.0524592599084,0.143476476475,-0.154195264314,0.573810444893,0.818971196296,0.00291545386394,0.0,0.818937195969,-0.573744526251,-0.0118251662166,0.0,-0.00801189908075,0.00917315411165,-0.999925828608,0.0,0.569767728114,0.140496812439,0.304227262919,1.0,-0.108482857143,-0.142577469388,2.281
0.356482348822,0.134558054429,-0.125656802113,-1.95943505611,0.0317253448582,2.08727194022,0.0418258772096,-0.178068573832,-0.400402144168,-0.0049819597703,-0.542300442825,-0.0576971331207,0.135152647846,-0.163824192079,0.573747458246,0.819014671671,0.00309332268348,0.0,0.818983515121,-0.573681549348,-0.0116717093594,0.0,-0.00778486894197,0.00923017157246,-0.999927097217,0.0,0.56808471689,0.138233390358,0.304290012576,1.0,-0.109589142857,-0.144031444898,2.297
0.353467422648,0.127542295457,-0.125746042046,-1.96880896988,0.030681522262,2.0893755954,0.0390946312801,-0.175289469188,-0.400444470046,-0.00570509104545,-0.559007698612,-0.0618323061944,0.130925348509,-0.157378784974,0.573770108047,0.818999723351,0.00283957100991,0.0,0.818965094315,-0.573704877934,-0.0118166928416,0.0,-0.00804894739576,0.00910574998233,-0.999926147154,0.0,0.566156379019,0.135715814669,0.304219135347,1.0,-0.110764571429,-0.145576293878,2.314
0.350379977005,0.120400968581,-0.125852605119,-1.97801906076,0.0297093280247,2.09170847263,0.0363879012502,-0.180173395662,-0.427604927096,-0.00424539744514,-0.533973071467,-0.0616943991206,0.149919467279,-0.165913042044,0.573902275439,0.818906319244,0.00306030222611,0.0,0.818875088482,-0.573836874983,-0.0116437654404,0.0,-0.00777918860647,0.00918856564546,-0.999927524617,0.0,0.564215560121,0.133051800597,0.304320146369,1.0,-0.112009142857,-0.147212016327,2.332
0.347204217873,0.113292839543,-0.1258779843,-1.98727269453,0.028734259079,2.09397883308,0.0334943086664,-0.187858880083,-0.411099667531,-0.00315403364179,-0.551711245728,-0.0578386058366,0.117586703235,-0.173618871181,0.573886005572,0.818917541285,0.00310806781884,0.0,0.818886878569,-0.57382038902,-0.0116270440791,0.0,-0.00773826665037,0.00921793131146,-0.999927571863,0.0,0.562442799367,0.130684792693,0.304324299247,1.0,-0.113115428571,-0.148665991837,2.348
0.343452038176,0.104866656173,-0.125884902109,-1.99837420674,0.0274987873521,2.09640323161,0.0301137837021,-0.187651239716,-0.427097496152,0.000153911962518,-0.552269260064,-0.057341035622,0.11678167211,-0.176889842269,0.573830648399,0.818957184863,0.00287458184368,0.0,0.818923020157,-0.573765293859,-0.0117992169535,0.0,-0.00801387249545,0.00912498924447,-0.99992625349,0.0,0.560089908272,0.127714569879,0.304247706834,1.0,-0.114498285714,-0.150483461224,2.368
0.340989801366,0.099284078634,-0.12587994057,-2.00535908846,0.0267695345995,2.09814870041,0.0278383482758,-0.185159881914,-0.429484050931,-0.000356486379611,-0.536550789614,-0.0564373808723,0.135986985933,-0.171376578956,0.573764036215,0.819002844904,0.00314923592961,0.0,0.81897255775,-0.573698112316,-0.0116263699732,0.0,-0.00771546792254,0.00925010885983,-0.999927450889,0.0,0.558659366972,0.125824782087,0.304367745297,1.0,-0.115397142857,-0.151664816327,2.381
0.336896508709,0.0903331341762,-0.125889529735,-2.01698383156,0.0255748230159,2.10070705431,0.024144990485,-0.195904491354,-0.431305029781,-0.00115696739561,-0.562526610003,-0.060248146279,0.111759129586,-0.177195345544,0.573737230311,0.819021852635,0.00308907140214,0.0,0.818989758215,-0.573670293772,-0.0117863006889,0.0,-0.0078812810663,0.0092923362599,-0.999925766192,0.0,0.556175318035,0.122678584477,0.304324824119,1.0,-0.116849142857,-0.153573159184,2.402
0.334266114483,0.0847948101122,-0.125950465818,-2.02424237644,0.0247434603112,2.10220378882,0.0217472039515,-0.203733424024,-0.422629040814,-0.0067355347322,-0.556453040862,-0.0695351400128,0.117084028758,-0.186941253316,0.573708512658,0.819042703051,0.00288790318281,0.0,0.819007596813,-0.573641857894,-0.0119298841197,0.0,-0.00811461862081,0.00920966803472,-0.999924664652,0.0,0.554605167932,0.120640084092,0.304248956546,1.0,-0.117748,-0.154754514286,2.415
0.329958287011,0.0756388597171,-0.12604289643,-2.03561213345,0.0234467143784,2.10492549765,0.017904045295,-0.21008907481,-0.430830782244,-0.00263578922369,-0.552273517639,-0.0650552614915,0.126189338855,-0.187111528231,0.573735954161,0.819022155112,0.00324210432446,0.0,0.81899278757,-0.573669389402,-0.0116186260976,0.0,-0.0076561635826,0.00932146305549,-0.999927244096,0.0,0.552234679029,0.11738774912,0.304414048217,1.0,-0.1192,-0.156662857143,2.436
0.327201778425,0.0700127434725,-0.126099473982,-2.04290929473,0.0226589757634,2.10640907614,0.0154786726081,-0.215533901009,-0.426145237216,-0.00859003471547,-0.553933427822,-0.0626011902981,0.107271091803,-0.186258235448,0.573789673566,0.818985050654,0.00310551357408,0.0,0.818953175221,-0.573722678542,-0.0117784474233,0.0,-0.0078648202158,0.00930180079281,-0.9999258078,0.0,0.550633874259,0.115314625822,0.304344196083,1.0,-0.120098857143,-0.157844212245,2.449
0.322626747996,0.0608341917203,-0.126256065091,-2.05457172005,0.0212847358591,2.10878015823,0.0114464929884,-0.218582081276,-0.439637601333,0.000140005707878,-0.539016076094,-0.0580318444721,0.125937489543,-0.186592447223,0.573880646719,0.81892179649,0.00297345875259,0.0,0.818888114388,-0.5738140062,-0.0118528184102,0.0,-0.00800047310072,0.00923721097072,-0.999925330394,0.0,0.5480847858,0.111883159739,0.30431686678,1.0,-0.121550857143,-0.159752555102,2.47
0.319987935181,0.0555181263467,-0.126289348233,-2.06105803907,0.0205507958757,2.11033791422,0.00910173908867,-0.218667621374,-0.442945964652,0.00489675210526,-0.549879268123,-0.0576657486468,0.121829308878,-0.195205187146,0.573888638558,0.818915091281,0.00326354227552,0.0,0.818885894477,-0.573821853364,-0.0116240840408,0.0,-0.00764659318686,0.00934357839294,-0.999927110921,0.0,0.54671218562,0.109981283556,0.304428178149,1.0,-0.122380571429,-0.160843036735,2.482
0.316229008147,0.0480262960737,-0.126286109501,-2.07056908449,0.0194817698986,2.11218116867,0.00577387112996,-0.219129755617,-0.44093195812,0.000403314279104,-0.55405423897,-0.0611042616688,0.102895283104,-0.193317130438,0.573851725145,0.81894145175,0.00313736426972,0.0,0.8189098138,-0.573784401077,-0.0117866383223,0.0,-0.00785254720635,0.00933318081753,-0.999925611852,0.0,0.544564185366,0.107280754604,0.304370436053,1.0,-0.123556,-0.162387885714,2.499
0.311920690818,0.039564386681,-0.126295668969,-2.08112613823,0.0182607889199,2.11425737817,0.00194773046147,-0.229227090987,-0.452057082556,-0.00269177423174,-0.541105077386,-0.0606926437188,0.117189135792,-0.202607034048,0.573799145653,0.818978360306,0.00311972758896,0.0,0.8189461428,-0.573731475984,-0.0118387313261,0.0,-0.00790593106896,0.00934812277644,-0.999925051619,0.0,0.54218287099,0.104225007377,0.304369355403,1.0,-0.124869714286,-0.164114481633,2.518
0.30842334533,0.0328499989662,-0.126335336541,-2.08931574175,0.0172575724917,2.11603869768,-0.00112812712039,-0.237082616207,-0.444770410445,-0.00151260206953,-0.551922698008,-0.0701375399742,0.117189367079,-0.202186217284,0.573792419989,0.818982304679,0.0033151601203,0.0,0.818953509829,-0.573725153638,-0.0116337321074,0.0,-0.00762597680769,0.00939049011163,-0.99992682891,0.0,0.540377973452,0.10177175247,0.304450335594,1.0,-0.125906857143,-0.165477583673,2.533
0.30511897014,0.0265598692923,-0.126402744536,-2.09715658306,0.0163321855758,2.11740621898,-0.0040524990466,-0.22982289981,-0.445972596183,-0.00405540984195,-0.57024686737,-0.0683965276318,0.0947819349973,-0.210969734567,0.573798150196,0.818978843399,0.0031754995791,0.0,0.818947589943,-0.573730567861,-0.01178250098,0.0,-0.00782788855932,0.00936152523255,-0.999925540231,0.0,0.538558579725,0.0994382840453,0.30441060013,1.0,-0.126874857143,-0.166749812245,2.547
0.300493501714,0.0179492957292,-0.126502806457,-2.10771703009,0.0150845789972,2.11936666881,-0.00810662284511,-0.245335468966,-0.458032208802,-0.00458457059579,-0.548232563325,-0.0707514330301,0.112300335578,-0.201835296323,0.573852236724,0.818940908527,0.00318522354744,0.0,0.818909487089,-0.573784260783,-0.0118161302472,0.0,-0.00784923242335,0.00938930332646,-0.999925112463,0.0,0.536131450993,0.0962268896936,0.304423348365,1.0,-0.128188571429,-0.168476408163,2.566
0.296273227008,0.0102229594278,-0.126608255487,-2.117061601,0.013944635129,2.12114689461,-0.0118152107509,-0.256027618725,-0.450091069643,-0.00190710298569,-0.560119560887,-0.0723527522881,0.091905750994,-0.227139141911,0.573894033388,0.818911193327,0.00329283861269,0.0,0.818881475071,-0.573826049259,-0.0117278249884,0.0,-0.00771467911587,0.00942715482772,-0.999925803486,0.0,0.533987866795,0.0933307216193,0.304477248626,1.0,-0.129364,-0.170021257143,2.583
0.291985066407,0.00253018061362,-0.126628418098,-2.12661552073,0.0128369467832,2.12277441491,-0.0155893145864,-0.245978681655,-0.448802148584,-0.000795750502399,-0.56962505786,-0.066416650995,0.0933503689577,-0.221861963211,0.573873137272,0.818926422715,0.00314378718019,0.0,0.818893632605,-0.57380432233,-0.0119400609694,0.0,-0.00797426627354,0.00942668904483,-0.9999237714,0.0,0.531716491463,0.0904550092882,0.304386115674,1.0,-0.12998,-0.170830857143,2.6
0.288444332432,-0.00389331246908,-0.126624926148,-2.13424793339,0.011890982354,2.12417191373,-0.0187693470281,-0.249934521885,-0.463583300412,3.11390971305e-06,-0.537523023252,-0.068014828495,0.104627654161,-0.231976383533,0.573766070678,0.819000916308,0.00327751830012,0.0,0.818970234403,-0.573697226302,-0.0118319311841,0.0,-0.00781020969431,0.00947313298174,-0.999924627348,0.0,0.529923938713,0.0881225031499,0.304456861916,1.0,-0.12998,-0.170830857143,2.614
0.283285034467,-0.0129779695761,-0.126635842111,-2.14511576134,0.0105121372438,2.12612746296,-0.023262462888,-0.263250361919,-0.451807326648,-0.000453896311221,-0.547954939912,-0.072898274264,0.0837071583874,-0.225633349294,0.573727469817,0.819027552508,0.00337720468075,0.0,0.81899865826,-0.573658891911,-0.0117226448062,0.0,-0.00766395314446,0.00949171219129,-0.999925582842,0.0,0.527350318015,0.084753303804,0.304499887435,1.0,-0.12998,-0.170830857143,2.634
0.279032803024,-0.0201414821359,-0.126691929702,-2.1538922431,0.00941202119742,2.12739164485,-0.0270302749919,-0.266277186647,-0.439513028019,-0.00382944332465,-0.540252843922,-0.0668033986995,0.0764099362328,-0.232856035659,0.573687059019,0.819056885456,0.00311826910073,0.0,0.819023515584,-0.573618074428,-0.0119805054701,0.0,-0.00802417446968,0.00942717817253,-0.999923367532,0.0,0.525190882133,0.0819784589359,0.304397493057,1.0,-0.12998,-0.170830857143,2.65
0.274473756886,-0.027899096577,-0.126800770382,-2.16279417789,0.00827636850785,2.12901937577,-0.030891774815,-0.276252223178,-0.459455961149,-0.00509868229126,-0.514081828831,-0.062995217772,0.109230114365,-0.229706861876,0.573841110614,0.818947562258,0.00346654603945,0.0,0.81891991085,-0.573772326984,-0.01167233059,0.0,-0.00757016424401,0.00953707034096,-0.999925865703,0.0,0.523090366304,0.0790435253519,0.304565429664,1.0,-0.12998,-0.170830857143,2.667
0.269845728362,-0.0354707404769,-0.126909973113,-2.17186973582,0.00710923766751,2.1304001463,-0.0348783367196,-0.273990965459,-0.45141997764,-0.003097302568,-0.538866643009,-0.0683293145011,0.0777564130129,-0.23406823209,0.573926782481,0.818887943208,0.0033662620839,0.0,0.818858597501,-0.573857831286,-0.0117700327691,0.0,-0.0077067304452,0.00951181281757,-0.999925063054,0.0,0.520857989663,0.0760767478666,0.30451693188,1.0,-0.12998,-0.170830857143,2.684
0.265210183118,-0.0430213112547,-0.126918133114,-2.18091463562,0.00602271178279,2.13168081255,-0.0390016050455,-0.27776648768,-0.436993182951,0.000122510743954,-0.523928741436,-0.0704866318959,0.0753130408046,-0.246899211045,0.573850593037,0.818941787033,0.00325472325917,0.0,0.818909746059,-0.573780537509,-0.0119778748621,0.0,-0.00794183828833,0.00953901884627,-0.999922964195,0.0,0.518584717116,0.0731939669314,0.304445327525,1.0,-0.12998,-0.170830857143,2.701
0.260834326403,-0.0501839996383,-0.126905361415,-2.18905851564,0.00494267011173,2.13305534185,-0.0427442113758,-0.27561864548,-0.448996682326,0.00236635193222,-0.504914569556,-0.0651542408401,0.08159129078,-0.23110958027,0.573854449356,0.818937975471,0.00352280956169,0.0,0.818910579951,-0.573784880617,-0.0117098130322,0.0,-0.00756842142948,0.00960477925261,-0.999925230811,0.0,0.516591166932,0.0705222763329,0.304573302363,1.0,-0.12998,-0.170830857143,2.717
0.256089411899,-0.0577156100295,-0.126930815928,-2.19785623701,0.00376457848409,2.13425278809,-0.0469479982333,-0.28250605978,-0.442428559419,-0.0034737238794,-0.528825272794,-0.0710211873959,0.0634731641722,-0.240838430252,0.573760132645,0.819004338736,0.00345690910675,0.0,0.818975930983,-0.573690599342,-0.0117587243822,0.0,-0.00764739726576,0.00957799702139,-0.999924886823,0.0,0.514356086762,0.0676210294524,0.304562358258,1.0,-0.12998,-0.170830857143,2.734
0.251286542455,-0.0651630123352,-0.126988687936,-2.2066738276,0.00264434094462,2.13536471766,-0.0511090575874,-0.284462825709,-0.440228730857,-0.00488133771953,-0.510526695342,-0.0661745399719,0.0625788226781,-0.251434728679,0.573792161568,0.818982565686,0.00329534930272,0.0,0.81895091796,-0.573721798272,-0.0119766047104,0.0,-0.00791816917536,0.00957099551284,-0.999922846345,0.0,0.512078301219,0.064704074445,0.304474093377,1.0,-0.12998,-0.170830857143,2.751
0.246409091901,-0.0726496214859,-0.127111165152,-2.21508713385,0.0014928220881,2.13663107131,-0.0552991727755,-0.285955584662,-0.434682635811,-0.00850726722502,-0.489530900089,-0.0782026814394,0.0777875613702,-0.242661667681,0.573894769322,0.818909715044,0.00352409611032,0.0,0.818882098171,-0.573824888693,-0.0117410950498,0.0,-0.00759282892881,0.00962415754705,-0.999924859447,0.0,0.509962908889,0.0617588544517,0.304585094649,1.0,-0.12998,-0.170830857143,2.768
0.241474000291,-0.0800883881264,-0.127169398994,-2.22363508639,0.000399821743957,2.1376904616,-0.059648649278,-0.288888816812,-0.433401334971,-0.00232818066249,-0.502300847397,-0.0741930559349,0.0575756960055,-0.255101747691,0.573878644182,0.818921009744,0.00352540105315,0.0,0.818892798154,-0.573807987526,-0.0118205534412,0.0,-0.00765734370389,0.00967067490583,-0.999923918673,0.0,0.507734157684,0.0588406452272,0.304575459829,1.0,-0.12998,-0.170830857143,2.785
0.236875797732,-0.0870095402419,-0.127145723099,-2.23170867518,-0.000648885450602,2.13860935631,-0.0636701049895,-0.287432079444,-0.42688660015,0.00124031772201,-0.507208809925,-0.0674875055137,0.0584353166282,-0.259634695528,0.573798929038,0.818977505892,0.00337354102123,0.0,0.818946245893,-0.573727503398,-0.0120226904034,0.0,-0.0079109720437,0.00966154164696,-0.999922032528,0.0,0.505450768967,0.0560063989606,0.304487507684,1.0,-0.12998,-0.170830857143,2.802
0.231909926607,-0.0944222595219,-0.127152479708,-2.23991889542,-0.00176962878764,2.13965218583,-0.0680620178907,-0.290993202481,-0.434340660514,-0.000287498894061,-0.472998407257,-0.0744091745066,0.0710012981529,-0.259877169765,0.573711903378,0.81903769128,0.00355796101108,0.0,0.819009552872,-0.57364071464,-0.0118503043255,0.0,-0.00766500217368,0.00971285170949,-0.999923451197,0.0,0.503428426154,0.0533273965292,0.30458658446,1.0,-0.12998,-0.170830857143,2.818
0.226812283927,-0.101752887562,-0.127184285813,-2.24813867792,-0.00292873973128,2.14058599429,-0.0724519562376,-0.303390184715,-0.42739307504,-0.00145905828801,-0.488311013231,-0.0618303247207,0.0484271259443,-0.256794561527,0.573724974603,0.819028465911,0.00357385590902,0.0,0.819000781107,-0.573654042562,-0.0118113038957,0.0,-0.00762378400185,0.00970361763337,-0.999923855962,0.0,0.501234874918,0.0504182947797,0.304609970623,1.0,-0.12998,-0.170830857143,2.835
0.221633847998,-0.109048359832,-0.127326232462,-2.25647291818,-0.00405171722017,2.14137931536,-0.0768971628531,-0.304312390033,-0.422653079653,-0.0102755831393,-0.486447263819,-0.057386756007,0.039855457973,-0.271262298295,0.573856258141,0.818937099656,0.00343055388434,0.0,0.818906430615,-0.573784421849,-0.0120184043038,0.0,-0.00787407038619,0.00970632603594,-0.999921890075,0.0,0.498959500315,0.0474403140268,0.304534133489,1.0,-0.12998,-0.170830857143,2.852
0.215775367918,-0.117206825965,-0.127439135971,-2.26542042033,-0.00534183808311,2.14238097004,-0.0819230931926,-0.310578907551,-0.435197255669,-0.00212794987709,-0.45551889993,-0.0623397142237,0.055323887531,-0.26175633073,0.573955860283,0.818866722399,0.00356486951273,0.0,0.818838610482,-0.573884531744,-0.0118583772272,0.0,-0.00766475459226,0.00972542514593,-0.999923330882,0.0,0.496546890513,0.0441403389762,0.304608373176,1.0,-0.12998,-0.170830857143,2.871
0.21150028814,-0.123143996321,-0.127428833895,-2.2719471035,-0.00622418155737,2.14307793906,-0.0857636684623,-0.30703824718,-0.421429407049,-0.000987739520516,-0.464427030783,-0.0679858489212,0.0455910734125,-0.27793708597,0.573832532546,0.818952717926,0.00366296257548,0.0,0.818925998744,-0.573761033965,-0.0117996349453,0.0,-0.00756182350286,0.00977089780934,-0.999923671278,0.0,0.494759416364,0.0418062108701,0.304640164228,1.0,-0.12998,-0.170830857143,2.885
0.205278697967,-0.13162916793,-0.127448182529,-2.28141204784,-0.00754364460006,2.1438370811,-0.0911687664009,-0.314689606845,-0.424657932993,-0.00167739033793,-0.468409437335,-0.0646407912052,0.0461494860971,-0.269596068214,0.57380768143,0.818970719615,0.00352874580652,0.0,0.818941350712,-0.573735511766,-0.0119738687643,0.0,-0.0077818309616,0.00976072165461,-0.999922082674,0.0,0.492091078392,0.0384160107773,0.304583176613,1.0,-0.12998,-0.170830857143,2.905
0.200870829493,-0.137538746422,-0.127463351473,-2.28792834695,-0.00848770248742,2.1444015394,-0.095037960323,-0.311931094418,-0.42370737967,0.00157130411169,-0.463537584004,-0.0659747409514,0.0395191843985,-0.284457771923,0.573751414647,0.819010292436,0.00349313257757,0.0,0.81898039644,-0.573679306333,-0.0119962758104,0.0,-0.00782128606957,0.00974387491969,-0.999921939146,0.0,0.49025425905,0.0360392867683,0.304567314176,1.0,-0.12998,-0.170830857143,2.919
0.196097173341,-0.143934696457,-0.127529953812,-2.29461428513,-0.00941519434933,2.14511130857,-0.0992200242699,-0.320900507031,-0.42573874514,-0.00166040796664,-0.442424919113,-0.0621717299118,0.0482550654966,-0.274477337946,0.573780266558,0.81898864653,0.00381437602472,0.0,0.81896404128,-0.573708466456,-0.0117150121339,0.0,-0.00740626470555,0.00984586915258,-0.999924100171,0.0,0.488402628112,0.0334825114256,0.304711877455,1.0,-0.12998,-0.170830857143,2.934
0.18992480166,-0.151798388464,-0.127665548601,-2.30329560961,-0.0106698037367,2.14567593879,-0.104559626296,-0.322142117118,-0.414569190914,-0.000684938682356,-0.462375516788,-0.0716054224661,0.0304579299633,-0.28718177058,0.573880616043,0.8189190406,0.00365928597068,0.0,0.81889145562,-0.573808069368,-0.0119092544458,0.0,-0.00765313475345,0.0098312375748,-0.999922385136,0.0,0.485890023515,0.0301695690315,0.304635643795,1.0,-0.12998,-0.170830857143,2.953
0.184151464422,-0.159332417287,-0.127656021894,-2.3114453383,-0.0118809425403,2.14617798958,-0.109660660143,-0.320038934759,-0.420853497552,0.00359618190633,-0.451271098877,-0.0732203888054,0.0226196832009,-0.280906673214,0.573751448799,0.819009924761,0.0035728203559,0.0,0.81898096336,-0.573678915302,-0.011976255364,0.0,-0.00775916968628,0.00979765435847,-0.999921897577,0.0,0.483503287011,0.0271640614427,0.30461794001,1.0,-0.12998,-0.170830857143,2.971
0.179245518535,-0.165568741706,-0.127670143204,-2.31796736638,-0.0127745678706,2.14668754064,-0.113962298646,-0.330165382595,-0.416294480783,-0.000827544483003,-0.435669789426,-0.0571868826142,0.0326464023695,-0.2875364248,0.573748853261,0.819010846025,0.00377284724476,0.0,0.818984884176,-0.573676117541,-0.0118413916228,0.0,-0.00753398086412,0.00988408002751,-0.999922769065,0.0,0.481614003177,0.0246458537954,0.304698986442,1.0,-0.12998,-0.170830857143,2.986
0.173595698034,-0.172574446816,-0.127706208743,-2.3254068756,-0.0138163634903,2.14716930156,-0.11896269204,-0.332583014192,-0.415354179153,-0.00242451772141,-0.451754920425,-0.0605510048535,0.0235500087615,-0.289199048079,0.573713736193,0.819035082236,0.00385095721034,0.0,0.819009978422,-0.573640529892,-0.011829818753,0.0,-0.00748011545591,0.00994109329389,-0.999922608274,0.0,0.479419368565,0.0217598576512,0.304716060545,1.0,-0.12998,-0.170830857143,3.003
0.168164489294,-0.179097839897,-0.12784830101,-2.33246362021,-0.0148940240285,2.14745487298,-0.123642097799,-0.342863769704,-0.415028526753,-0.0113846645901,-0.440234725495,-0.0653430341333,0.0179285186381,-0.3028505655,0.573838576924,0.818948388137,0.00368403351824,0.0,0.818920244482,-0.573764815366,-0.0120131897152,0.0,-0.00772456226403,0.00991075213262,-0.999921050949,0.0,0.477152991056,0.0187717640734,0.304640316301,1.0,-0.12998,-0.170830857143,3.02
0.162006205853,-0.186463301907,-0.127943003822,-2.34022480234,-0.0160326746034,2.14783949607,-0.12903214014,-0.338479781677,-0.415303155316,-0.00199818230785,-0.424889782244,-0.0580419619144,0.0203434495612,-0.300875365141,0.57387998403,0.818919227678,0.00371609615379,0.0,0.818891294391,-0.573805829858,-0.0120276553257,0.0,-0.00771750915871,0.00994570092126,-0.999920758403,0.0,0.474938912107,0.0158397376296,0.304645607872,1.0,-0.12998,-0.170830857143,3.037
0.156254451434,-0.193403343313,-0.127941424459,-2.34727344571,-0.0170955624502,2.14826454571,-0.134146399413,-0.33939403076,-0.412812102008,0.000479974865775,-0.408727138158,-0.0623511770758,0.0156555864555,-0.295315020217,0.573784197434,0.818985328732,0.00393357318036,0.0,0.818961438124,-0.573710889209,-0.0117781734324,0.0,-0.00738955974524,0.00997976668032,-0.999922896359,0.0,0.472813987008,0.0130064086855,0.304757249725,1.0,-0.12998,-0.170830857143,3.054
0.150685690035,-0.199816775546,-0.127966500626,-2.35408583986,-0.0181499752376,2.14845821729,-0.139075791985,-0.354787623929,-0.396685158527,-0.000844452938973,-0.431678240875,-0.0670006337634,0.00121958763497,-0.300300845008,0.573714973586,0.819034485294,0.00379313632955,0.0,0.819008202455,-0.573641404757,-0.0119100781009,0.0,-0.0075790105541,0.00993979128179,-0.999921876523,0.0,0.470689885304,0.0102711604949,0.304694103617,1.0,-0.12998,-0.170830857143,3.07
0.144754748801,-0.206645100566,-0.128062977625,-2.36125528885,-0.019156597457,2.14864648554,-0.144305141736,-0.347323560007,-0.400708808873,-0.00815648885684,-0.413443690184,-0.0547794604674,0.00483471021401,-0.319533096986,0.573762838625,0.819001055796,0.00377127541486,0.0,0.818973361198,-0.573687872994,-0.0120666867489,0.0,-0.00771924283543,0.0100121833099,-0.999920081544,0.0,0.468436142586,0.00736982426451,0.304647974446,1.0,-0.12998,-0.170830857143,3.087
0.138665438435,-0.21345731205,-0.128208723341,-2.36815820548,-0.0201686556891,2.14885935258,-0.14960702391,-0.35806406132,-0.402027169127,-0.00749201664221,-0.393554473478,-0.0556498828138,0.00968254347596,-0.310331573162,0.573917546607,0.818891970443,0.00391629178711,0.0,0.818866230715,-0.573842100607,-0.0120036106149,0.0,-0.00758247322929,0.0100961962317,-0.999920283283,0.0,0.46626404273,0.00439994984484,0.304701356724,1.0,-0.12998,-0.170830857143,3.104
0.132663988848,-0.220226831339,-0.128214823762,-2.37493743853,-0.0212114513273,2.14906420124,-0.154925594164,-0.353732680845,-0.391132631135,0.00187364184403,-0.405602621154,-0.06018038136,0.00720166360992,-0.316985154082,0.573858310011,0.818932797979,0.00405700953132,0.0,0.81890969411,-0.573783461896,-0.0118405510123,0.0,-0.00736891247066,0.0101173178175,-0.999921666437,0.0,0.464113463735,0.00155772607339,0.30477712033,1.0,-0.12998,-0.170830857143,3.121
0.126953822439,-0.226508261687,-0.128224078721,-2.38152978362,-0.0222720311442,2.14910342397,-0.160039483699,-0.359500218421,-0.392897449824,-0.00718974061194,-0.412981121402,-0.0651629374925,-0.00604660583587,-0.317652314392,0.573722707692,0.819028736612,0.00386395953742,0.0,0.819002401636,-0.573647599366,-0.0120101939235,0.0,-0.00762028955714,0.0100553067145,-0.99992040783,0.0,0.461963239099,-0.00112984622793,0.30468467847,1.0,-0.12998,-0.170830857143,3.137
0.120723924652,-0.233195950188,-0.128261879908,-2.38831501521,-0.0233005966049,2.14913070143,-0.165536179608,-0.362934951404,-0.390357083681,-0.00187282877775,-0.401251869769,-0.0569684341119,0.000866927918785,-0.320706922281,0.5737264547,0.819026138141,0.00385838312007,0.0,0.818999323098,-0.573650830074,-0.0120656877643,0.0,-0.00766889662406,0.0100826115496,-0.999919761265,0.0,0.459735505447,-0.00403399496952,0.304676369639,1.0,-0.12998,-0.170830857143,3.154
0.114399860324,-0.239877654983,-0.128432774466,-2.39487368087,-0.0243519217935,2.14917313128,-0.171098299736,-0.373339052,-0.39055250821,-0.0111240122934,-0.382757333912,-0.0639446925664,0.00234612270442,-0.322194991678,0.573849360052,0.818939373229,0.00399522758411,0.0,0.818914937372,-0.573774008927,-0.0119356160007,0.0,-0.00748233219729,0.010121192015,-0.999920784951,0.0,0.457571110172,-0.00701632576552,0.304752756904,1.0,-0.12998,-0.170830857143,3.171
0.108094382823,-0.246472369815,-0.128497467528,-2.40136953292,-0.0253680393116,2.14924531587,-0.176723742199,-0.363269295497,-0.385472678752,9.12861145189e-05,-0.395614497558,-0.0645051300884,0.00151524110083,-0.329017559731,0.573833722821,0.818949652825,0.0041317783695,0.0,0.818927653054,-0.573758809548,-0.0117929822913,0.0,-0.0072873548188,0.0101510339333,-0.999921922437,0.0,0.455414764718,-0.00991088288896,0.304807973792,1.0,-0.12998,-0.170830857143,3.188
0.101756355283,-0.252982764262,-0.128515170831,-2.40802426461,-0.0263531505943,2.14918263243,-0.182368643894,-0.382065549577,-0.379291542531,-0.0031667175518,-0.391640187045,-0.0538243058666,-0.00995656309989,-0.332658725073,0.573797342341,0.818975504736,0.00405949087959,0.0,0.818951517606,-0.573721241935,-0.0119622432412,0.0,-0.0074679118276,0.0101886257594,-0.999920207916,0.0,0.453153320296,-0.0127630187602,0.304728630605,1.0,-0.12998,-0.170830857143,3.205
0.0956732301866,-0.25910681922,-0.128561422698,-2.41411342497,-0.0273119623397,2.14913919632,-0.187763985506,-0.375026648901,-0.380379776138,-0.00318214031629,-0.37686924648,-0.059679150175,-0.0017603788766,-0.3339754904,0.573801094837,0.818972771856,0.00408037065566,0.0,0.818949047553,-0.573724906361,-0.0119555942341,0.0,-0.00745043932081,0.0102019451421,-0.999920202451,0.0,0.451071276084,-0.0154940064032,0.30471955611,1.0,-0.12998,-0.170830857143,3.221
0.089140475306,-0.265600153852,-0.128736146281,-2.42035672423,-0.0283189316378,2.14904295541,-0.193567162067,-0.384024507413,-0.37809009723,-0.0151252016267,-0.360277156521,-0.0542573245637,-0.000757464958795,-0.343991284643,0.573909565084,0.818896039011,0.00422318580696,0.0,0.818874663659,-0.573833542902,-0.0118362646078,0.0,-0.00726940448865,0.0102514027018,-0.999921029132,0.0,0.448907012155,-0.0184555229114,0.304786769462,1.0,-0.12998,-0.170830857143,3.238
0.0825616303105,-0.272034373161,-0.12880303444,-2.42651065155,-0.0293258263903,2.14896821613,-0.199424419938,-0.38308289614,-0.380166283544,-0.000589052657814,-0.364986347283,-0.0573371660402,-0.00960226673367,-0.34295171291,0.573924457307,0.818884851892,0.00436618229243,0.0,0.818866283193,-0.57384933182,-0.0116490995792,0.0,-0.00703387581635,0.0102612201799,-0.999922612981,0.0,0.446759485043,-0.0213646754471,0.304858092789,1.0,-0.12998,-0.170830857143,3.255
0.0760126693543,-0.278373966454,-0.128788730111,-2.43284809691,-0.0303387234122,2.14872144853,-0.205390429452,-0.388467826881,-0.377318016644,3.07957707622e-05,-0.375791075099,-0.0716010102811,-0.0220407217438,-0.352778086453,0.573750342007,0.819007546908,0.0042343896764,0.0,0.818986430871,-0.573674467503,-0.0118143254424,0.0,-0.00724699998333,0.0102465782295,-0.999921241211,0.0,0.444492429714,-0.024190620493,0.30477789091,1.0,-0.12998,-0.170830857143,3.272
0.0692743204979,-0.28468432044,-0.128826093455,-2.43896747119,-0.0313311285448,2.14850336231,-0.21139938419,-0.398457862628,-0.373590757776,-0.0044209398909,-0.358498707901,-0.060172930201,-0.016636234646,-0.3465998887,0.573747763085,0.819009312959,0.00424223321279,0.0,0.818988293831,-0.573671855537,-0.01181201225,0.0,-0.00724063764347,0.010251652323,-0.999921235294,0.0,0.442283941286,-0.0270968978738,0.304772173966,1.0,-0.12998,-0.170830857143,3.289
0.0624684411069,-0.290991676184,-0.128976357094,-2.44497177733,-0.0322550263971,2.14825558643,-0.217490841149,-0.403607257553,-0.375278872286,-0.00973717832599,-0.343063851198,-0.0448989907267,-0.018927264819,-0.363121795954,0.573851474714,0.818935998097,0.00436610704716,0.0,0.818916429184,-0.57377490954,-0.0117890667898,0.0,-0.00714946615148,0.0103408492487,-0.999920972863,0.0,0.440086432576,-0.0300444691569,0.304800034982,1.0,-0.12998,-0.170830857143,3.306
0.0560455404072,-0.29688834668,-0.129057480341,-2.45042326358,-0.033126745323,2.14806201447,-0.223252828946,-0.391853977442,-0.365879380754,-0.00440088778959,-0.34589071866,-0.0553744073831,-0.0170015427609,-0.36053461833,0.573893300584,0.818905588458,0.0045676732748,0.0,0.818889570377,-0.573817478817,-0.0115809945277,0.0,-0.00686286250738,0.0103868751587,-0.999922503969,0.0,0.438079851518,-0.0327821190675,0.30489190972,1.0,-0.12998,-0.170830857143,3.322
0.0492257555821,-0.30307232703,-0.12906031364,-2.456349501,-0.0341213465451,2.14768341475,-0.229439290412,-0.407543168325,-0.362418414248,0.00114593087018,-0.356631007455,-0.0570010770207,-0.018602715159,-0.363244265957,0.573777842799,0.818986852512,0.00450215796315,0.0,0.818969757614,-0.573701895289,-0.0116369393555,0.0,-0.00694773754476,0.0103643487218,-0.999922151579,0.0,0.435846623266,-0.0356270982183,0.304867943859,1.0,-0.12998,-0.170830857143,3.339
0.0422472253126,-0.3091562663,-0.129099232593,-2.46223764272,-0.0351262715078,2.14726159937,-0.235692144917,-0.405201130976,-0.355809682456,-0.00422182666361,-0.344191493733,-0.0556030783469,-0.0199296825511,-0.377730788642,0.573759327093,0.819000516004,0.00437450119311,0.0,0.818981104703,-0.573682819121,-0.0117779491581,0.0,-0.00713670766496,0.0103405410906,-0.999921067192,0.0,0.433589784283,-0.0385277949706,0.304801442798,1.0,-0.12998,-0.170830857143,3.356
0.0356059090194,-0.314886579214,-0.129253472027,-2.46758964958,-0.0359506022692,2.14691512242,-0.241639414367,-0.41573580705,-0.35722460573,-0.00874062986418,-0.326004144198,-0.0545953311911,-0.0290628262791,-0.376789351224,0.573892667891,0.818906456271,0.004490937537,0.0,0.818888180977,-0.573815202636,-0.0117901306985,0.0,-0.0070781821934,0.0104440463122,-0.999920407449,0.0,0.431383614074,-0.0414746237214,0.304811007385,1.0,-0.12998,-0.170830857143,3.373
0.0273234313326,-0.321974092423,-0.129300393967,-2.47404993749,-0.0370430521862,2.1464834585,-0.249197121265,-0.41430222057,-0.349939428696,-0.00375134440035,-0.315781194691,-0.0444902562473,-0.0174871580487,-0.372867547555,0.573819069949,0.818957221385,0.00463588240784,0.0,0.818941948412,-0.573742846471,-0.0115748932877,0.0,-0.00681966937591,0.0104386140485,-0.999922260701,0.0,0.428993781532,-0.044685793666,0.304898236746,1.0,-0.12998,-0.170830857143,3.392
0.0206144935933,-0.327588728241,-0.129326309556,-2.4792038394,-0.0379452560516,2.14609105388,-0.255308077059,-0.426650307796,-0.35439486864,-0.00479967191198,-0.331725604653,-0.057145376108,-0.0300075281618,-0.38022172023,0.573733551929,0.819016921869,0.00467332691722,0.0,0.819002778474,-0.57365822799,-0.0114644325053,0.0,-0.00670880094856,0.0104051976444,-0.999923358989,0.0,0.42707816378,-0.0472259783884,0.304931240784,1.0,-0.12998,-0.170830857143,3.407
0.0133780612698,-0.333463507675,-0.129397358583,-2.48480347638,-0.0388548283659,2.14551466083,-0.261856581345,-0.425606394137,-0.341575354416,-0.0111807342188,-0.325168316584,-0.0598163509821,-0.0273529664362,-0.394867293679,0.573758662303,0.818999936097,0.00456607116751,0.0,0.818983018375,-0.573681542699,-0.0117068390839,0.0,-0.00696856387665,0.0104566364021,-0.999921045819,0.0,0.424663894287,-0.050295928136,0.30484359479,1.0,-0.12998,-0.170830857143,3.425
0.00515680498623,-0.340022956282,-0.129569002047,-2.49078210391,-0.0398128800929,2.14495909953,-0.269219428632,-0.429429135954,-0.343206781128,-0.00307241008403,-0.304157979831,-0.0409582518909,-0.0315840216129,-0.385010046385,0.573955741682,0.81886115988,0.00468554502098,0.0,0.818845590002,-0.573877902973,-0.011696115331,0.0,-0.00688869644385,0.0105499935468,-0.999920618598,0.0,0.422327887577,-0.0534305632768,0.304865212619,1.0,-0.12998,-0.170830857143,3.443
-0.000814871399153,-0.344785020139,-0.129566729335,-2.49511584167,-0.0405419517075,2.14449848525,-0.27480021253,-0.423783529389,-0.337624252399,-0.000141597099848,-0.307058828788,-0.0498592479475,-0.0365555070054,-0.405357795404,0.573782529732,0.818982465064,0.00469865864151,0.0,0.818967045814,-0.57370464801,-0.0116919469729,0.0,-0.00687998971232,0.0105568847513,-0.999920605811,0.0,0.420388738203,-0.0559317111115,0.304870390387,1.0,-0.12998,-0.170830857143,3.458
-0.00825141425511,-0.350491196578,-0.129610117025,-2.50021038582,-0.0414828059949,2.14394160337,-0.281499229509,-0.436762200891,-0.337862762255,-0.00311810065705,-0.293815199928,-0.0592661404594,-0.0335735453499,-0.401347155715,0.57380869202,0.818964041235,0.0047149791418,0.0,0.818949530526,-0.573731830329,-0.0115844818268,0.0,-0.00678227101923,0.0105088086465,-0.999921779811,0.0,0.418218383326,-0.0588477905903,0.304911805973,1.0,-0.12998,-0.170830857143,3.475
-0.0148344201458,-0.355553764377,-0.129732279941,-2.50467858624,-0.0422400677126,2.14345702059,-0.287553737302,-0.438224204109,-0.331055811802,-0.0128096942619,-0.298767817579,-0.053806305811,-0.0433142488338,-0.406055636727,0.573827352728,0.818950250277,0.00483774056141,0.0,0.818937726526,-0.573750755273,-0.0114811932114,0.0,-0.00662699634323,0.0105502340882,-0.999922384728,0.0,0.416294140287,-0.0614291876969,0.304962593245,1.0,-0.12998,-0.170830857143,3.49
-0.0223670574697,-0.361146702155,-0.129826332513,-2.50985769083,-0.04311418659,2.1427524529,-0.294453058483,-0.436918525531,-0.324281224653,0.00156883467613,-0.301967883995,-0.0507913274961,-0.039976830456,-0.41043975484,0.573829162755,0.818949521078,0.00474560842832,0.0,0.818934500215,-0.573750799182,-0.0117069080973,0.0,-0.00686470231803,0.0106043119043,-0.999920209032,0.0,0.414016726798,-0.0643285186638,0.304885586652,1.0,-0.12998,-0.170830857143,3.507
-0.0298936454374,-0.366720776922,-0.12983010127,-2.51483968507,-0.0440028839866,2.14213130534,-0.301411858317,-0.445505844172,-0.326602832985,-0.00186209982312,-0.285144805881,-0.0537302234184,-0.0419112593377,-0.416223340002,0.573705771733,0.819036026849,0.00473509287538,0.0,0.819021099593,-0.573627817341,-0.0116752942087,0.0,-0.0068464374051,0.0105765282786,-0.999920628522,0.0,0.41181145556,-0.0671781989482,0.304888909459,1.0,-0.12998,-0.170830857143,3.524
-0.037130152434,-0.371862058147,-0.129869377625,-2.51939282564,-0.0448012502549,2.14152291709,-0.308003907576,-0.45267355246,-0.32082516966,-0.00461742646967,-0.286955263592,-0.0452373111134,-0.0452466132615,-0.409022659667,0.573726934526,0.819021088852,0.00475473619907,0.0,0.819006518059,-0.573649072617,-0.0116538304881,0.0,-0.00681731417895,0.0105804800871,-0.999920785697,0.0,0.409745882537,-0.0699131446632,0.304898529848,1.0,-0.12998,-0.170830857143,3.54
-0.0462859169172,-0.37819579868,-0.13004939383,-2.5249390873,-0.0457226046327,2.14071036246,-0.316324239763,-0.456076714565,-0.31812978323,-0.00294058686724,-0.265731067553,-0.0467748411591,-0.04374597914,-0.41649419853,0.573914059052,0.818889324219,0.00486563497492,0.0,0.818875808663,-0.573835218555,-0.0116747091915,0.0,-0.00676835232276,0.0106848362313,-0.999920008641,0.0,0.407161111982,-0.0733867640755,0.304919342435,1.0,-0.12998,-0.170830857143,3.56
-0.0535160479675,-0.383249522456,-0.130066985849,-2.52931185594,-0.0465034057668,2.14010194603,-0.323095639927,-0.455170654636,-0.313837469976,-0.0010126500063,-0.27567464116,-0.0482387682769,-0.0419819960837,-0.41754473801,0.573776362866,0.81898547414,0.00492193721304,0.0,0.81897329018,-0.573698330499,-0.0115638425608,0.0,-0.00664703989671,0.0106661999961,-0.9999210214,0.0,0.405119142004,-0.0760622996001,0.304956569952,1.0,-0.12998,-0.170830857143,3.576
-0.0614239404195,-0.388535781575,-0.130108638236,-2.53400753852,-0.0473950050279,2.13935081651,-0.330335622963,-0.465516128786,-0.306859678491,-0.00198619759258,-0.274215380754,-0.0520850828482,-0.0419796220701,-0.435865840746,0.573763948629,0.818994717373,0.00483022460942,0.0,0.818981072442,-0.573685763722,-0.0116359093161,0.0,-0.00675884729644,0.0106323325112,-0.999920632595,0.0,0.402869898487,-0.0789756926394,0.304921382638,1.0,-0.12998,-0.170830857143,3.593
