nelsonifechukwu/NELSON_IML_WORK/CNN-GradCAM/train2dof/data_sample_2022-02-22-14-22-24/robot_state.csv
position_joint1,position_joint2,position_joint3,position_joint4,position_joint5,position_joint6,position_joint7,velocity_joint1,velocity_joint2,velocity_joint3,velocity_joint4,velocity_joint5,velocity_joint6,velocity_joint7,ee_T_00,ee_T_10,ee_T_20,ee_T_30,ee_T_01,ee_T_11,ee_T_21,ee_T_31,ee_T_02,ee_T_12,ee_T_22,ee_T_32,ee_T_03,ee_T_13,ee_T_23,ee_T_33,v_x,v_y,time
0.465081972391,0.547733135265,-0.124012354985,-1.35583225464,0.079440848717,1.89411084302,0.159155734262,-0.0011344180022,-0.00341659177278,-0.000319091956474,-0.000209610809485,0.000482744900506,0.00011292930401,-0.00059127270047,0.573797061574,0.818983424346,0.00195695598276,0.0,0.818941042308,-0.573739121569,-0.0118210196711,0.0,-0.0085586017426,0.00838565937429,-0.99992821295,0.0,0.661687214883,0.260874009062,0.303250348459,1.0,0.0,0.0,0.0
0.465081902069,0.547735919325,-0.124015350508,-1.35582980425,0.0794428827901,1.89411014403,0.159162644205,-0.00102341125897,-0.0010713881272,-0.000833391234106,0.002146977766,0.000387683884076,0.00211514126206,0.00081980281069,0.573805276173,0.818977670633,0.00195625718428,0.0,0.818935278577,-0.57374733708,-0.0118215733503,0.0,-0.00855937204993,0.0083854906299,-0.999928207771,0.0,0.661688155563,0.26087276523,0.303249584725,1.0,-0.0001,-0.000131428571429,0.006
0.465082243766,0.547739491701,-0.124009536903,-1.35583993483,0.0794418181843,1.89410930341,0.159160426907,0.000133790287885,5.93643760229e-05,0.00106672468589,-0.00344652020528,0.00020700842424,-0.000619359495826,0.00054341897925,0.573808183785,0.818975637193,0.00195468828304,0.0,0.818933231307,-0.573750257109,-0.0118216762698,0.0,-0.00856032676361,0.00838429520517,-0.999928209623,0.0,0.66168768438,0.260870240348,0.303250008679,1.0,-0.00044,-0.000578285714286,0.023
0.465081838993,0.547732805066,-0.124015525913,-1.35584509183,0.0794421307961,1.89411289888,0.159158071992,0.00561022316705,-0.00103499347612,-0.000890863093356,-0.000238205141739,-5.32065862033e-05,0.00458652587332,0.00033458020815,0.573802354869,0.818979736508,0.00194823980164,0.0,0.8189372354,-0.573744443832,-0.01182643432,0.0,-0.00856798326196,0.00838168335292,-0.999928165943,0.0,0.66168538026,0.260870911424,0.303244758403,1.0,-0.00076,-0.000998857142857,0.039
0.465081125984,0.547677473496,-0.124010752379,-1.35589669811,0.0794418158254,1.89412226337,0.159159005363,-7.91756302429e-05,-0.00697464922053,0.000547311619399,-0.00144376251803,5.0891672578e-05,0.00520266623867,0.00339027403823,0.573803069232,0.818979200671,0.00196303596852,0.0,0.818936829719,-0.573745037327,-0.0118257335552,0.0,-0.00855891245493,0.00839340626164,-0.999928145293,0.0,0.661675989488,0.260868390762,0.303260047726,1.0,-0.00108,-0.00141942857143,0.055
0.465077966934,0.547540828015,-0.124012645509,-1.35606316503,0.0794400248465,1.89413756538,0.159154089752,-0.000930771773595,-0.00628698507474,0.00066535476389,-0.0127251441944,0.000284707631882,-0.000731291784631,-0.000387345517411,0.5738114308,0.818973356057,0.00195725658271,0.0,0.818930784676,-0.573753298537,-0.0118435311138,0.0,-0.00857671913183,0.00839897290947,-0.999927945976,0.0,0.661645845942,0.260847984871,0.303279001944,1.0,-0.00142,-0.00186628571429,0.072
0.465063857624,0.547394703924,-0.124015771498,-1.35625439295,0.0794352488977,1.89418913578,0.159150104935,-0.000469711707092,-0.0104265858496,-0.00209457978351,-0.0152501983888,0.000100609843634,-6.5320421432e-05,-0.000811425082324,0.573831177757,0.818959497053,0.00196685594066,0.0,0.818916980727,-0.573772935671,-0.0118466817691,0.0,-0.00857358890441,0.00840884897693,-0.999927889816,0.0,0.661620812798,0.260818789072,0.303296066561,1.0,-0.00176,-0.00231314285714,0.089
0.465047867419,0.547214109087,-0.124014049516,-1.35647285841,0.0794284436001,1.89432390009,0.159141200221,-0.00115264327848,-0.0144629371925,-0.000350802037794,-0.0118809871042,0.000252402321787,0.0153840063375,-0.00124141379573,0.573846507721,0.818948546705,0.00205190839122,0.0,0.818907140547,-0.573787926763,-0.0118007272475,0.0,-0.00848699156855,0.00845229128563,-0.9999282623,0.0,0.661606531322,0.260793712522,0.303331641229,1.0,-0.0021,-0.00276,0.106
0.465029235301,0.547022516946,-0.124011262942,-1.35670208639,0.07942684941,1.89444847691,0.159127615052,-0.00230819485509,-0.0172550292694,-0.000542842992165,-0.0154326143961,0.000483446429911,0.0100332116453,-0.0010264257673,0.57386129396,0.818937979154,0.00213272010738,0.0,0.818897551779,-0.573802323127,-0.0117660769506,0.0,-0.00841208948709,0.00849873904532,-0.999928501537,0.0,0.661588181098,0.260766520422,0.30336896561,1.0,-0.00244,-0.00320685714286,0.123
0.464997313171,0.546788681895,-0.124017780067,-1.35701589494,0.0794113249593,1.89458034923,0.159114314175,-0.00260640584897,-0.0122634592632,-0.000798243983805,-0.0158266996919,4.78797699145e-05,0.00745654676311,-0.00509898507285,0.573894592135,0.818914528311,0.002177002811,0.0,0.818874700304,-0.573835471518,-0.0117398352027,0.0,-0.00836484122206,0.0085202845017,-0.999928714551,0.0,0.661559366673,0.260713896145,0.303396856688,1.0,-0.00278,-0.00365371428571,0.14
0.464967599364,0.54654826494,-0.124013710941,-1.35738327969,0.0793952678736,1.89470936466,0.159035311762,-0.00171177338773,-0.0140481843337,0.00016302948407,-0.0221946884902,-0.0031797677541,0.0159609527376,-0.00684159133539,0.573867628997,0.818933405433,0.00218374831579,0.0,0.818893575936,-0.573808395127,-0.0117466537146,0.0,-0.00836683510002,0.00852944600138,-0.999928619763,0.0,0.661514863371,0.260662299581,0.303403295141,1.0,-0.0031,-0.00407428571429,0.156
0.464923930057,0.546256488477,-0.124013710941,-1.35782265833,0.0793682695964,1.89487293858,0.158951714021,4.00535468245e-05,-0.0180568909873,0.00110744127508,-0.027566535959,-0.00183122156438,0.0146059940683,-0.000609675256294,0.573852332842,0.81894408738,0.00219743892347,0.0,0.818904436211,-0.57379304917,-0.0117391643822,0.0,-0.00835300490256,0.00853620369746,-0.999928677724,0.0,0.66146724533,0.260591821699,0.303414938173,1.0,-0.00344,-0.00452114285714,0.173
0.46487736334,0.545957986119,-0.124010926883,-1.35831990173,0.0793284167074,1.89504197112,0.158923597222,-0.00478691228674,-0.0168333240139,0.000395148840135,-0.0326345955525,-0.00417573268908,0.0129255757401,-0.00159025017461,0.573882653602,0.818922921808,0.00216677958053,0.0,0.818882925402,-0.573823537295,-0.0117494439124,0.0,-0.00837870113086,0.0085173048369,-0.999928623896,0.0,0.661408404521,0.260512543135,0.30340414033,1.0,-0.00378,-0.004968,0.19
0.4648168905,0.545623253381,-0.124015842276,-1.35889392842,0.079292731508,1.89522640242,0.158838304255,-0.00351290420971,-0.0199190697608,-0.000218684454291,-0.0318644968836,6.95560747497e-05,0.00161059718424,-0.0118143975088,0.573888237765,0.818919135219,0.00211835512952,0.0,0.818878500935,-0.573829298975,-0.011776385044,0.0,-0.00842849509192,0.00849316785285,-0.999928410723,0.0,0.661341061242,0.260412691143,0.30338402633,1.0,-0.00412,-0.00541485714286,0.207
0.464766289252,0.54526404332,-0.124019411916,-1.35952088331,0.079268528061,1.8954393206,0.158730345723,-0.00493120940034,-0.0168026549787,-0.00122853817373,-0.0426268799272,0.000649041319961,0.00775763818904,-0.0082213662968,0.573872297781,0.818930409109,0.00207792636127,0.0,0.818889110165,-0.57381338007,-0.0118142713344,0.0,-0.00848288743019,0.00848163760407,-0.999928048634,0.0,0.66126429979,0.26031798236,0.303358475907,1.0,-0.00444,-0.00583542857143,0.223
0.464693279051,0.544840879694,-0.12401412318,-1.36021138143,0.0792353252479,1.89566574891,0.158686216792,-0.0101891654915,-0.0284706441335,-1.74694971515e-05,-0.042733323118,-0.00361631078927,0.0190875035443,-0.00768934948968,0.57392179297,0.818895795879,0.00204888934843,0.0,0.818853975935,-0.573862842165,-0.0118469987373,0.0,-0.00852584014379,0.00847715515732,-0.999927721333,0.0,0.661181545491,0.260206349583,0.303348781666,1.0,-0.00478,-0.00628228571429,0.24
0.464624770785,0.544411514179,-0.124020074255,-1.36094363121,0.0792013760553,1.89592296379,0.15856835449,-0.000195835462389,-0.025046565268,0.000181672314531,-0.0393380851905,-0.000293074870685,0.0210517227357,-0.0114551881978,0.573917330538,0.818899010922,0.00201358419076,0.0,0.818856639783,-0.573858432225,-0.0118764535181,0.0,-0.00857026877662,0.0084651022632,-0.999927443636,0.0,0.661096852902,0.260088282655,0.303326611838,1.0,-0.00512,-0.00672914285714,0.257
0.464557557014,0.54395683497,-0.124018106846,-1.36169300821,0.0791608460308,1.89618788214,0.158491331165,-0.00676632530293,-0.0265146077489,-0.00403129459306,-0.0462380483459,-0.00305008254586,0.0166046947098,-0.00492903012759,0.573940637768,0.818882708289,0.00200032119845,0.0,0.818840113453,-0.573881740443,-0.0118896378034,0.0,-0.00858843634825,0.00846205246155,-0.999927313573,0.0,0.661005926111,0.259964694428,0.303320281596,1.0,-0.00546,-0.007176,0.274
0.464481646612,0.543437426527,-0.124026112748,-1.36252278514,0.0791109624129,1.89647918128,0.158384485126,-0.00556006323757,-0.0302706586709,-0.00218740898265,-0.0486344747923,-0.00700268025628,0.0203181088983,-0.0134163356121,0.573951961635,0.818874839199,0.00197240036539,0.0,0.818831865473,-0.573893162777,-0.0119063304564,0.0,-0.00861801327743,0.00844888865924,-0.999927170412,0.0,0.660913661304,0.259838628772,0.303312582652,1.0,-0.00578,-0.00759657142857,0.29
0.464407701567,0.542889686041,-0.124036419835,-1.36339265129,0.0790594220225,1.896791427,0.1582622299,-0.00217567407512,-0.0353494403925,-0.00184219135871,-0.0496266095108,-0.00146131225092,0.0192280568921,-0.0026256748135,0.573954233216,0.818873272305,0.00196188169129,0.0,0.818830182268,-0.573895497865,-0.0119095356358,0.0,-0.00862665143749,0.00844213887399,-0.999927152935,0.0,0.660814453912,0.25970057348,0.30331340083,1.0,-0.00612,-0.00804342857143,0.307
0.464327807818,0.542306681326,-0.124026647907,-1.36431629931,0.0790051387713,1.89712405074,0.15816213079,-0.00522190722336,-0.0361496631043,0.00141795958797,-0.0542281142959,-0.00303180386822,0.0194299962104,-0.00397306249543,0.573967653183,0.818863875762,0.00195779786916,0.0,0.818820649034,-0.573908851464,-0.0119214859889,0.0,-0.00863864301589,0.00844579526514,-0.999927018531,0.0,0.660704802249,0.259565249357,0.30331459717,1.0,-0.00646,-0.00849028571429,0.324
0.464248041383,0.541688306776,-0.124032887756,-1.36527228903,0.0789480259304,1.89747729821,0.158021256573,-0.00205392402905,-0.0405598636034,0.000594364861621,-0.0586047096534,-0.00430249916399,0.0209824496152,-0.00973489295134,0.573959816403,0.818869339661,0.00196992863561,0.0,0.818826285589,-0.573900979614,-0.0119132920772,0.0,-0.0086250517017,0.00845094298781,-0.999927092365,0.0,0.660596383408,0.259418307123,0.303327643858,1.0,-0.0068,-0.00893714285714,0.341
0.464165958464,0.541075530984,-0.124036083613,-1.36622278705,0.0788897250455,1.89783177976,0.157899775961,-0.00845141071067,-0.042346627271,-0.000251633271325,-0.0606451724326,-0.0019768254178,0.0220110308972,-0.00315472638949,0.57396696245,0.818864300437,0.00198252016851,0.0,0.818821429372,-0.573908091373,-0.0119044680473,0.0,-0.00861052531293,0.00845626417214,-0.999927172573,0.0,0.660489140125,0.259272076345,0.303339266138,1.0,-0.00712,-0.00935771428571,0.357
0.464083540955,0.540379050115,-0.124036828662,-1.36728067411,0.0788319545089,1.89821591719,0.157762023769,-0.004048258724,-0.0479138752205,0.000290343477043,-0.0598617264975,-0.0048217379429,0.0300460319597,-0.0131600201775,0.573965272178,0.818865429205,0.00200551430744,0.0,0.818822785681,-0.57390623588,-0.011900628982,0.0,-0.00859420195702,0.00847287169374,-0.999927172417,0.0,0.660364544641,0.259117504788,0.3033613455,1.0,-0.00746,-0.00980457142857,0.374
0.463974912437,0.539592970268,-0.124039501881,-1.36849015867,0.0787606361865,1.89867476035,0.15761433191,-0.00254754931717,-0.043601491482,-0.00227513099591,-0.0689101950378,-0.00754921085853,0.0240223474508,-0.00688782292622,0.573983081146,0.818852872691,0.00203527519774,0.0,0.818810619182,-0.573923923373,-0.0118847379729,0.0,-0.00856392358569,0.00848830689135,-0.999927301287,0.0,0.660229950378,0.258930574416,0.303381002878,1.0,-0.00782,-0.0102777142857,0.392
0.463878461418,0.538893000906,-0.124044256331,-1.36959149895,0.0786997781208,1.89909058042,0.157480083307,-0.00522759580533,-0.0395514862411,0.000535315304331,-0.0733727069117,-0.0102225211447,0.029623334417,-0.0138823834398,0.574000126292,0.818840891391,0.00204853713163,0.0,0.818798783043,-0.573940885194,-0.0118810812018,0.0,-0.00855314058171,0.00849724541899,-0.999927317662,0.0,0.66010601416,0.258760965537,0.303387518464,1.0,-0.00814,-0.0106982857143,0.408
0.463760887915,0.538110271053,-0.124052807206,-1.37078241536,0.0786361221416,1.89955174811,0.157334234875,-0.0128577439606,-0.0461397925633,-0.000835175727832,-0.0686480196017,-0.0037390275723,0.0274468434802,-0.0137024655062,0.574031787088,0.818818578197,0.00209530759624,0.0,0.818777065172,-0.573972339955,-0.0118582214395,0.0,-0.008507247206,0.00852274993825,-0.999927492111,0.0,0.659978837281,0.258568301576,0.303413791934,1.0,-0.00848,-0.0111451428571,0.425
0.463666369757,0.53735167559,-0.124053499264,-1.37197329469,0.0785552636195,1.89999971307,0.157185741209,-0.00844135201654,-0.0493656003239,-0.000127925522956,-0.0767245555036,-0.00282869088612,0.0347535391719,-0.00863503323757,0.574032104406,0.8188183369,0.00210265736138,0.0,0.8187769992,-0.573972707746,-0.0118449670917,0.0,-0.00849217181613,0.00852116292977,-0.999927633782,0.0,0.659841338339,0.258391441078,0.303421476183,1.0,-0.0088,-0.0115657142857,0.441
0.463548904908,0.536510116852,-0.124060270719,-1.37328676828,0.0784817002276,1.90048176784,0.157027472005,-0.00760350420589,-0.04712571441,-0.000776297187244,-0.0803957892496,-0.00195622290649,0.0279241467223,-0.0103059080125,0.574056010897,0.818801551579,0.00211243604839,0.0,0.818760303592,-0.573996534651,-0.0118444236485,0.0,-0.00848586486869,0.00852910558303,-0.999927619608,0.0,0.659691046125,0.258185952366,0.303432419159,1.0,-0.00914,-0.0120125714286,0.458
0.463442574998,0.535646641343,-0.124059159032,-1.37464470663,0.0784114281544,1.90097706666,0.156856312923,-0.00486309613625,-0.0519595424067,0.0022066588846,-0.0808978628794,-0.000226619571292,0.0245820400909,-0.0142089328161,0.574057910113,0.818800201651,0.00211955542706,0.0,0.818758908593,-0.573998266774,-0.0118569069291,0.0,-0.00849198013996,0.00854212056256,-0.999927456594,0.0,0.659528484524,0.257988839656,0.303438408509,1.0,-0.00948,-0.0124594285714,0.475
0.463316346437,0.534746822988,-0.124065112518,-1.376077112,0.0783279617187,1.90149786406,0.156680914814,-0.00860185766485,-0.0510491337879,-0.000582719932728,-0.0861920661117,-0.00141804780063,0.0379320243853,-0.0154454738291,0.574078009798,0.818786136429,0.00210911335314,0.0,0.818744678304,-0.574018376455,-0.0118660078431,0.0,-0.00850521664577,0.00853900390294,-0.999927370714,0.0,0.659361812145,0.257765756331,0.303436855385,1.0,-0.00982,-0.0129062857143,0.492
0.463185281776,0.533848233592,-0.124069717883,-1.37755635346,0.0782355122391,1.90203835474,0.156504945363,-0.0122067898383,-0.0562153753437,0.000107400614007,-0.0896335418512,-0.00320719393919,0.0419717896396,-0.00590338677015,0.574100720192,0.818770311715,0.00207041793925,0.0,0.818728368315,-0.574041258532,-0.0118844149829,0.0,-0.0085422653056,0.00851812510216,-0.999927232977,0.0,0.65918920731,0.257534597533,0.303413629125,1.0,-0.01016,-0.0133531428571,0.509
0.463062809935,0.532976682564,-0.124068030831,-1.37894303401,0.0781641873184,1.90256946578,0.156332457849,-0.00829894646641,-0.0534042015237,0.000170755609756,-0.087756804456,-0.00362137818833,0.031847133154,-0.00358770930219,0.574115427918,0.818759950061,0.0020896181111,0.0,0.818718141954,-0.574055772108,-0.011887869688,0.0,-0.00853391855825,0.00853598199435,-0.999927151969,0.0,0.659030388524,0.257326177851,0.303414217007,1.0,-0.01048,-0.0137737142857,0.525
0.462932867728,0.532012307725,-0.124067387381,-1.38050155589,0.0780823157737,1.90314617939,0.15612759846,-0.0102573484132,-0.0588373441628,0.000396872484406,-0.092728774396,-0.00552323384826,0.0346828863187,-0.0155282848571,0.574116797663,0.818759013031,0.00208041387969,0.0,0.818716945518,-0.574057039668,-0.0119090398726,0.0,-0.00855652223878,0.00854061436521,-0.999926919246,0.0,0.658845445774,0.25709446425,0.303402265227,1.0,-0.01082,-0.0142205714286,0.542
0.462798766151,0.531012464795,-0.12406830765,-1.38211189182,0.0779795150427,1.90372232012,0.155919832426,-0.00289485683772,-0.0608590883418,-0.000239535450986,-0.0918015178902,-0.00677431003371,0.0295816721279,-0.0180195199551,0.574117120885,0.818758869398,0.00204748363063,0.0,0.818716372396,-0.574057497353,-0.0119263659433,0.0,-0.00858960994348,0.00852360335437,-0.999926780713,0.0,0.658651379481,0.256850040889,0.303390401206,1.0,-0.01116,-0.0146674285714,0.559
0.462656971416,0.529977725436,-0.124073729825,-1.38375402,0.0778688467456,1.90430857226,0.155708957343,-0.0105069273638,-0.0619575303145,0.00058130501367,-0.0956198060847,-0.00205561844359,0.0381565090792,-0.0162460741372,0.57412373277,0.818754296584,0.00202192919714,0.0,0.818711540947,-0.574064287515,-0.0119311952666,0.0,-0.00860816577784,0.00850552288924,-0.9999267751,0.0,0.658455803059,0.256594068837,0.303388766871,1.0,-0.0115,-0.0151142857143,0.576
0.462541960342,0.52910511008,-0.124074413572,-1.38512651364,0.0777951041983,1.90482023762,0.155524621664,-0.00813723528662,-0.0631520239697,0.00155269542922,-0.10143352074,-0.00520871040222,0.0375757108621,-0.0216430098307,0.57412216036,0.818755363472,0.00203633779744,0.0,0.818712698877,-0.574062560034,-0.011934855097,0.0,-0.00860290696642,0.00851940443075,-0.999926702184,0.0,0.658293707599,0.256389272068,0.303394481903,1.0,-0.01178,-0.0154822857143,0.59
0.462387505122,0.527894705512,-0.12407833231,-1.3870209523,0.0776670909801,1.90555761373,0.155258593856,-0.00657714615723,-0.0600484158109,0.00022976364426,-0.0992455855218,-0.00245700574093,0.0442072128648,-0.0171457124895,0.574100626773,0.818770351553,0.00208054268517,0.0,0.818728428204,-0.574041012514,-0.0118921698876,0.0,-0.0085428037655,0.00853086587422,-0.99992711976,0.0,0.658064742934,0.256093070122,0.303416309386,1.0,-0.01218,-0.016008,0.61
0.462249186073,0.526735542229,-0.124078034139,-1.38878581742,0.0775579014653,1.90621827347,0.155019065851,-0.00990388640454,-0.0674863876102,0.000933310879689,-0.105142537332,-0.0143371772629,0.0378987761507,-0.0127970733689,0.574084748188,0.818781390696,0.00211732093488,0.0,0.818739947401,-0.574024988651,-0.0118725664669,0.0,-0.00850580512039,0.00854955916686,-0.999927275514,0.0,0.657866927222,0.255847739865,0.30344205218,1.0,-0.0125,-0.0164285714286,0.626
0.462092392406,0.525564843266,-0.124075528607,-1.39062146119,0.0774444234591,1.90688538685,0.154779852188,-0.00974475960034,-0.0647738342137,0.00161873345046,-0.109668688642,-0.005542671384,0.0415590683631,-0.020921265377,0.574083770125,0.818782073428,0.00211849306178,0.0,0.818740608153,-0.574023968568,-0.0118763198263,0.0,-0.00850821578691,0.00855266342416,-0.999927228458,0.0,0.657645906533,0.255570474721,0.303449715225,1.0,-0.01284,-0.0168754285714,0.643
0.461929903864,0.524384409,-0.124083327881,-1.39249309006,0.0773296103011,1.90755196269,0.154525780409,-0.00692643539148,-0.0731320948386,-0.00129006538733,-0.112525923499,-0.00704415950366,0.0367126070578,-0.0098723562858,0.574083847208,0.818782079165,0.00209525989712,0.0,0.818740292952,-0.574024120872,-0.0118906793553,0.0,-0.00853330973744,0.00854188510994,-0.999927106755,0.0,0.657419853922,0.255279119601,0.303447083998,1.0,-0.01318,-0.0173222857143,0.66
0.461777473204,0.523192042638,-0.124092219915,-1.39439784479,0.077209012028,1.90826429336,0.154262400681,-0.00209328529324,-0.0737410138871,-0.000998796722116,-0.110235700827,-0.00593479961922,0.0431278041998,-0.0156006760974,0.574069034373,0.818792480971,0.00208896642917,0.0,0.818750676702,-0.574009399276,-0.0118863722248,0.0,-0.00853355013584,0.00853410521074,-0.999927171133,0.0,0.657192845191,0.254992153851,0.303440769049,1.0,-0.01352,-0.0177691428571,0.677
0.461608916927,0.521959749462,-0.124092550204,-1.39635001385,0.0770955622659,1.90902869324,0.153996005798,-0.0129970903317,-0.0711290746599,-0.000258526357342,-0.116089590522,-0.00469328593192,0.0464487896965,-0.0175443768234,0.574063371689,0.818796353371,0.00212694448079,0.0,0.818755025244,-0.574003566048,-0.0118685173448,0.0,-0.00849718860233,0.00855489227418,-0.99992730316,0.0,0.656967260693,0.254699162186,0.303443874096,1.0,-0.01386,-0.018216,0.694
0.461456881521,0.520787155307,-0.124099302097,-1.39825714219,0.0769782475429,1.90974549067,0.153745753153,-0.00630195610013,-0.0758455395886,-0.00051954409802,-0.120168606618,-0.0103411020278,0.0448383027456,-0.0182616749313,0.574058041041,0.818800141763,0.00210719385001,0.0,0.818758580274,-0.573998339221,-0.0118760557699,0.0,-0.00851475431307,0.00854299283464,-0.99992725547,0.0,0.656738022498,0.254414063301,0.30342224119,1.0,-0.01418,-0.0186365714286,0.71
0.461288436626,0.519475206371,-0.124105684805,-1.40030052244,0.0768476829057,1.91048062328,0.15346647016,-0.0104710134777,-0.0776921973308,0.000490265012821,-0.121645218991,-0.00793370907979,0.0389650941453,-0.0165265874425,0.57404516713,0.818809170455,0.00210603283807,0.0,0.818767617534,-0.573985495335,-0.0118737746413,0.0,-0.00851368717732,0.0085405988707,-0.999927285007,0.0,0.656488088967,0.254103244495,0.303434791644,1.0,-0.01452,-0.0190834285714,0.727
0.461122332312,0.518223054613,-0.124113528291,-1.40227563123,0.076714368278,1.91119039195,0.1531958586,-0.0119861867803,-0.0730779936109,-0.000714699652083,-0.123693043043,-0.0150936307572,0.0459917314443,-0.0128244648343,0.574033822693,0.818817174966,0.00208597358864,0.0,0.818775451041,-0.573974323347,-0.0118736604199,0.0,-0.00852522593945,0.00852399075931,-0.999927328412,0.0,0.656246834189,0.253798323702,0.303435338437,1.0,-0.01484,-0.019504,0.743
0.460932877861,0.516780572213,-0.124115259196,-1.40453023108,0.0765745033778,1.91201232917,0.152874426519,-0.0121688371913,-0.0731394542782,-0.000450547413541,-0.123924764332,-0.00797850070284,0.044692660369,-0.0215030355471,0.574008484715,0.818834920174,0.00209281629528,0.0,0.818793258709,-0.573948934296,-0.0118729614864,0.0,-0.00852098984403,0.00852892871447,-0.999927322413,0.0,0.655970957825,0.25345755712,0.303445543689,1.0,-0.0152,-0.0199771428571,0.761
0.460755969622,0.515503475164,-0.124126932361,-1.406576119,0.0764436594241,1.91279278089,0.152597200017,-0.0123374509381,-0.0807102435576,-0.00166491497819,-0.132433927696,-0.00600379662698,0.0494184604139,-0.0232171070878,0.574007483463,0.818835618312,0.00209428117539,0.0,0.818794080518,-0.573948032014,-0.0118598970252,0.0,-0.00850946138815,0.00852261876173,-0.999927474388,0.0,0.655729701762,0.253140488075,0.303435424711,1.0,-0.01552,-0.0203977142857,0.777
0.460575858121,0.514113834986,-0.124130539624,-1.40881454255,0.0763111423168,1.91358948028,0.152300763317,-0.00806990594713,-0.0800133222146,-0.00010604556985,-0.13012792133,-0.0183651012534,0.0458748218551,-0.0129503165603,0.573996737604,0.818843260441,0.00205108528634,0.0,0.818801051675,-0.57393735383,-0.0118953165161,0.0,-0.0085633701697,0.00850746745764,-0.99992714319,0.0,0.655447209256,0.252805584699,0.303413345214,1.0,-0.01586,-0.0208445714286,0.794
0.46037466519,0.51261732441,-0.124129217172,-1.41122205343,0.0761696223481,1.9144168041,0.151965902783,-0.0116020690191,-0.089519845674,0.000728021453278,-0.136544622578,-0.00877658662922,0.047403120155,-0.0190422009517,0.573974139298,0.818859265049,0.0019845306829,0.0,0.818815991311,-0.573914838002,-0.0119531583647,0.0,-0.00864916939147,0.0084859326232,-0.999926587713,0.0,0.655137206074,0.252441809072,0.303387712447,1.0,-0.01622,-0.0213177142857,0.812
0.460183202995,0.511271156601,-0.124133776405,-1.413378664,0.0760309880598,1.91524075779,0.151653790259,-0.00853033270331,-0.0852186360204,-0.00108781356655,-0.135757772559,-0.008758405101,0.0536677358902,-0.0264377373834,0.573954122523,0.818873284664,0.00198892019141,0.0,0.818830144044,-0.573894879875,-0.0119418993525,0.0,-0.00863763753485,0.00848285349214,-0.999926713522,0.0,0.654880157248,0.252109000821,0.303375606074,1.0,-0.01654,-0.0217382857143,0.828
0.459981976102,0.509791516431,-0.124136927761,-1.41572167934,0.0758911678588,1.91612172565,0.151328289978,-0.012903394186,-0.0895277369108,-0.00106841215511,-0.137767106826,-0.00742521092281,0.0498436868455,-0.0199384071768,0.573939186861,0.818883717268,0.00200356695626,0.0,0.818840724658,-0.573879842916,-0.0119390300001,0.0,-0.00862703667409,0.0084930429059,-0.999926718545,0.0,0.654594887403,0.251753995224,0.303372673513,1.0,-0.01688,-0.0221851428571,0.845
0.459790898069,0.508378888606,-0.124137992303,-1.41796191377,0.0757585627637,1.91691371694,0.151021987439,-0.0134312539578,-0.0872535886234,-0.000288655784175,-0.134471923006,-0.00105581997342,0.0525808254009,-0.017361780986,0.573926051107,0.818892990095,0.00197624259948,0.0,0.818849505996,-0.573866690286,-0.011968926962,0.0,-0.00866733746146,0.00848768767788,-0.999926415502,0.0,0.654310283736,0.251413435123,0.30336350665,1.0,-0.0172,-0.0226057142857,0.861
0.45958922871,0.506936689013,-0.124141201466,-1.42020899274,0.0756120725223,1.91773877762,0.150707492727,-0.0109465682322,-0.08280224956,-0.000500298411246,-0.142614895792,-0.00427305260862,0.0513288746223,-0.0138203447693,0.573910326619,0.818904010934,0.00197605094525,0.0,0.818860567258,-0.573851010588,-0.0119639433056,0.0,-0.00866352912746,0.00848450416115,-0.999926475523,0.0,0.654014266651,0.251041958815,0.303367072309,1.0,-0.01754,-0.0230525714286,0.878
0.459340018665,0.50515079716,-0.124146551698,-1.42295547465,0.0754351368879,1.91878590231,0.150329783086,-0.0188380008688,-0.0959970056141,0.000559828411859,-0.137378659238,-0.00980588761649,0.0524530908653,-0.0242452272261,0.573905303856,0.818907338117,0.0020544307865,0.0,0.818865016607,-0.573845762435,-0.0119110207259,0.0,-0.00857526097618,0.00851826347199,-0.999926949375,0.0,0.653705397123,0.250638349132,0.303406142128,1.0,-0.0179,-0.0235257142857,0.896
0.459128326207,0.503590782266,-0.124150408209,-1.42528960484,0.0752861780885,1.9196780152,0.150001780475,-0.0144995618792,-0.0909497725502,-0.00039896245558,-0.138419117782,-0.0138985036277,0.0574153354784,-0.0206040305904,0.573892643608,0.818915962777,0.00215091200029,0.0,0.818874973327,-0.573832790502,-0.0118513081527,0.0,-0.00847112468621,0.00856287143466,-0.999927456008,0.0,0.653426005333,0.250277805292,0.303462339954,1.0,-0.01822,-0.0239462857143,0.912
0.458886859847,0.501898214025,-0.124161426086,-1.42779851313,0.0751218128371,1.92060167804,0.14965712226,-0.017804474546,-0.0995159014662,-0.00385462328924,-0.147116769568,-0.0124891502863,0.0616510896257,-0.025658331783,0.573899899216,0.818910649921,0.00223607411114,0.0,0.818870870124,-0.573839815661,-0.0117945294825,0.0,-0.00837567870608,0.00860010081297,-0.99992794054,0.0,0.653123243775,0.249874437209,0.303530223311,1.0,-0.01856,-0.0243931428571,0.929
0.458658217439,0.500177192573,-0.124156830424,-1.43038637873,0.0749619033765,1.92150689659,0.149290813473,-0.0142540773506,-0.0966144416847,0.000221476274242,-0.155002223528,-0.0113110249827,0.0563987683934,-0.0199789331287,0.573872345417,0.818929857136,0.00227313856921,0.0,0.818890430361,-0.57381199005,-0.0117902518308,0.0,-0.00835119586775,0.00862771700272,-0.999927907415,0.0,0.652790416547,0.249479227015,0.30357766858,1.0,-0.0189,-0.02484,0.946
0.458422083522,0.498609703908,-0.124156834319,-1.4328449882,0.0748007706809,1.92242731133,0.14893780866,-0.01384850976,-0.0930977964656,0.000556800086446,-0.153506873571,-0.00768902583196,0.0564882288938,-0.0220074012921,0.573858148138,0.818939754112,0.00229169194612,0.0,0.818900621119,-0.573797778131,-0.0117741005715,0.0,-0.00832747160967,0.0086334977296,-0.999928055379,0.0,0.652489634793,0.24909061509,0.303580492244,1.0,-0.01922,-0.0252605714286,0.962
0.458160441651,0.496936551883,-0.124157513583,-1.43551730837,0.0746382042918,1.92338708817,0.148550391552,-0.0160732726548,-0.0947647094389,0.000526159473431,-0.158030606644,-0.0107071717569,0.0562841877105,-0.023298204705,0.573847115201,0.818947575176,0.00225928976317,0.0,0.818907905369,-0.573786751282,-0.0118048074113,0.0,-0.00837132904554,0.00862447097386,-0.999927767066,0.0,0.652153283159,0.248663617543,0.303558181247,1.0,-0.01956,-0.0257074285714,0.979
0.457894904644,0.495272226877,-0.124156866371,-1.43822970394,0.0744754747954,1.92431831946,0.148152883585,-0.012711244819,-0.0939356953156,0.000561023366595,-0.16691302873,-0.00459107855794,0.0551475233827,-0.0130955463343,0.57383132256,0.818958898707,0.0021638806532,0.0,0.818917769901,-0.57377111367,-0.0118803265269,0.0,-0.00848809033854,0.00858950917688,-0.999927083669,0.0,0.651800677625,0.248228249511,0.303507565707,1.0,-0.0199,-0.0261542857143,0.996
0.457589325148,0.493403412515,-0.12419969331,-1.4411799897,0.0742866552807,1.92538044971,0.147733184416,-0.020778911211,-0.134426198364,-0.0028127785219,-0.198692293071,-0.00833046470364,0.0757883345398,-0.0285819261838,0.57386581379,0.818934807309,0.00213448871426,0.0,0.818893445679,-0.573805869773,-0.0118783559124,0.0,-0.00850298066577,0.00856466609649,-0.999927170255,0.0,0.651441626448,0.247720569167,0.303498017316,1.0,-0.0298817142857,-0.0392731102041,1.013
0.457278918621,0.49061196358,-0.124271333072,-1.44540610992,0.0740546828834,1.92700602101,0.147105989,-0.0197489298979,-0.181930044896,-0.00183789238681,-0.300998444862,-0.0168037427257,0.115068962883,-0.0424304976171,0.573807718799,0.818975077342,0.00229596168655,0.0,0.818935896952,-0.573747232105,-0.0117837700605,0.0,-0.00833347277917,0.00864203004628,-0.999927931677,0.0,0.650917298362,0.247084894278,0.303571718677,1.0,-0.043084,-0.0566246857143,1.029
0.456675173487,0.486335747078,-0.124308590824,-1.45219700407,0.0737006717002,1.92960208045,0.146085949966,-0.0445970544878,-0.269032868818,-0.00304421231767,-0.418122790852,-0.0232331648229,0.166829237701,-0.0662887709038,0.573737467083,0.819024031455,0.00238781612634,0.0,0.818985595633,-0.573676170687,-0.0117894967058,0.0,-0.00828620744434,0.00871983087445,-0.999927649041,0.0,0.650067125002,0.246040473669,0.303537729643,1.0,-0.0579365714286,-0.0761452081633,1.047
0.45593184985,0.481383384261,-0.12445442237,-1.46004486464,0.0732266429351,1.93239475983,0.144876968915,-0.0492220249809,-0.336777999965,-0.00678100321884,-0.529105765137,-0.025175447994,0.180574761698,-0.082280932221,0.573719191317,0.81903714337,0.00227907780074,0.0,0.818997457058,-0.573658484299,-0.0118260570526,0.0,-0.00837872898545,0.00865156138131,-0.999927471063,0.0,0.649070909175,0.244720812601,0.303485520427,1.0,-0.0711388571429,-0.0934967836735,1.063
0.454930428254,0.474930611007,-0.124624784118,-1.47023868228,0.0726245676745,1.93593931349,0.143392111648,-0.0582718143314,-0.413239536416,-0.0123836852807,-0.630317916994,-0.0346845801226,0.222622474018,-0.0819327861256,0.573778568263,0.818996021631,0.00210191701644,0.0,0.81895388108,-0.573718411487,-0.0119361587394,0.0,-0.00856992302696,0.00857025017426,-0.999926550918,0.0,0.647748358521,0.242993388208,0.303415225372,1.0,-0.0851662857143,-0.111932832653,1.08
0.453716101553,0.467290257093,-0.124764136872,-1.48189912193,0.0719518790659,1.94022863758,0.141603429246,-0.0701061250869,-0.47750486986,-0.0120054097066,-0.71222369367,-0.0495909396225,0.279685406675,-0.121061900138,0.573786099404,0.818990102488,0.00233902957014,0.0,0.81895086298,-0.573724806194,-0.0118354418538,0.0,-0.00835131123862,0.00870672993253,-0.999927221579,0.0,0.646270538074,0.241029442893,0.303519618906,1.0,-0.0991937142857,-0.130368881633,1.097
0.452274052953,0.458631082831,-0.124856121038,-1.49529342054,0.0711131803339,1.94503526761,0.139482355184,-0.0871808433671,-0.529149708872,-0.00390122179707,-0.821351168941,-0.049043717427,0.293617554364,-0.12355140458,0.57369723964,0.819052190898,0.00239430909295,0.0,0.819013454974,-0.573635519008,-0.0118321090874,0.0,-0.00831781427544,0.00874918813401,-0.999927130181,0.0,0.644515664668,0.238767666097,0.303529646336,1.0,-0.113221142857,-0.148804930612,1.114
0.450669288713,0.449381304959,-0.125028935364,-1.50942186831,0.070154060788,1.94997508616,0.137257103126,-0.101558644213,-0.61489390045,-0.0125597024248,-0.895060690585,-0.0731002586019,0.33819953338,-0.140997780456,0.573699870295,0.81905034397,0.00239578125877,0.0,0.819012107325,-0.57363864933,-0.0117734850628,0.0,-0.00826892346746,0.00871678853609,-0.999927818646,0.0,0.642647224229,0.236270407929,0.303590832078,1.0,-0.126423428571,-0.166156506122,1.13
0.44875605353,0.438601864473,-0.125156506206,-1.52600988744,0.0690653055659,1.9557093913,0.134699753149,-0.123511745379,-0.651717856509,-0.00945128049178,-1.01888766305,-0.0637281055664,0.33848601867,-0.158531112674,0.573709283818,0.819043979278,0.00231615413164,0.0,0.819004411581,-0.573648057276,-0.0118501939596,0.0,-0.00837733398755,0.00869567416005,-0.999927100106,0.0,0.640381175465,0.233372859576,0.303574069076,1.0,-0.140450857143,-0.184592555102,1.147
0.446559589718,0.426660574369,-0.125306011615,-1.54388664647,0.0678740318491,1.96199125217,0.131741727812,-0.134751341288,-0.723097346061,-0.00698034784807,-1.08735346592,-0.0811528573917,0.374928071078,-0.18115993431,0.573644902513,0.819088251661,0.00259011826976,0.0,0.819052273318,-0.573582690252,-0.0117054652785,0.0,-0.00810231807933,0.00883639287351,-0.999928132719,0.0,0.637947903043,0.230175474157,0.303752916555,1.0,-0.154478285714,-0.203028604082,1.164
0.444056715767,0.41384244687,-0.125469343877,-1.56304509195,0.0664954926769,1.96873157502,0.128556587475,-0.15314553155,-0.775247319986,-0.00874222496074,-1.14721540757,-0.0860172218089,0.417536135728,-0.192977879541,0.573628879613,0.819098585478,0.00285703393427,0.0,0.819066829902,-0.573566627195,-0.011471670428,0.0,-0.00775787906637,0.00892075493452,-0.99993011528,0.0,0.63531805311,0.226650982341,0.30392047043,1.0,-0.168505714286,-0.221464653061,1.181
0.441252698102,0.40015962273,-0.125620729631,-1.58362440103,0.065137033687,1.97572713612,0.125076246029,-0.174994867237,-0.847335533295,-0.012395742327,-1.21556433704,-0.0759118831297,0.417504418632,-0.199635666692,0.573647149261,0.819085436832,0.00295672379222,0.0,0.819054167659,-0.573583648696,-0.0115245515705,0.0,-0.00774381302887,0.00903291701119,-0.99992921738,0.0,0.632382526079,0.222826196494,0.303976393608,1.0,-0.182533142857,-0.239900702041,1.198
0.438107422861,0.385577476689,-0.125785045953,-1.60550575345,0.0635377235974,1.98318619758,0.121293693862,-0.188626473314,-0.87671729416,-0.00769570560031,-1.32452085317,-0.0906670597344,0.434555226852,-0.232588245642,0.573650074604,0.819083114698,0.00303150541226,0.0,0.819053062474,-0.573586633831,-0.011454311115,0.0,-0.00764334899806,0.00905390453319,-0.99992980055,0.0,0.629226021593,0.218654503253,0.304009042643,1.0,-0.196560571429,-0.25833675102,1.215
0.434866903272,0.370957578916,-0.125963083591,-1.62709694315,0.0619198072697,1.99037832929,0.117367543988,-0.213039285969,-0.921545115352,-0.014057889689,-1.38255154904,-0.103830177871,0.452565129361,-0.24595081488,0.573566713159,0.819141005769,0.00315992467243,0.0,0.819112852956,-0.573503191435,-0.0113565152129,0.0,-0.0074905046246,0.00910222926327,-0.999930518468,0.0,0.626032286013,0.214454332919,0.304127161157,1.0,-0.209762857143,-0.275688326531,1.231
0.431015860519,0.354782043316,-0.126133988789,-1.65107671436,0.0600555866736,1.99826852243,0.113027296035,-0.23966534902,-0.955135689852,-0.00854010756508,-1.43932251737,-0.105842411875,0.463668948935,-0.270648072555,0.573609732427,0.819110915639,0.00315113429862,0.0,0.819082956019,-0.57354660282,-0.0113204440572,0.0,-0.00746552065951,0.00907473199943,-0.999930955237,0.0,0.622414137361,0.209663533179,0.304145417334,1.0,-0.223790285714,-0.29412437551,1.248
0.426995350471,0.338737716439,-0.126353483234,-1.67461944874,0.0583056301562,2.00589290609,0.108560360868,-0.256475207233,-1.01304608248,-0.00980798757177,-1.49417612448,-0.110405218425,0.47180028231,-0.283984487182,0.573704121099,0.819044557363,0.00321580295162,0.0,0.819016871777,-0.573640111557,-0.0113636727333,0.0,-0.00746278442168,0.00915335898213,-0.999930259002,0.0,0.618555325001,0.204512080321,0.304179671079,1.0,-0.237817714286,-0.31256042449,1.265
0.422448314353,0.321019612991,-0.126512191474,-1.70059040076,0.056200474933,2.01418852137,0.103494432136,-0.27173817226,-1.05566851919,-0.00338769106455,-1.54785252395,-0.125308359619,0.483382645045,-0.301274928439,0.573601533664,0.819116482261,0.00319624282071,0.0,0.819088700104,-0.573537784115,-0.0113515838577,0.0,-0.00746524714184,0.00912946805805,-0.999930459031,0.0,0.614670123678,0.199479180645,0.304173483477,1.0,-0.25102,-0.329912,1.281
0.417502682041,0.302486888692,-0.126702759968,-1.72734979136,0.0539847921827,2.02258422322,0.0980331706773,-0.295120246261,-1.10043008521,-0.0102130593616,-1.57907125457,-0.136497890687,0.491388549546,-0.332677441943,0.573458026044,0.819216705345,0.00326020726934,0.0,0.819189863845,-0.573394257995,-0.0113021578835,0.0,-0.00738967469066,0.00915221810756,-0.999930812412,0.0,0.610324075273,0.193839105166,0.304229175733,1.0,-0.265047428571,-0.34834804898,1.298
0.412039043009,0.283237776349,-0.126920643081,-1.75492929888,0.0517115868946,2.03100776081,0.0923155732872,-0.326308615488,-1.14215626841,-0.0115522814442,-1.6541277866,-0.132456332741,0.488914157968,-0.348770748162,0.573492991264,0.819192076066,0.00329823945934,0.0,0.819165230005,-0.573428498242,-0.0113503416663,0.0,-0.00740694806033,0.00921132182587,-0.999930141895,0.0,0.605733944557,0.187844919224,0.304265858794,1.0,-0.279074857143,-0.366784097959,1.315
0.406071872303,0.263248937912,-0.127179222,-1.78319517298,0.0492915753332,2.03951085779,0.0861253375446,-0.359917456789,-1.1940621261,-0.0155867303768,-1.65834021601,-0.14254423291,0.49136483646,-0.364562112872,0.573485210146,0.81919699078,0.00342796469429,0.0,0.819171672683,-0.573420176945,-0.0113056732035,0.0,-0.00729604981707,0.00929190684348,-0.999930211627,0.0,0.600936363664,0.181516227499,0.304352670304,1.0,-0.293102285714,-0.385220146939,1.332
0.399933243785,0.243954883814,-0.127482084004,-1.81039915801,0.0468249568537,2.04753186668,0.0800358760905,-0.388944127325,-1.22071925737,-0.0129227432171,-1.72283112578,-0.153024682742,0.485467238261,-0.39505344054,0.573618609199,0.819103649803,0.00341305731418,0.0,0.819078520423,-0.57355408343,-0.0112622228692,0.0,-0.0072674948193,0.00925596075964,-0.999930752957,0.0,0.596225491224,0.175207368634,0.304355288134,1.0,-0.306304571429,-0.402571722449,1.348
0.392611029363,0.221513591136,-0.12771419154,-1.84169878586,0.0440166738828,2.05649524642,0.0726136022982,-0.412849502388,-1.24932534054,-0.0186926929692,-1.77513129614,-0.160027605063,0.488630362633,-0.419145538909,0.573479643153,0.819200742829,0.00346247584509,0.0,0.819175535202,-0.573414089549,-0.0113345196144,0.0,-0.00729995500018,0.00933667152717,-0.999929766144,0.0,0.590600603195,0.167959809179,0.304355321206,1.0,-0.321157142857,-0.422092244898,1.366
0.38550544358,0.200941572976,-0.127981877177,-1.86996952615,0.0412935219942,2.06427394751,0.0656195778311,-0.465035998342,-1.28648433286,-0.018063735145,-1.77986001958,-0.172389642876,0.46264291104,-0.451419403806,0.573415364106,0.819245846966,0.00343647165455,0.0,0.819220347963,-0.573349946857,-0.0113404948876,0.0,-0.00732049344084,0.00931822091432,-0.999929788103,0.0,0.585394231314,0.161154757105,0.304391021294,1.0,-0.334359428571,-0.439443820408,1.382
0.3773070549,0.178460099772,-0.128391544844,-1.9004644373,0.0383587219054,2.07243585818,0.0576536660749,-0.501068866569,-1.3273079309,-0.0370944637961,-1.78012344073,-0.171678490112,0.477520921816,-0.484911777323,0.573452332387,0.819219689405,0.0035028378015,0.0,0.819194692619,-0.573386273776,-0.0113570916703,0.0,-0.00729561445926,0.00938243748459,-0.999929369444,0.0,0.579660886057,0.153547308274,0.304451296911,1.0,-0.348386857143,-0.457879869388,1.399
0.368455464049,0.155334643548,-0.128794979742,-1.93146236551,0.0352513623367,2.08050625954,0.0492533630178,-0.527078551955,-1.38777988454,-0.0231321259282,-1.82389902024,-0.182618299023,0.488181250077,-0.50916747424,0.573516566449,0.819174322842,0.00359495557473,0.0,0.819150370605,-0.573450060479,-0.0113333744401,0.0,-0.00722262089858,0.00944486902951,-0.9999293116,0.0,0.573676565339,0.145639803472,0.304505497636,1.0,-0.362414285714,-0.476315918367,1.416
0.35899988991,0.131642575351,-0.129183566807,-1.96283385974,0.0319387302174,2.08832181928,0.0403319274265,-0.568082980015,-1.41446266406,-0.027768830371,-1.84172953087,-0.191182878002,0.46028206144,-0.536189811987,0.573466350407,0.819209416336,0.00360888327904,0.0,0.819185705953,-0.573399895229,-0.0113175180203,0.0,-0.00720222270276,0.00944674323047,-0.999929441026,0.0,0.567423773882,0.137486531687,0.304539230882,1.0,-0.376441714286,-0.494751967347,1.433
0.34928273326,0.108847109353,-0.129677845798,-1.99259271854,0.0286507560882,2.09545661145,0.0313427441969,-0.619402476879,-1.43954772807,-0.0299107240515,-1.87809796402,-0.219882700891,0.437943016406,-0.573408272446,0.573552411029,0.819149087086,0.00362654506923,0.0,0.819126103775,-0.573486555526,-0.0112402689341,0.0,-0.00712781842833,0.00941766239967,-0.999930248487,0.0,0.561371187059,0.129390992728,0.304580251957,1.0,-0.389644,-0.512103542857,1.449
0.337639925738,0.0826470560382,-0.130147286073,-2.02636069188,0.0249179735937,2.10305350024,0.0205670956656,-0.673129759313,-1.45441200459,-0.0288844111079,-1.88581821746,-0.210113301539,0.41259930733,-0.612971720791,0.573500290995,0.819185657926,0.00360845928488,0.0,0.819161685935,-0.573433496715,-0.0113535916196,0.0,-0.00723162722644,0.00946738196554,-0.999929033605,0.0,0.554239537097,0.120102525763,0.30458459312,1.0,-0.39998,-0.525688,1.467
0.326616205157,0.0595186386018,-0.1305819891,-2.05583171733,0.0214829421277,2.10935431869,0.0105564294446,-0.711128170175,-1.4371464674,-0.034642743988,-1.82227467415,-0.222035147247,0.366288976409,-0.621270614667,0.573515770252,0.819175264448,0.00350632152606,0.0,0.81914961278,-0.573448794956,-0.0114515652986,0.0,-0.0073702850788,0.00944003696313,-0.999928279728,0.0,0.54785554292,0.11166848086,0.304537890328,1.0,-0.39998,-0.525688,1.483
0.314301525164,0.034960448295,-0.131049083471,-2.08644097604,0.0178634589461,2.11545199084,-0.000301060001161,-0.728510550902,-1.41875312199,-0.0156753065701,-1.75691160341,-0.196131175193,0.352496687149,-0.64470888588,0.573757523524,0.819005875702,0.00352514758792,0.0,0.818979690286,-0.573689464094,-0.0115504366617,0.0,-0.00743767866063,0.00951435739526,-0.999927076311,0.0,0.541031251141,0.102623438179,0.304573198648,1.0,-0.39998,-0.525688,1.5
0.301544489088,0.0106785001094,-0.131480372706,-2.11604906079,0.0140935944299,2.12115443675,-0.0116258415011,-0.755973751059,-1.43430004213,-0.0285034388996,-1.70769904445,-0.223324113391,0.337061399509,-0.676713778555,0.573783389472,0.818986948152,0.00370777884805,0.0,0.818964095789,-0.573716074282,-0.011332379257,0.0,-0.00715399611461,0.00953905238889,-0.999928910883,0.0,0.534279681911,0.0936181302616,0.304698705662,1.0,-0.39998,-0.525688,1.517
0.288287528456,-0.0132314102342,-0.131895244865,-2.14479009127,0.0104523761248,2.12626298923,-0.0232987052456,-0.769232690499,-1.42455963361,-0.0187726247711,-1.67463050511,-0.220539070197,0.316650110443,-0.694258715454,0.573880896346,0.818917723495,0.00390203227987,0.0,0.818897320207,-0.573812990062,-0.0112507020162,0.0,-0.00697449675367,0.00965211256801,-0.999929094045,0.0,0.527519000283,0.0846355837347,0.304789660204,1.0,-0.39998,-0.525688,1.534
0.274577481157,-0.036814141652,-0.132317096098,-2.17274931998,0.00668973092987,2.13073506345,-0.0353225944965,-0.812761297861,-1.39917902729,-0.0320011242581,-1.66278862849,-0.228691059921,0.252755415021,-0.710516616609,0.573925807363,0.818886246623,0.00390251653581,0.0,0.818866064345,-0.573858191137,-0.0112201617206,0.0,-0.00694867882133,0.00963536424155,-0.99992943532,0.0,0.520719316771,0.075655691037,0.304833243713,1.0,-0.39998,-0.525688,1.551
0.260327225324,-0.0600328346317,-0.132755524594,-2.19992532486,0.00307174575612,2.13468072882,-0.0477855119633,-0.840748722876,-1.3472942361,-0.0181401648064,-1.59835404339,-0.212169210352,0.22234833455,-0.750991399872,0.574048080808,0.818800442717,0.00392209493748,0.0,0.818779632944,-0.573979179539,-0.0113384758043,0.0,-0.00703288357883,0.00972034887488,-0.999928024093,0.0,0.513907732923,0.0666722004403,0.3048268331,1.0,-0.39998,-0.525688,1.568
0.246503224212,-0.0816650927659,-0.133190674704,-2.2247606974,-0.000390832893996,2.13792623702,-0.0599403723444,-0.884514255974,-1.3296055874,-0.0354520658604,-1.52020490506,-0.212482717092,0.179884430607,-0.765062607236,0.574074982638,0.818781430338,0.00395354819202,0.0,0.818760679967,-0.574005514124,-0.0113738997776,0.0,-0.00704351507533,0.00976666916197,-0.999927497906,0.0,0.507500326139,0.0582347985736,0.304850681732,1.0,-0.39998,-0.525688,1.584
0.231396649716,-0.104325993973,-0.133561900234,-2.25041001489,-0.00405780674687,2.1409219491,-0.0733038178596,-0.883097078766,-1.32793934994,-0.0200489967814,-1.49750151596,-0.207196568429,0.154980413378,-0.791320543794,0.573940405146,0.818875720291,0.00396395757553,0.0,0.818854711455,-0.573870383179,-0.0114232981299,0.0,-0.00707959993566,0.00980238641981,-0.99992689357,0.0,0.500679885549,0.0493672879236,0.304849105672,1.0,-0.39998,-0.525688,1.601
0.21566437129,-0.126600983049,-0.134019474295,-2.27531912994,-0.00775936265669,2.14344008486,-0.0870364589329,-0.930276910245,-1.32039367107,-0.0276393514594,-1.4749840504,-0.215524187969,0.138002955803,-0.822495156452,0.574004538471,0.818831218829,0.0038693393849,0.0,0.818808524407,-0.573934144345,-0.0115301870662,0.0,-0.00722067015993,0.00978681620412,-0.99992603734,0.0,0.493856191901,0.0404096280399,0.304788640871,1.0,-0.39998,-0.525688,1.618
0.199557648518,-0.148553768055,-0.134351314019,-2.29939828262,-0.0113889703648,2.14549179731,-0.101366428098,-0.957500882322,-1.29294868338,-0.0202692323297,-1.41297588002,-0.221980430198,0.125319047231,-0.855966613773,0.573756362046,0.819005307879,0.00383269858416,0.0,0.818981641706,-0.573685443924,-0.0116115838623,0.0,-0.0073113261931,0.0098013185988,-0.999925236537,0.0,0.487044088791,0.0316101090016,0.304751085688,1.0,-0.39998,-0.525688,1.635
0.183762478752,-0.168958934539,-0.134832055949,-2.32136323574,-0.0147678047687,2.14690456401,-0.115256873498,-0.988870692021,-1.30170399327,-0.0235564770824,-1.3520231199,-0.212443396424,0.0941981336082,-0.887355912473,0.573815464657,0.818964108828,0.00378785856686,0.0,0.81893885096,-0.573743338026,-0.0117680652973,0.0,-0.00746450820567,0.00985491213665,-0.999923577992,0.0,0.480623411414,0.023189688505,0.304722238485,1.0,-0.39998,-0.525688,1.651
0.166457509113,-0.190273373333,-0.13535394041,-2.34399922398,-0.0183806658871,2.14795109158,-0.130580291207,-1.04326558672,-1.25842333101,-0.0453308329203,-1.28861548192,-0.205663784631,0.0599526592684,-0.912472801657,0.573792889255,0.818980575213,0.00364479980967,0.0,0.81895219917,-0.573719636805,-0.011992527704,0.0,-0.00773070285426,0.00986633389793,-0.999921442759,0.0,0.473781214749,0.0142497580179,0.304651214888,1.0,-0.39998,-0.525688,1.668
0.148603447739,-0.211431173569,-0.135873527811,-2.36597687553,-0.0218670040252,2.14867567596,-0.146475976321,-1.06484013121,-1.21088719037,-0.0286619712324,-1.26719050273,-0.197561415115,0.0148622190269,-0.946235249289,0.573759197823,0.819003916607,0.00370329544208,0.0,0.818975059257,-0.573684138623,-0.0121288213635,0.0,-0.00780918069569,0.00999212179948,-0.999919583866,0.0,0.466929365765,0.00534358558974,0.30463165991,1.0,-0.39998,-0.525688,1.685
0.130098433615,-0.232251408448,-0.136509423468,-2.38703745154,-0.0255255554952,2.14905021025,-0.162819951073,-1.09251930735,-1.22113143563,-0.0291779659496,-1.2332896436,-0.211494008005,0.0174797176902,-0.967544564742,0.573869397706,0.818926343412,0.00378224052564,0.0,0.81889942257,-0.573795195808,-0.0119814808595,0.0,-0.00764186599554,0.00997327180334,-0.999921064751,0.0,0.460146429417,-0.00366750654553,0.304696354167,1.0,-0.39998,-0.525688,1.702
0.113296172634,-0.250327989319,-0.137083637137,-2.40486502349,-0.0284681968485,2.14910072311,-0.177796626125,-1.13514737796,-1.19319937173,-0.044898806098,-1.18143545055,-0.193261771715,-0.00783663082269,-1.00917998679,0.574013259114,0.818823828787,0.00413069880231,0.0,0.818801672531,-0.573938123368,-0.0118151811986,0.0,-0.00730392701131,0.0101644894528,-0.999921664834,0.0,0.454212281527,-0.0115821336552,0.304822088135,1.0,-0.39998,-0.525688,1.717
0.0926098255822,-0.27148711904,-0.13768983918,-2.42556254341,-0.0321535571323,2.14889441069,-0.1963763472,-1.16841604014,-1.18518227791,-0.0399672283604,-1.11644886657,-0.213443658982,-0.00073018910935,-1.0474870098,0.573949691968,0.818867396248,0.00432265576363,0.0,0.818849005562,-0.573875775495,-0.0115605921934,0.0,-0.00698605910321,0.010174996602,-0.99992382931,0.0,0.44708086926,-0.0210250927829,0.304890109309,1.0,-0.39998,-0.525688,1.735
0.0724589219553,-0.290932097747,-0.138297636638,-2.4444418775,-0.0354723414311,2.14811867927,-0.214558277393,-1.20299547045,-1.12812101035,-0.0303048585342,-1.08881513104,-0.198528436471,-0.0458847701389,-1.08653972361,0.573944589622,0.818870937967,0.00432919133422,0.0,0.818851418616,-0.57386889461,-0.0117300012767,0.0,-0.00712110600561,0.0102775331089,-0.999921828026,0.0,0.440252264655,-0.0299338360197,0.304838016911,1.0,-0.39998,-0.525688,1.752
0.0516735883349,-0.309979582144,-0.138910561926,-2.4623899001,-0.0388221313262,2.14714601301,-0.233382705694,-1.23221591205,-1.10546224379,-0.0320185086195,-1.04143595953,-0.191931078722,-0.0627871402178,-1.11820242065,0.573907970645,0.81889589176,0.00446168019504,0.0,0.818878897447,-0.573833056054,-0.0115638227505,0.0,-0.00690944039012,0.0102903439275,-0.999923181277,0.0,0.433505644508,-0.0388724749996,0.304896667471,1.0,-0.39998,-0.525688,1.769
0.0290527929526,-0.329605111819,-0.139605215584,-2.48059973352,-0.0422151925833,2.14572225454,-0.25391320714,-1.26604991452,-1.08955943943,-0.035035111759,-0.986870264841,-0.194343265425,-0.076763380226,-1.16511612033,0.573968288054,0.818852881827,0.00459446776696,0.0,0.818837451994,-0.573892742005,-0.011536671397,0.0,-0.00681023603341,0.0103840057354,-0.999922893582,0.0,0.426327321015,-0.0483169561573,0.304925590399,1.0,-0.39998,-0.525688,1.787
0.0110105124326,-0.344429375957,-0.140141670696,-2.49431324355,-0.0448565856074,2.14437059557,-0.270467675622,-1.30186236414,-1.05323203993,-0.0479631868717,-0.971658775911,-0.191129225121,-0.104186991987,-1.17237877528,0.573885458931,0.818911229698,0.0045414539779,0.0,0.81889423985,-0.57380876745,-0.0116820049198,0.0,-0.00696073292038,0.0104233039386,-0.999921448381,0.0,0.420680563883,-0.055645754671,0.304860191753,1.0,-0.39998,-0.525688,1.801
-0.0141931581783,-0.363983199001,-0.140889986811,-2.51177525007,-0.0482752179634,2.1423036387,-0.293601016306,-1.34283206155,-1.01106019635,-0.0480760647817,-0.915153404265,-0.175418976304,-0.116378053297,-1.25887747892,0.573910000382,0.81889308992,0.00470804034844,0.0,0.81887843234,-0.573833054787,-0.0115967747096,0.0,-0.00679502032506,0.0105110200477,-0.99992167001,0.0,0.413120373783,-0.0656295575392,0.304924539672,1.0,-0.39998,-0.525688,1.82
-0.0373787698907,-0.380821264812,-0.141551875054,-2.52665870232,-0.0513517823925,2.14016429189,-0.314987921064,-1.38681961519,-0.986342128623,-0.0338645920204,-0.858107881147,-0.174253069877,-0.137980789247,-1.24369129769,0.573870951797,0.818920618244,0.00467959389666,0.0,0.818905325981,-0.57379368959,-0.0116454183535,0.0,-0.00685168366617,0.0105153141324,-0.999921238198,0.0,0.406301011289,-0.0745594119823,0.304920217187,1.0,-0.39998,-0.525688,1.837
-0.061102669558,-0.397004954937,-0.142282092246,-2.54064287202,-0.0541416462032,2.1379983315,-0.336998450229,-1.39917270985,-0.927630578796,-0.0325790344552,-0.819830455719,-0.151480445719,-0.134115679733,-1.30762559109,0.573951501825,0.818862787607,0.00491482721831,0.0,0.818850476964,-0.573873405842,-0.0115739943149,0.0,-0.00665715278437,0.0106676254159,-0.999920938917,0.0,0.399544613225,-0.0834754085876,0.304965077911,1.0,-0.39998,-0.525688,1.854
-0.0839994012211,-0.41155267456,-0.142937058826,-2.55309062576,-0.0568457853856,2.13570433719,-0.358391545393,-1.43309530115,-0.882267594185,-0.0485557365873,-0.732861413235,-0.160006204571,-0.12506917533,-1.34981593707,0.573886857778,0.818908182373,0.00490002191137,0.0,0.818895348032,-0.573808287585,-0.0116277672275,0.0,-0.00671052974171,0.010685833681,-0.999920387706,0.0,0.393140747278,-0.0918808504959,0.30496017452,1.0,-0.39998,-0.525688,1.87
-0.10591684735,-0.424670089785,-0.143477998882,-2.56402860315,-0.059234718316,2.13358697319,-0.378968183635,-1.46853317289,-0.827545360353,-0.0194256960473,-0.732396331061,-0.161093589753,-0.15756981703,-1.39320762259,0.573795379075,0.818971605925,0.00501184008747,0.0,0.818961079503,-0.573717884663,-0.011458009373,0.0,-0.00650852735295,0.0106792604088,-0.999921793176,0.0,0.387193289898,-0.0997346637851,0.305025109289,1.0,-0.39998,-0.525688,1.885
-0.134274109909,-0.440306378447,-0.144205852286,-2.57715075695,-0.0621254372338,2.13062394202,-0.405666345177,-1.50247289922,-0.79611178091,-0.0336185466594,-0.660696856161,-0.149147263666,-0.149630255013,-1.40419306487,0.573752984989,0.819001571549,0.0049683917764,0.0,0.818988776049,-0.573672867387,-0.0117291445057,0.0,-0.00675608630205,0.0107988966836,-0.999918866273,0.0,0.379546802577,-0.109652651621,0.304954285235,1.0,-0.39998,-0.525688,1.904
-0.160232471606,-0.453469344952,-0.14487407931,-2.587765606,-0.064602897794,2.12817013725,-0.430265279185,-1.53221492117,-0.74367859572,-0.0365511608702,-0.623388736514,-0.152719054575,-0.163669430236,-1.46576654129,0.573710325401,0.819030594478,0.00510830098255,0.0,0.819020810139,-0.573631734582,-0.0115018494462,0.0,-0.00649020799274,0.0107827421989,-0.999920801699,0.0,0.372825590483,-0.118578531226,0.305033117452,1.0,-0.39998,-0.525688,1.921
-0.184991162297,-0.46488088583,-0.145330848608,-2.59711282211,-0.0666533625731,2.12570663163,-0.453894254171,-1.53657309425,-0.684828133906,-0.00751698985887,-0.577723809056,-0.132324005919,-0.144838161899,-1.46992334572,0.573565608716,0.819131842288,0.00512487543586,0.0,0.819120583137,-0.573484206026,-0.0117508561906,0.0,-0.00668659409718,0.0109379885296,-0.999917821557,0.0,0.366459626795,-0.126824787261,0.304966616548,1.0,-0.387646285714,-0.50947797551,1.937
-0.211346000777,-0.475798763573,-0.145635772323,-2.6057739999,-0.068603003769,2.12333599457,-0.478745233665,-1.5345980932,-0.617648524491,-0.0013186985584,-0.480010137963,-0.113326011218,-0.137237233747,-1.46046997448,0.573685901692,0.819047099439,0.00520403712395,0.0,0.81903704884,-0.57360451458,-0.0117012983195,0.0,-0.00659898231081,0.0109753803956,-0.999917993866,0.0,0.35995400349,-0.135441938645,0.304995357039,1.0,-0.373618857143,-0.491041926531,1.954
-0.237321534215,-0.485539474294,-0.145773197806,-2.6134710177,-0.0701676542441,2.12110455261,-0.503356355752,-1.51686238353,-0.540964227694,0.0119769663606,-0.444007885897,-0.0884290546321,-0.139993827841,-1.45146402386,0.573784034748,0.818977364697,0.00535765654041,0.0,0.818968733757,-0.573701152705,-0.0117451016814,0.0,-0.0065454047094,0.0111271192556,-0.999916668975,0.0,0.353647301185,-0.143719288426,0.304997672755,1.0,-0.359591428572,-0.472605877551,1.971
-0.262838593191,-0.4940857992,-0.145696320358,-2.62022412136,-0.0714979666125,2.11898789325,-0.527546946344,-1.49147447834,-0.474666791326,0.0247071556733,-0.378926647609,-0.0693063459457,-0.127500738056,-1.40397635447,0.5738466484,0.818933026973,0.00542847627344,0.0,0.818924197702,-0.573761602323,-0.0118965969694,0.0,-0.00662799253136,0.0112725499067,-0.999914496011,0.0,0.347550101086,-0.151660893246,0.304967634137,1.0,-0.345564,-0.454169828572,1.988
-0.287708138327,-0.501481929115,-0.14547563989,-2.62595367112,-0.0725017987243,2.11720266259,-0.551213963561,-1.43548487971,-0.413575026408,0.0395322853876,-0.31465690883,-0.0613637212966,-0.118290490214,-1.38265004255,0.573901604283,0.818893297385,0.00560918894635,0.0,0.818886755365,-0.573815774136,-0.0118611188769,0.0,-0.00649447468902,0.0114006251859,-0.999913920067,0.0,0.341766168803,-0.159273100507,0.304984182172,1.0,-0.331536571429,-0.435733779592,2.005
-0.311936703001,-0.507771984388,-0.145198171704,-2.63071424259,-0.0733604797459,2.1156586844,-0.574311401196,-1.40979065882,-0.349042081932,0.0344652855919,-0.259406677407,-0.0592496191549,-0.0868063925471,-1.34408808047,0.573975096275,0.818840734169,0.00576088736798,0.0,0.818836890219,-0.573890008661,-0.0117111945278,0.0,-0.00628360840258,0.0114393813474,-0.999914824783,0.0,0.336250828542,-0.16662521085,0.305036468469,1.0,-0.317509142857,-0.417297730612,2.022
-0.334133649805,-0.512868721951,-0.144851505199,-2.63457653422,-0.073990703929,2.11434788824,-0.595485260264,-1.36639190417,-0.296464220471,0.018025218873,-0.235589425172,-0.04368997861,-0.0830708535812,-1.32363116774,0.574062237358,0.818778728651,0.00588965615304,0.0,0.818776868653,-0.573977268515,-0.0116310570404,0.0,-0.00614285161412,0.0114994862506,-0.999915009983,0.0,0.331234473276,-0.173259488688,0.305066202105,1.0,-0.304306857143,-0.399946155102,2.038
-0.355532011874,-0.517082267515,-0.144288656455,-2.63795360864,-0.0744609480199,2.11307479706,-0.616032668751,-1.33444234359,-0.253041208835,0.0295311043107,-0.203125812627,-0.0192261951023,-0.076475646914,-1.26387733592,0.573953824555,0.818854788815,0.00588124256573,0.0,0.818851220617,-0.573865948438,-0.0118869095844,0.0,-0.00635873041968,0.0116386239514,-0.999912050622,0.0,0.326400403692,-0.179502785496,0.304992593555,1.0,-0.291104571429,-0.382594579592,2.054
-0.377475793972,-0.520744040225,-0.143652801958,-2.64088027977,-0.0748448055807,2.11204542641,-0.637081595965,-1.27118221115,-0.19710474335,0.0382544905293,-0.159271128803,-0.0190167044084,-0.0582310067647,-1.22427534943,0.573903444186,0.818890043556,0.00588899121507,0.0,0.818885842794,-0.57381421038,-0.0119989724287,0.0,-0.00644677633115,0.0117088885703,-0.999910666511,0.0,0.321249324305,-0.186234146027,0.304940003702,1.0,-0.276252,-0.363074057143,2.072
-0.398544797407,-0.523678618994,-0.143007320084,-2.64314474914,-0.075078938653,2.11116044449,-0.65732998199,-1.21889392727,-0.160225303892,0.032001191109,-0.124389255409,-0.0057730930844,-0.0469661893384,-1.16409653651,0.57387186513,0.818911966928,0.00591774749214,0.0,0.818907841349,-0.573781975585,-0.0120390519626,0.0,-0.006463551319,0.0117551893524,-0.999910014965,0.0,0.316903461033,-0.191955712777,0.304927949586,1.0,-0.263049714286,-0.345722481633,2.088
-0.41875666166,-0.525987270041,-0.142283305681,-2.64491758566,-0.0752335384432,2.11045854464,-0.676755066375,-1.15979327503,-0.12430760194,0.0453843035486,-0.100755508635,-0.0101494091167,-0.0353723282971,-1.11622777496,0.573830585243,0.818940965905,0.00590768178661,0.0,0.818936753814,-0.573740826932,-0.0120334394504,0.0,-0.00646532277067,0.011743399444,-0.999910142048,0.0,0.312508004133,-0.197744586968,0.304927022002,1.0,-0.249022285714,-0.327286432653,2.105
-0.438068216057,-0.527699849567,-0.141619831413,-2.64624090831,-0.0752537930251,2.10992238975,-0.695262274151,-1.12060836731,-0.0939546849303,0.0353572749721,-0.0725150132078,-0.00243072446211,-0.0336922867331,-1.06294199277,0.573931882583,0.81886956747,0.00596427081642,0.0,0.818866066061,-0.573841820567,-0.0120282053377,0.0,-0.00642710702042,0.0117875364605,-0.999909869078,0.0,0.308327142305,-0.203262544552,0.304923721378,1.0,-0.234994857143,-0.308850383674,2.122
-0.455210464678,-0.52886643528,-0.140825762367,-2.64718409429,-0.0752142886483,2.10951082367,-0.711820569544,-1.0488628581,-0.0647668096542,0.0515270813375,-0.058488651025,-5.78839797939e-05,-0.0234331083638,-1.01804966157,0.573809820222,0.818955426103,0.00592006541598,0.0,0.818951143533,-0.573719593601,-0.0120664545586,0.0,-0.00648555577711,0.0117723211169,-0.999909670931,0.0,0.304639240363,-0.208082196294,0.304907211843,1.0,-0.221792571429,-0.291498808163,2.138
-0.472688492591,-0.529689483365,-0.140095113118,-2.6478092988,-0.075130507437,2.10918545993,-0.728470396497,-0.997056400419,-0.0373923493844,0.0483344885495,-0.0287370162909,0.00986880801612,-0.0171074570906,-0.959633448501,0.57397066801,0.818842770844,0.00591065150865,0.0,0.81883848415,-0.573880663003,-0.0120527344397,0.0,-0.0064774105685,0.0117580113375,-0.999909892101,0.0,0.300887935819,-0.213022101898,0.304915160142,1.0,-0.207765142857,-0.273062759184,2.155
-0.489058818326,-0.530154340503,-0.139281696413,-2.64815412352,-0.0749309560193,2.10897852226,-0.744158848484,-0.947595029514,-0.0224136623853,0.0446792152147,-0.0118916568167,0.00748379829696,-0.0153318405067,-0.903027624805,0.574019672971,0.818808433422,0.00590857856377,0.0,0.818804434279,-0.573930238497,-0.012005275696,0.0,-0.00643903305251,0.0117294605857,-0.999910475297,0.0,0.297406927012,-0.217603452307,0.304932078423,1.0,-0.193737714286,-0.254626710204,2.172
-0.504240921466,-0.530305536386,-0.138347395836,-2.64827693535,-0.0745893912105,2.10883597371,-0.758884045968,-0.881121446322,-0.00230778434597,0.0496951132698,-0.00319973822706,0.0192142868055,-0.00880589983524,-0.845773878584,0.573873160122,0.81891104336,0.00591997095753,0.0,0.818907260849,-0.573783833648,-0.0119898821807,0.0,-0.0064219869384,0.0117288045935,-0.999910592616,0.0,0.294213978599,-0.221786996671,0.30494417061,1.0,-0.179710285714,-0.236190661225,2.189
-0.518587639156,-0.530297454596,-0.13749368553,-2.64829176106,-0.074270601463,2.10879858013,-0.772566919508,-0.823999326311,-0.000690863335078,0.0591402488075,-0.000392844513303,0.0207100414518,-0.00500002389689,-0.785831427738,0.573949785233,0.81885730853,0.00592445767679,0.0,0.818853954711,-0.573861103299,-0.0119323877146,0.0,-0.00637122973542,0.0117000822271,-0.999911253816,0.0,0.291176077495,-0.225737494039,0.304953956086,1.0,-0.165682857143,-0.217754612245,2.206
-0.530918561196,-0.530052218765,-0.136543773436,-2.64817447876,-0.0738129734727,2.10880000515,-0.78448843046,-0.751077833507,0.0123734763407,0.0541067799834,0.0109879909867,0.020354353128,-0.00703873887346,-0.719311134058,0.573809525794,0.818955441987,0.00594634758487,0.0,0.818952176905,-0.573720424646,-0.011956303221,0.0,-0.00638026136718,0.0117306408319,-0.99991083819,0.0,0.288454870098,-0.229258759885,0.304942050308,1.0,-0.151655428572,-0.199318563265,2.223
-0.543236431743,-0.529663464347,-0.135671687963,-2.64795399426,-0.0733933384757,2.10881439262,-0.796147574378,-0.702936913921,0.0220906304295,0.0561471941661,0.0161133398396,0.0291788325812,-0.000357192602233,-0.663268259094,0.573933609731,0.818868294156,0.00597288435264,0.0,0.818865068642,-0.573843812524,-0.0120010452387,0.0,-0.00639989593183,0.0117790163524,-0.999910144016,0.0,0.2860179098,-0.232393683778,0.304925589947,1.0,-0.138453142857,-0.181966987755,2.239
-0.554246924793,-0.52911291885,-0.134652980371,-2.64766562287,-0.0728716412963,2.1088900651,-0.806774426662,-0.628642640261,0.0338963398707,0.0533768566085,0.0195707739102,0.0237205984785,0.00533024871482,-0.612678068617,0.573768712853,0.818983785046,0.00598087644205,0.0,0.818980086678,-0.573677857439,-0.01208637296,0.0,-0.0064675716122,0.0118332291896,-0.999909068468,0.0,0.283754530748,-0.235304355334,0.304888765524,1.0,-0.124425714286,-0.163530938776,2.256
-0.564450491367,-0.528542646768,-0.133783200457,-2.64732442914,-0.0723955967685,2.10898544835,-0.816327765166,-0.585627526208,0.0265009988107,0.0447874475939,0.0256083270503,0.0278355854976,0.0114177866055,-0.540858861087,0.573910257512,0.818884388837,0.00601007014403,0.0,0.81888075953,-0.573818676048,-0.0121315947535,0.0,-0.00648580793421,0.0118842062812,-0.999908345768,0.0,0.281636478854,-0.238019925273,0.304866295718,1.0,-0.110398285714,-0.145094889796,2.273
-0.573514693567,-0.527913565668,-0.132868825932,-2.64690134496,-0.0718768124851,2.10911790685,-0.824888791662,-0.50081277509,0.0421632041741,0.0583368096569,0.0262744136142,0.0394873221578,0.00784861639172,-0.482315383065,0.573922179986,0.818875862226,0.00603328139705,0.0,0.818872574741,-0.573830566572,-0.012121637924,0.0,-0.00646415987936,0.0118975945997,-0.999908326738,0.0,0.279803973861,-0.240406510423,0.304863613285,1.0,-0.096370857143,-0.126658840816,2.29
-0.581446531874,-0.527294627861,-0.131945817607,-2.64648361451,-0.0713652628663,2.10923085108,-0.832313480469,-0.452664430359,0.0299414697546,0.0549815993979,0.0228411445492,0.0294236617196,0.0137075514241,-0.419752693952,0.57392750089,0.818872120096,0.00603502713599,0.0,0.818868773591,-0.573835728242,-0.0121340649455,0.0,-0.00647325792606,0.0119061980705,-0.999908165473,0.0,0.278222961552,-0.242459153674,0.304860446498,1.0,-0.0823434285715,-0.108222791837,2.307
-0.58844868516,-0.526734164572,-0.131023923985,-2.64606144173,-0.0708348435935,2.10934763463,-0.838674169011,-0.385723427535,0.0323111945459,0.0573188106935,0.0245425363154,0.0289861791113,0.00563812826222,-0.352201468027,0.574051173633,0.81878537123,0.00604258319687,0.0,0.818782436834,-0.573959920504,-0.012086260271,0.0,-0.00642797628993,0.0118859217289,-0.999908698825,0.0,0.276858679915,-0.244244790821,0.304880702631,1.0,-0.0683160000001,-0.0897867428573,2.324
-0.594310740233,-0.526164317378,-0.130101926244,-2.64565462831,-0.0702779480068,2.10945922523,-0.844036655877,-0.322765523672,0.0343793236421,0.0564508577014,0.0210067520076,0.0311422293285,1.1941415601e-05,-0.303795340002,0.574068783802,0.818772876229,0.00606263283445,0.0,0.818770263122,-0.573977551884,-0.0120736515269,0.0,-0.00640588656815,0.0118952389494,-0.999908729789,0.0,0.275760884947,-0.245701026372,0.304889840415,1.0,-0.0542885714287,-0.0713506938777,2.341
-0.598969704774,-0.525698020957,-0.129088487652,-2.64536145835,-0.069686045525,2.10954700394,-0.848250796647,-0.253657540223,0.0193426264667,0.0630988294573,0.0124831787314,0.032804713054,0.006711909384,-0.22212387569,0.573985511839,0.818831217871,0.00606759747837,0.0,0.818828491516,-0.573893945784,-0.0120990650452,0.0,-0.00642505841006,0.0119132390999,-0.999908392483,0.0,0.274945650855,-0.246767826859,0.304885198403,1.0,-0.0402611428573,-0.0529146448981,2.358
-0.602502904157,-0.525386805009,-0.12809395945,-2.64517019908,-0.0691826893721,2.10958503248,-0.851312621002,-0.202217965289,0.0183814132675,0.0610396215548,0.0125720109505,0.0322366866376,0.00337068221145,-0.176658606573,0.573893734797,0.818895977514,0.00600883291929,0.0,0.818892326148,-0.573802151341,-0.0121324438599,0.0,-0.00648745312169,0.0118835494808,-0.999908342901,0.0,0.274364781682,-0.247507484301,0.304885998867,1.0,-0.027058857143,-0.0355630693879,2.374
-0.605273739819,-0.525109288768,-0.127151832761,-2.64498760552,-0.0686413035343,2.1096561028,-0.853529874944,-0.141579649674,0.0193009104653,0.043899715683,0.0148988840476,0.0245237540779,0.00473838951102,-0.120180591781,0.573921724247,0.818876441043,0.00599796991348,0.0,0.818872799148,-0.573830458977,-0.0121115674641,0.0,-0.00647618411866,0.0118628944921,-0.999908661215,0.0,0.273967717709,-0.248047541906,0.304896560861,1.0,-0.0198115789474,-0.026038075188,2.391
-0.607233787064,-0.524910111439,-0.126613496496,-2.64482830091,-0.0682943206354,2.10971631047,-0.855183069883,-0.115112340222,0.0123355678367,0.0310694366743,0.0115340805441,0.018664091968,0.00267800569983,-0.10135571489,0.5739487077,0.818857357735,0.00602125523124,0.0,0.81885431569,-0.573857881873,-0.0120618402203,0.0,-0.00642170547676,0.0118536366582,-0.999909122369,0.0,0.273665439437,-0.248470533186,0.304914306025,1.0,-0.0194915789474,-0.0256175037594,2.407
-0.609114926651,-0.524729551976,-0.126158371199,-2.64464458753,-0.0680803300436,2.10974840609,-0.856928990608,-0.0994265162628,0.012377613942,0.0215411985567,0.0129213428845,0.0114185364411,0.00708641795071,-0.100832285814,0.573838341788,0.818935051302,0.00597378807583,0.0,0.818931803152,-0.573748497155,-0.0120046116127,0.0,-0.00640366858654,0.0117810582841,-0.999910095806,0.0,0.273355226018,-0.248906846083,0.304945417245,1.0,-0.0191315789474,-0.0251443609023,2.425
-0.61058761223,-0.524539227469,-0.125952435274,-2.64448033646,-0.0679289734297,2.10980751115,-0.858333201225,-0.0917080890314,0.0116267917671,0.00890245642103,0.0107009177609,0.00477595374513,5.20209755754e-05,-0.0924664745639,0.573828262051,0.818941970136,0.00599350676973,0.0,0.818939313647,-0.573738957696,-0.0119480494936,0.0,-0.00634617304808,0.0117646733026,-0.999910655284,0.0,0.273070338165,-0.24931870056,0.304962725432,1.0,-0.0187915789474,-0.0246975037594,2.442
-0.612083590596,-0.524357223692,-0.125817052883,-2.64434297707,-0.0678477889262,2.10983587695,-0.859821920166,-0.0922934228837,0.0130030605044,0.00491154995145,0.00548377909911,0.000438262361863,0.000242827070986,-0.0915520782934,0.573774008911,0.818979964913,0.00599588786131,0.0,0.818977259488,-0.573684557965,-0.0119592347004,0.0,-0.00635474768655,0.0117726205058,-0.99991050729,0.0,0.2727837021,-0.249696715283,0.304961772603,1.0,-0.0184715789474,-0.0242769323308,2.458
-0.613575443745,-0.524219422435,-0.125733751668,-2.64418922226,-0.0678174017691,2.10984212469,-0.861260216813,-0.0867657261337,0.00926108755018,0.00643133202381,0.0133137982202,0.00126675342683,-0.000318208622732,-0.0811282805259,0.573779789072,0.818976031545,0.00597999244412,0.0,0.818973338777,-0.573690807502,-0.0119278942731,0.0,-0.00633811485074,0.0117416651014,-0.999910976838,0.0,0.272465332442,-0.250118276339,0.30498366272,1.0,-0.0181315789474,-0.023830075188,2.475
-0.614912873445,-0.524068932726,-0.125686219164,-2.64402907212,-0.0677856666652,2.10987882867,-0.862551708231,-0.0784195907428,0.00956805938344,-2.14368645777e-05,0.0108915905627,0.000636233695786,0.000880280078564,-0.0793580034312,0.573805538765,0.818958002767,0.00597831814748,0.0,0.818955637819,-0.573717207542,-0.0118733296175,0.0,-0.00629401549568,0.0117091850878,-0.999911636273,0.0,0.272183851206,-0.250510766587,0.305005548158,1.0,-0.0178115789474,-0.0234095037594,2.491
-0.616259287604,-0.52388338184,-0.125677611106,-2.64387620369,-0.0677408169428,2.10994971037,-0.863929506026,-0.0795473218489,0.012813968696,0.000352936086805,0.0113289113214,6.45288188032e-05,0.00719716411671,-0.0790869361948,0.573800887946,0.818961055292,0.006006480461,0.0,0.818959319061,-0.573712939794,-0.0118255375342,0.0,-0.00623877925119,0.0117047924394,-0.999912033865,0.0,0.271895584535,-0.2509149701,0.305013253641,1.0,-0.0174715789474,-0.0229626466165,2.508
-0.617611862781,-0.52370079517,-0.125686030415,-2.64375831264,-0.0677206917765,2.1099496,-0.865181909666,-0.0752992959644,0.00984940559781,-0.000862051579669,0.00450801229262,8.89458541953e-05,-0.000293707740878,-0.0757760571187,0.573903867751,0.818888718913,0.00603021713499,0.0,0.818886916108,-0.573815102887,-0.011882475653,0.0,-0.00627031632231,0.0117576910208,-0.999911215976,0.0,0.271579700443,-0.251308662299,0.304999651333,1.0,-0.0171315789474,-0.0225157894737,2.525
-0.618948525935,-0.523534596087,-0.125679703803,-2.6436551181,-0.0676953809856,2.10994995033,-0.866528079492,-0.0801576819506,0.0161875324384,-0.000129103046326,0.0106044275548,0.0004888542571,0.000432041276156,-0.0820666913868,0.573908036967,0.818885623008,0.00605379525614,0.0,0.818883760518,-0.573818490339,-0.011936239226,0.0,-0.00630075634931,0.0118078855861,-0.999910433143,0.0,0.271267764649,-0.25169047172,0.304985767915,1.0,-0.0167915789474,-0.0220689323308,2.542
-0.620222585669,-0.523356819424,-0.125628409053,-2.64355237481,-0.067666561155,2.10997068471,-0.867823186744,-0.0759207851597,0.00670309483822,0.00618354094171,0.00710936478619,0.00200066345661,0.0046069405668,-0.0764282789229,0.573872458945,0.818910540806,0.00605589982018,0.0,0.818908410432,-0.573782358706,-0.0119819473401,0.0,-0.00633749650976,0.0118355647498,-0.999909873711,0.0,0.270983767343,-0.252046987496,0.304970235794,1.0,-0.0164515789474,-0.021622075188,2.559
-0.6213834316,-0.523170732682,-0.125567740586,-2.64344026838,-0.0676362829067,2.11000013048,-0.868992157431,-0.0797069016135,0.00964477533808,0.00777494456498,0.00766431651915,-8.8306897275e-05,0.000441525474961,-0.0732104580074,0.57384191835,0.818931975102,0.00605142961623,0.0,0.818929554654,-0.573751410868,-0.0120187329561,0.0,-0.00637063109231,0.011852775539,-0.999909459287,0.0,0.27073341512,-0.252373678227,0.304956867081,1.0,-0.0161315789474,-0.0212015037594,2.575
-0.622565602527,-0.522998954819,-0.125485663609,-2.64331410665,-0.0676137171222,2.11003131061,-0.870247406808,-0.0670141324038,0.00790313749538,0.00570148387766,0.00790312676447,0.00206668783783,0.000870988997174,-0.0814196680609,0.573740321483,0.819003322982,0.006028876278,0.0,0.819000579543,-0.573649875423,-0.0120257240041,0.0,-0.00639076683689,0.0118375238309,-0.99990951147,0.0,0.270485054289,-0.25270590326,0.304955779636,1.0,-0.0157915789474,-0.0207546466165,2.592
-0.623772277901,-0.522811991315,-0.125395224267,-2.64319448753,-0.0675795067807,2.11007181559,-0.871453496418,-0.0664785783565,0.00993559594818,0.00414217140374,0.00878492963716,0.00173774396952,0.00126902933671,-0.0642932000312,0.573697843348,0.81903320522,0.00601167075677,0.0,0.819030131961,-0.573607283106,-0.0120446921562,0.0,-0.0064167882359,0.0118339812478,-0.999909386753,0.0,0.270232491637,-0.25304081722,0.304947135159,1.0,-0.0154315789474,-0.0202815037594,2.61
-0.624895300646,-0.522639775189,-0.125345375973,-2.6430879409,-0.0675521764921,2.11009638823,-0.872634314595,-0.0660356704987,0.0075342263257,-0.000143164493223,0.00392261413555,0.00300466589901,-0.000506945266486,-0.0733127609912,0.573632665071,0.819078857653,0.00601143996032,0.0,0.819075559227,-0.573541710238,-0.0120781536134,0.0,-0.00644527279989,0.0118524751905,-0.999908984503,0.0,0.269986219031,-0.253357436729,0.304935624946,1.0,-0.0150915789474,-0.0198346466165,2.627
-0.626039868562,-0.522491959489,-0.125346680577,-2.64297719633,-0.0675248826476,2.11012331787,-0.873792422172,-0.068388315868,0.00984577200041,-0.000998452191459,0.0119200774324,0.00458245815282,0.00263321104425,-0.058443934082,0.573640005591,0.819073540322,0.0060354312324,0.0,0.819070512325,-0.573548868587,-0.0120804835819,0.0,-0.00643331356264,0.0118735210231,-0.99990881183,0.0,0.269725210096,-0.253692785384,0.304933961528,1.0,-0.0147515789474,-0.0193877894737,2.644
-0.627039974932,-0.522359839751,-0.125351996488,-2.64288029912,-0.067501852628,2.11014542786,-0.874769329782,-0.0655981072678,0.00524470643446,-0.000745926247901,0.00756201874317,0.000163197639472,0.00188490889901,-0.0698960255834,0.573677739324,0.819046949007,0.0060575265368,0.0,0.819044146095,-0.573586382997,-0.0120869718413,0.0,-0.00642540638221,0.0118956373589,-0.999908599805,0.0,0.269495584027,-0.25398639395,0.304931253764,1.0,-0.0144515789474,-0.0189935037594,2.659
-0.628154471912,-0.522203238936,-0.125352474096,-2.64275297573,-0.0674752225933,2.11016530683,-0.875886575743,-0.0632559690612,0.00737540452237,0.000941375359071,0.0123706851989,0.00149859521248,0.00194075931142,-0.0662998029001,0.5736938674,0.819035494844,0.00607878235964,0.0,0.819032934268,-0.573602351325,-0.0120889221764,0.0,-0.00641457600269,0.011914292856,-0.999908447229,0.0,0.269244122127,-0.254316093042,0.304933302878,1.0,-0.0141115789474,-0.0185466466165,2.676
-0.629246586515,-0.522060860534,-0.125352260955,-2.64263636288,-0.0674523196088,2.11020237613,-0.876964792487,-0.0573217653798,0.00212919989438,-0.000111354845192,0.00701529860917,0.000547549869135,0.000280979242455,-0.0661801198759,0.573720971723,0.81901638399,0.00609559373616,0.0,0.819014143876,-0.573629565895,-0.0120706322557,0.0,-0.00638955581251,0.0119177818065,-0.999908565847,0.0,0.268998362194,-0.254639652889,0.304937182679,1.0,-0.0137715789474,-0.0180997894737,2.693
-0.630293151048,-0.521900088819,-0.125309157503,-2.64251243888,-0.0674272978855,2.11023731825,-0.877955468749,-0.0603663093301,0.00788259045407,0.00624405321244,0.0070745731522,0.00153044494319,0.00283360666078,-0.0514145816458,0.573753425177,0.81899368094,0.00609135286337,0.0,0.818991421117,-0.573662097088,-0.0120663748314,0.0,-0.00638802947045,0.0119121189723,-0.999908643077,0.0,0.268774095829,-0.254942257431,0.304938458036,1.0,-0.0134315789474,-0.0176529323308,2.71
-0.631278375879,-0.521737653904,-0.125270516755,-2.64239030819,-0.0673967647438,2.11026777581,-0.878999754573,-0.0577212024733,0.0125326210456,0.00204150876617,0.00607872298125,0.000642079938962,0.00466383154705,-0.0654676503106,0.573697164485,0.81903306229,0.00609534568149,0.0,0.819030825441,-0.573605776866,-0.0120692429573,0.0,-0.00638890653022,0.0119165958984,-0.999908584129,0.0,0.268563505809,-0.255227519214,0.304937814116,1.0,-0.0130915789474,-0.017206075188,2.727
-0.632232654308,-0.52158397452,-0.125220806309,-2.64229004046,-0.0673722727961,2.1102939495,-0.880035763265,-0.0556559628457,0.00949034358255,0.0051018273945,0.00110541146278,-0.000199578126626,0.000250380479893,-0.0562299389819,0.573613207432,0.819091906534,0.00608964786077,0.0,0.819089444794,-0.573521581658,-0.0120922992289,0.0,-0.00641228341322,0.0119244984147,-0.999908340279,0.0,0.268368871443,-0.255481766304,0.304929583464,1.0,-0.0127715789474,-0.0167855037594,2.743
-0.633145412841,-0.521438015974,-0.125169713566,-2.64218822824,-0.0673611963243,2.11031529333,-0.880916534239,-0.0567724134551,0.0034979503981,0.00567357177071,0.00549825933516,0.000788270091739,0.000279898632299,-0.0492993449761,0.573611018678,0.819093554012,0.00607420187343,0.0,0.819090806008,-0.57351930307,-0.01210815509,0.0,-0.0064341636376,0.0119209235986,-0.99990824235,0.0,0.268159231994,-0.255755140393,0.304926002335,1.0,-0.0124315789474,-0.0163386466165,2.76
-0.634083049749,-0.521283347652,-0.125146181814,-2.64210172407,-0.0673438101375,2.11033547562,-0.881858435745,-0.0577633184766,0.0106784258896,0.000746004163483,0.00726616194004,0.001911959536,0.000825330077806,-0.0560052416435,0.573603031884,0.819099112145,0.00607891421606,0.0,0.819096147841,-0.573510783268,-0.0121502661738,0.0,-0.0064660738738,0.0119488747858,-0.999907702881,0.0,0.267945803819,-0.256021549525,0.304910756887,1.0,-0.0120915789474,-0.0158917894737,2.777
-0.634994560719,-0.521128457887,-0.125141533894,-2.64201519206,-0.0673243219365,2.11034349023,-0.882805706702,-0.0519462218856,0.0110322512083,0.000397043648862,0.00440183320111,0.00276195159893,0.000859189419595,-0.0473645236458,0.573583531312,0.819112639702,0.00609614545384,0.0,0.819109529433,-0.573490524693,-0.012204252551,0.0,-0.00650070102636,0.0119938000271,-0.999906940494,0.0,0.267733004034,-0.256283068077,0.304893952705,1.0,-0.0117515789474,-0.0154449323308,2.794
-0.635900550132,-0.52099217373,-0.125146165227,-2.64192879434,-0.0673166559257,2.11037159526,-0.883670730178,-0.0536218593372,0.00743992172673,-0.000426903418703,0.00727196839472,3.85166070689e-06,0.00680817657468,-0.0562515998428,0.573628300741,0.819081224704,0.00610465620915,0.0,0.819078112043,-0.573535036294,-0.0122211053356,0.0,-0.00650896902284,0.0120107934143,-0.999906682728,0.0,0.267521946656,-0.256549246602,0.304885407193,1.0,-0.0114115789474,-0.014998075188,2.811
-0.636722408874,-0.520863256351,-0.125140761766,-2.64182323144,-0.0673104373221,2.11039849074,-0.884443846723,-0.0535307123379,0.0109648799481,-0.000525190251313,0.0113583246324,0.00104582749019,0.00115455909212,-0.0457046005984,0.573672562633,0.819050235616,0.00610322219496,0.0,0.819047159299,-0.573579396917,-0.0122136472262,0.0,-0.00650303333609,0.0120056922515,-0.999906782611,0.0,0.267338692377,-0.25679551175,0.304888405768,1.0,-0.0110915789474,-0.0145775037594,2.827
-0.637584800604,-0.52072955725,-0.125127728599,-2.64170647221,-0.0673033307182,2.11044391582,-0.88530528651,-0.04966673368,0.00805950071165,0.00169504277413,0.00584999838365,-0.000396034742827,0.000680875282192,-0.0505774631001,0.5736731819,0.819049851278,0.00609658853673,0.0,0.819046907676,-0.573580451321,-0.0121809601511,0.0,-0.00648005435691,0.0119815128381,-0.999907221819,0.0,0.26715197481,-0.257056027034,0.304896490182,1.0,-0.0107515789474,-0.0141306466165,2.844
-0.638422013223,-0.520604999692,-0.125123026104,-2.64157905319,-0.0672969066999,2.11046749847,-0.886149866937,-0.0508186690543,0.00558193030389,0.000953865639504,0.0117118212217,-0.000162064288659,-0.000352845125613,-0.0487780378334,0.573673060855,0.819049957062,0.00609376631432,0.0,0.819047177409,-0.573580714527,-0.012150391065,0.0,-0.00645663475359,0.0119616644315,-0.999907610958,0.0,0.266968829693,-0.257311428965,0.304910713369,1.0,-0.0104115789474,-0.0136837894737,2.861
-0.639240748047,-0.520471121842,-0.125110189894,-2.64145436018,-0.0672851334103,2.11049690855,-0.886941281068,-0.0491054171618,0.00968039636665,0.00173704657336,0.00944529676953,0.0054999775961,0.000347346150831,-0.0408238126267,0.573697780064,0.819032665036,0.00609078435561,0.0,0.81903000954,-0.573605744002,-0.0121260390275,0.0,-0.00643803712133,0.0119454468268,-0.99990792475,0.0,0.266792515816,-0.25755939468,0.304920958571,1.0,-0.0100715789474,-0.0132369323308,2.878
-0.640035057879,-0.52037116567,-0.125102038342,-2.64136186639,-0.067276286517,2.11052698101,-0.887687698719,-0.0494737471544,0.00459409745148,-7.68020239805e-05,0.00634937217531,0.00148605047162,0.00460052686199,-0.0421575794593,0.57373975793,0.819003262319,0.00609043367782,0.0,0.819000778443,-0.573648041801,-0.0120994193339,0.0,-0.00641582207805,0.0119302175365,-0.999908249359,0.0,0.266614403396,-0.257794537496,0.304928988035,1.0,-0.00973157894737,-0.012790075188,2.895
-0.640734415044,-0.520281053091,-0.12510237446,-2.64129654546,-0.0672690982654,2.11055567786,-0.888385037095,-0.0408142525404,0.00684210986824,-0.000946889304387,0.00209784420119,3.15129289619e-05,0.00346090704129,-0.0380532046215,0.573748165302,0.818997332258,0.00609585652806,0.0,0.818994964733,-0.573656508747,-0.0120915100562,0.0,-0.00640611004276,0.0119301872058,-0.99990831199,0.0,0.266452310852,-0.257999359065,0.304927969251,1.0,-0.00941157894737,-0.0123695037594,2.911
-0.641455858763,-0.520196138868,-0.125083939027,-2.64123382821,-0.0672550747328,2.11056607512,-0.889119127606,-0.038812527264,0.00632232824709,0.00246398582263,-0.000195761891348,0.0029616501862,0.000277217213887,-0.0440038674365,0.573734035403,0.819007197875,0.00610027456947,0.0,0.819004835734,-0.573642265355,-0.0120986504926,0.0,-0.00640962991994,0.0119377917812,-0.999908198672,0.0,0.266285610289,-0.258202017966,0.304926563811,1.0,-0.00907157894737,-0.0119226466165,2.928
-0.642157978438,-0.520119417723,-0.125064444352,-2.64117848456,-0.0672476472738,2.1105810223,-0.889825261218,-0.0406701135862,0.00846445451494,0.00187179671203,0.00348358594525,-9.95185507005e-05,0.000307517210122,-0.0373973007429,0.573723026229,0.819014922766,0.00609855417775,0.0,0.819012523014,-0.573631237751,-0.0121011207857,0.0,-0.00641280079048,0.0119377137198,-0.999908179273,0.0,0.266122595798,-0.258398760368,0.304925228705,1.0,-0.00873157894737,-0.0114757894737,2.945
-0.642837420589,-0.520021816974,-0.125042556794,-2.6411247,-0.0672374586149,2.11059965414,-0.890460514182,-0.0419687013957,0.00434697354715,0.000618013715917,0.00672813128416,0.000621149534519,0.00119094200602,-0.033930124222,0.57375100241,0.818995331529,0.00609762810651,0.0,0.81899278608,-0.573658963547,-0.012122573651,0.0,-0.00643049601355,0.01194948228,-0.999907925058,0.0,0.26596582057,-0.258588325631,0.304915874522,1.0,-0.00839157894737,-0.0110289323308,2.962
-0.643452453642,-0.519923188351,-0.125013058647,-2.64105483017,-0.067227165662,2.11061939977,-0.891044314705,-0.0364795969275,0.00671415036378,0.000222034951246,0.00100781247849,-0.000128277563919,0.00114891738572,-0.0321520937098,0.57376376279,0.818986448207,0.0060900791273,0.0,0.818983775946,-0.573671701823,-0.0121284856772,0.0,-0.0064394833297,0.0119467915913,-0.999907899371,0.0,0.265831107782,-0.258763232876,0.304913722701,1.0,-0.00807157894737,-0.0106083609023,2.978
-0.644123604089,-0.519800331855,-0.124985582679,-2.64095056005,-0.0672193340577,2.11064997293,-0.89169718959,-0.0379933219248,0.00496860959653,0.000490695050619,0.00738921159316,-0.00036686346598,-0.000121659777483,-0.0381261201511,0.573767995589,0.818983579151,0.00607710625215,0.0,0.818980848115,-0.573676195436,-0.0121136333594,0.0,-0.00643469949916,0.0119276784092,-0.999908158348,0.0,0.265690224238,-0.258963551738,0.304919157615,1.0,-0.00771157894737,-0.0101352180451,2.996
-0.644703254813,-0.519697679704,-0.124976669993,-2.64087182935,-0.0672114258722,2.11067488917,-0.892282961594,-0.0378654436421,0.00683498261587,-0.00133399667319,0.00752592538459,0.000270343706794,5.94441908681e-05,-0.034518122126,0.573764162481,0.818986271839,0.00607612486407,0.0,0.8189835549,-0.573672417282,-0.0121095563274,0.0,-0.00643197898723,0.0119245053691,-0.999908213697,0.0,0.265562548555,-0.259136594506,0.304919497882,1.0,-0.00739157894737,-0.00971464661655,3.012
-0.645288132529,-0.51959207653,-0.124970054693,-2.64080387823,-0.0672000640521,2.11068656193,-0.892845775656,-0.0356623974337,0.00333280834295,-0.000720956650735,0.00220154599416,-0.000455480197291,-0.000417904285477,-0.0352197820498,0.573786037517,0.818970902772,0.00608197872145,0.0,0.818968113345,-0.573693986198,-0.0121320413031,0.0,-0.00644671832108,0.0119423724729,-0.999907905541,0.0,0.265428557282,-0.259306464648,0.304912669208,1.0,-0.00705157894737,-0.00926778947369,3.029
-0.645869437237,-0.519522499805,-0.124955707719,-2.64075815213,-0.0671856846744,2.11069945173,-0.893366931524,-0.0385700455955,0.00542719101758,0.00071499579069,0.00135424868376,0.00177866097564,0.000283320472917,-0.0284139020276,0.573833701813,0.818937462529,0.00608785935131,0.0,0.818934701384,-0.5737415247,-0.0121393823913,0.0,-0.00644866146254,0.011951776124,-0.999907780654,0.0,0.26529320503,-0.259468416873,0.304909286639,1.0,-0.00671157894737,-0.00882093233083,3.046
-0.646416229688,-0.519484309979,-0.124953920613,-2.64071662416,-0.0671782877586,2.11071456994,-0.893879734457,-0.0263885596128,0.000813463835723,0.00296333436464,0.000609509689495,-0.000155362152892,0.00139299041661,-0.0224216144625,0.573865520929,0.818915125882,0.00609322514886,0.0,0.818912571742,-0.573773567712,-0.0121177447825,0.0,-0.00642739670874,0.0119440045581,-0.999908010432,0.0,0.265163457051,-0.259624378009,0.304915436301,1.0,-0.00637157894737,-0.00837407518798,3.063
-0.646895811004,-0.519425183299,-0.124949692043,-2.64066601313,-0.0671705581209,2.11073066671,-0.89433205034,-0.0337836516206,0.00783029247591,0.000415785912483,0.00127253228431,-0.000117972344263,0.000954620836894,-0.0270390247838,0.573890764196,0.818897413271,0.00609624554926,0.0,0.818894964058,-0.573798914275,-0.0121074654021,0.0,-0.00641687656647,0.011940777249,-0.999908116546,0.0,0.265053416701,-0.259763998204,0.304918147738,1.0,-0.00605157894737,-0.0079535037594,3.079
-0.647379032098,-0.519380736615,-0.124935094623,-2.64059368535,-0.0671554840589,2.11074932763,-0.894798739537,-0.0315595407245,0.00270243963871,0.00128443203944,0.00447808401136,0.000533623243471,0.00231909070307,-0.025707168046,0.573903927151,0.818888185981,0.00609656973237,0.0,0.818886058825,-0.573812665672,-0.0120579549933,0.0,-0.00637595071835,0.0119127330416,-0.999908712855,0.0,0.264951003383,-0.259907684836,0.304936596958,1.0,-0.00571157894737,-0.00750664661655,3.096
-0.647841153965,-0.519323243003,-0.124921304586,-2.64052189942,-0.0671446189886,2.11077289434,-0.895241853032,-0.0266703035708,0.00171289947277,0.000139683090834,0.00285926071815,0.0027219461434,0.00276117821291,-0.0282819825017,0.573917929239,0.818878396099,0.00609342286235,0.0,0.818876489392,-0.573827167356,-0.0120176547549,0.0,-0.00634454842216,0.0118871371174,-0.999909217217,0.0,0.264853810633,-0.260046674981,0.304950393971,1.0,-0.00537157894737,-0.00705978947369,3.113
-0.648254925031,-0.519269291074,-0.124913132588,-2.64044488391,-0.067130907893,2.11079208528,-0.895653247259,-0.0256702437902,0.0025675731963,0.000811917415606,0.00445448625943,-0.000378422427233,-0.00132693127646,-0.0214809443125,0.573923735562,0.818874317517,0.00609465098602,0.0,0.818872709579,-0.573833498163,-0.0119728356972,0.0,-0.00630705419525,0.0118624663447,-0.999909747407,0.0,0.26476874804,-0.260174554928,0.304967366248,1.0,-0.00503157894737,-0.00661293233083,3.13
-0.648621136785,-0.519233663407,-0.124899749965,-2.6403956452,-0.0671177159574,2.11080364023,-0.896016378554,-0.0233750860999,9.04906948432e-05,-2.61749254287e-05,0.000849033497457,-0.000231121052019,-0.00028871890146,-0.0223981360285,0.573924833588,0.818873534664,0.00609643500009,0.0,0.81887212223,-0.573834913074,-0.0119451610551,0.0,-0.00628334998095,0.011848053349,-0.999910067529,0.0,0.264689902485,-0.260280859465,0.304977933613,1.0,-0.00471157894737,-0.00619236090226,3.146
-0.648994915045,-0.519181879956,-0.124877713323,-2.64036695319,-0.0670932089358,2.11081355534,-0.896391753323,-0.0181178485703,0.00224888928728,-0.000551805966144,-0.00156276262499,3.63203525056e-05,-0.000287735136297,-0.0169877810251,0.573919919306,0.818876897143,0.00610740950725,0.0,0.818875554996,-0.573829817992,-0.0119545938317,0.0,-0.00628484802037,0.0118624162653,-0.999909887823,0.0,0.264606595397,-0.260380335175,0.304973287376,1.0,-0.00435157894737,-0.00571921804512,3.164
-0.649314272967,-0.519139326082,-0.124838610441,-2.64034259116,-0.0670781957138,2.11082076548,-0.896703869969,-0.0197686246082,0.00987387623078,0.0043724396606,-0.000507182210624,0.000410974023916,0.000761958248477,-0.0158168335837,0.573905847858,0.818886801499,0.0061017232152,0.0,0.818885335297,-0.57381567852,-0.0119633448568,0.0,-0.00629548196566,0.0118626736274,-0.999909817874,0.0,0.264539075707,-0.260461288239,0.304970236319,1.0,-0.00401157894737,-0.00527236090226,3.181
-0.649614526346,-0.519092754561,-0.124786881462,-2.6403162183,-0.0670577211219,2.1108326288,-0.896988378683,-0.0213224998763,0.00114338478401,0.00230909242823,0.00302232694076,-9.27013782599e-05,0.000744294104815,-0.0195251800115,0.573892222039,0.818896412635,0.00609341922836,0.0,0.818894808216,-0.573802033099,-0.011969410589,0.0,-0.00630541244967,0.0118592493371,-0.999909795921,0.0,0.264480856946,-0.260534957286,0.304967316878,1.0,-0.00369157894737,-0.00485178947369,3.197
-0.649894698945,-0.519046965433,-0.124744495147,-2.64030420528,-0.0670375957546,2.11084240102,-0.897283785105,-0.0186293031162,0.00102446876455,0.00204188197846,8.28733390976e-05,0.00252546943615,5.2070743388e-05,-0.0196245997106,0.573859038257,0.818919678573,0.0060918928472,0.0,0.818917917671,-0.573768605918,-0.0119907414575,0.0,-0.0063242390351,0.0118699840999,-0.999909549648,0.0,0.264422171795,-0.26060141881,0.304957760765,1.0,-0.00335157894737,-0.00440493233083,3.214
-0.650174222483,-0.518985071663,-0.124709089121,-2.64027706062,-0.0670088307212,2.1108499604,-0.897567703194,-0.00835536398198,0.00214476973393,0.00216938825269,0.00120890979169,0.000602513423886,-0.000263576194986,-0.010839532154,0.573844142522,0.818930058684,0.00609967032144,0.0,0.818928237708,-0.573753377986,-0.0120145592555,0.0,-0.00633949931963,0.0118899056382,-0.999909216325,0.0,0.264365657619,-0.260671640985,0.304948801465,1.0,-0.00297157894737,-0.0039055037594,3.233
-0.650367385764,-0.51895282745,-0.124685912621,-2.64026296061,-0.066994688622,2.11085473682,-0.897756903479,-0.0146509150282,0.00178775184713,0.00126339315685,0.000301132232172,0.000511689865501,0.000246712256483,-0.0185163985335,0.573837784439,0.818934503416,0.00610107911171,0.0,0.81893262532,-0.573746873795,-0.0120260923688,0.0,-0.00634822913804,0.0118976280008,-0.999909069083,0.0,0.264324892648,-0.260719944909,0.304944297111,1.0,-0.00269157894737,-0.0035375037594,3.247
-0.650597400439,-0.518896378814,-0.124660911714,-2.64024450725,-0.0669634224586,2.11086153616,-0.89799825561,-0.0105497337784,0.00379777222851,0.000147957918347,0.0037605022511,0.00167700163236,0.000439439177404,-0.0148738958789,0.573825222308,0.81894318852,0.00611679009888,0.0,0.818941321205,-0.573733883867,-0.0120536229589,0.0,-0.0063619451661,0.0119261946553,-0.999908641594,0.0,0.264277219403,-0.260776837402,0.304933083939,1.0,-0.00231157894737,-0.00303807518798,3.266
-0.650776532927,-0.518878155643,-0.124637673997,-2.64023605893,-0.0669421897689,2.11086549083,-0.898175597532,-0.0100299728246,0.0024562260698,0.00042314669938,-0.000423258820293,0.00363114224829,7.15884643591e-05,-0.0102566326646,0.573819737407,0.818946974775,0.0061244077686,0.0,0.818945176557,-0.573728310804,-0.0120569514204,0.0,-0.006360380224,0.0119343006716,-0.999908554834,0.0,0.264239628693,-0.260819361327,0.304931109717,1.0,-0.00199157894737,-0.00261750375941,3.282
-0.650947030608,-0.518852240547,-0.124616279371,-2.64022950865,-0.0669189944014,2.11086710524,-0.898336403661,-0.00821681411828,0.00248547783955,-0.00059675771452,-0.000411189992498,0.00245507662786,-0.000160521605579,-0.00557615991207,0.573822819114,0.818944734318,0.00613525042098,0.0,0.8189429699,-0.573731143245,-0.0120720430165,0.0,-0.00636647439706,0.0119518640674,-0.999908306271,0.0,0.264203079838,-0.26085885569,0.304925198656,1.0,-0.00167157894737,-0.00219693233083,3.298
-0.651116454261,-0.518846942379,-0.124587508867,-2.64021781159,-0.0669077624765,2.11086903222,-0.898494586449,-0.0122690221515,0.000621501783152,6.58773339387e-06,-0.000112007990915,6.85958453698e-05,0.00343088000453,-0.00166990514589,0.573816971057,0.818948866198,0.0061306754589,0.0,0.818947107682,-0.573725439242,-0.0120624246098,0.0,-0.00636130696214,0.0119425528195,-0.999908450412,0.0,0.26416903379,-0.260899377772,0.304929410306,1.0,-0.00133157894737,-0.00175007518798,3.315
-0.651256384682,-0.518845491096,-0.12455979923,-2.64021904519,-0.0668877780317,2.11086477223,-0.898592500276,-0.00864817336279,0.000511088989556,0.00662391509683,0.000421399056319,-0.000144759063185,-0.000470316298296,-0.00616645076832,0.573840202456,0.818932550018,0.00613575323381,0.0,0.818930823091,-0.573748578814,-0.012067402427,0.0,-0.00636213143453,0.0119497481676,-0.999908359202,0.0,0.264139369793,-0.260927328261,0.304928616131,1.0,-0.00101157894737,-0.00132950375941,3.331
-0.65138090158,-0.518840210527,-0.124536121296,-2.64021022548,-0.0668739491651,2.11086670411,-0.898679877064,-0.00433023662227,0.00102483285813,5.58535301714e-05,-0.000282973253099,0.000112965033413,-0.000222578622369,-0.00745380612488,0.573860150944,0.818918573561,0.00613546545646,0.0,0.818916888102,-0.573768609265,-0.0120606925551,0.0,-0.00635651004373,0.0119458171228,-0.999908441925,0.0,0.264115494772,-0.260956092733,0.304931409023,1.0,-0.000671578947374,-0.000882646616548,3.348
-0.651429954069,-0.51883413073,-0.124532480057,-2.64020742945,-0.066851932254,2.11087057392,-0.898708741814,-0.00174662766383,0.000244843153816,-0.00048841962486,0.000594487777373,0.000147134022333,0.000515026738034,0.00151304774067,0.573883645816,0.818901984689,0.00615202716624,0.0,0.818900516954,-0.573792031179,-0.0120579927641,0.0,-0.00634445219271,0.0119580133043,-0.999908372724,0.0,0.264106579182,-0.260967182017,0.304930870384,1.0,-0.000331578947374,-0.000435789473691,3.365
-0.651438275477,-0.518828453455,-0.124518160551,-2.64020249304,-0.0668310867281,2.1108719477,-0.898727910183,0.000451917119824,-0.000279825954492,-0.00339100644431,0.00149927101305,0.000728564151064,-0.000142363466769,0.00141455315856,0.573873750654,0.818908843056,0.0061621405183,0.0,0.818907510108,-0.573782100048,-0.0120556399868,0.0,-0.00633686627087,0.0119648688454,-0.999908338819,0.0,0.264110623298,-0.260965507119,0.304931489665,1.0,8.42105262635e-06,1.10676691661e-05,3.382
-0.651435455805,-0.518832720789,-0.124481867091,-2.64020959965,-0.0668159932192,2.11086733132,-0.898739040905,-0.000362913626614,-0.00125857526644,0.00901208860148,-0.000482888650185,-1.96085645727e-05,-0.0013658702777,0.00106769729428,0.573831437924,0.818938522383,0.00615827154824,0.0,0.818937122341,-0.573739781591,-0.0120581745118,0.0,-0.00634178034322,0.0119628271207,-0.999908332093,0.0,0.264121059877,-0.260952493908,0.304930875281,1.0,0.0,0.0,3.399
-0.651433147086,-0.518829155152,-0.124444460755,-2.64020459098,-0.0668058686019,2.11087211259,-0.898757241781,-0.00119335413694,-0.000874835034608,0.00353173182343,0.000382150840765,0.000305278237748,-0.00020170046924,-0.00149147631841,0.573803909673,0.81895789115,0.00614757411322,0.0,0.818956375355,-0.573712349998,-0.0120557714967,0.0,-0.0063463521968,0.0119524739541,-0.999908426897,0.0,0.264129861069,-0.260945007925,0.304932556336,1.0,0.0,0.0,3.415
-0.651422106377,-0.518827000414,-0.124406950715,-2.64020599473,-0.0667878033705,2.11086907685,-0.898756619198,0.00133922754344,-0.00170645799723,0.00453790104495,7.7319607277e-05,0.00568486776798,-0.000478559949225,3.04045549041e-05,0.573776423479,0.818977168763,0.00614490076836,0.0,0.818975582294,-0.573684813733,-0.0120613846234,0.0,-0.00635288469025,0.0119532919542,-0.999908375636,0.0,0.264141693688,-0.260931250566,0.304931758328,1.0,0.0,0.0,3.432
-0.651424494072,-0.518810709486,-0.12439301866,-2.64020848805,-0.0667842875882,2.11087089656,-0.898761089865,-0.00084925880061,0.00322849573517,0.000388415022349,0.000355840274108,0.000822720377361,-0.00012535156743,-0.000596560628237,0.573766298071,0.818984285467,0.00614184477981,0.0,0.818982554129,-0.573674506285,-0.0120782354699,0.0,-0.0063685878893,0.011960378452,-0.999908191003,0.0,0.264143776719,-0.260927822228,0.304925110784,1.0,0.0,0.0,3.449
-0.651421988995,-0.518821674443,-0.124389381942,-2.64020408999,-0.0667772328911,2.11087134347,-0.898761389102,0.000692292494651,-0.000805472674745,-0.000544802921966,-1.0118467146e-05,-0.000222587714947,-0.000840691210994,0.00117983140491,0.573764578895,0.81898546718,0.00614487230364,0.0,0.818983875744,-0.573672963142,-0.0120619041926,0.0,-0.00635349946224,0.0119534748563,-0.999908369544,0.0,0.264147180902,-0.260927030357,0.304931275004,1.0,0.0,0.0,3.466
-0.651419193913,-0.518820738644,-0.124386341338,-2.64020375617,-0.0667719822341,2.11087815533,-0.898763033355,0.0002890983973,6.67168655826e-05,-0.00103690627176,0.000103205849495,-0.000163493118119,0.000785470180587,0.00124275612786,0.573761040856,0.818987929541,0.0061470450368,0.0,0.818986405621,-0.573669490253,-0.0120553001892,0.0,-0.00634689534651,0.0119514380065,-0.999908435833,0.0,0.264150176787,-0.260926123217,0.304931738015,1.0,0.0,0.0,3.483
-0.651424132935,-0.518819144033,-0.124380815412,-2.64020375715,-0.0667677489323,2.11087571395,-0.89877160868,-0.00131031131862,-0.00054485271218,0.00405636809468,-0.000244418396353,0.00154796049117,5.25964403598e-05,-0.000850564010309,0.573755958034,0.818991480746,0.00614833208648,0.0,0.818989948277,-0.573664355276,-0.0120589803931,0.0,-0.00634924548868,0.0119545641883,-0.999908383542,0.0,0.26415005104,-0.260925422495,0.304931074442,1.0,0.0,0.0,3.499
-0.651418834153,-0.518821672826,-0.124387713785,-2.64020061469,-0.0667656973403,2.11087850857,-0.898766929263,0.000672829602466,-0.00138610380791,-0.000635123702736,-3.2670580611e-05,-0.000216231076595,7.23189673405e-06,0.00120075046002,0.573761349277,0.818987672157,0.00615254681794,0.0,0.818986245918,-0.573669823851,-0.0120502738923,0.0,-0.00633961737193,0.0119530627624,-0.999908462582,0.0,0.264151332259,-0.260926563182,0.304933511343,1.0,0.0,0.0,3.516
-0.651419640576,-0.518826278745,-0.124383360765,-2.64020404444,-0.0667606085532,2.11087925916,-0.898770961281,0.000573550703967,-0.00177286313571,0.000242267922644,-0.000947553788945,-0.000362883502555,0.00916519932547,0.000203229759957,0.573757609604,0.818990273786,0.00615497906008,0.0,0.818988891273,-0.573666097189,-0.0120478964206,0.0,-0.00633632916631,0.0119536618723,-0.999908476262,0.0,0.264151961579,-0.260924614304,0.304933818695,1.0,0.0,0.0,3.533
-0.651418831155,-0.518812934705,-0.124380199459,-2.64020340076,-0.0667603260351,2.11087527226,-0.898770902921,0.00063432862232,0.000456571811385,2.8212989665e-05,-0.000196179286681,-8.08646269125e-07,1.29560590299e-05,-0.000681371252075,0.573754970207,0.818992126117,0.00615454485835,0.0,0.818990632206,-0.573663260893,-0.0120645911886,0.0,-0.00635029117831,0.0119628640647,-0.999908277636,0.0,0.264152107262,-0.26092305974,0.304928931242,1.0,0.0,0.0,3.55
-0.651425092167,-0.518818195503,-0.124380204236,-2.64020089521,-0.0667633885926,2.11087312859,-0.898777583723,-2.94974264068e-05,0.000142647844695,-0.00110526106578,-0.00190175512307,-0.000123465315399,-0.00462413345201,0.000833642669842,0.573766739519,0.818983861692,0.00615709440742,0.0,0.818982399497,-0.573675013793,-0.0120646079814,0.0,-0.0063486702469,0.0119650531011,-0.999908261737,0.0,0.264147771341,-0.260926279792,0.304928411434,1.0,0.0,0.0,3.567
