nelsonifechukwu/NELSON_IML_WORK/CNN-GradCAM/train2dof/data_sample_2022-02-21-10-42-56/robot_state.csv
position_joint1,position_joint2,position_joint3,position_joint4,position_joint5,position_joint6,position_joint7,velocity_joint1,velocity_joint2,velocity_joint3,velocity_joint4,velocity_joint5,velocity_joint6,velocity_joint7,ee_T_00,ee_T_10,ee_T_20,ee_T_30,ee_T_01,ee_T_11,ee_T_21,ee_T_31,ee_T_02,ee_T_12,ee_T_22,ee_T_32,ee_T_03,ee_T_13,ee_T_23,ee_T_33,v_x,v_y,time
0.465080423969,0.547675616783,-0.123966878162,-1.35574617215,0.0794850868516,1.89409091494,0.159172814008,0.00127450330912,-0.00138447800153,0.000402685499029,-0.00010978078406,6.38963677243e-05,-5.06925078536e-05,0.00147701167616,0.573787316059,0.818989903617,0.00209776173986,0.0,0.818948788366,-0.573728255953,-0.011811742269,0.0,-0.00847031555783,0.00849555089533,-0.999928037095,0.0,0.661691985053,0.2609161175,0.303328913261,1.0,0.0,0.0,0.0
0.465079019627,0.547673111129,-0.123972878115,-1.35574840555,0.0794857989285,1.8940923272,0.159173192164,0.0014166546674,-0.00077846086424,-0.000564305008105,-0.000367321848181,0.00010965119021,-0.000156846140921,0.00140385095808,0.573793283875,0.818985721444,0.0020981781722,0.0,0.818944635221,-0.57373424508,-0.0118087834979,0.0,-0.0084675914301,0.00849425596044,-0.999928071169,0.0,0.661693525654,0.260911695408,0.303329947887,1.0,-0.00012,-0.000157714285714,0.007
0.465077966934,0.54767003428,-0.123964708929,-1.35574916039,0.0794857988744,1.89409314601,0.159170407553,0.00218394335129,0.000423598368644,0.0017012756157,-0.00137174208918,0.000153509298333,0.000104234540606,0.000353195895806,0.573786198773,0.818990673007,0.00210298013086,0.0,0.81894960825,-0.573727100782,-0.0118110066012,0.0,-0.00846673056255,0.00849939097534,-0.999928034824,0.0,0.661691995897,0.260915733502,0.303331569097,1.0,-0.00042,-0.000552,0.022
0.465069458621,0.547662566584,-0.123969986718,-1.35576168881,0.0794850868276,1.89409492986,0.159167818729,-0.00110698992312,-0.00113616288712,6.56619200946e-05,-0.00122957519792,-1.75403119476e-05,0.0021282815455,-0.00158584282053,0.573795229349,0.818984356264,0.00209901668769,0.0,0.818943262683,-0.573736168686,-0.0118105101107,0.0,-0.00846850427268,0.00849595350575,-0.999928049016,0.0,0.661693148863,0.260905665286,0.303331224377,1.0,-0.00078,-0.00102514285714,0.04
0.465074669101,0.547580316688,-0.123967559937,-1.35584960464,0.0794805706074,1.89411434871,0.159166903334,-0.000988691610096,-0.0053474246803,0.00041810869853,-0.00670608909545,-0.000415770318575,0.00105067502567,-0.00123234091034,0.573792107242,0.818986508013,0.00211287964944,0.0,0.81894555918,-0.573732956656,-0.0118073047943,0.0,-0.00845795747613,0.00850543546077,-0.999928057674,0.0,0.661677379302,0.260901750764,0.303349243285,1.0,-0.00116,-0.00152457142857,0.059
0.465074589441,0.547467192774,-0.123961777114,-1.35599112861,0.0794823483826,1.89413963498,0.159162857216,-0.000406044263161,-0.0139049354882,0.00401672864601,-0.011895031671,0.000234960597751,0.00240932793024,-0.00125462208134,0.573792988835,0.818985874868,0.00211887516802,0.0,0.818944847626,-0.573733657198,-0.0118226074415,0.0,-0.00846704151617,0.00851913518102,-0.99992786417,0.0,0.661651558349,0.260891735244,0.30336402485,1.0,-0.00144,-0.00189257142857,0.073
0.465062715429,0.54732588514,-0.123965479101,-1.35619435809,0.0794788731687,1.8942065685,0.159162707538,-0.000238203551472,-0.010421323098,0.00123524281091,-0.00961417876765,0.000372759978231,0.0107777429543,0.000735630507586,0.573815562271,0.818970037224,0.00212732819209,0.0,0.818929050312,-0.573756124351,-0.0118265475117,0.0,-0.00846518345823,0.00852855206728,-0.999927799628,0.0,0.661626188042,0.260863451285,0.303373319352,1.0,-0.00178,-0.00233942857143,0.09
0.465038613371,0.547150857654,-0.12396756013,-1.35640932002,0.0794763668196,1.89432052884,0.159148375393,-0.00115904871679,-0.0142027529291,-0.000400992636181,-0.00917680897445,-0.00152152060123,0.00607216422538,-0.00790712070054,0.573834503874,0.818956560492,0.00220478864407,0.0,0.818916567121,-0.573774746988,-0.0117873964398,0.0,-0.00838847510319,0.00856971772922,-0.999928094127,0.0,0.661610004258,0.260831716503,0.303411382233,1.0,-0.00214,-0.00281257142857,0.108
0.465028181304,0.546958968153,-0.123964767168,-1.3566205746,0.0794758237177,1.89443895021,0.15913079651,0.000126925440822,-0.0216068946916,0.000837071621728,-0.016171764102,-0.000427766133238,0.00709444338228,-0.00237498553034,0.573840594667,0.818952068606,0.00228651267762,0.0,0.818913052988,-0.573780437918,-0.0117544718895,0.0,-0.00831455290467,0.00861781413619,-0.999928298174,0.0,0.661593511658,0.260810554755,0.303450501427,1.0,-0.00242,-0.00318057142857,0.122
0.464983531567,0.546720731393,-0.123962111639,-1.35696016061,0.0794650260459,1.89458388383,0.159111738799,0.000563886271512,-0.0160176684311,0.00478557678031,-0.021591128248,-2.57526546651e-05,0.00998742014669,-0.00218881171123,0.573875930623,0.818927187898,0.00232896400357,0.0,0.81888865448,-0.57381553774,-0.0117408310534,0.0,-0.00827864941574,0.00864510899142,-0.999928360461,0.0,0.661562455922,0.260753469311,0.303470078187,1.0,-0.0028,-0.00368,0.141
0.464941020317,0.546441118006,-0.123962279061,-1.35738849295,0.0794521920588,1.89473534519,0.158990833763,0.000895752171311,-0.0156233496098,-0.00112001836721,-0.0249683945051,-0.000477645697644,0.0116798871978,-0.0104129036939,0.573832359025,0.818957689794,0.00233943660316,0.0,0.818919162199,-0.573771796244,-0.0117506816514,0.0,-0.00828116779486,0.00865889754585,-0.9999282203,0.0,0.661513610521,0.260686282164,0.303477356038,1.0,-0.00316,-0.00415314285714,0.159
0.464907942524,0.546209019808,-0.123971014934,-1.3577512126,0.0794448711022,1.8948744846,0.158935751015,-3.84893274124e-05,-0.0159484722914,-0.00161859566516,-0.0270655603097,0.00031748717295,0.0167847824903,-0.00144528281169,0.57383883055,0.818953118456,0.00235228080917,0.0,0.818914676987,-0.573778134282,-0.0117537796996,0.0,-0.00827626658844,0.00867125942502,-0.999928153755,0.0,0.66147528196,0.260627598275,0.303481425346,1.0,-0.00344,-0.00452114285714,0.173
0.464849033375,0.545868170333,-0.123967316034,-1.35831809036,0.0794179688691,1.89507029203,0.158916714764,-0.00076973101036,-0.020910645164,-0.000262618628682,-0.0326329968674,-0.00327562645658,0.0153311602441,0.00108850710923,0.573893408885,0.818914935037,0.00233051790353,0.0,0.81887610879,-0.573832681247,-0.0117779152683,0.0,-0.00830794333318,0.00866784025797,-0.999927920714,0.0,0.661409198455,0.260536893238,0.303469781026,1.0,-0.00382,-0.00502057142857,0.192
0.464803498431,0.545589622883,-0.123970198551,-1.35879176438,0.0793514298316,1.89522526432,0.158830836195,-0.00743972038016,-0.0260136761853,0.00104234233744,-0.0370643413271,-0.00758035802101,0.0150408748981,-0.00828301411562,0.573871103489,0.818930722648,0.00227485922561,0.0,0.818891484754,-0.573810913814,-0.0117693791406,0.0,-0.0083331275522,0.00861713535022,-0.999928149401,0.0,0.661354923685,0.260452279666,0.303454963526,1.0,-0.0041,-0.00538857142857,0.206
0.46473969033,0.545221145003,-0.123971139546,-1.3594418189,0.0792821261331,1.89543235681,0.158727689705,-0.0106149579777,-0.0243776628005,0.000863835455583,-0.0420927826099,-0.000894078775692,0.0119840060563,-0.00423601515058,0.573857304785,0.818940611179,0.00219454051155,0.0,0.818900544726,-0.573797646078,-0.0117858433663,0.0,-0.00839284517816,0.00856066754849,-0.999928134978,0.0,0.661277309217,0.26034004183,0.303424296199,1.0,-0.00444,-0.00583542857143,0.223
0.464672252596,0.544750326182,-0.123971097053,-1.36022602666,0.0792671737866,1.89569422054,0.158666648107,-0.00308794280458,-0.0204840979648,-0.000286229685402,-0.040224695138,-0.00219090898546,0.00611535547742,-0.0124828306212,0.573902172577,0.818909239813,0.00216798548054,0.0,0.8188684963,-0.573842274736,-0.0118396112379,0.0,-0.00845164803915,0.00857023862599,-0.999927557704,0.0,0.661180075397,0.260223921216,0.303407008105,1.0,-0.00482,-0.00633485714286,0.242
0.464616741246,0.544378470902,-0.123976178697,-1.36087824264,0.0792448902165,1.89592289839,0.158556946515,-0.00455910077506,-0.0334296955525,-0.00270635597967,-0.0447866067032,-0.00296567583093,0.0178683647102,-0.00781831074927,0.573898887762,0.818911610198,0.0021420106956,0.0,0.818870388745,-0.573838952078,-0.0118697268467,0.0,-0.00849125143463,0.00856621709258,-0.999927256641,0.0,0.661098749117,0.260114357345,0.303388641724,1.0,-0.00514,-0.00675542857143,0.258
0.464550993282,0.543852457345,-0.123978945167,-1.36171847148,0.0792062328901,1.89622475358,0.158460290787,-0.00391580310341,-0.0313186534603,-5.38778794884e-05,-0.0443496664714,0.000286537563269,0.0220555443097,-0.00482602040758,0.573904934543,0.818907413377,0.00212634034106,0.0,0.818865856075,-0.573844928336,-0.0118934805141,0.0,-0.00851963377257,0.00856707960246,-0.99992700783,0.0,0.661002995326,0.259999983895,0.303378275014,1.0,-0.00548,-0.00720228571429,0.275
0.464480164456,0.543333388437,-0.12398536383,-1.36255155053,0.0791635720024,1.89651732798,0.158370022061,-0.00316035380786,-0.0306036868332,-0.00234615588067,-0.0462563126012,-0.00173180355856,0.0156728490852,-0.00834048974521,0.573928460851,0.818890966482,0.00211038871074,0.0,0.818849136142,-0.573868450836,-0.0119096715138,0.0,-0.0085418013725,0.00856355428884,-0.999926848908,0.0,0.660905508991,0.2598703275,0.303374548309,1.0,-0.00582,-0.00764914285714,0.292
0.464404244963,0.542817251592,-0.12398675836,-1.36338155333,0.0791110208828,1.8968087566,0.158237545345,-0.00241323218701,-0.0275498201233,-0.000918768926349,-0.0511682683539,-0.0050837882013,0.0257990924161,-0.010769264747,0.573915219175,0.818900299822,0.00208974921732,0.0,0.818858196527,-0.573855290945,-0.0119208194372,0.0,-0.00856291382874,0.00855291264539,-0.999926759414,0.0,0.660809025849,0.259738873,0.303369869139,1.0,-0.00614,-0.00806971428571,0.308
0.464318333936,0.542076401581,-0.123986710023,-1.36453010496,0.0790423691804,1.89722333397,0.158096999632,-0.00380417613178,-0.0391721217477,-0.000590727334714,-0.0587543423121,-0.0034634309337,0.0222276282085,-0.0100127576646,0.573915586478,0.818900051919,0.00208601672947,0.0,0.818857878667,-0.573855652199,-0.0119252624472,0.0,-0.0085686905202,0.00855240988562,-0.999926714229,0.0,0.660678077957,0.259579344433,0.303377231462,1.0,-0.00654,-0.00859542857143,0.328
0.46425226363,0.541595301404,-0.123986737447,-1.36526597699,0.0789893260075,1.89749641636,0.157999382775,-0.00429339924226,-0.0412244530265,0.000318918775225,-0.0557113504793,-0.003659863443,0.0145529666161,-0.00556936804531,0.573916758436,0.818899177365,0.00210679826716,0.0,0.818857339227,-0.573856803541,-0.0119068856268,0.0,-0.00854170277972,0.00855889321056,-0.999926889658,0.0,0.660590149328,0.259457808319,0.303396606336,1.0,-0.00682,-0.00896342857143,0.342
0.464175545214,0.540942284524,-0.123983979991,-1.36627442826,0.0789378736391,1.89787723013,0.157860353976,-0.00477132084081,-0.0458563074996,0.000446949942336,-0.0615361248644,-0.00534602219533,0.0192639910347,-0.0153875789624,0.573906041181,0.818906618251,0.00213386530636,0.0,0.81886503512,-0.573845879821,-0.0119040905709,0.0,-0.00852399285194,0.00857934236139,-0.999926865541,0.0,0.660472708652,0.25931511595,0.303411182152,1.0,-0.00716,-0.00941028571429,0.359
0.464079940324,0.540241956419,-0.123987110612,-1.36734094807,0.0788853277121,1.89826362584,0.157731808082,-0.00588111774788,-0.0400585513393,-9.1999644523e-07,-0.0648136314725,-0.00126692589936,0.0320524832626,-0.0114512297508,0.573926232256,0.818892406578,0.00215714566729,0.0,0.818851018208,-0.573865864837,-0.0119048753053,0.0,-0.00851106358922,0.00859906671425,-0.999926806245,0.0,0.660350339098,0.25915047547,0.303432135063,1.0,-0.0075,-0.00985714285714,0.376
0.463978092131,0.539517734887,-0.123990644366,-1.36848598663,0.0788093348728,1.89870065467,0.157595592806,-0.00586226649274,-0.0436851098439,-0.000294907174419,-0.070788938595,-0.00329983081198,0.0247843477647,-0.000548163640928,0.573943717771,0.818880131005,0.00216489689177,0.0,0.818838930373,-0.573883404705,-0.0118907868209,0.0,-0.00849489422364,0.00859750977917,-0.999926957131,0.0,0.660223358184,0.258972125279,0.303436863988,1.0,-0.00784,-0.010304,0.393
0.463864276669,0.538763193693,-0.12399302207,-1.36964529663,0.0787450447441,1.89915239667,0.157444546238,-0.00601168457035,-0.0445498783104,-0.000615094675503,-0.0674785310625,-0.00663086148851,0.0300368192589,-0.00328345821363,0.573961906906,0.81886727131,0.00220642238521,0.0,0.818826595468,-0.573901409582,-0.0118712061287,0.0,-0.00845483603454,0.00862046340737,-0.999927099022,0.0,0.660098761803,0.258788151638,0.303457358112,1.0,-0.00818,-0.0107508571429,0.41
0.463753025213,0.537988482227,-0.124003443501,-1.37086032506,0.0786799451848,1.89961985401,0.157297098156,-0.00479518766192,-0.0489118341494,-0.00714177361597,-0.0744200328777,-0.00614316090575,0.0274166899523,-0.0127587562944,0.573989358659,0.818847964827,0.00223014479901,0.0,0.818807589518,-0.573928755565,-0.0118600920891,0.0,-0.00843183037949,0.0086337923663,-0.999927178281,0.0,0.659965906661,0.258595801621,0.30346708172,1.0,-0.00852,-0.0111977142857,0.427
0.463634823837,0.537179786503,-0.124002794136,-1.37212856324,0.0785973675857,1.90008775182,0.157143846458,-0.00613045439697,-0.0489532671207,-0.00124809407869,-0.0747905479333,-0.00119687501961,0.0248840535388,-0.00849391766075,0.574007966322,0.818834911941,0.00223349199744,0.0,0.818794616013,-0.573947384401,-0.0118542662556,0.0,-0.00842494238179,0.00863338070738,-0.999927239895,0.0,0.659821666648,0.258396645556,0.303474982944,1.0,-0.00886,-0.0116445714286,0.444
0.463524077485,0.536337304206,-0.124013767998,-1.37344188685,0.0785269620236,1.90058874085,0.156974910693,-0.00422177545002,-0.0463476028587,-0.000189320242946,-0.0742550599671,-0.00256672331321,0.0242548509423,-0.00900948510527,0.574021551368,0.818825314868,0.00226035325772,0.0,0.818785350818,-0.573960844255,-0.011842527139,0.0,-0.0083997684709,0.00864877645131,-0.999927318636,0.0,0.659674233377,0.258194975474,0.303488404665,1.0,-0.0092,-0.0120914285714,0.461
0.463403376282,0.535477670906,-0.124020129489,-1.3748007296,0.0784469742218,1.90108080738,0.156806350892,-0.00996333115193,-0.0501577037263,-0.000485484247904,-0.0784097410322,0.000109470587186,0.0341812704702,-0.00743146685614,0.574040003648,0.818812397822,0.00225350526325,0.0,0.818772326468,-0.5739793023,-0.0118484109856,0.0,-0.00840832231706,0.00864673610898,-0.99992726439,0.0,0.659516636095,0.257982106609,0.303491164821,1.0,-0.00954,-0.0125382857143,0.478
0.463313580385,0.534729487124,-0.124025840022,-1.37598106839,0.0783841605826,1.9015187327,0.156655081964,-0.00730476690019,-0.044945987218,0.000578936113203,-0.0817705606397,-0.000898809252736,0.0333097820538,-0.0108910730339,0.574041635607,0.818811232878,0.00226106225643,0.0,0.818771199312,-0.573980842133,-0.0118517062995,0.0,-0.00840666568312,0.00865483215667,-0.999927208277,0.0,0.659377406422,0.257808836071,0.303495400019,1.0,-0.00982,-0.0129062857143,0.492
0.463199136006,0.533870635994,-0.124025092929,-1.37737167929,0.0783022234099,1.90202362803,0.156497863409,-0.00728938319065,-0.0522297397483,0.000949630482452,-0.0863514071409,-0.0127358736437,0.0323499819934,-0.0219366034717,0.574060273751,0.818798228383,0.00223834735519,0.0,0.818757843738,-0.573999510418,-0.0118702256921,0.0,-0.00843467187472,0.00864705594696,-0.999927039705,0.0,0.659211221955,0.257601026827,0.303483068216,1.0,-0.01014,-0.0133268571429,0.508
0.463062840823,0.532845800932,-0.124025188936,-1.37903428854,0.0782110771866,1.90265173627,0.156285085908,-0.00353691381871,-0.0558143598815,0.000383012721631,-0.0912421586268,1.21587771555e-05,0.0356340558651,-0.00469998923229,0.574064345184,0.818795388333,0.00223305491889,0.0,0.818754844231,-0.574003509547,-0.011883727448,0.0,-0.00844872253428,0.00865051529729,-0.999926891164,0.0,0.659016635646,0.257355095441,0.303468868858,1.0,-0.01052,-0.0138262857143,0.527
0.462933555804,0.531932136474,-0.124020043377,-1.38049824444,0.0781297606997,1.9031942243,0.156102822367,-0.00616783629652,-0.055549576112,0.000469477637203,-0.0883834668811,-0.0140696604106,0.0294284827946,-0.00811023018761,0.574075463493,0.818787600289,0.00223041024708,0.0,0.81874691293,-0.574014525626,-0.0118980602889,0.0,-0.00846185926911,0.00865669264752,-0.999926726621,0.0,0.658844337641,0.25713476358,0.303463027697,1.0,-0.01084,-0.0142468571429,0.543
0.462810604894,0.530918877973,-0.124028277488,-1.38211339207,0.0780262716882,1.90377107898,0.155890668485,-0.00601944607093,-0.0576170144876,-0.000135000305988,-0.0957120845597,-0.0065560677078,0.0279810487714,-0.0111001202568,0.574072355305,0.818789893796,0.00218805692659,0.0,0.81874865947,-0.574011592839,-0.011919345743,0.0,-0.00850363351469,0.00863420179503,-0.999926566692,0.0,0.6586343669,0.256879315716,0.303449366125,1.0,-0.0112,-0.01472,0.561
0.462656084027,0.529839647715,-0.124031356837,-1.3838440973,0.0779204552387,1.90438643323,0.155674592108,-0.0094857799934,-0.0575950611544,0.000643408068003,-0.0929205399503,-0.00527646231506,0.033220489036,-0.0122394062688,0.574085557058,0.818780682005,0.00217137129878,0.0,0.818739224165,-0.574024854351,-0.0119288013367,0.0,-0.00852081505251,0.0086261054922,-0.999926490306,0.0,0.65844167282,0.256622808076,0.303448589065,1.0,-0.01154,-0.0151668571429,0.578
0.462521243684,0.528838500398,-0.124028658485,-1.38541943034,0.0778184483175,1.90497032021,0.155440778735,-0.00883120354456,-0.0612948578184,0.000516348974172,-0.098722618257,-0.0109218752931,0.0308963435371,-0.0175645109642,0.574060623137,0.818798150768,0.00217627306765,0.0,0.818756779558,-0.573999926725,-0.0119233782303,0.0,-0.00851382338198,0.00862674635669,-0.999926544331,0.0,0.658255774048,0.25638488203,0.303454358412,1.0,-0.01186,-0.0155874285714,0.594
0.462388735431,0.527723471599,-0.124028694489,-1.38714546953,0.077706996868,1.90564333042,0.155209048772,-0.00690645114107,-0.0707819750942,-0.000125895547105,-0.105076347221,-0.00473151215315,0.0375010660947,-0.0184055480386,0.574043029747,0.818810358017,0.00222362411308,0.0,0.81876969255,-0.573982235785,-0.0118882491078,0.0,-0.0084580636121,0.00864516901391,-0.999926858431,0.0,0.658055483203,0.256135037178,0.303476141971,1.0,-0.0122,-0.0160342857143,0.611
0.462235828658,0.526574344085,-0.124033854914,-1.38892764558,0.0776068206695,1.90631202323,0.154965458125,-0.013369688957,-0.0672513930622,-0.000709866509124,-0.107808103463,-0.00315217780798,0.0360609039231,-0.00825186124454,0.574041798473,0.818811131217,0.00225652444175,0.0,0.818770840095,-0.573980818655,-0.0118776314064,0.0,-0.00843049737483,0.00866600015433,-0.999926910907,0.0,0.657847312982,0.255864130594,0.303494733831,1.0,-0.01254,-0.0164811428571,0.628
0.462088876005,0.525478670275,-0.124034911524,-1.39065867565,0.0774888517315,1.90693890515,0.15473373537,-0.00802025424456,-0.0623934507499,-0.00133413927458,-0.106055092246,-0.00901026082675,0.037953273925,-0.0149173968771,0.574034513741,0.81881627893,0.00224171693993,0.0,0.818775868697,-0.573973669091,-0.0118764864735,0.0,-0.00843813642419,0.00865314347245,-0.999926957813,0.0,0.6576393551,0.25559925702,0.303495988406,1.0,-0.01286,-0.0169017142857,0.644
0.461925664769,0.524278611011,-0.12404532852,-1.39252080075,0.077387810619,1.90761000171,0.154469358534,-0.00892683969258,-0.074345920282,-0.00213833554004,-0.107662426843,-0.00207865798683,0.0362248815118,-0.00995007843624,0.574031882157,0.818818089347,0.00225426850532,0.0,0.818777735321,-0.573970878059,-0.0118826842245,0.0,-0.00843603473942,0.0086669513177,-0.999926855961,0.0,0.657416984501,0.255309801252,0.303512135821,1.0,-0.0132,-0.0173485714286,0.661
0.461761540067,0.523040048952,-0.124058370245,-1.39455107455,0.0772487197104,1.90836164418,0.154208738861,-0.0103231558468,-0.0686108800462,0.0014674884343,-0.113190255095,-0.00621353862451,0.0414704589006,-0.00168990424312,0.574033545606,0.818817054636,0.00220600475789,0.0,0.818776234893,-0.573972899831,-0.0118884117927,0.0,-0.00846841042363,0.00863073761127,-0.999926895524,0.0,0.657174421209,0.254998138348,0.303482063789,1.0,-0.01356,-0.0178217142857,0.679
0.461614018701,0.521873045352,-0.124062917466,-1.39640591725,0.0771382042686,1.90907997697,0.153943386593,-0.0123329152979,-0.0730141214865,0.0018911780987,-0.118425073036,-0.00350529571043,0.0428435562628,-0.0135937628526,0.574009998972,0.818833496845,0.00222989382747,0.0,0.818793003808,-0.573949277107,-0.0118739683399,0.0,-0.00844311962313,0.00864176440051,-0.999927014156,0.0,0.656956257373,0.254724567326,0.303481717844,1.0,-0.01388,-0.0182422857143,0.695
0.461445719552,0.52062983594,-0.124073467755,-1.39841863801,0.0770192309088,1.90983633981,0.153683036943,-0.00930249544103,-0.0761258083628,-0.00164441832393,-0.114212241629,-0.00350194234889,0.0463289984002,-0.00936072631992,0.574017631836,0.818828184473,0.00221575149906,0.0,0.818787506848,-0.57395696471,-0.0118814221093,0.0,-0.00845726011827,0.00863454166945,-0.999926957053,0.0,0.656716938128,0.254417375615,0.30346295223,1.0,-0.01422,-0.0186891428571,0.712
0.461277899066,0.519302804238,-0.124064083383,-1.40047590497,0.0768793332124,1.91056971814,0.153398063104,-0.00637799306655,-0.0794752689351,0.0015837039364,-0.117729956343,-0.00733072988064,0.0372165526174,-0.0142108519808,0.573986471037,0.818850033684,0.00221366288415,0.0,0.818809342933,-0.573925830488,-0.0118805692566,0.0,-0.00845808907116,0.00863202006628,-0.999926971813,0.0,0.65646048574,0.254113102861,0.303478751253,1.0,-0.01456,-0.019136,0.729
0.461136114928,0.518197590426,-0.124069826648,-1.40219956538,0.0767683437921,1.91119066495,0.153163574553,-0.0117205203139,-0.0781340207991,0.000431321658698,-0.124853733767,-0.0065454512148,0.0539101804227,-0.0163147258558,0.573976028687,0.818857359077,0.00221153314871,0.0,0.818816670075,-0.573915427999,-0.011878098093,0.0,-0.00845739787286,0.00862874991055,-0.999927005884,0.0,0.656249229741,0.253850851053,0.303488050536,1.0,-0.01484,-0.019504,0.743
0.460933784307,0.516680113286,-0.124075199734,-1.40458077777,0.0766161026731,1.91205455162,0.152827676516,-0.00657626477808,-0.0742547924853,-0.000295799552135,-0.124752469145,-0.00438395794621,0.0459403528528,-0.0186197802997,0.573955286115,0.818871911254,0.00220667204351,0.0,0.818831182534,-0.573894731403,-0.0118776545679,0.0,-0.00846004311955,0.00862430054924,-0.999927021892,0.0,0.65595849554,0.253486328024,0.303494333921,1.0,-0.01522,-0.0200034285714,0.762
0.46074314964,0.51530094698,-0.124078728949,-1.406750373,0.0764888446387,1.9128837841,0.15254127326,-0.0116573402291,-0.0825130382693,0.000919383057668,-0.131238021472,-0.00111741107398,0.048262938491,-0.0182359537782,0.57395977721,0.818868673824,0.00223965972698,0.0,0.818828349834,-0.573899065962,-0.0118634943041,0.0,-0.00842946751571,0.00864323183514,-0.999927116654,0.0,0.655701734422,0.253155537383,0.303500825621,1.0,-0.01556,-0.0204502857143,0.779
0.460571589142,0.514003749546,-0.12408734855,-1.40886155306,0.0763591474229,1.91363511629,0.15225607006,-0.0118459442393,-0.0820438420655,-0.000698516763948,-0.139603380078,-0.00725591970192,0.0451562103761,-0.0166974814368,0.573948843477,0.818876489704,0.00218325052255,0.0,0.818835390818,-0.573888316919,-0.0118974513661,0.0,-0.00848976469759,0.00861641713953,-0.999926837949,0.0,0.655436765692,0.252834590272,0.303470691876,1.0,-0.01588,-0.0208708571429,0.795
0.460354414535,0.512440825016,-0.124090819297,-1.41140682229,0.0762063604678,1.91452633735,0.151887734989,-0.00960227196752,-0.0811361910974,-0.000645332829348,-0.134776760935,-0.0110453815554,0.0527460447448,-0.019360072433,0.573919618441,0.81889717345,0.00210660545229,0.0,0.818854935838,-0.573859266488,-0.0119533769576,0.0,-0.00857985673294,0.00858544711151,-0.999926335365,0.0,0.65511419292,0.252444579516,0.303431686222,1.0,-0.01626,-0.0213702857143,0.814
0.460154122928,0.510978223714,-0.124091508799,-1.41369908822,0.0760640933231,1.91539817824,0.151563463333,-0.00688952438654,-0.0881625736208,0.000196946800927,-0.133082927456,-0.00543333737371,0.0529727868971,-0.0205209682975,0.573900173102,0.818910715595,0.00213964898743,0.0,0.818868925338,-0.573839704629,-0.0119341278606,0.0,-0.00854533416756,0.0086012557128,-0.999926495131,0.0,0.654838912586,0.252096344337,0.303440468494,1.0,-0.0166,-0.0218171428571,0.831
0.459993626466,0.509778553625,-0.124096386308,-1.41562277803,0.0759405881331,1.9161325207,0.151287771744,-0.0141681110414,-0.087510278914,-0.000641828051604,-0.142825650353,-0.00718907974919,0.0561070984464,-0.0175036547181,0.573876408282,0.818927363597,0.00214197829126,0.0,0.818885671188,-0.573816001241,-0.0119248121229,0.0,-0.00853661789174,0.00859756921111,-0.999926601286,0.0,0.654606275642,0.251805773918,0.303428441681,1.0,-0.01688,-0.0221851428571,0.845
0.459770639029,0.508177770807,-0.124100970396,-1.41814560684,0.0757801768691,1.91703201927,0.150956296993,-0.0173429692128,-0.0920067336658,-0.0016704903934,-0.14012975091,-0.0109084006998,0.0495296923732,-0.0176288645479,0.573878357984,0.818926057209,0.002118953126,0.0,0.818884043315,-0.573818023279,-0.0119392908428,0.0,-0.00856166772025,0.00858704285499,-0.999926477568,0.0,0.654290873674,0.251414040181,0.303425775265,1.0,-0.01724,-0.0226582857143,0.863
0.459559707899,0.506645160685,-0.124105731938,-1.42056445706,0.0756321388147,1.91790733205,0.150611544681,-0.0127036269649,-0.0867518388947,-4.2211860497e-05,-0.146109080667,-0.00712054187958,0.055644623013,-0.0212962249754,0.573857368707,0.81894079156,0.00210883871538,0.0,0.818898589473,-0.573797021761,-0.0119509363494,0.0,-0.00857722903785,0.00858522322866,-0.999926359831,0.0,0.653989004843,0.251041949103,0.303422282393,1.0,-0.01758,-0.0231051428571,0.88
0.459349132504,0.50513418869,-0.124109966663,-1.42287758624,0.0754874143593,1.91878902813,0.150292702227,-0.0175665026991,-0.0881566170032,-0.000322773020008,-0.144957209364,-0.00865293470598,0.0561888775911,-0.0238407284616,0.5738521348,0.818944290927,0.00217316475194,0.0,0.818902976191,-0.573791575354,-0.0119117815427,0.0,-0.00850830567393,0.00861537822342,-0.999926689309,0.0,0.653711836074,0.250683649346,0.303453916787,1.0,-0.0179,-0.0235257142857,0.896
0.459109499949,0.503379627288,-0.124110683512,-1.42549413494,0.0753248809981,1.91978828255,0.149931169461,-0.0129674127053,-0.0937857265737,0.000585767428253,-0.137763040292,-0.00485737870992,0.0627353217517,-0.0198522959511,0.573843539526,0.818949998332,0.00228894654828,0.0,0.818910228225,-0.573782559287,-0.0118473485179,0.0,-0.00838918995837,0.00867313313247,-0.999927196477,0.0,0.653398143714,0.250280799705,0.303520730481,1.0,-0.01826,-0.0239988571429,0.914
0.458873119179,0.501691185349,-0.124116424842,-1.42801090459,0.0751625290383,1.92071437564,0.149576433975,-0.014569229197,-0.0976748043235,0.000572290999953,-0.143728444385,-0.014540284024,0.0592846838213,-0.0186848063782,0.573835553676,0.818955368002,0.00236842954647,0.0,0.818916689772,-0.573774328605,-0.0117992350811,0.0,-0.00830426271794,0.00871053478469,-0.99992758028,0.0,0.653091216969,0.249883345037,0.303581975139,1.0,-0.0186,-0.0244457142857,0.931
0.458667868341,0.500174804527,-0.124117046787,-1.43031121539,0.0750099132439,1.92151718356,0.149244442908,-0.0126419117752,-0.0913628490972,0.00078972498648,-0.149323933269,-0.00653754321883,0.0528249266407,-0.0259789956579,0.573807873593,0.818974725186,0.0023813042043,0.0,0.818936209291,-0.573746597821,-0.0117929428866,0.0,-0.00829201662113,0.0087171875523,-0.999927623932,0.0,0.652796757753,0.249526020601,0.303614749936,1.0,-0.0189,-0.02484,0.946
0.458413119087,0.498408838438,-0.124114579083,-1.43309636454,0.0748450736032,1.9225399945,0.148850421081,-0.0125154041462,-0.0944535180668,0.00128872343268,-0.157603836184,-0.00428261234613,0.055811268803,-0.0256570547604,0.573789327172,0.818987699448,0.0023881118275,0.0,0.818949137942,-0.573727886845,-0.011805431881,0.0,-0.00829853691744,0.00872974101299,-0.999927460322,0.0,0.652447098597,0.249096930884,0.303609383969,1.0,-0.01926,-0.0253131428571,0.964
0.458146534889,0.496735960795,-0.124112505324,-1.43577343354,0.0746796867849,1.92349577865,0.148462384706,-0.0110939095289,-0.0967038291962,0.00121811616552,-0.156654979398,-0.0104317715484,0.0578702177528,-0.0173061028657,0.573779226397,0.818994893648,0.00234743171598,0.0,0.818955686237,-0.573717821012,-0.0118403013161,0.0,-0.00835054368192,0.00871632929767,-0.999927144358,0.0,0.652109454118,0.248667056756,0.303584112768,1.0,-0.0196,-0.02576,0.981
0.457900885399,0.495159766765,-0.124115526138,-1.43833012936,0.0745173108064,1.92437374934,0.148091355223,-0.014575374406,-0.0952398220974,0.000315135677158,-0.162100757797,-0.0154675911245,0.0541207392386,-0.018697365395,0.573763528035,0.819006142213,0.00225827709628,0.0,0.818965661447,-0.573702358018,-0.0118994401673,0.0,-0.00845029838512,0.00867708322864,-0.999926647652,0.0,0.651777402611,0.248256272855,0.30354160295,1.0,-0.01992,-0.0261805714286,0.997
0.457609501602,0.49342205436,-0.124124722974,-1.44110921065,0.0743433772565,1.92539307176,0.147696230593,-0.0184976451515,-0.109696526483,-0.00222130615924,-0.167050831444,-0.00945021816095,0.0669165497733,-0.018369279392,0.573777961572,0.818996094041,0.00223509745982,0.0,0.818955297978,-0.573716868778,-0.0119130724676,0.0,-0.00847460986546,0.00866607019147,-0.999926537409,0.0,0.651436057325,0.24779557009,0.303517539395,1.0,-0.0218817142857,-0.0287588244898,1.014
0.457317989728,0.491462234385,-0.124135088155,-1.44421588738,0.0741480392392,1.92654244832,0.147257876108,-0.0158812134923,-0.121055594231,-0.00219427109904,-0.188075629964,-0.00579432800401,0.0695523665654,-0.0203650303576,0.57376798165,0.819003094617,0.00223184729139,0.0,0.818962264316,-0.573706911452,-0.0119137013548,0.0,-0.00847709527186,0.00866366589408,-0.999926537176,0.0,0.651046888537,0.247303715611,0.303502658873,1.0,-0.0243685714286,-0.0320272653061,1.031
0.456980678288,0.489325225067,-0.124149389155,-1.44767059111,0.0739403303477,1.92775460858,0.146754377923,-0.0232456456252,-0.132267074279,-0.000975089526247,-0.200490011921,-0.0082401785898,0.0732540319353,-0.0287800484671,0.573758094956,0.819010257764,0.00214314053288,0.0,0.818968090065,-0.573697204495,-0.0119804804346,0.0,-0.0085827878816,0.00862922747915,-0.99992593335,0.0,0.65060116699,0.246743410639,0.303450107218,1.0,-0.0268554285714,-0.0352957061224,1.048
0.45662648426,0.487075305296,-0.124169852946,-1.45118363333,0.0737257128837,1.92908751179,0.146248654606,-0.020918671221,-0.145729367114,-0.000221886125133,-0.222925607142,-0.0139361128618,0.0858950096942,-0.0350381024699,0.573765306501,0.819005061211,0.00219765067677,0.0,0.81896365121,-0.573704238461,-0.0119470360422,0.0,-0.0085240455914,0.00865475744976,-0.999926215188,0.0,0.650172157752,0.246170183108,0.303457660577,1.0,-0.029196,-0.0383718857143,1.064
0.456206816333,0.484443532036,-0.124199026958,-1.45517747102,0.0734777431382,1.93057754021,0.145642763702,-0.025231351747,-0.163324950064,-0.000696672730141,-0.246705119156,-0.0152381795567,0.0859754471899,-0.0348402644833,0.573763808512,0.819005826497,0.00230111001871,0.0,0.818965853037,-0.573702416536,-0.0118834221495,0.0,-0.00841260156938,0.00870297563933,-0.999926740491,0.0,0.649684379879,0.245502966206,0.303513917666,1.0,-0.0316828571429,-0.0416403265306,1.081
0.455774807367,0.481815303029,-0.124243939791,-1.45928827422,0.0732184130768,1.93197740635,0.145016913497,-0.0315573679446,-0.168295176816,-0.00578672346039,-0.268913597257,-0.0168561853831,0.09064760532,-0.0406734211674,0.573768168076,0.819002984397,0.00222435469616,0.0,0.818961966305,-0.573707035962,-0.0119281824171,0.0,-0.0084932525798,0.00866584011394,-0.999926381228,0.0,0.649153934366,0.244797360683,0.303503271052,1.0,-0.0340234285714,-0.0447165061224,1.097
0.455252589402,0.478603931823,-0.124292818442,-1.46423023258,0.072919236498,1.93377292643,0.144295177575,-0.0287563445908,-0.18345459603,-0.0023497919776,-0.281279270193,-0.0165482322319,0.103197319365,-0.0397591760266,0.573799972466,0.81898056073,0.00227588347647,0.0,0.818940212159,-0.573738627829,-0.0119022160123,0.0,-0.00844208381707,0.00869347109348,-0.999926574695,0.0,0.64853509906,0.243960753997,0.30353368957,1.0,-0.0366565714286,-0.0481772081633,1.115
0.454696005111,0.475372470807,-0.124315208261,-1.46916076464,0.0726207535357,1.93561543467,0.143592118439,-0.0351588414886,-0.198837027084,0.000114347851671,-0.299062369105,-0.0102463378184,0.114957852171,-0.0465394401541,0.573854189436,0.818942222574,0.00239838558702,0.0,0.818903436347,-0.573792324514,-0.0118438662849,0.0,-0.00832342718993,0.00876086715945,-0.999926981217,0.0,0.647927137362,0.243122778589,0.303584230075,1.0,-0.0391434285714,-0.0514456489796,1.132
0.454145394176,0.47214155239,-0.124332589966,-1.47413403513,0.0723125856371,1.93735560421,0.142853242012,-0.0337341445678,-0.209572567534,0.000909356995978,-0.316292252071,-0.0156188120233,0.113296459352,-0.0515713877373,0.573867300373,0.818933030176,0.0024001147899,0.0,0.818894066752,-0.573805216952,-0.0118670695053,0.0,-0.00834129739734,0.00877573186133,-0.999926701958,0.0,0.647281598161,0.242279058417,0.303602631708,1.0,-0.041484,-0.0545218285714,1.148
0.453546037739,0.46851575904,-0.124345034108,-1.47961414723,0.0719732873264,1.93939678981,0.141993612919,-0.0322648759888,-0.213772722197,-0.0017240646959,-0.326670337496,-0.01712470587,0.129260855793,-0.0508140342696,0.573832275335,0.818957085652,0.00256096565392,0.0,0.818920172367,-0.573769541072,-0.0117903320508,0.0,-0.00818652950333,0.00886307014399,-0.999927210712,0.0,0.646588434551,0.241367719436,0.303675690771,1.0,-0.0439708571429,-0.0577902693878,1.165
0.452898925503,0.46469318822,-0.124346130044,-1.48543422856,0.0715797366646,1.94147579669,0.141080010545,-0.0400946644688,-0.230665778986,-0.000375786553894,-0.350380964063,-0.0225700103249,0.115745229337,-0.0453352272954,0.573781406654,0.818992537269,0.00262072086694,0.0,0.818956425963,-0.57371848706,-0.0117565675392,0.0,-0.00812514150189,0.00889212725572,-0.999927453443,0.0,0.645829437152,0.240389729912,0.30372243052,1.0,-0.0464577142857,-0.0610587102041,1.182
0.452259106622,0.460962642464,-0.124349690025,-1.49126329015,0.0711962997111,1.94349003241,0.140215083105,-0.0409037457049,-0.228208566721,-8.67713878216e-05,-0.36779436012,-0.0187939880581,0.127503057551,-0.0537283244911,0.573766900991,0.819002935544,0.00254593776656,0.0,0.818965646288,-0.573704036048,-0.0118193114742,0.0,-0.00821959427395,0.00886673599696,-0.99992690696,0.0,0.645045025854,0.239411143441,0.303692910009,1.0,-0.0487982857143,-0.0641348897959,1.198
0.451400549852,0.456098005135,-0.124362711057,-1.49884649542,0.0706824384425,1.94617975328,0.139058556397,-0.0472407286183,-0.24244124686,-0.00159495396392,-0.386597996022,-0.0240318143207,0.139345396614,-0.0574782623062,0.573741979106,0.81902052042,0.00250508349694,0.0,0.818982690158,-0.57367926143,-0.0118408245942,0.0,-0.00826092291937,0.00884536845908,-0.999926755622,0.0,0.644038637726,0.238119995953,0.303663712232,1.0,-0.051724,-0.0679801142857,1.218
0.450702978703,0.452262376128,-0.124385734142,-1.5047337303,0.0702714867123,1.94827963934,0.138102516573,-0.0477407022367,-0.263104915265,-0.00295690913597,-0.395389688868,-0.0227348368285,0.147511148395,-0.0591084271559,0.573703136055,0.81904766499,0.00252607520374,0.0,0.819010279395,-0.573640528268,-0.0118090420999,0.0,-0.00822326756676,0.00884393631809,-0.999927078672,0.0,0.643264977849,0.237090876357,0.303678815435,1.0,-0.0539182857143,-0.0708640326531,1.233
0.449923833592,0.447940962252,-0.124438606543,-1.51122122719,0.0698386891057,1.95064574819,0.137127942518,-0.0466274264146,-0.270983479418,-0.00338223328604,-0.413201130573,-0.0344070285165,0.139411121965,-0.0588154684606,0.573758639834,0.819008306154,0.00267667099924,0.0,0.818973103745,-0.573695722776,-0.0117055504737,0.0,-0.00805150337895,0.00890845378962,-0.999927903773,0.0,0.642367747752,0.235869771209,0.303763795773,1.0,-0.0564051428571,-0.0741324734694,1.25
0.449000635701,0.442945134483,-0.124466455551,-1.51899189438,0.0693129815399,1.95322585918,0.135951926245,-0.0481946585306,-0.276307160188,-0.000976505667608,-0.436024438902,-0.0309362262826,0.152383821342,-0.0657445264576,0.573772491846,0.818999143075,0.00250562247528,0.0,0.818961443368,-0.573709900549,-0.0118258694905,0.0,-0.00824803535798,0.00883753695469,-0.999926931257,0.0,0.641344835232,0.234577325885,0.303708480358,1.0,-0.058892,-0.0774009142857,1.267
0.448196440401,0.438654971202,-0.124481629867,-1.52561928799,0.0688476332412,1.95551968285,0.13486764092,-0.0548301345363,-0.28987769416,-0.00058759932412,-0.437756135562,-0.029311795318,0.153462413474,-0.0734504297783,0.573718122172,0.819037391703,0.00245238352815,0.0,0.818998996271,-0.573655737393,-0.0118526774979,0.0,-0.00830112200368,0.00880876512084,-0.999926745832,0.0,0.64043693335,0.23341237666,0.303686526642,1.0,-0.0610862857143,-0.0802848326531,1.282
0.447144055847,0.433242154526,-0.124501556306,-1.53368047694,0.068315342796,1.95848780732,0.133554869674,-0.0609890174157,-0.300530673988,0.000653272423053,-0.452753386197,-0.0279616221855,0.170132707007,-0.0807760903849,0.573725542353,0.819031355215,0.00271811117223,0.0,0.818996498025,-0.573662268917,-0.0117083023929,0.0,-0.00803034356285,0.00894364786461,-0.999927759763,0.0,0.639378856699,0.231968104843,0.303801131601,1.0,-0.0637194285714,-0.0837455346939,1.3
0.446104843957,0.428087358439,-0.124556358401,-1.54169785967,0.0677171902793,1.96121412337,0.13228288444,-0.0625233976621,-0.304913026424,-0.00945066038243,-0.487239837318,-0.0387782325438,0.149022416305,-0.0749784149027,0.573752882625,0.819012715781,0.00255889989067,0.0,0.818976087465,-0.573690503823,-0.011752484175,0.0,-0.00815757447246,0.00883886966975,-0.999927661564,0.0,0.638272557904,0.23049057015,0.30373493689,1.0,-0.0662062857143,-0.0870139755102,1.317
0.445012842021,0.422655094582,-0.124641002159,-1.55001569927,0.0671095511392,1.96394630538,0.130882468162,-0.0637957293639,-0.318071046141,-0.00263480007983,-0.496251581302,-0.0383613316304,0.157917870544,-0.0815097356966,0.573745146405,0.819018631831,0.00239470073664,0.0,0.81898002187,-0.573683545396,-0.0118178010557,0.0,-0.00830535874699,0.00874178636501,-0.999927298451,0.0,0.637103738081,0.228932195919,0.303708749189,1.0,-0.0686931428571,-0.0902824163265,1.334
0.444010765724,0.417712728995,-0.124684135568,-1.55742603161,0.0665921663836,1.96655937561,0.129721198495,-0.0696219026745,-0.334962029204,-0.00251848545609,-0.492068822685,-0.0366260686842,0.185562894626,-0.0774263893554,0.573812939501,0.818970822295,0.00249991830216,0.0,0.818933714388,-0.573751078534,-0.0117481156115,0.0,-0.00818719070946,0.00878865734238,-0.999927862103,0.0,0.636089168095,0.227562944919,0.303763188929,1.0,-0.0708874285714,-0.0931663346939,1.349
0.442741537403,0.411647671245,-0.124697276602,-1.56650268264,0.0659794415497,1.96985349333,0.128148692352,-0.0720931312653,-0.336112521377,-0.000593176544419,-0.518444574172,-0.034522563591,0.176647469157,-0.0863536760636,0.573791653068,0.818985002061,0.00272986617895,0.0,0.818950804703,-0.573728896571,-0.0116395711694,0.0,-0.007966584489,0.0089144865178,-0.999928530177,0.0,0.634779327514,0.225795175353,0.303836888931,1.0,-0.0736668571429,-0.0968192979592,1.368
0.441422929478,0.405438189095,-0.124758469343,-1.5760570806,0.0652845730698,1.97294242261,0.126617076681,-0.0717180632099,-0.348578007464,-0.00651043600944,-0.538438961723,-0.0411300389467,0.177876403117,-0.0887077817846,0.573841046142,0.818951146282,0.00249412635672,0.0,0.818913758477,-0.57377898356,-0.0117762941202,0.0,-0.00821329041418,0.00880036476082,-0.999927545095,0.0,0.633461019203,0.22409332925,0.303755170962,1.0,-0.0761537142857,-0.100087738776,1.385
0.440170637109,0.399739304407,-0.124813349925,-1.58460448005,0.0647011877646,1.97592001533,0.125163075524,-0.083253863986,-0.368405165348,-0.00565293831273,-0.532530254794,-0.0360702907437,0.193578857349,-0.0920899722496,0.573894942716,0.81891305897,0.00259682007456,0.0,0.818876924878,-0.5738324097,-0.0117343249559,0.0,-0.0081194087474,0.00886091638557,-0.999927777073,0.0,0.632263934072,0.222459881656,0.303789156601,1.0,-0.0784942857143,-0.103163918367,1.401
0.438788784174,0.393487698623,-0.124832616718,-1.59388354711,0.0639923469074,1.97913613048,0.123572909572,-0.0776726985009,-0.372437969847,-0.00257487703641,-0.558561408623,-0.0368281714548,0.184196933636,-0.101378416941,0.573900282088,0.81890892136,0.00271875657298,0.0,0.818874726747,-0.57383771398,-0.0116278463377,0.0,-0.00796217534196,0.00889971668617,-0.999928696861,0.0,0.630947578384,0.220688874096,0.303857509945,1.0,-0.0809811428571,-0.106432359184,1.418
0.437553110536,0.387901690693,-0.124853067831,-1.60239015117,0.0633687674801,1.98186315318,0.122124196328,-0.0781975816722,-0.379739800589,-0.00117897791946,-0.576296770196,-0.0432894040382,0.188751212891,-0.100903006535,0.573890684265,0.818916204515,0.00254546628581,0.0,0.818879413119,-0.57382834956,-0.01175920541,0.0,-0.0081693004292,0.00883309844193,-0.999927616832,0.0,0.629670899054,0.219075938383,0.303796254063,1.0,-0.0831754285714,-0.109316277551,1.433
0.436103325055,0.381346305091,-0.124862058905,-1.61205417356,0.0626728101128,1.9851098205,0.120371584941,-0.0869482344429,-0.393891697739,-0.000380743963706,-0.563028572474,-0.0395273355209,0.203366698794,-0.0960825122453,0.573816753084,0.818967646758,0.00265976412486,0.0,0.818932109855,-0.573753761854,-0.0117289005595,0.0,-0.00807969597715,0.00890857740048,-0.999927675265,0.0,0.628246556498,0.217241237984,0.303868341008,1.0,-0.0856622857143,-0.112584718367,1.45
0.43439121254,0.373946131685,-0.12486598085,-1.62312409638,0.0618453258402,1.98885869105,0.118393027776,-0.0970935180776,-0.394102152037,-7.0660196152e-05,-0.594300708217,-0.0520902712761,0.191650323777,-0.112207986959,0.573774116789,0.818997368161,0.00270568833233,0.0,0.818962359959,-0.573710892495,-0.0117137399482,0.0,-0.00804139414271,0.00893706976133,-0.999927729771,0.0,0.62660837242,0.215113416911,0.303868339337,1.0,-0.0884417142857,-0.116237681633,1.469
0.433063992597,0.368366706231,-0.124923953084,-1.63155034977,0.0611824251344,1.99151263173,0.11696212842,-0.0980869358013,-0.400979555948,-0.00771634940664,-0.60827825087,-0.0447337143067,0.182043887222,-0.0999684277898,0.573845768799,0.818947789252,0.00250978324253,0.0,0.818910224777,-0.573783239408,-0.011814602485,0.0,-0.00823562958829,0.00883521691065,-0.999927054013,0.0,0.625322366004,0.213433384932,0.303807996678,1.0,-0.0904897142857,-0.118929338776,1.483
0.431342454139,0.360955906363,-0.124967284211,-1.64231492907,0.0603321659411,1.99519073517,0.114976361936,-0.0998855965563,-0.409310600611,-0.000662347473447,-0.613052925922,-0.0429275805994,0.202594691789,-0.115186157888,0.573797465061,0.818980904466,0.00273753725566,0.0,0.818946825016,-0.573734702191,-0.0116334087347,0.0,-0.00795707268374,0.00891728957131,-0.99992858092,0.0,0.623725424714,0.211315504665,0.303929206583,1.0,-0.0931228571428,-0.122390040816,1.501
0.429583763443,0.353919768634,-0.124984151271,-1.65281933149,0.059566848735,1.99858135033,0.11301466145,-0.104495628954,-0.414558760318,-0.00134677962265,-0.630193800642,-0.0477025462848,0.20031905651,-0.107839675577,0.573787873955,0.818987820031,0.00267829135482,0.0,0.818952390979,-0.573724673432,-0.0117357277557,0.0,-0.00807497172641,0.0089273832668,-0.999927545705,0.0,0.622109636332,0.209217275514,0.303888593381,1.0,-0.0956097142857,-0.125658481633,1.518
0.427861703709,0.347150793558,-0.125048610134,-1.6628441624,0.0588045331864,2.00183709198,0.111127330945,-0.108113568612,-0.440813688837,-0.00185009408315,-0.616318003533,-0.0429373068938,0.213464901559,-0.124783153283,0.573819884542,0.818965451779,0.00266003715865,0.0,0.818929665544,-0.573756613258,-0.011760039774,0.0,-0.00810500842169,0.00892669987263,-0.999927308792,0.0,0.620574026335,0.207162984973,0.303876174138,1.0,-0.0979502857143,-0.128734661224,1.534
0.425876667966,0.339322320998,-0.125080503459,-1.67420720936,0.0579051840133,2.00556635402,0.109005318284,-0.106657888113,-0.435023927812,-0.00100129841953,-0.647542718669,-0.0540761259987,0.197248113392,-0.123733304138,0.573843384599,0.818948540798,0.00279363147731,0.0,0.818914632956,-0.573779797536,-0.0116753917093,0.0,-0.00795876893112,0.00898776503319,-0.999927936442,0.0,0.618822771188,0.204845698481,0.303951395813,1.0,-0.100583428571,-0.132195363265,1.552
0.423935310854,0.331872089302,-0.125091091483,-1.68532713746,0.0570048394631,2.00896619009,0.106883712645,-0.122612512785,-0.447302228636,-0.000625172485955,-0.651826567107,-0.0553769843813,0.205416248476,-0.122977771882,0.573793978586,0.818983972452,0.00254360110682,0.0,0.818946396604,-0.573730842823,-0.0118518515281,0.0,-0.00824729282448,0.00888376504273,-0.999926527741,0.0,0.617025950919,0.202579968397,0.303851443751,1.0,-0.103070285714,-0.135463804082,1.569
0.422068482079,0.32460955045,-0.125082893346,-1.69566493136,0.0561680232445,2.01241237323,0.104818832254,-0.115357885976,-0.448405813501,-0.000379258009133,-0.654309424741,-0.0488731884958,0.217081757187,-0.129285432212,0.573700707255,0.819048376287,0.00282890402702,0.0,0.819014790885,-0.573636863872,-0.0116733722815,0.0,-0.0079384458184,0.00901410972362,-0.99992786085,0.0,0.615410670142,0.200474738343,0.303986676761,1.0,-0.105410857143,-0.138539983673,1.585
0.419963842846,0.316874545147,-0.125115120925,-1.70698437177,0.0552591521875,2.01594390238,0.102645138006,-0.123667709567,-0.455501948509,-0.00118770400061,-0.682967173487,-0.047419889086,0.201005184723,-0.129564159463,0.57374284422,0.819019076793,0.00276540347864,0.0,0.818984399166,-0.573678915343,-0.0117389486254,0.0,-0.00802812376388,0.00900013335937,-0.999927270769,0.0,0.613583918365,0.198102089224,0.303959646093,1.0,-0.107897714286,-0.14180842449,1.602
0.417812119469,0.308940903135,-0.125195104634,-1.71835171074,0.0542762702833,2.01955040996,0.100278881149,-0.123472648645,-0.474991171502,-0.00402876615059,-0.670852106968,-0.0612541201658,0.223749360115,-0.137791621165,0.573667240369,0.819071749829,0.00284830840698,0.0,0.819038728242,-0.573603690618,-0.0116238827469,0.0,-0.00788714561906,0.0090012889358,-0.999928382301,0.0,0.611761116867,0.195673389169,0.304028929619,1.0,-0.110384571429,-0.145076865306,1.619
0.415673817483,0.301428697182,-0.125207938533,-1.7292702491,0.0533833377329,2.02290724824,0.0980290634506,-0.136394948707,-0.470649682282,-0.00134231814355,-0.685855020251,-0.0605146493861,0.202093064225,-0.134438819601,0.573629762318,0.819098186345,0.00279353025748,0.0,0.819064114293,-0.573566019371,-0.0116938018395,0.0,-0.00797625141603,0.00899616635998,-0.99992772159,0.0,0.609962142028,0.19334503449,0.304000477189,1.0,-0.112725142857,-0.148153044898,1.635
0.413142099542,0.292819462677,-0.125304301092,-1.74166352934,0.0523937883791,2.02663955715,0.0955406830744,-0.139099411299,-0.485111958192,-0.0100730491062,-0.66871887203,-0.0556184916588,0.217475139366,-0.144951750166,0.573786212872,0.818988761203,0.00274551327533,0.0,0.818953565867,-0.573722059786,-0.011781424773,0.0,-0.00807384839518,0.00900864043398,-0.999926826008,0.0,0.607913296637,0.190603063912,0.303997369252,1.0,-0.115358285714,-0.151613746939,1.653
0.411004215558,0.285527566217,-0.125372452112,-1.75203798056,0.0515072872438,2.02995018106,0.0933152793446,-0.145271072431,-0.483483857143,-0.00529317571352,-0.704340615089,-0.0561221742336,0.215139916553,-0.144821069167,0.573775765535,0.81899556513,0.00289518275757,0.0,0.818962701159,-0.573711527766,-0.0116586414224,0.0,-0.00788752775676,0.00906066704466,-0.999927843006,0.0,0.606218948343,0.188317590049,0.304049197029,1.0,-0.117552571429,-0.154497665306,1.668
0.408481487264,0.277182028589,-0.125405104713,-1.76410827788,0.0504431170884,2.0333998354,0.0907327337587,-0.153460475733,-0.495933732811,-0.00450504319455,-0.710599616545,-0.0588345343599,0.202699579958,-0.159332744753,0.573735439546,0.819024699219,0.00263332087235,0.0,0.818988030638,-0.57367169061,-0.011838241685,0.0,-0.0081853082911,0.00894884936495,-0.999926456707,0.0,0.604135226321,0.185649091025,0.303968863807,1.0,-0.120039428571,-0.157766106122,1.685
0.405699020626,0.268163335754,-0.125522799826,-1.77673892382,0.0493209672324,2.03740753422,0.0879561050317,-0.156841051097,-0.499192131053,-0.00560248404959,-0.697689738115,-0.0619087456713,0.219994837362,-0.160689817975,0.573800009819,0.81897857571,0.00289623210081,0.0,0.818946167486,-0.573736273929,-0.0116021394425,0.0,-0.0078403811735,0.00902933974791,-0.999928497167,0.0,0.602054856342,0.182760621343,0.304079781455,1.0,-0.122672571429,-0.161226808163,1.703
0.402949918127,0.259575959494,-0.125626778306,-1.78904587139,0.0482490235188,2.0408984864,0.0853006135325,-0.162876206534,-0.497720746639,-0.0011729812531,-0.716382205604,-0.0638753055475,0.201047977671,-0.158900257455,0.573919214248,0.818895774474,0.00268197059394,0.0,0.818860138664,-0.573855702131,-0.0117666197883,0.0,-0.00809672699331,0.00894942029979,-0.999927172792,0.0,0.599911774985,0.179924160413,0.304005918559,1.0,-0.125159428571,-0.16449524898,1.72
0.400312410946,0.251287434441,-0.125689251407,-1.80048626736,0.0472112201966,2.04434182735,0.0827344795199,-0.169361989791,-0.508982243791,-0.000767234974537,-0.711127422216,-0.0591191909657,0.220659177842,-0.16455778922,0.5739632073,0.818864268255,0.00287988567058,0.0,0.818831628614,-0.573899482193,-0.0116144402178,0.0,-0.00785803648657,0.00902457658333,-0.999928401577,0.0,0.597951462897,0.177281142924,0.304125529033,1.0,-0.1275,-0.167571428571,1.736
0.397278474086,0.241992084166,-0.125688255748,-1.81376020418,0.0460651184712,2.04811726294,0.0796856811312,-0.173380347407,-0.518564213653,-0.000318083774751,-0.726627162253,-0.06579053455,0.191378716487,-0.166967470063,0.57388291137,0.8189211012,0.00271678986737,0.0,0.818885419873,-0.573818725209,-0.0118104453928,0.0,-0.00811303424943,0.00900272572821,-0.999926562106,0.0,0.59557169733,0.174284470855,0.304022210995,1.0,-0.130133142857,-0.171032130612,1.754
0.394489960068,0.233444218743,-0.125692569287,-1.82536068762,0.0450309630525,2.05158742754,0.0769782707848,-0.172021404816,-0.534653498881,0.00062074815441,-0.74358010933,-0.0675776038265,0.225618156452,-0.165569241652,0.573868602887,0.818929963751,0.00304762085258,0.0,0.818898757431,-0.573803471721,-0.0116253094771,0.0,-0.00777172847285,0.00916726953541,-0.999927778095,0.0,0.593535922341,0.171606306218,0.304188212001,1.0,-0.132473714286,-0.174108310204,1.77
0.391462157193,0.224414853195,-0.125680269938,-1.83809943523,0.0438162087643,2.05511038381,0.0739254569633,-0.181640158157,-0.534015435225,-0.000390893598684,-0.738390142288,-0.0666810289101,0.200352287474,-0.183595421295,0.573700677727,0.819048317428,0.00285184055163,0.0,0.819014295067,-0.573635919671,-0.0117542775369,0.0,-0.0079915569238,0.00907930997297,-0.999926847899,0.0,0.591195734384,0.168683938896,0.304103622812,1.0,-0.134960571429,-0.17737675102,1.787
0.388832689084,0.216799455806,-0.125744011192,-1.84847979354,0.0428488676233,2.05804500714,0.0713911686683,-0.191557595405,-0.55468438604,-0.00878587421865,-0.735985562096,-0.0618750938725,0.222384340699,-0.178459863547,0.573716832033,0.819036481778,0.00299750903065,0.0,0.819004483601,-0.573651721255,-0.0116664237898,0.0,-0.00783585134522,0.0091483731681,-0.999927450719,0.0,0.5891896724,0.166010703784,0.304199312867,1.0,-0.137154857143,-0.180260669388,1.802
0.385554322832,0.207577519749,-0.125815406056,-1.86122709479,0.0416774020377,2.0616271114,0.068274538622,-0.195780605473,-0.548777890489,-0.00277441462144,-0.75397315234,-0.0679113804571,0.203887276525,-0.183900766192,0.573756750652,0.819008532648,0.00299356507306,0.0,0.81897624191,-0.573691366442,-0.0116994939316,0.0,-0.00786475434126,0.00916449874093,-0.999927076142,0.0,0.58699377152,0.16311608568,0.304174817748,1.0,-0.139495428571,-0.18333684898,1.818
0.381750964429,0.197024336816,-0.125894972991,-1.87561578799,0.040278252727,2.06548230072,0.0646253911046,-0.201291376944,-0.557879744219,-0.00452094836302,-0.732396564057,-0.0706209103106,0.213871230084,-0.191068092452,0.573730853544,0.81902677069,0.00296706687666,0.0,0.818994091146,-0.573665511751,-0.0117177726722,0.0,-0.00789521758062,0.00915303418117,-0.999926941084,0.0,0.584308535054,0.159596697748,0.30420865825,1.0,-0.142274857143,-0.186989812245,1.837
0.378400066197,0.18815386769,-0.126016940924,-1.88785714738,0.0391457983609,2.06882794534,0.0614820495568,-0.211953156841,-0.560076094732,-0.00636967464426,-0.77385992883,-0.0669827882044,0.195439990688,-0.206887910266,0.573823662232,0.818961859897,0.00293659650475,0.0,0.818928380793,-0.573757948646,-0.0117843285172,0.0,-0.00796617338701,0.00916716526368,-0.999926248862,0.0,0.58202611412,0.156536770729,0.304154797636,1.0,-0.144615428571,-0.190065991837,1.853
0.374481188652,0.177925796029,-0.12617040449,-1.90157680567,0.0378211450389,2.07248077599,0.05788368342,-0.215955690154,-0.576321064305,-0.000942716434873,-0.751777308673,-0.0804492168847,0.211852192691,-0.192471889297,0.573973844198,0.818856225974,0.00304208177964,0.0,0.818824133307,-0.573907759504,-0.0117332517393,0.0,-0.00786212326947,0.00922568720545,-0.999926534158,0.0,0.57944840395,0.153019437768,0.304230312805,1.0,-0.147248571429,-0.193526693878,1.871
0.371199514675,0.16941041729,-0.126193296997,-1.91316590329,0.0366052229028,2.07550732317,0.0547936210201,-0.224181232578,-0.570097924429,-0.000480128453048,-0.779925557223,-0.0756085928387,0.194017366206,-0.214062792731,0.573897647489,0.81890999363,0.00294269268388,0.0,0.818876807594,-0.573832148883,-0.0117552453964,0.0,-0.00793802909802,0.0091561867543,-0.999926573273,0.0,0.577207369613,0.150130885,0.304190642534,1.0,-0.149442857143,-0.196410612245,1.886
0.367351618873,0.159559969796,-0.126215132632,-1.92629459052,0.0353143513915,2.07889836898,0.0511290436329,-0.223096914836,-0.594085848177,-8.58940100483e-05,-0.740651657515,-0.0737967745194,0.210891406218,-0.213207174183,0.573798960604,0.818978833288,0.00302825643977,0.0,0.818946438957,-0.573732804254,-0.0117535672895,0.0,-0.00788866464775,0.00922434211885,-0.999926337528,0.0,0.574649045256,0.146823006024,0.304237781135,1.0,-0.151929714286,-0.199679053061,1.903
0.362899356307,0.148514664924,-0.126261583727,-1.94108274111,0.033755771559,2.08266626806,0.0470392554017,-0.233744647604,-0.587951831685,-0.00327237638311,-0.791006911542,-0.0723662109009,0.181449088864,-0.221500966375,0.573771393066,0.818998299093,0.0029868851068,0.0,0.818965553139,-0.573705601295,-0.0117495836302,0.0,-0.00790944857343,0.00918790787682,-0.999926508786,0.0,0.571736133363,0.143032438377,0.304223778534,1.0,-0.154709142857,-0.203332016327,1.922
0.358997932488,0.139024108928,-0.126347646357,-1.95353558085,0.0325406144593,2.08575436076,0.0434922191948,-0.247066516846,-0.595202596118,-0.00773806245956,-0.773808554783,-0.0767170093191,0.205708089224,-0.216912626148,0.573848947613,0.818943522623,0.00310467048796,0.0,0.818911799412,-0.573782140567,-0.0117586925937,0.0,-0.0078484517628,0.00929034353397,-0.999926042926,0.0,0.569260449493,0.139766429781,0.304288373515,1.0,-0.157049714286,-0.206408195918,1.938
0.354737256991,0.12892470218,-0.126467994011,-1.96685245892,0.0311063931476,2.08904223914,0.0395044225887,-0.256886670333,-0.599523735369,-0.00476000443279,-0.803358159226,-0.0886491082326,0.183744225931,-0.241054835996,0.573796923176,0.818979970613,0.00310573516816,0.0,0.818948545998,-0.573730456849,-0.0117212965064,0.0,-0.00781780272841,0.0092692596332,-0.99992647869,0.0,0.566592079141,0.136217813688,0.304298544388,1.0,-0.159536571429,-0.209676636735,1.955
0.350301232967,0.118639616653,-0.126621675066,-1.98023057099,0.0296496515377,2.0922737697,0.0355860894006,-0.266321722665,-0.623155350026,-0.00656067690952,-0.771899590106,-0.0888219048466,0.198472413028,-0.234825450473,0.573946304461,0.818875076261,0.00316164131391,0.0,0.81884476578,-0.573880094565,-0.0116461804135,0.0,-0.00772251254032,0.00927335419137,-0.9999271812,0.0,0.563887471323,0.132574772007,0.304352954206,1.0,-0.162023428571,-0.212945077551,1.972
0.345466001508,0.107770420821,-0.12669300375,-1.99450695472,0.0281059781402,2.09562559779,0.0311503287057,-0.271154553149,-0.612549487006,-0.00230498584092,-0.777338200361,-0.091918775664,0.175241432114,-0.243432686643,0.573890373665,0.818914567175,0.00308505834997,0.0,0.818883009174,-0.573824125243,-0.0117148399818,0.0,-0.00782332282741,0.00924951384147,-0.999926618364,0.0,0.560935841141,0.128715729454,0.304306798674,1.0,-0.164656571429,-0.216405779592,1.99
0.340845008456,0.0972898976205,-0.126704083911,-2.00789318216,0.0266325650413,2.09876586264,0.0268924594507,-0.267420527669,-0.630249911789,-0.00390505010018,-0.798968467865,-0.0826789448452,0.189429772252,-0.264588992074,0.57375348876,0.819009872851,0.00324179119776,0.0,0.818980590891,-0.573687031812,-0.0116072466448,0.0,-0.00764682325375,0.00931484166761,-0.999927377272,0.0,0.558140037893,0.125114527874,0.304395596346,1.0,-0.167143428571,-0.219674220408,2.007
0.335749691175,0.0862364877393,-0.126731559013,-2.02233288124,0.0251467395752,2.10189342735,0.0222711527153,-0.285046203752,-0.620202551043,-0.00279852146684,-0.781522843453,-0.0922899622106,0.161236212627,-0.259513259967,0.573708979324,0.819041664086,0.00308325072592,0.0,0.81900873451,-0.573641174386,-0.0118845591369,0.0,-0.00796542288415,0.00934366746191,-0.999924621117,0.0,0.555033079884,0.121200259185,0.30429059516,1.0,-0.169776571429,-0.223134922449,2.025
0.331917359339,0.0780489273334,-0.126847439698,-2.03255615008,0.0239473305659,2.10422347409,0.0188035822181,-0.291421947887,-0.638539187342,-0.0148806869783,-0.778946316208,-0.099489670528,0.192461774622,-0.264950840872,0.573705542962,0.81904337618,0.00326263872827,0.0,0.8190136223,-0.573638120483,-0.0116935929822,0.0,-0.00770613429488,0.00938100528755,-0.999926303401,0.0,0.552881904151,0.118265243663,0.304407896823,1.0,-0.171678285714,-0.225634318367,2.038
0.326476010001,0.0667967341793,-0.127012970343,-2.04698204073,0.0223015460636,2.1073370303,0.0139975779671,-0.307642026802,-0.626404027494,-0.0114038433999,-0.805296310915,-0.0980496629041,0.166806894556,-0.269199526499,0.573803219198,0.818975280013,0.00317856361417,0.0,0.818944255152,-0.573735851512,-0.0117569785242,0.0,-0.00780516915092,0.00934943854236,-0.999925830916,0.0,0.549764067204,0.114139685611,0.304356222814,1.0,-0.174311428571,-0.229095020408,2.056
0.320792695042,0.0552945051175,-0.127169069004,-2.06127458676,0.0206485418192,2.11032407592,0.00894627021682,-0.315882664528,-0.635150717573,-0.00491755461673,-0.781792972353,-0.0936775198308,0.171337602549,-0.266314501001,0.573864294803,0.818931972405,0.00330796378991,0.0,0.81890283221,-0.573796732131,-0.0116708395251,0.0,-0.00765967229171,0.00940656011569,-0.999926420317,0.0,0.546649484812,0.109939372065,0.304455041255,1.0,-0.176944571429,-0.232555722449,2.074
0.316015460367,0.0457925990108,-0.127234111173,-2.07336455602,0.0192797015875,2.11280130511,0.00470831602417,-0.318535678674,-0.637933455294,-0.00222214964014,-0.849406428013,-0.0945125636626,0.159003728479,-0.279274079381,0.573862205022,0.818933772536,0.00322377851923,0.0,0.818902886714,-0.573794133824,-0.0117941096492,0.0,-0.00780895985231,0.00940833644471,-0.999925248882,0.0,0.543949856869,0.106477058327,0.304377608589,1.0,-0.179138857143,-0.235439640816,2.089
0.310441349524,0.034797018851,-0.127265854908,-2.08688902721,0.0176966600506,2.11550757638,-0.00030042820816,-0.32982174064,-0.652119249017,-0.00242161661497,-0.776546843924,-0.0936641909167,0.161108174552,-0.300064426749,0.573754466517,0.819008732723,0.00335481391398,0.0,0.818979567259,-0.573685983955,-0.01173060641,0.0,-0.00768300729036,0.00947819435479,-0.999925564845,0.0,0.540907840568,0.102536694469,0.304453153565,1.0,-0.17998,-0.236545142857,2.106
0.304692844814,0.0239445946856,-0.127347493805,-2.10042619952,0.0160222644629,2.11807888767,-0.00534918239391,-0.338278371896,-0.639591427447,-0.00513200187234,-0.826590908336,-0.0969281742376,0.129724736457,-0.303522503064,0.57373977816,0.819019574539,0.00321720065823,0.0,0.818988529276,-0.573671657833,-0.0118052875602,0.0,-0.00782329538237,0.00940819463828,-0.999925138159,0.0,0.537811685528,0.0985018759039,0.304396762001,1.0,-0.17998,-0.236545142857,2.123
0.299137768561,0.0136476077227,-0.12752938858,-2.11281617059,0.014509965826,2.12041647949,-0.0101839017848,-0.35045424076,-0.655423863829,-0.00882028137101,-0.767850563341,-0.103376719622,0.150887078452,-0.292403971152,0.573870733062,0.818927137033,0.00338716210899,0.0,0.818898698321,-0.57380250734,-0.0116769584833,0.0,-0.00761916276161,0.00947498978975,-0.999926083732,0.0,0.534984242257,0.0946411218748,0.304508930999,1.0,-0.17998,-0.236545142857,2.139
0.292796140506,0.00228731166395,-0.12764091427,-2.12679720015,0.01287877988,2.12285733239,-0.0157071099524,-0.352654307632,-0.646308143061,-0.00398603881462,-0.774387781336,-0.0876769868241,0.133070657501,-0.302201822049,0.573960114226,0.818864890531,0.00329017225349,0.0,0.818833950002,-0.573890684177,-0.0118824172933,0.0,-0.00784204611421,0.00951432150963,-0.99992398711,0.0,0.531696063265,0.0903477086389,0.304440645821,1.0,-0.17998,-0.236545142857,2.157
0.28714931704,-0.00785489024721,-0.127634490182,-2.13882552174,0.0113561791385,2.12506455226,-0.0207191343893,-0.353946907135,-0.629173821064,0.00390878340257,-0.754392264434,-0.107495756471,0.14061451296,-0.307450988959,0.573829445039,0.818955537935,0.00351308888038,0.0,0.818928335986,-0.573760317266,-0.0116715787835,0.0,-0.00754297831628,0.00957464794868,-0.999925712038,0.0,0.528695623754,0.0864050321733,0.304557159462,1.0,-0.17998,-0.236545142857,2.174
0.281378326194,-0.017798384181,-0.127685528155,-2.1509290013,0.0097914019836,2.12705715526,-0.0257571298673,-0.363020958266,-0.617482344214,-0.00773591635821,-0.767537272356,-0.0965859124213,0.103073236641,-0.324240919182,0.573790149475,0.818983779271,0.00334373410128,0.0,0.818953997049,-0.573721117795,-0.0117973138989,0.0,-0.00774358694403,0.00950772996604,-0.99992481714,0.0,0.525951722416,0.0828637106003,0.30448056289,1.0,-0.17998,-0.236545142857,2.189
0.275129557477,-0.0285048423905,-0.127793299468,-2.16344724661,0.00821693604265,2.12909201729,-0.031222675045,-0.374436839823,-0.632327736262,-0.0128293199587,-0.725923965123,-0.0964838565455,0.130363550715,-0.32504996943,0.573818218298,0.81896336873,0.00352135314174,0.0,0.818936060149,-0.573748793783,-0.011696064341,0.0,-0.00755842165908,0.00959536261001,-0.999925396856,0.0,0.522925507176,0.0788351959506,0.304590357043,1.0,-0.17998,-0.236545142857,2.206
0.268326682743,-0.039581749855,-0.127958505819,-2.17669167151,0.00650875890836,2.13113717509,-0.0370749394004,-0.374425109177,-0.618423976701,0.000601436951653,-0.73092653887,-0.0896674090323,0.106290941561,-0.338948620796,0.573953808201,0.818868767787,0.00342258623944,0.0,0.818839687348,-0.5738840818,-0.0118056758262,0.0,-0.00770327976731,0.00957864646369,-0.999924451653,0.0,0.519669249888,0.0744897932618,0.304527562715,1.0,-0.17998,-0.236545142857,2.224
0.26232527753,-0.0494570442634,-0.1279824236,-2.18821089499,0.00506701130988,2.13287518829,-0.0423499446048,-0.37383968189,-0.630521944231,-0.00217800796051,-0.697163204127,-0.102407060851,0.122819600644,-0.333560144579,0.573895168185,0.818909429328,0.00352553438824,0.0,0.818881371523,-0.573824700831,-0.0118008046581,0.0,-0.00764089860358,0.00965960518653,-0.999924151472,0.0,0.516794383984,0.0707813761775,0.304563650155,1.0,-0.17998,-0.236545142857,2.24
0.254233363853,-0.062240888343,-0.128043367705,-2.20321382457,0.00307055128482,2.13499856933,-0.0494379768359,-0.392022920536,-0.610904820587,-0.00248743883365,-0.724997835233,-0.0891938816541,0.0903455995913,-0.331467863885,0.573817148841,0.818964462622,0.00344028485097,0.0,0.818934949135,-0.573746555549,-0.0118821707581,0.0,-0.00775737335982,0.00963574836392,-0.999923484829,0.0,0.512989885103,0.0658405977773,0.304512605353,1.0,-0.17998,-0.236545142857,2.261
0.24914512857,-0.0701456433928,-0.128137292091,-2.21235844059,0.00185748981152,2.13617550183,-0.0538936597168,-0.388948160826,-0.614286667097,-0.00911616740542,-0.695374541684,-0.0878589404579,0.0930053156542,-0.339647710025,0.573822149235,0.818961105648,0.00340519954832,0.0,0.818930708393,-0.573751154151,-0.0119521907091,0.0,-0.00783479299114,0.00964723997836,-0.999922770408,0.0,0.510633684616,0.0627569283365,0.304503584433,1.0,-0.17998,-0.236545142857,2.274
0.241097990578,-0.082272303053,-0.128329043764,-2.22616343728,-2.62265789076e-07,2.13800619701,-0.0608641414577,-0.398122582593,-0.603740387567,-0.00302448965587,-0.694811697337,-0.0897140832633,0.0769702205446,-0.351981664885,0.573941489489,0.818876952363,0.00352851720277,0.0,0.818848311805,-0.573870220599,-0.0118810380675,0.0,-0.00770434563062,0.00970852795906,-0.999923190822,0.0,0.507074744687,0.0579474956381,0.304555038746,1.0,-0.17998,-0.236545142857,2.294
0.235513030033,-0.0906662998759,-0.128347175345,-2.23586328901,-0.0012570137225,2.13909108566,-0.0657825675475,-0.404021624817,-0.605345235859,-0.00106312922115,-0.67364326196,-0.0901582648466,0.0753491184359,-0.361072512745,0.573865601593,0.818930619967,0.00341436535069,0.0,0.818899253964,-0.573793228604,-0.0120867517335,0.0,-0.00793922422695,0.00973237967174,-0.999921121641,0.0,0.504484961676,0.0547056927585,0.304482980093,1.0,-0.17998,-0.236545142857,2.308
0.226905379543,-0.103260819344,-0.128422315388,-2.2498617402,-0.00327265085169,2.14077622951,-0.0733051216813,-0.412893809122,-0.593823755446,-0.00427139425198,-0.670124810699,-0.0967774777399,0.0760486040674,-0.359376757612,0.573788520557,0.818983953034,0.00357284915162,0.0,0.818955850399,-0.573717068338,-0.0118653906775,0.0,-0.00766790765144,0.00973441809569,-0.999923219201,0.0,0.500774240601,0.049770507184,0.304589652872,1.0,-0.17998,-0.236545142857,2.329
0.221879069533,-0.110378482451,-0.128532424034,-2.25798113906,-0.00434715722309,2.14156364559,-0.0776156480831,-0.431274193755,-0.586981805928,-0.012602364915,-0.671314015729,-0.0975083881825,0.0633383123436,-0.373357327287,0.573901230431,0.818905430737,0.00346700463291,0.0,0.818874757865,-0.573828657269,-0.0120644075391,0.0,-0.00789029415177,0.00976300887858,-0.999921210354,0.0,0.498554274488,0.0469015800322,0.304518641167,1.0,-0.17998,-0.236545142857,2.341
0.213367796746,-0.122264044661,-0.128681845687,-2.27096401271,-0.00621541734341,2.142971137,-0.0850215559804,-0.420667542042,-0.587488254721,-0.00126175881132,-0.649867584375,-0.0834432753945,0.068842162023,-0.371676993377,0.573944976279,0.818873840513,0.00368027568199,0.0,0.818846954867,-0.573872895813,-0.0118452883828,0.0,-0.00758793241823,0.00981231521265,-0.999923067917,0.0,0.495030776346,0.0421357596665,0.304633166969,1.0,-0.17998,-0.236545142857,2.361
0.207422445739,-0.130450810463,-0.128705427486,-2.28006387079,-0.00745083941242,2.14376998535,-0.0902911237655,-0.428534914293,-0.590435638676,-0.00287297781698,-0.639335226022,-0.0955036925818,0.0514267023728,-0.383168122867,0.573850772912,0.818940012418,0.00364601034767,0.0,0.818911863265,-0.573777777079,-0.0119653514841,0.0,-0.00770705376515,0.00985227701146,-0.99992176392,0.0,0.492482003067,0.0388937641599,0.304600603857,1.0,-0.17998,-0.236545142857,2.375
0.199135896193,-0.141604817713,-0.128814615517,-2.29216821664,-0.0092278585284,2.1448380308,-0.0975670319196,-0.433347573229,-0.598683206132,-0.00418420020848,-0.617447351498,-0.0852838603799,0.0695433911616,-0.383214421566,0.573805671836,0.81897126282,0.00372404951915,0.0,0.818944572768,-0.573732974961,-0.0118746400942,0.0,-0.00758852508659,0.00986371588658,-0.999922557699,0.0,0.489079794399,0.034399142487,0.30465244681,1.0,-0.17998,-0.236545142857,2.394
0.19291150301,-0.149711681602,-0.128977020662,-2.30094816857,-0.0104833322373,2.14562478626,-0.102955199632,-0.450157548715,-0.573552974821,-0.0134440034173,-0.632451910707,-0.0922387481963,0.0483170903862,-0.384415341226,0.573930096358,0.81888357134,0.00383249075614,0.0,0.818858419597,-0.573857175745,-0.0118142880435,0.0,-0.00747536798847,0.00991903377101,-0.999922862846,0.0,0.486595156114,0.0310419032315,0.304673393508,1.0,-0.17998,-0.236545142857,2.408
0.183509872552,-0.161813064851,-0.129068342891,-2.3140960646,-0.0124587607822,2.14637085099,-0.111225381655,-0.444880662998,-0.579066989348,-0.00280002824238,-0.613326318633,-0.088175998807,0.0388108398606,-0.397092650964,0.573834176766,0.818951737863,0.00362429683728,0.0,0.818922949326,-0.573760809339,-0.0120201345426,0.0,-0.00776458007861,0.00986577381183,-0.999921185796,0.0,0.482734163933,0.0260990290557,0.304610918147,1.0,-0.17998,-0.236545142857,2.429
0.177584601429,-0.169308589709,-0.129103875976,-2.32187558627,-0.013533912671,2.14698153984,-0.116419989468,-0.462017323709,-0.573057484691,-0.00123584554501,-0.607409000042,-0.0784829236819,0.0484935546345,-0.400169911103,0.573845760331,0.81894231005,0.00390935572676,0.0,0.818917870958,-0.573772209373,-0.011820290951,0.0,-0.00743719989348,0.0099846573523,-0.999922494334,0.0,0.480476113366,0.0230643834477,0.304726824711,1.0,-0.17998,-0.236545142857,2.442
0.16833376303,-0.180634298119,-0.129282120845,-2.33401753333,-0.0153588449421,2.14757511759,-0.124550708201,-0.471981663848,-0.567463596029,-0.0144369350168,-0.600043280112,-0.0915171364173,0.0250074957405,-0.42126904681,0.573866847979,0.818928104689,0.00378774893453,0.0,0.818901172965,-0.573792518406,-0.0119900642174,0.0,-0.00764576576913,0.00998268460252,-0.999920941012,0.0,0.476827810192,0.0183073520537,0.304662667636,1.0,-0.17998,-0.236545142857,2.462
0.161695838303,-0.188560461105,-0.129403161498,-2.34231134627,-0.0165862656707,2.14795947851,-0.130345322261,-0.476491045646,-0.558628373158,-0.000292574570689,-0.579623242347,-0.0803408764527,0.0336593817877,-0.422282268501,0.573943337415,0.818874239342,0.00384349828381,0.0,0.818847816322,-0.573868506132,-0.0119974278844,0.0,-0.0076188687013,0.0100332771488,-0.999920639946,0.0,0.474312456328,0.0149551960359,0.304682793977,1.0,-0.17998,-0.236545142857,2.476
0.152245831639,-0.199780948482,-0.129453989043,-2.35391700147,-0.0183979101827,2.14852015243,-0.138749695191,-0.479276989133,-0.551613905335,-0.000871600498892,-0.589162137509,-0.086277403993,0.017670015159,-0.416394914033,0.573789630932,0.818981436034,0.00395142603058,0.0,0.818957338026,-0.573715668389,-0.0118303524722,0.0,-0.00742198692652,0.0100243759226,-0.999922209973,0.0,0.470760607937,0.0102956026222,0.304740758641,1.0,-0.17998,-0.236545142857,2.496
0.145494428531,-0.207557982306,-0.129565992874,-2.36211703206,-0.019599736958,2.14867696861,-0.144716886661,-0.479667850572,-0.553875273319,-0.00865879272979,-0.58420765211,-0.089117831168,0.0103009247847,-0.428875456855,0.573805475597,0.818970848522,0.00384348121677,0.0,0.818943920172,-0.573730001515,-0.0120618355104,0.0,-0.00767331891357,0.0100689366946,-0.999919865135,0.0,0.468168242687,0.00698767274351,0.304665834027,1.0,-0.17998,-0.236545142857,2.51
0.136116003584,-0.218107456019,-0.129761806261,-2.372709367,-0.0211941388234,2.14901983534,-0.152879358122,-0.491294999256,-0.548365334641,-0.00513246889348,-0.550951251283,-0.0864460670071,0.0215203252536,-0.421513188825,0.574001921423,0.818831825907,0.00412092056294,0.0,0.818809200629,-0.573926345959,-0.0118654658856,0.0,-0.00735085774244,0.0101852439864,-0.999921109736,0.0,0.464829720161,0.00244171765335,0.304783818199,1.0,-0.17998,-0.236545142857,2.529
0.129766267903,-0.225200334237,-0.129781959225,-2.38000280089,-0.022390914173,2.14914427815,-0.15859224039,-0.492838079493,-0.533448883707,-0.00128016859277,-0.565555619935,-0.0833190974267,0.0060105660373,-0.439969601281,0.573829721355,0.818952884409,0.00404609812662,0.0,0.818929391971,-0.573754577151,-0.0118778392798,0.0,-0.00740606600874,0.0101295209076,-0.999921268397,0.0,0.462476815126,-0.000560230382851,0.304757570669,1.0,-0.17998,-0.236545142857,2.542
0.120699257495,-0.234934646361,-0.129896463094,-2.39001315795,-0.0239393053677,2.1491624567,-0.16663349896,-0.50673961957,-0.538504702599,-0.00686891850257,-0.551056409992,-0.0836291286039,-0.00112085259098,-0.452838153143,0.57381961153,0.818960506738,0.00393557215591,0.0,0.818934383675,-0.573743264067,-0.0120784549572,0.0,-0.00763391655425,0.0101540251858,-0.99991930629,0.0,0.459181030305,-0.00481520053213,0.304680706197,1.0,-0.17998,-0.236545142857,2.56
0.11298645836,-0.243106510215,-0.13008508287,-2.39796269793,-0.025253354583,2.14923678463,-0.173435205325,-0.512374981382,-0.546993170777,-0.0153144140257,-0.523315071908,-0.0845540574678,0.0113145148627,-0.457314919573,0.573920839255,0.818888546161,0.00414320376307,0.0,0.818866384907,-0.573845442362,-0.0118321110282,0.0,-0.00731176237575,0.0101836214451,-0.999921412905,0.0,0.456555665786,-0.00843366297007,0.304801560064,1.0,-0.17998,-0.236545142857,2.575
0.104797815782,-0.251641830567,-0.130144489642,-2.40652122936,-0.0265248200163,2.14922629403,-0.180761124239,-0.509723789928,-0.528226824948,-0.00178205249295,-0.540414959422,-0.0747021123448,-0.00235574247415,-0.46348191893,0.573863327773,0.818928529863,0.00420605689825,0.0,0.818906609484,-0.573786918499,-0.0118862948271,0.0,-0.00732078646945,0.0102656741443,-0.99992050785,0.0,0.453491747678,-0.0123863331664,0.304780735874,1.0,-0.17998,-0.236545142857,2.592
0.0948183523173,-0.261668301043,-0.130274622462,-2.41658623698,-0.0281870468292,2.14906832616,-0.189631145956,-0.526415531554,-0.53104125871,-0.00461508752376,-0.51488676014,-0.0917636393481,-0.0113982461394,-0.46325999875,0.573863883932,0.818928659961,0.00410359764843,0.0,0.818904876562,-0.573787105906,-0.0119961302536,0.0,-0.00746952726632,0.0102447992693,-0.999919621895,0.0,0.45020949194,-0.0166544433095,0.30471470969,1.0,-0.17998,-0.236545142857,2.61
0.0862679639073,-0.270134912218,-0.130465781051,-2.42461647085,-0.0295032293701,2.14898196743,-0.197243521952,-0.538090529817,-0.530868928032,-0.0109028295408,-0.493378528741,-0.0772387605485,-0.00518418857023,-0.472497725235,0.573960786623,0.818859353204,0.00437286972921,0.0,0.818840392339,-0.573884936734,-0.0117148694262,0.0,-0.00708344271152,0.0103047564342,-0.999921815361,0.0,0.447421462402,-0.0204955113415,0.304845773046,1.0,-0.17998,-0.236545142857,2.626
0.0772505531153,-0.278926599192,-0.130541520876,-2.43328236587,-0.0308997309759,2.14872114803,-0.20541102422,-0.533027230536,-0.512662443844,-0.00410955654258,-0.51446350155,-0.0853537687744,-0.0276206799049,-0.485355618307,0.573832985385,0.818949109813,0.0043367408798,0.0,0.818929145272,-0.573756500522,-0.0118016962303,0.0,-0.00717689352867,0.0103238848492,-0.999920951676,0.0,0.444340273726,-0.0244321335021,0.304796759624,1.0,-0.17998,-0.236545142857,2.643
0.0673779803441,-0.288169548459,-0.130669187308,-2.4422886467,-0.0323852790549,2.14832448571,-0.214217108851,-0.556874676027,-0.515090413435,-0.0111206681595,-0.493982799777,-0.0716083174864,-0.0268742443258,-0.490762254461,0.573863724881,0.818927817765,0.00428969200552,0.0,0.818906613532,-0.573786498899,-0.011906254448,0.0,-0.00728913595409,0.0103456238655,-0.999919915075,0.0,0.441063316502,-0.0287064816963,0.304754308014,1.0,-0.17998,-0.236545142857,2.661
0.0584768385333,-0.296354044054,-0.130859277184,-2.44990582874,-0.033587466807,2.14804952229,-0.222178839404,-0.552173109834,-0.512990642742,-0.00791843063765,-0.46950424438,-0.0735646739236,-0.0171230413225,-0.500377490534,0.574000910458,0.81883012518,0.00457469043868,0.0,0.818813418691,-0.573923873615,-0.0116927142807,0.0,-0.00694895642997,0.0104576479025,-0.999921171695,0.0,0.438263958575,-0.0325379053696,0.304860872136,1.0,-0.17998,-0.236545142857,2.677
0.0485174378233,-0.305402032291,-0.13096144861,-2.45849610859,-0.0351087620092,2.14754547618,-0.231260472112,-0.561401553168,-0.497338258746,-0.00703462170557,-0.479022788294,-0.0858910609104,-0.039238892898,-0.495605556006,0.573836545394,0.818945532431,0.00453662678726,0.0,0.818928638365,-0.573760114105,-0.0116603442538,0.0,-0.00694638506959,0.0104065056199,-0.999921723124,0.0,0.43502848811,-0.0367361881205,0.304861448679,1.0,-0.17998,-0.236545142857,2.695
0.0393622029344,-0.313328242918,-0.131111929041,-2.46608291206,-0.0363411514818,2.14696280014,-0.23938312727,-0.571842338666,-0.494083546312,-0.00949916775326,-0.470522911353,-0.0801542937519,-0.0343406671525,-0.51139984207,0.573992460363,0.818836538271,0.004486194422,0.0,0.818817727692,-0.573914297685,-0.011859790556,0.0,-0.00713667612567,0.0104810076751,-0.999919604934,0.0,0.432092545537,-0.0405533134869,0.304799497127,1.0,-0.17998,-0.236545142857,2.711
0.0301798761555,-0.321228711467,-0.131252443103,-2.47332574171,-0.0376076172884,2.14647431876,-0.247734816492,-0.566755800917,-0.492765380217,-0.00211551531048,-0.447014573328,-0.0786691947539,-0.0284324046572,-0.520348769828,0.573963998152,0.818855757154,0.00461786772807,0.0,0.81883956721,-0.573886765179,-0.0116829287783,0.0,-0.00691663348469,0.0104870752323,-0.999921087604,0.0,0.429263580873,-0.0443479166541,0.30487008589,1.0,-0.17998,-0.236545142857,2.727
0.0204227078416,-0.329478694883,-0.131347313801,-2.48085982939,-0.038858104015,2.14593347375,-0.256716891116,-0.588432644494,-0.47761734143,-0.00811252522039,-0.455918393689,-0.0746055510453,-0.0389162081179,-0.531328010931,0.573845466907,0.818937828308,0.00479169886138,0.0,0.818924590946,-0.573768811274,-0.0115157480874,0.0,-0.00668148300962,0.0105325026513,-0.999922209061,0.0,0.426274696927,-0.048298676493,0.30493408954,1.0,-0.17998,-0.236545142857,2.744
0.0103010331006,-0.337558416944,-0.131508588998,-2.48847269133,-0.0401441548262,2.14511047666,-0.265784616163,-0.600346820699,-0.478563947582,-0.0107120952262,-0.435913690154,-0.0793247349089,-0.0412487880891,-0.532241608526,0.573981886275,0.818842878078,0.0046778360796,0.0,0.818826549629,-0.57390306364,-0.0117941539772,0.0,-0.00697306878312,0.0106001712098,-0.999919503101,0.0,0.423137454893,-0.052366928995,0.304843192011,1.0,-0.17998,-0.236545142857,2.761
0.000869019848102,-0.345135215523,-0.131597517314,-2.49538891686,-0.0413428751274,2.14441106608,-0.274469813934,-0.586105373448,-0.465300097347,-0.00658172758154,-0.420509963197,-0.0801748486547,-0.0470213063683,-0.550012632978,0.573868680542,0.818922060085,0.00470573061892,0.0,0.818906066101,-0.573789741217,-0.0117870555268,0.0,-0.00695271370157,0.0106179777809,-0.999919455916,0.0,0.420262073548,-0.056091518067,0.304847142636,1.0,-0.17998,-0.236545142857,2.777
-0.00996499920785,-0.353576768904,-0.131739979082,-2.50281620818,-0.0426891741796,2.14363259021,-0.284371732601,-0.610171132187,-0.460414804689,-0.00266716819852,-0.414718333963,-0.0810030242858,-0.0467040755162,-0.549244962854,0.573856006716,0.81892997598,0.00487082111443,0.0,0.818917461547,-0.573778642089,-0.0115329075628,0.0,-0.00664999862153,0.0106072329646,-0.999921628993,0.0,0.417097252422,-0.0603526709322,0.304955046943,1.0,-0.17998,-0.236545142857,2.795
-0.0204792813598,-0.361332324973,-0.131920422261,-2.50986412246,-0.0439718838019,2.14272614264,-0.293863516227,-0.612130609217,-0.451161267687,-0.00225536853254,-0.419709203374,-0.0768747037671,-0.0652980957777,-0.574076966406,0.57398444183,0.818840313529,0.00481127611774,0.0,0.818826368165,-0.573906192988,-0.0116536409942,0.0,-0.00678138044792,0.0106288130087,-0.999920517448,0.0,0.413996787978,-0.0644462362084,0.30491533808,1.0,-0.17998,-0.236545142857,2.812
-0.0301382203828,-0.368583922323,-0.131981934536,-2.51639629172,-0.0450945829365,2.14188720744,-0.302941239285,-0.611812346268,-0.459698557507,-0.0105262692678,-0.406666418654,-0.0748043467115,-0.0525996059256,-0.574377058129,0.573746913978,0.81900674749,0.00481385162791,0.0,0.818992383581,-0.573667989891,-0.0117157975043,0.0,-0.00683389619492,0.0106646158087,-0.999919778698,0.0,0.411105634713,-0.0681023509103,0.304890016097,1.0,-0.17998,-0.236545142857,2.828
-0.0408371941711,-0.376091673413,-0.132180440575,-2.52308707911,-0.0462578694561,2.14091694244,-0.31264514469,-0.633293581979,-0.440543808762,-0.0231811909798,-0.380457440518,-0.0691753292772,-0.062525395524,-0.567591938821,0.573922884924,0.818883256713,0.00484571321141,0.0,0.818868469851,-0.573842520635,-0.0118295180071,0.0,-0.00690645091804,0.0107574399787,-0.999918285872,0.0,0.408025394404,-0.072171120341,0.30486736378,1.0,-0.17998,-0.236545142857,2.845
-0.0521889846014,-0.383956978268,-0.132280525797,-2.52977632038,-0.0475425369915,2.14000032254,-0.323112427488,-0.613288933404,-0.428101189267,-0.000272151347212,-0.3765892316,-0.0723607615587,-0.0557172279272,-0.5878300829,0.573872609472,0.818917677561,0.00498120231584,0.0,0.818906420336,-0.573794643652,-0.0115207877183,0.0,-0.00657651613252,0.0106908088997,-0.999921224918,0.0,0.404884513356,-0.0764256056568,0.304980031741,1.0,-0.17998,-0.236545142857,2.863
-0.0616875090725,-0.39035990891,-0.132411803206,-2.5354569929,-0.0485803404459,2.13908883786,-0.331990353576,-0.633894697995,-0.426803740994,-0.0078012717754,-0.373189320353,-0.0725754444997,-0.0603692638498,-0.597355959395,0.573779072409,0.818983455338,0.00494194788811,0.0,0.818970977324,-0.573700091553,-0.0116400237718,0.0,-0.00669791988871,0.0107263204493,-0.999920038762,0.0,0.402158461597,-0.0799364826945,0.30493570174,1.0,-0.17998,-0.236545142857,2.878
-0.0734429162282,-0.397979164385,-0.132604050322,-2.54208329569,-0.0498176784776,2.13793249809,-0.34272821086,-0.651978873585,-0.423863498459,-0.00675935287282,-0.354897449469,-0.065477830559,-0.0556577953519,-0.600895229866,0.573922512473,0.818882998096,0.00493274840538,0.0,0.818869824122,-0.573842616461,-0.0117307108624,0.0,-0.00677558888061,0.0107720052649,-0.99991902437,0.0,0.398867776058,-0.0842570737035,0.304919529668,1.0,-0.17998,-0.236545142857,2.896
-0.0843519648333,-0.404987519096,-0.132690154858,-2.54812721852,-0.050936335313,2.13687833015,-0.353027475888,-0.650799378955,-0.417822586114,-0.00798777640439,-0.347836311939,-0.0694720610161,-0.0635603988798,-0.606991493571,0.57372524128,0.819021186988,0.00493859138066,0.0,0.819007956091,-0.573645148887,-0.0117455489136,0.0,-0.00678698509568,0.0107836711361,-0.99991882134,0.0,0.395821714564,-0.0881795723855,0.304914397319,1.0,-0.17998,-0.236545142857,2.913
-0.0950228932004,-0.411414336285,-0.132885926782,-2.55349720387,-0.0519374346052,2.13594112744,-0.362827059409,-0.677511199894,-0.392376771829,-0.0126433265194,-0.329671074782,-0.0587184646985,-0.0466968212421,-0.611508325596,0.573902013763,0.818896433819,0.00508489712446,0.0,0.818885756469,-0.573822485018,-0.0116026049064,0.0,-0.00658363023216,0.0108229165237,-0.999919756926,0.0,0.392991149193,-0.0920439416367,0.304974220621,1.0,-0.17998,-0.236545142857,2.929
-0.106286096142,-0.418152045321,-0.132979792005,-2.55915237103,-0.0529658758293,2.13484908093,-0.373395168374,-0.651118056959,-0.392697774625,-0.00219331312051,-0.330832338033,-0.0584568938695,-0.0718594887118,-0.618799978072,0.573829452724,0.818946800607,0.00516176940134,0.0,0.818937244849,-0.57374991096,-0.0115574899207,0.0,-0.00650352987231,0.0108594024053,-0.99991988553,0.0,0.389957816608,-0.0960207346381,0.305004540711,1.0,-0.17998,-0.236545142857,2.946
-0.116359103801,-0.42395794608,-0.133127283109,-2.56414181485,-0.0539592901659,2.133760812,-0.382841528874,-0.678552418664,-0.384725122111,-0.0106134673312,-0.324931070238,-0.0639670061789,-0.0730586472528,-0.639776531497,0.573784176107,0.818979088279,0.00507140129412,0.0,0.81896736604,-0.573703289443,-0.0117360958037,0.0,-0.00670226647616,0.0108875078397,-0.999918267558,0.0,0.38719951219,-0.0995611942926,0.304952293395,1.0,-0.17998,-0.236545142857,2.961
-0.127967857688,-0.430382355337,-0.133292404803,-2.56956751094,-0.0550218071288,2.13265835992,-0.393574987063,-0.675333972325,-0.370729345829,-0.000799850770452,-0.317625903635,-0.063338178751,-0.0679963554981,-0.627700640117,0.573901573661,0.818896772295,0.00508005671813,0.0,0.818884970418,-0.573820325759,-0.0117637523663,0.0,-0.00671838839177,0.0109114281693,-0.999917898626,0.0,0.384118549338,-0.103613173395,0.304934090807,1.0,-0.17998,-0.236545142857,2.978
-0.140881741975,-0.437271177047,-0.133391844572,-2.57533619696,-0.056101551024,2.13141013742,-0.405815918857,-0.687556259055,-0.359958862114,-0.00931909494753,-0.300249607614,-0.067856035031,-0.0720924835819,-0.64085222759,0.573776814639,0.818984020666,0.00510761954321,0.0,0.818972204389,-0.57369489007,-0.0118088291858,0.0,-0.00674115696178,0.010958841823,-0.999917226869,0.0,0.380733062388,-0.108038517611,0.3049186776,1.0,-0.17998,-0.236545142857,2.997
-0.152085783483,-0.44302981765,-0.133569705069,-2.57990474738,-0.057069760327,2.13035065042,-0.416238365465,-0.693230649469,-0.352741539176,-0.00324368287272,-0.283705486356,-0.0562198550469,-0.0644823191228,-0.655882522243,0.573901014601,0.818896436951,0.00519594932385,0.0,0.818886860585,-0.573820581062,-0.0116188300672,0.0,-0.00653320166778,0.0109231632984,-0.999918997609,0.0,0.377889789892,-0.111906835867,0.305005799288,1.0,-0.17998,-0.236545142857,3.013
-0.163829412437,-0.449016074162,-0.133667688187,-2.58478545815,-0.0579859623314,2.12920700143,-0.427416676288,-0.692446005357,-0.34880396936,-0.00829440299926,-0.289246613877,-0.0508572162831,-0.0710885453068,-0.647510760505,0.573795041187,0.818970239739,0.00526726049364,0.0,0.818961603035,-0.573714430524,-0.0115927505003,0.0,-0.00647233891453,0.0109657579731,-0.999918927204,0.0,0.374844212328,-0.115851939502,0.305024291753,1.0,-0.17998,-0.236545142857,3.03
-0.175919033569,-0.454744911333,-0.133875004757,-2.5896001254,-0.0589426547256,2.12796143573,-0.438761887792,-0.714514658475,-0.339028300812,-0.00980516048878,-0.272372994452,-0.057272802805,-0.0787586407818,-0.679233141919,0.573899801617,0.818897085486,0.00522761768392,0.0,0.818886398247,-0.573816732228,-0.0118394037818,0.0,-0.00669568766681,0.0110756697392,-0.999916245146,0.0,0.371699706691,-0.11991081728,0.30495065242,1.0,-0.17998,-0.236545142857,3.047
-0.187178475018,-0.459962175836,-0.133933075318,-2.59378315689,-0.05973897345,2.12693216506,-0.449540680173,-0.705851255505,-0.320479930476,-0.0066343247638,-0.262495869527,-0.0544805346319,-0.0584411511655,-0.668405127897,0.573777127675,0.818982555926,0.0053035599334,0.0,0.818973165159,-0.573694333998,-0.0117691456602,0.0,-0.00659622970788,0.0110965535004,-0.999916674655,0.0,0.368873067209,-0.123628324035,0.304978342774,1.0,-0.17998,-0.236545142857,3.063
-0.200179148702,-0.465571147322,-0.134125954919,-2.59838243054,-0.0606944672704,2.12576467005,-0.461809815218,-0.731431820279,-0.309057370616,-0.0165876735023,-0.251975107165,-0.0590403323787,-0.0733675590817,-0.681772892743,0.573866577073,0.818919800576,0.00531590479663,0.0,0.818910085482,-0.573782909879,-0.0118402334325,0.0,-0.00664615423751,0.01114817692,-0.999915769845,0.0,0.365617556098,-0.127934487727,0.304943978778,1.0,-0.17998,-0.236545142857,3.081
-0.211679550564,-0.470460053024,-0.134191715,-2.60228315631,-0.0615166876825,2.12471015077,-0.472751306943,-0.709383545821,-0.309478317257,-0.00752787912809,-0.23645779566,-0.0391728948682,-0.0588244399786,-0.685247772342,0.573812754338,0.818957518495,0.00531533270986,0.0,0.818947941728,-0.573729343681,-0.0118176071842,0.0,-0.00662868352976,0.01113428888,-0.999916040558,0.0,0.362758516575,-0.131675985225,0.304954387984,1.0,-0.17998,-0.236545142857,3.097
-0.224078813114,-0.47558706836,-0.134370335739,-2.60617192901,-0.062343603099,2.12362146665,-0.484587872749,-0.734599451265,-0.299887896335,-0.0151092089974,-0.23247874591,-0.0455700747123,-0.0634532261906,-0.698115011312,0.573839916009,0.818937595194,0.00545095157075,0.0,0.818930883068,-0.573757937062,-0.0116097078624,0.0,-0.00638022234853,0.0111262805834,-0.999917745939,0.0,0.359731584349,-0.135728231988,0.30504792713,1.0,-0.17998,-0.236545142857,3.114
-0.236530489175,-0.480397064565,-0.134455846852,-2.60998753961,-0.0631595734654,2.12253338076,-0.496494651434,-0.727048211497,-0.281856076966,-0.00262685954524,-0.215661856824,-0.0445690529114,-0.0599264265267,-0.703977077843,0.573792887393,0.818970527916,0.00545377687507,0.0,0.818963840946,-0.573710888059,-0.0116099546117,0.0,-0.0063794423072,0.011128369692,-0.999917727668,0.0,0.356680758199,-0.13972291706,0.30504863753,1.0,-0.17998,-0.236545142857,3.131
-0.248314043635,-0.484698273038,-0.134554904626,-2.61346459063,-0.0639110804607,2.12152656504,-0.507803657516,-0.748276707235,-0.268944890969,-0.0159211648456,-0.218232122288,-0.0394918289856,-0.0699175990704,-0.709892879712,0.573768312228,0.818987831741,0.00544079453301,0.0,0.8189803544,-0.573685280161,-0.0117100527421,0.0,-0.00646921152118,0.0111749761857,-0.99991663113,0.0,0.35360670956,-0.143718763644,0.305009986842,1.0,-0.17998,-0.236545142857,3.148
-0.261028785103,-0.48904646712,-0.134685546368,-2.61696275594,-0.0646592787559,2.12043871926,-0.519962977243,-0.73880187548,-0.255120908982,-0.00435188240592,-0.206041356926,-0.0354511898533,-0.05869443069,-0.72072006324,0.57378112009,0.818978955752,0.00542615558169,0.0,0.818970402085,-0.573696615501,-0.0118499271056,0.0,-0.00659200075069,0.0112433417353,-0.999915062789,0.0,0.350705852121,-0.147506224298,0.304966618147,1.0,-0.17998,-0.236545142857,3.164
-0.273724256948,-0.493200217981,-0.134825772756,-2.62024940898,-0.065320432355,2.11946258861,-0.532217681359,-0.755631377589,-0.250779642164,-0.0122251438149,-0.193352626209,-0.0418610282082,-0.0580097862009,-0.721392898005,0.573779668453,0.818979402793,0.00551151270534,0.0,0.818971555764,-0.573694161396,-0.0118889415474,0.0,-0.00657500217795,0.0113356233201,-0.999914132809,0.0,0.347662496913,-0.151507137585,0.304949613117,1.0,-0.17998,-0.236545142857,3.181
-0.286583439689,-0.497244231023,-0.134942584043,-2.62334133846,-0.0660271547079,2.11846402332,-0.544586090388,-0.742327837311,-0.238072028493,0.000129183882749,-0.175936005509,-0.0375679255653,-0.0525433130416,-0.728225165674,0.573791140785,0.818971100159,0.00555074424291,0.0,0.818963959597,-0.573705827695,-0.0118491793286,0.0,-0.00651976663621,0.0113450320352,-0.999914387781,0.0,0.344603137546,-0.155538768636,0.30497325124,1.0,-0.178590285714,-0.234718661225,3.198
-0.298546587853,-0.500783077947,-0.134968080864,-2.62605392716,-0.0665762288658,2.11754929502,-0.556138176177,-0.757111813143,-0.21427421923,-0.00447631670916,-0.161755472578,-0.0416984606607,-0.0518966062865,-0.719250732533,0.573759760643,0.818992718641,0.00560453227688,0.0,0.818986118818,-0.573673979669,-0.0118595588373,0.0,-0.00649784310221,0.0113947911621,-0.999913964684,0.0,0.341779841211,-0.159230528705,0.304985191189,1.0,-0.176249714286,-0.231642481633,3.214
-0.312181513789,-0.504461748932,-0.135033437459,-2.62884939165,-0.0672203581481,2.11664526613,-0.569144544374,-0.750386323375,-0.194214891625,0.0032640122305,-0.145085526381,-0.0304313033973,-0.0418302823007,-0.725312951657,0.573888775059,0.818902050273,0.00564383035289,0.0,0.818896381048,-0.573803567746,-0.0117868422568,0.0,-0.00641394278639,0.0113862679367,-0.999914603474,0.0,0.338616153141,-0.163454574279,0.305007595548,1.0,-0.173616571429,-0.228181779592,3.232
-0.324754115394,-0.507678349151,-0.135016854792,-2.63129775229,-0.0676968645408,2.1158732511,-0.581366007021,-0.740112351779,-0.1868710005,-0.00140025310518,-0.139527209171,-0.0327141116463,-0.0446455777305,-0.716289618099,0.573822901817,0.818947630482,0.00572737111021,0.0,0.818943395666,-0.573738040167,-0.0117099471441,0.0,-0.00630394416107,0.0114100482744,-0.999915031933,0.0,0.335717091154,-0.167289578145,0.305025518745,1.0,-0.171129714286,-0.224913338776,3.249
-0.336668690509,-0.510537735161,-0.135016418327,-2.63347272255,-0.0681673792685,2.11512459599,-0.592760030127,-0.740391350385,-0.170295988217,0.00933249306184,-0.133199191698,-0.0262738474947,-0.0431425529746,-0.713898521236,0.573924705126,0.818876046587,0.00576195051682,0.0,0.81887233146,-0.573839833162,-0.0116917725962,0.0,-0.00626779647245,0.0114287190314,-0.999915045946,0.0,0.332962271757,-0.170909893629,0.305033749613,1.0,-0.168789142857,-0.221837159184,3.265
-0.348985006081,-0.513270838642,-0.134940622417,-2.6355765216,-0.0685665885475,2.11434448347,-0.6047977691,-0.730324409463,-0.155413730115,0.00339948677329,-0.117037091116,-0.0219933668139,-0.045162551683,-0.694887599148,0.573809063332,0.818956820717,0.00579927071995,0.0,0.818953126964,-0.573723238085,-0.0117545233241,0.0,-0.0062993919574,0.0114944042116,-0.999914094477,0.0,0.330125955229,-0.174600666817,0.305024419205,1.0,-0.166302285714,-0.218568718367,3.282
-0.361488753765,-0.515714857158,-0.134940912821,-2.63752902088,-0.0689867768092,2.11363760157,-0.616736516041,-0.727129186852,-0.136974853925,0.00418983015724,-0.111505780792,-0.0307033654842,-0.0410364801137,-0.696915273295,0.573982032115,0.818835481047,0.00581624360527,0.0,0.81883118742,-0.573894618145,-0.0118827890129,0.0,-0.00639226142553,0.011583252056,-0.999912479803,0.0,0.327254046713,-0.17836427004,0.304979233567,1.0,-0.163815428571,-0.215300277551,3.299
-0.372844543641,-0.517809244654,-0.134817328988,-2.6391725536,-0.0692888705376,2.11307053632,-0.627853409421,-0.712381378641,-0.128918362075,0.00812017212595,-0.0987682789886,-0.0294630799829,-0.031041069828,-0.700735273267,0.57386754737,0.818915530583,0.00584283720144,0.0,0.8189113317,-0.573779598308,-0.0119142889068,0.0,-0.00640441874416,0.0116222131108,-0.999911949915,0.0,0.324681388092,-0.181731128173,0.304959057967,1.0,-0.161474857143,-0.212224097959,3.315
-0.385006326721,-0.519888064245,-0.134796822726,-2.64074630276,-0.0696560252897,2.11245453038,-0.639566353137,-0.719496624873,-0.1230844998,-0.00155983457993,-0.0926557080084,-0.022750292275,-0.0348793512284,-0.684926320708,0.573973797844,0.818840874661,0.00586926522764,0.0,0.818836826787,-0.573885373499,-0.0119405227155,0.0,-0.00640922599437,0.011659742172,-0.9999114822,0.0,0.321915785247,-0.185366303384,0.304956695216,1.0,-0.158988,-0.208955657143,3.332
-0.39747924355,-0.521815464801,-0.134645566672,-2.64217731263,-0.0699067102343,2.11188622062,-0.651839482479,-0.689618106125,-0.092121863335,0.00588688593901,-0.0775312497578,-0.0188654868617,-0.0358404275116,-0.678753720987,0.573841055693,0.818933498145,0.00592581793247,0.0,0.818930207638,-0.573752474228,-0.0119230967835,0.0,-0.00636439319138,0.0116950189206,-0.999911356587,0.0,0.319124737634,-0.189043013869,0.304969808014,1.0,-0.156354857143,-0.205494955102,3.35
-0.408654937315,-0.523413454274,-0.134577864682,-2.64333213031,-0.0701858070473,2.11142431486,-0.662612903197,-0.698747051128,-0.0947298308688,0.000306101646006,-0.0670984857961,-0.0105327411338,-0.0263804827244,-0.662161414095,0.573936855214,0.818866175624,0.00595143242108,0.0,0.818863577126,-0.573848816907,-0.0118627270458,0.0,-0.00629888474774,0.0116820924127,-0.999911922505,0.0,0.316615644938,-0.192355781073,0.304993480923,1.0,-0.154014285714,-0.20241877551,3.366
-0.4202378041,-0.52485755487,-0.134462325055,-2.64436588055,-0.0704127489342,2.11099447746,-0.673963259068,-0.676372366541,-0.0810843115126,0.00802603294071,-0.0597235919648,-0.00514967034285,-0.0186106633689,-0.660073666976,0.573888969329,0.818899479208,0.00598671332381,0.0,0.818897686773,-0.573801454464,-0.0117989980366,0.0,-0.00622712842617,0.0116740452761,-0.999912465938,0.0,0.314039777624,-0.195771458361,0.305019046111,1.0,-0.151527428571,-0.199150334694,3.383
-0.430366238908,-0.525933929124,-0.134379815518,-2.64519331016,-0.0705978483311,2.11064841961,-0.683858191039,-0.683688528477,-0.0752965393913,0.00278068378205,-0.0512134474602,-0.00523533662,-0.0189073169444,-0.648610951532,0.573895519448,0.81889471011,0.0060111073507,0.0,0.818893045483,-0.573807555897,-0.0118243712515,0.0,-0.00623381627136,0.0117086331141,-0.999912019852,0.0,0.311777087518,-0.19875039682,0.30500951771,1.0,-0.149333142857,-0.196266416327,3.398
-0.441125574688,-0.526956263087,-0.134322579971,-2.64598168866,-0.0707906317838,2.11030600345,-0.694293414968,-0.655968808913,-0.0590003175914,0.00894478268786,-0.0424820628937,-0.0104677475481,-0.0190881360466,-0.643094992274,0.573981535789,0.818834145756,0.00604857159715,0.0,0.818832781373,-0.573893058978,-0.0118482026965,0.0,-0.00623059963578,0.0117536445784,-0.999911511819,0.0,0.309223406984,-0.202102698158,0.305000516049,1.0,-0.146846285714,-0.19299797551,3.415
-0.452150339833,-0.527864587598,-0.134165384213,-2.64669389237,-0.0709372117556,2.11001681763,-0.705205972875,-0.653881916161,-0.053717245866,0.00400426007874,-0.0364689389304,-0.0148775339391,-0.0115585104432,-0.641142265012,0.573888146748,0.818899500267,0.00606220958742,0.0,0.818898137467,-0.573799304383,-0.0118720530162,0.0,-0.00624364684735,0.0117777894026,-0.999911146328,0.0,0.306765193076,-0.205314617931,0.304985123951,1.0,-0.144359428571,-0.189729534694,3.432
-0.463956566863,-0.52864199188,-0.134098566356,-2.64730161252,-0.0710768655285,2.10970403473,-0.716622360451,-0.648925754405,-0.0371587408395,0.00248566389034,-0.0284194362628,-0.00668908568593,-0.0139224618253,-0.637269530726,0.574048611343,0.818786625804,0.00611556375426,0.0,0.81878550798,-0.573958673148,-0.0119365129709,0.0,-0.00626349691307,0.0118597020063,-0.999910053992,0.0,0.304270847131,-0.208574558997,0.304967500731,1.0,-0.141872571429,-0.186461093878,3.449
-0.475248074233,-0.529189224903,-0.133919114495,-2.64772915335,-0.0711656881453,2.10949717021,-0.727855650876,-0.621793021595,-0.0259245643058,0.00160827391351,-0.0156470307756,-0.00642631751396,-0.011385401482,-0.63305437794,0.573910013538,0.818883616116,0.00613730547617,0.0,0.818882684879,-0.573819832697,-0.0119454974397,0.0,-0.00626038507,0.0118816025413,-0.999909813483,0.0,0.301641851529,-0.212041686006,0.304959053694,1.0,-0.139093142857,-0.182808130612,3.468
-0.485350829474,-0.529560618417,-0.133813354741,-2.64801242572,-0.0712591076768,2.10931666696,-0.737704432524,-0.627854389056,-0.0206505106448,0.00286207019782,-0.0131567345026,-0.0022926537357,-0.0166440025542,-0.60988763967,0.573984749752,0.818831079549,0.00615768772285,0.0,0.818830286143,-0.573894226754,-0.011963523534,0.0,-0.0062623640262,0.0119092105511,-0.999909472653,0.0,0.299542526009,-0.214799097906,0.30495381207,1.0,-0.136898857143,-0.179924212245,3.483
-0.495798959229,-0.529815778493,-0.133665948163,-2.64818517698,-0.0713120724863,2.1091856611,-0.748011537562,-0.599645946771,-0.0128235915875,0.0172875397595,-0.00787919809704,-0.000641211415747,-0.0122562861924,-0.612458057851,0.573963682852,0.818845632385,0.00618611292425,0.0,0.81884532987,-0.573873277249,-0.011938773407,0.0,-0.00622608743452,0.0119181214922,-0.999909593021,0.0,0.297242511394,-0.217837053129,0.304960916432,1.0,-0.134412,-0.176655771429,3.5
-0.506602577242,-0.529989669821,-0.133511551233,-2.64831439103,-0.0713352626769,2.1090911033,-0.758728690271,-0.601352071224,-0.0139853355042,0.00425186449662,-0.00745194573213,-0.00433341260435,-0.00361922416064,-0.58593929869,0.573908331837,0.818884069078,0.00623337469247,0.0,0.81888448093,-0.573817934312,-0.0119135240389,0.0,-0.00617909181891,0.0119419144258,-0.999909600666,0.0,0.294852430479,-0.220963127942,0.304961452719,1.0,-0.131778857143,-0.173195069388,3.518
-0.515665200589,-0.53002860273,-0.133419745297,-2.64835846088,-0.0713648335517,2.10898023698,-0.767511002158,-0.595830248404,0.00218329917476,0.00744307017708,0.00018236666708,-0.0110936239802,-0.00601064767851,-0.595643730477,0.574058135519,0.818778788243,0.00626896077389,0.0,0.818779296999,-0.57396684895,-0.0119693781404,0.0,-0.00620221668015,0.0120042453129,-0.999908711135,0.0,0.292822849038,-0.223584802447,0.304948446822,1.0,-0.129584571429,-0.17031115102,3.533
-0.525431124191,-0.529963829977,-0.133231443185,-2.64832104174,-0.0713677512777,2.10895662332,-0.777314272614,-0.568316549326,0.0090153638059,0.00949031010294,0.00438326610361,-0.000183331490066,0.000245081289501,-0.581298044603,0.573872533004,0.818908785183,0.00628206294739,0.0,0.818909609246,-0.573781511817,-0.0119404976014,0.0,-0.00617376567405,0.0119969962967,-0.999908974206,0.0,0.290541547554,-0.226557984232,0.304947345025,1.0,-0.126951428571,-0.16685044898,3.551
-0.534670412233,-0.529845445496,-0.133096950784,-2.64823075214,-0.0713738533308,2.1089425838,-0.78634773895,-0.576955851506,0.0117732579311,0.0079194893952,0.00909505492729,-0.000148335686254,0.0016115948678,-0.556837266764,0.573972069771,0.818838854277,0.0063040264598,0.0,0.818840020344,-0.573881044432,-0.0119295777767,0.0,-0.006150758931,0.012009464822,-0.999908966316,0.0,0.288603218659,-0.229056157631,0.304944597516,1.0,-0.124757142857,-0.163966530612,3.566
-0.54433069912,-0.529604024319,-0.132970498566,-2.64801603934,-0.0713795046427,2.10894654618,-0.795801129634,-0.557610376948,0.016833799,0.00924843128276,0.0178974809014,-0.00193737202841,0.00013318769026,-0.551690058853,0.574061938667,0.818775718075,0.00632146868977,0.0,0.818777357552,-0.573971304249,-0.0118881268759,0.0,-0.00610548554025,0.0120006276404,-0.999909349883,0.0,0.286449905432,-0.231851490178,0.304957608262,1.0,-0.122270285714,-0.160698089796,3.583
