nelsonifechukwu/NELSON_IML_WORK/CNN-GradCAM/train2dof/data_sample_2022-02-22-11-22-31/robot_state.csv
position_joint1,position_joint2,position_joint3,position_joint4,position_joint5,position_joint6,position_joint7,velocity_joint1,velocity_joint2,velocity_joint3,velocity_joint4,velocity_joint5,velocity_joint6,velocity_joint7,ee_T_00,ee_T_10,ee_T_20,ee_T_30,ee_T_01,ee_T_11,ee_T_21,ee_T_31,ee_T_02,ee_T_12,ee_T_22,ee_T_32,ee_T_03,ee_T_13,ee_T_23,ee_T_33,v_x,v_y,time
0.465048457699,0.547745828397,-0.124028306509,-1.35582991426,0.0794353459709,1.89409506359,0.159166011512,-0.000103537850628,0.00192774225922,8.07337004712e-05,0.00159162047299,-0.00037819706319,0.000344836026186,0.00201534018154,0.57384239758,0.818951728205,0.00192782520786,0.0,0.81890908458,-0.573784684452,-0.0118234504576,0.0,-0.00857684373785,0.00836367176106,-0.999928240798,0.0,0.66169697979,0.260840742951,0.303241618022,1.0,0.0,0.0,0.0
0.46504819515,0.547748351168,-0.124034011079,-1.35583830342,0.0794370227809,1.89409669293,0.159165344898,-0.000316281953764,0.00242840016619,-0.00183449498554,9.19606312406e-05,4.46286632224e-05,-0.000185927733418,-0.0012217130081,0.573846970025,0.818948543716,0.00191954148266,0.0,0.818905799857,-0.573789297248,-0.0118270970664,0.0,-0.00858453683944,0.00835902840614,-0.999928213609,0.0,0.661696597672,0.26083661931,0.303236171648,1.0,-0.00028,-0.000368,0.015
0.465047958599,0.547739937564,-0.124026460931,-1.35584143101,0.0794360575636,1.89409634419,0.159164484332,-0.00386634528304,0.00170827364083,0.0016787709036,0.000404547060447,-0.000261634245071,-8.68946972244e-05,2.77396683783e-05,0.573841081839,0.818952655776,0.00192543307423,0.0,0.818909954829,-0.573783353017,-0.0118277886232,0.0,-0.00858178268549,0.0083641883677,-0.999928194101,0.0,0.661694416554,0.260840392572,0.3032403611,1.0,-0.00062,-0.000814857142857,0.032
0.465050298597,0.547699947658,-0.124026149287,-1.35587190959,0.0794366810558,1.8940999368,0.15916367053,0.000242778652885,-0.00808728602292,0.000368969843179,-0.00533944334393,-3.23113219677e-05,-0.000250207804625,-0.000548871850329,0.573840065386,0.81895333628,0.00193887995167,0.0,0.818910775905,-0.573782248714,-0.0118245113512,0.0,-0.0085713931482,0.00837330926471,-0.999928206879,0.0,0.661688488301,0.260839376562,0.30325448641,1.0,-0.00096,-0.00126171428571,0.049
0.465050716545,0.547577561245,-0.124026140507,-1.3560076724,0.0794348933747,1.89413330101,0.159163566619,9.15570862676e-05,-0.00428106187375,-0.000386100656951,-0.00605550556384,-0.000325055481741,0.00498110062024,0.00137352477795,0.573846585276,0.818948715384,0.00196087742968,0.0,0.818906360831,-0.573788600414,-0.0118220610224,0.0,-0.0085566973145,0.00838998588185,-0.999928192956,0.0,0.661667244431,0.260827130592,0.303279460431,1.0,-0.00132,-0.00173485714286,0.067
0.465039296256,0.547436969608,-0.124026462258,-1.35619493595,0.0794333013632,1.89417481843,0.159159582973,-0.00306610688652,-0.00999053047647,0.000590407465296,-0.0142675629773,-0.000103190921737,0.00567120845608,0.00120551408099,0.573862739285,0.81893739034,0.00196317707198,0.0,0.818894943511,-0.573804623365,-0.011835226983,0.0,-0.00856599474109,0.00839959327218,-0.999928032694,0.0,0.661639444567,0.260801566404,0.303293533953,1.0,-0.00164,-0.00215542857143,0.083
0.465022344879,0.547278467667,-0.124028678639,-1.35640361131,0.0794266268177,1.89429214769,0.159150001431,-0.000407319297088,-0.0110501935663,0.000158132369452,-0.0157047916815,-0.000142799572566,0.00999588649253,0.00149454116548,0.573880475156,0.818924819108,0.00202182706521,0.0,0.818883144261,-0.573822130966,-0.0118027521814,0.0,-0.00850556133853,0.00842917142198,-0.999928299677,0.0,0.661624492989,0.260773278341,0.303316737276,1.0,-0.00198,-0.00260228571429,0.1
0.465002038991,0.547093823796,-0.124021198649,-1.35660576747,0.0794288764261,1.89439429851,0.159140365012,0.000147454037532,-0.0154413598127,0.00208479720318,-0.00958372919858,0.000248723300293,0.00270224229835,0.000992186576382,0.573895987242,0.818913741752,0.00210387713908,0.0,0.818873001973,-0.573837187072,-0.0117743905959,0.0,-0.00843508972194,0.00848024697491,-0.999928464778,0.0,0.661606840668,0.260749917774,0.303359931237,1.0,-0.0023,-0.00302285714286,0.116
0.464974960998,0.546897883505,-0.124028994339,-1.35686971992,0.0794162210511,1.89451047919,0.159123291041,-0.00329478572104,-0.0135960087574,-0.00063826235092,-0.017393001994,-1.11510402226e-05,0.00625236871311,0.000115847529536,0.573921125551,0.818896018965,0.00214445109492,0.0,0.818855840527,-0.573862199828,-0.0117488273717,0.0,-0.00839061008466,0.0084990601661,-0.999928679276,0.0,0.661584206179,0.260704578394,0.303383402065,1.0,-0.00262,-0.00344342857143,0.132
0.46492988926,0.546658370041,-0.124023704632,-1.35723196936,0.0794048411646,1.89465051691,0.159079203368,-0.00239917952745,-0.0177597407742,0.00172806435323,-0.0241177058464,-0.0039244757473,0.0112654767852,-0.00082788578419,0.573935517669,0.818885875299,0.0021660319987,0.0,0.81884586372,-0.573876392213,-0.0117509502293,0.0,-0.00837981387263,0.00851809804553,-0.999928607814,0.0,0.661546525297,0.260645635854,0.303392577109,1.0,-0.00296,-0.00389028571429,0.149
0.464894744175,0.546372985644,-0.124032079469,-1.35764233557,0.0793872381773,1.89480903459,0.158951944735,-0.00203042473989,-0.0202567832173,-0.000884655632458,-0.0217177839188,-5.69346941845e-05,0.00667418030943,0.00028774207676,0.573884235908,0.818921731055,0.0021975175391,0.0,0.81888210602,-0.573824973699,-0.0117363921794,0.0,-0.00835035692609,0.00853500257389,-0.999928710094,0.0,0.661503572937,0.260580490709,0.303413365402,1.0,-0.0033,-0.00433714285714,0.166
0.4648574519,0.546076788295,-0.124032194794,-1.35813169108,0.0793523130329,1.89497208759,0.158932605998,-0.00205661748669,-0.0156615060311,-0.00121456155341,-0.0273278240697,-0.0021005009477,0.00504442260468,-0.00169354154946,0.57391702844,0.818898827382,0.00216838202562,0.0,0.81885884828,-0.573857898221,-0.0117493039866,0.0,-0.00837730939461,0.00851888845338,-0.999928622066,0.0,0.661443274818,0.260506966542,0.303404282677,1.0,-0.00364,-0.004784,0.183
0.464807491571,0.545767335951,-0.124027316355,-1.35864504165,0.0792858522987,1.89514369202,0.158881376978,-0.00231970747451,-0.0139877337365,-0.000238646637727,-0.0312105302479,-0.00453536291177,0.0113884820167,-0.00563226066928,0.573923534257,0.818894388559,0.00212229002643,0.0,0.818854075862,-0.573864848722,-0.0117424336334,0.0,-0.0083980670543,0.00847726806367,-0.999928801663,0.0,0.661383398465,0.260420756197,0.303393664158,1.0,-0.00396,-0.00520457142857,0.199
0.464751430914,0.545413751685,-0.124029692396,-1.35926226118,0.0792634319003,1.89535330244,0.158776818399,-0.00262173874772,-0.0198219879513,-0.000630332578626,-0.037936816767,-0.00317173536428,0.0162038213158,-0.0075583807763,0.573913954197,0.818901202341,0.00208347885176,0.0,0.81886023216,-0.573855266324,-0.0117813581793,0.0,-0.00845231580016,0.00846772686473,-0.999928425418,0.0,0.661309137257,0.260324275263,0.303368452024,1.0,-0.0043,-0.00565142857143,0.216
0.464692631451,0.545019395929,-0.124029718743,-1.35995668722,0.0792429744756,1.89556833278,0.158701041682,-0.00489451754101,-0.030163776775,-0.000175783692465,-0.0391806790126,-0.000786929012241,0.0178019438285,-0.0059605484147,0.573933205023,0.818887862688,0.00202272499335,0.0,0.818845847945,-0.573874502551,-0.0118439658402,0.0,-0.00853825396112,0.00845410800497,-0.999927810533,0.0,0.661219275947,0.260219400064,0.303335722513,1.0,-0.00464,-0.00609828571429,0.233
0.464615860749,0.544556751219,-0.12403293566,-1.36075055177,0.0792083134811,1.89583947222,0.158615493072,-0.00279169029422,-0.0210226230824,-0.00132092991485,-0.0438058846272,-0.000621011987294,0.0153512164386,-0.0120246650503,0.573963263479,0.818866906083,0.00197716951834,0.0,0.818824157166,-0.573904603221,-0.0118849881909,0.0,-0.00859768235284,0.00844066328183,-0.999927414896,0.0,0.661125655395,0.260091404833,0.303308914414,1.0,-0.00502,-0.00659771428571,0.252
0.464558274348,0.544134512058,-0.124027969439,-1.36143408675,0.0791719572888,1.89608433158,0.15851623354,-0.00548002959983,-0.0282826393515,0.000395572351946,-0.0473333262636,-0.000354531202357,0.0147167836167,-0.00342532402648,0.573954063374,0.818873379488,0.00196682572259,0.0,0.818830406789,-0.573895359442,-0.0119007659475,0.0,-0.0086166341718,0.00844115219768,-0.999927247636,0.0,0.661044241703,0.259991352567,0.303303421677,1.0,-0.00532,-0.006992,0.267
0.464486942124,0.543628512958,-0.124032177112,-1.36226217056,0.0791324344818,1.89636976774,0.158421629069,-0.00412167906484,-0.0262862260051,-0.000344159005395,-0.0496682382285,0.000330248427204,0.0166574496444,-0.00744530314598,0.573973453639,0.818859852273,0.00194003986676,0.0,0.818816420056,-0.573914750473,-0.0119279644724,0.0,-0.00865408034759,0.00843503386211,-0.999926975882,0.0,0.660945617469,0.259863085248,0.303292174598,1.0,-0.00566,-0.00743885714286,0.284
0.464403115392,0.543067450814,-0.124035291453,-1.36317779374,0.0790756409341,1.89668365994,0.158307706106,-0.00665769622531,-0.0297848704383,-2.02870593762e-05,-0.0528100358486,-0.000670349177616,0.0227940071709,-0.0095738733701,0.573986682058,0.818850665068,0.0019036906381,0.0,0.81880674541,-0.573928116531,-0.0119489592507,0.0,-0.0086919989948,0.00841746027218,-0.999926795079,0.0,0.660837790293,0.259716669089,0.303280561297,1.0,-0.00602,-0.007912,0.302
0.464335949227,0.542519924849,-0.124036119595,-1.36403063646,0.0790248494819,1.89698805234,0.158176930933,-0.0042006210008,-0.0347792981026,-0.000498717384856,-0.054398436422,-0.000495090306147,0.0174546161795,-0.0114728803072,0.573968971276,0.818863079916,0.00190348709957,0.0,0.818819129479,-0.57391038155,-0.0119521567097,0.0,-0.00869491625148,0.00841894083177,-0.999926757251,0.0,0.660736858904,0.259590201642,0.303288290802,1.0,-0.00634,-0.00833257142857,0.318
0.464241534527,0.541849518362,-0.124041748921,-1.36506263014,0.0789624861347,1.89738107897,0.158052991491,-0.00502915191945,-0.0362358105361,0.000500826811287,-0.0568500113229,-0.00671147891276,0.0197603247592,-0.00715947724177,0.573989484035,0.81884864381,0.0019281207795,0.0,0.818805050454,-0.573930823086,-0.0119350979415,0.0,-0.00866659767599,0.0084295380362,-0.999926913816,0.0,0.660624214677,0.259427447731,0.303305409382,1.0,-0.00672,-0.008832,0.337
0.464185504009,0.541315190332,-0.12403927287,-1.36586901109,0.0789091611107,1.89768002355,0.157938593615,-0.00387962239855,-0.0417402854206,0.000756594828311,-0.0564271185501,-0.0054754875407,0.0237455086533,-0.00579899176367,0.573970430891,0.818861948919,0.00194935295548,0.0,0.818818653964,-0.573911704801,-0.0119211540736,0.0,-0.00864318938831,0.00843871897494,-0.999927038988,0.0,0.660528793786,0.259314830114,0.303325182013,1.0,-0.007,-0.0092,0.351
0.464086027361,0.54067960992,-0.124034694567,-1.36686130291,0.0788517716707,1.89805115699,0.157821179957,-0.0106248434983,-0.0422950447225,0.000591747897182,-0.0593157171266,-0.0063404685595,0.025902634104,-0.00784932504556,0.573992232825,0.818846632978,0.00196347103425,0.0,0.818803472442,-0.573933396955,-0.0119195753992,0.0,-0.00863356880465,0.00844960327967,-0.999927030185,0.0,0.660418393902,0.259158241264,0.303334174106,1.0,-0.00732,-0.00962057142857,0.367
0.463986351501,0.539853915216,-0.124040001788,-1.36810406548,0.0787867693496,1.89850823642,0.157662477943,-0.0032438490771,-0.0426640671898,0.00181042177304,-0.0629828469721,5.42197078913e-05,0.0222023167779,-0.00475628382452,0.573998985926,0.818841805255,0.00200225467353,0.0,0.818799070463,-0.573939910774,-0.0119083135106,0.0,-0.00860201667933,0.00847496731405,-0.999927087461,0.0,0.660274815285,0.258973169296,0.303365979939,1.0,-0.0077,-0.01012,0.386
0.463884684422,0.539145927845,-0.124048171157,-1.36919447178,0.0787204974742,1.89891734094,0.157535232281,-0.00195871894858,-0.0419803829567,-0.000508083655089,-0.0703028898894,-0.00407696652258,0.0300518993595,-0.00530343520416,0.574026359884,0.818822566668,0.00202222022698,0.0,0.818780135359,-0.573967242318,-0.0118929217742,0.0,-0.00857766971203,0.00848276766518,-0.99992723047,0.0,0.66015478541,0.25879821087,0.303382919336,1.0,-0.00802,-0.0105405714286,0.402
0.463776148474,0.538430412279,-0.124051367406,-1.3703259783,0.0786520193719,1.8993601257,0.157389253984,-0.00637263874021,-0.0466260483809,-0.000425571004606,-0.0716365634574,-0.00137226204466,0.0315189573188,-0.0101138718518,0.574042284469,0.818811352372,0.00204249093093,0.0,0.818769222493,-0.573983119512,-0.0118779507998,0.0,-0.00855361032521,0.00849093820028,-0.999927367222,0.0,0.660032706497,0.258618759403,0.303388266466,1.0,-0.00834,-0.0109611428571,0.418
0.463667461675,0.537644337653,-0.12405976372,-1.37155571508,0.0785896054129,1.89982505092,0.157232317634,-0.00795501464041,-0.0520342260206,-0.00131858681947,-0.0763806446061,-0.000484673790071,0.023181554597,-0.00972998689333,0.57405986631,0.818798971619,0.00206418700931,0.0,0.818757058862,-0.574000546322,-0.0118742699615,0.0,-0.00853795994432,0.00850677329305,-0.999927366386,0.0,0.659894802233,0.258427952778,0.303398674803,1.0,-0.00868,-0.011408,0.435
0.463536613786,0.536709313173,-0.124060638009,-1.37300404796,0.0784977201341,1.90036465293,0.1570649766,-0.00779122430964,-0.0536946689607,-0.000674478665869,-0.0721589612064,-0.0096954243071,0.0303523910083,-0.00388824818164,0.574085730986,0.818780788972,0.0020832641458,0.0,0.818739159558,-0.574026365897,-0.0118603019717,0.0,-0.00851530280498,0.00851464399628,-0.999927492599,0.0,0.659730386413,0.258203221094,0.30341623876,1.0,-0.00906,-0.0119074285714,0.454
0.463442002793,0.535951818804,-0.124071672738,-1.37418831481,0.0784286777037,1.90081061146,0.156916904998,-0.00905683247278,-0.0587211866067,-0.00183540603403,-0.0843848832743,-0.00860768481089,0.0250524836577,-0.00731786810295,0.574100568908,0.81877036943,0.00208945565255,0.0,0.818728845547,-0.574041202128,-0.0118542241288,0.0,-0.00850661761339,0.0085163783972,-0.999927551754,0.0,0.659604595399,0.258034072004,0.303421377303,1.0,-0.00934,-0.0122754285714,0.468
0.463326985327,0.535056067404,-0.124064817642,-1.37559520209,0.0783504385561,1.90131014071,0.156745102908,-0.00883156129118,-0.0572644185574,0.000802770347622,-0.077764700627,-0.0058591851037,0.0247495901679,-0.00612144778148,0.574101176521,0.81876993381,0.00209320503204,0.0,0.8187283217,-0.574041657423,-0.0118683482645,0.0,-0.00851602379689,0.00852756312689,-0.999927376366,0.0,0.65942416257,0.257816991592,0.303431762794,1.0,-0.0097,-0.0127485714286,0.486
0.463213088342,0.534212979477,-0.124067590903,-1.37698535952,0.0782801888839,1.90181615588,0.156579181881,-0.00487724386159,-0.055926376011,0.000758119362655,-0.0871467191259,-0.00769851332838,0.0331649677154,-0.00785004559599,0.574117924306,0.818758265511,0.00206362505902,0.0,0.818716124995,-0.574058379863,-0.0119008438313,0.0,-0.00855943779116,0.00852217494798,-0.999927051619,0.0,0.659257988893,0.257609301018,0.303408834168,1.0,-0.01002,-0.0131691428571,0.502
0.463094476396,0.533292575331,-0.124067466958,-1.37845394572,0.078192856115,1.90236765414,0.156393828296,-0.00204126069754,-0.0564153719326,-8.85700746234e-05,-0.0898315749858,-0.00657385359754,0.0309248899668,-0.00719145515676,0.574120184027,0.8187566753,0.00206587653466,0.0,0.818714540661,-0.574060606775,-0.0119024182341,0.0,-0.00855941083952,0.00852494583667,-0.99992702823,0.0,0.659085833215,0.257392236168,0.303406754597,1.0,-0.01036,-0.013616,0.519
0.462958366861,0.532291034398,-0.12406841531,-1.38008176958,0.0780893880034,1.90298592879,0.156181544184,-0.00861982374001,-0.056046414215,-0.000554809619564,-0.091219448868,-0.00374597786135,0.0323101637615,-0.0060167541009,0.574119747015,0.818757012202,0.00205376715537,0.0,0.818714765821,-0.574060264991,-0.0119034148858,0.0,-0.00856718323428,0.00851559899018,-0.999927041311,0.0,0.658897281654,0.257147123096,0.303391713626,1.0,-0.01072,-0.0140891428571,0.537
0.462826604307,0.531315296586,-0.124065871381,-1.38166374009,0.0780096506139,1.90355542512,0.155985890457,-0.00277978541615,-0.0558944760035,-0.00119699936713,-0.0921449519026,-0.0103513587577,0.0316220729145,-0.00439210248828,0.574130434623,0.818749574634,0.00203100416515,0.0,0.81870682733,-0.574070842279,-0.0119392558001,0.0,-0.00860948609527,0.00851765108909,-0.999926660495,0.0,0.658705326094,0.25691256056,0.303375781499,1.0,-0.01106,-0.014536,0.554
0.462708202917,0.530415217741,-0.124073042963,-1.38310466583,0.077911552368,1.90405316924,0.155801278183,-0.00958581518229,-0.0585501790132,-0.00201469900196,-0.0940174239368,-0.00584516514113,0.0364551494524,-0.0144455325271,0.574133045281,0.818747851859,0.00198703161182,0.0,0.818704593122,-0.574073696545,-0.0119552096352,0.0,-0.00864776612112,0.00849083629703,-0.999926558223,0.0,0.658529367914,0.256689118302,0.30336750529,1.0,-0.01136,-0.0149302857143,0.569
0.462572855434,0.529360488768,-0.124065256513,-1.38475019792,0.0778131148448,1.90466697721,0.155575948078,-0.00695670372085,-0.065253621089,0.00147492289433,-0.0951004465051,-0.0111879565589,0.0295916423033,-0.0148962528588,0.574116770864,0.818759211001,0.00200865989367,0.0,0.818716167262,-0.574057267951,-0.0119514633907,0.0,-0.00863245112668,0.00850622166954,-0.999926559793,0.0,0.658333404999,0.256448776942,0.303380167155,1.0,-0.0117,-0.0153771428571,0.586
0.462422797661,0.528214271451,-0.124070210777,-1.38654937535,0.0777037831147,1.90535293431,0.15532965664,-0.0033036424053,-0.0607050738009,0.000756963444568,-0.102765917101,-0.000477488805973,0.0338257480488,-0.0130935629117,0.574109674613,0.818764124324,0.00203399537473,0.0,0.818721439707,-0.574050095924,-0.0119347574329,0.0,-0.00860430163803,0.00851729931232,-0.999926708117,0.0,0.658125082611,0.256177461754,0.303390530139,1.0,-0.01206,-0.0158502857143,0.604
0.462276698311,0.527074346748,-0.124073821265,-1.38831419334,0.0775864366939,1.9060294432,0.155081143971,-0.00782785566591,-0.0678239650078,-0.000319732852096,-0.108169502688,-0.00513905662568,0.0397305768439,-0.0143575173309,0.574092269357,0.818776237359,0.00207033856732,0.0,0.818734144934,-0.574032661532,-0.0119016937906,0.0,-0.00855654684202,0.00852789146241,-0.999927027624,0.0,0.657921324017,0.255911633308,0.30341163147,1.0,-0.0124,-0.0162971428571,0.621
0.462130071317,0.525901816732,-0.124079435574,-1.39012168383,0.0774742409869,1.90670082186,0.154842244767,-0.00852241439136,-0.0730969147057,-0.00105024616192,-0.108140274819,-0.0119995355099,0.0381215950206,-0.0193888361553,0.574087923095,0.818779213233,0.00209843639385,0.0,0.81873751599,-0.574028231084,-0.0118834645614,0.0,-0.00852553617584,0.00854038651869,-0.999927185865,0.0,0.657707145527,0.255640176501,0.303434692461,1.0,-0.01274,-0.016744,0.638
0.461979151063,0.524748514405,-0.124082258505,-1.39195896247,0.077352535171,1.90736059535,0.154580049362,-0.00844012164415,-0.0675327399946,-0.00035446302529,-0.1068032845,-0.00221181285519,0.0454468700136,-0.0177944114179,0.574064717406,0.818795551942,0.00207153344298,0.0,0.818753549092,-0.574005181911,-0.0118921776311,0.0,-0.00854835579882,0.0085231190461,-0.999927138373,0.0,0.657483546367,0.255361465759,0.303428660031,1.0,-0.01308,-0.0171908571429,0.655
0.461813721018,0.523546444793,-0.124081237847,-1.39386217901,0.0772409325654,1.90804437701,0.154340002147,-0.00858194758131,-0.075402667401,0.00187031341089,-0.11193411383,-0.00590914144107,0.0341066822624,-0.0141769201498,0.574074878381,0.818788459441,0.00205902860334,0.0,0.818746194378,-0.574015293689,-0.0119104451687,0.0,-0.00857038614898,0.00852347329807,-0.999926946774,0.0,0.65725219592,0.255071556015,0.303427204165,1.0,-0.01342,-0.0176377142857,0.672
0.46167589683,0.522482086624,-0.124084406902,-1.39557954421,0.0771361879328,1.90870970162,0.154101713403,-0.012678503392,-0.0716394757754,0.00152918022478,-0.120931268287,-0.00343896445611,0.044815990575,-0.0167077335868,0.574070359135,0.818791612963,0.00206499505912,0.0,0.818749464252,-0.574010789073,-0.0119027608519,0.0,-0.00856071613365,0.00852389990679,-0.999927025972,0.0,0.65703815768,0.254796715052,0.303413547768,1.0,-0.01374,-0.0180582857143,0.688
0.461501712609,0.521154029264,-0.12409194166,-1.39768017918,0.0770083079264,1.90952878064,0.153815091136,-0.00894746931585,-0.0733502049097,-0.000994327528719,-0.117028289048,-0.00190095951581,0.0482609206776,-0.0202651701327,0.574050164912,0.818805679655,0.0021009591684,0.0,0.818764050804,-0.573990503019,-0.0118776452074,0.0,-0.00851971677784,0.00853871842618,-0.999927249711,0.0,0.656806530917,0.254501624726,0.303420141648,1.0,-0.01408,-0.0185051428571,0.705
0.461329058868,0.519864856168,-0.124097578621,-1.39973284323,0.0768818651326,1.91027204583,0.153545027518,-0.0148368204876,-0.0787375025882,-0.000979094190093,-0.124264240273,-0.00416398219192,0.0500969357236,-0.0206904744046,0.574049562545,0.818806152774,0.00208106273202,0.0,0.818764247316,-0.573989963605,-0.0118901597272,0.0,-0.00854139126857,0.00852960497274,-0.999927142583,0.0,0.656556305208,0.254188270451,0.303413111641,1.0,-0.01442,-0.018952,0.722
0.461167172524,0.518594293093,-0.124096799329,-1.40168913457,0.0767597078246,1.91096812149,0.153279965403,-0.00966977193996,-0.0762902653714,0.000547594658682,-0.123678276033,-0.00669705121359,0.0449794691343,-0.0168777157336,0.574035248127,0.818816166168,0.00208969662892,0.0,0.818774327382,-0.573975570235,-0.0118908575844,0.0,-0.00853715597221,0.00853692569796,-0.999927116278,0.0,0.656313814882,0.253894475777,0.303434168736,1.0,-0.01474,-0.0193725714286,0.738
0.460995566794,0.517341720293,-0.124107054736,-1.40368077002,0.0766242791852,1.91168852419,0.153000092669,-0.0161117037838,-0.0745261478061,0.00271039329275,-0.12127911897,-0.00286503667595,0.0417435253107,-0.0210081323137,0.574022676764,0.818825045839,0.00206343631882,0.0,0.818782980439,-0.573963222116,-0.0118910682207,0.0,-0.00855253258548,0.00851541329681,-0.999927168309,0.0,0.656072358635,0.253582999051,0.303427906062,1.0,-0.01506,-0.0197931428571,0.754
0.460826263861,0.516064773605,-0.124106131814,-1.40570147151,0.0764953332176,1.91244471603,0.152725616927,-0.0124909635528,-0.0770869551951,0.000323842602149,-0.126242564052,-0.00485491197724,0.0444964124768,-0.018903644352,0.574007909561,0.818835381794,0.00206982730444,0.0,0.818793422139,-0.573948453231,-0.0118849399322,0.0,-0.00854399964563,0.00851697448575,-0.99992722796,0.0,0.655827640897,0.253279913437,0.303427305553,1.0,-0.01538,-0.0202137142857,0.77
0.460605873961,0.514435206213,-0.124118498506,-1.40830960297,0.0763385619377,1.91340790231,0.1523713647,-0.0112129261937,-0.0836620396398,-0.00309610465825,-0.134992980839,-0.0086932536771,0.0499576589208,-0.0194333574748,0.574002250149,0.818839389858,0.00205361684221,0.0,0.818797204294,-0.573942845668,-0.011895169133,0.0,-0.00856173918081,0.00850951341184,-0.999927139748,0.0,0.65551070067,0.25288009956,0.303412313395,1.0,-0.01578,-0.0207394285714,0.79
0.460421173041,0.513129479275,-0.124117680901,-1.41044906859,0.0762031326071,1.91414541963,0.152075470819,-0.0125044782294,-0.0857328424035,-0.000128447201358,-0.134737969667,-0.0138225572562,0.047224476784,-0.0178731228454,0.573986078576,0.81885093213,0.00196963248198,0.0,0.818807566995,-0.573926938924,-0.0119492221346,0.0,-0.00865437316542,0.00847160024005,-0.999926664218,0.0,0.655237360881,0.252551024953,0.30337295239,1.0,-0.0161,-0.02116,0.806
0.460235863139,0.51178967827,-0.124120853852,-1.41258986555,0.0760838677424,1.9149098076,0.151775074821,-0.00526088658096,-0.0829824798848,-9.15894352292e-05,-0.134330905616,-0.00448410422379,0.0523325672436,-0.0242959950946,0.573973961372,0.818859486352,0.00194426825484,0.0,0.818815616466,-0.573914760208,-0.0119825351549,0.0,-0.00869633576432,0.00846982345016,-0.999926315203,0.0,0.654969372061,0.252223950272,0.303358884057,1.0,-0.01642,-0.0215805714286,0.822
0.460047322038,0.510400990869,-0.124119882542,-1.41478524457,0.0759440703846,1.91575710299,0.151458670326,-0.00943051872314,-0.0880531004957,0.00070732645711,-0.136367911016,-0.0154662566116,0.0531093086162,-0.0199338032595,0.573945619365,0.8188792812,0.00197376147373,0.0,0.818835848266,-0.57388634833,-0.0119607565147,0.0,-0.0086618677005,0.00848117374538,-0.99992651817,0.0,0.654706415724,0.251893675574,0.30335966442,1.0,-0.01674,-0.0220011428571,0.838
0.459858296097,0.509008931898,-0.124128084353,-1.41700694001,0.0758037395272,1.91656170788,0.151156988828,-0.0118041301828,-0.0868479131556,-0.000750178600856,-0.136710224413,-0.0120027705608,0.0475638829647,-0.0165021119928,0.573936819033,0.818885511609,0.00194770037404,0.0,0.818841746765,-0.573877666665,-0.0119734856674,0.0,-0.00868733944866,0.00846704567,-0.999926416928,0.0,0.654430098302,0.251551795986,0.303346447403,1.0,-0.01706,-0.0224217142857,0.854
0.459650007291,0.50748365189,-0.124133649255,-1.41939720415,0.0756538127902,1.9174120595,0.150811387112,-0.0112000678741,-0.0922414975515,-0.000277858826827,-0.142346170521,-0.00858022980061,0.0406769517122,-0.0246464582649,0.573911572166,0.818903240203,0.00193324065743,0.0,0.818859247846,-0.57385244636,-0.0119853629379,0.0,-0.00870562527448,0.00846175339232,-0.999926302693,0.0,0.654129973266,0.251182255194,0.303349564999,1.0,-0.0174,-0.0228685714286,0.871
0.459430606107,0.505920061916,-0.124136959662,-1.42183061254,0.0755022897038,1.91832522294,0.150492325321,-0.0145022819822,-0.0904968212057,6.05458048593e-05,-0.143838391079,-0.00538444271739,0.0573640267262,-0.0168504814551,0.573917246727,0.818899182773,0.00196704466845,0.0,0.81885564332,-0.573857988923,-0.0119662380618,0.0,-0.0086705052062,0.0084785192673,-0.999926465822,0.0,0.653834450614,0.250806172143,0.303363759194,1.0,-0.01774,-0.0233154285714,0.888
0.459186506226,0.504075287369,-0.124142332689,-1.42459409516,0.0753284557293,1.91939464212,0.150113507636,-0.0105512428874,-0.0978758052474,-0.00100899247827,-0.144707682018,-0.00945252441474,0.0569935004307,-0.0169418038649,0.573906281111,0.818906560533,0.00209105701819,0.0,0.81886472872,-0.573846602951,-0.011890300303,0.0,-0.00853726332715,0.00853637521781,-0.999927120061,0.0,0.653505099672,0.25038432432,0.303430207126,1.0,-0.01812,-0.0238148571429,0.907
0.458973246258,0.502600944695,-0.12414627628,-1.42677822862,0.0751857507132,1.92022268151,0.149810419599,-0.0118046227255,-0.0961767787096,-0.000371383078656,-0.147644788255,-0.00560059696049,0.061304058092,-0.0195510112948,0.573908959687,0.818904433337,0.00218676769545,0.0,0.818863942114,-0.573848995116,-0.0118288634704,0.0,-0.00843199663474,0.00857952112653,-0.999927644007,0.0,0.653246146438,0.250036115888,0.303492019674,1.0,-0.01842,-0.0242091428571,0.922
0.458728948143,0.500779977692,-0.124147893688,-1.42949798659,0.0750047980291,1.92117278928,0.149421970651,-0.0110365605395,-0.0983538949468,0.00123508588712,-0.148166075687,-0.00924967299232,0.0511426861686,-0.0190788330721,0.573881532307,0.818923546493,0.00222683122816,0.0,0.818883583964,-0.573821422607,-0.0118066834294,0.0,-0.00839112915835,0.00859931867848,-0.99992781773,0.0,0.652900020229,0.249612369328,0.303550744952,1.0,-0.01878,-0.0246822857143,0.94
0.458480019771,0.499078539621,-0.124148038266,-1.43209661108,0.0748437240373,1.92212940411,0.149048463871,-0.0205889708694,-0.101066122419,-0.00260134863382,-0.154218669913,-0.00790848824696,0.0562340164061,-0.022746153655,0.573868356884,0.818932639581,0.00227765193625,0.0,0.81889329821,-0.573808012359,-0.0117846510204,0.0,-0.0083440610853,0.00862815834254,-0.999927963169,0.0,0.65257978704,0.249202915252,0.303583631578,1.0,-0.01912,-0.0251291428571,0.957
0.45825519872,0.49760044562,-0.124148682414,-1.43443485907,0.0747042999929,1.9229932255,0.148708158587,-0.0173197552014,-0.0992744348195,0.000645707791336,-0.152651682778,-0.00496275178693,0.0533247374203,-0.018679197574,0.573855381615,0.818941718301,0.00228252463846,0.0,0.818902352582,-0.573794929344,-0.0117924932337,0.0,-0.00834782432972,0.0086365167808,-0.999927859601,0.0,0.652289877441,0.248834134106,0.303576200258,1.0,-0.01942,-0.0255234285714,0.972
0.457988963605,0.495938990562,-0.124151129446,-1.43712250947,0.0745387836576,1.92393295193,0.148313560926,-0.0203751838417,-0.0987620438354,-0.000633055220988,-0.158951229596,-0.00620737018847,0.0516451248973,-0.0195692659816,0.573842997384,0.8189505969,0.00220931928253,0.0,0.81891014447,-0.573782692872,-0.0118466681259,0.0,-0.00843432915264,0.00860752724081,-0.999927383647,0.0,0.651946427841,0.248399445175,0.303536412886,1.0,-0.01976,-0.0259702857143,0.989
0.457731169533,0.494363370112,-0.124153339237,-1.43970874067,0.0743765936908,1.92482958517,0.147945396763,-0.0206685493315,-0.096365171551,0.000916346764178,-0.163480029187,-0.011032393116,0.0526913844976,-0.0234340607817,0.573835783138,0.81895591452,0.00210973094912,0.0,0.818913997803,-0.573775709369,-0.0119183237717,0.0,-0.00855023399056,0.00856701380259,-0.999926747204,0.0,0.651590613914,0.247956834279,0.303478916145,1.0,-0.02348,-0.0308594285714,1.006
0.45740339789,0.491832015977,-0.124237098001,-1.44349032141,0.0741569755636,1.92624544971,0.147396630073,-0.0184477252816,-0.16743549596,-0.00314784199969,-0.239344690576,-0.00837789680411,0.0951795322213,-0.0381193263848,0.573850315264,0.818945379744,0.00224222406932,0.0,0.818905457412,-0.57378998557,-0.0118174101215,0.0,-0.00839140926378,0.0086177599695,-0.999927656615,0.0,0.651155592079,0.247362079402,0.303567880024,1.0,-0.03538,-0.0464994285714,1.023
0.456944660843,0.488350056521,-0.124270699708,-1.4490954087,0.0738659119665,1.92836274276,0.146556311239,-0.027962408063,-0.216584943674,-7.94958763661e-05,-0.345020377402,-0.0173683397568,0.126880314528,-0.0523581304708,0.573764438088,0.819005511769,0.00225569920825,0.0,0.818965345813,-0.573703636036,-0.0118594796787,0.0,-0.00841903847856,0.00865205375485,-0.999927128223,0.0,0.650440722758,0.246521823739,0.303506067455,1.0,-0.04798,-0.0630594285714,1.041
0.456367503858,0.484481634402,-0.124353248902,-1.45514236965,0.0735026134954,1.93064770581,0.1456391756,-0.0382862696537,-0.280747182863,-0.00859984213625,-0.428217148799,-0.0319596504189,0.15754605505,-0.0673003432959,0.573747068413,0.819017466746,0.00233185622173,0.0,0.818978494854,-0.573686183923,-0.0117955179347,0.0,-0.00832314176677,0.00867755100385,-0.999927710097,0.0,0.649699739992,0.245528938358,0.303515093651,1.0,-0.05848,-0.0768594285714,1.056
0.455446743324,0.478522903413,-0.124521911718,-1.46465020633,0.0729432379948,1.93392288731,0.14419151294,-0.0480204522967,-0.335319946765,-0.00792546727155,-0.539821223063,-0.0320236355873,0.183515992319,-0.084957216551,0.573750985642,0.81901538038,0.00208807968075,0.0,0.818973080734,-0.573690910459,-0.0119406528622,0.0,-0.00858183123964,0.00856120722765,-0.999926526252,0.0,0.64846600358,0.243917232244,0.303410539805,1.0,-0.07178,-0.0943394285714,1.075
0.45449070495,0.472477299662,-0.124656580909,-1.47407050919,0.0723952220323,1.93725641601,0.142836473448,-0.0612486254277,-0.390428578496,-0.00273475477905,-0.609901324826,-0.0331566913363,0.212576765892,-0.0906331592861,0.57382848504,0.818961171346,0.00205340850516,0.0,0.81891819724,-0.573768323178,-0.011985176157,0.0,-0.00863737944581,0.00855917385895,-0.999926065376,0.0,0.647252479096,0.242321529838,0.303403067281,1.0,-0.08298,-0.109059428571,1.091
0.453229377245,0.464629858122,-0.124752230013,-1.48594947299,0.0716787672131,1.94171478154,0.140944271066,-0.0733671572658,-0.453725688914,-0.00659970370034,-0.699099870393,-0.0404979137227,0.25089063131,-0.110291599167,0.573752710454,0.819013269831,0.0024161929874,0.0,0.818975038938,-0.573691131933,-0.0117948140726,0.0,-0.00827412005321,0.00874627668233,-0.999927518164,0.0,0.645755293716,0.240335283009,0.303554876597,1.0,-0.09558,-0.125619428571,1.109
0.451885359673,0.456876888689,-0.124825707771,-1.4980893572,0.0708957222456,1.94591579816,0.139097625768,-0.0799001030468,-0.507383547842,-0.00369440099039,-0.790419945177,-0.0532076279223,0.268406391986,-0.117369168238,0.573746330028,0.819018218481,0.00224799382984,0.0,0.818977474693,-0.573685070964,-0.0119198238513,0.0,-0.00847307552844,0.00868017861947,-0.999926428039,0.0,0.644131401761,0.238253786825,0.303480846979,1.0,-0.10678,-0.140339428571,1.125
0.450260730738,0.447549690707,-0.124996985167,-1.51216151833,0.0699184989539,1.95093053982,0.136892574404,-0.0999263792487,-0.57131481149,-0.00445216212623,-0.86849951394,-0.0613692752268,0.312108442122,-0.133201388182,0.573769622874,0.819001430523,0.00241320754068,0.0,0.818963674908,-0.573708597223,-0.0117342044696,0.0,-0.00822601070984,0.00870922706867,-0.999928238481,0.0,0.642292435918,0.23575563439,0.303623989787,1.0,-0.11868,-0.155979428571,1.142
0.448455327002,0.437509478995,-0.12510016418,-1.52761998398,0.0689235377783,1.95623066037,0.134453563954,-0.112241716147,-0.602263844315,-0.00394025505345,-0.940090427369,-0.0596942219488,0.309213251545,-0.152648864761,0.573742428953,0.8190207648,0.00231493999483,0.0,0.818981141821,-0.573681161995,-0.0118558262118,0.0,-0.00838229177021,0.00869825019646,-0.999927036152,0.0,0.640166433117,0.233051883598,0.303597110175,1.0,-0.13058,-0.171619428571,1.159
0.446527148829,0.427108386666,-0.125232892829,-1.54312379477,0.067869823346,1.96175846593,0.131895712379,-0.124671052669,-0.65266066834,-0.0065431155409,-0.996181585531,-0.0732140287541,0.345380004307,-0.157969975109,0.57370713855,0.8190444935,0.0026426777018,0.0,0.819009485288,-0.57364504902,-0.0116433519573,0.0,-0.0080206187485,0.00884442252144,-0.999928720392,0.0,0.638079030823,0.230265198492,0.303788769776,1.0,-0.14178,-0.186339428571,1.175
0.444234712461,0.415385182173,-0.125366448691,-1.56070107013,0.0666106111246,1.967897628,0.128980196828,-0.136955906594,-0.710360719154,-0.0118725932205,-1.04133204796,-0.0796053615857,0.387369102593,-0.168555264363,0.57368574365,0.819058870321,0.00282513390257,0.0,0.819026749326,-0.573623638917,-0.0114826680406,0.0,-0.00778456740103,0.00890147457156,-0.999930079686,0.0,0.635656226414,0.227040540511,0.303916111699,1.0,-0.15368,-0.201979428571,1.192
0.441693808114,0.402933737095,-0.125483509721,-1.57959636063,0.0653387992304,1.9743501275,0.125795640402,-0.154485433287,-0.761846578892,-0.00264718289295,-1.14024708157,-0.0788723007268,0.373269962382,-0.19757258674,0.573663837242,0.819074191068,0.0028316546248,0.0,0.819041558704,-0.573601033682,-0.0115553526959,0.0,-0.00784060209801,0.00894830306841,-0.999929223911,0.0,0.632963517953,0.223557463208,0.303901334579,1.0,-0.16558,-0.217619428571,1.209
0.439037813856,0.390395102291,-0.125639341549,-1.59816492032,0.0640026950392,1.9807735466,0.12260963475,-0.166743801398,-0.798068285986,-0.00859966403463,-1.19160703821,-0.0882309605113,0.397923605635,-0.19915075292,0.573702041455,0.819046395238,0.00311720680831,0.0,0.819017824727,-0.573638787187,-0.0113618447494,0.0,-0.00751787199467,0.00907153612199,-0.999930592008,0.0,0.630326734475,0.220021914226,0.304058723957,1.0,-0.17678,-0.232339428571,1.225
0.435980361556,0.376440199057,-0.125780761082,-1.61904980415,0.0624315426811,1.98767944938,0.11887523705,-0.182635737019,-0.873519140712,-0.00895798832104,-1.2516213825,-0.0911131191633,0.413135416851,-0.224963653744,0.573596740317,0.819120444898,0.00303696385215,0.0,0.819090924289,-0.573533837102,-0.0113904498461,0.0,-0.00758849491629,0.00902124811812,-0.999930513499,0.0,0.627228749924,0.21601109861,0.304062492812,1.0,-0.18868,-0.247979428571,1.242
0.432330732451,0.360876501307,-0.125968741031,-1.64214339545,0.0606843548981,1.99533990175,0.114764132458,-0.21172405451,-0.902582678306,-0.0141576913953,-1.29940480544,-0.111446650074,0.44683464009,-0.238166165501,0.573695517066,0.819051098634,0.00308195166473,0.0,0.819022347091,-0.573632694984,-0.0113434171447,0.0,-0.00752307487789,0.00903202874473,-0.999930910514,0.0,0.623782637625,0.211419570766,0.304099837652,1.0,-0.20128,-0.264539428571,1.26
0.429213361473,0.348388047429,-0.126135347699,-1.66089858132,0.0592845845674,2.00130457114,0.111239948923,-0.226208810884,-0.89707110049,-0.0150726045875,-1.34473325666,-0.0956711206793,0.422346875507,-0.252417824236,0.57373445722,0.819024811955,0.00280658191867,0.0,0.818991875711,-0.573671750794,-0.0115661904991,0.0,-0.00786309162444,0.00893466183797,-0.999929169295,0.0,0.620889028905,0.207597391568,0.303964458321,1.0,-0.21108,-0.277419428571,1.274
0.425135256645,0.332401756084,-0.126308541359,-1.68431309482,0.0574749975331,2.00889805817,0.106792405295,-0.242940974553,-0.941222474302,-0.00591525506363,-1.400354469,-0.11335486267,0.437525422406,-0.269606459898,0.57380840381,0.818972672104,0.00290257894662,0.0,0.818940818281,-0.573745190895,-0.011538586568,0.0,-0.00778459623965,0.00899815156075,-0.99992921416,0.0,0.617258172893,0.202769032862,0.304007169328,1.0,-0.22298,-0.293059428571,1.291
0.420307346757,0.313791404623,-0.126470978042,-1.71132475249,0.0552360702537,2.01746254793,0.101450621815,-0.266814064641,-0.960252321586,-0.00599724407583,-1.45152584858,-0.114506514451,0.444309273291,-0.291835356469,0.573681559355,0.819061380366,0.00294457963682,0.0,0.819030408038,-0.573618622218,-0.0114723082109,0.0,-0.00770760728023,0.00899332507464,-0.999929853987,0.0,0.612930114729,0.197164193835,0.30406392097,1.0,-0.23628,-0.310539428571,1.31
0.415873361095,0.29749586296,-0.126619777836,-1.73478472422,0.0532619875928,2.02481318447,0.096580709017,-0.290218340616,-1.02066221491,-0.0180713366589,-1.49004621328,-0.12602132145,0.461425578614,-0.315120106998,0.573524120077,0.819171338036,0.00302481918964,0.0,0.819141623653,-0.573461218354,-0.0114008045583,0.0,-0.0076047422418,0.00901656530156,-0.999930432303,0.0,0.60909528361,0.192184183155,0.304116199227,1.0,-0.24748,-0.325259428571,1.326
0.410431585208,0.27854934688,-0.126817503235,-1.76181635788,0.0510480544472,2.03308069438,0.0908740128262,-0.313117806098,-1.06150598637,-0.0182363582329,-1.52835355054,-0.12962116726,0.46485302297,-0.338722899242,0.573520260978,0.819173549723,0.00315477150968,0.0,0.819144875566,-0.573456208683,-0.0114191268458,0.0,-0.00754526863362,0.00913349137249,-0.999929821666,0.0,0.604576011377,0.186287891108,0.304179329064,1.0,-0.26008,-0.341819428571,1.344
0.405160171152,0.261134903836,-0.127024465724,-1.78642940246,0.0489000947669,2.04044942368,0.0854897938933,-0.33897417571,-1.09033529873,-0.0214946503202,-1.5700975036,-0.151765913502,0.473763585115,-0.34637519749,0.573538619468,0.819160404117,0.00322973778808,0.0,0.81913272473,-0.573474378293,-0.011378208102,0.0,-0.00746854946966,0.00917160226314,-0.999930048794,0.0,0.600378958137,0.180747802836,0.304241332194,1.0,-0.27128,-0.356539428571,1.36
0.399071072219,0.242155207015,-0.12727162041,-1.81318944994,0.0464790612994,2.04822782919,0.079462520533,-0.368041650389,-1.14068548094,-0.0222198502236,-1.59700770344,-0.147629261461,0.451623183485,-0.367186480338,0.573633525494,0.819094289712,0.00314163830877,0.0,0.819065472163,-0.573569529278,-0.0114234099704,0.0,-0.00755504732798,0.00912623410753,-0.999929814092,0.0,0.595705801498,0.174545858312,0.304223969268,1.0,-0.28318,-0.372179428571,1.377
0.392670967518,0.222588474354,-0.127449628466,-1.84042681096,0.0440493461433,2.05600442597,0.0730074066165,-0.39519788964,-1.16591807473,-0.0100403583484,-1.62910146121,-0.158655445273,0.443981100174,-0.388460906815,0.573521691838,0.819172336132,0.00320930029643,0.0,0.819143594395,-0.573456537584,-0.0114942665638,0.0,-0.00757553680965,0.00922126652435,-0.999928787207,0.0,0.590803109373,0.168240526154,0.304243506896,1.0,-0.29508,-0.387819428571,1.394
0.386146658502,0.203663227674,-0.127685955736,-1.86651684228,0.0415417100743,2.06322728238,0.0666052931328,-0.421186795894,-1.18454302114,-0.0229805537211,-1.63345448165,-0.15823607479,0.438305169623,-0.406594057017,0.573476425793,0.819204183854,0.00316877222188,0.0,0.819174989409,-0.573411488696,-0.0115042713729,0.0,-0.00760748331142,0.00919338438072,-0.999928801406,0.0,0.586010607013,0.161981102622,0.304254375869,1.0,-0.30628,-0.402539428571,1.41
0.378179339037,0.181784913322,-0.128035533894,-1.89625634336,0.0386822621046,2.0711727158,0.0589058077944,-0.463913721942,-1.21029105461,-0.0308678404573,-1.66766741142,-0.165136930669,0.429052297424,-0.442116539174,0.573516034778,0.81917639334,0.00318454839244,0.0,0.819146939269,-0.573450482653,-0.0115577996137,0.0,-0.007641842919,0.00923737432193,-0.999928133994,0.0,0.580426069032,0.154590957401,0.304302939152,1.0,-0.31888,-0.419099428571,1.428
0.371545890506,0.164416071303,-0.128353065964,-1.91969430475,0.0363608421895,2.07730598514,0.052654538515,-0.480829385422,-1.23537275034,-0.022376904938,-1.68066856316,-0.175777213844,0.422331036126,-0.461388311386,0.573636266503,0.819092196636,0.00318654412764,0.0,0.81906251745,-0.573570388806,-0.0115908798273,0.0,-0.00766643946714,0.00925910615124,-0.999927744719,0.0,0.575935603376,0.148614729581,0.304309304048,1.0,-0.32868,-0.431979428571,1.442
0.362567366709,0.141618531431,-0.128668245746,-1.94998184468,0.0331568933257,2.08499663873,0.0441428378942,-0.515172009695,-1.25512150941,-0.0219853935372,-1.66343690466,-0.180095833383,0.406415354299,-0.488812110525,0.573531790521,0.819165182803,0.00323039421409,0.0,0.819136540997,-0.573466359533,-0.0115068930707,0.0,-0.00757366957257,0.00924588094063,-0.999928574057,0.0,0.569975106306,0.140806979972,0.304373287974,1.0,-0.34128,-0.448539428571,1.46
0.353952583276,0.120828505819,-0.129021232973,-1.97721515894,0.0303224426251,2.09166617983,0.036105909981,-0.54894911669,-1.30368792567,-0.0291460851699,-1.68872752441,-0.177946758632,0.40389958093,-0.502932345217,0.573565890131,0.819140697576,0.00338144261581,0.0,0.819113638909,-0.573499538959,-0.0114835651363,0.0,-0.0074675435486,0.00935654716761,-0.999928342842,0.0,0.564490485241,0.133571003641,0.30444935332,1.0,-0.35248,-0.463259428571,1.476
0.344113445269,0.0982689440826,-0.129474072357,-2.00639350934,0.027039040494,2.09855784561,0.0270474012407,-0.589802627345,-1.33091736367,-0.0207852987788,-1.68844275925,-0.191558471596,0.413961179689,-0.548736743204,0.573612211775,0.819107866049,0.00347579914929,0.0,0.819082781127,-0.573546541014,-0.0113362186812,0.0,-0.00729219371104,0.00934974071623,-0.999929700659,0.0,0.558487013806,0.125545285517,0.304529853709,1.0,-0.36438,-0.478899428571,1.493
0.332481491018,0.0725977844484,-0.12988268578,-2.03928031118,0.0233631052245,2.10588936686,0.0162841848088,-0.621901176088,-1.34882965497,-0.0207607172073,-1.71783693077,-0.210735435046,0.408126565642,-0.570472624988,0.573479367014,0.819200653749,0.00352865511271,0.0,0.819175659907,-0.573412807431,-0.011390232299,0.0,-0.00730765040595,0.00942283300823,-0.999928901704,0.0,0.551464412168,0.116448244678,0.304537657069,1.0,-0.36998,-0.486259428571,1.512
0.322653500092,0.05251829068,-0.130303151236,-2.06472995398,0.0203626482732,2.11118556909,0.00753414624836,-0.665546337506,-1.36172082953,-0.0256177787029,-1.69892269785,-0.205005903925,0.355480613116,-0.58590863254,0.573651796159,0.819080425527,0.003408838936,0.0,0.819053550267,-0.573585136842,-0.0114943242711,0.0,-0.00745966028908,0.00938594210502,-0.999928126197,0.0,0.545901196787,0.109024915266,0.304493846948,1.0,-0.36998,-0.486259428571,1.527
0.310447040752,0.0285619425795,-0.130699768251,-2.09448995188,0.0168026148917,2.11698345037,-0.00320922343389,-0.687058059135,-1.33462306293,-0.0262566190058,-1.65202679758,-0.203267235745,0.31492349356,-0.59613049105,0.573832912493,0.818953660898,0.00338182543481,0.0,0.818925649344,-0.573765327057,-0.0116136650195,0.0,-0.00757082506932,0.00943394844574,-0.999926838936,0.0,0.539200447582,0.100188564553,0.304512424686,1.0,-0.36998,-0.486259428571,1.545
0.29847282299,0.00625861776821,-0.13112169764,-2.12169290327,0.0133581908961,2.12206528389,-0.0137410524407,-0.712806622931,-1.30974645913,-0.0318844933293,-1.57829207717,-0.198432342173,0.26782807941,-0.622391388614,0.573969094386,0.818857941333,0.00344927636889,0.0,0.818831129157,-0.57390168922,-0.0115403611208,0.0,-0.00747051464546,0.00944836739565,-0.999927457251,0.0,0.532944906301,0.0918124401288,0.304574629109,1.0,-0.36998,-0.486259428571,1.562
0.287605592127,-0.0132441463857,-0.1314092793,-2.14504775592,0.010444751504,2.12621090405,-0.0233319553433,-0.723874676128,-1.31672298744,-0.0129317830338,-1.57153627695,-0.187769152525,0.268462362757,-0.648708975566,0.574011143902,0.818827421349,0.00368885141855,0.0,0.818803514084,-0.573942773865,-0.0114562015256,0.0,-0.007263602185,0.00959661661156,-0.999927569893,0.0,0.527437334587,0.0845158692607,0.304674856162,1.0,-0.36998,-0.486259428571,1.577
0.274921217271,-0.0350184117626,-0.131753263155,-2.17090758434,0.00697843682411,2.13038270252,-0.034459364386,-0.760939084728,-1.282506831,-0.0251671220131,-1.51509012106,-0.203214717588,0.240492320515,-0.654434503421,0.574021619022,0.818820087311,0.00368678882626,0.0,0.818796378625,-0.573953551156,-0.0114262140392,0.0,-0.00724010743256,0.00957780762427,-0.999927920625,0.0,0.521155967357,0.0762286293622,0.304705494338,1.0,-0.36998,-0.486259428571,1.594
0.260245986854,-0.0590722779908,-0.1321476491,-2.19900847195,0.00325614636472,2.13450995216,-0.0473376658577,-0.770891419461,-1.25942627673,-0.013738282599,-1.47817101598,-0.195451320484,0.206580489632,-0.682700611669,0.574071065469,0.81878501645,0.0037756494266,0.0,0.818761743251,-0.574001788111,-0.0114848567531,0.0,-0.0072365384292,0.00968466771933,-0.999926917191,0.0,0.514125249051,0.0669914913577,0.304737903105,1.0,-0.36998,-0.486259428571,1.613
0.247501134361,-0.079117762217,-0.132452554465,-2.22202937014,7.14485149738e-05,2.13757708138,-0.0585801840574,-0.810556738517,-1.25026468049,-0.0258787430539,-1.43484178773,-0.198929655281,0.18208632976,-0.70850555983,0.573995652781,0.818837578455,0.00384156210138,0.0,0.818814989045,-0.57392596951,-0.0114778978173,0.0,-0.00719390030586,0.00973397948941,-0.999926746038,0.0,0.508199725093,0.05924387829,0.304774396079,1.0,-0.36998,-0.486259428571,1.629
0.233569715149,-0.100070002358,-0.132775886025,-2.24585245569,-0.00334068254165,2.14042886237,-0.0708785185258,-0.839341496378,-1.25336408948,-0.0188294393747,-1.40401670461,-0.217813633452,0.172703657569,-0.731680794414,0.573873347674,0.818923458836,0.00380740034256,0.0,0.818900230561,-0.57380351563,-0.0115188862284,0.0,-0.00724852600674,0.00972845012256,-0.999926405356,0.0,0.501896432089,0.0510328877603,0.304754821534,1.0,-0.36998,-0.486259428571,1.646
0.219171140076,-0.120717437322,-0.133130839004,-2.26897941295,-0.00670396613416,2.14279894439,-0.0834943677914,-0.864387754709,-1.2338475953,-0.0354063066022,-1.34401540042,-0.193273850501,0.146884501511,-0.755155986642,0.573864256707,0.818930133743,0.0037413663833,0.0,0.818905380456,-0.573793735405,-0.0116393286513,0.0,-0.00738516656382,0.00974340733736,-0.999925259871,0.0,0.495592352135,0.0428083878665,0.304719662763,1.0,-0.36998,-0.486259428571,1.663
0.204312860814,-0.141086548122,-0.13344538854,-2.29154393375,-0.0100228375842,2.1447000432,-0.096598054278,-0.883984234286,-1.20901655107,-0.0171642841736,-1.30856148483,-0.186968818855,0.103621044066,-0.773555786033,0.573765440091,0.819000089709,0.00358046285411,0.0,0.818971755174,-0.573693544258,-0.0119049739927,0.0,-0.00769623451949,0.00976314856101,-0.999922721466,0.0,0.489240141609,0.0346104275306,0.304628242747,1.0,-0.36998,-0.486259428571,1.68
0.189807945231,-0.160112084543,-0.133907500984,-2.31223321895,-0.0132540746147,2.14628038908,-0.109353742118,-0.923582399439,-1.16652082423,-0.0288717392574,-1.29446564315,-0.201725641057,0.0803500647782,-0.797259407807,0.573793815584,0.818980526642,0.00350728941288,0.0,0.818951057708,-0.573721951615,-0.0119596912826,0.0,-0.00778269517926,0.00973488269527,-0.999922327841,0.0,0.483288268549,0.0267631178972,0.304579756289,1.0,-0.36998,-0.486259428571,1.696
0.174066553811,-0.180113563407,-0.134267472652,-2.33343267168,-0.0164528984984,2.14748302648,-0.123293651169,-0.937429386288,-1.15689427424,-0.0244569916136,-1.24634660533,-0.186342860177,0.0651473663375,-0.8309222572,0.573734950254,0.819021266505,0.00362198433512,0.0,0.818992314409,-0.573661436902,-0.0120370948068,0.0,-0.0077809937038,0.00987266940301,-0.999920990147,0.0,0.476988402245,0.0185860613305,0.304614955193,1.0,-0.36998,-0.486259428571,1.713
0.157672002904,-0.199818717412,-0.134809489925,-2.35393994675,-0.0197811732258,2.14840343211,-0.137734306476,-0.958007997887,-1.12807981827,-0.0223962190107,-1.20746167642,-0.177495785205,0.0431826803526,-0.85092132508,0.573850037786,0.818940140093,0.00373202075613,0.0,0.818912928439,-0.573776494117,-0.0119539673463,0.0,-0.00764838516294,0.00991617557688,-0.999921582759,0.0,0.470728827727,0.0102309662156,0.304669656225,1.0,-0.36998,-0.486259428571,1.73
0.14082966216,-0.219238796537,-0.135340302291,-2.37379190839,-0.0229821373324,2.14891980333,-0.152636662529,-1.01211694022,-1.13984165655,-0.0371922563328,-1.14463338165,-0.196638157119,0.0428902098912,-0.871244852976,0.573965605534,0.818858409168,0.00389053987316,0.0,0.8188329329,-0.573891042729,-0.0119350733522,0.0,-0.00754053437258,0.0100362170069,-0.99992120424,0.0,0.464458109565,0.00192106639657,0.30472962836,1.0,-0.36998,-0.486259428571,1.747
0.123638987531,-0.238259545634,-0.135780355778,-2.39310916089,-0.0262294671268,2.14905286385,-0.167956250211,-1.01322209276,-1.11809046905,-0.0262120073817,-1.11867971248,-0.186510512812,0.00587329484662,-0.908858117633,0.573899781298,0.818904675203,0.00386275252864,0.0,0.818878187747,-0.573824469913,-0.0120307215789,0.0,-0.00763561923423,0.0100677461087,-0.999920165717,0.0,0.457771658159,-0.00676964474914,0.304705485322,1.0,-0.36998,-0.486259428571,1.765
0.105779103672,-0.256984669293,-0.136323198545,-2.41164256244,-0.0293639440801,2.14905433756,-0.183913067602,-1.04489778297,-1.09032626467,-0.0279408667798,-1.07787502847,-0.187332524196,-0.00535184053118,-0.949143958628,0.573962664746,0.818859668499,0.00405582110908,0.0,0.818836067605,-0.573887144634,-0.0119074142738,0.0,-0.00742306062637,0.0101556593626,-0.999920877247,0.0,0.451899296092,-0.0145941138419,0.304755885923,1.0,-0.36998,-0.486259428571,1.781
0.087548501959,-0.275391255397,-0.136823513868,-2.42952213052,-0.0325050740456,2.14881412448,-0.200284018703,-1.09114946966,-1.07356779639,-0.0339250795973,-1.04348581493,-0.183058392155,-0.0256372969913,-0.979838820058,0.5739324811,0.818879637746,0.00428869719973,0.0,0.818860297285,-0.573857931233,-0.0116462522843,0.0,-0.00707591218216,0.0101962026415,-0.999922981493,0.0,0.445680287584,-0.022828035711,0.304836640069,1.0,-0.36998,-0.486259428571,1.798
0.065442233867,-0.296430103595,-0.137396570111,-2.44976451151,-0.0360589958566,2.14788325462,-0.220298268999,-1.12796635571,-1.03950246675,-0.0368767930182,-0.979195492454,-0.176735770835,-0.0456873938122,-1.01427208622,0.57384367628,0.8189415865,0.00434280962112,0.0,0.818922138199,-0.573767800491,-0.0117383809794,0.0,-0.00712142112735,0.0102926168003,-0.999921670633,0.0,0.438285763949,-0.0324923016076,0.304826493621,1.0,-0.36998,-0.486259428571,1.818
0.0506280157346,-0.30983724562,-0.13784514686,-2.46249835648,-0.038419785297,2.14713824678,-0.233656674012,-1.13636268462,-1.01739477948,-0.032945241566,-0.964103289263,-0.168415599909,-0.0624897050098,-1.03305245405,0.573887768688,0.81891066675,0.00434692251033,0.0,0.818891161221,-0.573811712706,-0.0117529288312,0.0,-0.00713042101743,0.0103047169224,-0.99992148187,0.0,0.433464226903,-0.0388383678563,0.304805988962,1.0,-0.36998,-0.486259428571,1.831
0.0308039174776,-0.327136245942,-0.138440048614,-2.47843689327,-0.0413157395017,2.14594726727,-0.251603886382,-1.16820453276,-1.01597541807,-0.0347531399318,-0.922913849481,-0.184013626463,-0.0692814636819,-1.0707303334,0.574008559152,0.818824607393,0.00460252628491,0.0,0.81880878817,-0.573932231063,-0.0116064406067,0.0,-0.00686223311302,0.0104309860482,-0.999922049105,0.0,0.427207479264,-0.0471212914817,0.304896455628,1.0,-0.36998,-0.486259428571,1.848
0.00927156453215,-0.344803787437,-0.139045611119,-2.49473034196,-0.0444437161519,2.14437203192,-0.271261820931,-1.22247924276,-0.97152668705,-0.0452181073973,-0.902004791124,-0.179321504105,-0.0952709356614,-1.09924974689,0.573984050039,0.818841961569,0.0045715616168,0.0,0.818825194752,-0.573906996144,-0.0116964574965,0.0,-0.00695403289136,0.0104570912076,-0.999921142226,0.0,0.420512015954,-0.0558739608946,0.304851848162,1.0,-0.36998,-0.486259428571,1.866
-0.0102819945776,-0.360080632113,-0.139504439616,-2.50830584175,-0.0470704617694,2.14280161651,-0.289270913911,-1.22718205912,-0.945098347829,-0.0259872030475,-0.829398479213,-0.164390867418,-0.104990223101,-1.1269342894,0.573876258978,0.81891657849,0.00473537305326,0.0,0.818902751783,-0.573799979709,-0.0115157851836,0.0,-0.00671343969378,0.0104866476448,-0.999922476969,0.0,0.414669489546,-0.0635966940625,0.304948329945,1.0,-0.36998,-0.486259428571,1.882
-0.0315710253107,-0.375746427442,-0.140104683142,-2.52236039451,-0.0498764732214,2.14091113185,-0.308966977588,-1.25237692801,-0.910628819758,-0.0405515500462,-0.818576728106,-0.156420664805,-0.120873631461,-1.17327405757,0.573792197546,0.81897578974,0.0046815336161,0.0,0.818960351809,-0.573714680219,-0.0116685374818,0.0,-0.00687051741653,0.0105295089068,-0.999920959593,0.0,0.408339897537,-0.0718375808704,0.304882834968,1.0,-0.36998,-0.486259428571,1.899
-0.0495295131528,-0.388331925487,-0.140573969072,-2.53316273292,-0.0521009622848,2.13930542719,-0.325541584529,-1.28492348748,-0.893319184726,-0.0247240872623,-0.776328154673,-0.160371966824,-0.108066788582,-1.20903456852,0.573813611808,0.818959875868,0.00483813212277,0.0,0.818947672769,-0.573737518776,-0.0114330974064,0.0,-0.00658755694399,0.0105228465568,-0.999922933927,0.0,0.403230037461,-0.0786494997432,0.304987596566,1.0,-0.36998,-0.486259428571,1.913
-0.0717943968205,-0.402996924719,-0.141154272624,-2.5459804736,-0.0546183030125,2.13712875292,-0.346229911147,-1.32402029381,-0.877120115521,-0.0417027521147,-0.73920079271,-0.16647905756,-0.143906087629,-1.24241151685,0.57383830279,0.818942364334,0.00487371028803,0.0,0.818928979462,-0.573759490576,-0.0116670678486,0.0,-0.00675844871776,0.0106864387522,-0.999920058504,0.0,0.396886586136,-0.0868753446491,0.304915191866,1.0,-0.36998,-0.486259428571,1.93
-0.0971811864683,-0.418780578278,-0.141804716094,-2.55911589099,-0.0574431890412,2.13468241223,-0.370037742835,-1.35939916406,-0.815523753402,-0.05219793029,-0.677762547236,-0.147472778711,-0.129991294246,-1.25226592826,0.573739733416,0.819010231415,0.00507011225092,0.0,0.819000953926,-0.573662909507,-0.0113600451229,0.0,-0.00639558097439,0.0106703414676,-0.999922617184,0.0,0.389948418116,-0.0960874807133,0.305050550469,1.0,-0.36998,-0.486259428571,1.949
-0.119070372179,-0.431283116444,-0.14232188243,-2.56978128903,-0.0596764267019,2.13236329592,-0.390638694915,-1.37844136611,-0.767691357726,-0.0423121748436,-0.650256671008,-0.132731212194,-0.151044951938,-1.30060023257,0.573667189276,0.819061470286,0.00500107419434,0.0,0.819049220737,-0.573587175674,-0.0116992654841,0.0,-0.00671399483142,0.0108078187526,-0.999919053387,0.0,0.383964743499,-0.103803834246,0.30495140713,1.0,-0.36998,-0.486259428571,1.965
-0.142792762612,-0.443999180868,-0.142893638851,-2.58015198617,-0.0619949658026,2.13001936921,-0.412979162343,-1.4114947954,-0.748760315738,-0.0345398490358,-0.585669853034,-0.13357056638,-0.127745559796,-1.33437153141,0.573671274608,0.819057949159,0.00510798489075,0.0,0.819047691342,-0.573591913701,-0.0115733636585,0.0,-0.00654948277219,0.0108231978937,-0.99991997813,0.0,0.377727190112,-0.112054079555,0.305016502003,1.0,-0.36998,-0.486259428571,1.982
-0.167002572919,-0.455909109928,-0.143492708874,-2.58993842462,-0.0642141022364,2.12767979685,-0.435940094462,-1.43231451507,-0.682304956888,-0.030277650056,-0.568170649219,-0.118299282013,-0.15025875139,-1.38123957203,0.573646819761,0.819074856018,0.00514327907053,0.0,0.81906450329,-0.573566440883,-0.0116457823027,0.0,-0.00658888204821,0.0108934530315,-0.999918956373,0.0,0.371437275414,-0.120309304267,0.304984579329,1.0,-0.36998,-0.486259428571,1.999
-0.190077797824,-0.466316448116,-0.14393160927,-2.59846752221,-0.0661100781894,2.12543627237,-0.457930328454,-1.4343084979,-0.630761731454,-0.0252426466822,-0.515479251317,-0.10510902749,-0.137266183427,-1.38463020933,0.573566962509,0.819130774711,0.00514396156563,0.0,0.819118965145,-0.573484191028,-0.0118638308437,0.0,-0.00676817862135,0.0110184300341,-0.999916389484,0.0,0.365537774248,-0.127984065427,0.304915925681,1.0,-0.36018,-0.473379428572,2.015
-0.214629990044,-0.476377066048,-0.144206655782,-2.60638608357,-0.0678542521568,2.12329408068,-0.481089502621,-1.44037912328,-0.56796364089,-0.0264801989036,-0.439523629198,-0.0961003750059,-0.125428425879,-1.36556936198,0.57370862846,0.819030693443,0.00528012597899,0.0,0.819021329934,-0.573626483739,-0.0117245540156,0.0,-0.00657407607802,0.0110512263755,-0.999917322542,0.0,0.359520544662,-0.136001679822,0.304971993033,1.0,-0.34828,-0.457739428572,2.032
-0.238855489699,-0.485446492471,-0.144301121355,-2.61354009611,-0.069341343979,2.12117370058,-0.504063067568,-1.42314759038,-0.512596481516,-0.00010663829576,-0.408041154,-0.0851849408611,-0.121981984311,-1.32884676066,0.573751605421,0.819000027249,0.00536633443979,0.0,0.818991286192,-0.573668321054,-0.0117761395431,0.0,-0.00656628895984,0.0111517748197,-0.999916257377,0.0,0.353634795644,-0.143709419489,0.304976736953,1.0,-0.33638,-0.442099428572,2.049
-0.264110906137,-0.493902977446,-0.144221999476,-2.62024715957,-0.070674023539,2.11907801772,-0.528056751542,-1.39337362021,-0.44086165189,0.0127359737126,-0.349584003439,-0.0691512643218,-0.105594111414,-1.33532184402,0.573796723636,0.818968023858,0.00542611690059,0.0,0.818959036479,-0.573711479142,-0.0119156272091,0.0,-0.00664562006424,0.0112811325182,-0.999914282218,0.0,0.347268961075,-0.152011013385,0.304943108909,1.0,-0.32308,-0.424619428572,2.068
-0.286074466996,-0.500555580617,-0.144081599629,-2.62534543885,-0.0715966117554,2.11748916779,-0.548982312627,-1.34943105982,-0.390554649759,0.0291664441212,-0.303932131369,-0.0685668287521,-0.109043670953,-1.31722726415,0.573818019512,0.818952035574,0.00558487361652,0.0,0.818945295586,-0.573732501643,-0.0118476282937,0.0,-0.0064985409135,0.0113723075302,-0.999914216114,0.0,0.342474453008,-0.158317988518,0.304977487661,1.0,-0.31258,-0.410819428572,2.083
-0.308868134033,-0.506623601589,-0.143909183689,-2.62993620606,-0.0723880171914,2.11598217186,-0.570675806692,-1.33240566613,-0.34593833324,0.0141493511034,-0.252832342601,-0.0500467687111,-0.0826323982456,-1.27664174,0.573983087529,0.818834929259,0.00578971122893,0.0,0.818831225999,-0.573897471477,-0.0117414846706,0.0,-0.00629175827065,0.0114804310011,-0.999914303069,0.0,0.337256663867,-0.165261386779,0.305026760405,1.0,-0.30068,-0.395179428572,2.1
-0.329788728866,-0.511621302863,-0.143595610769,-2.63366375041,-0.0730182025462,2.11471772726,-0.590689252784,-1.30542994964,-0.298124874267,0.0115556542177,-0.227257329763,-0.0325678050138,-0.0859919544764,-1.26104437273,0.574008593384,0.818816124193,0.0059191539887,0.0,0.818814862098,-0.573923940937,-0.0115878611973,0.0,-0.0060913006855,0.0114984445439,-0.999915337331,0.0,0.332526571281,-0.171536498804,0.305085978363,1.0,-0.28948,-0.380459428572,2.116
-0.351345412679,-0.516020002114,-0.143130258367,-2.63717137906,-0.0736370867873,2.113416548,-0.611348161218,-1.24945330931,-0.241569409839,0.0297785291868,-0.196177648026,-0.0339087952599,-0.0714999177453,-1.20585892655,0.573938011746,0.818866071658,0.00585339745116,0.0,0.818862674748,-0.573851220944,-0.011808599662,0.0,-0.0063108038455,0.0115707556776,-0.999913141912,0.0,0.327634306547,-0.177885534432,0.305017725322,1.0,-0.27758,-0.364819428572,2.133
-0.373417124554,-0.519844970981,-0.142648802823,-2.64024707606,-0.0740701521958,2.11233799342,-0.63252487018,-1.20478249284,-0.192862956273,0.0301120219303,-0.15759904027,-0.01578841355,-0.0471854621454,-1.15115471014,0.57395988667,0.818850430652,0.00589640701178,0.0,0.818846540561,-0.573871001166,-0.0119651131523,0.0,-0.0064139845515,0.0116959726559,-0.999911028555,0.0,0.322693098641,-0.184343210246,0.304948788611,1.0,-0.26498,-0.348259428572,2.151
-0.390025352123,-0.522286002901,-0.14219787314,-2.64215658904,-0.0743625992549,2.11159562104,-0.648489715792,-1.16504685588,-0.167791841144,0.0407568133747,-0.129303973672,-0.0222488523142,-0.0501156023455,-1.13362514223,0.573927381471,0.818873401305,0.00587029251649,0.0,0.818868753188,-0.573837850156,-0.0120346866265,0.0,-0.00648641361756,0.011714260832,-0.999910347247,0.0,0.319024699103,-0.189171512632,0.304925964975,1.0,-0.25518,-0.335379428572,2.165
-0.411757729314,-0.525001691349,-0.141577221624,-2.6442554097,-0.0745350452562,2.11075833158,-0.669406045345,-1.13376023097,-0.1225094402,0.0282225497557,-0.0991427903996,-0.0104503854297,-0.0439318446846,-1.08504809686,0.573956416771,0.81885245706,0.00595248814097,0.0,0.818848437081,-0.573865731915,-0.0120874200829,0.0,-0.00648200946947,0.0118120653487,-0.999909225213,0.0,0.314259242586,-0.195439938859,0.304912467887,1.0,-0.24188,-0.317899428572,2.184
-0.429216965749,-0.526770347032,-0.140917652146,-2.64565282308,-0.0746363404572,2.11021595356,-0.686287273342,-1.07405887767,-0.0973708624924,0.0421266432436,-0.0786200422886,-0.00606302376293,-0.0316078122602,-1.04335478726,0.573836548591,0.818936642339,0.00592775145603,0.0,0.818932182933,-0.573745781531,-0.0121080482912,0.0,-0.0065148274516,0.0118026943198,-0.999909122586,0.0,0.310464479796,-0.200414809234,0.304895707263,1.0,-0.23068,-0.303179428572,2.2
-0.446093767723,-0.528156314905,-0.140373606022,-2.64672679332,-0.0746517058379,2.10975519269,-0.702504819938,-1.03985616868,-0.0704270543537,0.0400427369779,-0.060861988439,0.00536504584995,-0.0232977492944,-0.983496636563,0.573883982588,0.818903081736,0.00597194718622,0.0,0.818899146964,-0.573792922282,-0.0121085235067,0.0,-0.00648917112387,0.0118395380976,-0.999908853844,0.0,0.307018441465,-0.204930555484,0.304894682781,1.0,-0.22018,-0.289379428572,2.215
-0.46217809702,-0.529159914191,-0.139814270271,-2.64749104357,-0.0746558881735,2.10941239175,-0.717975189804,-1.00259768593,-0.0545320940979,0.0338268281215,-0.0365172705855,-0.000600503087982,-0.0200469825271,-0.952814150366,0.573981724665,0.818834424621,0.0059926376932,0.0,0.818830789039,-0.573890608804,-0.0121018572879,0.0,-0.00647042343077,0.0118534293837,-0.999908810758,0.0,0.303305541463,-0.20980980007,0.304893855577,1.0,-0.20828,-0.273739428572,2.232
-0.478414504455,-0.529877503562,-0.139065777168,-2.64801564555,-0.0746019832184,2.10914331051,-0.73366289591,-0.940369016642,-0.0353527537088,0.0449187283512,-0.022931035337,0.0117933317532,-0.0120334561836,-0.906590010127,0.573894592326,0.818895968141,0.00592766075391,0.0,0.81889195886,-0.573804633564,-0.0120394816032,0.0,-0.00645788807096,0.011763733601,-0.999909951072,0.0,0.299827696497,-0.21437993026,0.304914126584,1.0,-0.19638,-0.258099428572,2.249
-0.493875977129,-0.530216610229,-0.138415579963,-2.64824291689,-0.0744813402576,2.10895012665,-0.748521146404,-0.8967310585,-0.0141846518068,0.0458295172351,-0.00629028684651,0.00583751138751,-0.00668480625282,-0.85622102626,0.573967722672,0.818844801,0.00591541268765,0.0,0.81884091881,-0.573878321869,-0.0119986779126,0.0,-0.00643045172734,0.0117308616523,-0.999910514084,0.0,0.296519419212,-0.218749485065,0.304935256584,1.0,-0.18448,-0.242459428572,2.266
-0.510746368472,-0.530310252322,-0.137503219414,-2.64831703831,-0.0741910021395,2.10883685009,-0.764871789062,-0.836192079108,0.0036341928151,0.0384494392224,0.000140140161621,0.0198794157405,-0.00562275863692,-0.797015599116,0.573869268562,0.818913859538,0.00590763558651,0.0,0.818910162366,-0.573780441899,-0.0119539687614,0.0,-0.00639970815198,0.0116980633508,-0.999911095573,0.0,0.292941918241,-0.223439676636,0.304950221833,1.0,-0.17048,-0.224059428572,2.286
-0.5234884871,-0.530155814618,-0.136758579168,-2.64826593247,-0.0739090678269,2.10881950668,-0.777145269927,-0.764303424111,0.0195987188087,0.0520348207149,0.0073504030147,0.0238379365669,0.00153571100983,-0.759859136649,0.573851430079,0.818926387128,0.00590385998941,0.0,0.818922537389,-0.573762433306,-0.0119705799373,0.0,-0.00641573422919,0.0117043637641,-0.999910919144,0.0,0.290239651085,-0.226952922055,0.304935295717,1.0,-0.15928,-0.209339428572,2.302
-0.534595566626,-0.529898810468,-0.136061905645,-2.64814305546,-0.0735881268423,2.10882321506,-0.787868984835,-0.733046225971,0.0204781323408,0.0429006420692,0.00755053581457,0.0164466259537,0.00377368891227,-0.701774429267,0.573818330662,0.818949394342,0.00592957023803,0.0,0.818945589605,-0.573728707309,-0.0120099366517,0.0,-0.00643368954788,0.011747743376,-0.999910295059,0.0,0.287884838755,-0.229987886182,0.30491604357,1.0,-0.14878,-0.195539428572,2.317
-0.54586048151,-0.529504552141,-0.135382856534,-2.64793117825,-0.0732383688247,2.10883058357,-0.798592128654,-0.675166875099,0.0358609821648,0.049066588674,0.0160138344969,0.0204020505694,0.00658709731192,-0.648465844029,0.573944800471,0.818860421244,0.00597690825899,0.0,0.818856638193,-0.573853865205,-0.012095221253,0.0,-0.00647455071907,0.0118364482408,-0.999908985201,0.0,0.285480050589,-0.233063772428,0.30488691454,1.0,-0.13758,-0.180819428572,2.333
-0.556743770136,-0.528973960891,-0.13453205092,-2.64762715611,-0.0727882915778,2.10889366135,-0.809128294238,-0.628215705064,0.0331391966862,0.0523794447772,0.0178047528606,0.0266590875029,0.00247730912624,-0.615875650644,0.573838618974,0.818934596764,0.00600936754672,0.0,0.81893073818,-0.573746652871,-0.0121643448071,0.0,-0.00651407370981,0.0119018557735,-0.9999079521,0.0,0.283203409343,-0.235982433035,0.304858979626,1.0,-0.12568,-0.165179428572,2.35
-0.568118783909,-0.528323599883,-0.133757053762,-2.64717611359,-0.0723513935333,2.10901517121,-0.819838093458,-0.576838230627,0.0373360403117,0.0386222192086,0.0267745374058,0.0268535397351,0.00723013283808,-0.538038528359,0.574048550882,0.818787111721,0.006055890662,0.0,0.81878392289,-0.573956450046,-0.0121502250243,0.0,-0.0064727547688,0.0119335147381,-0.999907843089,0.0,0.280806571841,-0.239076714742,0.304856923326,1.0,-0.11238,-0.147699428572,2.369
-0.5760685906,-0.527717460854,-0.133003508289,-2.64674775143,-0.071934387062,2.10914459642,-0.827539483575,-0.511514286281,0.0419418115372,0.0553515278012,0.0242227394856,0.0241988093697,0.00902530649043,-0.488089762303,0.573922159666,0.818875650225,0.00606391080726,0.0,0.818872696562,-0.573830291213,-0.0121264427566,0.0,-0.00645051718529,0.011925434812,-0.999908083192,0.0,0.27919472279,-0.241194952765,0.30486057809,1.0,-0.10188,-0.133899428572,2.384
-0.583895751405,-0.527079786043,-0.132264822248,-2.64627334342,-0.0715375420297,2.10925753099,-0.834925749693,-0.47249868099,0.043775136654,0.0499393158333,0.0300758994024,0.0279363894118,0.00246646166497,-0.443702608244,0.573957431537,0.818850993634,0.00605507308983,0.0,0.818848054103,-0.573865833471,-0.0121085245954,0.0,-0.00644040182865,0.0119081917631,-0.999908353897,0.0,0.277599888543,-0.243282352006,0.30487159096,1.0,-0.0906800000001,-0.119179428572,2.4
-0.5914102053,-0.526414558042,-0.131479978603,-2.64577617456,-0.0710790244395,2.10937743478,-0.841913562568,-0.422240562543,0.0390126598346,0.0479796080647,0.0239807195717,0.0271705091697,0.00995861031135,-0.393848669127,0.574057474906,0.818780762281,0.00606842028688,0.0,0.818778120695,-0.573966027497,-0.0120886414681,0.0,-0.00641500349961,0.0119084940297,-0.999908513565,0.0,0.276086931542,-0.245261864325,0.304884410572,1.0,-0.0787800000001,-0.103539428572,2.417
-0.598538354883,-0.52564618614,-0.13054159638,-2.64524573815,-0.0705403499023,2.10952346689,-0.848700658436,-0.345795435609,0.0420879106761,0.0478876076428,0.0267176895476,0.0279173359437,0.0070521804718,-0.336100642143,0.573966021761,0.818844878275,0.00606779105232,0.0,0.818842118961,-0.573874393195,-0.0121042121578,0.0,-0.00642944600954,0.0119161988052,-0.999908329013,0.0,0.27476612361,-0.247010729071,0.304880680448,1.0,-0.0661800000001,-0.0869794285716,2.435
-0.603678852929,-0.525101314524,-0.1297182665,-2.64490251951,-0.0700932032457,2.10960717691,-0.853498036708,-0.313725010959,0.0250268361522,0.0475448032609,0.0207062106092,0.0304260737733,0.000240750102219,-0.287111306479,0.573841825459,0.818932092204,0.00604438698726,0.0,0.818928594698,-0.573749527616,-0.0121730541745,0.0,-0.00650106571064,0.0119355587667,-0.999907635025,0.0,0.273721564224,-0.248356476813,0.304864604267,1.0,-0.0542800000001,-0.0713394285716,2.452
-0.608676337919,-0.524588427441,-0.128844304677,-2.64453678415,-0.0695771247276,2.10974379434,-0.857938587263,-0.256973527276,0.0343682501382,0.0491086805659,0.0189378863733,0.0264096654129,0.00336397963273,-0.233091450442,0.573919976907,0.818877298764,0.00604785725612,0.0,0.818874142055,-0.573828190976,-0.0121282157245,0.0,-0.00646121394115,0.0119132885781,-0.999908158917,0.0,0.272800517772,-0.24957187933,0.304876325184,1.0,-0.0416800000001,-0.0547794285716,2.47
-0.612333970113,-0.524164367974,-0.128019365434,-2.644259199,-0.0690678337546,2.1098479432,-0.861215338131,-0.199415387412,0.0251973202736,0.0440025049256,0.0135918338902,0.0315310288514,0.00537029788309,-0.180658768319,0.573880802037,0.818904599821,0.0060686362568,0.0,0.8189017256,-0.573788954538,-0.0121221433627,0.0,-0.0064448865902,0.0119265116804,-0.999908106656,0.0,0.272174963296,-0.250406181392,0.304876345701,1.0,-0.0297800000001,-0.0391394285716,2.487
-0.615034992837,-0.523899241857,-0.127284595661,-2.64407566732,-0.0686229609061,2.10986709293,-0.863512321919,-0.152874425927,0.0140919676388,0.0476796439284,0.0102716275615,0.0332205576769,0.000823160691532,-0.127476021841,0.57389151485,0.818896969327,0.00608520434065,0.0,0.818894145567,-0.573799285399,-0.0121451773452,0.0,-0.00645408727891,0.0119533825735,-0.999907726444,0.0,0.271730241305,-0.250973614039,0.304882243056,1.0,-0.01994,-0.0262068571429,2.503
-0.617237425411,-0.523722783075,-0.126692320758,-2.64391426554,-0.0682475028686,2.10989810118,-0.865215728244,-0.120684307712,0.0118509383027,0.0351051569504,0.00740828250196,0.0204587837568,-0.00136704223207,-0.10011196271,0.574049622613,0.81878597038,0.00610838675637,0.0,0.818783747734,-0.573957813226,-0.0120975197464,0.0,-0.00639944634887,0.0119462544484,-0.999908162829,0.0,0.271372638122,-0.251441562013,0.304908023052,1.0,-0.0196,-0.02576,2.52
-0.61890035553,-0.5235613526,-0.126247772013,-2.64373793798,-0.0680385008458,2.10996267917,-0.866824384697,-0.0965249302207,0.0111582731537,0.0198538551846,0.0127788265893,0.00925108561982,0.00660693144822,-0.0973378978274,0.573877687442,0.818906858288,0.00605839962684,0.0,0.818904657952,-0.573787384394,-0.0119977329894,0.0,-0.00634891478969,0.0118467110225,-0.99990966928,0.0,0.271114065579,-0.251821590432,0.304945241258,1.0,-0.01928,-0.0253394285714,2.536
-0.620578352138,-0.523356435411,-0.125939439495,-2.64352145027,-0.067859095727,2.11003966606,-0.868481558649,-0.0931690758007,0.00705611120615,0.00984531366077,0.0107220174542,0.0108759785502,0.00597052047399,-0.0860904070077,0.573764135186,0.818986510942,0.00604640147185,0.0,0.818984832609,-0.57367517381,-0.0118905765627,0.0,-0.00626967210751,0.0117745241718,-0.999911021938,0.0,0.270830497048,-0.252249907966,0.304982499674,1.0,-0.01892,-0.0248662857143,2.554
-0.621919300387,-0.523168311929,-0.125796436515,-2.6433772063,-0.0677772620069,2.11004727628,-0.869793237402,-0.0936822287881,0.00992300974774,0.0088923606281,0.00581428288812,0.00193876286951,-6.62843167872e-05,-0.0871979655205,0.573729450398,0.819010825761,0.00604416533636,0.0,0.819008961693,-0.573640211255,-0.0119153513806,0.0,-0.00629174662865,0.0117866405047,-0.999910740531,0.0,0.270560222636,-0.252606503702,0.304983127136,1.0,-0.01862,-0.024472,2.569
-0.623317342857,-0.522988624785,-0.125686381613,-2.64323720237,-0.0677628540275,2.11004976025,-0.871110542445,-0.082500665974,0.0174664893016,0.0103538450806,0.00891907910904,0.000210492664311,0.000206453707716,-0.08243228054,0.573731260033,0.819009866784,0.00600218906889,0.0,0.81900731784,-0.573641930504,-0.0119455344963,0.0,-0.00634052536651,0.0117695899299,-0.999910633252,0.0,0.270260601146,-0.252990958035,0.304983641866,1.0,-0.0183,-0.0240514285714,2.585
-0.624738950176,-0.522776337235,-0.12561533858,-2.64307011041,-0.0677216693074,2.11009670845,-0.872480828148,-0.0801818695805,0.0115755361464,0.0032302820334,0.0143907418481,0.00802900160071,0.00369407261919,-0.0805095442495,0.573749383302,0.818997212918,0.00599644016782,0.0,0.818994666188,-0.573660216144,-0.0119348259397,0.0,-0.00633479198285,0.0117588779311,-0.999910795621,0.0,0.269961387416,-0.253399637542,0.304987372356,1.0,-0.01796,-0.0236045714286,2.602
-0.62609596371,-0.522547344222,-0.125580007237,-2.64291877538,-0.0676823262646,2.11016499554,-0.873883892176,-0.0765131877213,0.0121683630893,0.000210493896604,0.00955866058363,-0.000172657828254,0.00164461912956,-0.0745392732431,0.573711574633,0.819023616334,0.00600765516213,0.0,0.819021197101,-0.573622335986,-0.0119348756812,0.0,-0.00632894170474,0.0117677998094,-0.999910727708,0.0,0.269669602924,-0.253797363653,0.304978762911,1.0,-0.01762,-0.0231577142857,2.619
-0.627431729957,-0.522346700804,-0.125583678416,-2.64277686138,-0.0676497361641,2.11016665126,-0.875221675285,-0.0747319174312,0.0107842768911,0.000369610540871,0.0118539963443,0.00085909917183,-0.000361962180036,-0.0791823624114,0.573734020391,0.819007665996,0.00603852518746,0.0,0.819005309289,-0.573644020332,-0.0119828291556,0.0,-0.00635018733412,0.0118207685223,-0.999909968223,0.0,0.26936146074,-0.254187389581,0.304969648398,1.0,-0.01728,-0.0227108571429,2.636
-0.628678262279,-0.52216121389,-0.125582149898,-2.642649189,-0.0676255498008,2.11017519754,-0.876482944596,-0.077344865662,0.0154278871963,0.00158666647372,0.0100882335783,0.00476463858389,-0.000438230483017,-0.0836216857739,0.573738042136,0.819004691607,0.00605978818001,0.0,0.819002325571,-0.573647419885,-0.0120239456641,0.0,-0.00637160872922,0.0118618040324,-0.999909345995,0.0,0.269073958501,-0.254550360592,0.304960323804,1.0,-0.01696,-0.0222902857143,2.652
-0.629978238419,-0.521969167174,-0.125583594273,-2.64250579861,-0.0675931517817,2.11022261895,-0.877734734732,-0.0769071790957,0.0142996391567,-0.000167216556157,0.0105771851379,0.000785289455257,0.00302801410974,-0.0679819827667,0.573799942755,0.818961145072,0.00608403293039,0.0,0.818959119601,-0.573709251784,-0.0120167275613,0.0,-0.0063508892576,0.0118780005274,-0.99990928554,0.0,0.268782226963,-0.254936369261,0.304958975589,1.0,-0.01662,-0.0218434285714,2.669
-0.63131850922,-0.521773671239,-0.125556639209,-2.64235374036,-0.0675694559706,2.11027770832,-0.879061565291,-0.0712054294955,0.013154248326,4.14020283179e-07,0.00923981881463,0.000419627557853,0.00289078420761,-0.0732349653543,0.573809981326,0.818954097844,0.00608587352096,0.0,0.818952219181,-0.5737195105,-0.0119972025953,0.0,-0.00633369579395,0.011868382726,-0.9999095088,0.0,0.268488132157,-0.255330659553,0.304961611326,1.0,-0.01626,-0.0213702857143,2.687
-0.632455806037,-0.521598314822,-0.125504647775,-2.64222446119,-0.0675374747462,2.11030225328,-0.880282225811,-0.0724824800773,0.010396788212,0.00572269334847,0.00610270262471,0.0038176800915,0.00106379644444,-0.0702483372865,0.573725388343,0.819013358664,0.00608637845408,0.0,0.819011390621,-0.573634753425,-0.0120107700526,0.0,-0.00634574509239,0.0118759256426,-0.999909342845,0.0,0.268241663153,-0.255654162773,0.30495927694,1.0,-0.01594,-0.0209497142857,2.703
-0.633629446302,-0.521424692382,-0.12545058905,-2.64210960614,-0.0675131117321,2.11031825114,-0.881441941263,-0.0713625281134,0.00499228260251,0.00322925064124,0.00648253528308,0.000218626485621,0.00029149366152,-0.0686117023507,0.573715078726,0.819020617624,0.00608138548296,0.0,0.819018362441,-0.573624052199,-0.0120463947139,0.0,-0.00637793945014,0.0118921936329,-0.999908944664,0.0,0.267980580581,-0.255982702377,0.304950329472,1.0,-0.0156,-0.0205028571429,2.72
-0.634920631066,-0.521217084862,-0.125408341367,-2.64197916797,-0.0674839018919,2.11035222089,-0.882799476312,-0.0615029471778,0.010774332616,0.000899471913769,0.0105815915573,0.00108467661355,0.00314518726211,-0.0729264459688,0.573650327432,0.819065938005,0.00608588033926,0.0,0.819063508004,-0.573558860543,-0.0120809871528,0.0,-0.0064046377907,0.0119152141407,-0.999908499957,0.0,0.267692618205,-0.256350411074,0.304937218833,1.0,-0.01522,-0.0200034285714,2.739
-0.635903561222,-0.521044202561,-0.125376927353,-2.64185579532,-0.0674626180453,2.11038018544,-0.883787336909,-0.0708062567301,0.0100728055973,0.00217383769055,0.00949532894655,0.000610723738699,0.00362582733207,-0.0642259393296,0.573639676143,0.819073401699,0.00608535004739,0.0,0.81907086408,-0.573548026574,-0.0120965999099,0.0,-0.00641788629067,0.0119236521435,-0.999908314424,0.0,0.267478436259,-0.256636523085,0.304932875741,1.0,-0.01492,-0.0196091428571,2.754
-0.637012811154,-0.52085869727,-0.125360561365,-2.64170671362,-0.0674328452686,2.11042921165,-0.884876146903,-0.0628004041996,0.00932936719191,-0.00135936370646,0.00466153456999,0.00394384248758,0.00480190952801,-0.0670348097119,0.573665326326,0.819055361092,0.00609555078359,0.0,0.819053073818,-0.573573845532,-0.0120769570286,0.0,-0.00639557103096,0.0119209406158,-0.999908489736,0.0,0.267238087093,-0.256967886293,0.304937010855,1.0,-0.01458,-0.0191622857143,2.771
-0.638181210836,-0.52066982767,-0.125338202273,-2.6415563026,-0.0674136929743,2.1104621254,-0.886106104955,-0.0654280790885,0.0114693162526,-7.5484162905e-06,0.00940606812493,-0.000318000987497,0.00178719296193,-0.0585393808135,0.573615123436,0.819090510254,0.00609697286816,0.0,0.819088243739,-0.573523651232,-0.0120754854183,0.0,-0.00639428048176,0.0119208693712,-0.999908498839,0.0,0.266980122779,-0.257312641532,0.304939262277,1.0,-0.01422,-0.0186891428571,2.789
-0.63920225319,-0.520514656329,-0.125322140611,-2.64143991858,-0.0673865427858,2.11048429156,-0.887111681233,-0.0637213856129,0.0124641782357,0.00163715369134,0.00910774834262,0.000753702189263,0.00270125813299,-0.0628188209553,0.573634138426,0.81907709366,0.0061103825822,0.0,0.819074926582,-0.573542463515,-0.0120852841008,0.0,-0.00639433860892,0.0119376225339,-0.999908298596,0.0,0.266750181085,-0.257608834385,0.304937373188,1.0,-0.0139,-0.0182685714286,2.805
-0.640260787639,-0.520348252383,-0.12530375889,-2.64130051111,-0.0673620436339,2.11050926097,-0.888154958106,-0.0650070127824,0.0120399487397,0.000266565290956,0.00959654478004,0.00254597052011,0.000237230852577,-0.0568379745835,0.573651326964,0.819065000505,0.0061177545787,0.0,0.81906295218,-0.573559658723,-0.0120807762175,0.0,-0.00638616670385,0.0119412093391,-0.999908307993,0.0,0.266516045617,-0.257920633878,0.304942099247,1.0,-0.01356,-0.0178217142857,2.822
-0.641271736411,-0.52019082227,-0.125276107571,-2.64117067507,-0.0673442059774,2.11053733518,-0.889206035182,-0.0583366222876,0.0109882106744,0.00462722407881,0.00921745907768,-0.000295797687394,0.000389876342319,-0.0654633517364,0.573613244341,0.819091686544,0.00611570539404,0.0,0.819089650641,-0.57352166622,-0.0120743319263,0.0,-0.00638261823887,0.0119355375002,-0.999908398369,0.0,0.26629372892,-0.258216341528,0.304946248627,1.0,-0.01322,-0.0173748571429,2.839
-0.642205840263,-0.52004024215,-0.125245645836,-2.64105333901,-0.0673181107293,2.11056670373,-0.890165504897,-0.0602394764413,0.00601629487982,0.000356470274427,0.00427617582843,0.00216582217764,0.00612305078413,-0.0594561752358,0.57358816174,0.819109222786,0.0061195392223,0.0,0.819107244639,-0.573496586896,-0.0120720130598,0.0,-0.0063788851908,0.0119371525175,-0.999908402912,0.0,0.26608976205,-0.258487064321,0.304947412827,1.0,-0.0129,-0.0169542857143,2.855
-0.643176653461,-0.519875274731,-0.125205920714,-2.64093183272,-0.0673026508559,2.11058971387,-0.891086411027,-0.054013770426,0.00528665887212,0.000472448223488,0.00784326302863,0.000267594871141,0.00159019266321,-0.0566421678919,0.573612686721,0.819092131721,0.00610837837909,0.0,0.81908993169,-0.573521012317,-0.0120863202056,0.0,-0.00639664958558,0.0119364076478,-0.999908298319,0.0,0.265864981939,-0.258783375661,0.30494512063,1.0,-0.01254,-0.0164811428571,2.873
-0.644202097677,-0.519698302073,-0.125171062719,-2.64080409228,-0.0672938917888,2.1106385215,-0.892117253006,-0.0610334245576,0.00899062805588,0.00639657033168,0.00666170460104,-0.000253498712692,0.00348421407929,-0.0582738906069,0.573595245715,0.819104444598,0.00609506631439,0.0,0.819102103589,-0.573503693451,-0.0120832278794,0.0,-0.00640200587644,0.0119235932703,-0.999908416928,0.0,0.26565285194,-0.259066762036,0.304942756158,1.0,-0.0122,-0.0160342857143,2.89
-0.645040661905,-0.519560444276,-0.125162850162,-2.64071002124,-0.0672876544902,2.11067043153,-0.892961767208,-0.0528280300109,0.0135392080327,-8.41936596739e-05,0.00579249563678,2.67277523142e-05,6.2235787063e-05,-0.0524884037445,0.57359221915,0.819106569115,0.00609437978335,0.0,0.819104171201,-0.573500581219,-0.0120907801086,0.0,-0.00640863045076,0.0119273389334,-0.999908329819,0.0,0.265461544299,-0.259313153922,0.304937686402,1.0,-0.0119,-0.01564,2.905
-0.646036178414,-0.51941932421,-0.125150496659,-2.64060165236,-0.0672771244437,2.11069788745,-0.89389558426,-0.0555449885876,0.00654187893507,0.00360513398583,0.0095800436348,-0.000106010596775,0.00175012561372,-0.0606810285766,0.573644177009,0.819070178322,0.00609492155246,0.0,0.81906779095,-0.57355253223,-0.012091050485,0.0,-0.0064077845564,0.0119283442942,-0.999908323247,0.0,0.265233067562,-0.259602672113,0.304937627175,1.0,-0.01154,-0.0151668571429,2.923
-0.646941503853,-0.519260204096,-0.12514362013,-2.64049619133,-0.0672703783885,2.11073024249,-0.894749917618,-0.0534319745435,0.0122209513614,0.000565143385983,0.00351954110552,-0.000224343613425,7.40588585182e-05,-0.0549420983172,0.573689580115,0.819038380655,0.00609455347771,0.0,0.819035884935,-0.573597734704,-0.01210804827,0.0,-0.00642125780823,0.0119381489753,-0.999908119803,0.0,0.265025895719,-0.259869310255,0.304929900852,1.0,-0.0112,-0.01472,2.94
-0.647759793577,-0.519124764965,-0.125130481037,-2.64039248786,-0.0672581929355,2.11076353359,-0.895565599028,-0.0503989848301,0.00602306445598,-0.000663734444313,0.00262173994978,-1.2868395332e-05,0.00672344133902,-0.051536646834,0.573693032773,0.819035962427,0.00609453033096,0.0,0.819033505313,-0.573601259087,-0.0121020515038,0.0,-0.00641630866322,0.0119347169505,-0.999908192543,0.0,0.264843221554,-0.260110895478,0.304930317948,1.0,-0.01088,-0.0142994285714,2.956
-0.648603113058,-0.518991272324,-0.125122997473,-2.64029336875,-0.0672540646501,2.11078938219,-0.896401047078,-0.0450778490045,0.00651141624206,-0.000761697703133,0.00425317740757,0.0021336300272,0.000373186247555,-0.0502585138882,0.573701152223,0.819030292842,0.00609214637606,0.0,0.819027779281,-0.573609340073,-0.0121065539566,0.0,-0.00642124599885,0.0119354108654,-0.999908152566,0.0,0.264649673799,-0.260358849747,0.304928589502,1.0,-0.01054,-0.0138525714286,2.973
-0.649445230725,-0.518845865753,-0.125118018129,-2.64019233476,-0.0672407781803,2.11081501187,-0.897213952437,-0.0492403311058,0.00543695295917,-0.000872479855205,0.00712433178168,0.000364337008401,0.000311188002897,-0.0464108255183,0.573732577778,0.819008230761,0.00609869188497,0.0,0.819005709019,-0.573640556413,-0.0121205418094,0.0,-0.00642849026526,0.0119490432238,-0.999907943202,0.0,0.264456623512,-0.260606221364,0.304923266757,1.0,-0.01018,-0.0133794285714,2.991
-0.65014924499,-0.518740768125,-0.125116919184,-2.64012041002,-0.0672301575263,2.1108321647,-0.897911029106,-0.0494148656938,0.00927905243924,0.00101249517355,0.00693634297449,0.00109367218365,0.00122761386183,-0.0499670168552,0.573745837623,0.818998878528,0.00610718278944,0.0,0.818996384251,-0.573653621154,-0.0121322884183,0.0,-0.00643304694247,0.0119628409251,-0.999907748917,0.0,0.264291158353,-0.26081009832,0.30491874,1.0,-0.00988,-0.0129851428571,3.006
-0.650927307851,-0.518625660137,-0.125108042398,-2.64003972467,-0.0672207509618,2.11086134185,-0.898682483321,-0.0491566063453,0.00250677154057,-1.55908865056e-05,0.00232404880814,0.00238290684891,0.000940135249773,-0.0442362019632,0.57375323663,0.818993678147,0.0061094609803,0.0,0.81899120577,-0.573660993969,-0.0121332506766,0.0,-0.00643241998491,0.0119653170308,-0.999907723323,0.0,0.264111485997,-0.26103562223,0.304915712222,1.0,-0.00954,-0.0125382857143,3.023
-0.651722110907,-0.518506477059,-0.125103921758,-2.63994102364,-0.0672052282931,2.11088472897,-0.899460185077,-0.0407320860957,0.00495329091962,0.00131789416523,0.00473386159463,0.00043838990437,0.0022996632991,-0.0395937216935,0.573776067848,0.818977623077,0.00611749669723,0.0,0.818975298936,-0.573683865646,-0.0121255486795,0.0,-0.00642116751006,0.0119676587427,-0.999907767623,0.0,0.263929883705,-0.261269607246,0.304918762035,1.0,-0.00918,-0.0120651428571,3.041
-0.652389427209,-0.518378314325,-0.125089228518,-2.63983777314,-0.0671909495632,2.11090405559,-0.900100150511,-0.0428485385112,0.00775771670106,0.000431120878887,0.00829676470213,0.000159021688945,-0.00430430875164,-0.0430183756571,0.573799515656,0.818961193328,0.00611772489707,0.0,0.818958861804,-0.57370728815,-0.0121275347172,0.0,-0.00642232059331,0.0119691690089,-0.99990774214,0.0,0.263783814545,-0.261468107783,0.30492046911,1.0,-0.00886,-0.0116445714286,3.057
-0.653066407177,-0.51823237704,-0.12506629405,-2.63972241277,-0.0671782287787,2.1109334649,-0.900778572756,-0.0345960037699,0.0137687672233,0.00189536102102,0.00435378992223,3.10671477514e-05,0.000560154293316,-0.0445147141324,0.573793506127,0.81896545553,0.0061108000324,0.0,0.818963054152,-0.573701348619,-0.0121254042251,0.0,-0.0064246366691,0.0119622279713,-0.999907810323,0.0,0.263640702616,-0.261671669632,0.304922178459,1.0,-0.00852,-0.0111977142857,3.074
-0.653697057933,-0.518100257394,-0.125029075136,-2.63963731261,-0.0671603030242,2.11096593226,-0.901421942776,-0.0348340620768,0.0104147559065,0.00278999210703,0.00346749342209,0.000150175827993,0.00503446355711,-0.0403115213442,0.573768874071,0.818982760723,0.00610439900465,0.0,0.818980209811,-0.573676627254,-0.0121363166918,0.0,-0.00643760706072,0.011963053067,-0.99990771703,0.0,0.26350703514,-0.261852187625,0.304915825593,1.0,-0.00818,-0.0107508571429,3.091
-0.65426679411,-0.517988030412,-0.124989534098,-2.63956749235,-0.0671479429907,2.1109885936,-0.902019237605,-0.0375745515078,0.0118722706557,0.00247103387757,0.000533304160168,-0.00029561539327,0.00140967596473,-0.0382712218646,0.573727266477,0.81901198487,0.00609419736474,0.0,0.819009199313,-0.573634885365,-0.0121530503665,0.0,-0.00645777402836,0.0119639704138,-0.999907576012,0.0,0.263384620479,-0.262011673356,0.304909069823,1.0,-0.00786,-0.0103302857143,3.107
-0.65490274555,-0.517882140501,-0.124952667767,-2.6395125759,-0.0671380877642,2.11099924088,-0.902652427095,-0.0323141195289,0.00319606075,0.00109325667448,0.00897305331745,0.000146571040999,-0.000570431591223,-0.0347154073024,0.573710607668,0.819023707421,0.00608705455334,0.0,0.819020594749,-0.573617829664,-0.0121900684975,0.0,-0.00649243707217,0.011979225283,-0.999907168902,0.0,0.26323878137,-0.26218394179,0.304896785085,1.0,-0.0075,-0.00985714285715,3.125
-0.655475919228,-0.517821664925,-0.124944762777,-2.63947128228,-0.0671163217916,2.11101494527,-0.903204183335,-0.0348915964943,0.0035516698407,-0.000452895239284,0.00540303731472,0.000581025278431,0.00208404640189,-0.0377188987206,0.573734013729,0.819007194077,0.00610282244451,0.0,0.81900428099,-0.573641148012,-0.0121888443941,0.0,-0.00648204597251,0.011991623201,-0.99990708771,0.0,0.263102713635,-0.262342692366,0.304894799549,1.0,-0.00716,-0.00941028571429,3.142
-0.656022100723,-0.517757328629,-0.124935176844,-2.63942244754,-0.0671037296761,2.11102923287,-0.903682842447,-0.0353298577744,0.00433699070383,0.00340062577901,0.0015869294515,0.000185708833924,6.48818593725e-06,-0.0284614286971,0.573790437255,0.818967624292,0.00610830395201,0.0,0.818964796489,-0.573697560146,-0.0121868164611,0.0,-0.006476413742,0.0119953955975,-0.999907078958,0.0,0.26297459132,-0.26249651258,0.304894728998,1.0,-0.00684,-0.00898971428572,3.158
-0.656573541678,-0.517720097462,-0.12493824474,-2.63934625221,-0.0670893961534,2.11104272407,-0.904199924356,-0.0367608557173,0.000267699122168,0.00154022917581,0.00925542220945,0.000831467336885,0.00018657676457,-0.030403689066,0.573830553946,0.81893945368,0.00611665478248,0.0,0.818937091682,-0.573738293797,-0.0121308284235,0.0,-0.00642517862778,0.0119704259403,-0.999907708732,0.0,0.262849094691,-0.262661641347,0.304916710628,1.0,-0.0065,-0.00854285714286,3.175
-0.657092857515,-0.517665363357,-0.124939528716,-2.63925156575,-0.0670753564808,2.11106374201,-0.904699906376,-0.0258023695907,-0.000664515314807,0.000964032055401,0.00175566248333,0.00196526450962,0.000557800219263,-0.0324550927702,0.573857903863,0.818920258859,0.00612067842179,0.0,0.818918357788,-0.573766383525,-0.0120667856459,0.0,-0.00637001834454,0.0119371860667,-0.999908459038,0.0,0.262737314596,-0.262823450938,0.304941326445,1.0,-0.00616,-0.00809600000001,3.192
-0.657522899888,-0.517596803344,-0.12493633646,-2.63913648257,-0.0670550887767,2.11107723333,-0.905158653916,-0.0244325924985,0.00631774379441,0.00048979697782,0.00656978221205,0.000278500644306,-1.15514348766e-05,-0.0260219223016,0.57384640477,0.818928279981,0.00612559225938,0.0,0.818926836715,-0.573755606014,-0.0120036484679,0.0,-0.00631565589026,0.0119048916154,-0.9999091889,0.0,0.262653617707,-0.262964134346,0.304969580068,1.0,-0.00584,-0.00767542857143,3.208
-0.657955229216,-0.517520181812,-0.12491279019,-2.63905261633,-0.0670398613337,2.11110217919,-0.905601135023,-0.0204132102003,0.00780700225014,0.00161590019608,-2.79134915518e-05,1.99054847763e-05,0.0013551122213,-0.0243500048803,0.573832091461,0.818938353103,0.0061197653367,0.0,0.818937057104,-0.573741741048,-0.0119690426758,0.0,-0.00629086439668,0.0118801521362,-0.999909639423,0.0,0.262567785122,-0.26309489929,0.304982132095,1.0,-0.0055,-0.00722857142858,3.225
-0.658380040331,-0.517444639689,-0.1248799033,-2.63900851585,-0.0670146909496,2.11114529535,-0.906026232959,-0.0237032855312,0.0031537856651,0.00392974044435,-0.00102403833112,0.00109894301841,0.00207578670847,-0.0260729519514,0.57382161511,0.818945681473,0.00612141569613,0.0,0.81894449931,-0.573731434615,-0.0119538648685,0.0,-0.00627763826574,0.0118727143445,-0.999909810889,0.0,0.262480650486,-0.263212952216,0.304978789898,1.0,-0.00516,-0.00678171428572,3.242
-0.658787747415,-0.517350456696,-0.124817749871,-2.63897987299,-0.066993932011,2.11116139065,-0.90642636737,-0.0229548815166,0.0057673092312,0.00431051794413,0.000518153819893,0.000727535783001,0.000456853520425,-0.0279060765474,0.573794313424,0.818964887494,0.00611112396099,0.0,0.818963285251,-0.573703641863,-0.0120006510428,0.0,-0.00632225948187,0.0118909204184,-0.999909313411,0.0,0.262395844904,-0.263312435148,0.304959930566,1.0,-0.00482,-0.00633485714286,3.259
-0.659103212972,-0.517275271149,-0.124777924164,-2.63897786865,-0.0669724117314,2.11116600195,-0.906737414374,-0.0183434632933,0.00485146205654,0.00128481712443,0.000118999002209,-5.80788077622e-05,2.26306332411e-05,-0.0193583342843,0.573779293389,0.818975373671,0.00611610161301,0.0,0.818973413757,-0.573687810951,-0.0120660692836,0.0,-0.00637320335831,0.0119324150604,-0.999908495688,0.0,0.262323002115,-0.263384273296,0.304934466002,1.0,-0.00452000000001,-0.00594057142858,3.274
-0.659434599414,-0.517190239099,-0.12474819094,-2.63897114534,-0.0669429217232,2.11117080924,-0.907088489088,-0.0169715688502,0.00659847869322,0.000540868658782,-0.000235994037457,0.000986814690299,0.000598950398441,-0.0247979666681,0.573755361956,0.818992012971,0.0061330430668,0.0,0.818989810833,-0.573662944587,-0.0121351827953,0.0,-0.00642044185376,0.0119857567412,-0.999907555508,0.0,0.262245324847,-0.26346273333,0.304907298692,1.0,-0.00418000000001,-0.00549371428572,3.291
-0.659761737151,-0.51712099383,-0.124714774823,-2.63896320428,-0.0669167871123,2.1111731367,-0.907419603116,-0.0164446948092,0.00268632375133,0.00290757271648,0.000878017421525,0.000166947891437,-1.01667477779e-05,-0.0172678708365,0.573740233401,0.819002525523,0.00614448245169,0.0,0.819000103838,-0.573647080216,-0.0121903311518,0.0,-0.0064592719434,0.0120266467564,-0.999906814445,0.0,0.262169489859,-0.263539828829,0.304886377088,1.0,-0.00382000000001,-0.00502057142858,3.309
-0.660028791746,-0.517077293439,-0.124682496418,-2.63895085603,-0.0668930370786,2.11117871883,-0.907690388573,-0.0134141463783,0.0046934234786,0.00095038226538,0.000550904377518,0.000460370440101,-0.00468604345687,-0.0209115807541,0.573725171628,0.819013024447,0.00615143290644,0.0,0.819010538273,-0.573631700997,-0.0122129730057,0.0,-0.00647405168275,0.0120452103173,-0.99990649541,0.0,0.262111083693,-0.263603682798,0.304877124094,1.0,-0.00352000000001,-0.00462628571429,3.324
-0.660331136233,-0.517050670541,-0.124657601494,-2.63892226445,-0.0668717189542,2.11117680165,-0.907983399014,-0.0133575108143,0.00140818369737,0.00211625786752,0.00304201366482,7.97062452995e-05,0.000250301673969,-0.00989201129,0.573725683537,0.819012618084,0.00615778944469,0.0,0.819010228307,-0.573632208552,-0.0122099197991,0.0,-0.00646789654936,0.0120486690958,-0.999906493572,0.0,0.262044403593,-0.26368205112,0.30488073078,1.0,-0.00314000000001,-0.00412685714286,3.343
-0.660568018467,-0.517026106043,-0.124638787606,-2.63887614295,-0.0668510622068,2.11118380358,-0.908217547298,-0.0147879019453,0.00245429580583,0.00087853539195,0.00087479675544,0.000320537207111,-0.000358396542496,-0.0185891956091,0.573725612496,0.819012636755,0.00616192365072,0.0,0.81901049658,-0.573632483649,-0.0121789612147,0.0,-0.00644016756274,0.012034293829,-0.999906845668,0.0,0.261998992535,-0.263750476881,0.304893676555,1.0,-0.00282000000001,-0.00370628571429,3.359
-0.660779633641,-0.517005213389,-0.124627629942,-2.63883026556,-0.0668366747469,2.11119126049,-0.908429038751,-0.0116890910371,0.00358651068349,0.00113566143935,0.00221612682885,0.00537102098852,0.000609185425386,-0.0145581683409,0.573726133954,0.81901225544,0.00616405373812,0.0,0.819010361013,-0.573633403284,-0.0121447145429,0.0,-0.00641088635503,0.0120163953529,-0.999907249088,0.0,0.261958069169,-0.263814629432,0.304907720446,1.0,-0.00250000000001,-0.00328571428572,3.375
-0.66098526185,-0.516991214746,-0.124611659584,-2.63878903049,-0.0668115545489,2.11119486334,-0.908634879318,-0.00892490655061,-0.00192604157562,0.00414565544577,0.00133869997924,0.000302529378229,0.000117594856862,-0.0126770210109,0.573727298993,0.819011367019,0.00617365253068,0.0,0.81900980337,-0.573634911444,-0.0121110387003,0.0,-0.00637777853122,0.0120049465992,-0.99990759833,0.0,0.261919239419,-0.263873457334,0.304921988708,1.0,-0.00216000000001,-0.00283885714286,3.392
-0.661172069392,-0.516977597627,-0.124589396016,-2.63877157484,-0.0667964240235,2.11120388416,-0.908816097461,-0.0113710280678,-0.000659956666795,0.000738522764716,-0.0026717504043,3.40913792977e-05,0.000224860686472,-0.011388500031,0.57372338531,0.819014102513,0.00617445822997,0.0,0.819012641579,-0.573631168718,-0.0120963676559,0.0,-0.00636535656152,0.0119971593292,-0.999907770949,0.0,0.261881306351,-0.263921606623,0.304926198897,1.0,-0.00182000000001,-0.00239200000001,3.409
-0.661336164617,-0.516967844656,-0.124552186141,-2.63876028129,-0.066781345956,2.11120561064,-0.908965560326,-0.0060570995354,0.00113148182027,0.00375859041843,0.000940099628223,0.000438595236134,-0.00536309993566,-0.00453712143465,0.573715945787,0.819019354032,0.0061691305405,0.0,0.819017857935,-0.57362381885,-0.0120917216559,0.0,-0.00636471638064,0.0119900724527,-0.999907860029,0.0,0.26185020081,-0.263958004268,0.304928763075,1.0,-0.00150000000001,-0.00197142857144,3.425
-0.661496125461,-0.516956084502,-0.124516195457,-2.63876241225,-0.0667656451329,2.11120375868,-0.909090750197,-0.0109461527486,0.00129689543077,0.000821035813116,0.000562109612743,0.000447826181085,0.000127920394114,-0.00952852006874,0.573725528295,0.819012655285,0.00616729823512,0.0,0.819011047839,-0.57363324274,-0.0121059176498,0.0,-0.00637725525538,0.0119967903644,-0.999907699558,0.0,0.261816315497,-0.263989496904,0.304924154764,1.0,-0.00116000000001,-0.00152457142858,3.442
-0.661621608932,-0.516949101692,-0.124491332392,-2.63875941638,-0.0667471981711,2.11120755433,-0.909188494365,-0.00582096196366,0.00088332971754,0.00323801695523,4.60165494817e-05,-2.17976517138e-05,-0.000566490777877,-0.0103535372638,0.573738632929,0.81900344582,0.00617120101475,0.0,0.819001897012,-0.573646341914,-0.0121042967419,0.0,-0.00637349656311,0.0119991590242,-0.999907695102,0.0,0.261791473327,-0.26401630782,0.304923859366,1.0,-0.000820000000005,-0.00107771428572,3.459
-0.661702929538,-0.516942584272,-0.124485972427,-2.63875307347,-0.0667320878096,2.11121311801,-0.909218474748,-0.00856730517233,-0.00166888065792,0.000434686411605,0.00288192458123,0.00103606237234,0.00014896584351,-0.00505988890441,0.573783640776,0.818971845736,0.00618032126962,0.0,0.818970455179,-0.573691374002,-0.0120974311463,0.0,-0.00636198100145,0.0120030397062,-0.99990772186,0.0,0.261774723541,-0.264037241565,0.30492494724,1.0,-0.000460000000005,-0.000604571428579,3.477
-0.661721701163,-0.51692479181,-0.124481382619,-2.63875047495,-0.0667195190349,2.11121962637,-0.909253613018,-0.00345008172433,0.00136843035087,0.00474013448882,-5.41852150387e-05,-0.000157716795749,0.00210212347802,-0.00173560634671,0.573772542555,0.818979557307,0.00618878206953,0.0,0.818978220296,-0.573680133619,-0.012104787148,0.0,-0.00636331440873,0.0120141035329,-0.999907580502,0.0,0.261773135763,-0.264041192389,0.304920237143,1.0,-0.000160000000005,-0.000210285714293,3.492
-0.661722785539,-0.516904241948,-0.124455764365,-2.63874913794,-0.06670221129,2.11121988618,-0.909279831228,-0.000603090114103,0.00345312594281,-0.00138559714119,0.00065770462794,0.00354902027164,-7.67488008086e-05,-0.000536035427052,0.573741314664,0.819001411166,0.00619187020856,0.0,0.818999995328,-0.573648673962,-0.0121224343812,0.0,-0.006376455497,0.0120265146583,-0.999907347588,0.0,0.261779968766,-0.264034220227,0.304913900159,1.0,0.0,0.0,3.514
-0.661714999332,-0.516910620914,-0.124422123707,-2.63874662843,-0.0666923813359,2.11121911178,-0.909287150528,0.00107886150192,0.00183981723543,0.00216771749283,1.08162974615e-05,0.000549935158158,-0.000189823144476,-0.00199964148496,0.573709333692,0.819023880863,0.00618303427563,0.0,0.819022408039,-0.573616849015,-0.0121141470068,0.0,-0.00637520579876,0.0120142741409,-0.999907502706,0.0,0.261790939918,-0.264024558853,0.304918121385,1.0,0.0,0.0,3.528
-0.661722797631,-0.516899653556,-0.124396263413,-2.63874654178,-0.0666926979676,2.11122412925,-0.909286640495,-0.00143866380667,0.000602765686254,-0.000632522791986,-0.000469784794656,-0.000320650885982,-5.25717438207e-05,-4.18561577407e-05,0.573697692103,0.819032134334,0.00616991940093,0.0,0.819030460724,-0.573605212205,-0.0121207194178,0.0,-0.00638828376139,0.0120072118622,-0.999907504069,0.0,0.261795130119,-0.264021575983,0.304915150264,1.0,0.0,0.0,3.545
-0.661715237848,-0.516896089266,-0.124378389367,-2.63874651627,-0.0666884879563,2.11122348754,-0.909292119428,0.000347145821501,-0.000462143876002,0.000733030261894,2.84623792101e-05,0.000156643022651,-0.000272747026958,-0.000481332702933,0.573676135374,0.819047270721,0.00616497595321,0.0,0.819045508777,-0.573583637256,-0.0121248721779,0.0,-0.00639483725476,0.0120053768198,-0.999907484212,0.0,0.261801283929,-0.264015156318,0.304914214239,1.0,0.0,0.0,3.56
-0.661725578749,-0.516898120424,-0.124377272111,-2.63874654178,-0.0666847565833,2.11122430134,-0.909293004132,-0.00140123832897,-0.00283645178735,0.000692938597622,0.000573191132307,5.11488383689e-05,0.00011326345883,0.000984239227424,0.573684667982,0.819041276101,0.00616738728333,0.0,0.819039564349,-0.573592192511,-0.0121217005107,0.0,-0.0063907309023,0.0120055990716,-0.999907507797,0.0,0.261799305475,-0.26401739151,0.304915049623,1.0,0.0,0.0,3.579
-0.661731977281,-0.516892929698,-0.124384774721,-2.63874311682,-0.0666889675165,2.1112243057,-0.909297689973,-0.0039933395129,-0.00101665468139,-0.000310229173246,-0.000216961097084,-1.41845573527e-05,0.000317059334659,-0.000452302905216,0.573694882161,0.819034106245,0.00616943203669,0.0,0.819032425167,-0.573602402943,-0.0121209225831,0.0,-0.00638877095735,0.0120069073061,-0.999907504614,0.0,0.261795151451,-0.26402297605,0.304915187678,1.0,0.0,0.0,3.594
