nelsonifechukwu/NELSON_IML_WORK/CNN-GradCAM/train2dof/data_sample_2022-02-22-07-49-07/robot_state.csv
position_joint1,position_joint2,position_joint3,position_joint4,position_joint5,position_joint6,position_joint7,velocity_joint1,velocity_joint2,velocity_joint3,velocity_joint4,velocity_joint5,velocity_joint6,velocity_joint7,ee_T_00,ee_T_10,ee_T_20,ee_T_30,ee_T_01,ee_T_11,ee_T_21,ee_T_31,ee_T_02,ee_T_12,ee_T_22,ee_T_32,ee_T_03,ee_T_13,ee_T_23,ee_T_33,v_x,v_y,time
0.465088700934,0.547691590824,-0.124021506308,-1.35582587128,0.079530051162,1.89413589241,0.159134215795,-0.000518107897307,0.000132184688524,-0.000660424881911,0.000439704007836,0.000248172627266,-0.000252836732202,-0.000437975107258,0.573803706015,0.818978500497,0.0020662983059,0.0,0.818936816618,-0.57374460977,-0.0118473645895,0.0,-0.00851737335701,0.00849039293117,-0.999927681174,0.0,0.66169012132,0.26089064275,0.303285461331,1.0,0.0,0.0,0.0
0.465090699832,0.547696880541,-0.124019432537,-1.35582730337,0.0795264481908,1.89413474185,0.159138895642,-0.00403191092842,0.00073002510711,0.000216876876715,-0.00107614322648,-8.47066636806e-05,-1.46329515166e-05,0.00157695341151,0.573803578054,0.818978611045,0.0020579997793,0.0,0.818936838125,-0.573744534002,-0.0118495470758,0.0,-0.00852392359323,0.00848484770214,-0.999927672427,0.0,0.661688627195,0.260892262427,0.303280857058,1.0,-4e-05,-5.25714285714e-05,0.003
0.465085751931,0.547695831565,-0.124021585231,-1.35582669463,0.0795285699686,1.89413494779,0.159133914289,-0.000710811132566,0.000907366598984,-0.000789860170041,-0.00194257343625,-0.000249507913836,-0.000334108980369,0.00125934405497,0.573805583308,0.818977200339,0.00206028914158,0.0,0.81893544978,-0.573746522418,-0.0118492196999,0.0,-0.00852232112697,0.00848655562898,-0.999927671592,0.0,0.661690501957,0.260888186914,0.303281983025,1.0,-0.0004,-0.000525714285714,0.021
0.465085423878,0.547677374547,-0.12401700678,-1.35583840923,0.0795277456749,1.89413933498,0.159127716006,-0.000940594293892,-0.000348419063394,0.00121817768198,-0.00172554544066,0.000397790732396,0.000181235306563,-0.00162548240926,0.573797995376,0.818982489164,0.0020711943307,0.0,0.81894085853,-0.573738869776,-0.0118459460848,0.0,-0.0085134616272,0.00849352930693,-0.999927687851,0.0,0.661688261054,0.260889637835,0.303289710447,1.0,-0.00068,-0.000893714285714,0.035
0.465085027824,0.547633557864,-0.124024667423,-1.35586720919,0.0795266806183,1.89414694682,0.159133927297,-0.000297041055306,-0.00890965297006,-0.00173069572769,-0.00287338321604,8.05044671609e-05,0.000215869268877,-0.000665879247211,0.573810022988,0.818974015297,0.0020896620664,0.0,0.818932655832,-0.573750853054,-0.0118326130615,0.0,-0.00849182073107,0.00850112815169,-0.999927807295,0.0,0.661686260176,0.260882447484,0.303307955587,1.0,-0.00102,-0.00134057142857,0.052
0.465084309309,0.547497398712,-0.124016924778,-1.35603590628,0.0795279898269,1.89417751641,0.159136447674,-0.000693160170717,-0.0074136892135,-0.000678953075669,-0.0105501243794,-0.000363898083025,0.000436087924852,0.00079947561931,0.573816795356,0.818969248932,0.00209799222205,0.0,0.818927815097,-0.573757408332,-0.011849765642,0.0,-0.00850101875879,0.00851786272817,-0.999927586725,0.0,0.661655615447,0.260870502767,0.303326515447,1.0,-0.0014,-0.00184,0.071
0.465071927156,0.547367442393,-0.124019412894,-1.35620128577,0.0795245274183,1.89424256206,0.159129865999,0.000479746586443,-0.0153006716046,0.00104389620792,-0.00689550093853,0.000298087802868,0.0016854022755,0.000448370350885,0.573831615996,0.818958791089,0.00212647169433,0.0,0.818917689063,-0.573772074764,-0.0118394114177,0.0,-0.00847604317593,0.00853539820488,-0.999927649217,0.0,0.661638102329,0.260846805907,0.30334558195,1.0,-0.0017,-0.00223428571429,0.086
0.465046388027,0.54720674447,-0.124026871473,-1.35641463886,0.0795175126147,1.89435040259,0.159119317228,-0.00469197192921,-0.00873756748261,-0.001142840674,-0.0114647748246,0.000214133341036,0.00717195008125,-0.00218410937525,0.573859351744,0.818939231478,0.00217404315902,0.0,0.818898774588,-0.573799646322,-0.0118114249979,0.0,-0.00842553633241,0.00855858275055,-0.999927877899,0.0,0.661623705208,0.260808570754,0.303367461627,1.0,-0.00204,-0.00268114285714,0.103
0.46503219251,0.5469825247,-0.124017214215,-1.35665393002,0.0795203372398,1.89448162603,0.159106830956,0.00052868880184,-0.0114571285031,0.000921775844586,-0.0116872003898,0.000593718129639,0.0094823870543,-0.00192427818505,0.573868304321,0.818932656517,0.00228479444418,0.0,0.818893502134,-0.573808030009,-0.0117696117565,0.0,-0.00832764635595,0.0086253765305,-0.99992812401,0.0,0.661602254133,0.260788693227,0.30342346594,1.0,-0.0024,-0.00315428571429,0.121
0.465006353725,0.546793518179,-0.124019393233,-1.35690712955,0.0795160309502,1.89458762985,0.159090102923,-0.000861237607384,-0.0145344195803,0.000292087210676,-0.0136710042933,-0.000387686090446,0.00544933871726,0.000458837541028,0.573890355529,0.818917088049,0.00232586173428,0.0,0.818878401307,-0.57382985453,-0.0117562248988,0.0,-0.00829288422365,0.0086515485946,-0.999928186811,0.0,0.661577790741,0.260749267487,0.30344608582,1.0,-0.0027,-0.00354857142857,0.136
0.464973323698,0.546527399724,-0.124019857887,-1.35730178054,0.0795075281004,1.89473803845,0.158994930699,0.00047538881584,-0.0154816796126,0.00031165533901,-0.0220992446761,-0.000940737929551,0.0179835088131,-0.0144835324005,0.573859637641,0.818938535495,0.00235335264957,0.0,0.818900075202,-0.573798900444,-0.0117573629951,0.0,-0.008278365854,0.00867440373884,-0.999928109105,0.0,0.661533467727,0.260692629751,0.303459770505,1.0,-0.00306,-0.00402171428571,0.154
0.464930218018,0.546240988687,-0.124020112287,-1.35773719935,0.0794919936915,1.89489109964,0.158940243286,-0.000211051615231,-0.0133947328744,3.0165353385e-05,-0.0263159080998,0.00036982297239,0.00405820590085,-0.000734326750898,0.573870513039,0.818930886858,0.00236298864209,0.0,0.818892446993,-0.573809628422,-0.0117650962337,0.0,-0.00827905445543,0.00868684261159,-0.999927995419,0.0,0.661483795811,0.260623914732,0.303468613227,1.0,-0.0034,-0.00446857142857,0.171
0.464900058611,0.545993051599,-0.124022635547,-1.35817849572,0.0794784413534,1.89503684768,0.158905378301,-0.00229152157788,-0.0117882035031,-0.000789392428007,-0.0273880621779,-7.06506919805e-05,0.00647921294256,-0.00336470900794,0.573889474176,0.818917698752,0.00232830443379,0.0,0.81887867569,-0.573828580226,-0.0117992337558,0.0,-0.00832671404179,0.00867822198978,-0.999927674533,0.0,0.661427301463,0.260561066703,0.303446841291,1.0,-0.0037,-0.00486285714286,0.186
0.464832063541,0.545636362004,-0.124024764254,-1.35877145322,0.0794279949334,1.89523075657,0.158811530021,-0.00284094494456,-0.0251113317316,-0.00186891425239,-0.0306475687683,-0.00344586772785,0.0148619607405,-0.00999117241391,0.573889432669,0.818917852778,0.00228393792135,0.0,0.818878349132,-0.573828809034,-0.0118107640278,0.0,-0.00836161712704,0.00864850649241,-0.999927640729,0.0,0.661360246965,0.260454143063,0.303433965156,1.0,-0.00406,-0.005336,0.204
0.464779153533,0.545310507913,-0.124017897542,-1.3593396592,0.0793483469163,1.89540689136,0.158766586372,-0.00384606602423,-0.0224825923019,0.00178170387121,-0.0376588229131,-0.0007979642454,0.0146140527574,-0.00451683507956,0.57390158515,0.818909555523,0.00220393669473,0.0,0.818869326269,-0.573841593709,-0.01181519047,0.0,-0.00841102376917,0.00858565799649,-0.999927767969,0.0,0.661290095577,0.26035900618,0.303409119664,1.0,-0.00436,-0.00573028571429,0.219
0.464714125155,0.544909374234,-0.12401871199,-1.36003871124,0.0793336893571,1.89562077008,0.158670288041,-0.00758038117471,-0.0219064143099,0.00187085202924,-0.0400391810997,-0.00236188613985,0.0148604420101,-0.00923206661823,0.573911476956,0.818902772674,0.00214765572269,0.0,0.818861497103,-0.57385138831,-0.0118819021176,0.0,-0.00849785098062,0.00857795772597,-0.999927099928,0.0,0.661200596229,0.260249953131,0.303378911132,1.0,-0.0047,-0.00617714285714,0.236
0.464644225977,0.544457399077,-0.124028993902,-1.36080657782,0.0793081176095,1.89588177086,0.158580056772,-0.00264755678415,-0.0242892658147,0.000582759816046,-0.0378202191171,-0.00457465231953,0.0138872122383,-0.00439043503489,0.573936766286,0.818885139297,0.00211278145915,0.0,0.818843237845,-0.573876642938,-0.0119204625578,0.0,-0.00854917830927,0.00857179357752,-0.999926715267,0.0,0.661107036499,0.260118795273,0.30335779589,1.0,-0.00508,-0.00667657142857,0.255
0.464570678318,0.544012143638,-0.124032196629,-1.36153820849,0.0792742959684,1.89614892792,0.158476074595,-0.00694262692291,-0.026481114661,-0.000847854943697,-0.0439768075263,-0.000368595957713,0.0165127305614,-0.00921674047585,0.573947139276,0.818877909428,0.00209706184261,0.0,0.818835705766,-0.573886981562,-0.0119401112714,0.0,-0.0085741819448,0.00857030682573,-0.999926513922,0.0,0.661028429696,0.260007308859,0.303346385058,1.0,-0.00538,-0.00707085714286,0.27
0.464489018606,0.543432906579,-0.12403182655,-1.36246639886,0.0792266735357,1.89646333076,0.158379525476,-0.00753100309931,-0.0323077421016,-1.0375998275e-05,-0.0489740987506,-0.00425831572563,0.0164671647913,-0.00324026708812,0.573973555322,0.818859456522,0.00207247586762,0.0,0.818816805473,-0.573913369502,-0.0119678854839,0.0,-0.00861076037846,0.00856639277982,-0.999926233139,0.0,0.660916541828,0.259864596779,0.303341637826,1.0,-0.00576,-0.00757028571429,0.289
0.46442277617,0.542990118789,-0.124036104678,-1.36318549984,0.0791849565612,1.89671524642,0.158282260768,-0.00925028553472,-0.0332519874378,-0.000759219289995,-0.0530703624106,-4.78494084759e-05,0.020110976524,-0.0045326770281,0.573980004061,0.8188549893,0.00205142343252,0.0,0.818812040729,-0.573919882507,-0.0119815408528,0.0,-0.00863395804191,0.00855705982446,-0.999926113018,0.0,0.660833349321,0.259749132726,0.303334555057,1.0,-0.00604,-0.00793828571429,0.303
0.464350201577,0.542405040143,-0.124036407803,-1.36408459283,0.0791371062665,1.89703169634,0.158156845881,-0.00358615970696,-0.038718848507,0.00118542714229,-0.0533048547355,-0.000652536977356,0.020240381626,-0.00394730311127,0.573974077805,0.818859127663,0.00205765681615,0.0,0.818816172623,-0.573913843839,-0.0119884195396,0.0,-0.00863607530482,0.00856604965136,-0.999926017762,0.0,0.660726275781,0.259615686541,0.303347852816,1.0,-0.00638,-0.00838514285714,0.32
0.464253234892,0.541727713968,-0.124044963019,-1.36512727849,0.0790741204276,1.89742017222,0.158009900256,-0.007559037122,-0.0404810355504,0.000101921073621,-0.0541907021808,-0.0095913856982,0.0200509902375,-0.0152851778039,0.573980289401,0.818854729602,0.00207511189871,0.0,0.818812041174,-0.573920020366,-0.0119749051192,0.0,-0.00861492529423,0.0085726511654,-0.99992614363,0.0,0.660611802542,0.259447954231,0.303364456372,1.0,-0.00676,-0.00888457142857,0.339
0.464184856268,0.541154312084,-0.124050436966,-1.36600760111,0.0790164609797,1.89774245033,0.157911912876,-0.01015241175,-0.0369295376822,-0.000264457508627,-0.0635227942798,-0.00642723667071,0.0158956817801,-0.0140066757569,0.573993313232,0.818845577135,0.00208424374411,0.0,0.81880306573,-0.573933062299,-0.0119635468576,0.0,-0.00860024661799,0.00857374613741,-0.999926260599,0.0,0.660510255905,0.25931518096,0.303378925582,1.0,-0.00704,-0.00925257142857,0.354
0.464085330073,0.540414399726,-0.124043119221,-1.36713147882,0.0789553288242,1.89815109021,0.157762602424,-0.00896655083135,-0.0440889537557,0.000455071009595,-0.0634065525696,-0.00161710194437,0.0168812987195,-0.00780161156519,0.573993320376,0.818845502937,0.00211125202441,0.0,0.818803228201,-0.573932842183,-0.0119629867404,0.0,-0.00858428629329,0.00859553994467,-0.999926210639,0.0,0.660379264923,0.259147832599,0.303402160697,1.0,-0.00742,-0.009752,0.372
0.464007650825,0.539768992114,-0.124053600788,-1.36811218581,0.078893701193,1.89851776732,0.1576342069,-0.00357163877319,-0.0428062688035,-0.000471164027528,-0.068468966791,-0.00348393367,0.019582356688,-0.0101142416851,0.573996982746,0.818842876554,0.0021340610508,0.0,0.818800971816,-0.573936483093,-0.0119427312344,0.0,-0.00855456960564,0.00860262858386,-0.999926404352,0.0,0.660268736857,0.25899742743,0.303423576168,1.0,-0.00772,-0.0101462857143,0.387
0.463902898687,0.539016055091,-0.124052054695,-1.36926809707,0.0788290530592,1.89894784539,0.157500591913,-0.00739763027963,-0.0394354215736,0.000920954896062,-0.0704437034984,-0.00169581995764,0.0239796842585,-0.00653195983763,0.574018913045,0.81882743525,0.00216001137321,0.0,0.818785810786,-0.573958246151,-0.0119362737754,0.0,-0.00853415641144,0.00862039953126,-0.999926425737,0.0,0.660137409449,0.258820557031,0.303442583379,1.0,-0.00806,-0.0105931428571,0.404
0.463791072347,0.538246139806,-0.124054802046,-1.37046157543,0.0787615059702,1.89941364223,0.157350337336,-0.0130527995781,-0.0428468507667,-0.00132768421591,-0.072331987566,-0.00432310328378,0.0198228915858,-0.00863073974098,0.574037394185,0.818814382213,0.00219646536769,0.0,0.818773230796,-0.573976575084,-0.0119178306951,0.0,-0.00849793512045,0.00863985386593,-0.999926566316,0.0,0.660007697435,0.258634254486,0.303458815682,1.0,-0.0084,-0.01104,0.421
0.463693014568,0.537497233918,-0.124060629248,-1.37162636456,0.0786932717709,1.89987001427,0.157212051959,-0.00522988636338,-0.0506740262018,0.00109281956517,-0.074492699785,-0.00481900649923,0.0274978339967,-0.0017065341749,0.574054711057,0.818802153467,0.00222914596069,0.0,0.818761463925,-0.573993795459,-0.0118968427158,0.0,-0.00846180740054,0.00865474404841,-0.999926743927,0.0,0.659879131469,0.258457643567,0.303473016835,1.0,-0.00872,-0.0114605714286,0.437
0.46357048886,0.536568765063,-0.124069413735,-1.37307706517,0.0786069887549,1.90040655419,0.157032309345,-0.00943651755571,-0.0513847679428,-0.0016126109831,-0.074132866306,-0.00376282120691,0.0355196526223,-0.00598444509993,0.574070835889,0.81879082042,0.0022393479807,0.0,0.818750279895,-0.574009894135,-0.0118898068697,0.0,-0.0084500195132,0.00865922487113,-0.999926804819,0.0,0.659712725032,0.2582341262,0.303484798262,1.0,-0.0091,-0.01196,0.456
0.463464000445,0.535766586699,-0.12407358658,-1.3743653993,0.078539618475,1.90087240047,0.156878191872,-0.00449253035856,-0.048324498424,-0.000907364501007,-0.0830186661945,-0.00639081686746,0.0321928233494,-0.0112261309876,0.574087560739,0.818779130234,0.00222607263571,0.0,0.81873831148,-0.574026562127,-0.0119092480736,0.0,-0.00847338209621,0.00865968885366,-0.999926603099,0.0,0.659559975468,0.258039758461,0.303478291765,1.0,-0.00942,-0.0123805714286,0.472
0.463334393595,0.534809776134,-0.124071599478,-1.3758667571,0.0784527481723,1.90141412375,0.15669527036,-0.0084850948179,-0.0547949593586,-0.000356883233081,-0.085459554542,-0.00715359040035,0.0361868144037,-0.00782218362564,0.574101570763,0.818769306761,0.00222612998945,0.0,0.818728408208,-0.574040487848,-0.0119188424512,0.0,-0.00848105691266,0.00866538887125,-0.999926488653,0.0,0.659382273172,0.257812480092,0.303485697566,1.0,-0.00978,-0.0128537142857,0.49
0.463221383919,0.533911082057,-0.124084372427,-1.37734452689,0.0783670532869,1.90194136254,0.156513594457,-0.00523826453997,-0.0574194993761,-0.000930880657416,-0.0856263124208,-0.00525250110503,0.0346050945828,-0.00636698632557,0.574112314522,0.81876189794,0.00217983890547,0.0,0.818720371766,-0.574051392993,-0.0119456251201,0.0,-0.00852944735348,0.00864297540922,-0.999926271034,0.0,0.659204270668,0.257588837509,0.303462381323,1.0,-0.01012,-0.0133005714286,0.507
0.463104310037,0.533102962922,-0.124082633316,-1.37866151979,0.0782985628125,1.90244180974,0.156343675183,-0.00420263262007,-0.0539295857018,0.000186523066896,-0.09138885796,-0.000785316372212,0.0367104739995,-0.00847046202846,0.574121691978,0.818755329207,0.00217729121473,0.0,0.818713658695,-0.574060667125,-0.0119600346028,0.0,-0.00854260929297,0.00864925988377,-0.999926104335,0.0,0.659052391212,0.257389809809,0.30344876852,1.0,-0.01042,-0.0136948571429,0.522
0.46296371156,0.532094313041,-0.124080453541,-1.38029849675,0.0781981100843,1.90305686992,0.156148459023,-0.00952491352427,-0.0596264092936,-0.000247286480339,-0.0895742782945,-0.00678846094361,0.0336369898097,-0.00630264511619,0.574138010617,0.818743922581,0.002163539604,0.0,0.818702062498,-0.574077029813,-0.0119684419818,0.0,-0.00855721549852,0.0086429982102,-0.999926033587,0.0,0.658861478813,0.25714282092,0.303433960325,1.0,-0.01078,-0.014168,0.54
0.462831574713,0.531095972727,-0.124083083965,-1.38190476742,0.0781121206386,1.90363076141,0.15595140633,-0.010149295219,-0.0637520642225,-0.000811759362298,-0.09950701472,-0.00662786991435,0.0301762447603,-0.0073339838442,0.574151128861,0.818734786371,0.00213955960938,0.0,0.818692470056,-0.57409010114,-0.0119975892432,0.0,-0.00859470914825,0.00864023710038,-0.999925735881,0.0,0.658666898419,0.256901698794,0.303422878445,1.0,-0.01112,-0.0146148571429,0.557
0.462710426458,0.530191939612,-0.124080818214,-1.38335143478,0.0780233923238,1.90414001993,0.155755818669,-0.00623526945477,-0.0637955503834,-0.00185885582469,-0.101815722401,-0.00672220949971,0.0331301237993,-0.0131048478247,0.57414431016,0.818739637141,0.00211295690376,0.0,0.818696968281,-0.574083389077,-0.0120118031235,0.0,-0.00862169186474,0.00862654591707,-0.999925621801,0.0,0.658479389814,0.256668124991,0.303419088769,1.0,-0.01144,-0.0150354285714,0.573
0.462562881975,0.529074903665,-0.124083570079,-1.38510792093,0.0779103542073,1.90479044978,0.155517236645,-0.00999934819003,-0.0668016429708,-0.000173041663299,-0.100917715865,-0.00434170993252,0.0354807358553,-0.0165025437011,0.57413568701,0.818745677104,0.00211566195771,0.0,0.818703034,-0.574074746118,-0.012011448277,0.0,-0.00861993921187,0.00862846609692,-0.999925620344,0.0,0.658283297144,0.256416847856,0.303422496857,1.0,-0.01178,-0.0154822857143,0.59
0.462435322571,0.52810999069,-0.124086518499,-1.38660504014,0.077812876714,1.90536574991,0.15531077823,-0.00638961889353,-0.0627496922366,0.000133892796138,-0.103814845271,-0.00473104077947,0.0381565261906,-0.0126142599593,0.57412818332,0.81875085764,0.00214688927799,0.0,0.818708709988,-0.574067201533,-0.0119851246897,0.0,-0.00858053760071,0.00863884114069,-0.999925869651,0.0,0.658111879713,0.256189386604,0.303439245948,1.0,-0.01206,-0.0158502857143,0.605
0.462291630187,0.526974291702,-0.124086767411,-1.38837321253,0.0777058009246,1.90603877718,0.15506670869,-0.00853399141141,-0.0654005447099,0.000375016258634,-0.108758324497,-0.00357870592973,0.0391683861159,-0.0117904244622,0.574113099625,0.818761345963,0.00218038916453,0.0,0.818719639174,-0.57405198551,-0.0119673415726,0.0,-0.00854690451888,0.00865590164749,-0.999926010158,0.0,0.657904573998,0.255928045016,0.303455359368,1.0,-0.01242,-0.0163234285714,0.622
0.462135061555,0.525738834693,-0.124097857017,-1.39028109562,0.0775804344357,1.90674713857,0.15480357385,-0.00648736633851,-0.067152549173,-0.00211721338403,-0.105409670048,-0.00771539617839,0.0456805295029,-0.020074296901,0.574102811246,0.818768499688,0.00220293883267,0.0,0.818727206056,-0.574041727269,-0.0119417050239,0.0,-0.00851307699666,0.00865953910382,-0.999926267233,0.0,0.65768037108,0.255636143396,0.303478243446,1.0,-0.01278,-0.0167965714286,0.64
0.46196604772,0.524497742208,-0.124098601635,-1.39224410677,0.0774587370993,1.90744624907,0.15452831678,-0.0109187745066,-0.0678451072193,5.99253221245e-05,-0.112641060147,-0.00851467166485,0.0400822437581,-0.0161282830155,0.574089044338,0.818778207572,0.00218240168798,0.0,0.818736599893,-0.574027998831,-0.0119575689225,0.0,-0.00853800155866,0.00865168802474,-0.999926122683,0.0,0.657441488563,0.255335628699,0.303477400663,1.0,-0.01314,-0.0172697142857,0.658
0.461819818166,0.523371239388,-0.124101798331,-1.39402988851,0.0773516869697,1.90810159846,0.154297140932,-0.0113653807249,-0.0689146807077,-6.29767838155e-05,-0.110559888846,-0.0054244481806,0.0446570594084,-0.014477810318,0.574083086528,0.818782398385,0.00217732829201,0.0,0.818740692585,-0.574022030189,-0.0119638649571,0.0,-0.00854613217651,0.0086510863554,-0.999926058431,0.0,0.65723816562,0.255086178698,0.303477267804,1.0,-0.01344,-0.017664,0.673
0.461659932901,0.522153389856,-0.124102500745,-1.39597345531,0.0772274803509,1.90885729286,0.154026829226,-0.00613075427185,-0.071107773692,0.000209661981598,-0.112522169377,-0.00993764805593,0.0495016689102,-0.0155541308181,0.574069754219,0.818791691676,0.00219768826566,0.0,0.818750326374,-0.574008692484,-0.0119444931453,0.0,-0.00851872359265,0.00865649689337,-0.999926245485,0.0,0.656998765144,0.254778606126,0.303472662755,1.0,-0.0138,-0.0181371428571,0.691
0.46148704279,0.520899404181,-0.124105618696,-1.39798176917,0.0771067386757,1.90962793184,0.153753568433,-0.00705595653769,-0.0719837274115,0.000331222381123,-0.119622080733,0.000114070805027,0.0465747384631,-0.0237748324382,0.57406477434,0.818795152395,0.00220911257813,0.0,0.818753943085,-0.574003674029,-0.0119377462353,0.0,-0.00850669379201,0.00866192600167,-0.999926300884,0.0,0.656763354617,0.254474045543,0.303464624906,1.0,-0.01414,-0.018584,0.708
0.461327267959,0.519675508818,-0.124108856296,-1.39991471115,0.0769798072718,1.91032953573,0.153499145477,-0.00872409645829,-0.0778360743631,0.000668165881813,-0.121015388215,-0.0067709997498,0.0503651332415,-0.0159102065162,0.574058194977,0.818799798848,0.00219660802719,0.0,0.818758472725,-0.573997193213,-0.0119386944779,0.0,-0.00851471772953,0.00865216341685,-0.999926317111,0.0,0.656527496246,0.254180994715,0.303464956816,1.0,-0.01446,-0.0190045714286,0.724
0.461144401371,0.51825580183,-0.124114220079,-1.40211810803,0.0768371464482,1.91111211254,0.153207092115,-0.0113137855608,-0.0808746248491,0.00027639343403,-0.122958328585,-0.00177853639845,0.0484359292901,-0.0167233590457,0.574050882247,0.818804941096,0.00219087408017,0.0,0.818763560871,-0.573989925666,-0.0119391592977,0.0,-0.00851846698199,0.0086476592857,-0.999926324141,0.0,0.656255513102,0.25384503664,0.30348069945,1.0,-0.01482,-0.0194777142857,0.742
0.460954008409,0.516877872551,-0.124115301249,-1.40425282799,0.0767002992068,1.91187254464,0.152908016947,-0.00941077032061,-0.0828806787434,0.0012065336061,-0.120050864836,-0.00689813563718,0.0500352669189,-0.0161569018084,0.574038547882,0.818813587273,0.00219128817928,0.0,0.818772202176,-0.573977580747,-0.0119400437664,0.0,-0.00851908379949,0.00864837774155,-0.999926312672,0.0,0.655994062507,0.253513735213,0.303497312783,1.0,-0.01516,-0.0199245714286,0.759
0.460780790037,0.515615285361,-0.124126939554,-1.40630088156,0.0765807274379,1.91265324581,0.152638039165,-0.0105500128037,-0.0805555238739,-3.91018646712e-05,-0.131713765668,-0.00438729396095,0.0493584952982,-0.0137144988084,0.574043832083,0.818809900598,0.00218458949417,0.0,0.818768428142,-0.573982891507,-0.0119435437254,0.0,-0.00852573900284,0.00864495695726,-0.99992628553,0.0,0.655750513231,0.253200461965,0.303476073063,1.0,-0.01548,-0.0203451428571,0.775
0.460597167907,0.514223547572,-0.124130569335,-1.4085241641,0.0764502979554,1.91346164534,0.1523304264,-0.0137847830396,-0.0851114038947,-0.000571242415087,-0.132509212613,-0.00905485675016,0.048109852657,-0.0102536815497,0.574026824587,0.818821872223,0.00216636196438,0.0,0.818780067085,-0.573965864546,-0.0119639032593,0.0,-0.00855305252085,0.00864154176859,-0.999926081792,0.0,0.655474916087,0.25286615963,0.303463705848,1.0,-0.01582,-0.020792,0.792
0.460396981046,0.51281917433,-0.124136549298,-1.41079375386,0.0763022908447,1.91424643696,0.152022700701,-0.0107471363409,-0.0814723998288,-0.00104849760709,-0.132950894995,-0.0093679021842,0.0468633165095,-0.0164922679883,0.574021891066,0.818825524055,0.0020920409227,0.0,0.818782730178,-0.573961220975,-0.0120043525667,0.0,-0.00862888605183,0.00860385379053,-0.999925755257,0.0,0.655188707718,0.252510001754,0.303435731065,1.0,-0.01616,-0.0212388571429,0.809
0.460212469373,0.511488015052,-0.124138772202,-1.41296497839,0.0761731666998,1.91504972804,0.151708869353,-0.0128327193541,-0.0761667379149,-0.000905041412484,-0.134339366948,-0.00346096722522,0.0575718028977,-0.019006221146,0.573996559345,0.818843361882,0.00206045240841,0.0,0.818800081462,-0.573935951941,-0.0120289886512,0.0,-0.00866745666812,0.008591862118,-0.999925524777,0.0,0.654921010156,0.252181304075,0.303404400226,1.0,-0.01648,-0.0216594285714,0.825
0.460013730682,0.51001836691,-0.124137754012,-1.4152901313,0.0760333826,1.91594387178,0.151383524112,-0.0104317017472,-0.0824080684536,-0.00176609328885,-0.14123413283,-0.00731032291615,0.0550737647347,-0.0161941401077,0.573976088848,0.818857629553,0.00209257136475,0.0,0.818814747823,-0.573915327824,-0.0120146633977,0.0,-0.00863750630769,0.00860972356403,-0.999925630307,0.0,0.654640984718,0.25183320406,0.30340405446,1.0,-0.01682,-0.0221062857143,0.842
0.459820771961,0.508674310126,-0.124142297096,-1.41737212424,0.075895234798,1.91669438298,0.151092306232,-0.015274958855,-0.0906020266924,-0.00230990590006,-0.141221630645,-0.00341212580835,0.049182165899,-0.0223870637347,0.573969626693,0.818862147275,0.00209721130689,0.0,0.818819379735,-0.573908900471,-0.0120060081439,0.0,-0.00862782348605,0.00860848701395,-0.999925724548,0.0,0.654385869542,0.251503532189,0.303418741952,1.0,-0.01712,-0.0225005714286,0.857
0.459610892286,0.50715782712,-0.124148981551,-1.41976025891,0.0757467080623,1.91755794548,0.150749059324,-0.0154111786685,-0.0904553655698,-0.000290337131363,-0.141377255774,-0.00790079998569,0.0537286015178,-0.0187938912009,0.573948830226,0.81887674762,0.0020879154124,0.0,0.818833832825,-0.573888119851,-0.01201361793,0.0,-0.00863960886649,0.00860502341083,-0.999925652602,0.0,0.6540890979,0.251133532033,0.303417794697,1.0,-0.01746,-0.0229474285714,0.874
0.459370856973,0.505388134596,-0.124149376276,-1.42249583326,0.0755695757981,1.91858264426,0.150381485345,-0.0143823572816,-0.0962541624838,0.00168566344355,-0.147704572743,-0.00726846267098,0.0568800764266,-0.0220645386558,0.573938161039,0.818884111825,0.00213204244116,0.0,0.818841833942,-0.573877328631,-0.0119837210835,0.0,-0.00858991335764,0.00862388642017,-0.999925918242,0.0,0.653754540719,0.250715972329,0.30344162353,1.0,-0.01784,-0.0234468571429,0.893
0.459155667061,0.503833127891,-0.124159008214,-1.42483803944,0.0754272595911,1.91948315366,0.150059009562,-0.0151457947683,-0.100470824061,0.00094097642211,-0.146348775085,-0.00769489332715,0.0601757778295,-0.0208453313612,0.573939544855,0.818882890426,0.00222654898752,0.0,0.818841900871,-0.573878382179,-0.0119285685366,0.0,-0.00849049581945,0.00866963571935,-0.999926371738,0.0,0.653476768011,0.250350330538,0.303491502679,1.0,-0.01816,-0.0238674285714,0.909
0.458914683642,0.502052642067,-0.124168272969,-1.42748531504,0.0752586971583,1.92045415084,0.149699405011,-0.0101584424806,-0.0961863222091,-0.000532117889892,-0.149127863345,-0.0136595503406,0.0548004607242,-0.0270272503638,0.573939064898,0.818882990185,0.00231194095597,0.0,0.81884316953,-0.573877620312,-0.0118780268106,0.0,-0.00840010466612,0.00871054836573,-0.999926779614,0.0,0.653152381783,0.249935547187,0.303559048576,1.0,-0.01852,-0.0243405714286,0.927
0.458683709348,0.500337550103,-0.12416865299,-1.43006957323,0.0750873615645,1.92137337435,0.149336361814,-0.0118543220448,-0.0957073578465,-0.0005777731878,-0.152002376827,-0.0140031821591,0.0581667392342,-0.0150218314098,0.573916469035,0.818898716908,0.00235051460301,0.0,0.818859420336,-0.5738548994,-0.0118554233583,0.0,-0.00835969760552,0.008728931797,-0.999926957935,0.0,0.652825531122,0.249535335559,0.303605490383,1.0,-0.01886,-0.0247874285714,0.944
0.45847395578,0.498843443359,-0.124171065589,-1.43237944788,0.0749433229795,1.92222247277,0.14900453491,-0.00997525546707,-0.104501041412,-0.000825864491189,-0.15850740507,-0.00825053019941,0.0602485655842,-0.0197984308147,0.573896909848,0.81891234593,0.00237769899897,0.0,0.818873383062,-0.57383521646,-0.011843722554,0.0,-0.00833472367078,0.0087442785525,-0.999927032325,0.0,0.652537681968,0.249177097851,0.303621852133,1.0,-0.01916,-0.0251817142857,0.959
0.45819491758,0.497076752192,-0.124168926928,-1.43517935415,0.0747692174354,1.92325429821,0.148587661895,-0.0154858926148,-0.0981544722923,-0.000715339052501,-0.154288219904,-0.0103259866604,0.0567959462153,-0.0168849018604,0.573877588151,0.818925892684,0.00237550218971,0.0,0.818886840324,-0.573815841823,-0.0118519752583,0.0,-0.00834294925732,0.00874701886557,-0.99992693976,0.0,0.65219187403,0.248729455656,0.303610220541,1.0,-0.01952,-0.0256548571429,0.977
0.457931041665,0.495418826821,-0.124166282287,-1.4378852694,0.0746070395688,1.92417777867,0.148196659858,-0.0177507321552,-0.0987663610938,0.00158555053257,-0.158624736723,-0.013387390596,0.0490263948622,-0.0249097777652,0.573864284307,0.818935502944,0.00227422883314,0.0,0.818894887474,-0.573802685629,-0.0119326499648,0.0,-0.00846727510949,0.00871024369553,-0.999926215731,0.0,0.65183840314,0.248296566336,0.303557545344,1.0,-0.01986,-0.0261017142857,0.994
0.457658728188,0.493801609772,-0.124178334098,-1.44052357627,0.074439124534,1.92511204918,0.147830502958,-0.0209442625126,-0.105226277853,-0.00338474959002,-0.172694029078,-0.0160090040506,0.0644910356727,-0.0326486203564,0.573883388389,0.818922333034,0.00219451389602,0.0,0.818880643436,-0.573822076035,-0.0119776358929,0.0,-0.00854965761737,0.00867097816552,-0.999925855997,0.0,0.651506850355,0.247856959134,0.303509469638,1.0,-0.0243051428571,-0.0319439020408,1.01
0.457364361357,0.491444150074,-0.124259870538,-1.4441293357,0.0742372512285,1.92648213154,0.147303924714,-0.0204658186913,-0.146172758933,-0.00320062436345,-0.230640209411,-0.00964186398984,0.0859872089334,-0.032187716902,0.573878844761,0.818925254183,0.00229052357454,0.0,0.81888499834,-0.57381733085,-0.0119070236256,0.0,-0.00843678265957,0.00870903203219,-0.999926484027,0.0,0.651068174971,0.247281292872,0.30355504759,1.0,-0.0324748571429,-0.0426812408163,1.027
0.456935895825,0.488502921398,-0.124263948314,-1.44887806974,0.0739782909005,1.92820759082,0.146602361869,-0.0289725117331,-0.187598069798,0.0010038691797,-0.304176363978,-0.0182298250297,0.112491865329,-0.0416026730323,0.573825627431,0.818962689989,0.00223799255963,0.0,0.818921282367,-0.573763853423,-0.0119883564941,0.0,-0.00853410175595,0.00871213365955,-0.999925631152,0.0,0.650453454306,0.246551251986,0.3034898226,1.0,-0.0406445714286,-0.0534185795918,1.044
0.456397325809,0.485004590939,-0.124337425557,-1.45431378625,0.0736530658618,1.9302711772,0.145795869757,-0.0353660045322,-0.233595874188,-0.0082393059436,-0.355574883919,-0.0261620466063,0.132044027393,-0.0541326753946,0.573841112125,0.818951574349,0.00233319680018,0.0,0.818911610574,-0.573779160036,-0.0119162274346,0.0,-0.00842023563332,0.00874887159575,-0.999926275721,0.0,0.649794963374,0.245647391678,0.303513512881,1.0,-0.0483337142857,-0.0635243102041,1.06
0.455679806506,0.480375214067,-0.124455639919,-1.46161233562,0.0732088424497,1.93282567218,0.144669871143,-0.0406385162654,-0.277635031424,-0.00308217418819,-0.438093000634,-0.0272214148392,0.149736902603,-0.066273247083,0.573829558472,0.818959981961,0.0022209619101,0.0,0.818918587861,-0.573768094138,-0.0119694405366,0.0,-0.00852833992057,0.00868737302822,-0.999925895738,0.0,0.648860801806,0.244410625401,0.303475805759,1.0,-0.056984,-0.0748932571429,1.078
0.454961789332,0.47588644754,-0.124551443316,-1.46855708638,0.0727901165855,1.93530679927,0.143657788356,-0.0442988361433,-0.305025245486,-0.00715397843248,-0.488119326475,-0.0229045200301,0.165747529905,-0.0588356771907,0.573882021684,0.818923183212,0.00223429778257,0.0,0.818881976256,-0.573820509714,-0.0119615423601,0.0,-0.00851366236757,0.00869430768817,-0.999925960543,0.0,0.647980176438,0.243226775204,0.303496920923,1.0,-0.0641925714286,-0.0843673795918,1.093
0.454085875534,0.470571554666,-0.124624469389,-1.47680319355,0.0722933112244,1.93827545213,0.142447091779,-0.0570684452448,-0.341660966797,-0.00106138770241,-0.52572579951,-0.0296614660987,0.191233814373,-0.0770086199289,0.573922521081,0.818894714651,0.00226561568885,0.0,0.818853754689,-0.57386071122,-0.0119649258412,0.0,-0.00849803031543,0.00872231624845,-0.999925849591,0.0,0.646924141258,0.241832702343,0.30350626897,1.0,-0.0718817142857,-0.0944731102041,1.109
0.452905978437,0.463434866811,-0.124685512244,-1.48761575278,0.0716262588092,1.94227494292,0.140683721107,-0.0611939253276,-0.389785152727,-0.00505791973405,-0.60664784902,-0.0373690744915,0.212699014086,-0.0925588086962,0.573820415638,0.81896545617,0.00254147581449,0.0,0.818928051665,-0.573757498923,-0.0118290120869,0.0,-0.00822951991668,0.00886918522872,-0.999926803599,0.0,0.645547734968,0.240014108326,0.303631619294,1.0,-0.0810125714286,-0.106473665306,1.128
0.45175462203,0.456853083388,-0.124750363018,-1.4978689714,0.0709571994415,1.94574108137,0.139162774175,-0.0727686731031,-0.421351071609,-0.000572456312697,-0.656838022339,-0.0483925565253,0.229890631978,-0.0960701113343,0.573858526511,0.818939300767,0.00235798890033,0.0,0.818899182308,-0.573795975969,-0.0119605216202,0.0,-0.00844209920667,0.00879477182228,-0.999925688714,0.0,0.64416403537,0.238238410593,0.303584143425,1.0,-0.0887017142857,-0.116579395918,1.144
0.450356941387,0.448663294718,-0.124879231051,-1.51013783561,0.0700990912817,1.95022728524,0.137192514985,-0.0782209968626,-0.46985099809,-0.00449780500609,-0.690943907384,-0.0476452022571,0.268435675509,-0.107951561212,0.573808921454,0.81897318341,0.00264450682015,0.0,0.818937715132,-0.573746279537,-0.0117035188132,0.0,-0.00806774743944,0.00888144087563,-0.999928013139,0.0,0.642578820437,0.236091441362,0.303758740369,1.0,-0.097352,-0.127948342857,1.162
0.448951222956,0.440920029102,-0.124917465615,-1.52196295288,0.0693536534666,1.95440129819,0.135379219045,-0.092800246642,-0.49524269397,-0.00287798500975,-0.778740579922,-0.0460799431932,0.25862658819,-0.130536685738,0.573829841667,0.818958229144,0.0027347085457,0.0,0.818923454328,-0.573766347672,-0.0117175565509,0.0,-0.00802726017827,0.00896357316573,-0.999927606105,0.0,0.64098235861,0.234040929945,0.303794302148,1.0,-0.105041142857,-0.138054073469,1.178
0.447430855545,0.43260949967,-0.124975975291,-1.53450406245,0.0685006864604,1.95878176673,0.133322865767,-0.0984444264481,-0.537862801464,-0.00571919528977,-0.779571794412,-0.0523261963325,0.290332152912,-0.135467105486,0.573748994499,0.819014495923,0.00284493967028,0.0,0.81898113349,-0.57368510681,-0.011663966435,0.0,-0.00792101057563,0.00902231463735,-0.999927925118,0.0,0.639269100488,0.231830706706,0.303879308575,1.0,-0.112730285714,-0.148159804082,1.194
0.445537747893,0.422724076923,-0.125016669221,-1.54953227648,0.0674272150667,1.96402730211,0.130830573802,-0.110553357761,-0.567341861689,-0.0041372038713,-0.829465728786,-0.0572875302781,0.290439586636,-0.14668748265,0.573620805265,0.819104221805,0.00286225247883,0.0,0.819071228269,-0.573557040042,-0.01163579568,0.0,-0.00788941620162,0.00901909678685,-0.999928203925,0.0,0.637057971422,0.228991674045,0.303899942082,1.0,-0.121861142857,-0.160160359184,1.213
0.443808301384,0.413960266239,-0.12511704571,-1.56271375458,0.0664699344843,1.96859323859,0.12870869699,-0.115305466828,-0.608676418288,-0.00516424337315,-0.891029103967,-0.0626720425886,0.320232363295,-0.144734196479,0.573669606448,0.819069674467,0.00296612653975,0.0,0.819038495534,-0.573606036358,-0.0115240960153,0.0,-0.00773779846056,0.00904056950341,-0.999929194782,0.0,0.635356639765,0.22672585132,0.303976062329,1.0,-0.128589142857,-0.169002873469,1.227
0.441674154453,0.403645711462,-0.125197122981,-1.57854340449,0.0654093617729,1.97392804092,0.126066010093,-0.133094436471,-0.609857189445,-0.00315638131848,-0.961694231882,-0.0701958690261,0.312517834506,-0.156134876333,0.573662815142,0.819074950089,0.00281914212036,0.0,0.819041111694,-0.573598867176,-0.0116937517794,0.0,-0.00796115570532,0.00901743747523,-0.999927650293,0.0,0.633079322151,0.223810769128,0.303878109176,1.0,-0.136758857143,-0.179740212245,1.244
0.439158181472,0.391964302513,-0.125336477979,-1.59585699573,0.0641676141105,1.97989717663,0.123073832822,-0.146129921926,-0.654257236184,-0.00322526299499,-0.984945109606,-0.0799616947072,0.333998050938,-0.17352571622,0.573711137605,0.819040228316,0.00306298705416,0.0,0.819009872399,-0.573646748212,-0.0115318723878,0.0,-0.00768814285052,0.00912475594251,-0.99992881311,0.0,0.630629085606,0.220491155292,0.304019929459,1.0,-0.145409142857,-0.191109159184,1.262
0.436471153771,0.379835925282,-0.125479638184,-1.6140811223,0.0627805196116,1.98593185035,0.119834277494,-0.153308543171,-0.699758789921,-0.00642978778877,-1.01280929209,-0.0755695862772,0.348869488622,-0.185091194917,0.573664482864,0.819073349508,0.0029421296349,0.0,0.819041731026,-0.573600840117,-0.01155274671,0.0,-0.00777508860798,0.00903730141216,-0.999928935065,0.0,0.627947252379,0.216962210584,0.303999973556,1.0,-0.154059428571,-0.202478106122,1.28
0.433849102776,0.368592417329,-0.125596408418,-1.63091484715,0.0615335932418,1.99149597211,0.116848025663,-0.170793268109,-0.708224819052,-0.00956130560415,-1.07019878613,-0.0928600675092,0.348690284453,-0.183622703819,0.573717268141,0.819036576048,0.00288621435986,0.0,0.81900408972,-0.573653635653,-0.0115997510979,0.0,-0.00784508410364,0.00901897251874,-0.999928553843,0.0,0.625440099967,0.213645429735,0.303974307409,1.0,-0.161748571429,-0.212583836735,1.296
0.430840329994,0.356128324865,-0.125775946759,-1.64928342175,0.0600706971246,1.99759001329,0.113505738831,-0.183095020762,-0.745538259216,-0.00984155230307,-1.09825116039,-0.093605067704,0.349725531333,-0.211085712606,0.573806074299,0.818974123005,0.00295327747093,0.0,0.818943317736,-0.57374315807,-0.0114620157165,0.0,-0.0076928196371,0.00899571428747,-0.999929946371,0.0,0.622700321463,0.209911234901,0.304040812154,1.0,-0.169918285714,-0.22332117551,1.313
0.427775753008,0.343948562901,-0.125931242316,-1.6671455128,0.0587785241883,2.00338162192,0.110127126137,-0.191168058352,-0.769153368793,-0.00818857888047,-1.11919186143,-0.0845537168894,0.369842277162,-0.212353486932,0.573913880172,0.818898153323,0.00306912551957,0.0,0.81886823995,-0.573849877036,-0.0114835154655,0.0,-0.00764275945314,0.00910393361016,-0.999929350815,0.0,0.619798525224,0.206006139706,0.30410284159,1.0,-0.178088,-0.234058514286,1.33
0.42458364804,0.331506287305,-0.126021854957,-1.68554881782,0.0573396051843,2.0092507647,0.106631692544,-0.200492411764,-0.801253476423,-0.00750946899513,-1.16862891056,-0.0912536832697,0.360409087962,-0.218339035643,0.57390372277,0.818905742476,0.00294088960023,0.0,0.818873791538,-0.573839685624,-0.0115963630802,0.0,-0.00780887949973,0.00906358786193,-0.999928433827,0.0,0.617067323006,0.202474873314,0.304030061491,1.0,-0.185296571429,-0.243532636735,1.345
0.421432153623,0.319317485786,-0.12608408815,-1.70313579056,0.0558277703486,2.01491223903,0.103156556533,-0.217629972825,-0.798594237309,-0.00428456320679,-1.18128220659,-0.103357071753,0.375223528498,-0.22620909629,0.573781417732,0.818990970023,0.0030696234432,0.0,0.818961449729,-0.573717891223,-0.0114311875539,0.0,-0.00760108783913,0.00907308095116,-0.999929948879,0.0,0.614275129912,0.198840225484,0.304127093576,1.0,-0.192505142857,-0.253006759184,1.36
0.416929048454,0.302621191307,-0.126186831662,-1.72726581482,0.0538401033157,2.022461581,0.0981975652536,-0.231023410911,-0.865190412197,-0.0108400374155,-1.22607141819,-0.108504718899,0.371187907939,-0.255149533917,0.573603839937,0.819115190901,0.00311219312066,0.0,0.819086060527,-0.573540016843,-0.0114289733151,0.0,-0.00757682424134,0.009105032283,-0.9999298426,0.0,0.610339560649,0.193773107309,0.304161281073,1.0,-0.202116571429,-0.265638922449,1.38
0.412743308632,0.287941282868,-0.126331840975,-1.74826991996,0.052127937691,2.02887226533,0.0938825302493,-0.246946303858,-0.872290204623,-0.00952769543767,-1.24467389943,-0.10286580957,0.386604430275,-0.257134045408,0.573676905672,0.819063823777,0.00316344444047,0.0,0.819034867248,-0.573612329597,-0.0114685861045,0.0,-0.00757905917339,0.00917041084503,-0.999929228209,0.0,0.606856093772,0.189203374563,0.304211153921,1.0,-0.210286285714,-0.276376261224,1.397
0.408836487542,0.274787098505,-0.126455422597,-1.76722143209,0.0505163776038,2.03450527689,0.0898367229147,-0.268460483876,-0.900906392476,-0.00636822641181,-1.26883065769,-0.110627708107,0.377232784731,-0.26823573211,0.573666947093,0.819071281678,0.00303582666224,0.0,0.819040294661,-0.573602319785,-0.0115810776958,0.0,-0.0077445200416,0.00913032163676,-0.99992832725,0.0,0.603429287503,0.184734905805,0.304162377005,1.0,-0.217975428571,-0.286481991837,1.413
0.403782923696,0.25848762271,-0.126669652883,-1.79032813924,0.0484689290371,2.04138609769,0.0847593568401,-0.287908770572,-0.908181918751,-0.00912177316267,-1.29729581297,-0.114031297599,0.360942831054,-0.283823950891,0.573739124062,0.819020960975,0.00297151560787,0.0,0.81898921862,-0.573674788559,-0.0116036053656,0.0,-0.00779906258539,0.00909125665908,-0.999928259264,0.0,0.599685776002,0.179751629359,0.304147297653,1.0,-0.226145142857,-0.297219330612,1.43
0.398680378945,0.242645199616,-0.126839054743,-1.81259856685,0.0464468828928,2.0478639665,0.0797256225245,-0.309622683812,-0.934957678477,-0.00448674980452,-1.33419330002,-0.112580255447,0.375557182201,-0.309686257289,0.573795740672,0.818981406181,0.00294129523885,0.0,0.818949315323,-0.573731547791,-0.0116136515279,0.0,-0.00782400142557,0.00907281018206,-0.999928231983,0.0,0.595790694889,0.174595856206,0.30415760909,1.0,-0.234314857143,-0.307956669388,1.447
0.393727648547,0.227341497489,-0.126953524706,-1.83370409689,0.0445944139421,2.05402271731,0.0747460379518,-0.310018739696,-0.969473999517,-0.00902070527058,-1.35015861659,-0.12176043209,0.386707363256,-0.321958069178,0.573703265553,0.819045136059,0.00322103918228,0.0,0.819016243852,-0.573637682947,-0.0115303040833,0.0,-0.00759627627539,0.00925323467124,-0.999928334549,0.0,0.591785033502,0.169423368248,0.304274131485,1.0,-0.242484571429,-0.318694008163,1.464
0.387769729272,0.209787635023,-0.127128125778,-1.85789759803,0.0422721370073,2.06077923971,0.0688452537224,-0.335101635496,-0.984155449273,-0.0097258745824,-1.34922291615,-0.122481382666,0.366105278716,-0.326748530246,0.573613432597,0.819107989161,0.00323711876042,0.0,0.819079555701,-0.573548118593,-0.0114884286097,0.0,-0.00755376571578,0.0092415526945,-0.999928764626,0.0,0.587612429887,0.163989378884,0.30432673058,1.0,-0.250654285714,-0.329431346939,1.481
0.381691945409,0.192882701292,-0.12732396114,-1.88107323853,0.0400366620193,2.06708913063,0.0629883851682,-0.364298936818,-1.01040354653,-0.013121085405,-1.3645079625,-0.124722032653,0.371525926733,-0.346733535605,0.573614310994,0.819107496368,0.00320601271188,0.0,0.819078529589,-0.573548932623,-0.0115209007523,0.0,-0.00759819729107,0.00923470752168,-0.999928491231,0.0,0.583303851264,0.158317113167,0.304328497497,1.0,-0.258824,-0.340168685714,1.498
0.375521122153,0.176578578341,-0.127609834158,-1.90309263727,0.0379077232109,2.07299028526,0.0571823621144,-0.393592215428,-1.04694824475,-0.0198277263737,-1.37823820671,-0.134849375081,0.383268525561,-0.366287849938,0.573773730767,0.818995401887,0.00331428277487,0.0,0.818967752567,-0.573707899183,-0.0114810091828,0.0,-0.00750160795089,0.00930197127909,-0.999928597055,0.0,0.579172666249,0.152707449978,0.304393048156,1.0,-0.266513142857,-0.350274416326,1.514
0.368689373217,0.159008290837,-0.127813995099,-1.9267449717,0.0354927234972,2.07906052664,0.050762201648,-0.399075853239,-1.07496763249,-0.0173537489797,-1.37460693705,-0.1475602767,0.371370541508,-0.393823728131,0.573775504118,0.818994482997,0.00323335685941,0.0,0.818965656504,-0.573709759385,-0.0115374327861,0.0,-0.00759423162642,0.00926808297545,-0.999928212565,0.0,0.574587274644,0.146675996998,0.304386776413,1.0,-0.274682857143,-0.361011755102,1.531
0.361543364316,0.141196869219,-0.128010299043,-1.95061542807,0.033000814241,2.08504732578,0.0441011804187,-0.425228491813,-1.0657290527,-0.0109935598551,-1.3815945336,-0.135201553089,0.340211171509,-0.393986041824,0.573749754396,0.819013023093,0.0031039065239,0.0,0.818982277403,-0.573684135048,-0.0116313969518,0.0,-0.0077457527806,0.00921573300959,-0.999927534164,0.0,0.569850988428,0.140528541049,0.304324557072,1.0,-0.282852571429,-0.371749093878,1.548
0.354367275822,0.124025364496,-0.128244440144,-1.97326655917,0.0306225822771,2.09059596922,0.0373975115476,-0.460943965992,-1.06453565304,-0.0159519512094,-1.43043188417,-0.151042585801,0.331308120293,-0.421484834174,0.573716902039,0.819035986683,0.00311700726847,0.0,0.819005116399,-0.57365089326,-0.011662713053,0.0,-0.00776425717492,0.0092441184808,-0.999927128637,0.0,0.565287146311,0.134528318781,0.304325489021,1.0,-0.290541714286,-0.38185482449,1.564
0.345755545442,0.104291655798,-0.12862585573,-1.99889504288,0.0278006459743,2.09668374291,0.0295815794994,-0.484696058708,-1.09049306507,-0.0151700272504,-1.42931941933,-0.156975119644,0.321116153256,-0.440613529497,0.573873119508,0.818926284688,0.00318274335245,0.0,0.818896656628,-0.57380734362,-0.0115821013648,0.0,-0.00765875318577,0.00925317268314,-0.999927858545,0.0,0.560042316188,0.127487506339,0.304380781265,1.0,-0.299192,-0.393223771429,1.582
0.337827773766,0.086502368321,-0.128836439658,-2.02181600372,0.0253033054351,2.10191097744,0.0222303862047,-0.503946068924,-1.10753616874,-0.0219771200424,-1.4612978682,-0.15364687315,0.321239758427,-0.475935377239,0.573751238059,0.819011436899,0.00324498926265,0.0,0.818982045747,-0.573684587641,-0.0116253838129,0.0,-0.00765986945027,0.00932784589025,-0.999927156192,0.0,0.555198890832,0.121242736551,0.304392135581,1.0,-0.306881142857,-0.403329502041,1.598
0.329443712824,0.0684131232717,-0.129082936906,-2.04470970718,0.0226973558899,2.10689748061,0.0145220047319,-0.529986758677,-1.13057205463,-0.0184462350829,-1.43475953173,-0.162233598144,0.308701705055,-0.484733810608,0.573640143483,0.81908881795,0.0033527592656,0.0,0.819060720201,-0.573573037466,-0.0115868122096,0.0,-0.00756772170284,0.00939295488068,-0.999927248347,0.0,0.550268721737,0.114814928013,0.304468406014,1.0,-0.30998,-0.407402285714,1.614
0.319431904333,0.0482557511121,-0.129459697194,-2.070122695,0.0196855094892,2.11211816682,0.00569425330452,-0.564129104185,-1.11040287535,-0.0126061792755,-1.38462912109,-0.167930304156,0.269596630395,-0.493063058277,0.57384299083,0.818947091392,0.00326041063627,0.0,0.818917589171,-0.573775898791,-0.011659631845,0.0,-0.00767802436867,0.00936098585585,-0.999926707257,0.0,0.54468669572,0.107347187456,0.304453549501,1.0,-0.30998,-0.407402285714,1.632
0.30979956799,0.0293186437002,-0.129662727528,-2.09357480552,0.0169243836624,2.11674380695,-0.00285548378753,-0.573262220154,-1.10715688711,-0.0159528805475,-1.36952848033,-0.166367616418,0.248055838214,-0.509723839546,0.573851589973,0.818940711658,0.00334818991427,0.0,0.818911752682,-0.573783476995,-0.0116965699116,0.0,-0.00765780867327,0.0094541493337,-0.999925985774,0.0,0.539395622533,0.100457931313,0.304496179813,1.0,-0.30998,-0.407402285714,1.649
0.300405973568,0.0116234500092,-0.129883015559,-2.11510358089,0.0141901367192,2.12085888938,-0.0111321627843,-0.595105606202,-1.1021559464,-0.0180946178872,-1.34317579563,-0.168332198719,0.246844979728,-0.523913338812,0.573851038509,0.818940534239,0.0034833724378,0.0,0.818914153317,-0.573783533339,-0.0115244638258,0.0,-0.00743929204643,0.00946609077684,-0.999927522403,0.0,0.534467186564,0.0939143210607,0.30459509113,1.0,-0.30998,-0.407402285714,1.665
0.289547762069,-0.00800462740898,-0.130139268945,-2.13874215401,0.0112647557726,2.12505637457,-0.0207506482892,-0.603509363065,-1.09067227003,-0.00978392830111,-1.30186723505,-0.170982618066,0.252361465272,-0.545341474202,0.573848846067,0.818941420527,0.00363297592388,0.0,0.818916649091,-0.573780474914,-0.0114993630194,0.0,-0.00733291521668,0.00957418500175,-0.999927279024,0.0,0.528913223927,0.0865794909208,0.304670880334,1.0,-0.30998,-0.407402285714,1.683
0.279687056397,-0.0251719401669,-0.130311534908,-2.15933828135,0.00859141246681,2.12839785555,-0.0294557172326,-0.625253298504,-1.07306685619,-0.0111054402033,-1.25781474172,-0.171565711111,0.194883466435,-0.543620605626,0.573763601644,0.819001556922,0.00353922162746,0.0,0.818975132302,-0.57369495885,-0.0116005931596,0.0,-0.00747061408549,0.00955471657097,-0.999926445953,0.0,0.523928722795,0.0801116324025,0.304646848351,1.0,-0.30998,-0.407402285714,1.699
0.268780087758,-0.0433110256878,-0.130621544779,-2.1808131346,0.00578885559218,2.1317912195,-0.0389298159863,-0.642864373909,-1.04876661549,-0.0157525059256,-1.26269239142,-0.151448169021,0.178106676987,-0.569638768775,0.573912774864,0.818896857804,0.00357910996908,0.0,0.818870638703,-0.573843586783,-0.0116259141136,0.0,-0.00746671899206,0.00960327358841,-0.999926009885,0.0,0.518663204652,0.0731102967824,0.304640669161,1.0,-0.30998,-0.407402285714,1.716
0.259039790416,-0.0592685487703,-0.13076636882,-2.19921617878,0.0033346572394,2.13451804369,-0.047514769847,-0.647152835547,-1.05369588054,-0.0149468778618,-1.2318199474,-0.160843664936,0.175763364842,-0.561574991799,0.573818061775,0.818962282657,0.00378925668156,0.0,0.818939100571,-0.573748667264,-0.0114875267404,0.0,-0.00723390942561,0.00969510744826,-0.999926835046,0.0,0.514048128821,0.0670813013205,0.304750675794,1.0,-0.30998,-0.407402285714,1.731
0.248308135053,-0.0759979781052,-0.131030507482,-2.21852180477,0.000680700744537,2.13712068968,-0.0569108055103,-0.685630885142,-1.04384396296,-0.0164365888515,-1.1933997539,-0.160978093978,0.157125346234,-0.594965619226,0.573861880732,0.818931524375,0.0038009380345,0.0,0.818908223649,-0.573792084312,-0.0115200746993,0.0,-0.00725334382663,0.00972373835926,-0.999926416251,0.0,0.50878397145,0.060130758555,0.304751312918,1.0,-0.30998,-0.407402285714,1.748
0.236616951795,-0.0935533954753,-0.131269399178,-2.2386727072,-0.00207535531125,2.13948193754,-0.0671854965499,-0.683671430264,-1.04110819812,-0.00736816901938,-1.15705853508,-0.160027126793,0.132639733453,-0.599278061642,0.573805638474,0.818971537368,0.00366839708153,0.0,0.818945335474,-0.573734703905,-0.0117377145246,0.0,-0.00750831195428,0.00973957097251,-0.999924380145,0.0,0.503773165433,0.0536347857554,0.304675315919,1.0,-0.30998,-0.407402285714,1.764
0.22468451216,-0.110957504285,-0.131490545049,-2.25835060761,-0.00493779926219,2.14163346789,-0.0776475424388,-0.71553100747,-1.00581071139,-0.015846278052,-1.15346145097,-0.168208553733,0.106834033075,-0.614603827106,0.573716632355,0.819034422242,0.00354793494786,0.0,0.819006407443,-0.573645799545,-0.0118215114637,0.0,-0.00764711406247,0.00968816572901,-0.999923827645,0.0,0.498467077922,0.0467626120559,0.304622765134,1.0,-0.30998,-0.407402285714,1.781
0.211514780138,-0.129266383685,-0.131839232746,-2.27857998873,-0.00787236177175,2.14359947233,-0.0891011489126,-0.735402972911,-1.00533001184,-0.0132600875098,-1.11455895585,-0.16200177927,0.100297786091,-0.639858392385,0.573848221302,0.818941961503,0.0036096398757,0.0,0.818914461117,-0.573776789935,-0.0118341711722,0.0,-0.00762051849041,0.00974719203504,-0.999923457043,0.0,0.49289898397,0.0393568477622,0.304650905618,1.0,-0.30998,-0.407402285714,1.799
0.198148481228,-0.147371671654,-0.132116362843,-2.29829051166,-0.0107716367136,2.14531290505,-0.100949195658,-0.746590240436,-0.979464629299,-0.0152621327944,-1.08816838652,-0.165884227466,0.0945704669146,-0.666644779225,0.573736397912,0.819019795586,0.0037238488583,0.0,0.818993702487,-0.573664492724,-0.0117945739983,0.0,-0.00752389457709,0.00981697417179,-0.999923506089,0.0,0.48733491222,0.0320778690437,0.304687347625,1.0,-0.30998,-0.407402285714,1.817
0.185798902847,-0.163229720718,-0.132482050372,-2.31545438713,-0.0134108772544,2.14643658966,-0.111665757617,-0.765409957531,-0.993869737381,-0.0146999885949,-1.04970807131,-0.167300189429,0.0637309194095,-0.68091632112,0.57390557866,0.81890175892,0.00361149851255,0.0,0.818873490337,-0.573833121133,-0.0119374542737,0.0,-0.0077033531518,0.00980852083943,-0.99992222261,0.0,0.482340026044,0.0254657180089,0.304644575034,1.0,-0.30998,-0.407402285714,1.833
0.171742013767,-0.180918210344,-0.132752452498,-2.33416995818,-0.0162227877219,2.14750732814,-0.124155583113,-0.799228168284,-0.986937466365,-0.0222467934994,-1.04412004889,-0.159579410725,0.0480546507786,-0.704406640631,0.573801447344,0.818974214303,0.00372588685656,0.0,0.818946910357,-0.573727917098,-0.0119575106435,0.0,-0.00765539496877,0.00991273129417,-0.999921563267,0.0,0.4767701123,0.0182114744148,0.304681916149,1.0,-0.30998,-0.407402285714,1.851
0.158802023209,-0.196560197581,-0.133105258494,-2.35035569748,-0.0188086879603,2.14830138399,-0.135519927809,-0.801537819946,-0.970096815512,-0.00593636378425,-1.00619718435,-0.169210701296,0.0450577422872,-0.709754765377,0.573884484875,0.818915155788,0.00391312424883,0.0,0.818891151552,-0.573811434462,-0.0117671785513,0.0,-0.00739106771903,0.00995761573859,-0.999923106047,0.0,0.471852895044,0.0116425103817,0.30478144054,1.0,-0.30998,-0.407402285714,1.867
0.145700935484,-0.211866837236,-0.133331607253,-2.36630981424,-0.021250564168,2.14870050795,-0.147244587799,-0.823162128788,-0.966871274746,-0.0151634247019,-0.988955499505,-0.152066652231,0.0162885094991,-0.736489315399,0.573742240711,0.819015097643,0.00385460227574,0.0,0.81898873975,-0.573667294489,-0.012001095718,0.0,-0.0076179659919,0.0100426047595,-0.999920553186,0.0,0.466830984083,0.0052171022339,0.304719484157,1.0,-0.30998,-0.407402285714,1.883
0.130479117941,-0.228843467577,-0.133689376652,-2.38355179332,-0.0241196427622,2.14902836099,-0.160651857688,-0.848985393352,-0.935052130054,-0.00764405725919,-0.961116485151,-0.160553022679,0.00744118346309,-0.754725421249,0.573808318181,0.818968547884,0.00390876765001,0.0,0.818943351369,-0.573733771069,-0.011920322367,0.0,-0.00751992187696,0.0100412327335,-0.999921309114,0.0,0.461291636509,-0.00212786201249,0.304755803342,1.0,-0.30998,-0.407402285714,1.901
0.116669279902,-0.24381365491,-0.134007426728,-2.39844986974,-0.0265549328825,2.14913687502,-0.17299403974,-0.881394164979,-0.936544779076,-0.0291093809605,-0.899669333225,-0.148559803086,0.016550349543,-0.781062267822,0.573798222873,0.818974570399,0.00412302906894,0.0,0.818952669885,-0.573723640595,-0.0117667162905,0.0,-0.00727130216639,0.0101284815652,-0.999922267992,0.0,0.45607052599,-0.00904405271771,0.304842717822,1.0,-0.30998,-0.407402285714,1.918
0.102509511806,-0.25854164843,-0.134314288716,-2.41313837979,-0.02899182071,2.14905653576,-0.185683040892,-0.879500126464,-0.930429489822,-0.0119507437727,-0.924128813089,-0.158071498862,-0.00972663220375,-0.796444692581,0.57372587192,0.819025158559,0.00414251593254,0.0,0.819003127243,-0.573650701057,-0.0118109120927,0.0,-0.00729721747469,0.0101691551297,-0.999921666382,0.0,0.451395998503,-0.0151181903154,0.304809558478,1.0,-0.30998,-0.407402285714,1.933
0.0852285978081,-0.275756249286,-0.134797555332,-2.42981700407,-0.0318895515065,2.1487619282,-0.20109469831,-0.918838234745,-0.898386365802,-0.0248195298501,-0.859642325791,-0.152337695907,-0.0310122414967,-0.816516702368,0.57384073879,0.81894361181,0.00434903231088,0.0,0.818925295335,-0.573766370927,-0.011587025251,0.0,-0.00699392647788,0.0102108362903,-0.999923408974,0.0,0.445570244225,-0.0229189316226,0.304894803269,1.0,-0.30998,-0.407402285714,1.952
0.0695274908795,-0.290788670103,-0.13510640411,-2.4443953502,-0.0343192903926,2.14816355835,-0.215327303833,-0.925916356617,-0.877143261104,-0.0193188799868,-0.82614902688,-0.145265432317,-0.0434928247712,-0.857740885719,0.573734771315,0.819017625972,0.00439174596772,0.0,0.818998886648,-0.573658862786,-0.0117081047764,0.0,-0.00706991629894,0.0103143804582,-0.999921811863,0.0,0.440285717355,-0.0297589190805,0.304857531248,1.0,-0.30998,-0.407402285714,1.969
0.0542374745981,-0.304710375096,-0.135517165998,-2.45749179713,-0.0367303467896,2.14754782981,-0.229051503606,-0.960411135965,-0.843333696931,-0.0157117988577,-0.79700247101,-0.14975978306,-0.0488266407322,-0.856196706679,0.573819426124,0.818957548561,0.00453285333594,0.0,0.818941910028,-0.573744973898,-0.011471696798,0.0,-0.00679426167921,0.0102950242532,-0.999923922348,0.0,0.435399496869,-0.0363533792074,0.304933446619,1.0,-0.30998,-0.407402285714,1.985
0.0397976285186,-0.317526762866,-0.135807288991,-2.46965539518,-0.0388617008643,2.14666462023,-0.242168998374,-0.97199758492,-0.855007301819,-0.0218550876161,-0.780310008068,-0.14236568083,-0.0576593762785,-0.879153972043,0.57374845737,0.819007507922,0.00448960279298,0.0,0.818990301761,-0.573672629799,-0.0116338446584,0.0,-0.00695277774271,0.0103520408811,-0.999922244043,0.0,0.430703505254,-0.0423874112651,0.304874425086,1.0,-0.30998,-0.407402285714,2.0
0.0229937742556,-0.331739374291,-0.136201760554,-2.48273286312,-0.0412065258393,2.14567871925,-0.257503532221,-0.986418963695,-0.815624954384,-0.016530167757,-0.753891439133,-0.133814030237,-0.0630139470028,-0.912488101838,0.573729606137,0.819019616852,0.00468541937124,0.0,0.819005506348,-0.573654057288,-0.0114782415573,0.0,-0.00671322442038,0.0104229919473,-0.999923143975,0.0,0.425505157379,-0.0493042956795,0.304931410416,1.0,-0.30998,-0.407402285714,2.017
0.00475492215617,-0.34643236835,-0.136668406961,-2.49628130565,-0.0437614347611,2.14427288035,-0.274082600546,-1.02163034664,-0.792302316977,-0.021876461816,-0.746040091016,-0.148319624015,-0.0849383171594,-0.933842385986,0.573787957705,0.818979157304,0.00461155031658,0.0,0.818963270659,-0.573711357563,-0.0116269693017,0.0,-0.00687667912545,0.0104483064622,-0.999921769028,0.0,0.419877781983,-0.0566651117307,0.304874644362,1.0,-0.30998,-0.407402285714,2.035
-0.011705225509,-0.359247268212,-0.137006265111,-2.50762955856,-0.045892955765,2.14301394947,-0.289244258427,-1.04682123032,-0.804156460303,-0.0279174997883,-0.720950429182,-0.126905107339,-0.0783044341761,-0.952178993091,0.573704894933,0.819036207762,0.00480944970085,0.0,0.819023959507,-0.573629416777,-0.0113926670563,0.0,-0.00657229153212,0.0104752850753,-0.99992353377,0.0,0.414999908873,-0.0631437130528,0.30497929505,1.0,-0.30998,-0.407402285714,2.051
-0.0285529886644,-0.371670192827,-0.137436429105,-2.51881865898,-0.0480567160717,2.141528892,-0.304767897868,-1.04939104615,-0.767765542956,-0.0198873915124,-0.684128128921,-0.134538458011,-0.0948302436933,-0.978727089906,0.57369025517,0.819046763961,0.00475777990162,0.0,0.819032990865,-0.573613571589,-0.0115402454039,0.0,-0.00672300296978,0.0105175075278,-0.999922088598,0.0,0.409993169241,-0.0696721597847,0.304920840407,1.0,-0.30998,-0.407402285714,2.067
-0.0490009406546,-0.386080132781,-0.137937197661,-2.53128084499,-0.0505281142053,2.13970326245,-0.323542062295,-1.09264947693,-0.75014596465,-0.0217304128095,-0.647902543504,-0.134365569924,-0.0845021341859,-0.99491153174,0.573804257419,0.818965969266,0.00491551142432,0.0,0.818955128191,-0.573728542755,-0.0113491910923,0.0,-0.00647455673217,0.0105380003448,-0.999923512407,0.0,0.404154323374,-0.0774474649693,0.305016359777,1.0,-0.30998,-0.407402285714,2.086
-0.0664914299283,-0.397732892278,-0.138300296172,-2.54146866858,-0.0524879191558,2.13803278842,-0.339844521586,-1.10979151809,-0.724013582971,-0.0384061666853,-0.629223623152,-0.119598168471,-0.114218941274,-1.02878322555,0.573727416762,0.819019664479,0.00493835521995,0.0,0.819008295017,-0.573650315521,-0.0114662591119,0.0,-0.00655832892871,0.0106232656398,-0.999922064237,0.0,0.39918016419,-0.0839188882795,0.304979949215,1.0,-0.30998,-0.407402285714,2.102
-0.0864861606173,-0.410415889774,-0.138656331932,-2.55232087325,-0.0546138974397,2.13601146699,-0.358555059525,-1.11420714121,-0.696758901411,-0.0138969329039,-0.578516906163,-0.122959403984,-0.104054836989,-1.05585665252,0.573604618922,0.819105431105,0.00497803047944,0.0,0.819093923072,-0.573526367237,-0.0115498126287,0.0,-0.00660560969397,0.0107027064463,-0.99992090587,0.0,0.39361300446,-0.0911625798652,0.304981984927,1.0,-0.30998,-0.407402285714,2.12
-0.10472931774,-0.421315508807,-0.139042918525,-2.56143811094,-0.0565610200487,2.13435265453,-0.375552133857,-1.14007640412,-0.665686992554,-0.014166110269,-0.560286296738,-0.127543855835,-0.11001619175,-1.0752807321,0.573620375018,0.819093837829,0.00506923027676,0.0,0.819084763217,-0.573543931267,-0.0113250375091,0.0,-0.00636896479777,0.0106486065627,-0.99992301877,0.0,0.388705521273,-0.0977124917796,0.305042762354,1.0,-0.30998,-0.407402285714,2.136
-0.12322522897,-0.43177051455,-0.139484125355,-2.57033859921,-0.0583793317256,2.13236008708,-0.392897793015,-1.16944418593,-0.642946159967,-0.0354474744903,-0.541290479749,-0.114991915176,-0.118677356871,-1.08822733749,0.57365542268,0.819069613407,0.00501710308893,0.0,0.819057882986,-0.573575862608,-0.0116473624984,0.0,-0.00666243973937,0.0107910782536,-0.99991957903,0.0,0.383661250643,-0.104215115743,0.304959621121,1.0,-0.30998,-0.407402285714,2.152
-0.144292169174,-0.443064698959,-0.13986148689,-2.57954081484,-0.0602674611485,2.13030377382,-0.412811475589,-1.19253312006,-0.620013169102,-0.0297800314144,-0.483386742208,-0.0960559734147,-0.10941218281,-1.10606754198,0.573586835702,0.819116611624,0.00518318161688,0.0,0.819107509353,-0.573507567342,-0.0115197753421,0.0,-0.00646356990846,0.0108533834325,-0.999920209983,0.0,0.378147408223,-0.11148468607,0.305029057979,1.0,-0.30998,-0.407402285714,2.17
-0.164650427897,-0.453141894106,-0.140275212613,-2.58777233137,-0.0621404821064,2.12834360821,-0.432045681124,-1.20449950175,-0.570825273127,-0.0207502164764,-0.483198230524,-0.108626487637,-0.128288762179,-1.13944616808,0.573567396525,0.819130276756,0.00517477012647,0.0,0.819121275267,-0.573488508306,-0.0114897409309,0.0,-0.00644404753577,0.0108291135917,-0.999920599123,0.0,0.372889577464,-0.118432581671,0.305035190066,1.0,-0.30998,-0.407402285714,2.187
-0.184057163761,-0.462207893504,-0.140645816864,-2.59513412248,-0.0638210830224,2.12638744379,-0.450465503581,-1.20984786783,-0.546904740231,-0.0143060495649,-0.442815954627,-0.104161860297,-0.114174312823,-1.17433175949,0.573525030799,0.819160209645,0.00513194731405,0.0,0.819150022037,-0.573445224658,-0.011600112752,0.0,-0.00655958640573,0.0108569988096,-0.999919545465,0.0,0.367897620678,-0.124932192353,0.305017049873,1.0,-0.30998,-0.407402285714,2.203
-0.206202619879,-0.471698735258,-0.141074551845,-2.60275862169,-0.0654351503014,2.12441527744,-0.47153858197,-1.23635723275,-0.513727930745,-0.00674549131757,-0.407598210642,-0.0914762240889,-0.108940234663,-1.1667236182,0.573622507859,0.819090898941,0.00529760800385,0.0,0.819082370085,-0.57354134871,-0.0116249403474,0.0,-0.00648361042942,0.011007716688,-0.999918393155,0.0,0.362659226386,-0.131847558654,0.305006674784,1.0,-0.304163428571,-0.39975764898,2.22
-0.225910871908,-0.479438863102,-0.141303247048,-2.6087984807,-0.0667054247701,2.12270966329,-0.490159781754,-1.2435816871,-0.467862225914,-0.0226091143769,-0.369465397183,-0.074384676872,-0.107837400586,-1.15129877142,0.573774574176,0.818983422208,0.00544417842446,0.0,0.818977256629,-0.573693737666,-0.0115106640875,0.0,-0.00630387336648,0.0110633977006,-0.99991892792,0.0,0.357569178856,-0.138641833472,0.305066118618,1.0,-0.295993714286,-0.389020310204,2.237
-0.244073390314,-0.486096526065,-0.141339312125,-2.61413735521,-0.0678243557598,2.12110987431,-0.507538200318,-1.2034444636,-0.421658666351,0.00167924899745,-0.347947375727,-0.0654149952838,-0.102161491392,-1.13559612842,0.57366044214,0.819063499616,0.00542472316322,0.0,0.819056202267,-0.573578154503,-0.0116526866437,0.0,-0.00643291145516,0.0111280527741,-0.999917388634,0.0,0.353135770523,-0.144382954708,0.305023927358,1.0,-0.288785142857,-0.379546187755,2.252
-0.266996406328,-0.493686477575,-0.141374588863,-2.62017540109,-0.0690453602629,2.11926783847,-0.52934006021,-1.20433185799,-0.388898650756,0.00486564176569,-0.302013182964,-0.0474710568283,-0.0833344765,-1.12326025944,0.573735136636,0.81901082614,0.00547782403163,0.0,0.819003254365,-0.573650989994,-0.0117880413931,0.0,-0.00651229972317,0.0112497858413,-0.999915512566,0.0,0.347654907372,-0.151556918337,0.304979999491,1.0,-0.279654285714,-0.367545632653,2.271
-0.287133067915,-0.499755690015,-0.141262879659,-2.62486824391,-0.0700172950479,2.11778318053,-0.548512051246,-1.16619288773,-0.345698446957,0.0118484722862,-0.268273628462,-0.0638002292144,-0.0851520206266,-1.11717392014,0.573756531948,0.818995636657,0.00550782024983,0.0,0.818988678711,-0.573672666069,-0.0117457758742,0.0,-0.0064601776416,0.0112502746622,-0.999915845171,0.0,0.342945751744,-0.157768537948,0.304996398763,1.0,-0.271484571429,-0.356808293878,2.288
-0.305763048182,-0.504818033808,-0.141192842692,-2.62875067326,-0.0707305396596,2.1165014152,-0.566252917566,-1.17489899676,-0.305769437594,-0.00470478693766,-0.223916582057,-0.0481308892042,-0.0832586321823,-1.09511480519,0.573902673914,0.818892351492,0.00563776943066,0.0,0.818886947992,-0.573818097677,-0.011734738483,0.0,-0.00637455619059,0.0113515121474,-0.999915250511,0.0,0.338639872847,-0.16347051159,0.305011845568,1.0,-0.263795428571,-0.346702563265,2.304
-0.322820086127,-0.509107238218,-0.140973807607,-2.63196655108,-0.0712800485917,2.11544746063,-0.582648521984,-1.11965105041,-0.277465881362,0.0179225230822,-0.206611344319,-0.0352490766309,-0.0722463444535,-1.07268289429,0.573863668624,0.818918891208,0.00575207410715,0.0,0.818915632046,-0.573779909589,-0.0115995622523,0.0,-0.00619879544303,0.0113672496064,-0.999916176773,0.0,0.334759388262,-0.168610056505,0.30505933502,1.0,-0.256586857143,-0.337228440816,2.319
-0.341859793278,-0.5133906697,-0.140731379609,-2.63526026355,-0.0718798860377,2.11422352869,-0.600893231574,-1.09912634188,-0.233932399324,0.0200855692105,-0.183281706205,-0.0221196081502,-0.0655681562582,-1.06154302066,0.573891393182,0.818899236272,0.00578416510819,0.0,0.818895780927,-0.573806398989,-0.011690310559,0.0,-0.0062543158516,0.0114458173842,-0.999914934781,0.0,0.330403178683,-0.174292067305,0.305049809935,1.0,-0.248417142857,-0.326491102041,2.336
-0.361456176799,-0.517201211247,-0.140486871825,-2.63833302229,-0.0723532726084,2.1131229551,-0.619753619392,-1.08115890811,-0.195605179483,0.0239607766302,-0.161825314199,-0.0331814816569,-0.0643916246174,-1.03305136441,0.573910965246,0.818885025068,0.00585376715161,0.0,0.818881007293,-0.573823035762,-0.011906570673,0.0,-0.00639120903707,0.0116270740665,-0.999911977924,0.0,0.325698391144,-0.18039819836,0.304972523002,1.0,-0.239286285714,-0.314490546939,2.355
-0.379443262055,-0.520230927934,-0.14013178867,-2.64070888333,-0.072698478864,2.11228004501,-0.637078328102,-1.05530302135,-0.167484968305,0.0110577777627,-0.127475256881,-0.0160300872495,-0.0524529520806,-1.00950370292,0.573940046885,0.818864182787,0.00591773867679,0.0,0.818860525436,-0.573850997707,-0.0119674230676,0.0,-0.00640391716172,0.0117146115013,-0.99991087489,0.0,0.321919425286,-0.185358031745,0.304944118521,1.0,-0.231597142857,-0.304384816327,2.371
-0.395924216026,-0.522645850195,-0.13981318012,-2.64256285106,-0.0730001010619,2.11156680558,-0.653020442983,-1.01255782752,-0.144602809029,0.0231283580335,-0.110267965589,-0.0143968742899,-0.0445449740186,-0.985602162935,0.573916778955,0.818880277185,0.00594721551125,0.0,0.818876806828,-0.57382725465,-0.0119918289439,0.0,-0.00640732122071,0.0117525749621,-0.999910407595,0.0,0.318258587718,-0.190181105815,0.304935608875,1.0,-0.223908,-0.294279085714,2.387
-0.413987653881,-0.524979463353,-0.139452857425,-2.64426574213,-0.0732571529069,2.11086638225,-0.670445375629,-0.993263058545,-0.118258084892,0.0192497388271,-0.0893387506676,-0.0189738607025,-0.0399434709929,-0.960348722944,0.573973256598,0.818840239169,0.00600918703434,0.0,0.818837920759,-0.573884108548,-0.0119262896338,0.0,-0.00631727053887,0.0117661480517,-0.99991082095,0.0,0.314269530298,-0.195447003452,0.304966498782,1.0,-0.215257714286,-0.282910138776,2.405
-0.430423682776,-0.526687830976,-0.139039044944,-2.64554984273,-0.0733968120777,2.11033879852,-0.686362193445,-0.962283409027,-0.0949216699512,0.0203694885281,-0.0685099820709,-0.0111009702466,-0.0394421957973,-0.928913843891,0.573969964979,0.818842218161,0.00605375584845,0.0,0.81884057324,-0.573880814986,-0.0119026344745,0.0,-0.00627236603749,0.0117890425773,-0.999910833974,0.0,0.310668030173,-0.200196216847,0.304973789917,1.0,-0.207088,-0.2721728,2.422
-0.445449536914,-0.527988623847,-0.138661935002,-2.64652078053,-0.0735013466655,2.10993772639,-0.700912267051,-0.918691845979,-0.0761058475842,0.035684963362,-0.0529463234269,5.65562899027e-05,-0.0258092517773,-0.906911992255,0.573990931537,0.818827273307,0.00608719169398,0.0,0.818826301646,-0.573902095243,-0.0118583181514,0.0,-0.00621658193906,0.0117911467605,-0.999911157537,0.0,0.307377883271,-0.204526988277,0.304983541132,1.0,-0.199398857143,-0.262067069388,2.438
-0.459928592192,-0.528931170513,-0.13828632271,-2.64724418435,-0.0735207340773,2.1096212256,-0.714916316548,-0.90803531693,-0.049515496987,0.0129696818601,-0.0406016067587,0.000119769771685,-0.0164142420236,-0.86194570882,0.574063684766,0.818775829057,0.00614609516653,0.0,0.81877562922,-0.573974613373,-0.0118473245897,0.0,-0.00617271926007,0.0118336195797,-0.999910927525,0.0,0.304220292673,-0.208686509246,0.304981780148,1.0,-0.191709714286,-0.251961338776,2.454
-0.474746893497,-0.529624409954,-0.137791714986,-2.64776349491,-0.0735088068681,2.10933895868,-0.729308333781,-0.850802798718,-0.0302366339866,0.0294914407625,-0.0278881453586,0.00228434453507,-0.00593079037197,-0.843719552558,0.574038117392,0.818793736954,0.00614841509647,0.0,0.818793624136,-0.573949151292,-0.011837217016,0.0,-0.00616348019534,0.0118295246056,-0.999911032972,0.0,0.301011858749,-0.212911954918,0.304987611278,1.0,-0.18354,-0.241224,2.471
-0.48985824238,-0.530037956297,-0.137362104878,-2.64809896823,-0.0735198643655,2.1091083988,-0.743917106927,-0.837915167747,-0.0134319773443,0.0213253582607,-0.01779491107,-0.000571206431591,-0.0150975156147,-0.798131606096,0.574122345898,0.818734776769,0.00613548291846,0.0,0.818734293572,-0.57403302608,-0.0118738536245,0.0,-0.00619968643366,0.011840602939,-0.999910678016,0.0,0.297718296185,-0.2172371224,0.304977509039,1.0,-0.174889714286,-0.229855053061,2.489
-0.503330323446,-0.530197952407,-0.13678292309,-2.648241375,-0.0734716674633,2.10898157581,-0.757180245873,-0.775753337637,-0.0106893208484,0.0346734858175,-0.00505512898077,0.000367864197365,-0.00630382740675,-0.766781862388,0.573897396465,0.8188930527,0.00605751366695,0.0,0.818891642704,-0.573808596798,-0.0118709162128,0.0,-0.00624527763946,0.0117733618993,-0.999911188285,0.0,0.294819468144,-0.221037919219,0.304975426345,1.0,-0.16672,-0.219117714286,2.506
-0.515719165349,-0.530213435906,-0.136361185788,-2.64828266559,-0.0734347828092,2.1088951652,-0.769079947547,-0.760958979389,0.00183777833308,0.0241326543886,-0.00106523547494,-0.00401059786905,-0.00452264187276,-0.734289907784,0.574014110331,0.818811532655,0.00601847434236,0.0,0.818809554101,-0.573925325917,-0.0118903862102,0.0,-0.00628195145523,0.0117534600451,-0.999911192688,0.0,0.292114747914,-0.224548647385,0.304965896992,1.0,-0.159030857143,-0.209011983674,2.522
-0.528727585547,-0.530043385434,-0.135730071909,-2.64820101593,-0.0732845277046,2.10888783245,-0.781841169067,-0.708964846954,0.00398735635231,0.0316924490234,0.00883125225249,0.00550890974678,-0.000224609773701,-0.691813375827,0.573840596902,0.818933550603,0.00596288063195,0.0,0.818930950352,-0.573752254444,-0.0118825913357,0.0,-0.00630995799362,0.0117021261098,-0.999911618432,0.0,0.289315869877,-0.228178575045,0.304956799254,1.0,-0.150380571429,-0.197643036735,2.54
-0.539218867401,-0.529805861793,-0.135325181563,-2.64806521719,-0.0731226044772,2.10888200457,-0.791975775208,-0.690626318484,0.0121265726481,0.0182457817688,0.0108639562938,0.0121786741253,-0.00161160777177,-0.66424088229,0.573924245136,0.818874705231,0.00599373673843,0.0,0.81887227897,-0.573835342075,-0.0119137660562,0.0,-0.00631658530965,0.0117459301986,-0.999911062982,0.0,0.287024145416,-0.231115601892,0.304941926968,1.0,-0.143172,-0.188168914286,2.555
-0.54976737807,-0.529413035005,-0.134771849654,-2.64780277976,-0.0729011806949,2.10891129324,-0.802237895351,-0.644240165896,0.0285452398868,0.0375153590869,0.0114353679967,0.0201378844728,0.00130726806256,-0.628461430798,0.573878139442,0.818907071721,0.00598630573291,0.0,0.818904429722,-0.573789054366,-0.0119332716762,0.0,-0.00633748587503,0.0117506822664,-0.999910874898,0.0,0.284756780731,-0.234036638013,0.304934735431,1.0,-0.135482857143,-0.178063183674,2.571
-0.560379632521,-0.528866078144,-0.134227923216,-2.64744396067,-0.0726435755186,2.1089755535,-0.812631621325,-0.618836768777,0.0315631759463,0.0326397280284,0.0196850046983,0.0147501867151,0.00827994276414,-0.601771170125,0.573803992281,0.818958910538,0.00600234910478,0.0,0.81895617788,-0.573714302624,-0.0119760001208,0.0,-0.00636434101403,0.011787764513,-0.99991026786,0.0,0.282471840571,-0.236976712685,0.304917730844,1.0,-0.127313142857,-0.167325844898,2.588
-0.569965885512,-0.528269465934,-0.133771540412,-2.64700835739,-0.0723924193238,2.10907637008,-0.821757061294,-0.582585910997,0.0400134932008,0.0311054532063,0.0304000468063,0.0208318797098,0.0065336362674,-0.565335345007,0.57397424624,0.818839346872,0.00603618827437,0.0,0.818837126919,-0.573884517486,-0.0119610647643,0.0,-0.00633023734087,0.0118082255414,-0.999910242924,0.0,0.280290371438,-0.239808273179,0.30491905916,1.0,-0.119143428572,-0.156588506123,2.605
-0.580280117539,-0.527390725707,-0.13311267188,-2.64642792447,-0.0720058524742,2.10920673914,-0.831988515815,-0.535237345067,0.044536373555,0.0313433049069,0.0292522842224,0.024540170059,0.00736831043311,-0.522006903712,0.573791977528,0.818966814722,0.00607205157559,0.0,0.818964432807,-0.573700965087,-0.0120502014922,0.0,-0.00638529622055,0.0118873320864,-0.999908955519,0.0,0.278229064268,-0.242481918789,0.304888984014,1.0,-0.110493142857,-0.145219559184,2.623
-0.58911960231,-0.526624710969,-0.132586775807,-2.64588711963,-0.0717231397386,2.10934274402,-0.840391944891,-0.509455367454,0.0404203153562,0.0225645422858,0.0314666693131,0.0166524578226,0.00996816655938,-0.474526065329,0.573928858853,0.81887087472,0.00607473558508,0.0,0.818868393254,-0.573837555844,-0.0120731493236,0.0,-0.00640056215735,0.0119037669664,-0.999908662397,0.0,0.27634089018,-0.244920612335,0.304879703883,1.0,-0.102323428572,-0.134482220408,2.64
-0.596358697176,-0.525870863668,-0.132123320897,-2.64533734769,-0.0714340390166,2.10947384529,-0.847386112116,-0.4675992101,0.0533020178851,0.0308800755873,0.0404947043696,0.0187142782889,0.00673222417662,-0.452500277933,0.573956148213,0.818851573481,0.00609815031284,0.0,0.818849269657,-0.573864500705,-0.0120894712009,0.0,-0.00640009375253,0.0119325219923,-0.999908322657,0.0,0.274816325542,-0.246920262091,0.304876728805,1.0,-0.0951148571429,-0.125008097959,2.655
-0.603729101909,-0.525007211403,-0.131486946257,-2.64474422726,-0.0710576944153,2.10961747172,-0.854678134909,-0.431388128795,0.0419794416929,0.0399127357827,0.0351698113718,0.0216691280672,0.00733647822058,-0.422078825992,0.573764388856,0.818985880604,0.00610740159889,0.0,0.818983257607,-0.573671922988,-0.0121530010536,0.0,-0.00644961562524,0.0119750494361,-0.999907496046,0.0,0.273297907839,-0.24890891078,0.30485845204,1.0,-0.0869451428572,-0.114270759184,2.672
-0.611125747458,-0.524193408347,-0.13089341768,-2.64412948818,-0.0707179213986,2.1097789672,-0.861693262979,-0.396107185973,0.0422341872985,0.0299273943576,0.0327688267987,0.0156753657944,0.0101765704951,-0.380597559355,0.573836031732,0.818935725387,0.00610190716883,0.0,0.818933180206,-0.573743852735,-0.0121319704615,0.0,-0.00643449618616,0.0119590462785,-0.999907784984,0.0,0.271755814027,-0.250917351461,0.304868384065,1.0,-0.0782948571429,-0.102901812245,2.69
-0.617781641038,-0.523341311773,-0.130312057996,-2.64347767113,-0.0703342726549,2.10995651177,-0.868028605287,-0.356328110742,0.0449487854448,0.0269393495662,0.0314817755088,0.0202441774448,0.00868499817505,-0.339836811104,0.573886662783,0.818900059865,0.0061267555675,0.0,0.818898033189,-0.573794726377,-0.0120983520741,0.0,-0.00639196426843,0.0119605012577,-0.999908040373,0.0,0.270398150267,-0.25272501312,0.304881929671,1.0,-0.0696445714287,-0.0915328653062,2.708
-0.6227449714,-0.522660498547,-0.129820030095,-2.64297845944,-0.0700146048423,2.11009745794,-0.8727878254,-0.317733018479,0.0400590345652,0.0363843785236,0.0333442931249,0.0196800463433,0.0100324833678,-0.306251439655,0.573869328678,0.818912081859,0.00614350783329,0.0,0.818910275202,-0.573777325605,-0.0120949862094,0.0,-0.00637984767422,0.0119721538079,-0.999907978304,0.0,0.26939681498,-0.254055495542,0.304883334757,1.0,-0.0624360000001,-0.0820587428573,2.723
-0.628007748491,-0.521992240434,-0.129161573023,-2.64248106834,-0.0696249305045,2.11023135998,-0.877862411617,-0.278068476951,0.0388602952626,0.0342655999364,0.0315982291162,0.0167747980179,0.00964103867983,-0.268330150279,0.573750555857,0.818995314696,0.00614174744624,0.0,0.818993555444,-0.573658717809,-0.0120821572842,0.0,-0.00637208592444,0.0119624263492,-0.99990814422,0.0,0.268352935541,-0.255417109776,0.304891838691,1.0,-0.0537857142858,-0.0706897959185,2.741
-0.632009382662,-0.521503299573,-0.128654692241,-2.64207599435,-0.0693228703876,2.11034607472,-0.881571363802,-0.256317654481,0.0287556173692,0.0305125711109,0.0306418466176,0.0190017687182,0.0091205782357,-0.239276614693,0.57378178282,0.818973483109,0.00613567996982,0.0,0.818972083675,-0.573690790033,-0.012014595033,0.0,-0.00631977332827,0.011918935844,-0.999908995576,0.0,0.267565313539,-0.256456499651,0.304918659567,1.0,-0.0465771428572,-0.0612156734695,2.756
-0.635924707971,-0.520922050265,-0.128121718668,-2.64166970441,-0.0689612759384,2.11046185893,-0.885142477186,-0.215848341354,0.0333903212235,0.0249457463427,0.023654459826,0.0216285483646,0.00317359749237,-0.186531359993,0.573862414672,0.818916747254,0.00616741398459,0.0,0.818915615855,-0.573770994911,-0.0120335534585,0.0,-0.00631591679913,0.0119564258645,-0.999908572358,0.0,0.266805237089,-0.257457499854,0.304912735345,1.0,-0.0384074285715,-0.050478334694,2.773
-0.639183613838,-0.520438778057,-0.127613979991,-2.64132311328,-0.0686304426913,2.11054336447,-0.888147716053,-0.184283991443,0.025144096967,0.0335046159332,0.0231596679065,0.0193982635479,0.00100874105969,-0.167056960607,0.573870178584,0.818911147473,0.00618850377435,0.0,0.818910144003,-0.573778387941,-0.012053401249,0.0,-0.0063199566071,0.0119851467955,-0.999908202989,0.0,0.266185890706,-0.258271907659,0.304911991433,1.0,-0.0302377142858,-0.0397409959185,2.79
-0.6417638286,-0.520110339872,-0.127108894669,-2.64108990527,-0.0683166014868,2.11058518978,-0.890427797352,-0.14838793653,0.0161760004815,0.032152299652,0.0155654661641,0.0169186186432,0.00472036231135,-0.133463507777,0.573904390064,0.818887057384,0.00620364531239,0.0,0.818886096906,-0.573812233233,-0.0120759342389,0.0,-0.00632922054026,0.0120107418143,-0.999907837277,0.0,0.26570882869,-0.258874962537,0.304913094274,1.0,-0.0225485714287,-0.0296352653062,2.806
-0.644213416813,-0.519755817558,-0.126519104012,-2.64086779248,-0.0679687472761,2.11067239561,-0.89248732058,-0.107314812094,0.0170143236744,0.0226062813999,0.00822036850753,0.0124124783979,0.00202157662358,-0.103873890079,0.573966170177,0.818843777543,0.00620083649655,0.0,0.818842700114,-0.57387386009,-0.0120901644297,0.0,-0.00634158003171,0.0120170864405,-0.999907682737,0.0,0.265289809461,-0.25942350518,0.304905389564,1.0,-0.0196868965517,-0.0258742068966,2.826
-0.645804999974,-0.51950939301,-0.12616664578,-2.64069697128,-0.0677762295654,2.1107076317,-0.894028623998,-0.0985016179552,0.0130333453425,0.0162507137018,0.00941873631675,0.0144875454734,0.00062884755156,-0.0927006810682,0.573848733381,0.81892618159,0.00618766552479,0.0,0.818924794566,-0.573756246116,-0.0121118862285,0.0,-0.00636865161354,0.0120178546708,-0.999907501445,0.0,0.265009662897,-0.259793196427,0.304903866214,1.0,-0.0193668965517,-0.025453635468,2.842
-0.647203479687,-0.519306769713,-0.125926291458,-2.64053122838,-0.0676436117886,2.11074112837,-0.895394522913,-0.0853208425325,0.0120911881745,0.0149656107261,0.0122237909786,0.0042466415316,0.005637805448,-0.0958780920239,0.573770238092,0.818981262016,0.00617683146985,0.0,0.818979804115,-0.573677948398,-0.0121011930948,0.0,-0.00636726097697,0.0120022357507,-0.999907697902,0.0,0.264749078908,-0.260141253796,0.304913260759,1.0,-0.0190668965517,-0.0250593497537,2.857
-0.648696963461,-0.519044423212,-0.125754986152,-2.64033704504,-0.067573151987,2.11083255331,-0.896864541353,-0.0850907045845,0.0179398498055,0.00675474421423,0.0122540884489,0.00112442655031,0.00512004848876,-0.0844970922532,0.573708273635,0.819024942636,0.00614060294372,0.0,0.819023252594,-0.573616607547,-0.0120683949677,0.0,-0.00636208715712,0.0119532647757,-0.999908317451,0.0,0.264457086732,-0.260549966342,0.304916828537,1.0,-0.0187268965517,-0.0246124926108,2.874
-0.65005148848,-0.518810116259,-0.125658326993,-2.64015367988,-0.0675482743561,2.11087277971,-0.898181493951,-0.0843571543452,0.0117333527896,0.00474812136618,0.0111065002083,-6.08220349592e-05,0.0014781496582,-0.0812875258975,0.573690732937,0.819037478935,0.00610720426577,0.0,0.819035358728,-0.573599224733,-0.0120730046126,0.0,-0.00638527856531,0.0119284167606,-0.999908466356,0.0,0.264170427508,-0.26093307194,0.304919610831,1.0,-0.0184068965517,-0.0241919211823,2.89
-0.651471079847,-0.518591983696,-0.12563252217,-2.63997851719,-0.0675061090715,2.11090128473,-0.899662728174,-0.0860488290724,0.0118894779489,0.000130633733793,0.00487391159241,0.00200943151122,0.000510147084832,-0.0826465080082,0.573649105969,0.819066483478,0.0061274599528,0.0,0.81906457339,-0.57355741801,-0.0120772415903,0.0,-0.00637773648117,0.011947114232,-0.999908291264,0.0,0.263848923578,-0.261343256949,0.304921935681,1.0,-0.0180668965517,-0.0237450640394,2.907
-0.652882560331,-0.518368606024,-0.125611008282,-2.63977558807,-0.0674794269964,2.11096819813,-0.90101795071,-0.0832224360881,0.0125173653553,-0.0011391404623,0.0154433178702,0.00302950775084,0.0113236574213,-0.0774957583297,0.573701764354,0.819029605023,0.00612687311379,0.0,0.819028036599,-0.573610723565,-0.0120233097359,0.0,-0.00633312843639,0.0119161042877,-0.999908944826,0.0,0.263538882715,-0.261765881169,0.304938094241,1.0,-0.0177268965517,-0.0232982068966,2.924
-0.654226270787,-0.518130379663,-0.125623257741,-2.63958043136,-0.0674481998877,2.11102832442,-0.902384662786,-0.0780620188912,0.00873824805899,-0.0013294482649,0.0144490208979,-0.000215029218072,0.00310001510471,-0.0848020760033,0.573715114195,0.819020084535,0.00614945307774,0.0,0.819018950325,-0.573624239496,-0.0119974068995,0.0,-0.0062987631387,0.0119198417681,-0.999909117348,0.0,0.263235777972,-0.262173986208,0.30494385937,1.0,-0.0173868965517,-0.0228513497537,2.941
-0.655652412319,-0.517886162968,-0.125635067406,-2.63939647764,-0.0674224567574,2.11104908088,-0.903727647873,-0.0778355974757,0.00880140217045,-0.00084410789309,0.00764118500588,0.000134449586215,-2.63092985068e-05,-0.0707464798267,0.573812291268,0.818951823841,0.00617345276734,0.0,0.818950792335,-0.573720896489,-0.0120282819457,0.0,-0.00630886604619,0.0119579602863,-0.99990859852,0.0,0.262901125436,-0.262595328502,0.304938957684,1.0,-0.0170268965517,-0.0223782068966,2.959
-0.657039562712,-0.51765561078,-0.12562647596,-2.63920513432,-0.0673894784627,2.1110838564,-0.905064284374,-0.0757443220509,0.0102647171777,-0.0015825786264,0.0174832354558,0.00540929236974,0.00444912568652,-0.0744126289316,0.573871600615,0.818910139249,0.00619005197816,0.0,0.818909339655,-0.573780151831,-0.0120240464063,0.0,-0.00629500575144,0.0119695805864,-0.99990854684,0.0,0.262585395941,-0.263004982974,0.304944115629,1.0,-0.0166668965517,-0.0219050640394,2.977
-0.658109316045,-0.517453207562,-0.125609365471,-2.63903461376,-0.0673651059948,2.1111443591,-0.906226791965,-0.077395151785,0.0142736230468,0.00170327591715,0.0111220491489,0.00166852678742,0.00190796931973,-0.0754497711361,0.573802737882,0.818958378323,0.00619188776754,0.0,0.818957814382,-0.573711699173,-0.0119888029726,0.0,-0.00626609282995,0.0119503329235,-0.999908958668,0.0,0.262353663047,-0.263328769029,0.304952565075,1.0,-0.0163668965517,-0.0215107783251,2.992
-0.659456623433,-0.517216041752,-0.125551459819,-2.63883870978,-0.0673302764467,2.1112049597,-0.907604458158,-0.0761831511336,0.00777772189542,0.000280343098064,0.00878322514758,0.000588022972302,0.000967000105278,-0.0716983645034,0.573761809513,0.818987123389,0.00618260203017,0.0,0.818986613309,-0.573671151858,-0.0119617577044,0.0,-0.00624986543417,0.0119268976733,-0.999909340037,0.0,0.262063316291,-0.263721195908,0.304960698035,1.0,-0.0159868965517,-0.0210113497537,3.011
-0.660582911408,-0.517004050497,-0.125500503637,-2.63868851893,-0.0673106977075,2.11120592721,-0.908731122297,-0.0694699584606,0.0143901606936,0.00391459981028,0.0113316646408,0.00385246507232,-0.00058768116776,-0.0665677678104,0.573741657462,0.819001304983,0.00617412595655,0.0,0.819000346178,-0.573650396055,-0.0120167785772,0.0,-0.00630008883239,0.0119513678549,-0.999908732679,0.0,0.261808691154,-0.264038599346,0.304952065843,1.0,-0.0156668965517,-0.0205907783251,3.027
-0.661597931039,-0.516804483514,-0.125471357021,-2.63852957379,-0.0672890015286,2.11123232689,-0.909792912996,-0.0678058257498,0.0129942188588,0.00254670018181,0.0110696910398,0.000155475458893,0.00245186086134,-0.0671477524499,0.573700213584,0.819030349518,0.00617239045483,0.0,0.819029312234,-0.573608862467,-0.0120252027508,0.0,-0.00630858960439,0.011954460256,-0.999908642115,0.0,0.261584710687,-0.264337264487,0.30495363443,1.0,-0.0153668965517,-0.0201964926108,3.042
-0.662798228708,-0.516554888182,-0.125463463208,-2.6383513262,-0.0672540894364,2.11131953265,-0.910963112633,-0.0703251625275,0.0145671878439,0.00161589382716,0.0083287830911,0.00221419567521,0.00510283263053,-0.0695962684518,0.57374354303,0.818999898103,0.00618551851219,0.0,0.818999170694,-0.573652390481,-0.0120016748556,0.0,-0.00628115393457,0.0119520480997,-0.999908843671,0.0,0.261320627168,-0.264700244504,0.304950199789,1.0,-0.0150068965517,-0.0197233497537,3.06
-0.663786936865,-0.516358161825,-0.125453630829,-2.63819785479,-0.0672335174877,2.11134255221,-0.911998571593,-0.0656836851562,0.014010404789,0.00023709570512,0.0103080058522,0.00150078711173,-0.000164704086444,-0.0706493732619,0.573715079445,0.819019779054,0.00619322510742,0.0,0.819019051841,-0.573623709511,-0.012015802477,0.0,-0.00628872020726,0.0119662468153,-0.999908626293,0.0,0.261096794538,-0.264994070195,0.30494955651,1.0,-0.0147068965517,-0.0193290640394,3.075
-0.664913414707,-0.516150012483,-0.125451817835,-2.6380326686,-0.0672089444472,2.11136564412,-0.913109867394,-0.0644879849879,0.0148356559774,-0.000813838457332,0.0117813180046,0.000102199523921,0.00195109876005,-0.0605164951654,0.573745337256,0.818998471701,0.00620791671003,0.0,0.81899784322,-0.573653721412,-0.0120286163475,0.0,-0.00629034499094,0.0119858637044,-0.999908381119,0.0,0.260837075886,-0.265327842369,0.304949827525,1.0,-0.0143668965517,-0.0188822068966,3.092
-0.666141664393,-0.515932338526,-0.125434391659,-2.63786224782,-0.0671821047635,2.11142026662,-0.914312993577,-0.0648006558741,0.0119980381033,-0.000698490924293,0.00733944537409,0.000700404651737,-0.000151791451844,-0.0669158427407,0.573780344855,0.818973872158,0.0062176750175,0.0,0.81897343221,-0.573688796724,-0.0120178512767,0.0,-0.00627541651711,0.0119879483046,-0.999908449931,0.0,0.260545165005,-0.265708056093,0.304950740933,1.0,-0.0139668965517,-0.0183564926108,3.112
-0.667075931449,-0.51575445412,-0.125416318611,-2.6377137038,-0.0671589752743,2.11146832086,-0.915272824567,-0.0622292341073,0.0139173150672,0.00327287515937,0.0157327780345,0.00166512801154,0.00115701779836,-0.0621733901054,0.573757645411,0.818989794836,0.00621507747401,0.0,0.818989496583,-0.573666448832,-0.011989865376,0.0,-0.00625431637562,0.0119695905503,-0.999908802056,0.0,0.260354304744,-0.265969613207,0.304958376219,1.0,-0.0136868965517,-0.0179884926108,3.126
-0.668225189849,-0.515529648015,-0.125373134397,-2.63752003156,-0.0671342879139,2.1115123852,-0.916407739004,-0.0579734630787,0.0130798329776,-0.00103102564621,0.0120470732815,0.000839006239059,0.00131219815208,-0.0619937612554,0.57375923085,0.818988773243,0.0062033230443,0.0,0.818988449658,-0.573668327935,-0.0119714556889,0.0,-0.00624595810413,0.0119494131942,-0.999909095634,0.0,0.260105850585,-0.266309825089,0.304968165832,1.0,-0.0133068965517,-0.0174890640394,3.145
-0.669055730369,-0.515373837476,-0.125331578873,-2.63739035236,-0.0671206140354,2.11154560698,-0.917200932138,-0.0604125161212,0.0105750472856,0.00226460806943,0.0119813848487,-1.7088204897e-05,0.00139160432824,-0.063885073245,0.573772826822,0.81897937141,0.00618702731219,0.0,0.818978918761,-0.573682148041,-0.0119612100652,0.0,-0.00624671745071,0.0119302919449,-0.999909319216,0.0,0.259926010945,-0.266551362884,0.304973374199,1.0,-0.0130268965517,-0.0171210640394,3.159
-0.670048611649,-0.515179892605,-0.125286502939,-2.63723074327,-0.0670991106132,2.11158395313,-0.918213444704,-0.0604967447645,0.0105385251652,0.00195637880077,0.00453330191463,-0.000226138460376,-0.000188278212569,-0.0611915689634,0.573742149722,0.819000955111,0.00617479237786,0.0,0.819000408113,-0.573651652221,-0.0119524188508,0.0,-0.00624698287875,0.0119149933638,-0.999909499974,0.0,0.25971082614,-0.266841301482,0.304978613955,1.0,-0.0126868965517,-0.0166742068966,3.176
-0.671001388799,-0.5149880753,-0.125283805909,-2.63707947339,-0.0670756944813,2.11162386579,-0.91920752482,-0.056476609111,0.0124356453781,0.000462313676169,0.0116395437448,0.00246702399018,0.000111791898544,-0.0537983248243,0.573724261403,0.819013402845,0.00618585000307,0.0,0.81901302048,-0.573633761376,-0.0119468403553,0.0,-0.00623633003677,0.0119207133649,-0.999909498295,0.0,0.259495147594,-0.26712766828,0.304979975017,1.0,-0.0123468965517,-0.0162273497537,3.193
-0.671949659984,-0.514799490486,-0.125274905684,-2.63692955988,-0.0670561440685,2.11165260002,-0.920121307803,-0.0568893576362,0.00907921567185,0.00115974904037,0.0102128330801,0.000207544672356,-0.000484030781517,-0.0522993479466,0.573762314269,0.818986705067,0.00619116701584,0.0,0.81898636093,-0.57367172488,-0.0119515516046,0.0,-0.00623658448167,0.0119280609041,-0.999909409085,0.0,0.259279435983,-0.267409843523,0.304981092813,1.0,-0.0120068965517,-0.0157804926108,3.21
-0.672972251625,-0.514594686456,-0.125264657847,-2.63676608492,-0.0670338572897,2.11170192434,-0.921131922873,-0.054093137545,0.00955657513117,0.0013653436035,0.00599514897625,0.000357648621095,0.00894430172783,-0.0507315410229,0.573782821227,0.818972307405,0.00619521345276,0.0,0.818972099182,-0.573692370087,-0.0119378460318,0.0,-0.00622273842819,0.0119236675093,-0.999909547749,0.0,0.259049955405,-0.267716775632,0.304984158293,1.0,-0.0116268965517,-0.0152810640394,3.229
-0.673819470432,-0.514426705812,-0.125243762737,-2.63662041222,-0.0670199679899,2.11173165914,-0.921999036576,-0.0554532982842,0.00670516348875,0.000723878870949,0.0114136591451,0.00251917050224,0.00635294524736,-0.0552975078988,0.573765085187,0.818984783078,0.00618861918549,0.0,0.818984565026,-0.573674810567,-0.0119264777465,0.0,-0.00621746855673,0.0119116094473,-0.999909724248,0.0,0.258862533789,-0.267969825261,0.304991304618,1.0,-0.0113068965517,-0.0148604926108,3.245
-0.674583418135,-0.514269328252,-0.125234515693,-2.63649475752,-0.0670039078466,2.11176034049,-0.922725037862,-0.0524895204403,0.00356049584227,-0.00063512299742,0.0132104742367,0.000347077163743,0.00147740664795,-0.0513991972091,0.573802955099,0.818958234477,0.00619078367847,0.0,0.818958052251,-0.573712678256,-0.0119255341072,0.0,-0.00621490292907,0.0119131282197,-0.999909722104,0.0,0.258690381851,-0.268198273457,0.304992904362,1.0,-0.0110068965517,-0.0144662068966,3.26
-0.675399137904,-0.51408865994,-0.125216732629,-2.63634573298,-0.0669854542338,2.11179972631,-0.92351814913,-0.0515215655743,0.00866276408146,0.00534282172393,0.00830415051834,0.00221280631684,0.00514944461271,-0.051299267268,0.573824388441,0.818943241033,0.00618757606956,0.0,0.818943095618,-0.573734270815,-0.0119138378641,0.0,-0.00620685205029,0.0119039526151,-0.999909881389,0.0,0.258512644235,-0.268445203516,0.304997619965,1.0,-0.0106668965517,-0.0140193497537,3.277
-0.67621581708,-0.513901446449,-0.125194730716,-2.63621774003,-0.0669673388874,2.11184053982,-0.924324145093,-0.0474770088722,0.0106266795985,0.00453676241192,0.0079415407084,-0.000324059965435,0.00356370214881,-0.0495057888827,0.573831970482,0.818937940078,0.00618602094375,0.0,0.818937688751,-0.573741693425,-0.0119280371474,0.0,-0.00621926377892,0.0119108840759,-0.999909721724,0.0,0.258330726286,-0.268685966096,0.304990573642,1.0,-0.0103268965517,-0.0135724926108,3.294
-0.676996465455,-0.513728215479,-0.125182258318,-2.63609619634,-0.0669436303031,2.11186948928,-0.92515374101,-0.0446951044361,0.0114688327154,-4.27217498452e-05,0.0102984883533,0.000224889486872,0.00298050892223,-0.0497383279286,0.573799527899,0.818960596155,0.00619601723559,0.0,0.818960353105,-0.57370898313,-0.0119452760147,0.0,-0.00622811952914,0.0119287158657,-0.999909454033,0.0,0.25815368221,-0.268915630742,0.304984523299,1.0,-0.00998689655173,-0.013125635468,3.311
-0.677722032299,-0.513573005223,-0.125160982685,-2.6359837712,-0.0669254025267,2.11189572927,-0.925839815931,-0.045688866059,0.00645232138271,-0.0007959135334,0.00452656616352,-0.000280717518228,0.000186245690394,-0.0411638411845,0.573830403905,0.818938961056,0.00619616969484,0.0,0.818938644,-0.573739706474,-0.0119579881307,0.0,-0.00623799389479,0.0119363697789,-0.999909301141,0.0,0.257990690035,-0.269127155379,0.304980957545,1.0,-0.00966689655173,-0.0127050640394,3.327
-0.678451939277,-0.513409666887,-0.125139628187,-2.63586310796,-0.0669004914312,2.11193927261,-0.926558508336,-0.0433731444834,0.0131358466746,-0.000885680621878,0.0113912856122,0.00276777996648,0.00569427112272,-0.0429962369903,0.573841318781,0.818931291502,0.00619899667989,0.0,0.818931042956,-0.573750667962,-0.0119526062874,0.0,-0.00623180479951,0.01193567997,-0.999909347967,0.0,0.25783131953,-0.269343557867,0.304979602852,1.0,-0.00932689655173,-0.0122582068966,3.344
-0.679187736798,-0.513252314833,-0.125118115323,-2.63575387387,-0.0668773320334,2.11196285913,-0.927292745849,-0.0420884617039,0.00689418258171,0.00197561191634,0.00269080119225,0.00144181071425,0.0032835277855,-0.0403566397379,0.573842927648,0.818930119575,0.00620488049883,0.0,0.818929818297,-0.573752004261,-0.0119723519872,0.0,-0.00624457724954,0.0119518412846,-0.999909075239,0.0,0.257664573772,-0.269555729914,0.304973562555,1.0,-0.00896689655173,-0.0117850640394,3.362
-0.679877718896,-0.513088234435,-0.125081580747,-2.63564183669,-0.0668539869499,2.11198634818,-0.928029787468,-0.0377713446757,0.00918002375003,0.000538363031604,0.00445957366158,0.00636517878746,-0.000104988871777,-0.0380790775444,0.573794267777,0.818964224086,0.00620361473997,0.0,0.818963750461,-0.573703062139,-0.0119966172275,0.0,-0.00626588818453,0.0119643561427,-0.999908792254,0.0,0.257513896583,-0.269753381609,0.304966644248,1.0,-0.00860689655173,-0.0113119211823,3.38
-0.680486091496,-0.512941869759,-0.125042526401,-2.63556341554,-0.066836333709,2.11201290526,-0.928662150529,-0.0369217497506,0.00702820343725,0.00289936353566,0.00458383149429,0.00569590176187,0.00684801224947,-0.0473380111748,0.57375864225,0.818989215294,0.00619940127934,0.0,0.8189884485,-0.573667008142,-0.0120346123518,0.0,-0.00629994703564,0.0119824315773,-0.999908361802,0.0,0.257378536606,-0.269921864677,0.304951320243,1.0,-0.00828689655173,-0.0108913497537,3.396
-0.68108924,-0.512807594606,-0.125025081007,-2.63548717081,-0.0668145679713,2.11203227038,-0.929245133881,-0.041740498475,0.00692148098803,0.00234648971306,0.00505389856677,0.000223611104542,-0.000421785751952,-0.035550024039,0.573776160536,0.818976867554,0.00620926027998,0.0,0.818976004689,-0.573684053006,-0.0120688844648,0.0,-0.00632210531038,0.0120103046019,-0.999907887542,0.0,0.257238636585,-0.270091739644,0.304938355142,1.0,-0.00796689655173,-0.0104707783251,3.412
-0.681691735518,-0.512676334566,-0.125011605158,-2.63541227193,-0.0667902260306,2.11205363109,-0.929813465715,-0.0315401086348,0.0110014656212,0.00293104711894,0.00366823731982,0.000224216058931,-0.000434067105017,-0.0306465200398,0.573808989712,0.818953763362,0.00622283707604,0.0,0.81895287596,-0.573716432434,-0.0120991327869,0.0,-0.00633860848026,0.0120390332696,-0.999907437576,0.0,0.257098214716,-0.270261957079,0.304925967706,1.0,-0.00762689655173,-0.0100239211823,3.429
-0.68229177282,-0.512547681785,-0.12500131993,-2.63533456133,-0.0667660137446,2.11207909362,-0.930387910747,-0.0356553454335,0.0070088080622,-4.33426290504e-05,-0.000578981190878,0.00274964451865,-0.00014624958062,-0.0295545066972,0.573837125472,0.818933943584,0.00623669606323,0.0,0.81893309518,-0.573744230977,-0.0121198160479,0.0,-0.00634718256789,0.0120624694528,-0.999907100737,0.0,0.256958921143,-0.270433549139,0.304916091758,1.0,-0.00728689655173,-0.00957706403942,3.446
-0.68289917275,-0.512423068174,-0.124991730419,-2.63523297067,-0.0667417035134,2.11208860561,-0.93097717837,-0.0279259237403,0.00527408694735,2.97224744852e-05,0.00412825011365,0.000565437489525,-6.76780615726e-05,-0.0318738885163,0.573860773622,0.818917279311,0.00624892351949,0.0,0.818916525012,-0.573767694669,-0.0121286651573,0.0,-0.00634706523101,0.0120777444378,-0.999906917094,0.0,0.256820306208,-0.270611159857,0.304917173605,1.0,-0.00692689655173,-0.00910392118227,3.464
-0.683390363342,-0.512325882284,-0.124979640038,-2.63514702974,-0.0667227441069,2.1121154781,-0.931494169094,-0.0244478001515,0.00551296710315,0.000923466688781,0.00814337551956,-1.32296075461e-05,0.000490225675954,-0.0341687537879,0.573843512348,0.818929344835,0.00625287180444,0.0,0.818928757539,-0.573750639431,-0.0121095304989,0.0,-0.00632938254188,0.0120698644345,-0.999907124332,0.0,0.256712905079,-0.270757740783,0.304922828669,1.0,-0.00660689655173,-0.0086833497537,3.48
-0.683822287844,-0.512227751111,-0.124958350906,-2.63506545646,-0.0666969183698,2.11213596932,-0.931937555084,-0.0266674221644,0.00456120090571,0.00189653148881,0.00561062585661,0.00360600085981,0.00731698995744,-0.0272156422955,0.573834188529,0.818935831497,0.00625898280873,0.0,0.818935365249,-0.573741369221,-0.0121018878986,0.0,-0.00631975393716,0.0120704117873,-0.999907178627,0.0,0.256622240842,-0.270884339046,0.304925823174,1.0,-0.00630689655173,-0.00828906403942,3.495
-0.68428458302,-0.512139934207,-0.124919624389,-2.63498961113,-0.0666812535442,2.11216063081,-0.932413353043,-0.0261531753179,0.011061074497,0.0053248265165,0.0045820828675,0.00135958092522,0.0013214830346,-0.0245508638757,0.573809866488,0.818952954577,0.00624837676646,0.0,0.818952455472,-0.573717300992,-0.0120864023108,0.0,-0.00631351458331,0.0120526524428,-0.999907432267,0.0,0.256520717182,-0.271021614318,0.304930704535,1.0,-0.00594689655173,-0.00781592118227,3.513
-0.684740857706,-0.512052197058,-0.124858306927,-2.63491716138,-0.0666595763977,2.1121889522,-0.932851211196,-0.0259607337902,0.00478718638472,0.00209485909417,0.0031509525419,0.000919853307746,-0.000468055270687,-0.024313652253,0.573790512704,0.818966648561,0.00623080869168,0.0,0.818966024711,-0.573698227877,-0.0120723071991,0.0,-0.0063123345946,0.0120300275776,-0.999907712176,0.0,0.256436655076,-0.271138837027,0.304935084694,1.0,-0.00562689655173,-0.0073953497537,3.529
-0.685160035231,-0.511981564761,-0.12481914642,-2.6348499624,-0.0666460992234,2.11221176711,-0.933272968066,-0.0241906095547,0.00372948154579,0.00269624636055,0.00131183033686,0.00185733471687,-0.000163031238091,-0.0202110232764,0.573769661607,0.818981356165,0.00621776285992,0.0,0.818980705301,-0.57367771085,-0.0120513617339,0.0,-0.0063029699641,0.0120071647315,-0.999908046055,0.0,0.256349968599,-0.271256507337,0.304942330446,1.0,-0.00528689655173,-0.00694849261084,3.546
-0.685558298386,-0.51190445837,-0.124804969218,-2.63479681667,-0.0666253048108,2.11223372366,-0.933663782391,-0.0253244279565,0.00529407840319,0.00027080853008,0.00454703575862,-5.32384581996e-05,0.00566184471331,-0.0200541318548,0.573777329085,0.818975922858,0.00622585806037,0.0,0.818975379276,-0.573685344845,-0.012049902533,0.0,-0.00629701775611,0.0120130166452,-0.999908013268,0.0,0.256260514504,-0.271369430326,0.304940141641,1.0,-0.00494689655173,-0.00650163546799,3.563
