nelsonifechukwu/NELSON_IML_WORK/CNN-GradCAM/train2dof/data_sample_2022-02-21-09-12-09/robot_state.csv
position_joint1,position_joint2,position_joint3,position_joint4,position_joint5,position_joint6,position_joint7,velocity_joint1,velocity_joint2,velocity_joint3,velocity_joint4,velocity_joint5,velocity_joint6,velocity_joint7,ee_T_00,ee_T_10,ee_T_20,ee_T_30,ee_T_01,ee_T_11,ee_T_21,ee_T_31,ee_T_02,ee_T_12,ee_T_22,ee_T_32,ee_T_03,ee_T_13,ee_T_23,ee_T_33,v_x,v_y,time
0.465085029234,0.54758609893,-0.123981821108,-1.35575574614,0.0794271976647,1.89408685176,0.159177147064,-0.000438297754733,0.000267464127422,0.000569734944897,-0.000506035574741,-0.000280481826799,0.00127782118647,0.000503714231128,0.573782528648,0.818993175292,0.00212968178613,0.0,0.818953055673,-0.573723929974,-0.0117256846405,0.0,-0.00838156766337,0.00847226550686,-0.999928982499,0.0,0.66169683086,0.260900909042,0.303387807576,1.0,0.0,0.0,0.0
0.465084698946,0.547588491916,-0.123983202712,-1.35575563648,0.0794286219809,1.89408615424,0.159176713782,0.000927256186947,0.000358835833003,0.000447586248829,0.000764558042875,0.000147332221439,0.00379248805089,-8.85090740762e-05,0.57378378072,0.818992303635,0.00212755056142,0.0,0.818952149752,-0.573725183381,-0.0117276285803,0.0,-0.00838436963627,0.00847164827717,-0.999928964238,0.0,0.661696977,0.260900055518,0.303386152256,1.0,-0.00028,-0.000368,0.015
0.465079058965,0.547575979601,-0.123990652558,-1.35576445997,0.0794279097395,1.89408685222,0.159177146089,0.000279362768894,0.0026910472545,0.000224809362096,-0.000627704079931,7.25435350196e-05,-5.36916592837e-06,0.00155745050981,0.573795296995,0.81898425753,0.00211895370146,0.0,0.818943997868,-0.573736737088,-0.0117316568609,0.0,-0.00839248228238,0.008467036965,-0.999928935238,0.0,0.661696857337,0.260894045929,0.303381665443,1.0,-0.00064,-0.000841142857143,0.033
0.465078623416,0.547546281534,-0.123988121692,-1.3557896408,0.0794279099034,1.89409341563,0.159171282623,-0.00169807413081,-0.00681950680595,-0.000659247432034,-0.00458073096606,-0.000208634984507,0.00315146735749,0.00421883661706,0.573789386823,0.818988340818,0.00214104528222,0.0,0.818948368118,-0.573730743348,-0.0117197011668,0.0,-0.00837007626208,0.00847820891798,-0.99992902838,0.0,0.661694500743,0.260890086346,0.30340066129,1.0,-0.00094,-0.00123542857143,0.048
0.465073324303,0.547422835481,-0.123985363979,-1.3559219999,0.0794241806989,1.89411753891,0.159175606952,-0.00173117208262,-0.00925070373435,-0.000263035109935,-0.00634237314929,0.000125347808697,0.00403520790064,-0.00336252994187,0.573801523853,0.818979790662,0.00215884514139,0.0,0.818939967226,-0.5737427282,-0.0117200178136,0.0,-0.0083599969902,0.00849309216871,-0.999928986396,0.0,0.661673187978,0.260875120515,0.303427105156,1.0,-0.0013,-0.00170857142857,0.066
0.465074697865,0.54727369304,-0.123982858286,-1.35610495213,0.0794205213837,1.89416197301,0.159171568402,0.000392213586299,-0.00562967008697,-2.13633163404e-05,-0.0126883743725,3.57107291522e-05,-0.000514898476094,-1.91871737786e-05,0.573804396993,0.818977737189,0.00217413943816,0.0,0.818938004948,-0.573745433682,-0.011724686907,0.0,-0.00835501583748,0.00850832612623,-0.999928898521,0.0,0.661643314843,0.260860145738,0.303449438625,1.0,-0.00164,-0.00215542857143,0.083
0.465055579168,0.547126958723,-0.12398751612,-1.35630990786,0.0794135889088,1.89426811576,0.159154253691,-0.000196789610889,-0.0131995101616,8.37431290296e-05,-0.0132818927248,0.000405575528701,0.00291081981021,-0.00175692268771,0.573818943433,0.818967433664,0.00221577419395,0.0,0.818928255228,-0.573759834952,-0.0117009181568,0.0,-0.00831150870089,0.00852893279696,-0.99992908555,0.0,0.661627813683,0.26082849166,0.303465182051,1.0,-0.00196,-0.002576,0.099
0.465029059269,0.546928800249,-0.123981140146,-1.35652504532,0.0794112713994,1.8943814723,0.159146195895,-0.00243066555755,-0.0115444176357,0.000112501353833,-0.0147976773796,0.000437301406994,0.0101102635866,-0.000904437648284,0.573841140131,0.81895163374,0.00230529578897,0.0,0.818913537384,-0.573781615692,-0.0116628763495,0.0,-0.0082287537271,0.00858064139481,-0.999929327605,0.0,0.661611902643,0.260799036334,0.303512769055,1.0,-0.0023,-0.00302285714286,0.116
0.465000568625,0.546716823439,-0.123982177523,-1.35679693205,0.079399209744,1.89452513416,0.159134449889,-0.00261400224998,-0.0135741825024,-0.000466622223316,-0.0181533480498,-0.00573372596179,0.00830955003945,0.00144894865796,0.57386780445,0.818932742485,0.00237764668207,0.0,0.81889560809,-0.573808040868,-0.0116216258675,0.0,-0.00815317413317,0.00861648724035,-0.999929638474,0.0,0.661592138008,0.260757909179,0.303545982646,1.0,-0.00264,-0.00346971428571,0.133
0.464969713346,0.546486156558,-0.123980364621,-1.35714813656,0.0793873100838,1.89463452467,0.159080448867,-0.00065910643471,-0.0154144992847,0.000890844510753,-0.019172129491,-0.000136308162935,0.00668058919728,-0.00370529295424,0.573863930573,0.818935465736,0.0023746682046,0.0,0.818898174584,-0.573804053313,-0.0116376529513,0.0,-0.00816804975892,0.0086232067467,-0.999929459146,0.0,0.661547769146,0.2607053833,0.303551589145,1.0,-0.00296,-0.00389028571429,0.149
0.46493106896,0.546188728517,-0.123988474047,-1.35759436816,0.0793598362867,1.89480353621,0.158953938192,-0.00439262799053,-0.0167123733494,-0.00140160379116,-0.0277057426387,-0.00358151842127,0.0150238653926,-0.00423958835359,0.573815318974,0.818969482322,0.00239032159464,0.0,0.818932434328,-0.573755434306,-0.0116239628052,0.0,-0.00814836767779,0.00862768591684,-0.999929581091,0.0,0.661500406444,0.260633088473,0.303564706961,1.0,-0.00332,-0.00436342857143,0.167
0.464894491993,0.545898416916,-0.123980757371,-1.35807604403,0.0793089813929,1.89497119385,0.158946225847,-0.00800808074152,-0.0185963954201,0.000611890463755,-0.0237254625279,-0.00107415992646,0.0170454407357,0.000722577680855,0.57384696327,0.81894740033,0.00235905498747,0.0,0.818910085049,-0.573787331974,-0.0116239912837,0.0,-0.00816599879676,0.00860241164273,-0.999929655015,0.0,0.661441552874,0.260563140782,0.303555208967,1.0,-0.00366,-0.00481028571429,0.184
0.464841984295,0.545587765302,-0.123983541335,-1.35859203638,0.0792639169045,1.89514476756,0.15887732521,-0.00444476266813,-0.01880102093,0.000517110339553,-0.0349975352153,-0.00514598347361,0.00972297089985,-0.00655978523406,0.573852278323,0.818943777466,0.00232355642027,0.0,0.818906110371,-0.573792887458,-0.0116297721833,0.0,-0.00819104711836,0.0085767109424,-0.999929670915,0.0,0.661382728787,0.260474112101,0.30354462977,1.0,-0.00398,-0.00523085714286,0.2
0.464785880287,0.545227797065,-0.123983544765,-1.3592107608,0.0792445527853,1.89535221857,0.158771075189,-0.00256902976504,-0.0250923898019,0.000851820400849,-0.0377001358504,-0.00612882982806,0.0127125679298,-0.00438843703669,0.573840553424,0.81895208873,0.00228965315597,0.0,0.818913789741,-0.573781086604,-0.0116711836854,0.0,-0.00824453931426,0.00857259209725,-0.999929266617,0.0,0.661307169411,0.260379232583,0.30352294012,1.0,-0.00432,-0.00567771428571,0.217
0.464719963724,0.544802416758,-0.12398672868,-1.35993577432,0.0792186285442,1.89559311705,0.158724302618,-0.00367760491373,-0.019799767218,-0.00016032917075,-0.0378253834324,-5.81759088165e-05,0.0162694000429,-0.00449668635774,0.573891924846,0.818916206183,0.00224783179833,0.0,0.81887718541,-0.573832421441,-0.0117155546074,0.0,-0.00830433865283,0.00856432525037,-0.999928842615,0.0,0.661219156576,0.260265476084,0.303499928006,1.0,-0.00468,-0.00615085714286,0.235
0.464665503251,0.544451751759,-0.123994533131,-1.3605332821,0.0791849820582,1.8957938355,0.158619027165,-0.00172400614356,-0.0242931284589,-0.000231709556484,-0.04251472522,-0.00553579034659,0.015805628316,-0.0172213444077,0.573876023799,0.818927455568,0.00220878388287,0.0,0.818887912129,-0.573816653587,-0.0117380721258,0.0,-0.00834535323698,0.00854510910061,-0.999928665551,0.0,0.661143731988,0.260161845251,0.303482196218,1.0,-0.00498,-0.00654514285714,0.25
0.464593760049,0.543958799918,-0.123994816238,-1.36134198236,0.0791434279796,1.89607188694,0.158544744931,-0.0103188474405,-0.0297272455204,0.0011476966936,-0.0451809991853,-0.00033380358582,0.0158053606664,-0.00752411663374,0.573905174251,0.818907085982,0.00218686942661,0.0,0.818867152932,-0.573845776918,-0.0117625279849,0.0,-0.00837765302658,0.00854149566429,-0.999928426329,0.0,0.66104795864,0.260035446913,0.303473794289,1.0,-0.00534,-0.00701828571429,0.268
0.464506765636,0.54333490702,-0.123994899422,-1.36236835144,0.0790854423684,1.89643015638,0.15840481751,-0.00321650956422,-0.0303669299748,0.00103861018539,-0.0515497643431,-0.00539062031582,0.0119971823423,-0.00378015867993,0.573910458888,0.818903497476,0.00214333874752,0.0,0.818862930077,-0.573851159726,-0.0117938597789,0.0,-0.00842823786547,0.00852388423592,-0.999928151521,0.0,0.66092991293,0.259885565522,0.303453251659,1.0,-0.00574,-0.007544,0.288
0.464448267035,0.542960118274,-0.123996334011,-1.36297361468,0.0790511329937,1.89664469148,0.158320425182,-0.00264957419788,-0.0292245673271,0.000894551360523,-0.0532444586881,-3.84985103368e-05,0.00966661645391,-0.00441896766977,0.573914752279,0.818900522086,0.00213047993538,0.0,0.818859755806,-0.573855470865,-0.0118044814048,0.0,-0.00844427099724,0.00851949432752,-0.999928053664,0.0,0.66086063182,0.259788154865,0.303448912392,1.0,-0.00598,-0.00785942857143,0.3
0.464383495689,0.542357212875,-0.12400427038,-1.36393041674,0.0789945426917,1.89698445863,0.158205015204,-0.00433276001486,-0.0342978179373,0.000477081307744,-0.0504126950144,-0.00100197475696,0.0215667096031,-0.00382770607589,0.573916867759,0.818899074551,0.00211695611718,0.0,0.818858132868,-0.573857639683,-0.0118116262396,0.0,-0.00845786119587,0.00851254216086,-0.999927998013,0.0,0.660745617005,0.259648996552,0.303449607199,1.0,-0.00634,-0.00833257142857,0.318
0.464284236909,0.541757672989,-0.124001771232,-1.36486177678,0.0789216644868,1.89733537532,0.158063018387,-0.0103875135012,-0.0330679210402,-0.000794951491037,-0.0561355488057,-0.00270209186159,0.0187258279441,-0.0128225540546,0.573912424807,0.818902169252,0.0021243228668,0.0,0.818861458525,-0.573853304548,-0.011791670921,0.0,-0.00843733764416,0.00850707635946,-0.999928217916,0.0,0.660645919797,0.259494207844,0.303460544383,1.0,-0.00668,-0.00877942857143,0.335
0.464212039654,0.541158995284,-0.124012715648,-1.36578333642,0.078873449023,1.89767769818,0.157948527622,-0.00247617896479,-0.0373259318037,-0.00136797767971,-0.0600899830621,-0.00757082489637,0.0241181039556,-0.00154033297537,0.573923713521,0.818894211484,0.00214204509871,0.0,0.818853712476,-0.573864503951,-0.011784547963,0.0,-0.00842121659833,0.00851761710096,-0.999928264082,0.0,0.660541274876,0.259354070353,0.303475196421,1.0,-0.007,-0.0092,0.351
0.464109559797,0.540470305473,-0.124002835687,-1.36684139084,0.0788275073255,1.89807066006,0.157813704971,-0.00717685609408,-0.0420921823759,0.00211816783347,-0.0656273073258,0.000234469532646,0.0218677606615,-0.00795120997708,0.573936658191,0.818885054118,0.00217426483779,0.0,0.818844758327,-0.573877103151,-0.011793181983,0.0,-0.00840966157181,0.00854908941886,-0.999928092746,0.0,0.660420382907,0.259194794443,0.303492140623,1.0,-0.00734,-0.00964685714286,0.368
0.464022552012,0.539750894229,-0.124020062727,-1.3679472472,0.0787645396886,1.89847871077,0.157677324903,-0.00438490027711,-0.0470775660342,-0.00144899848515,-0.0650646415008,-0.00622495967938,0.0225933472278,-0.00342831288361,0.573952671711,0.818873787386,0.00219040372977,0.0,0.818833741025,-0.573893092569,-0.0117800577932,0.0,-0.00838948449386,0.00855493683276,-0.999928212226,0.0,0.660295209516,0.259023029036,0.303510104983,1.0,-0.00768,-0.0100937142857,0.385
0.463924083869,0.539047689222,-0.124020481934,-1.36902225812,0.0786859667975,1.8988874583,0.157542091872,-0.00765365832907,-0.0442997709697,-0.00117117657913,-0.064503404312,-0.00473841511742,0.0215739468021,-0.0115393384655,0.573961308699,0.818867670933,0.00221371143856,0.0,0.818828055588,-0.573901770073,-0.0117524717243,0.0,-0.00835342706493,0.00855827785757,-0.999928485511,0.0,0.66017665826,0.258854428434,0.303530664508,1.0,-0.008,-0.0105142857143,0.401
0.463803450903,0.538194235114,-0.124024680094,-1.37036328586,0.078614254172,1.89940496483,0.157381628016,-0.00776051486402,-0.0434409591814,0.000204899117547,-0.0694594110789,-0.00129806396903,0.0280096420276,-0.0128224313768,0.573986645879,0.818849835153,0.00224158972666,0.0,0.818810535693,-0.573926950711,-0.0117434571831,0.0,-0.00832977959601,0.00857619000267,-0.999928529314,0.0,0.660028186188,0.258647894845,0.303540210329,1.0,-0.00838,-0.0110137142857,0.42
0.463700860261,0.53740140348,-0.124033287803,-1.37159964,0.0785409965483,1.89987538988,0.157225696658,-0.0114536791461,-0.0455510015889,0.000352534420939,-0.0708401403185,-0.00891564559784,0.0267281954451,-0.0128678853571,0.573997640411,0.818842071654,0.0022621655949,0.0,0.818803072791,-0.573937900706,-0.0117286411489,0.0,-0.00830572215432,0.00858464576598,-0.999928656873,0.0,0.659889095292,0.258458912953,0.303552658073,1.0,-0.00872,-0.0114605714286,0.437
0.463598535429,0.536620601092,-0.124033668736,-1.37282163262,0.0784685749634,1.90032910116,0.157075041044,-0.00805918982741,-0.0535334404328,0.000735943217297,-0.0709245389852,-0.00339427058488,0.0325323653728,-0.00831575162536,0.574006211079,0.818836034023,0.00227286818809,0.0,0.81879715255,-0.573946407824,-0.0117256480947,0.0,-0.00829703839387,0.00859177825415,-0.999928667706,0.0,0.659747417739,0.258275443388,0.303561589273,1.0,-0.00904,-0.0118811428571,0.453
0.463485344496,0.535761764682,-0.124042764038,-1.37415331518,0.0783858839605,1.90083181848,0.15691248514,-0.00257300434609,-0.0501258108228,-0.000256102698029,-0.0815167363846,-0.00713303097522,0.0358142712659,-0.00750665713037,0.574023264058,0.81882402057,0.00229402693262,0.0,0.81878547665,-0.573963444991,-0.0117070039994,0.0,-0.00826944769494,0.00859857413273,-0.999928837847,0.0,0.659597215626,0.258069429044,0.3035777691,1.0,-0.00938,-0.012328,0.47
0.463377095326,0.534867313603,-0.124043480991,-1.37556459042,0.078306912064,1.90133506915,0.156745610603,-0.00757097808179,-0.0536034534713,0.00117573211862,-0.0801789451956,2.220396123e-05,0.0227386606527,-0.00778141073831,0.574031930247,0.818817968586,0.00228566798678,0.0,0.818779222759,-0.57397204424,-0.01172278596,0.0,-0.00828707781102,0.0086008765037,-0.999928672089,0.0,0.659425850605,0.257863214696,0.303580811125,1.0,-0.00972,-0.0127748571429,0.487
0.463259808076,0.534029022186,-0.124048851071,-1.37695212777,0.0782390868218,1.90184418521,0.15657262635,-0.00878020227095,-0.0541748587255,-0.00649146064704,-0.0859924259446,-0.000318449277867,0.0258947165631,-0.00593247928153,0.574048030231,0.818806760151,0.0022573037456,0.0,0.818767504703,-0.57398810289,-0.0117549089135,0.0,-0.00832949375731,0.00859625476703,-0.999928359403,0.0,0.659262133927,0.257652625986,0.303556061664,1.0,-0.01004,-0.0131954285714,0.503
0.463124922002,0.533060381569,-0.124049274983,-1.37852056713,0.0781378107531,1.90244249625,0.156369707936,-0.00538876722206,-0.050395754214,-0.000917548974415,-0.0848255465137,-0.0088761764566,0.0352343648807,-0.0166080626728,0.574051385562,0.81880442761,0.00225010270418,0.0,0.818765138744,-0.573991547145,-0.0117515226549,0.0,-0.00833081924269,0.00858844886956,-0.999928415436,0.0,0.659082443926,0.257414215033,0.303544491154,1.0,-0.0104,-0.0136685714286,0.521
0.462991319149,0.532103242353,-0.124052032789,-1.38006562092,0.0780576538141,1.9030178032,0.156181555185,-0.00810299643447,-0.0594872958546,-0.00143646045775,-0.0924603777587,-0.00429066419222,0.037242490372,-0.0113640244849,0.574071596574,0.81879027335,0.00224436537779,0.0,0.818750789846,-0.574011653776,-0.011769127314,0.0,-0.00834831581926,0.00859406309554,-0.999928221275,0.0,0.658901915425,0.257179790282,0.303533850246,1.0,-0.01074,-0.0141154285714,0.538
0.462872158788,0.531229999547,-0.124047015475,-1.38145448201,0.0779762310764,1.90351382865,0.155995459596,-0.00684400734701,-0.0578813288146,-1.87382837288e-05,-0.0931934138585,-0.00398365116375,0.0362800364658,-0.0125002202324,0.574066967685,0.818793557169,0.00223030315913,0.0,0.818753799272,-0.57400698518,-0.0117874527523,0.0,-0.00837144195281,0.00859302188561,-0.999928036878,0.0,0.658733965175,0.256971296074,0.303531072261,1.0,-0.01104,-0.0145097142857,0.553
0.462732072238,0.530208052606,-0.124057583428,-1.3830971434,0.0778562112468,1.90408779543,0.155793587433,-0.0088696678789,-0.061307012984,-0.000775949800774,-0.09541248076,-0.00590292497991,0.0413024684492,-0.0111929298234,0.574080660977,0.818784101023,0.00217658123223,0.0,0.818743808236,-0.574021051626,-0.0117964259995,0.0,-0.00840948451806,0.00855432713928,-0.99992804944,0.0,0.658536916536,0.256710881794,0.303519303697,1.0,-0.01138,-0.0149565714286,0.57
0.462588837311,0.529159523928,-0.124053398677,-1.38474342389,0.0777703413931,1.90470106588,0.155568111812,-0.00695489505948,-0.0597279867451,0.000687600377994,-0.10090167488,-0.00456427546287,0.035487682495,-0.0124423857125,0.574077205739,0.818786482622,0.00219194589378,0.0,0.818746257721,-0.574017402773,-0.0118039689267,0.0,-0.00840687696793,0.00857120201792,-0.999927926861,0.0,0.658329953623,0.256450432904,0.303524786105,1.0,-0.01174,-0.0154297142857,0.588
0.462462067504,0.528135135192,-0.12406188475,-1.38634476406,0.0776673893963,1.90531340307,0.155352388332,-0.0101174985139,-0.0659060311982,-0.00190130159966,-0.102003776177,-0.00585701086951,0.0388734114629,-0.0118639682438,0.57406901619,0.818792145391,0.00222130548851,0.0,0.818752370564,-0.574009170649,-0.0117802634703,0.0,-0.00837069864079,0.00858154861673,-0.999928141632,0.0,0.658157252278,0.256224947603,0.303539708829,1.0,-0.01204,-0.015824,0.603
0.462309333744,0.526934553999,-0.124059554562,-1.38820420302,0.0775436916103,1.90602781591,0.155090028414,-0.00922758500788,-0.0715400923135,0.000270156864677,-0.108205173876,-0.00487915849123,0.0450481083493,-0.0127500454917,0.57404490743,0.818808936726,0.00226192216006,0.0,0.818769784031,-0.573985007129,-0.011747308244,0.0,-0.00832065176383,0.00859564148471,-0.99992843829,0.0,0.657941233291,0.255949312588,0.303561524303,1.0,-0.0124,-0.0162971428571,0.621
0.462166027334,0.525834790747,-0.124062738684,-1.38989860814,0.0774308767437,1.90665582186,0.154861163407,-0.0105849491503,-0.0682644412311,-5.18522559311e-05,-0.102753358659,-0.00933619196757,0.0457280988249,-0.0142599700696,0.574038009879,0.818813711139,0.00228398048983,0.0,0.818774926432,-0.573978111828,-0.0117257788537,0.0,-0.00829043330668,0.00860127431615,-0.999928640852,0.0,0.657741688522,0.255690883206,0.303583326319,1.0,-0.01272,-0.0167177142857,0.637
0.462019907839,0.524738724176,-0.124074433265,-1.39163787305,0.0773341494873,1.90728395288,0.154624986909,-0.0094749488457,-0.0626209737511,-0.00208100246227,-0.11106076958,-0.0028187444402,0.0396385538296,-0.00774614620162,0.57404004561,0.818812314419,0.00227303604825,0.0,0.818773317749,-0.573980116029,-0.0117399934425,0.0,-0.00830833366836,0.00860049322392,-0.999928498998,0.0,0.657532800683,0.255422907693,0.303581243857,1.0,-0.01304,-0.0171382857143,0.653
0.461868653961,0.523545807587,-0.124080804716,-1.39353232329,0.0771996348708,1.90796775571,0.154358261598,-0.00760219410134,-0.072197630661,-0.000202873022934,-0.11370102099,-0.0133467389246,0.0369191551225,-0.0110412514464,0.57401526033,0.818829765771,0.00224555043717,0.0,0.818790557721,-0.573955587835,-0.0117368087724,0.0,-0.00832176237656,0.0085759079506,-0.999928598488,0.0,0.657302703537,0.255135246987,0.303577712937,1.0,-0.01338,-0.0175851428571,0.67
0.461687779496,0.522269611459,-0.124078729101,-1.39558912254,0.0770841533542,1.90874439365,0.154079892809,-0.0114483854114,-0.0731127732407,0.000387737716013,-0.11597789266,-0.00566032134265,0.0452801632249,-0.0191375227566,0.574013189978,0.818831216831,0.00224565687061,0.0,0.818791902957,-0.573953406875,-0.0117496080844,0.0,-0.00833220389422,0.00858332093552,-0.99992844793,0.0,0.657059058938,0.254824220734,0.303562961133,1.0,-0.01374,-0.0180582857143,0.688
0.46155164437,0.521165675945,-0.124089712169,-1.39733868363,0.0769731322787,1.90943886147,0.15385724212,-0.00905249039334,-0.0707867450281,-0.00186278475051,-0.116717236553,-0.0117747898519,0.0485777631136,-0.0137201883503,0.574013957472,0.818830586765,0.00227897060618,0.0,0.818791833822,-0.57395418152,-0.0117165388651,0.0,-0.00828599521584,0.00859162477908,-0.999928760596,0.0,0.656857562512,0.254564365151,0.303566344267,1.0,-0.01404,-0.0184525714286,0.703
0.461375546561,0.519896098194,-0.124090398307,-1.39936369653,0.0768538975636,1.91018158785,0.153574043604,-0.00802535875964,-0.0829597057118,-0.000343192130119,-0.123971869589,-0.00798011269673,0.0420674048208,-0.0146798064261,0.574001612849,0.818839240323,0.00227900327046,0.0,0.81880041382,-0.573941761594,-0.0117253370114,0.0,-0.00829331057115,0.00859657668743,-0.99992865739,0.0,0.656597129265,0.254239424607,0.303567043524,1.0,-0.0144,-0.0189257142857,0.721
0.461191262717,0.518385020743,-0.124093604475,-1.40168663012,0.0767033134346,1.91101343602,0.153271555957,-0.0146468178404,-0.0803902911369,0.000370596744081,-0.12448210931,-0.0109342020805,0.0410491764159,-0.00908620468533,0.57398750094,0.818849138262,0.00227693513664,0.0,0.818810307661,-0.57392768275,-0.0117235635577,0.0,-0.00829319347954,0.00859372236416,-0.999928682896,0.0,0.656309984208,0.253890528271,0.303582935484,1.0,-0.01478,-0.0194251428571,0.74
0.461035297876,0.517192795339,-0.124094011713,-1.40356737347,0.076570811211,1.91168944155,0.153000726668,-0.00854435612187,-0.0765047942111,0.000320141319817,-0.128512600672,-0.00932132158303,0.0525592651035,-0.0151295542908,0.573960302033,0.81886824597,0.00226148909288,0.0,0.818829311812,-0.573900645416,-0.0117198212578,0.0,-0.0082992792133,0.00857865087211,-0.999928761819,0.0,0.656093221593,0.253623565348,0.303585666387,1.0,-0.01506,-0.0197931428571,0.754
0.460842274547,0.515762102522,-0.124104629238,-1.40584158152,0.0764187207324,1.91254592017,0.152688167915,-0.0146857409147,-0.0792254166981,-0.00230436866915,-0.130173077693,-0.0106737168758,0.0575112917229,-0.017106460346,0.573962963516,0.818866403237,0.00225323392401,0.0,0.81882751013,-0.57390349058,-0.0117063681622,0.0,-0.00829297244327,0.00856419657343,-0.999928938048,0.0,0.655807910841,0.253247466585,0.303575431318,1.0,-0.01544,-0.0202925714286,0.773
0.460662474421,0.514449263407,-0.124102534253,-1.4079412121,0.0763058558291,1.91331352262,0.152415174429,-0.0101676144538,-0.0831075767361,0.000570465386333,-0.132754360164,-0.0042506341273,0.0435982570386,-0.0198103173079,0.573951519762,0.818874426738,0.00225235373175,0.0,0.818835327973,-0.57389185104,-0.0117301267697,0.0,-0.00831305343382,0.00857699602686,-0.999928661596,0.0,0.655562886695,0.252958418383,0.303568742695,1.0,-0.01574,-0.0206868571429,0.788
0.460461170632,0.512974085931,-0.124101433673,-1.41034092694,0.0761534462628,1.91414614042,0.152078306804,-0.0147721059044,-0.0881288658387,-0.000988199043576,-0.138309549891,-0.0126198184426,0.0444700073314,-0.0162123908127,0.573924257588,0.818893752356,0.00217159044634,0.0,0.818853525953,-0.573864820317,-0.0117821024987,0.0,-0.00840225253392,0.00854041335272,-0.999928229171,0.0,0.655256275968,0.252593675518,0.303532438238,1.0,-0.0161,-0.02116,0.806
0.460285058036,0.511725045972,-0.124111705662,-1.41234220865,0.0760468330747,1.91486942047,0.151783916112,-0.0145344988467,-0.0868049846048,-9.54750971946e-05,-0.133831304859,-0.0106767234766,0.052645492913,-0.0178262786002,0.573910814137,0.818903223229,0.00215297549502,0.0,0.818862600099,-0.573851294072,-0.0118102223412,0.0,-0.00843610378945,0.00854116987475,-0.999927937689,0.0,0.65500959294,0.252283069761,0.303517829585,1.0,-0.0164,-0.0215542857143,0.821
0.460053893484,0.510020263629,-0.1241074877,-1.41508045687,0.0758707034599,1.91591096149,0.151411235827,-0.0090283827827,-0.083891486472,0.00019083987142,-0.133567658076,-0.00679588250645,0.0587053105736,-0.0195804553548,0.573887416295,0.818919620774,0.00215291233925,0.0,0.818879038454,-0.57382794151,-0.0118051185797,0.0,-0.00843220432062,0.00853794816894,-0.999927998094,0.0,0.654676241586,0.251873840566,0.303498205119,1.0,-0.0168,-0.02208,0.841
0.459880141765,0.508749935021,-0.124115862188,-1.41704996541,0.0757546790954,1.91661896427,0.151139037511,-0.0131822858363,-0.0876278516537,-0.000769562646872,-0.140575200915,-0.0106074421882,0.0505334477821,-0.0153692136849,0.573883769903,0.818922152637,0.00216181927164,0.0,0.81888162192,-0.573824195666,-0.011807990993,0.0,-0.00842948349129,0.00854685301093,-0.99992794496,0.0,0.65443250124,0.251567537973,0.303511313893,1.0,-0.01708,-0.022448,0.855
0.459649599249,0.507066400549,-0.124123797617,-1.41970808847,0.0755721025713,1.91758086736,0.150755658551,-0.01432631028,-0.0912508559781,-0.00145447105225,-0.138124991578,-0.0139435130683,0.050165319441,-0.0188027058241,0.573852407242,0.818944191337,0.00213847605541,0.0,0.81890348572,-0.573793058425,-0.011804832955,0.0,-0.00844061917009,0.00852560144848,-0.999928032444,0.0,0.654102560834,0.251154669376,0.3035072286,1.0,-0.01746,-0.0229474285714,0.874
0.459442616102,0.505586083716,-0.124121792274,-1.42201446301,0.0754298424491,1.91844794136,0.150443505587,-0.014916701369,-0.090855767175,0.00153779619485,-0.141829766259,-0.00947104905505,0.0599933868913,-0.0197669489862,0.573845633085,0.818948848895,0.00217236811318,0.0,0.818908559358,-0.573786128032,-0.0117897238604,0.0,-0.00840886799275,0.00854461690491,-0.999928137648,0.0,0.653821168535,0.250802160192,0.303519372055,1.0,-0.01778,-0.023368,0.89
0.459210665041,0.503848231163,-0.124125909925,-1.42463468488,0.075264014209,1.91944866701,0.150077356301,-0.0122111356504,-0.0989285192982,0.000208437705399,-0.14599273395,-0.0094123665862,0.0552008133648,-0.0188083317112,0.573828786547,0.818960390922,0.00226908177589,0.0,0.818921422963,-0.573768980727,-0.0117305868935,0.0,-0.00830511718951,0.00858971349789,-0.999928618378,0.0,0.653505846474,0.250401232149,0.3035732045,1.0,-0.01814,-0.0238411428571,0.908
0.458987338614,0.502267542059,-0.124132234372,-1.42696640188,0.075116074154,1.92032420737,0.149749521445,-0.0110476639188,-0.107541796128,-0.00126111342192,-0.148171790481,-0.00720429735246,0.0522697630149,-0.0292798299102,0.573827207155,0.818961205026,0.00237231799191,0.0,0.818923632957,-0.573767078698,-0.0116691767933,0.0,-0.00819560291512,0.00863900472519,-0.999929097332,0.0,0.653226985875,0.250031320002,0.303643110561,1.0,-0.01846,-0.0242617142857,0.924
0.458781857067,0.500771304202,-0.124132369987,-1.429241124,0.0749639885743,1.92112110403,0.149442676008,-0.0143864544845,-0.101537376182,-0.000430391083657,-0.154633789783,-0.012265185733,0.0508282909908,-0.0246765701249,0.573819428067,0.818966606242,0.00238929589874,0.0,0.818929249867,-0.57375923435,-0.0116606865637,0.0,-0.00817898978692,0.00864795929294,-0.999929155954,0.0,0.652919008762,0.249650102242,0.303678025668,1.0,-0.01878,-0.0246822857143,0.94
0.458547179922,0.499165198248,-0.12413057598,-1.43168193203,0.0748147546483,1.92201241091,0.149083540907,-0.0177265236775,-0.101858419232,0.00115877369461,-0.147655331342,-0.00884758614932,0.0595307220163,-0.0237547578786,0.573799600794,0.818980365416,0.00243435676365,0.0,0.818943533158,-0.573739183901,-0.0116441082048,0.0,-0.00813976684539,0.00867515239209,-0.99992924046,0.0,0.652635114631,0.249292451725,0.303709457908,1.0,-0.01908,-0.0250765714286,0.955
0.458276230707,0.49739407165,-0.124137614988,-1.43448405171,0.0746446677795,1.92305280345,0.148678652539,-0.00936667530443,-0.0956401890551,-0.000535728994023,-0.155903308554,-0.00686344075056,0.0526984377866,-0.0208211467946,0.57379136011,0.818986119179,0.00244101557317,0.0,0.818949332309,-0.573730876822,-0.0116455567518,0.0,-0.00813721999144,0.00868135506467,-0.999929207357,0.0,0.652290778816,0.248845696358,0.303701019165,1.0,-0.01944,-0.0255497142857,0.973
0.45800943663,0.495710047347,-0.124133061978,-1.43718595831,0.0744743219147,1.9239898417,0.148272047125,-0.0180659187567,-0.100826724128,0.00110043884917,-0.155777804256,-0.00796457791995,0.0545072926073,-0.0272478929967,0.573763776611,0.819005644268,0.0023728058817,0.0,0.818967836402,-0.573703399116,-0.0116978494946,0.0,-0.00821947621245,0.00865522064318,-0.999928761146,0.0,0.651942743198,0.248412416001,0.303669584786,1.0,-0.01978,-0.0259965714286,0.99
0.457753876186,0.494137374239,-0.124141221326,-1.43976519293,0.0743089147313,1.92489556698,0.147908501711,-0.0199407850246,-0.100186281126,-0.00126730179485,-0.160324147327,-0.0148176656739,0.0545176908037,-0.0234789935505,0.573766146246,0.819004243489,0.00228155004539,0.0,0.818965209755,-0.573706065491,-0.0117508523489,0.0,-0.00831521893233,0.00861091716566,-0.999928352053,0.0,0.651613811512,0.247990891997,0.30361611952,1.0,-0.0203914285714,-0.0268001632653,1.006
0.457468376204,0.49234451641,-0.124149675417,-1.44263041544,0.0741193356238,1.92595865784,0.14752204221,-0.0187456808591,-0.106753332817,-0.00187525013432,-0.16948319042,-0.00929236588597,0.0577693026293,-0.0247142281533,0.573781920406,0.818993244139,0.00226291221067,0.0,0.818954058411,-0.573722001411,-0.0117499876757,0.0,-0.00832503828537,0.00859531711856,-0.999928404568,0.0,0.651260206915,0.247525521975,0.303592766086,1.0,-0.0217902857143,-0.0286386612245,1.023
0.457165534032,0.490459993815,-0.124146527121,-1.4456928403,0.0739294416161,1.92703112176,0.147081403962,-0.0198003346264,-0.110932126151,-0.000994276845935,-0.180445206916,-0.0188022927614,0.064661723989,-0.0252172823845,0.573768158625,0.819003125627,0.00217422664088,0.0,0.818962614839,-0.573708406585,-0.0118172167453,0.0,-0.00843112767425,0.00856111785514,-0.999927809068,0.0,0.650863071855,0.247034361021,0.30353910697,1.0,-0.0231891428571,-0.0304771591837,1.04
0.456855657636,0.488562962707,-0.124174452287,-1.44873364356,0.073747113415,1.92811951939,0.146648393024,-0.0249489179083,-0.122132908322,-0.00180694872622,-0.198764253332,-0.00872555391949,0.0644489528328,-0.0303923886055,0.573789373886,0.818988393778,0.00212418788582,0.0,0.818947181359,-0.573729765743,-0.0118497656244,0.0,-0.00848627408432,0.0085390316829,-0.999927531419,0.0,0.650481385338,0.246525540782,0.303505923165,1.0,-0.0245057142857,-0.0322075102041,1.056
0.45650466,0.486358472051,-0.124188367047,-1.45208589464,0.0735366155591,1.92943835884,0.146159393197,-0.0195419827604,-0.128279126848,-0.00134926928813,-0.20144561989,-0.0118034226305,0.0767525653305,-0.0274084829337,0.573795787474,0.818983529877,0.00226251374725,0.0,0.818944255864,-0.573735782485,-0.0117602969984,0.0,-0.00833356489998,0.00860104711108,-0.999928284271,0.0,0.6500845726,0.245976399132,0.303556485649,1.0,-0.0259045714286,-0.0340460081633,1.073
0.456104906333,0.483925871835,-0.124217906839,-1.45579796729,0.073299818986,1.93076416858,0.145591308529,-0.0220072963219,-0.140325504653,-0.00069215713569,-0.215645632512,-0.0120436014167,0.0710818196463,-0.022224586459,0.573797493329,0.818982243055,0.00229545460376,0.0,0.818943443375,-0.573737411738,-0.0117373687721,0.0,-0.00829586814257,0.00861488614027,-0.999928478597,0.0,0.649621704339,0.245343584857,0.303593999246,1.0,-0.0273857142857,-0.0359926530612,1.091
0.455723542788,0.481650902487,-0.124242718488,-1.45934798866,0.0730835320691,1.93197431753,0.145058181273,-0.0241244312965,-0.143779820385,-0.000341014830317,-0.221169451321,-0.013065580838,0.0851312333441,-0.0367518064381,0.573805976454,0.818976447366,0.00224208542963,0.0,0.818936797918,-0.57374593502,-0.0117843101366,0.0,-0.00836484609829,0.00859819938911,-0.99992804757,0.0,0.64916226262,0.244738487122,0.303587949014,1.0,-0.0287022857143,-0.0377230040816,1.107
0.455300026817,0.479121816048,-0.124258346318,-1.46324822963,0.0728476934053,1.93342181259,0.144485856486,-0.024812710202,-0.155463435102,-1.24580615753e-05,-0.231915018603,-0.00829367074248,0.082770862405,-0.0307069439279,0.573821768747,0.818965200187,0.00230770356842,0.0,0.818926339551,-0.573761409332,-0.0117576550329,0.0,-0.0083051989568,0.00863680392859,-0.999928212067,0.0,0.648677759643,0.24408630261,0.303610296843,1.0,-0.0301011428571,-0.0395615020408,1.124
0.454847379833,0.476495446827,-0.124281760266,-1.46725126915,0.0725921886467,1.93491210631,0.143910161798,-0.0311786267581,-0.156944277709,-0.00158539807466,-0.238827302492,-0.0179934248684,0.0946065354814,-0.0354687594264,0.573862499904,0.818936404535,0.00239654605086,0.0,0.818898790896,-0.573801903042,-0.0117001382863,0.0,-0.00820668450011,0.00867696632804,-0.999928677749,0.0,0.648186119109,0.243399905529,0.303653393038,1.0,-0.0315,-0.0414,1.141
0.454410112633,0.473915531871,-0.124289981455,-1.4712336353,0.0723417826674,1.93633953727,0.143334442119,-0.0278616621327,-0.160687485262,-0.00029279905112,-0.256052347594,-0.0200711514899,0.0828533729344,-0.0324558941043,0.573878588967,0.818925068044,0.00241763424537,0.0,0.818887630233,-0.573817809378,-0.0117011791345,0.0,-0.00819526511664,0.00869499435452,-0.999928614803,0.0,0.647675520946,0.242731354779,0.303666771178,1.0,-0.0328165714286,-0.0431303510204,1.157
0.453898247271,0.470889646222,-0.124293419526,-1.47589382554,0.0720532711635,1.93795914734,0.142638257648,-0.0313189471776,-0.166376844405,-0.000654807249259,-0.259303204456,-0.0182054326874,0.0935948591342,-0.0378448620483,0.573874164461,0.818928184967,0.0024120806137,0.0,0.818890413476,-0.573813128594,-0.0117358881882,0.0,-0.00822692448338,0.00871032041997,-0.99992822144,0.0,0.647062866113,0.241950570577,0.303680572455,1.0,-0.0342977142857,-0.0450769959184,1.175
0.453411304678,0.467925357043,-0.124286452709,-1.48036431237,0.0717601085119,1.93969918739,0.141901726203,-0.0318565299274,-0.179973692485,0.00170045353915,-0.265658500073,-0.0185570448048,0.104613736003,-0.055856484737,0.573797482674,0.818981327762,0.002603949818,0.0,0.818946173862,-0.573735907982,-0.0116197723974,0.0,-0.00802255157214,0.0088000603197,-0.999929096289,0.0,0.646508131528,0.241221086944,0.303749958025,1.0,-0.0356965714286,-0.0469154938775,1.192
0.452954321975,0.465226988012,-0.1242913261,-1.48452786044,0.0714801861212,1.94113107606,0.141278624463,-0.0265023227298,-0.184457971425,-0.000106978714257,-0.283688748423,-0.020377068961,0.0873320674169,-0.0418911799283,0.573784160843,0.818990767528,0.00257028609376,0.0,0.818955105222,-0.57372262639,-0.0116460508409,0.0,-0.00806353207652,0.00878743761262,-0.999928877666,0.0,0.645952500149,0.240519160006,0.303753828558,1.0,-0.0369308571429,-0.0485376979592,1.207
0.452363866295,0.461906068154,-0.12430033074,-1.48976294998,0.071129455012,1.94293245855,0.140517286435,-0.0333903718566,-0.18801951844,-0.000413398754844,-0.288592603945,-0.0140973054843,0.0953922404338,-0.0368260004803,0.573799289304,0.818980488693,0.00246609711539,0.0,0.818943361545,-0.573738003739,-0.0117141174856,0.0,-0.00817889749608,0.00874131444702,-0.999928344962,0.0,0.645252180306,0.239624695994,0.303707179682,1.0,-0.038412,-0.0504843428571,1.225
0.451793903234,0.458669311474,-0.124296394741,-1.49478565109,0.0707871359064,1.94470303231,0.139759008882,-0.033090684051,-0.190480214447,0.00158295403396,-0.297403902079,-0.0182743994474,0.11091632792,-0.0454404343395,0.5737810539,0.818993329785,0.00244435157095,0.0,0.818955874544,-0.573719801479,-0.0117308073573,0.0,-0.00820523805685,0.00873289922243,-0.999928202692,0.0,0.644583858303,0.238774934104,0.303697900601,1.0,-0.0398108571429,-0.0523228408163,1.242
0.451207937813,0.455584875592,-0.124315746868,-1.49970990766,0.0704569066119,1.94644593518,0.138984299392,-0.0368859747495,-0.195390659974,-0.0024469897593,-0.310835280788,-0.0149699643615,0.106207797827,-0.0484398342469,0.573776832583,0.818996564066,0.00234975338013,0.0,0.818957862503,-0.573715915662,-0.0117819549513,0.0,-0.00830144953963,0.00868472900711,-0.999927828104,0.0,0.64393463586,0.237911536805,0.303626992677,1.0,-0.0411274285714,-0.0540531918367,1.258
0.450571285822,0.452106741531,-0.124366115085,-1.5050287675,0.0701013999356,1.94831869577,0.138139454723,-0.0377778987762,-0.208815321718,-0.00683927430256,-0.313001074672,-0.0128395580997,0.116518326229,-0.0517610577511,0.573788362102,0.818988449327,0.00236268626979,0.0,0.818950023315,-0.57372750754,-0.0117623681793,0.0,-0.00827786494542,0.00868419914549,-0.999928028229,0.0,0.643237655006,0.236961465161,0.303647896473,1.0,-0.0425262857143,-0.0558916897959,1.275
0.449861966464,0.448269595426,-0.124397481372,-1.51079655747,0.0697039615811,1.95040294289,0.137274584196,-0.0435817373702,-0.212509188445,-0.000960025490372,-0.326313100497,-0.0219064605461,0.111134786441,-0.0491228613737,0.573835427792,0.818955141982,0.00247469866865,0.0,0.818918385256,-0.573774383531,-0.0116782701764,0.0,-0.00814421750879,0.00872814944417,-0.999928743025,0.0,0.642488514984,0.235936189519,0.303715829779,1.0,-0.0440074285714,-0.0578383346939,1.293
0.449256128683,0.444992236422,-0.124407857886,-1.51579263956,0.069365405743,1.95206812205,0.136521648315,-0.0417744436803,-0.219238343202,-0.000877825734314,-0.33178676459,-0.0206515545789,0.116481902395,-0.0517935533698,0.573852586742,0.818943262307,0.00242666701127,0.0,0.818905712755,-0.573791534259,-0.0117241516462,0.0,-0.0082091720614,0.00871531402483,-0.999928323829,0.0,0.641799377416,0.235055798943,0.303727601076,1.0,-0.0452417142857,-0.0594605387755,1.308
0.448520782401,0.441041095658,-0.124408589542,-1.52188064738,0.0689277746728,1.95424216217,0.135540703014,-0.0451096167804,-0.21717027983,-0.000433870139924,-0.339013575513,-0.0261468105339,0.122947338763,-0.0621306004491,0.573800997295,0.8189793811,0.00243633711275,0.0,0.818942109112,-0.573740077456,-0.0117001002158,0.0,-0.00818447416623,0.0087089158995,-0.999928582033,0.0,0.640979562977,0.233997869824,0.303721826664,1.0,-0.0467228571429,-0.0614071836735,1.326
0.447772767592,0.437240860222,-0.124414620338,-1.52778996836,0.0685446197114,1.95633224828,0.134578460134,-0.0451298335832,-0.221824730598,-3.98304485768e-05,-0.348548759205,-0.0231047325014,0.128625172707,-0.0554109120974,0.573784786215,0.818990781549,0.00242193042569,0.0,0.818953089289,-0.573723673525,-0.0117358801376,0.0,-0.00822221712837,0.00871748471856,-0.999928197725,0.0,0.640179589334,0.232951875122,0.30368746048,1.0,-0.0481217142857,-0.0632456816326,1.343
0.446990603745,0.433205836135,-0.124439366041,-1.53377275249,0.0681236856622,1.95850186339,0.133624941043,-0.0462235864763,-0.236107741755,0.000810567612546,-0.359918680517,-0.0217123295878,0.131126225606,-0.0624227148574,0.573806375642,0.818975136722,0.00259144865422,0.0,0.818939890755,-0.573744919749,-0.0116176285362,0.0,-0.00802787298011,0.00878867921101,-0.999929153677,0.0,0.639390398949,0.231867948852,0.303781226831,1.0,-0.0495205714286,-0.0650841795918,1.36
0.446226988598,0.429433612729,-0.124471307632,-1.53966558988,0.0676872967244,1.96046030572,0.132693383829,-0.0489518240328,-0.244949782182,-0.00250210506277,-0.375099007686,-0.0277457481991,0.118955902833,-0.0602705174971,0.573823685409,0.818963511969,0.00242714403119,0.0,0.818926235745,-0.573762918553,-0.0116910480144,0.0,-0.00818209402805,0.00869641961602,-0.99992871027,0.0,0.638566562958,0.230784405284,0.303717792817,1.0,-0.0508371428571,-0.0668145306122,1.376
0.445412500004,0.425276501635,-0.12452205645,-1.54603512102,0.0672206191456,1.96257682688,0.131636927259,-0.0483201928754,-0.246187909582,-0.00432864530209,-0.376287450255,-0.0306242087531,0.126293455391,-0.062977377451,0.57380371351,0.818977783813,0.00233128379964,0.0,0.818939316985,-0.573743358991,-0.0117345647928,0.0,-0.00827294854994,0.00864268321553,-0.999928428613,0.0,0.637618475857,0.229545050253,0.303706946512,1.0,-0.0523182857143,-0.0687611755102,1.394
0.444591996664,0.42128144813,-0.124536357273,-1.55209367087,0.0668166549756,1.96465560337,0.130645065516,-0.0500733933021,-0.254243002046,-0.00107182969323,-0.377011096689,-0.0236852504458,0.127330568966,-0.0573355244662,0.573816903379,0.818968532182,0.0023348645098,0.0,0.818929954899,-0.573756369828,-0.0117517638045,0.0,-0.00828484087722,0.00865561785073,-0.999928218269,0.0,0.636829334231,0.228503799778,0.303710835373,1.0,-0.0535525714286,-0.0703833795918,1.409
0.443636955186,0.416648295036,-0.124555483724,-1.55893916001,0.0663498530965,1.96716494325,0.12955253995,-0.056095363292,-0.257618313016,-0.00130916772229,-0.380447790457,-0.0251012955518,0.149694378861,-0.0620585573766,0.573874519117,0.818927434069,0.0025770018044,0.0,0.818892115804,-0.573813230378,-0.011611469303,0.0,-0.00803038764187,0.00877398174889,-0.999929262557,0.0,0.635912465301,0.227241738522,0.303812942104,1.0,-0.0550337142857,-0.0723300244898,1.427
0.44271987368,0.412224917483,-0.124558233158,-1.56564917207,0.0658761161105,1.9694925969,0.128393846404,-0.0571138287934,-0.262942608346,0.000480853643626,-0.396083065438,-0.023795344858,0.135817654511,-0.0786571806342,0.57382218981,0.818964020476,0.00260279621712,0.0,0.818928957062,-0.573760731676,-0.0116074533501,0.0,-0.00801285867355,0.00879228876984,-0.999929242374,0.0,0.634968786472,0.226016075162,0.303816794545,1.0,-0.0564325714286,-0.074168522449,1.444
0.441887541302,0.408245853363,-0.124583143316,-1.57173852038,0.0654348235197,1.97142270047,0.127420072013,-0.0604295952899,-0.26636322236,0.00105894133395,-0.400737868089,-0.0248805318518,0.133923521605,-0.0595059193569,0.573844920618,0.818948597331,0.00243903919769,0.0,0.818911160223,-0.573783772415,-0.0117235266574,0.0,-0.00820164250692,0.00872501062675,-0.999928301055,0.0,0.634013100957,0.224806352348,0.303776078753,1.0,-0.0577491428571,-0.0758988734694,1.46
0.440686866034,0.402624009396,-0.124589123337,-1.58035677842,0.0648524037829,1.97439695255,0.125978224637,-0.0550577881139,-0.26835948208,-0.000247852965869,-0.405236368243,-0.0293177891771,0.147095291598,-0.075503942708,0.573837823973,0.818953610529,0.00242538259741,0.0,0.818915639986,-0.573776349286,-0.0117738051713,0.0,-0.00825073193447,0.0087426068036,-0.999927743514,0.0,0.632839176683,0.223296382494,0.303728900432,1.0,-0.0593948571429,-0.0780618122449,1.48
0.439900354576,0.398979666088,-0.12460000546,-1.58562439007,0.0644765905882,1.97633655572,0.12505810753,-0.0587518986093,-0.281062477479,-0.00227685621619,-0.399776399492,-0.0307229905889,0.149160678227,-0.070122753432,0.573839687675,0.81895150569,0.00268161869761,0.0,0.818917086363,-0.573777540272,-0.0116140795305,0.0,-0.00797286884088,0.00886081373913,-0.999928957148,0.0,0.632122659799,0.222300401961,0.303844992426,1.0,-0.0604645714286,-0.079467722449,1.493
0.438842422387,0.394177123135,-0.124613467653,-1.59282917429,0.063918139886,1.97873947204,0.123853075248,-0.0623825023872,-0.286676791285,-0.00408126151884,-0.434963333548,-0.0312825408622,0.141430300914,-0.0651084830846,0.573850978568,0.818943690107,0.00265211819783,0.0,0.818909052093,-0.573789112055,-0.0116088839972,0.0,-0.00798541949698,0.00883378311901,-0.999929096162,0.0,0.631076947188,0.220928215067,0.303855497793,1.0,-0.0618634285714,-0.0813062204082,1.51
0.437778322108,0.389316476388,-0.124624302992,-1.60019316275,0.0633675884114,1.98107872136,0.122607447914,-0.0613585326833,-0.286921283256,0.000470243551996,-0.432122217216,-0.0387389186854,0.139520055289,-0.077274396735,0.573836428651,0.818954359815,0.00250131876294,0.0,0.818917522,-0.573774830199,-0.0117167953216,0.0,-0.00816048397781,0.00877206663513,-0.999928226098,0.0,0.629968117332,0.219536458582,0.303818294179,1.0,-0.0632622857143,-0.0831447183673,1.527
0.436615577201,0.384118293514,-0.124624393113,-1.60802997497,0.0627862744479,1.98371916533,0.121173816419,-0.0663957958724,-0.296849185559,0.000590348584829,-0.433148925097,-0.0291342445402,0.147391299896,-0.0724014850189,0.573746221859,0.819017596995,0.00248909921933,0.0,0.818980496843,-0.573684568087,-0.0117349491155,0.0,-0.00818332956929,0.00877157531406,-0.999928043703,0.0,0.628812456317,0.218056382391,0.303801995112,1.0,-0.0647434285714,-0.0850913632653,1.545
0.435608409545,0.379656761962,-0.124633578058,-1.61452277683,0.0623316588694,1.98603864991,0.120048238898,-0.0694406429367,-0.290224518666,-0.000511298335138,-0.443211854409,-0.0302618511314,0.158331643644,-0.073897093947,0.573770961489,0.818999497051,0.00273029007608,0.0,0.81896554311,-0.573708472567,-0.011609246493,0.0,-0.00794172939259,0.00889723331676,-0.999928881558,0.0,0.627887412328,0.216813642262,0.303897471631,1.0,-0.0659777142857,-0.0867135673469,1.56
0.434403321385,0.374620150175,-0.124661949403,-1.62223815278,0.0617179470357,1.98850384875,0.118663672863,-0.0738849148073,-0.300615443398,-0.0054358500634,-0.45867419379,-0.0421138415438,0.147614660092,-0.0824381673071,0.573751611074,0.819013740499,0.00251566391843,0.0,0.818977034838,-0.573689913017,-0.0117152469612,0.0,-0.00815189416924,0.00878208187698,-0.999928208253,0.0,0.626720976919,0.215292640736,0.303804746028,1.0,-0.0673765714286,-0.0885520653061,1.577
0.433172157477,0.369426772366,-0.1247285512,-1.63004714553,0.0611188917505,1.99097227015,0.117335789694,-0.0755926455771,-0.298653251537,-0.00350325943312,-0.466559285638,-0.0310825280317,0.145669977695,-0.0816565861221,0.573836960062,0.818954380178,0.00236925193875,0.0,0.818915787356,-0.573775810081,-0.0117898212629,0.0,-0.0082960660393,0.00870582062406,-0.999927689373,0.0,0.62546980311,0.213634709104,0.303769254467,1.0,-0.0688577142857,-0.0904987102041,1.595
0.431977087862,0.364401970102,-0.124758670177,-1.63728387632,0.0605427482334,1.99348471266,0.116036413842,-0.0829780315167,-0.315877809594,-0.000302946408391,-0.449152275012,-0.0431187190063,0.160382242669,-0.0820269276263,0.573860877108,0.818936972708,0.00258367145657,0.0,0.818901600513,-0.573799413543,-0.0116253428574,0.0,-0.00803806867745,0.00878727132199,-0.999929084143,0.0,0.624483784123,0.212283106551,0.303881999062,1.0,-0.070092,-0.0921209142857,1.61
0.430591738264,0.358767864742,-0.124770046673,-1.64561125728,0.0599355596702,1.996270804,0.114434318704,-0.0760753614329,-0.311513518221,-0.000464534722804,-0.470118443266,-0.0316127412045,0.142951134772,-0.0909431049282,0.573809814562,0.818972503391,0.002661259544,0.0,0.818937894276,-0.573747822784,-0.0116149933582,0.0,-0.00798562206621,0.00884437375372,-0.999929000926,0.0,0.62323131352,0.210629858192,0.303901008943,1.0,-0.0715731428571,-0.0940675591837,1.628
0.429231394308,0.353348818698,-0.124806902828,-1.65372182144,0.0593158538972,1.99881012136,0.112971548801,-0.0778314352511,-0.322229972181,-0.00319477413567,-0.479736969286,-0.0376948653758,0.148714921403,-0.0796220114708,0.573852805019,0.818942823857,0.00252117544688,0.0,0.818906117115,-0.573790995907,-0.0117222553017,0.0,-0.00815338606616,0.0087916243478,-0.999928112235,0.0,0.62197070589,0.208986475348,0.303852620456,1.0,-0.072972,-0.0959060571428,1.645
0.427912832565,0.348197718946,-0.124839940609,-1.66137115635,0.0587542411784,2.00127757117,0.111521534063,-0.080337653403,-0.332752988499,-0.000954617072443,-0.467073453938,-0.036775908704,0.162252559664,-0.0878719526924,0.573866868637,0.818933046339,0.00249591604897,0.0,0.818895671704,-0.573804785314,-0.0117768466303,0.0,-0.00821243842949,0.00880240642121,-0.999927534122,0.0,0.620792308171,0.207427669419,0.303832670111,1.0,-0.0742885714286,-0.0976364081633,1.661
0.426478374845,0.342559643716,-0.124841172352,-1.66943815692,0.058125610812,2.00399679022,0.110030475883,-0.0895861133619,-0.334728647291,0.000663261852165,-0.477992712536,-0.0414645312848,0.151046564721,-0.0814559141585,0.573905492328,0.818905252225,0.00272408813943,0.0,0.818870984714,-0.573842746501,-0.0116430057608,0.0,-0.0079714738251,0.00891283329014,-0.999928505948,0.0,0.619570801296,0.205784749388,0.303947202601,1.0,-0.0756874285714,-0.0994749061224,1.678
0.424944106009,0.336577062962,-0.124844525174,-1.67832415144,0.0573947419799,2.00671382137,0.108301185763,-0.0833676544087,-0.335776218287,0.000188975571625,-0.501679302759,-0.0435868890237,0.158389450004,-0.0951407423446,0.573819953873,0.81896577663,0.00254246868766,0.0,0.818928950432,-0.573757643656,-0.0117595659772,0.0,-0.0081720785779,0.00883014482816,-0.999927620218,0.0,0.618141373608,0.203982986079,0.303892157028,1.0,-0.0771685714286,-0.10142155102,1.696
0.423652323366,0.331532760234,-0.124836136196,-1.68575858551,0.0567682343429,2.0090768305,0.106913125649,-0.0851384520032,-0.339293514283,-0.000420875940466,-0.488635199654,-0.038008326866,0.163421108434,-0.0897072497033,0.57378018707,0.81899376443,0.00250152997995,0.0,0.818956535542,-0.573718171988,-0.0117643072419,0.0,-0.00819987893977,0.00879894014282,-0.999927667703,0.0,0.616878987712,0.202386370175,0.30387964668,1.0,-0.0784851428571,-0.103151902041,1.712
0.42204061084,0.325353959593,-0.1248311249,-1.69452910171,0.0560855459856,2.01205186723,0.105130787698,-0.096311612322,-0.342053396097,-0.000131444529132,-0.494934482297,-0.0417369393466,0.160593047296,-0.0949681596316,0.573714100117,0.819039095772,0.00279961152509,0.0,0.819005822366,-0.573651139323,-0.0116008700414,0.0,-0.00789571778486,0.00894865314507,-0.999928787088,0.0,0.615599309098,0.200687829393,0.304002658469,1.0,-0.079884,-0.1049904,1.729
0.420431306062,0.319537166718,-0.124861251606,-1.7031665211,0.0553704893462,2.01469224248,0.103505388788,-0.0972310167165,-0.341038065492,-0.00104811627466,-0.509015719646,-0.0354906663497,0.160183448279,-0.103264564339,0.57377378982,0.818997872785,0.00262095242674,0.0,0.818962133793,-0.573711274872,-0.0117108239851,0.0,-0.00808762568609,0.0088659953497,-0.999927989626,0.0,0.614198609674,0.198863386863,0.303925138184,1.0,-0.0812828571429,-0.106828897959,1.746
0.418896331477,0.313936491186,-0.12490445355,-1.71136765231,0.0546992358903,2.01715733293,0.101827173021,-0.0968115364022,-0.35341936016,-0.00240647193637,-0.509179888819,-0.0395970020451,0.165418909566,-0.101147547089,0.57373344961,0.819026538771,0.00249088113503,0.0,0.818988871456,-0.573671158779,-0.0118058001985,0.0,-0.00824047566154,0.00881355609124,-0.999927205245,0.0,0.612852943277,0.19712345301,0.303889901222,1.0,-0.0825994285714,-0.10855924898,1.762
0.417209574517,0.307847468497,-0.124923306657,-1.71992234006,0.0539575326647,2.02001393048,0.100075095778,-0.101042953302,-0.353070889226,-0.00107184690403,-0.508881007386,-0.0353814856779,0.158553390777,-0.108762187147,0.573720030652,0.819035041833,0.00277012258148,0.0,0.81900168801,-0.573657508823,-0.011577759223,0.0,-0.00789364086737,0.00891129901665,-0.999929137081,0.0,0.611513640353,0.195290472052,0.304026175791,1.0,-0.0839982857143,-0.110397746939,1.779
0.415452588449,0.301802041593,-0.124959241036,-1.72876967615,0.0532381168942,2.02269803317,0.0982426907988,-0.0991552476474,-0.34944001624,-0.000751464644354,-0.524213027092,-0.0424757066802,0.148062821245,-0.101228763511,0.573722031776,0.819034004892,0.00266007254372,0.0,0.81899890347,-0.573659527725,-0.0116742994018,0.0,-0.00803582694882,0.00887657017032,-0.999928313424,0.0,0.610055724633,0.193372792769,0.303973470098,1.0,-0.0853971428571,-0.112236244898,1.796
0.413660951411,0.295700401908,-0.125047046739,-1.7377251811,0.0525279956028,2.02533516885,0.0964957169509,-0.104788613372,-0.362754610406,-0.00681063326635,-0.517141848922,-0.0452371313236,0.161498535344,-0.111197602359,0.573862827675,0.8189359406,0.00247529964665,0.0,0.818897903728,-0.573800401059,-0.0118351136479,0.0,-0.00827203125958,0.0088189192671,-0.999926897409,0.0,0.608559352448,0.191398342309,0.303893318803,1.0,-0.086796,-0.114074742857,1.813
0.411819119589,0.289387549648,-0.12507407291,-1.7464931826,0.0517883091982,2.02824697439,0.0945893639473,-0.110446874735,-0.374293304601,0.000400904408805,-0.520070141095,-0.047369584914,0.172078601322,-0.111417988939,0.573844426103,0.818947698192,0.00282650985937,0.0,0.818914739725,-0.573781320633,-0.0115927587183,0.0,-0.0078722160727,0.00896728320746,-0.999928805489,0.0,0.607162918815,0.18946951943,0.304047083932,1.0,-0.0881948571428,-0.115913240816,1.83
0.409932764894,0.283142056513,-0.125094546098,-1.75554798997,0.0510172758772,2.03086408794,0.0926862145583,-0.114640960801,-0.37303912148,-0.000456108743978,-0.534914504036,-0.0454054565367,0.154379230279,-0.112086807268,0.573849062199,0.818945030749,0.00265279578585,0.0,0.818909401859,-0.573786090186,-0.0117329091802,0.0,-0.00808662603993,0.00890548979844,-0.999927646748,0.0,0.605614433167,0.187473397586,0.303988055336,1.0,-0.0895937142857,-0.117751738776,1.847
0.408130210612,0.277162318921,-0.125118613176,-1.7641784824,0.050249091086,2.03337807378,0.0908443205383,-0.115989288691,-0.377273154538,0.000421670192466,-0.539733400932,-0.0467667552982,0.160109462269,-0.10646642218,0.573819048615,0.818966516828,0.00250811934895,0.0,0.818928899704,-0.573756495647,-0.011818960777,0.0,-0.00824044202582,0.0088360863695,-0.999927006682,0.0,0.604131456195,0.185569318022,0.303940847558,1.0,-0.0909102857143,-0.119482089796,1.863
0.406160114833,0.270698775145,-0.125150976106,-1.77317809033,0.0494694177748,2.03627608176,0.0888432058216,-0.117221017847,-0.363227682349,-0.00370480264189,-0.536398707854,-0.0479542183851,0.167427792373,-0.124790118019,0.57380379362,0.818976335585,0.00277760319871,0.0,0.818942661336,-0.573740764906,-0.0116275117612,0.0,-0.00792918545175,0.0089467803679,-0.999928539016,0.0,0.602649324506,0.183553416907,0.304048484627,1.0,-0.0923091428571,-0.121320587755,1.88
0.404110273953,0.26422295488,-0.125212054835,-1.78242373527,0.0486645636827,2.03894391445,0.0868581632524,-0.117591227426,-0.37823815415,-0.00529851526886,-0.547692179642,-0.0517595758065,0.159220123208,-0.120429949962,0.573878972743,0.818924008049,0.00267218750111,0.0,0.818888741958,-0.573816050131,-0.011709645971,0.0,-0.0080561212396,0.00890831537475,-0.999927867812,0.0,0.601052544287,0.181439936848,0.304018327702,1.0,-0.093708,-0.123159085714,1.897
0.402152076181,0.258064020556,-0.125274978747,-1.79121371916,0.0478730691045,2.04144848249,0.0849283119092,-0.122485798501,-0.389492314526,-0.00165857640278,-0.543633463375,-0.049826322288,0.152466544598,-0.118269764028,0.573910093921,0.818902628826,0.00253682845469,0.0,0.818865500282,-0.573847545802,-0.011791247874,0.0,-0.00820028897932,0.00884460776262,-0.999927261442,0.0,0.59951595096,0.179425117706,0.303977901497,1.0,-0.0950245714286,-0.124889436735,1.913
0.400051152197,0.251363163535,-0.125249074732,-1.8003953309,0.0470422246479,2.04428821778,0.0828586074747,-0.126613204321,-0.381260388904,0.00117548773463,-0.547613560918,-0.0535246540462,0.164668698935,-0.124818033124,0.573863219356,0.81893460059,0.00280576705608,0.0,0.818901320196,-0.573800120452,-0.0116101874244,0.0,-0.007898186791,0.00896047839605,-0.999928661692,0.0,0.597941450572,0.177364181488,0.304108375915,1.0,-0.0964234285714,-0.126727934694,1.93
0.397902050441,0.244740523862,-0.125256092807,-1.80984559073,0.0462504267062,2.04698172082,0.0806852483958,-0.127552840359,-0.3957084215,-0.00135924156449,-0.561538269245,-0.053088323001,0.168394516429,-0.123161079959,0.57381090204,0.818971584935,0.0027089980219,0.0,0.818936272245,-0.573747275184,-0.0117555570216,0.0,-0.00807334236908,0.00896413610751,-0.999927230056,0.0,0.596250819582,0.175234561228,0.304041228207,1.0,-0.0978222857143,-0.128566432653,1.947
0.395809850577,0.238395901753,-0.125254665608,-1.81871313958,0.0454713817783,2.04950788216,0.0786089497121,-0.130876186063,-0.411775008337,0.00201236947058,-0.550638706618,-0.0433917502393,0.162239864121,-0.130160242517,0.573765923347,0.819003092126,0.0027105710725,0.0,0.818967406241,-0.573701859895,-0.0118029813418,0.0,-0.00811177472633,0.00899219097601,-0.999926667117,0.0,0.594665024859,0.173201264459,0.304047385535,1.0,-0.0991388571428,-0.130296783673,1.963
0.393552071433,0.231526777502,-0.125244113849,-1.82812123104,0.0445944589168,2.05232733951,0.0764473884782,-0.133530197629,-0.401684198274,-0.00337096212903,-0.558015976611,-0.0566654963866,0.158272989555,-0.13868163246,0.57374948422,0.819013930985,0.00290811111718,0.0,0.818981178834,-0.573685141748,-0.0116590632121,0.0,-0.00788074678326,0.00907124442493,-0.999927800571,0.0,0.593004733701,0.171038226349,0.304138257061,1.0,-0.100537714286,-0.132135281633,1.98
0.391059776713,0.224266286369,-0.125279391028,-1.83836210489,0.0436131548959,2.05510060184,0.0739669852985,-0.140465340956,-0.398915274849,-0.00250664238499,-0.565215971243,-0.058950089448,0.153680606933,-0.135978819589,0.573672118241,0.819068840376,0.00269858843335,0.0,0.819033170052,-0.573608300614,-0.0117868877147,0.0,-0.00810649580201,0.00897221502496,-0.999926889369,0.0,0.591126104297,0.168626536306,0.304065042101,1.0,-0.102018857143,-0.134081926531,1.998
0.388635418811,0.217303955087,-0.125339275624,-1.84785972508,0.0427653035694,2.05788707898,0.071648335509,-0.146995810557,-0.409691202114,-0.000173405561761,-0.550363891898,-0.0527398107269,0.173921313163,-0.132423924291,0.573715925097,0.819037487355,0.00289456356588,0.0,0.819004427655,-0.573651481762,-0.0116821168726,0.0,-0.00790777322084,0.00907305154959,-0.999927570806,0.0,0.589436338143,0.166341170576,0.304142583569,1.0,-0.103417714286,-0.13592042449,2.015
0.386118566653,0.210311691627,-0.125389930735,-1.85750049015,0.0418720624443,2.06058624377,0.0693236098056,-0.154681959898,-0.415331431986,-0.00175736166814,-0.58350608708,-0.0557161070882,0.149954075378,-0.142272908407,0.573800324911,0.818978281184,0.00291701606814,0.0,0.818945419049,-0.573735685792,-0.0116837651915,0.0,-0.00789530572908,0.00909320028165,-0.999927486299,0.0,0.587682601366,0.163994231688,0.304150575293,1.0,-0.104816571429,-0.137758922449,2.032
0.383724625025,0.203715884418,-0.125468391555,-1.86675510515,0.0409564920217,2.06292905472,0.0670323297278,-0.149371236541,-0.417431573688,-0.000859353808935,-0.574212325692,-0.0514682084938,0.140063327396,-0.142003292471,0.573806489378,0.81897496478,0.00262044144774,0.0,0.818937916595,-0.573742548342,-0.0118711366806,0.0,-0.00821886322949,0.00895788659048,-0.999926100547,0.0,0.585930497739,0.161726864581,0.304053939162,1.0,-0.106133142857,-0.139489273469,2.048
0.381090041029,0.196541885768,-0.125508888006,-1.87635000965,0.0400685368355,2.06572352902,0.0645455475432,-0.158024147278,-0.419376133239,-0.000466832777496,-0.561140481041,-0.0522102047789,0.16814625405,-0.141396367755,0.57383116262,0.818956688123,0.00291319176032,0.0,0.818923723544,-0.573766471775,-0.0116926380631,0.0,-0.00790442457029,0.00909545705331,-0.999927393731,0.0,0.584195307494,0.159353028664,0.304174188813,1.0,-0.107532,-0.141327771429,2.065
0.378374961853,0.189415311394,-0.125597886696,-1.88617943346,0.0391417388053,2.06835934655,0.0620085814109,-0.162850229647,-0.418090754501,-0.00634716604375,-0.58209275019,-0.0476847236948,0.152629041529,-0.157555225493,0.573900335843,0.818908460336,0.00284341521322,0.0,0.818874290848,-0.57383553874,-0.0117650826141,0.0,-0.00800302707154,0.00908055930864,-0.999926744817,0.0,0.582355989076,0.156881853913,0.304129716584,1.0,-0.108930857143,-0.143166269388,2.082
0.375609668092,0.182164596264,-0.125714150777,-1.89604731096,0.0381930131601,2.07091336514,0.0594459421242,-0.164383957921,-0.430556888514,-0.00611949257017,-0.567626293349,-0.0503352290815,0.157294890692,-0.152286552948,0.573994170478,0.81884292652,0.00277503991784,0.0,0.818807590808,-0.573929296274,-0.0118338081279,0.0,-0.00809750927427,0.00906493515757,-0.999926125918,0.0,0.580483764225,0.154370688509,0.304120465537,1.0,-0.110329714286,-0.145004767347,2.099
0.373147517872,0.175678470442,-0.125698121423,-1.90459393445,0.0373175029242,2.07333400013,0.0571979786038,-0.160347005571,-0.433973659053,0.000757428270585,-0.578178161227,-0.0673445823594,0.161599339748,-0.152533036841,0.573976375358,0.818854530405,0.00302083901829,0.0,0.818823135935,-0.573911505424,-0.0116190748533,0.0,-0.00778078761835,0.00914278337431,-0.999927931831,0.0,0.57877601413,0.152095911047,0.304235616285,1.0,-0.111646285714,-0.146735118367,2.115
0.370171449715,0.167943315371,-0.125685743668,-1.91518139186,0.0362533755492,2.07595922827,0.0543086940974,-0.168411946091,-0.436959225708,0.00107494403658,-0.586625284707,-0.0644104100543,0.142992565214,-0.16553624929,0.573830953686,0.818957145056,0.002824544979,0.0,0.818922546391,-0.573766025228,-0.0117965337153,0.0,-0.00804038242966,0.00908247462444,-0.999926427746,0.0,0.576795710855,0.149637026865,0.304160865112,1.0,-0.113045142857,-0.148573616327,2.132
0.367277508223,0.160505798409,-0.12570174416,-1.92507353569,0.0352829264198,2.0785525235,0.0515864741163,-0.164609744725,-0.44694228503,-0.000624410341521,-0.566342233124,-0.0524347056931,0.166736241999,-0.167681417763,0.573783656926,0.818989915017,0.00292934242706,0.0,0.818956558817,-0.573718224234,-0.0117601383364,0.0,-0.00795097064214,0.00914695548153,-0.999926554939,0.0,0.57487465302,0.147151023087,0.304208550044,1.0,-0.114444,-0.150412114286,2.149
0.364268614123,0.153031254238,-0.12569713229,-1.93497544778,0.0342437730848,2.08115869569,0.0488316233491,-0.183597993784,-0.43887534755,-0.000189780285062,-0.592823845961,-0.0560461367295,0.14301633235,-0.171552705618,0.573750338799,0.819012885042,0.00303146227891,0.0,0.818981243954,-0.573685011863,-0.0116608797489,0.0,-0.00781145668656,0.00917332106965,-0.999927413028,0.0,0.572949824054,0.144616910258,0.304258415452,1.0,-0.115842857143,-0.152250612245,2.166
0.361188011923,0.14555022957,-0.125736690729,-1.94516226745,0.0332137044694,2.08349633905,0.0460256688347,-0.175516291078,-0.437470869078,-0.00106595172669,-0.597487157791,-0.0549825326601,0.142051739058,-0.161855127187,0.573767418427,0.819001976875,0.00273099397,0.0,0.818965441835,-0.573702043057,-0.0119297012796,0.0,-0.00820383006048,0.00908163843876,-0.999925107703,0.0,0.570874864077,0.141997447797,0.30414180181,1.0,-0.117241714286,-0.154089110204,2.183
0.35822937194,0.138349701986,-0.125792819617,-1.95443073371,0.0322926322021,2.08597880996,0.0433179434348,-0.186060716913,-0.445892639354,0.00175714087861,-0.578654288326,-0.0615747961574,0.161260248467,-0.174208766738,0.5738018586,0.818976651533,0.00306891059683,0.0,0.81894490384,-0.573735700768,-0.0117190886854,0.0,-0.00783706732653,0.00923788142023,-0.999926618269,0.0,0.56895982572,0.139397259367,0.304283765566,1.0,-0.118640571429,-0.155927608163,2.2
0.355183023492,0.131193680837,-0.125834071402,-1.96391762755,0.0312815896957,2.08829109102,0.04049904681,-0.190499237707,-0.449666589886,-0.00130546470243,-0.600776115486,-0.0637270022203,0.132596624046,-0.172085318305,0.573757745468,0.819007769828,0.00301154078388,0.0,0.818975269529,-0.573691782687,-0.0117470540135,0.0,-0.00789338428083,0.00920651790587,-0.999926464553,0.0,0.567165262586,0.137040318282,0.304265817436,1.0,-0.119874857143,-0.157549812245,2.215
0.351667250367,0.123081649509,-0.125982667205,-1.97469120603,0.0301194784292,2.09081273966,0.0373890742778,-0.19649216251,-0.45570635401,-0.00712272684063,-0.586482855961,-0.0546194943875,0.148495334007,-0.177793096294,0.573897267543,0.818910562016,0.00285738106771,0.0,0.818875931531,-0.573831691532,-0.0118383045345,0.0,-0.00805501189213,0.00913398706579,-0.999925840782,0.0,0.564971564962,0.134112457263,0.304212733902,1.0,-0.121356,-0.159496457143,2.233
0.348242727584,0.115275143686,-0.126048562896,-1.9846782354,0.0290608275365,2.09339075545,0.0342760149619,-0.204431591492,-0.452668361212,-6.13106053223e-05,-0.590909182461,-0.0632808708581,0.151481076239,-0.185228019832,0.573913635378,0.81889802652,0.00314772764165,0.0,0.818867806365,-0.573847800224,-0.0116174342749,0.0,-0.00770732580795,0.00924515476528,-0.999927559497,0.0,0.562984403813,0.131380577171,0.304331260346,1.0,-0.122754857143,-0.161334955102,2.25
0.344979763801,0.107985258108,-0.126067286726,-1.99429430139,0.0279913267415,2.09551157294,0.0313241693919,-0.201543965193,-0.461678760331,-0.00291731543373,-0.599139311417,-0.0660993790519,0.138506797691,-0.182026554829,0.573870946605,0.818928668168,0.00295296393186,0.0,0.81889556451,-0.573805356514,-0.0117564519493,0.0,-0.00793342175846,0.00916503173007,-0.999926528807,0.0,0.560960594154,0.128788139658,0.304267104184,1.0,-0.124071428571,-0.163065306122,2.266
0.341273719072,0.0996175951945,-0.126059258451,-2.00496415876,0.0268327458649,2.09806011524,0.0279451600638,-0.210855096594,-0.468413207185,0.00250039033623,-0.584536731639,-0.0593004304935,0.141993650895,-0.190601415977,0.573786683955,0.818987054544,0.00312933004856,0.0,0.818956488871,-0.573720797778,-0.0116388330706,0.0,-0.00773684084098,0.00924117050293,-0.999927368393,0.0,0.55874591721,0.125915418381,0.304353165112,1.0,-0.125552571429,-0.16501195102,2.284
0.337681453502,0.091754759065,-0.126064926823,-2.01517749116,0.0257900170516,2.10036621794,0.0246847517481,-0.217968472356,-0.461868591095,-0.000986833324109,-0.608560283992,-0.0669026787703,0.13065769564,-0.180303536553,0.573749350915,0.819013234823,0.00312256484198,0.0,0.818981774734,-0.573682531873,-0.0117453045122,0.0,-0.00782834965805,0.00929636352001,-0.999926144556,0.0,0.556576838297,0.123156073638,0.304321699204,1.0,-0.126951428571,-0.16685044898,2.301
0.334392757017,0.0847827935216,-0.126138687101,-2.02427246391,0.0247772743857,2.10222712605,0.0217083156377,-0.219645436148,-0.465614089535,-0.00487708647477,-0.604264635068,-0.0726431918366,0.128530622266,-0.195541516301,0.573741178167,0.819019765646,0.00290359407045,0.0,0.818984762691,-0.573674344699,-0.0119353096017,0.0,-0.00810969318396,0.00922595552162,-0.999924554465,0.0,0.554607043462,0.120609219153,0.3042450811,1.0,-0.128185714286,-0.168472653061,2.316
0.330395176418,0.0762220253087,-0.126234939967,-2.03489284277,0.0235539314698,2.10475900807,0.0181194967495,-0.226853350746,-0.472586023315,-0.00313982488937,-0.601769782141,-0.07015104408,0.129185904588,-0.199260614959,0.5737495583,0.819012685027,0.00322692065543,0.0,0.818983013016,-0.57368291012,-0.0116400140826,0.0,-0.00768223786206,0.00932142560595,-0.999927044462,0.0,0.552389960775,0.11757762117,0.304403701643,1.0,-0.129666857143,-0.170419297959,2.334
0.326238211378,0.0677040404336,-0.126321917684,-2.04588136341,0.0223421648858,2.10700437445,0.0144545082902,-0.227221906404,-0.476393923585,-0.0115757191854,-0.613215405368,-0.0649828140541,0.123630373428,-0.203795925317,0.573814518148,0.818967841598,0.00305288249568,0.0,0.818935057892,-0.573747442677,-0.0118317318689,0.0,-0.0079383772247,0.0092895108764,-0.99992534079,0.0,0.549981600599,0.114451752803,0.304322807402,1.0,-0.131148,-0.172365942857,2.352
0.322435021242,0.0600744992281,-0.126449809436,-2.055473474,0.021211300843,2.10899453106,0.0111073875147,-0.239182986997,-0.481889965461,-0.0091449562492,-0.588365550251,-0.0712631039246,0.131208162705,-0.204881745009,0.573894492749,0.81891185203,0.00303919375994,0.0,0.818879051008,-0.573827643379,-0.0118187315595,0.0,-0.00793467872415,0.00927161556257,-0.999925536237,0.0,0.547895577101,0.111614300407,0.304344923763,1.0,-0.132464571429,-0.174096293878,2.368
0.318372137439,0.0519344086575,-0.126469747721,-2.06562397374,0.020054489601,2.11126460203,0.00747201605301,-0.239807811763,-0.472511360715,9.87449421958e-05,-0.602408841659,-0.0718350966073,0.121152457343,-0.215094784731,0.573847424836,0.818944117417,0.00322683418417,0.0,0.8189141228,-0.573780373941,-0.0116828447216,0.0,-0.00771625139637,0.00934685039945,-0.999926545228,0.0,0.545690786637,0.108689479188,0.304399739854,1.0,-0.133863428571,-0.175934791837,2.385
0.314248107689,0.0437575145901,-0.126469685913,-2.0760498762,0.0188817145998,2.11323049556,0.00385644294502,-0.246928249226,-0.488883618254,-0.00239580542784,-0.61440199206,-0.0748212421855,0.112651481349,-0.224162277426,0.573824573741,0.818960924002,0.00301834875059,0.0,0.818927107047,-0.573756943228,-0.0119210042531,0.0,-0.0080311927308,0.00931255208999,-0.9999243853,0.0,0.543176893887,0.105562109044,0.304302899572,1.0,-0.135344571429,-0.177881436735,2.403
0.310247885316,0.035917668327,-0.126507531919,-2.08552208304,0.017760220958,2.11524374223,0.000241578077326,-0.245264859899,-0.486077462637,-0.00115404980101,-0.594485596677,-0.0768803194958,0.125729836821,-0.227878479732,0.573756049739,0.819007850033,0.00329907144277,0.0,0.818978401844,-0.573688295093,-0.0116989011518,0.0,-0.0076890012458,0.00941436482462,-0.999926121768,0.0,0.541221232341,0.102919957116,0.304440970969,1.0,-0.136578857143,-0.179503640816,2.418
0.305885552973,0.027655860597,-0.126606726412,-2.09581092799,0.0165089098668,2.11721651193,-0.00355128779778,-0.258067293147,-0.490880723067,-0.00652807056788,-0.603340633439,-0.0699055318415,0.10912395137,-0.22731256656,0.573818140356,0.81896464389,0.00322502071578,0.0,0.818934179966,-0.573750560387,-0.0117409641828,0.0,-0.00776522661266,0.00937843849263,-0.999925870326,0.0,0.538882012975,0.0998326459924,0.30441364031,1.0,-0.137977714286,-0.181342138775,2.435
0.301427335138,0.0193088671319,-0.126726087807,-2.10614753291,0.0152986323625,2.11906402986,-0.0075396695557,-0.258236535825,-0.492944270547,-0.0102884591433,-0.595017078023,-0.0681501687481,0.114705383864,-0.228977837267,0.573821517067,0.818962656954,0.00312729384057,0.0,0.818930175039,-0.573753388079,-0.0118812869551,0.0,-0.00793618769247,0.00937895397149,-0.999924523225,0.0,0.536487966328,0.096709321446,0.304379049547,1.0,-0.139376571429,-0.183180636735,2.452
0.297098763519,0.0113419344393,-0.126835363901,-2.11569140435,0.0140998559205,2.12093508553,-0.0112803970828,-0.277013452725,-0.487485979105,-0.00465689753955,-0.609114114037,-0.0750761372295,0.109468470745,-0.238584051651,0.573905507856,0.818903068415,0.00331353194895,0.0,0.818873855823,-0.573837743554,-0.0116875670645,0.0,-0.00766970250016,0.00942110518063,-0.999926206498,0.0,0.534317819847,0.0937348472461,0.304482434127,1.0,-0.13998,-0.183973714286,2.468
0.292431403314,0.00303426099541,-0.126855883923,-2.12599788883,0.0129191572107,2.12267878709,-0.0153639468196,-0.277284130734,-0.497203692766,-0.000209430670846,-0.602394268656,-0.0712234537248,0.106558165042,-0.230166995945,0.573913040628,0.818898392712,0.00316087201364,0.0,0.818865853095,-0.573844189862,-0.0119292622162,0.0,-0.00795515877661,0.00943487095942,-0.99992384643,0.0,0.531870989102,0.0906100613034,0.304389820948,1.0,-0.13998,-0.183973714286,2.485
0.287784282836,-0.00536644152834,-0.126846801968,-2.1359815856,0.0116779570752,2.12451906794,-0.019522138741,-0.276108896777,-0.499469568024,0.00124384921365,-0.574940344193,-0.075058443584,0.12385044644,-0.244972249403,0.573781150515,0.818990091875,0.00334179978465,0.0,0.818960431573,-0.573712307362,-0.0117790831383,0.0,-0.00772986954035,0.00949560048868,-0.999925038535,0.0,0.529528207534,0.0875547426531,0.30448115805,1.0,-0.13998,-0.183973714286,2.502
0.283354733241,-0.0131579237648,-0.126849310587,-2.14536703695,0.0104856536854,2.12616842221,-0.0233772554202,-0.274170238603,-0.48814702427,-0.00351424786863,-0.590491511503,-0.0705306482091,0.0938059148638,-0.234001229169,0.573739764225,0.819019017907,0.00335829633649,0.0,0.818989755328,-0.573671096396,-0.0117473711287,0.0,-0.00769491097434,0.00949052695865,-0.999925356336,0.0,0.527290676656,0.0846634538493,0.304484087188,1.0,-0.13998,-0.183973714286,2.518
0.278502323479,-0.0213844163196,-0.126915665619,-2.1553742727,0.00923286787018,2.12762256677,-0.0276560140247,-0.281192606061,-0.485628017674,-0.008455887276,-0.581136455719,-0.0692606970365,0.087747085103,-0.240889308674,0.573712784513,0.819038861073,0.00311958975908,0.0,0.819005363461,-0.573643621045,-0.0119982314142,0.0,-0.00803763977625,0.0094386812222,-0.999923150869,0.0,0.524830872619,0.0814999965198,0.304397403561,1.0,-0.13998,-0.183973714286,2.535
0.273581100737,-0.0297102338621,-0.127049934472,-2.16492418893,0.00798532411015,2.12938877069,-0.0318771913846,-0.29399812119,-0.483577207219,-0.00435932904146,-0.572366695255,-0.0708093731541,0.104030017848,-0.245470211144,0.573838319532,0.818949399674,0.00349438282315,0.0,0.818922292745,-0.573769678761,-0.0116353376194,0.0,-0.00752392670744,0.00953861422786,-0.99992619996,0.0,0.522581418557,0.0783287406427,0.304576991848,1.0,-0.13998,-0.183973714286,2.552
0.268892547064,-0.0374078980827,-0.127128968147,-2.17414000325,0.00682971405143,2.13071939425,-0.035921915609,-0.2930395959,-0.483922532604,-0.00076570238302,-0.5814249118,-0.0659051880067,0.0740614671127,-0.25864437927,0.573903512158,0.818904237088,0.00336988331851,0.0,0.818874698866,-0.573834256226,-0.0117991881101,0.0,-0.00772879945327,0.00953129119157,-0.999924707239,0.0,0.520290604526,0.0753469315171,0.304521775392,1.0,-0.13998,-0.183973714286,2.568
0.263296767278,-0.046461990574,-0.127130687598,-2.18490257759,0.00552305710686,2.13232046665,-0.0408205675894,-0.297668441834,-0.476279820145,-0.000729363888235,-0.545980011598,-0.0647049646767,0.100658550265,-0.252669678777,0.573868682217,0.81892878174,0.00333660145666,0.0,0.818897833043,-0.573798351426,-0.0119389212123,0.0,-0.00786274117065,0.00958389320545,-0.999923160194,0.0,0.517600514275,0.0718912281556,0.304471847416,1.0,-0.13998,-0.183973714286,2.587
0.258255031068,-0.0546397597624,-0.127136108203,-2.19420497411,0.00423271056115,2.13383537553,-0.0452287483828,-0.297696973609,-0.471347174487,-0.00474919305748,-0.556229053403,-0.0801186099867,0.0795144136329,-0.266695783194,0.573786180983,0.818985600903,0.00357084404713,0.0,0.818959154275,-0.573716882252,-0.011644292545,0.0,-0.00748799858048,0.00960589451375,-0.999925825583,0.0,0.515305811836,0.0688121032187,0.304600911822,1.0,-0.13998,-0.183973714286,2.604
0.253726333315,-0.061741635651,-0.127174280929,-2.20265042985,0.00317475159886,2.13486849,-0.0491943658943,-0.302092515956,-0.474781598867,-0.00246563245833,-0.56305887631,-0.0605794934258,0.0720173815433,-0.265217431807,0.573770293789,0.818997546723,0.0033786577369,0.0,0.818967261702,-0.573699965966,-0.0119046298687,0.0,-0.00781167722742,0.00959771783803,-0.999923427824,0.0,0.513119082577,0.0660534766339,0.304504755622,1.0,-0.13998,-0.183973714286,2.619
0.248195539641,-0.0702536349556,-0.127300013798,-2.21246306754,0.001858098991,2.13621259517,-0.0539804830494,-0.314070911739,-0.479728403219,-0.0129502565828,-0.532129524808,-0.0754128737904,0.0876518326178,-0.259560193952,0.573844359824,0.818945543985,0.00340493555538,0.0,0.818915651564,-0.573773989287,-0.0118874615389,0.0,-0.007781670021,0.00961009279968,-0.999923542941,0.0,0.510615669796,0.0626946450209,0.304518207752,1.0,-0.13998,-0.183973714286,2.637
0.242873195358,-0.0782837244415,-0.127429780785,-2.22156760942,0.000653669071353,2.13746267905,-0.058622811853,-0.310706436949,-0.465895861386,-0.00569657755577,-0.541874650499,-0.0713224557485,0.0638256666533,-0.281812806565,0.573913061151,0.818896794744,0.0035474921739,0.0,0.818869004514,-0.57384249372,-0.011793758882,0.0,-0.00762231634415,0.00967370989631,-0.999924156939,0.0,0.508284972508,0.0595092354751,0.304577679648,1.0,-0.13998,-0.183973714286,2.654
0.238216223811,-0.0853038497237,-0.127421299088,-2.22972542896,-0.000403553066798,2.13837586849,-0.0626460837385,-0.311562749838,-0.464229554717,-0.000254029006819,-0.551110654427,-0.0710817460793,0.0641123349368,-0.268601692295,0.573894751833,0.81891019523,0.00341362971061,0.0,0.818879623197,-0.573823364639,-0.0119856501434,0.0,-0.0078565018747,0.00967403978098,-0.999922341151,0.0,0.506114362802,0.0567979334159,0.304508041887,1.0,-0.13998,-0.183973714286,2.669
0.232882074775,-0.0932726887389,-0.127416283621,-2.23868208158,-0.00161169170929,2.13946687081,-0.0673581035581,-0.316264398278,-0.471132350434,3.73643501704e-05,-0.513726512204,-0.068635757384,0.0663374745817,-0.274502645921,0.573788480562,0.818984307746,0.0034971619607,0.0,0.818954966412,-0.573716978832,-0.0119305528294,0.0,-0.00776470385002,0.00970981888039,-0.999922711409,0.0,0.503749477186,0.053733369528,0.304552702124,1.0,-0.13998,-0.183973714286,2.686
0.227110195656,-0.101649259341,-0.127446341805,-2.24802770079,-0.00294725593206,2.14058575118,-0.0723849841611,-0.32189609607,-0.466144133848,-0.00309364317341,-0.523963599021,-0.0719133555149,0.0538596215315,-0.272899596056,0.573742236316,0.819016371326,0.00357444656367,0.0,0.818988730098,-0.573671345464,-0.0118065349243,0.0,-0.00761933451797,0.00970152598704,-0.999923910173,0.0,0.501268987257,0.0504378822568,0.304606770235,1.0,-0.13998,-0.183973714286,2.704
0.222216717466,-0.108586917109,-0.127531691055,-2.2559303432,-0.00401825943859,2.14134162243,-0.0765808191511,-0.332498299063,-0.46551729665,-0.0112916143068,-0.528217162363,-0.074269068201,0.0456199484652,-0.286414129855,0.573825856375,0.818958324523,0.00344907969479,0.0,0.818928128875,-0.573754241791,-0.0119806788187,0.0,-0.00783290335448,0.00969955841042,-0.999922279076,0.0,0.499110384471,0.0476453216085,0.304545978575,1.0,-0.13998,-0.183973714286,2.719
0.216584080175,-0.116425640922,-0.127662986618,-2.26459515839,-0.00527425468269,2.1422803964,-0.0814325339589,-0.335140030006,-0.464000497216,-0.00604454291995,-0.49091476718,-0.062478011516,0.0568161255298,-0.283339832102,0.57391697323,0.818894208177,0.00351148876508,0.0,0.81886532449,-0.573845741257,-0.0118908574222,0.0,-0.0077224500811,0.00969998804277,-0.999923134044,0.0,0.496766813504,0.0444547982197,0.304585714901,1.0,-0.13998,-0.183973714286,2.736
0.210336705193,-0.125118928046,-0.127662883295,-2.27418149258,-0.00654370731944,2.14325927191,-0.086974672087,-0.322454074243,-0.451031609374,0.00135697668909,-0.508884084301,-0.0617033757174,0.0375950624986,-0.283103207817,0.573813806434,0.818966006162,0.00362535476367,0.0,0.818938344293,-0.573741857203,-0.0118750343743,0.0,-0.00764537889667,0.0097831890602,-0.999922915726,0.0,0.494128320426,0.04104026762,0.304613284622,1.0,-0.13998,-0.183973714286,2.755
0.204941372293,-0.132444743584,-0.127693792951,-2.28229369176,-0.00771723516386,2.14391790361,-0.09167955337,-0.341079562418,-0.464693336377,0.000839411446725,-0.506154522943,-0.0746789600459,0.0428928880559,-0.299007636591,0.573775693285,0.818993121492,0.00353095523623,0.0,0.818963869607,-0.573703630903,-0.0119612319162,0.0,-0.00777059443234,0.00975497671243,-0.999922226121,0.0,0.49184433578,0.0380971637382,0.304587823844,1.0,-0.13998,-0.183973714286,2.771
0.199504896805,-0.139713792045,-0.127762304843,-2.2902190218,-0.00884825123268,2.14464269041,-0.0964511799869,-0.33783310996,-0.459215734172,-0.00345663871429,-0.489443043897,-0.0602808756535,0.0424585718795,-0.305387452244,0.573761908785,0.819002525776,0.00358910862251,0.0,0.818974175153,-0.573689819284,-0.0119179940997,0.0,-0.00770198047977,0.00977766656755,-0.999922535366,0.0,0.489621024524,0.0351545001548,0.304607752895,1.0,-0.13998,-0.183973714286,2.787
0.19291837409,-0.148322725012,-0.127917100087,-2.29944141939,-0.0101575174084,2.14548160088,-0.102138808813,-0.34780306768,-0.452825990105,-0.00861437241964,-0.495013026162,-0.0752293929589,0.0334021014253,-0.304214718857,0.573901384662,0.818903950412,0.00377724557133,0.0,0.818878520459,-0.573829235651,-0.0117781129193,0.0,-0.00747779322964,0.00985277027431,-0.999923499837,0.0,0.486882419113,0.0314189103101,0.304684074021,1.0,-0.13998,-0.183973714286,2.807
0.188034496911,-0.15460113149,-0.127966925021,-2.30632164327,-0.0111817809188,2.14586618974,-0.106448957686,-0.348873314605,-0.449307651148,0.00356498372115,-0.479463353964,-0.0691572249831,0.0352200049675,-0.305887923004,0.573848535822,0.818941670157,0.00362570226729,0.0,0.818913607633,-0.573776062415,-0.0119281320532,0.0,-0.00768825123778,0.00981426699281,-0.999922282458,0.0,0.485008864777,0.0290200752961,0.304631075956,1.0,-0.13998,-0.183973714286,2.82
0.181798723213,-0.162675736146,-0.127949630413,-2.31499857391,-0.0124350987017,2.14644999341,-0.111932979266,-0.351996998408,-0.453265584771,0.00061466695733,-0.469784815183,-0.0701443157942,0.0361589881779,-0.309563572128,0.573734381109,0.819021566137,0.0036443156593,0.0,0.818993628547,-0.57366170745,-0.0119343498149,0.0,-0.00768403347405,0.00983200740696,-0.999922140599,0.0,0.482337966302,0.0256238769596,0.30464246617,1.0,-0.13998,-0.183973714286,2.839
0.176094888103,-0.169814514811,-0.127974318116,-2.32242115901,-0.0134765785639,2.14702263825,-0.116975389445,-0.358858683998,-0.441733163214,-0.0016904222738,-0.468679763445,-0.0718620857447,0.0391217674123,-0.317458053744,0.573715576114,0.819033713125,0.00386799566432,0.0,0.819009340479,-0.573642992125,-0.0117543479302,0.0,-0.00740850126084,0.00991176790488,-0.999923432552,0.0,0.48031508835,0.0228842800349,0.304736738183,1.0,-0.13998,-0.183973714286,2.854
0.1703340167,-0.17685428024,-0.12805191225,-2.33005454592,-0.0145882202719,2.14735681125,-0.121965596387,-0.36860387824,-0.435526514811,-0.0144310980624,-0.467007340242,-0.0778001881607,0.0202240721022,-0.314458752526,0.573774308811,0.818993246731,0.00372172792853,0.0,0.818965895625,-0.573700806782,-0.0119579681402,0.0,-0.00765848428576,0.00990933393607,-0.999921573284,0.0,0.478013785197,0.019931785664,0.304659360869,1.0,-0.13998,-0.183973714286,2.87
0.163681504376,-0.18478640765,-0.128221888906,-2.33846963956,-0.0158743599592,2.14776410157,-0.127759698707,-0.365813848699,-0.443616099612,-0.00381247526459,-0.465095077121,-0.0638543251142,0.0199608107617,-0.319448864252,0.573879229375,0.818919907431,0.00368269010296,0.0,0.818891781192,-0.573805511527,-0.012009685194,0.0,-0.00772197108092,0.00990802430236,-0.999921097996,0.0,0.475473988782,0.0165232151714,0.304638950047,1.0,-0.13998,-0.183973714286,2.888
0.15676290735,-0.193148451824,-0.128228075333,-2.34701263441,-0.0171426386739,2.148260749,-0.133902519308,-0.365619017465,-0.439425095394,0.0064005425101,-0.445424946615,-0.0668068613588,0.0236188203354,-0.320571211494,0.573781843762,0.818987061659,0.00391605741719,0.0,0.81896304964,-0.573708737171,-0.0117709438222,0.0,-0.00739371669037,0.00996125195906,-0.999923050246,0.0,0.47289551601,0.0131081172613,0.304751858349,1.0,-0.13998,-0.183973714286,2.907
0.151540687118,-0.199226180719,-0.12826766878,-2.35340296742,-0.0181217407914,2.14846722279,-0.138553540633,-0.37863216107,-0.428611349953,-0.00401433458116,-0.462053974304,-0.0776098733207,0.00558132725285,-0.328672345907,0.573710834926,0.819037108538,0.00385222370817,0.0,0.81901195084,-0.573637531242,-0.0118386668802,0.0,-0.0074866715344,0.00994718022861,-0.999922498674,0.0,0.470911118484,0.010535902301,0.304724163609,1.0,-0.13998,-0.183973714286,2.921
0.144009378243,-0.207837630163,-0.128396341925,-2.36247663349,-0.0194409729821,2.14868269688,-0.145172212735,-0.373583066738,-0.434443272907,-0.00516819762756,-0.447239476828,-0.062517732965,0.00967849494874,-0.335533853388,0.573775719744,0.818992071467,0.00376260643039,0.0,0.818964366657,-0.573700918279,-0.0120569238881,0.0,-0.0077160628645,0.00999960329738,-0.999920231972,0.0,0.46805250991,0.00684496206996,0.304648489993,1.0,-0.13998,-0.183973714286,2.941
0.138613571248,-0.213907334002,-0.128525948531,-2.36857343642,-0.020331461497,2.14887816426,-0.149880546934,-0.379224595875,-0.43725431041,-0.00158030012985,-0.424748225345,-0.0585256467504,0.0135319823467,-0.345518905539,0.573907001451,0.818899269429,0.00393536726907,0.0,0.818874055479,-0.573831857808,-0.0119593949788,0.0,-0.00753544578051,0.0100863448603,-0.999920738211,0.0,0.466135165382,0.00421727169485,0.304719142216,1.0,-0.13998,-0.183973714286,2.955
0.131750466139,-0.221603172676,-0.128545008783,-2.37632904179,-0.021534193217,2.14908959633,-0.155940382409,-0.372708818594,-0.427508988542,0.000773010690238,-0.431738443305,-0.0697195381036,0.00542172115187,-0.342891813512,0.573861448763,0.818930651295,0.00404634335987,0.0,0.818907551447,-0.573786832225,-0.0118254069765,0.0,-0.00736259145127,0.0100999207677,-0.999921888873,0.0,0.46366590891,0.000964633450837,0.304778845513,1.0,-0.13998,-0.183973714286,2.973
0.125924373403,-0.227913853432,-0.128571307351,-2.38294172871,-0.0225916881384,2.14912406055,-0.161123012359,-0.397260693895,-0.423949009947,-0.00452409735922,-0.431737274555,-0.0643005009106,0.000435028496146,-0.349893731384,0.573783707049,0.818985956425,0.00387396506497,0.0,0.818959816747,-0.573708638289,-0.0119984918962,0.0,-0.00760421554377,0.0100573545141,-0.999920509604,0.0,0.461364766011,-0.00196539212166,0.304690216188,1.0,-0.13998,-0.183973714286,2.989
0.118824956823,-0.235522561116,-0.128647350161,-2.39066664619,-0.0237592417251,2.14914753536,-0.167412258951,-0.400152735348,-0.422697800803,-0.00477910939468,-0.420040492388,-0.0722983289233,0.00156618252831,-0.34859605871,0.573787573075,0.818983303937,0.00386209248041,0.0,0.818956418395,-0.573711768663,-0.0120804870885,0.0,-0.00767813714914,0.0100947131478,-0.999919568254,0.0,0.458960193204,-0.00509088410429,0.304669489555,1.0,-0.13998,-0.183973714286,3.006
0.112399232777,-0.242322152356,-0.128817377909,-2.39723392296,-0.0248376000725,2.14921824857,-0.173068772368,-0.40024156671,-0.424471539734,-0.00915467689448,-0.412170699485,-0.0695152853683,0.010421582764,-0.349362386991,0.573900811206,0.81890293526,0.00407288855405,0.0,0.818880046549,-0.5738259145,-0.0118336855594,0.0,-0.00735365242098,0.0101267638824,-0.999921683158,0.0,0.456794338887,-0.00811122702863,0.304792681798,1.0,-0.13998,-0.183973714286,3.022
0.105626330971,-0.249400570568,-0.128853414457,-2.40429626375,-0.0259089907476,2.14924003451,-0.17914567966,-0.390452638491,-0.402772607565,-0.000126892640367,-0.426678923486,-0.0671759540545,-0.000298410086124,-0.351525015081,0.573833814641,0.818949517658,0.00414579350535,0.0,0.818927571301,-0.573758675151,-0.011805191838,0.0,-0.00728931151432,0.0101695186662,-0.99992172035,0.0,0.454428391602,-0.0111883851794,0.304800743717,1.0,-0.13998,-0.183973714286,3.039
0.0983185280454,-0.256788256503,-0.128891423526,-2.41180312523,-0.0270636487237,2.14914817743,-0.185660202874,-0.412092659251,-0.408237385268,-0.00662716792146,-0.40665450933,-0.0613150178181,-0.00644067421283,-0.366020704535,0.573793351169,0.818978304875,0.00405871895294,0.0,0.818954300062,-0.573717243757,-0.0119635081261,0.0,-0.0074694403645,0.0101886829224,-0.999920195916,0.0,0.451861312662,-0.0144727355454,0.304720669077,1.0,-0.13998,-0.183973714286,3.057
0.0921596152341,-0.262967789092,-0.128972152645,-2.41788366956,-0.0280495527485,2.14906151344,-0.191106681622,-0.41418629575,-0.408877666859,-0.0114239236962,-0.405983483063,-0.0705356505344,-0.0100771924057,-0.361245740547,0.573829222382,0.818953034186,0.0040863478798,0.0,0.818929512915,-0.573753179767,-0.0119368540897,0.0,-0.00743131086148,0.01019634289,-0.999920401937,0.0,0.449762655149,-0.0172389830103,0.304728376438,1.0,-0.13998,-0.183973714286,3.072
0.0850572474949,-0.26992318933,-0.129121269283,-2.42443407737,-0.0291181426006,2.14901382942,-0.197431290889,-0.410011017833,-0.404882473026,-0.00456453164192,-0.385766988917,-0.061336410136,-0.00534453935096,-0.367280484015,0.573916868229,0.818890276462,0.00434630640097,0.0,0.818871523612,-0.573841912416,-0.0116462128564,0.0,-0.00704301328848,0.0102432217677,-0.999922733201,0.0,0.447490512779,-0.0204242780393,0.30485844128,1.0,-0.13998,-0.183973714286,3.089
0.0776308239686,-0.277192038681,-0.129121766387,-2.43161781458,-0.03025220942,2.14877965827,-0.204167904076,-0.413503951513,-0.395916249457,0.00227949454598,-0.398232928574,-0.0538302268046,-0.0154904246585,-0.375099580426,0.573763322333,0.818998168406,0.00428917172508,0.0,0.818978130599,-0.573687786646,-0.0117427404829,0.0,-0.00715677530418,0.0102504889877,-0.999921850968,0.0,0.444937510176,-0.0236429541729,0.3048115167,1.0,-0.13998,-0.183973714286,3.107
0.0708209105144,-0.28357343072,-0.129166339042,-2.43789816582,-0.0312856059574,2.14852711865,-0.210248262529,-0.427682271242,-0.403655905087,-0.00106339032073,-0.387794758707,-0.071747870695,-0.0159158492742,-0.383331396184,0.573743806904,0.819012235352,0.00421298983988,0.0,0.818990757413,-0.573667887524,-0.0118338918951,0.0,-0.00727538534602,0.0102402190823,-0.999921100228,0.0,0.442668108435,-0.026588765619,0.304763472924,1.0,-0.13998,-0.183973714286,3.123
0.0635287769448,-0.29037057782,-0.129311146591,-2.44438245293,-0.0322974161122,2.14827771947,-0.216793954671,-0.440191092421,-0.390180248496,-0.0123901478272,-0.374648790457,-0.0564634346146,-0.0207485424811,-0.397328759595,0.573815387841,0.818961447149,0.00433539626262,0.0,0.818941497958,-0.573738957465,-0.0117973942187,0.0,-0.00717436343873,0.0103201609437,-0.999921008274,0.0,0.440303245651,-0.0297454611937,0.304790858644,1.0,-0.13998,-0.183973714286,3.14
0.0561657127968,-0.297109444828,-0.12942106107,-2.45063207109,-0.0332927292916,2.14805167819,-0.223367814371,-0.437772019816,-0.398127931602,-0.0010412504408,-0.374749291408,-0.056122912176,-0.0152287019706,-0.387645239583,0.573903930844,0.818898185075,0.00455933579201,0.0,0.818882050932,-0.573828120058,-0.0115854302034,0.0,-0.00687114497144,0.0103826820773,-0.999922490636,0.0,0.438001620244,-0.0328910392086,0.30488665924,1.0,-0.13998,-0.183973714286,3.157
0.0492482628583,-0.303384567502,-0.129426416433,-2.45661607336,-0.0343324067133,2.14766963279,-0.229644412485,-0.444973793564,-0.385530982375,-0.00157033165529,-0.375003171226,-0.0756335983858,-0.0241942074839,-0.393657039611,0.573773621015,0.818989877236,0.00448995702235,0.0,0.81897288974,-0.573698107439,-0.0116032018356,0.0,-0.00692715836992,0.01033496319,-0.999922598511,0.0,0.435745346593,-0.0357813058316,0.304875174262,1.0,-0.13998,-0.183973714286,3.173
0.0417430158224,-0.309940925352,-0.12950202043,-2.46294730647,-0.035390485092,2.14720170842,-0.236381815644,-0.435101688329,-0.388233057486,-0.00468243242252,-0.362242832064,-0.0531494086736,-0.0257481840442,-0.395127286726,0.573778997629,0.818986705993,0.00437997582068,0.0,0.818967388749,-0.573702501758,-0.0117729581482,0.0,-0.00712923038741,0.010342332608,-0.999921102003,0.0,0.433313150984,-0.0389083349959,0.304806931159,1.0,-0.13998,-0.183973714286,3.19
0.033668797177,-0.316870272075,-0.129667763802,-2.46943107249,-0.0364109956425,2.14676927458,-0.243606723301,-0.455905000699,-0.386818211903,-0.000909237331273,-0.355906719756,-0.0570663233372,-0.0301391895404,-0.404072898573,0.573928063138,0.818881635331,0.00449361342063,0.0,0.818863474447,-0.573850700892,-0.0117783786611,0.0,-0.00706657082196,0.0104397989488,-0.99992053393,0.0,0.430796875603,-0.042267917516,0.304817640684,1.0,-0.13998,-0.183973714286,3.208
0.0270001748377,-0.322582440483,-0.129696237433,-2.4745937777,-0.0372992332376,2.14643527432,-0.249725359543,-0.442576046651,-0.387785068446,0.000349629074055,-0.343741046907,-0.0589458449257,-0.0209849559964,-0.417056025667,0.573824544315,0.818953421239,0.00462958799486,0.0,0.818938168123,-0.57374849376,-0.011562421914,0.0,-0.00681299701678,0.0104263485372,-0.999922434156,0.0,0.428776241038,-0.0449851104217,0.304901013141,1.0,-0.13998,-0.183973714286,3.223
0.018836986653,-0.329368192287,-0.129720648578,-2.48085727915,-0.0383667565147,2.14592096886,-0.257135457836,-0.455242600405,-0.370908044613,0.00125383284108,-0.35355114124,-0.0562907745326,-0.0329493279978,-0.409873303297,0.573762558637,0.818996709955,0.00465427649307,0.0,0.818982061388,-0.573686883876,-0.0115103994109,0.0,-0.0067570119632,0.0104162057177,-0.999922919753,0.0,0.426273124016,-0.0482702433161,0.304917602352,1.0,-0.13998,-0.183973714286,3.241
0.0105776704332,-0.336044054979,-0.129862861894,-2.48717636558,-0.0394053885349,2.14526164256,-0.264632669711,-0.462095341665,-0.370537019665,-0.0122606166256,-0.338345177457,-0.0559722510649,-0.034438848457,-0.422176215758,0.573806406558,0.818966477307,0.0045676844468,0.0,0.818949243861,-0.573728769477,-0.0117550821017,0.0,-0.0070065410999,0.0104860450323,-0.999920472458,0.0,0.423683053569,-0.0515929071961,0.304833255947,1.0,-0.13998,-0.183973714286,3.259
0.00362250854807,-0.341611328902,-0.129950869213,-2.49221967827,-0.0402371371987,2.14478782453,-0.270876001002,-0.456350853138,-0.367915178148,-0.00332171545647,-0.338041438084,-0.0577908237828,-0.0359972664803,-0.414099752251,0.573901164669,0.818899561358,0.00465923815502,0.0,0.818883662334,-0.573823437234,-0.0117028776558,0.0,-0.00691003436556,0.0105318718919,-0.999920662403,0.0,0.421597819682,-0.0543595454783,0.304861527889,1.0,-0.13998,-0.183973714286,3.274
-0.00428106574385,-0.347805026883,-0.129973845972,-2.49781994233,-0.0412100901004,2.14417578517,-0.278136230333,-0.471168892027,-0.364625488874,-0.00326076968864,-0.324642790065,-0.0636131616339,-0.035349321547,-0.425438974806,0.573802598025,0.818968559494,0.00467161222215,0.0,0.818952992377,-0.573725109314,-0.0116722799944,0.0,-0.00687914154501,0.0105236180065,-0.999920962314,0.0,0.41923783964,-0.0574503550927,0.304880165813,1.0,-0.13998,-0.183973714286,3.291
-0.0123099887291,-0.353993324878,-0.130067396283,-2.50321696645,-0.0421693720039,2.1436199891,-0.285464312953,-0.475112595394,-0.362054727033,-0.00533059745761,-0.318613448153,-0.0498339862322,-0.0349574292693,-0.425777594474,0.573815069175,0.818958900198,0.00483043224432,0.0,0.818946608366,-0.573739014316,-0.0114342904489,0.0,-0.00659293343039,0.0105172367577,-0.999922957512,0.0,0.416927524031,-0.0605986113834,0.304979770834,1.0,-0.13998,-0.183973714286,3.308
-0.0199695794395,-0.359674123428,-0.130227366448,-2.50846259344,-0.0430694638777,2.142941741,-0.292420011782,-0.480616706078,-0.352410499337,-0.00308068401251,-0.333353485821,-0.05153367455,-0.0401258725288,-0.433742188463,0.5739113386,0.818891785584,0.00477135530573,0.0,0.818877595321,-0.573833651669,-0.0116263061335,0.0,-0.00678285294186,0.0105798285697,-0.999921026948,0.0,0.414628122878,-0.0635836697686,0.304912876914,1.0,-0.13998,-0.183973714286,3.324
-0.0285057259613,-0.366020747816,-0.130264054682,-2.51422469034,-0.0441007274649,2.14217825268,-0.300352397531,-0.482354810419,-0.350969522778,-0.00828552408144,-0.313723416434,-0.0532852994283,-0.0353840699298,-0.433900044038,0.57374869821,0.819006213643,0.00469043897354,0.0,0.818990510606,-0.573670576982,-0.0117200488447,0.0,-0.0069081589992,0.0105659912056,-0.99992031541,0.0,0.412078412868,-0.0668275945443,0.304872718287,1.0,-0.13998,-0.183973714286,3.342
-0.0367777329437,-0.371932845796,-0.130330231933,-2.51945436746,-0.0450200041481,2.14148807564,-0.307899262221,-0.486121047864,-0.339649918012,-0.00220757818927,-0.307536312269,-0.0500279545613,-0.0434282093858,-0.438812528274,0.573775177997,0.818987449336,0.00472756246415,0.0,0.818972369466,-0.573697151128,-0.0116869046202,0.0,-0.00685937115219,0.0105776024634,-0.999920528519,0.0,0.409710396692,-0.069962390165,0.304887423251,1.0,-0.13998,-0.183973714286,3.359
-0.044652102866,-0.37738842768,-0.130497310905,-2.52423265017,-0.0458185786541,2.14078700036,-0.315047893814,-0.490372798865,-0.335326799723,-0.0158288013469,-0.294034078506,-0.0520072334059,-0.0396211027125,-0.444731644729,0.57394780207,0.818865920309,0.00482410173864,0.0,0.818851732652,-0.573868878798,-0.0117088334459,0.0,-0.00681969411972,0.0106706887321,-0.999919810872,0.0,0.407484753507,-0.0729562271376,0.304905085009,1.0,-0.13998,-0.183973714286,3.375
-0.0529377018724,-0.383153799959,-0.130547115418,-2.52917862659,-0.0466933206385,2.14010571374,-0.32278703995,-0.487563385843,-0.336875487428,-0.00348312885837,-0.294618741217,-0.0530219279774,-0.0424477811396,-0.465455846209,0.573840438374,0.818940494737,0.00493601735772,0.0,0.818928586829,-0.573762504156,-0.011545795736,0.0,-0.0066233455124,0.0106678955959,-0.999921160541,0.0,0.405169638084,-0.0760387352835,0.304968046608,1.0,-0.13998,-0.183973714286,3.392
-0.0614375412062,-0.388831274359,-0.130585037253,-2.53425899288,-0.0476920976426,2.13928268005,-0.330592047239,-0.496678003291,-0.327822082571,-0.00388151176678,-0.298414361893,-0.0634681400106,-0.0497767914799,-0.464926892303,0.573782994006,0.818981645063,0.0047841133631,0.0,0.818967377111,-0.57370490974,-0.0116558426721,0.0,-0.00680138282874,0.0106061612803,-0.999920622117,0.0,0.402736409708,-0.0791685029928,0.304911846507,1.0,-0.13998,-0.183973714286,3.409
-0.0694813173519,-0.394150356513,-0.130726060624,-2.53889109048,-0.0484773162337,2.13850602355,-0.337999568342,-0.506830489701,-0.332700443395,-0.00811943251356,-0.289824124174,-0.0556222252079,-0.0496006351048,-0.465345613554,0.573866310028,0.818922930919,0.00484131510524,0.0,0.818908808807,-0.573787097759,-0.0117250246798,0.0,-0.00682413881815,0.0106933981149,-0.999919537946,0.0,0.400467544093,-0.0821294064409,0.304905202794,1.0,-0.13998,-0.183973714286,3.425
-0.0784759247245,-0.399965364767,-0.130803770959,-2.54385372343,-0.0493541219191,2.1376988522,-0.346431469423,-0.497966294575,-0.312727380493,-0.000135144223485,-0.275632376922,-0.0430792180263,-0.0467411315698,-0.464035660333,0.573783711755,0.818980291108,0.00492765692235,0.0,0.818967622769,-0.573704766607,-0.0116456227906,0.0,-0.0067106444793,0.0107178664981,-0.999920044098,0.0,0.397995729959,-0.0853951364489,0.30493876164,1.0,-0.13998,-0.183973714286,3.443
-0.0877153427025,-0.405657157842,-0.130848225887,-2.54878818783,-0.0503150586436,2.136786462,-0.354963985113,-0.511217016622,-0.312964536195,8.14771856574e-05,-0.265674371883,-0.0467653942175,-0.0431521811865,-0.478204972169,0.573755568845,0.819000511966,0.00484308983033,0.0,0.818986541852,-0.573676571754,-0.0117039389641,0.0,-0.00680729589463,0.0106818312085,-0.999919776384,0.0,0.39546258243,-0.0887163641867,0.30491647984,1.0,-0.13998,-0.183973714286,3.461
-0.0954818797966,-0.410377255431,-0.130994161925,-2.55274385711,-0.0510593294472,2.13610114394,-0.362100929026,-0.521595408193,-0.319787769408,-0.018666336732,-0.263572424597,-0.0519837045503,-0.0406555463472,-0.482623364359,0.57387660158,0.818915169729,0.00493334053282,0.0,0.818902863735,-0.573798085214,-0.0116018994921,0.0,-0.00667035856537,0.0106981913158,-0.999920524351,0.0,0.393385938654,-0.091528884897,0.304955903692,1.0,-0.13998,-0.183973714286,3.476
-0.104193247435,-0.415656759707,-0.13107348389,-2.55719586142,-0.0518229702554,2.13527735833,-0.370331859616,-0.510158249654,-0.303761880805,-0.0025965672453,-0.263463289435,-0.0381557495738,-0.0559358971724,-0.488135165469,0.573792965706,0.818973215746,0.00502506707355,0.0,0.818962096307,-0.573714182972,-0.0115701327024,0.0,-0.00659280346733,0.0107544072772,-0.999920435668,0.0,0.391026712718,-0.0946082820402,0.304976200693,1.0,-0.13998,-0.183973714286,3.493
-0.113118930643,-0.420877327607,-0.131131158744,-2.56163799662,-0.052632379728,2.13433055199,-0.37862117461,-0.532212503744,-0.309627359655,-0.00379169468234,-0.258649231155,-0.0477030346033,-0.0539989714467,-0.487177149582,0.573798816168,0.818969269969,0.00500003121028,0.0,0.818957202612,-0.573719098653,-0.0116723190767,0.0,-0.00669078605226,0.0107925822317,-0.999919373525,0.0,0.388601266707,-0.0977300530443,0.304958648181,1.0,-0.13998,-0.183973714286,3.51
-0.120513336531,-0.425044327937,-0.131214902295,-2.56516399124,-0.0532591675023,2.13360178989,-0.385494460208,-0.531535759175,-0.288331669102,-0.0101032242043,-0.246383438417,-0.0486980866746,-0.0477728379577,-0.491420663438,0.573866123409,0.818921934163,0.00502842431059,0.0,0.81890978823,-0.573785581259,-0.0117308303989,0.0,-0.00672152636392,0.010849960948,-0.999918546398,0.0,0.386351053249,-0.100686538956,0.304945912074,1.0,-0.13998,-0.183973714286,3.526
-0.130972255832,-0.430804374176,-0.131302001968,-2.57000805006,-0.0541669799873,2.13263207732,-0.395383639568,-0.518985929266,-0.289953427772,-0.001780692784,-0.242230593785,-0.0472294873136,-0.0504300483747,-0.492005545086,0.573757691286,0.818997723211,0.00505845504218,0.0,0.818986036123,-0.573677181681,-0.0117094302211,0.0,-0.00668820522756,0.0108613888092,-0.999918645763,0.0,0.383875824968,-0.103937585731,0.304943989072,1.0,-0.13998,-0.183973714286,3.544
-0.139563272832,-0.435343027371,-0.131350747632,-2.57387394103,-0.0549271981849,2.13174223856,-0.40340111437,-0.535757247061,-0.277210598315,-0.00371846417607,-0.23596773552,-0.0479846473468,-0.0501481501246,-0.493555061338,0.573748175489,0.819004891241,0.00497655980384,0.0,0.818991420226,-0.573666785834,-0.0118414242387,0.0,-0.00684342906078,0.0108699646142,-0.999917502271,0.0,0.38160382996,-0.106880505652,0.304900155422,1.0,-0.13998,-0.183973714286,3.56
-0.148812527918,-0.44013016254,-0.131494879685,-2.5777461417,-0.0556366515352,2.1308600639,-0.412008013238,-0.543550220685,-0.272546850966,-0.0146732076772,-0.219524800896,-0.0474567673117,-0.0438788987561,-0.512275075446,0.573885133395,0.818908227443,0.00509073624258,0.0,0.818896416782,-0.573803612848,-0.0117821629957,0.0,-0.00672755689255,0.0109306042983,-0.999917627541,0.0,0.379237206343,-0.110067244956,0.304942880659,1.0,-0.13998,-0.183973714286,3.577
-0.158423368139,-0.445175000788,-0.131557624586,-2.58174532742,-0.0564131055923,2.12998005616,-0.421206741223,-0.534940425729,-0.276311049245,-0.00361373468546,-0.215924197245,-0.0371401312222,-0.0547330552278,-0.523667627568,0.573735575884,0.819012339138,0.00519848120852,0.0,0.819003102348,-0.5736556774,-0.0115684498667,0.0,-0.0064926899308,0.0108950132464,-0.999919568597,0.0,0.376776697597,-0.113322787192,0.305023363311,1.0,-0.13998,-0.183973714286,3.595
