nelsonifechukwu/NELSON_IML_WORK/CNN-GradCAM/train2dof/data_sample_2022-02-22-09-01-19/robot_state.csv
position_joint1,position_joint2,position_joint3,position_joint4,position_joint5,position_joint6,position_joint7,velocity_joint1,velocity_joint2,velocity_joint3,velocity_joint4,velocity_joint5,velocity_joint6,velocity_joint7,ee_T_00,ee_T_10,ee_T_20,ee_T_30,ee_T_01,ee_T_11,ee_T_21,ee_T_31,ee_T_02,ee_T_12,ee_T_22,ee_T_32,ee_T_03,ee_T_13,ee_T_23,ee_T_33,v_x,v_y,time
0.465063081195,0.547821047722,-0.124005937016,-1.35584266965,0.079523956052,1.89411013095,0.159154903102,0.000606533778471,-0.000773836829082,0.00164154587477,0.00176894911587,-2.41169397741e-05,0.000252597518133,0.000649861192017,0.573830104702,0.818960365055,0.00191789159906,0.0,0.818916667423,-0.573771534444,-0.0119358694311,0.0,-0.00867473939649,0.00841991671165,-0.999926924279,0.0,0.661681132688,0.260876232568,0.303182992837,1.0,0.0,0.0,0.0
0.465063080875,0.547823306222,-0.124003431398,-1.35584795937,0.0795279618195,1.89410850334,0.159147070043,0.000893135165243,0.000263033750813,-0.00567688896443,-0.000760839260315,0.000228827498779,-0.000251512852892,-0.00218242839623,0.573823282222,0.818965156477,0.00191315381821,0.0,0.818921338412,-0.573764675794,-0.0119450912745,0.0,-0.00868508067921,0.00842125610224,-0.999926823232,0.0,0.661678733827,0.260877561555,0.303178658464,1.0,-6e-05,-7.88571428571e-05,0.004
0.465059618707,0.547820427524,-0.124006016161,-1.35584866308,0.0795272494718,1.89411084099,0.159159629016,-0.000252611915726,-0.00159843375384,-0.00179315056496,-4.65469392653e-05,0.00018755012806,-0.000521352520752,0.0015063803894,0.573838069363,0.818954789158,0.00191581999122,0.0,0.818911029752,-0.573779473085,-0.0119410434038,0.0,-0.0086800836165,0.00842127355046,-0.999926866476,0.0,0.661680652439,0.260873773396,0.303180650112,1.0,-0.0004,-0.000525714285714,0.021
0.465062026995,0.547805289494,-0.124000925781,-1.35585820448,0.0795242915173,1.89411038986,0.159153670686,-0.000927809671155,-0.00450653741537,0.000187501860956,-0.00180413760672,0.00062867955388,0.000130929418286,0.000280385848934,0.5738273687,0.818962275719,0.00192062014161,0.0,0.818918568928,-0.573768743906,-0.0119395512035,0.0,-0.00867621726256,0.008424234941,-0.999926875086,0.0,0.661677145393,0.260876870393,0.303186619642,1.0,-0.00074,-0.000972571428571,0.038
0.465062929678,0.547757308607,-0.123998968037,-1.35589711265,0.0795233381,1.89411871798,0.159150935438,0.000868131618656,-0.00619651821827,0.000887181716574,-0.00322131564342,0.000156507623732,0.00527118571266,-0.0012506959392,0.573824867362,0.818963988448,0.00193755602734,0.0,0.818920472392,-0.5737661427,-0.0119339971634,0.0,-0.00866197663687,0.00843489103436,-0.999926908716,0.0,0.661670527348,0.260875027644,0.303202748131,1.0,-0.00106,-0.00139314285714,0.054
0.465058670066,0.5476359782,-0.124000624262,-1.35605794833,0.0795213334312,1.89414931719,0.159145343315,-0.000478301179602,-0.00488548954579,0.00018530595617,-0.0109933832808,0.00013113151995,0.000428807566064,-0.00173334809162,0.573833181368,0.818958168393,0.00193527362471,0.0,0.818914522144,-0.573774367478,-0.011946863506,0.0,-0.00867373805137,0.00844049287428,-0.999926759492,0.0,0.661644567099,0.260855504308,0.303214857278,1.0,-0.0014,-0.00184,0.071
0.465046096097,0.547489838535,-0.124001642048,-1.35625602782,0.0795204502292,1.89420461255,0.159146402596,-0.0021798819698,-0.00844338973706,-0.000464985591891,-0.00827449828879,0.000152651631634,-0.000390796192167,-0.000275915966489,0.57385576291,0.818942322605,0.00194487064578,0.0,0.818898682802,-0.57379679032,-0.0119556524201,0.0,-0.00867519625145,0.00845363480934,-0.999926635823,0.0,0.6616176042,0.260828615421,0.303228936478,1.0,-0.00174,-0.00228685714286,0.088
0.465027553663,0.54732166702,-0.124001993625,-1.35646270937,0.0795169803324,1.89432876235,0.159141235344,-0.00476787805644,-0.0115893886086,-0.000196843312083,-0.0105100581822,-0.000118360963305,0.00295114239918,-0.000525445135194,0.573877891969,0.818926630451,0.00202137275965,0.0,0.818883976221,-0.57381858679,-0.0119167883083,0.0,-0.00859923959679,0.00849421465621,-0.99992694803,0.0,0.661604536562,0.260801703961,0.303260475686,1.0,-0.00206,-0.00270742857143,0.104
0.465011176277,0.547116566351,-0.123998839745,-1.35670717371,0.0795125965048,1.89444893672,0.159122014503,-0.00346149665769,-0.0105936749257,0.00018690951709,-0.0161004161562,-0.00316502048714,0.0137912996829,-0.00551326385427,0.573886007998,0.818920753843,0.00209658070955,0.0,0.818879013727,-0.573826329773,-0.0118849079945,0.0,-0.00852988882736,0.00853759272314,-0.999927172602,0.0,0.661581658,0.260773833805,0.303299719571,1.0,-0.00242,-0.00318057142857,0.122
0.464981489585,0.546896279359,-0.124001099651,-1.35701549674,0.079507331741,1.89458061428,0.159111402655,-0.00121985437275,-0.0110090436049,0.00330027612313,-0.0168107995363,-0.000297253220728,0.00407324521198,-0.000674314794579,0.573919156413,0.818897410735,0.00213997539266,0.0,0.818856154428,-0.573859217926,-0.0118719525906,0.0,-0.00849403016804,0.00856603795917,-0.999927234575,0.0,0.661551571515,0.260727274605,0.303320492453,1.0,-0.00276,-0.00362742857143,0.139
0.464952705674,0.546655566623,-0.123998838806,-1.35737908879,0.079503452503,1.894713763,0.159073064029,-0.00251784170621,-0.0146446994375,0.000991923370545,-0.0235515006747,5.14428730229e-05,0.0131372784907,-0.00192744878478,0.573929055116,0.818890422609,0.00215924862746,0.0,0.818849241176,-0.57386886038,-0.0118826853999,0.0,-0.0084916552104,0.00858808285111,-0.999927065653,0.0,0.661508263144,0.260677955655,0.303329394117,1.0,-0.00308,-0.004048,0.155
0.464914024455,0.546379028619,-0.123998538765,-1.35781083647,0.0794882757643,1.89486980927,0.158925442697,-0.000139769541544,-0.0111553021433,0.000963118704926,-0.0280420137097,-4.21106273607e-05,0.0087049755012,-0.00541220631196,0.573859749083,0.818938971514,0.00216707622338,0.0,0.818897776395,-0.573799414601,-0.0118916155477,0.0,-0.00849520389691,0.00859889897045,-0.999926942555,0.0,0.661458462576,0.260613058007,0.303333244756,1.0,-0.00342,-0.00449485714286,0.172
0.464871757926,0.546065990645,-0.12400145931,-1.35831096563,0.0794765824138,1.89504028187,0.158911960281,-0.00270979345015,-0.0166621911605,-0.000415429118389,-0.0278484368916,0.000451228864447,0.0137596271704,-0.00659010798642,0.573910153128,0.818903662814,0.00216195908467,0.0,0.818862229886,-0.573849659859,-0.011914833039,0.0,-0.00851662490353,0.0086085560323,-0.999926677244,0.0,0.661398244896,0.260537828597,0.303331741278,1.0,-0.00376,-0.00494171428571,0.189
0.464811070636,0.545753339774,-0.124004375859,-1.35884941032,0.0794422102869,1.895218833,0.158855941802,-0.00553072362607,-0.0151936870286,-0.00159676025299,-0.0384634733143,-0.00334447739612,0.00380502552683,-0.00578799524828,0.573936914836,0.818885017821,0.00211949944608,0.0,0.818843027389,-0.573876586951,-0.0119376022348,0.0,-0.00855935730479,0.00858713326908,-0.999926496571,0.0,0.661336846384,0.260442737636,0.30331236587,1.0,-0.00408,-0.00536228571429,0.205
0.464748483122,0.545381096315,-0.12400441763,-1.35949541426,0.0793286189018,1.89543293731,0.158748907055,-0.00133520621887,-0.0230848415765,-0.000382351561355,-0.037312881669,-0.00171052959698,0.011145618291,-0.00196125386999,0.57390635218,0.818906670928,0.00202734753687,0.0,0.818864108343,-0.573847032535,-0.0119122718226,0.0,-0.00859181691255,0.00849681419094,-0.99992698975,0.0,0.661263607642,0.260325657628,0.303286808292,1.0,-0.00442,-0.00580914285714,0.222
0.464674742675,0.544935187104,-0.124004534285,-1.36024028881,0.0793167552901,1.89567242204,0.158687085162,0.000151192274605,-0.0210773470213,-0.00107925696513,-0.0404628479951,-0.000309532108974,0.0192517014685,-0.00166828760143,0.573954433562,0.818873052349,0.00199480123361,0.0,0.818829709112,-0.573894891953,-0.0119711055051,0.0,-0.00865817616327,0.00850443532989,-0.999926352571,0.0,0.661171790401,0.260208594079,0.30326869988,1.0,-0.00478,-0.00628228571429,0.24
0.464616229935,0.544558569614,-0.124004861672,-1.36086451192,0.0792965827254,1.89589595462,0.158586997182,-0.00771327185021,-0.0266436511301,-6.93715186857e-05,-0.0417504661137,-0.00586364682072,0.0143990868673,-0.0105770435634,0.573950074252,0.818876135287,0.00198348805795,0.0,0.818832465929,-0.573890405795,-0.0119975738257,0.0,-0.00868638936068,0.00851031665573,-0.999926057841,0.0,0.661099176933,0.260112469767,0.303257540546,1.0,-0.00508,-0.00667657142857,0.255
0.464547258536,0.544056248911,-0.124008066083,-1.36169982865,0.0792620800205,1.89619910261,0.158497509163,-0.00300395943875,-0.0311574620811,0.00235429838046,-0.0483924285606,-0.00455141546744,0.0188306859503,-0.00265126552493,0.573972928243,0.818860161507,0.00196480079423,0.0,0.818816100447,-0.573913192036,-0.012024498204,0.0,-0.0087189253122,0.00851071082686,-0.999925771316,0.0,0.66100128785,0.259987444305,0.303241813428,1.0,-0.00544,-0.00714971428571,0.273
0.464465337749,0.543542547263,-0.124008072573,-1.36253724386,0.0792212232641,1.89648451128,0.158388770917,-0.000908933670455,-0.0320197076743,-0.000525131119067,-0.0490597061417,-0.00420436736742,0.0135617306844,-0.00239924780636,0.573986614517,0.818850632974,0.0019375587777,0.0,0.818806081825,-0.573926863175,-0.0120541691466,0.0,-0.00875871563656,0.00850558040911,-0.999925467224,0.0,0.660902541269,0.259853387316,0.30323142505,1.0,-0.00578,-0.00759657142857,0.29
0.464401385879,0.543023989944,-0.124013057746,-1.36335214672,0.0791728271683,1.89677798611,0.158268064226,-0.000625804192479,-0.0338201875903,0.00141128342906,-0.0511297374655,-0.000682685086324,0.0239278597599,-0.00491722061478,0.573976044826,0.818858049294,0.0019344180621,0.0,0.818813454272,-0.573916305662,-0.012056040008,0.0,-0.00876216003408,0.00850396942326,-0.999925450749,0.0,0.660807496221,0.259730396376,0.303235974622,1.0,-0.0061,-0.00801714285714,0.306
0.464330422083,0.542434886932,-0.124016942587,-1.36427119787,0.0791188084993,1.89710121844,0.158185229768,0.000627429801208,-0.0251514659173,0.000539862051298,-0.0562021498243,-0.000695400022179,0.0202803110017,-0.00365337715802,0.574005630852,0.818837324301,0.00192846648561,0.0,0.818792628395,-0.573945891386,-0.0120620209316,0.0,-0.00877016638208,0.00850284578285,-0.999925390114,0.0,0.660698000191,0.259593088355,0.303243324763,1.0,-0.00644,-0.008464,0.323
0.464240348756,0.54174826053,-0.12401811657,-1.36534258911,0.079053748556,1.89749477569,0.15802008805,-0.00817074154014,-0.0351583625267,0.000167518810059,-0.0583588668757,-0.00627828313391,0.0217110330356,-0.00213567314396,0.5739871209,0.818850282915,0.00193548764478,0.0,0.818805671438,-0.573927346175,-0.012059047841,0.0,-0.00876389418087,0.00850669019174,-0.999925412409,0.0,0.660574762962,0.259430917006,0.303253046896,1.0,-0.00682,-0.00896342857143,0.342
0.464167090515,0.541169273806,-0.124011896451,-1.36622986042,0.0790110911312,1.89782654346,0.157903152806,-0.00412494895043,-0.0390287691745,0.00205758375268,-0.062425152678,-0.000302833153473,0.0292718170162,-0.00222550000459,0.573984854758,0.818851806215,0.00196287259852,0.0,0.818807418066,-0.573924830843,-0.012060164323,0.0,-0.00874911446264,0.00852973053543,-0.99992534556,0.0,0.660471374674,0.259304023299,0.30326863032,1.0,-0.00712,-0.00935771428571,0.357
0.464078257124,0.540479141164,-0.124019092718,-1.36729943748,0.078948007921,1.8982169302,0.157753823479,-0.00739094697077,-0.0382333558803,0.00475308443099,-0.0636520204101,-0.00512479909941,0.0265768812599,-0.0102461112667,0.573982756779,0.818853256441,0.00197135394832,0.0,0.818808983611,-0.573922700872,-0.012055234681,0.0,-0.00874023166987,0.00853382346114,-0.99992538832,0.0,0.660348598051,0.259139563918,0.303281425008,1.0,-0.00746,-0.00980457142857,0.374
0.463972095573,0.539734698616,-0.124017715721,-1.36843073009,0.078874964448,1.89865047327,0.157621481232,-0.00510147563964,-0.0405765602848,0.000688781889599,-0.0724558858348,-0.00452740563099,0.0299863542089,-0.00298561566717,0.574003522481,0.818838610646,0.00200818203514,0.0,0.818794871123,-0.573943357114,-0.0120303262005,0.0,-0.00869848032543,0.0085499033785,-0.99992561503,0.0,0.660224476495,0.258963351352,0.303306560081,1.0,-0.0078,-0.0102514285714,0.391
0.463880196796,0.539060666472,-0.124021198859,-1.3694598352,0.0788201819672,1.89903072994,0.157493341189,-0.00689352399328,-0.0472326876712,0.000968652553279,-0.0696025723771,-0.00612259684672,0.0246655399974,-0.0134946481997,0.574018520568,0.818828035949,0.00203285280755,0.0,0.818784561184,-0.573958191763,-0.0120242827723,0.0,-0.00867921442637,0.00856679443916,-0.99992563787,0.0,0.660107689639,0.25880429052,0.303326031168,1.0,-0.0081,-0.0106457142857,0.406
0.463758623127,0.538237059466,-0.124031579425,-1.37071951932,0.078747696135,1.89952068162,0.157346256666,-0.00539533424665,-0.0462833304658,-0.00212606189406,-0.0725802824727,-0.00185658779633,0.0242021349824,-0.00492361421646,0.574055227768,0.81880219126,0.00207700785803,0.0,0.818759339947,-0.573994754709,-0.0119963210072,0.0,-0.00863058847736,0.00858728570295,-0.999925882987,0.0,0.659973385185,0.258600821696,0.303351022126,1.0,-0.00846,-0.0111188571429,0.424
0.463636130994,0.537450304084,-0.124033261497,-1.37197850101,0.0786761864603,1.89999574646,0.1571890832,-0.00945664679948,-0.0493600820831,0.000961733644624,-0.0745770048913,-0.00108698511553,0.0243003343649,-0.00780440155407,0.574078395592,0.818785940218,0.00208007618755,0.0,0.818743094476,-0.57401787245,-0.0119989273279,0.0,-0.00863071825412,0.00859153837749,-0.999925845336,0.0,0.659833201874,0.258400555102,0.30334861096,1.0,-0.0088,-0.0115657142857,0.441
0.463536235423,0.536654039143,-0.12404174659,-1.3732051568,0.0786026047353,1.90045915983,0.157024003985,-0.00331862004842,-0.0505422565877,0.000454785819498,-0.077656894038,-0.000378818480171,0.0255806582565,-0.0112148567521,0.574078867075,0.818785543433,0.00210597803676,0.0,0.818743075241,-0.574018275232,-0.0119809576123,0.0,-0.0086011306075,0.00860243513027,-0.999926006594,0.0,0.659694002161,0.258214106564,0.303367355576,1.0,-0.00912,-0.0119862857143,0.457
0.463419653006,0.535790118336,-0.124045429231,-1.37457630516,0.0785200443227,1.9009581868,0.156871667798,-0.00886629225592,-0.0521696266892,-0.000566256939235,-0.0808453548184,-0.00946306828553,0.0194076886027,-0.00950550271541,0.574105405179,0.818766957856,0.00209746701383,0.0,0.818724366832,-0.574044833641,-0.0119869523628,0.0,-0.00861064619866,0.00859918705695,-0.999925952635,0.0,0.659533571847,0.258004154015,0.303367864644,1.0,-0.00946,-0.0124331428571,0.474
0.463291165134,0.534836696026,-0.124048950037,-1.37610133638,0.0784443526592,1.90149912478,0.156679265648,-0.00573147502169,-0.0494991840896,-0.000937538518784,-0.0936342028968,-0.000988369920385,0.0366274606667,-0.0123392387617,0.574118872211,0.818757560921,0.00207940078667,0.0,0.818714546827,-0.574058188037,-0.0120180889977,0.0,-0.00864637065635,0.00860241299736,-0.999925616616,0.0,0.659350408496,0.257773321924,0.303361766079,1.0,-0.00982,-0.0129062857143,0.492
0.463176659169,0.533991571789,-0.124049274653,-1.37748942646,0.0783651233934,1.90200364225,0.156504943216,-0.00769030569878,-0.0512723444533,-1.24377236353e-05,-0.087652662792,-0.00857594866436,0.030702244666,-0.0137073030812,0.574124951773,0.818753377387,0.00204784548746,0.0,0.818709872053,-0.574064322074,-0.0120435221662,0.0,-0.00868524663568,0.00859124330793,-0.99992537573,0.0,0.659184449508,0.25756537593,0.303340993613,1.0,-0.01014,-0.0133268571429,0.508
0.463057514474,0.533060996566,-0.124055171878,-1.37896908977,0.078277234205,1.90256784036,0.156328805316,-0.00971005497303,-0.0542819504343,-0.0003380261153,-0.0879415482583,-0.00892100046137,0.03037414756,-0.0074111669327,0.574139935769,0.818742843809,0.00205834085944,0.0,0.818699495546,-0.574079279305,-0.0120359447249,0.0,-0.00867285975427,0.00859564464736,-0.999925445419,0.0,0.65901394169,0.257344049612,0.303342069272,1.0,-0.01048,-0.0137737142857,0.525
0.462928010653,0.532101152449,-0.124050209363,-1.38052912227,0.0781989178124,1.90314360082,0.156135591636,-0.0114770160701,-0.0544994302513,0.00145475407881,-0.0949268843456,-0.00234447739139,0.0263175150304,-0.00369471081712,0.574148528116,0.818736849292,0.00204601468373,0.0,0.818693140325,-0.574087725569,-0.0120653319924,0.0,-0.00870390756206,0.00860251641635,-0.999925116548,0.0,0.658827039837,0.257115398861,0.303326014722,1.0,-0.01082,-0.0142205714286,0.542
0.462809680726,0.531159976875,-0.124049829897,-1.38204591747,0.0781002020149,1.90368818939,0.155936147235,-0.0107926472803,-0.0581973912152,0.000703701363082,-0.094939436637,-0.0121800338297,0.0326704913402,-0.0198404958817,0.574137895044,0.81874438184,0.00201533637005,0.0,0.818700281595,-0.574077235525,-0.0120798787343,0.0,-0.00873354226282,0.00858563790272,-0.999925003218,0.0,0.658642393792,0.256890967851,0.303314577854,1.0,-0.01114,-0.0146411428571,0.558
0.462678283806,0.530121324215,-0.124052593473,-1.38369644862,0.0779965451792,1.90427022171,0.155718761672,-0.00744237939161,-0.0628065660549,0.000259903669651,-0.0943595867389,-0.00497172964547,0.0312849512933,-0.0192183690327,0.57413116069,0.818749172243,0.0019875053631,0.0,0.818704686619,-0.574070601728,-0.0120965797455,0.0,-0.0087632649739,0.00857236836978,-0.999924857021,0.0,0.658440480811,0.256643279454,0.303311302011,1.0,-0.01148,-0.015088,0.575
0.46254160931,0.5290839625,-0.124055655805,-1.38533882215,0.0778964920426,1.90488903333,0.155505599854,-0.00941184363475,-0.0634181203724,2.44986992366e-05,-0.0982428174523,-0.000265886637891,0.0327072393214,-0.0142191483175,0.574133033376,0.818747836276,0.00199686801209,0.0,0.818703485784,-0.57407244588,-0.0120903327994,0.0,-0.0087527554332,0.00857646737035,-0.999924913921,0.0,0.658248545036,0.256395977497,0.303313965924,1.0,-0.01182,-0.0155348571429,0.592
0.462406583084,0.528056642171,-0.12405529283,-1.38694364354,0.0777981510161,1.90551387052,0.155278408854,-0.0112725231472,-0.0592863599779,0.000999712325084,-0.097796023975,-0.00382924174849,0.0325487297634,-0.0112080520517,0.57411799824,0.818758285106,0.00203508433366,0.0,0.818714466181,-0.574057278969,-0.0120669063826,0.0,-0.00871179233029,0.00859414658514,-0.999925119856,0.0,0.658064584989,0.256156782175,0.303327596851,1.0,-0.01214,-0.0159554285714,0.608
0.462260722001,0.526886957812,-0.124056108455,-1.38870937821,0.0776820901481,1.90618387662,0.155034467946,-0.0110306208938,-0.0711871966638,0.00073458131393,-0.104112124128,-0.00468778723859,0.0447262240989,-0.0140734637531,0.574106760584,0.818766003495,0.00209901716122,0.0,0.818723110583,-0.574045860811,-0.012023509672,0.0,-0.00863967518944,0.0086214580378,-0.999925510463,0.0,0.657848306482,0.255877097449,0.30337196802,1.0,-0.0125,-0.0164285714286,0.626
0.462094582137,0.525662808933,-0.124052429107,-1.39064612781,0.0775752942921,1.90688513665,0.154763522307,-0.00652916359164,-0.0662659823011,-0.000951742714191,-0.108101312749,-0.00992689107309,0.0340291430623,-0.0147628810696,0.574089706079,0.818777984702,0.00208998619742,0.0,0.81873480759,-0.574028680952,-0.0120472065987,0.0,-0.00866444233744,0.00862748784842,-0.999925244152,0.0,0.65762448138,0.255602135892,0.303368630693,1.0,-0.01284,-0.0168754285714,0.643
0.461943323884,0.524552265784,-0.124066975088,-1.39240231468,0.0774575644982,1.9075092967,0.154531483188,-0.00786587802874,-0.0736112361838,-0.0003329316233,-0.1149983565,-0.00916772907615,0.036881292218,-0.0185013678801,0.574096406075,0.818773356942,0.00206237613983,0.0,0.818729924992,-0.574035602751,-0.0120492157053,0.0,-0.00868186661384,0.00860610618891,-0.999925277272,0.0,0.657414094613,0.255323676532,0.303368352992,1.0,-0.01316,-0.017296,0.659
0.461777164167,0.523344892917,-0.124073358821,-1.39429589982,0.0773409158367,1.90822281063,0.15427479951,-0.0111438925267,-0.0786738936081,-5.02769292334e-06,-0.112088284963,-0.0084324794913,0.0340231916154,-0.0149243624555,0.57409709314,0.818772825269,0.00208210255176,0.0,0.818729688293,-0.574036242952,-0.0120347906709,0.0,-0.00865872394018,0.00861398335981,-0.999925410113,0.0,0.657193109051,0.25503137322,0.303377962019,1.0,-0.0135,-0.0177428571429,0.676
0.461613469256,0.522119995169,-0.124072083366,-1.39624112154,0.0772260270822,1.9089911723,0.154010540443,-0.0121266310089,-0.078375868155,0.000663009135991,-0.121321438828,-0.0106127318495,0.0427811336005,-0.0230907881067,0.574087418802,0.818779505966,0.00212204727471,0.0,0.818736894611,-0.574026405586,-0.0120137418664,0.0,-0.0086186603965,0.00863450269508,-0.999925579259,0.0,0.656968278679,0.254743263266,0.303379516912,1.0,-0.01384,-0.0181897142857,0.693
0.46146150186,0.520951425113,-0.124085825351,-1.39814410168,0.0771070907729,1.90970688109,0.153755719971,-0.0105170695249,-0.0729440851958,-0.00174055293855,-0.121451414119,-0.010803640858,0.0413879159994,-0.0114275434683,0.57408266028,0.818782902346,0.0020987838395,0.0,0.818740060724,-0.574021818763,-0.012017131538,0.0,-0.00863484036925,0.00861735116119,-0.999925587627,0.0,0.656741399808,0.254454231166,0.3033572084,1.0,-0.01416,-0.0186102857143,0.709
0.461277904724,0.519558267105,-0.124089732297,-1.40029909218,0.0769682515443,1.91048464647,0.153470545715,-0.00709844378903,-0.0757109732329,-0.00197760341713,-0.124956299752,-0.00739096524137,0.0414752615708,-0.0095012878822,0.57407937294,0.818785183852,0.00210788282723,0.0,0.818742490303,-0.574018522891,-0.0120090321214,0.0,-0.00862301980639,0.00862011682909,-0.999925665795,0.0,0.65647952968,0.254124274903,0.303377307146,1.0,-0.01452,-0.0190834285714,0.727
0.461109223462,0.518210125116,-0.124093599245,-1.40239797238,0.0768319497329,1.91123822353,0.153184907171,-0.0098497334902,-0.0761716283807,-0.000191362694233,-0.124392911879,-0.0118902671135,0.0448735058941,-0.0121545201618,0.574060816974,0.818798200096,0.00210542998681,0.0,0.818755502229,-0.574000007235,-0.0120069215406,0.0,-0.00862289493595,0.00861670147342,-0.999925696309,0.0,0.656220180131,0.253809032174,0.30338999249,1.0,-0.01486,-0.0195302857143,0.744
0.46094363851,0.51691749058,-0.124099305344,-1.40440903404,0.0767011484737,1.91195679542,0.152908884209,-0.0100414561016,-0.0867215566133,-0.00147511606642,-0.123471685698,-0.00388968454373,0.0437417475764,-0.0137401424378,0.57404540371,0.81880901864,0.00210056540705,0.0,0.818766288875,-0.573984647866,-0.0120056285938,0.0,-0.00862479072549,0.00861181385988,-0.999925722065,0.0,0.655971765569,0.253503011199,0.303402152517,1.0,-0.01518,-0.0199508571429,0.76
0.460737206441,0.515471581633,-0.124099755437,-1.4067152981,0.0765559166954,1.91283745638,0.15258729251,-0.0111805205686,-0.0855562344129,-0.00023341105092,-0.130255500293,-0.0104374512216,0.04604982602,-0.0189843633695,0.574034225928,0.818816823479,0.00211280665627,0.0,0.818774293977,-0.573973460799,-0.0119945288755,0.0,-0.00860879283042,0.00861534774887,-0.999925829484,0.0,0.655698927418,0.253148903993,0.30339483713,1.0,-0.01554,-0.020424,0.778
0.460551228199,0.514092079863,-0.124097214978,-1.40896230337,0.0764224449661,1.91362925403,0.152292659961,-0.00943699626171,-0.0784789174877,-0.000850348574997,-0.126182997471,-0.0133242792244,0.0435937805102,-0.0161407594154,0.574025579739,0.818823042949,0.00205061986958,0.0,0.818779545951,-0.573964923169,-0.0120444595134,0.0,-0.00868546433563,0.0085929989024,-0.999925358754,0.0,0.655413240538,0.252812114309,0.30336096153,1.0,-0.01588,-0.0208708571429,0.795
0.460377908529,0.512836928933,-0.124095744403,-1.41097073589,0.0763115774816,1.91432991434,0.151997363887,-0.00826268224893,-0.0879210305659,0.00183478289049,-0.135761469496,-0.00335348689003,0.0491064021577,-0.026185057953,0.574000032441,0.818841043624,0.00201368693166,0.0,0.818796840805,-0.573939317933,-0.0120888262197,0.0,-0.00874326130873,0.008587952485,-0.999924898407,0.0,0.655157836469,0.252507196822,0.303345214327,1.0,-0.01618,-0.0212651428571,0.81
0.460158078932,0.511331599955,-0.124105776805,-1.41339926968,0.0761562436365,1.91523712893,0.151662720118,-0.0138928948102,-0.0903686388068,-0.00120429758645,-0.136401123069,-0.00705003330893,0.0522937743228,-0.0211328362709,0.573990167375,0.818848037766,0.0019813390253,0.0,0.818803456757,-0.573929638753,-0.0121002423624,0.0,-0.00877127939825,0.00856791234068,-0.999924824942,0.0,0.654879592035,0.252152343091,0.303314988645,1.0,-0.01652,-0.021712,0.827
0.459958056921,0.509859327483,-0.124101091548,-1.41573717531,0.0760143230428,1.91612249345,0.15133394125,-0.00671859072286,-0.0881685487457,0.00133048924518,-0.140116524903,-0.0138393039954,0.0536629825935,-0.0119307156226,0.573973458251,0.818859684181,0.00200841916009,0.0,0.818815435391,-0.573912792449,-0.0120886860633,0.0,-0.00874644859966,0.00858327480914,-0.999924910696,0.0,0.654580829651,0.251776228177,0.303317115563,1.0,-0.01688,-0.0221851428571,0.845
0.459781458901,0.508534730636,-0.12410670915,-1.41783453496,0.0758851940481,1.91685701055,0.151042142106,-0.0128980115517,-0.0837172448707,0.000309248475257,-0.135445551701,-0.00508961780129,0.0510849618766,-0.0157188481228,0.573953790888,0.818873538699,0.00198001135898,0.0,0.81882882097,-0.573893156138,-0.0121142143083,0.0,-0.0087838636878,0.00857445467729,-0.999924658395,0.0,0.654331066685,0.251478400186,0.303309975577,1.0,-0.01716,-0.0225531428571,0.859
0.459557274163,0.506914654287,-0.124109997209,-1.42037426034,0.075716415847,1.91778703185,0.150694871359,-0.0130678111785,-0.0901078357484,-0.000248443655158,-0.140899548725,-0.00884102707576,0.0473129476215,-0.0169826869345,0.573946909194,0.818878371912,0.00197594075011,0.0,0.818833710529,-0.573886400097,-0.0121037674508,0.0,-0.00877771685846,0.00856505171797,-0.99992479296,0.0,0.654018686019,0.251078972821,0.303316793865,1.0,-0.01752,-0.0230262857143,0.877
0.459331951592,0.50530960675,-0.124117409979,-1.4228412995,0.0755618411782,1.91872733259,0.150353713587,-0.015434976462,-0.0925414562271,-0.000281704386898,-0.148790113378,-0.0125269189347,0.049084015056,-0.0192812598309,0.573940685675,0.818882581738,0.0020380269893,0.0,0.81883879044,-0.573879965534,-0.0120651287128,0.0,-0.00871050859529,0.00859364925538,-0.999925135314,0.0,0.653705555669,0.250677795175,0.303343876678,1.0,-0.01788,-0.0234994285714,0.895
0.459118068592,0.503738016651,-0.124127689867,-1.42517545171,0.075414050687,1.91961656586,0.150023552944,-0.0147527491984,-0.0978677531399,0.000200395203712,-0.146489893494,-0.00984306332997,0.051346222767,-0.0299207068787,0.573933034223,0.818887680352,0.00214151745255,0.0,0.818845346751,-0.57387198291,-0.0119996765064,0.0,-0.00859759592272,0.0086407487092,-0.999925706643,0.0,0.653427883458,0.250312202488,0.303408144137,1.0,-0.0182,-0.02392,0.911
0.458889398751,0.502049859882,-0.124134444142,-1.42767048942,0.0752545373437,1.92054413276,0.14967200353,-0.0125674977894,-0.102358840975,-0.000173650957946,-0.146686318657,-0.0133012985903,0.0514941711394,-0.0219988111195,0.573921916377,0.818895206022,0.00224106161682,0.0,0.81885424268,-0.573860530755,-0.0119401586353,0.0,-0.00849184535105,0.00868798880957,-0.999926200983,0.0,0.653124774037,0.249922292866,0.303479817226,1.0,-0.01854,-0.0243668571429,0.928
0.458656067519,0.500326146606,-0.124132371333,-1.43026315408,0.0750828535208,1.92145010635,0.149321990681,-0.0135302825594,-0.104863485432,0.000646679520675,-0.153829261089,-0.0157156105569,0.0520382164819,-0.0172556979658,0.573910328513,0.818903247889,0.00226987311528,0.0,0.818862646859,-0.573848814725,-0.0119268738525,0.0,-0.00846455470709,0.00870383797388,-0.999926294543,0.0,0.652793448498,0.24952018564,0.303527046791,1.0,-0.01888,-0.0248137142857,0.945
0.458425243618,0.498732590912,-0.124132371345,-1.43271910232,0.0749330269933,1.92236724668,0.148964873968,-0.0166745368319,-0.100294113361,0.00195933025559,-0.151958363759,-0.0117805987615,0.0557055682927,-0.0251819619469,0.573891531824,0.818916288417,0.00231714624332,0.0,0.818876265115,-0.573829792297,-0.0119070905147,0.0,-0.00842142496118,0.00873100257539,-0.999926421891,0.0,0.652491481907,0.249137262427,0.303549055517,1.0,-0.0192,-0.0252342857143,0.961
0.458156805583,0.496974636117,-0.124133061624,-1.4355338393,0.0747646600778,1.92338598316,0.148550153252,-0.0118905272473,-0.0917231599366,0.0019654148913,-0.15390551455,-0.0161998023153,0.0574940094017,-0.0190020394158,0.573869566235,0.818931765678,0.00228714091002,0.0,0.818891209764,-0.57380780299,-0.0119389572578,0.0,-0.00846497502378,0.00872449178304,-0.999926110991,0.0,0.652136759278,0.248693087101,0.303523242856,1.0,-0.01956,-0.0257074285714,0.979
0.457882929852,0.495295908206,-0.124130792872,-1.43825769389,0.0745979099502,1.92431735342,0.148148410394,-0.0161069860573,-0.0926425969292,0.00187561890129,-0.161113253766,-0.0115734246436,0.0598613395734,-0.028493823204,0.57385543168,0.818941927042,0.00219330000325,0.0,0.818899934096,-0.573793836499,-0.0120115791686,0.0,-0.00857844892943,0.00868917047054,-0.999925451487,0.0,0.651783707559,0.248251434447,0.30347716661,1.0,-0.0199,-0.0261542857143,0.996
0.457608427909,0.493611995717,-0.124166085402,-1.44095660145,0.074427906592,1.92528617137,0.147769267239,-0.0175457877458,-0.114352916872,-0.00316853779188,-0.178206615254,-0.0147622798042,0.0676602649815,-0.0333464974288,0.573884893722,0.818921411979,0.00214398281858,0.0,0.818878857555,-0.573823583994,-0.0120273855219,0.0,-0.00861938157879,0.00865816375954,-0.999925368446,0.0,0.651451803136,0.247792473061,0.303450304623,1.0,-0.0264165714286,-0.034718922449,1.012
0.457295718703,0.49101411309,-0.124233852153,-1.44489504947,0.0742086337525,1.92679104104,0.147191538925,-0.0275903350113,-0.168050841622,0.000536930864834,-0.256592000303,-0.0188060609985,0.094478691432,-0.0443059979876,0.573855467546,0.818941661667,0.00228123976579,0.0,0.818901010265,-0.573793710741,-0.0119440278565,0.0,-0.00847266411455,0.00872242317252,-0.999926063915,0.0,0.650967516625,0.2471830029,0.303515870587,1.0,-0.036364,-0.0477926857143,1.029
0.456812087635,0.48768183249,-0.124254591473,-1.45024429239,0.0739204259435,1.92877301762,0.146399124098,-0.037160519519,-0.214942136146,-0.000545672755363,-0.346561482818,-0.0184736034499,0.129537013727,-0.055189639263,0.573807087077,0.818975598006,0.00226794890797,0.0,0.818934353914,-0.573744959718,-0.0119996699604,0.0,-0.00852637678599,0.00874296526868,-0.999925427948,0.0,0.650285947178,0.246353943569,0.303459011763,1.0,-0.0463114285714,-0.0608664489796,1.046
0.456224016935,0.483724007551,-0.12435975735,-1.45642332211,0.0735463966785,1.93106934777,0.145451589465,-0.0425964210416,-0.258539009447,-0.00546012191689,-0.408422049759,-0.0294696166328,0.142263000286,-0.0677000130919,0.573793126798,0.818985252376,0.00231320820109,0.0,0.818944872,-0.57373109886,-0.0119444433925,0.0,-0.00845532629441,0.0087481979461,-0.999925985506,0.0,0.649524267106,0.245325484043,0.303468279652,1.0,-0.0556737142857,-0.0731711673469,1.062
0.455437766199,0.478709338859,-0.12449064304,-1.46438291749,0.0730707733524,1.9338294208,0.144256088632,-0.0490752006298,-0.310032673202,-0.00290911985484,-0.484025699693,-0.0302141158363,0.167669809061,-0.0717895374119,0.57381287037,0.818971877556,0.00214487095229,0.0,0.818929207366,-0.57375143816,-0.0120410727789,0.0,-0.00863084335848,0.00866598684956,-0.99992520181,0.0,0.648496933222,0.243972731315,0.303399813096,1.0,-0.0656211428571,-0.0862449306122,1.079
0.454497368796,0.472826043229,-0.124621519461,-1.47351589309,0.0725184922237,1.93710086815,0.142941090206,-0.0555274968753,-0.357582041793,-0.00759242896474,-0.561257056931,-0.0297804753441,0.201872059416,-0.0819665896961,0.573892688178,0.818915932689,0.0021504755507,0.0,0.818873382083,-0.573831268804,-0.0120335348322,0.0,-0.00862060926033,0.00866709170881,-0.999925280517,0.0,0.647334053995,0.242416258497,0.30341156836,1.0,-0.0755685714286,-0.0993186938775,1.096
0.453467646325,0.466507979483,-0.124689362887,-1.48304695873,0.0719591893893,1.94067524164,0.141424922189,-0.0756082781363,-0.419019627851,-0.00634492719442,-0.609978984155,-0.0373224077053,0.236582720556,-0.103592211,0.573847461916,0.818946728231,0.00246853666394,0.0,0.818908206551,-0.573784640828,-0.0118862145068,0.0,-0.00831792820422,0.00884254920527,-0.999926307982,0.0,0.646137202477,0.240818557778,0.303549455485,1.0,-0.0849308571429,-0.111623412245,1.112
0.452120548351,0.458686138445,-0.124747655585,-1.49523923909,0.0711836748789,1.94492122028,0.139570812862,-0.07634128833,-0.451467755287,-0.00776022031058,-0.704315588002,-0.0379525310112,0.239256262924,-0.103693458954,0.573834021656,0.818956463969,0.00236063881355,0.0,0.818916111603,-0.573771183965,-0.011990726014,0.0,-0.00846557903852,0.00881402138651,-0.999925320711,0.0,0.644514190232,0.238741961679,0.303504641565,1.0,-0.0954634285714,-0.125466220408,1.13
0.450765143091,0.450897108314,-0.12489380513,-1.50712702669,0.0703836639966,1.94904054026,0.137686586146,-0.0902080423679,-0.517698715698,-0.00963593273077,-0.764849402389,-0.0403726856679,0.286013867256,-0.120923479941,0.573834067501,0.818956487783,0.00234115254912,0.0,0.818916187017,-0.573771626633,-0.0119643643522,0.0,-0.00845516969033,0.00878293667878,-0.999925682303,0.0,0.642938134152,0.236635692131,0.303558669029,1.0,-0.104825714286,-0.137770938775,1.146
0.449190651822,0.441918837332,-0.124983216643,-1.52069431283,0.0694929654026,1.95395316981,0.135605174225,-0.0975858847629,-0.541986279815,-0.00712660054835,-0.811533884211,-0.056001862236,0.297325468849,-0.135118622271,0.573851761408,0.818943321107,0.00259608253437,0.0,0.818906510648,-0.573788510113,-0.0118160645563,0.0,-0.00818724245042,0.00890678983143,-0.9999268164,0.0,0.641141806681,0.234283247767,0.303679086454,1.0,-0.114773142857,-0.150844702041,1.163
0.447406130214,0.432173023857,-0.125044385605,-1.53535043662,0.0685091219303,1.95907369973,0.133184237204,-0.109294759655,-0.60205169965,-0.0092425595978,-0.868648810521,-0.0573265388968,0.321083914948,-0.148527620146,0.5737484064,0.819015182804,0.00276466820858,0.0,0.818980419533,-0.573684394136,-0.0117488402684,0.0,-0.00803658628315,0.00900526088957,-0.999927156626,0.0,0.639141083152,0.231701755017,0.303801921988,1.0,-0.124720571429,-0.163918465306,1.18
0.445443109698,0.421842256167,-0.125130571994,-1.55106848712,0.0673881396797,1.96454039778,0.130574508485,-0.119266205998,-0.627010018066,-0.00325063217965,-0.947401027675,-0.073718557886,0.325788658952,-0.169358099692,0.573643333656,0.819088716606,0.00278334015029,0.0,0.819054478984,-0.573579587022,-0.0117031922744,0.0,-0.00798963947156,0.00899333859695,-0.999927640143,0.0,0.636963419623,0.228885335531,0.303824778639,1.0,-0.134668,-0.176992228571,1.197
0.44339198903,0.411426697739,-0.125249567092,-1.56661083228,0.0662691768033,1.9700135512,0.128024074746,-0.134806012781,-0.666227683612,-0.00460071790211,-0.988575407868,-0.0657681095093,0.345401375305,-0.166582206841,0.573657247572,0.819078130185,0.00302090419712,0.0,0.819047576482,-0.573593407945,-0.0115072465353,0.0,-0.00769271135071,0.00907565437045,-0.99992922484,0.0,0.634818007601,0.226025317141,0.303962971088,1.0,-0.144030285714,-0.189296946939,1.213
0.440965197814,0.399868040632,-0.125343375315,-1.584178793,0.0651088664019,1.97589523731,0.125079155668,-0.151987932055,-0.706274207259,-0.0112321548109,-1.0395174804,-0.0677153194097,0.357820750219,-0.176748118109,0.573690635582,0.819055059463,0.00293447005557,0.0,0.819022389818,-0.573625912002,-0.0116783970477,0.0,-0.00788211388155,0.00910335897048,-0.99992749794,0.0,0.632283970107,0.222755273818,0.303916636442,1.0,-0.153977714286,-0.202370710204,1.23
0.437978495722,0.386110298019,-0.125501967647,-1.60488459792,0.0635551374263,1.98289942581,0.121511710855,-0.161689593755,-0.725052894136,-0.00913963642922,-1.12334221215,-0.0880978967583,0.370000167848,-0.196283098959,0.573699289399,0.819049112262,0.00290240357729,0.0,0.819016513519,-0.573635234503,-0.0116325070394,0.0,-0.00786282499105,0.00905085173806,-0.99992812645,0.0,0.629289864916,0.218790109095,0.303916279304,1.0,-0.165095428571,-0.216982563265,1.249
0.435438679631,0.374657826079,-0.125627336405,-1.6218553829,0.0622895760904,1.98858976509,0.118434511247,-0.17314857273,-0.769680223771,-0.00707557098897,-1.15719560305,-0.0810477466978,0.385431712739,-0.211355919312,0.573629177385,0.819097854748,0.00300301520418,0.0,0.819066751972,-0.573565024555,-0.0115570464551,0.0,-0.00774407656679,0.00908930395775,-0.999928704374,0.0,0.626790310243,0.215502469245,0.303992719112,1.0,-0.173872571429,-0.228518236735,1.264
0.432235258761,0.361183912908,-0.12581670069,-1.64180649625,0.0607717140928,1.9951987896,0.114894636623,-0.1859588655,-0.792452249574,-0.0114744299993,-1.18334047819,-0.0908942194806,0.400615547111,-0.216197134698,0.573780804525,0.818991475711,0.00304925772806,0.0,0.818961300994,-0.573716874875,-0.0114926872557,0.0,-0.00766314982038,0.00909168245883,-0.999929306224,0.0,0.62382410359,0.211488569181,0.304040985171,1.0,-0.18382,-0.241592,1.281
0.42871941335,0.34720192666,-0.126012006949,-1.66264666251,0.0591951387903,2.00184034282,0.110944488522,-0.213078279702,-0.816039277259,-0.0121628223591,-1.21693378141,-0.0953831716093,0.393662393089,-0.235320759677,0.573837425231,0.818952586976,0.00283135830459,0.0,0.818919147213,-0.573773685038,-0.0116591418112,0.0,-0.00792387801932,0.00900927890212,-0.999928019935,0.0,0.6206252007,0.207203575786,0.303959255002,1.0,-0.193767428571,-0.254665763265,1.298
0.425226013318,0.333444436439,-0.126136731059,-1.68276615532,0.0576392561703,2.00841680347,0.107140937354,-0.22306873086,-0.848102082967,-0.00564021663188,-1.27847233622,-0.0980991849932,0.398970189258,-0.240331605789,0.573887770932,0.818916799639,0.00297465027291,0.0,0.818885148898,-0.57382346524,-0.0115970063153,0.0,-0.00779020915534,0.00909145207407,-0.999928326502,0.0,0.61750872047,0.203079360667,0.304013287585,1.0,-0.203129714286,-0.266970481633,1.314
0.421326956474,0.31828599004,-0.12626905124,-1.70471086165,0.0558142893715,2.01544791001,0.102814850072,-0.235651175347,-0.907231364109,-0.00997881620503,-1.30475248639,-0.112813883715,0.418167562076,-0.252174379137,0.573782474251,0.818990144041,0.00309242748559,0.0,0.81896055912,-0.573718449076,-0.0114669393383,0.0,-0.0076172742556,0.00911228040789,-0.999929469252,0.0,0.614020731238,0.198537236603,0.304101941978,1.0,-0.213077142857,-0.280044244898,1.331
0.417126926104,0.302644790595,-0.126365222011,-1.72730052208,0.0539429147987,2.02251913406,0.0981661489728,-0.253036217066,-0.942593923718,-0.00488927024548,-1.34170985219,-0.105283780977,0.403851627918,-0.273076611764,0.57359421464,0.819121824239,0.00314020523708,0.0,0.819092773875,-0.573529969169,-0.0114520370382,0.0,-0.007579757591,0.00914111760397,-0.999929491136,0.0,0.610331755079,0.19380273974,0.304138924422,1.0,-0.223024571429,-0.293118008163,1.348
0.412790189175,0.287406609811,-0.126518803793,-1.7491327916,0.0521491740608,2.02921679772,0.0936650505224,-0.274581885534,-0.955486552126,-0.00977666102251,-1.37684643314,-0.106634106606,0.426425631252,-0.285458890902,0.573643305412,0.819087231827,0.00319557749385,0.0,0.819058528305,-0.573578439307,-0.0114737994239,0.0,-0.00756527391203,0.00919941034353,-0.999929066224,0.0,0.606714303261,0.189059494038,0.304179589765,1.0,-0.232386857143,-0.305422726531,1.364
0.407554627989,0.269802209053,-0.126707385004,-1.77426882124,0.0499934497378,2.03676923761,0.088228590605,-0.301852255126,-0.995416381457,-0.0170552755514,-1.40207387185,-0.12945495878,0.438655655114,-0.309671199179,0.573614891968,0.819107291952,0.00315386816815,0.0,0.819077812577,-0.573549871761,-0.0115251224836,0.0,-0.00763155811468,0.00919442234978,-0.999928608411,0.0,0.602456311842,0.183478787377,0.304173872522,1.0,-0.242919428571,-0.319265534694,1.382
0.402175663008,0.252638689295,-0.126953479071,-1.79848208891,0.0478140179071,2.04391480592,0.0829018605468,-0.321510202762,-1.04603939397,-0.0197061586856,-1.43579341085,-0.13719803267,0.440859770884,-0.315204675922,0.573748234486,0.819013953014,0.00313928236731,0.0,0.818984625448,-0.573683652054,-0.0114890184932,0.0,-0.00760885797312,0.00916300448642,-0.999929069799,0.0,0.598293622003,0.177904644579,0.30420675986,1.0,-0.252866857143,-0.332339297959,1.399
0.396802336675,0.236141442961,-0.127106805622,-1.82163486922,0.0457643668818,2.0505458741,0.0775437139351,-0.341937762608,-1.06900048509,-0.012062458476,-1.43426870752,-0.12554240848,0.4206423411,-0.33094659904,0.573745729906,0.81901588302,0.00309316615193,0.0,0.818985269521,-0.573680469002,-0.0116014953657,0.0,-0.00772746874031,0.00918974287227,-0.999927914828,0.0,0.594190970532,0.172541045231,0.304196894848,1.0,-0.262229142857,-0.344644016326,1.415
0.39083768096,0.21818642531,-0.12725924592,-1.84664254048,0.043471364033,2.05766541198,0.0715583855669,-0.354677381033,-1.05839269335,-0.0135395485027,-1.44327655237,-0.128872648713,0.408064726463,-0.357060302595,0.573617732832,0.819105501753,0.00310169001899,0.0,0.819074588481,-0.573551973284,-0.0116490063305,0.0,-0.00776293420491,0.00922276964385,-0.999927336046,0.0,0.589663801688,0.166718791895,0.304181252871,1.0,-0.271591428571,-0.356948734694,1.432
0.384382297747,0.199669450324,-0.127463361227,-1.87204587905,0.0410226539657,2.06462203042,0.0652708253027,-0.388217420941,-1.08995405028,-0.012784203132,-1.46008144289,-0.13892119193,0.390292258825,-0.369297852345,0.573575059047,0.819135455789,0.00308279251339,0.0,0.819104260866,-0.57350932469,-0.0116623850818,0.0,-0.00778521275656,0.00921455910385,-0.999927238534,0.0,0.58496651066,0.160595360205,0.304218049729,1.0,-0.282124,-0.370791542857,1.449
0.377814009872,0.181814240105,-0.127751100186,-1.89633242009,0.0386659176779,2.07116093729,0.058963752319,-0.424826023052,-1.09671252364,-0.0227965292466,-1.51395094487,-0.133670353793,0.390542613662,-0.391542583635,0.573628852088,0.819097677211,0.00311161393344,0.0,0.819066743251,-0.573562880503,-0.0116635804965,0.0,-0.00776905502033,0.00923936366852,-0.999927135317,0.0,0.580412371251,0.154532567966,0.304245571675,1.0,-0.291486285714,-0.383096261224,1.465
0.369969562381,0.161359081424,-0.128037668029,-1.9238748134,0.0359023349077,2.07831037796,0.0515561025454,-0.439620338512,-1.12180896567,-0.0126089240585,-1.52365932113,-0.158896335742,0.382508440819,-0.424414502394,0.573669002595,0.819069618135,0.00309564385509,0.0,0.819038233798,-0.573602790755,-0.0117028593379,0.0,-0.00780993694001,0.00924919639512,-0.999926725941,0.0,0.575107669181,0.147533720979,0.304265130108,1.0,-0.302018857143,-0.396939069388,1.483
0.362140554703,0.141617917371,-0.128282681597,-1.95015378381,0.0331361340475,2.08497029216,0.0442038755598,-0.474725303851,-1.14340588645,-0.0162635833784,-1.54601879688,-0.151184002695,0.37712287317,-0.435536962768,0.573613265809,0.81910863412,0.0031005965071,0.0,0.819077546318,-0.573547320101,-0.0116701166836,0.0,-0.00778090432586,0.00923394050436,-0.999927093278,0.0,0.56992128923,0.140764108083,0.304288222057,1.0,-0.311966285714,-0.410012832653,1.5
0.354756164362,0.123761934176,-0.128563365353,-1.9736258592,0.0306595693536,2.09071122771,0.0372881238215,-0.505274245195,-1.17428025767,-0.0199333148449,-1.5478717272,-0.168405113511,0.375381740973,-0.462985943292,0.573588810495,0.819125565001,0.00315152934815,0.0,0.819094981909,-0.573522512387,-0.0116655603271,0.0,-0.00774823484187,0.00927281527659,-0.999926987211,0.0,0.565191912956,0.134551414345,0.304324851364,1.0,-0.320743428571,-0.421548506122,1.515
0.345264700069,0.102022726087,-0.129003891003,-2.00181698029,0.0275592080196,2.09738037336,0.028620608975,-0.538924982977,-1.1973770397,-0.0170542109054,-1.56513466913,-0.174919433041,0.361257154839,-0.486194803896,0.573733464537,0.819023917268,0.00323751680678,0.0,0.818994768464,-0.573667253621,-0.0115843969742,0.0,-0.00763078773023,0.00929804455434,-0.999927656106,0.0,0.559414203247,0.126791576643,0.304393351442,1.0,-0.331276,-0.435391314286,1.533
0.335841334447,0.081125500136,-0.129332186624,-2.02866761942,0.024642451142,2.10336048418,0.0199108438822,-0.572281835129,-1.21788951267,-0.0260861774537,-1.58916692894,-0.164670447941,0.330123548963,-0.518288259351,0.573679359784,0.819061705817,0.00326513770588,0.0,0.81903184889,-0.573611767642,-0.0117097151469,0.0,-0.00771820645114,0.00939205448697,-0.999926106571,0.0,0.553710916237,0.119376680941,0.304403349998,1.0,-0.33998,-0.446830857143,1.55
0.328255039212,0.0650192115543,-0.12961418222,-2.04920278735,0.0222111648676,2.10789105052,0.013019576813,-0.589410915423,-1.23243518523,-0.0322428096374,-1.58540338547,-0.190478856624,0.339996490366,-0.533387695734,0.573652540586,0.819080522369,0.00325690910516,0.0,0.819051020117,-0.573585541184,-0.0116533382188,0.0,-0.00767705419101,0.00935272186941,-0.999926792037,0.0,0.549288743607,0.113554685004,0.304388391758,1.0,-0.33998,-0.446830857143,1.563
0.315950810171,0.0405706459374,-0.130061419559,-2.07998496303,0.0185626347778,2.11405904766,0.00219677460704,-0.616928637829,-1.19933284414,-0.0163010453576,-1.49695232587,-0.182118087525,0.293940496695,-0.540313218977,0.573906802079,0.818903078574,0.00307852727083,0.0,0.81887039158,-0.573839344062,-0.0118505654375,0.0,-0.00793803728169,0.00932221442635,-0.999925039132,0.0,0.542462610899,0.104464406828,0.304333238528,1.0,-0.33998,-0.446830857143,1.583
0.304564952223,0.0187274332457,-0.13034945417,-2.10683261316,0.0152807287188,2.11926591609,-0.00788738190366,-0.640367131456,-1.18479564823,-0.0123551169852,-1.43713352418,-0.17365157865,0.278543316312,-0.568696661572,0.573929102344,0.818886998785,0.0031961859748,0.0,0.818855810149,-0.573861185439,-0.0118003785394,0.0,-0.00782916022989,0.00938997690438,-0.999925263499,0.0,0.536362421017,0.0964151569786,0.304402837507,1.0,-0.33998,-0.446830857143,1.601
0.29471072504,0.00060947431439,-0.130666211578,-2.12877938994,0.0125269469364,2.12322909861,-0.0165367328919,-0.668296996136,-1.18927072191,-0.0208164811032,-1.4634456975,-0.192668781189,0.252263672906,-0.59597482567,0.574040958121,0.818808283578,0.0032741480675,0.0,0.818778006841,-0.573972632564,-0.0117787725472,0.0,-0.00776543465498,0.00944248010428,-0.999925266004,0.0,0.531253281406,0.0896249052897,0.304465877593,1.0,-0.33998,-0.446830857143,1.616
0.283396754963,-0.0196130458547,-0.130872205992,-2.15297980899,0.00943580502798,2.12742837318,-0.0266239429648,-0.680184715918,-1.18291624279,-0.019816256578,-1.42663212036,-0.198446620421,0.232253436237,-0.589317272193,0.573880019078,0.818920472661,0.00342491772704,0.0,0.81889216943,-0.573811226171,-0.0117063430492,0.0,-0.00762145447908,0.00952285802454,-0.999925611537,0.0,0.525480100583,0.0821246018767,0.304531975714,1.0,-0.33998,-0.446830857143,1.633
0.270862417298,-0.0407791161898,-0.131216683633,-2.17791222574,0.00610647206448,2.13137786823,-0.0375315580745,-0.70638148813,-1.15628032723,-0.0243407188132,-1.39893894902,-0.178449259329,0.218820260163,-0.619219776144,0.573988703601,0.818843903682,0.00351801684034,0.0,0.818817105824,-0.573919970343,-0.011625908668,0.0,-0.0075008887322,0.00955393655484,-0.999926226761,0.0,0.519391704382,0.074026434851,0.304607108911,1.0,-0.33998,-0.446830857143,1.651
0.260212119998,-0.0582976559277,-0.131404430078,-2.19815623932,0.0034493354619,2.13435308026,-0.0469304914806,-0.711091157366,-1.14383047407,-0.013422985185,-1.33745196811,-0.171215432913,0.18950500326,-0.619252243637,0.573914264723,0.818895100457,0.00373872910128,0.0,0.818870992667,-0.573844643044,-0.0115485894975,0.0,-0.00731177446442,0.00968962361579,-0.99992632186,0.0,0.514315747321,0.0674049541084,0.304716609563,1.0,-0.33998,-0.446830857143,1.666
0.247002191665,-0.0789704274434,-0.131729877258,-2.22194643781,0.000181913504835,2.13754992099,-0.0585512268856,-0.746263339808,-1.14466691411,-0.0245890904711,-1.31373606235,-0.179669882209,0.157391791384,-0.651655093624,0.573887824528,0.818913355403,0.00379843421524,0.0,0.818889803547,-0.573817738908,-0.0115515826952,0.0,-0.00728027658021,0.00973999923626,-0.999926062261,0.0,0.508204453809,0.0593704644887,0.304738931602,1.0,-0.33998,-0.446830857143,1.684
0.234155106481,-0.098221177025,-0.132000307735,-2.24382368703,-0.00290988543902,2.1401843332,-0.0698360225844,-0.754737158386,-1.14043061479,-0.0110500754791,-1.27072098559,-0.189821979656,0.157998306662,-0.667560355459,0.573827493833,0.818955625038,0.00379979492997,0.0,0.818931860638,-0.573757105082,-0.0115818349677,0.0,-0.00730499019987,0.00975793633609,-0.999925707139,0.0,0.50242846712,0.051811240065,0.304734495033,1.0,-0.33998,-0.446830857143,1.701
0.221758000197,-0.116058686098,-0.132269787298,-2.26397821082,-0.00584452802671,2.14222512614,-0.0807103481264,-0.790620799199,-1.10878073761,-0.0232050407295,-1.23847178497,-0.178335372423,0.12042244937,-0.675255848595,0.57376992217,0.818996895385,0.00359286283818,0.0,0.818969526941,-0.573699007151,-0.0117944918081,0.0,-0.0075985766265,0.00970995677246,-0.999923986297,0.0,0.496938446421,0.0447054033044,0.304643772317,1.0,-0.33998,-0.446830857143,1.717
0.208118213083,-0.134897709338,-0.132610337168,-2.28492311642,-0.0088918964113,2.14416705654,-0.0926745913471,-0.805373411973,-1.09141792851,-0.0123856300485,-1.23130235583,-0.17981350244,0.102618893234,-0.716518669813,0.573787256926,0.818985077613,0.00351757555703,0.0,0.818955679193,-0.573715276726,-0.0119634305279,0.0,-0.00777993403313,0.00974539009439,-0.999922246976,0.0,0.49111156805,0.037097989453,0.304574061075,1.0,-0.33998,-0.446830857143,1.734
0.194103215134,-0.153585965569,-0.132992379237,-2.30517468571,-0.0119490733399,2.14583873818,-0.105013118965,-0.853820833898,-1.09846398288,-0.0294523059096,-1.18493803445,-0.193122218088,0.0854510905194,-0.730005766522,0.573794250214,0.818979745255,0.00361693028849,0.0,0.818951714921,-0.573722003034,-0.0119121267708,0.0,-0.00768082593797,0.00979738974153,-0.999922505031,0.0,0.485350139657,0.0294870762772,0.304608585326,1.0,-0.33998,-0.446830857143,1.751
0.180554300512,-0.170999813501,-0.133329999929,-2.32371783565,-0.0147458358091,2.14699522453,-0.116921472595,-0.847552589687,-1.09702636849,-0.0217840553574,-1.15650255618,-0.177963892793,0.0748769485835,-0.754523442756,0.573835089889,0.818950718811,0.00370899894268,0.0,0.818923327725,-0.573761787533,-0.0119474422414,0.0,-0.00765643195828,0.00989343782855,-0.999921746407,0.0,0.479906984066,0.0223495972055,0.304653802338,1.0,-0.33998,-0.446830857143,1.767
0.164822583924,-0.19021834007,-0.13381105788,-2.34403142772,-0.0179609790847,2.14796545774,-0.130770569367,-0.886029050752,-1.06345651063,-0.0374974572662,-1.09657867222,-0.181604570902,0.0554108750975,-0.776886134488,0.573924474182,0.818888273756,0.00366605249718,0.0,0.818859628772,-0.573850425536,-0.0120558857726,0.0,-0.00776880727696,0.00992134130627,-0.999920603158,0.0,0.473772024393,0.0142384432974,0.304631296809,1.0,-0.33998,-0.446830857143,1.785
0.149657639443,-0.208196045277,-0.134133073259,-2.36270134858,-0.0208645133463,2.14865454897,-0.144279063852,-0.89671579769,-1.04269582979,-0.0225661689097,-1.08522692534,-0.162439237333,0.0340466602823,-0.805558800142,0.573829186327,0.818954608796,0.00376305080201,0.0,0.818926557723,-0.573753919221,-0.0121028978311,0.0,-0.00775280807828,0.0100268513024,-0.999919674884,0.0,0.467977155856,0.00671492783701,0.304635763754,1.0,-0.33998,-0.446830857143,1.802
0.134892350203,-0.224924552885,-0.134572036992,-2.37959434065,-0.0236897260791,2.14903569222,-0.15728418043,-0.919312163124,-1.03638657816,-0.0209932208638,-1.05811183308,-0.174620119703,0.00762373802924,-0.816219189782,0.573948261767,0.818870375142,0.00393044907624,0.0,0.81884539195,-0.573873524221,-0.0119226332024,0.0,-0.00750765500561,0.0100615984335,-0.999921196572,0.0,0.462589983685,-0.000491569384945,0.304738812371,1.0,-0.33998,-0.446830857143,1.818
0.118936235243,-0.24229494472,-0.13489020445,-2.39704679561,-0.0265683669983,2.14913621404,-0.171561751358,-0.957909655785,-1.01947531545,-0.0298186294188,-0.994980508252,-0.160262930757,0.00865467732711,-0.850960564617,0.573830441601,0.81895255737,0.00400998382739,0.0,0.818928510381,-0.573755307931,-0.011903294009,0.0,-0.00744762695403,0.0101145572767,-0.99992111118,0.0,0.456843427342,-0.00800248178678,0.304767070846,1.0,-0.33998,-0.446830857143,1.835
0.102502046323,-0.259413300068,-0.135327675123,-2.41410809349,-0.0294553756224,2.14907197481,-0.186312431868,-0.961408137181,-1.01091024822,-0.024307978465,-0.988452374484,-0.172087551823,-0.00539876644899,-0.873966667187,0.573782210582,0.818986033104,0.00407422389236,0.0,0.818962691946,-0.573706681728,-0.0118953538239,0.0,-0.0074048617372,0.0101621754326,-0.999920945982,0.0,0.451063723062,-0.0155885354128,0.304746251242,1.0,-0.33998,-0.446830857143,1.852
0.0866164633078,-0.275340289096,-0.135770133563,-2.42953874632,-0.0321631819651,2.14883955741,-0.200507549039,-1.00493001781,-0.986334524982,-0.0334981599715,-0.968372978494,-0.172940755983,-0.0221320159409,-0.896193931344,0.573837003647,0.818946588403,0.00428082823627,0.0,0.818927118912,-0.573762454009,-0.0116519174879,0.0,-0.0070862559934,0.0101921839832,-0.999922949212,0.0,0.445682061966,-0.0227556389443,0.304826849439,1.0,-0.33998,-0.446830857143,1.868
0.0693956050079,-0.291818002575,-0.136136871022,-2.44554626307,-0.0348715548034,2.14811507374,-0.216105515671,-1.01628915822,-0.949409104171,-0.0220870216953,-0.926022134187,-0.164422300554,-0.0445931597146,-0.933387328935,0.573731640273,0.819020469056,0.00426885441175,0.0,0.818999444579,-0.573655147087,-0.0118502700804,0.0,-0.00725690317208,0.0102952624988,-0.999920669317,0.0,0.439526246765,-0.0307110536826,0.304770160425,1.0,-0.33998,-0.446830857143,1.886
0.0516137309992,-0.30802065887,-0.136628441435,-2.46080943936,-0.0376795994257,2.14730803935,-0.232116583056,-1.05013453155,-0.93857541361,-0.0187161673922,-0.887978266401,-0.164421023635,-0.0626856752539,-0.947020034344,0.573785278139,0.818982263494,0.00438788945449,0.0,0.818963595995,-0.573709551699,-0.011692973322,0.0,-0.0070590995759,0.0103029760405,-0.999922005857,0.0,0.434131021583,-0.0379076018342,0.304823375822,1.0,-0.33998,-0.446830857143,1.902
0.0345281835415,-0.322957751572,-0.137140788267,-2.47471967605,-0.0401637627756,2.14627163205,-0.247578708724,-1.08397146405,-0.910905333082,-0.039343648768,-0.827285934091,-0.158289183391,-0.0560656602904,-0.979277017491,0.57390248799,0.818899369654,0.00452808570632,0.0,0.818882118691,-0.573825704914,-0.0116996995404,0.0,-0.00698267904468,0.0104226557602,-0.999921302123,0.0,0.428699853637,-0.0450757879154,0.304849244972,1.0,-0.33998,-0.446830857143,1.918
0.0160572762794,-0.338495479424,-0.137525627045,-2.4889540624,-0.0428295010176,2.1450396773,-0.264532867939,-1.09711649957,-0.908515205759,-0.0191072075444,-0.85140775896,-0.164030964131,-0.0840713923739,-1.00115627724,0.573713811707,0.819031017574,0.00462616562106,0.0,0.819015716511,-0.5736377835,-0.0115627138033,0.0,-0.00681660910016,0.0104227916317,-0.99992244662,0.0,0.422952992899,-0.0525909196328,0.304896063434,1.0,-0.33998,-0.446830857143,1.935
-0.00411481496909,-0.354491802528,-0.138071796019,-2.50332157303,-0.0455924339084,2.14342615701,-0.282935364508,-1.1226575273,-0.890784290581,-0.0208353368435,-0.774146514592,-0.146943598758,-0.0861279330975,-1.02387527694,0.573780361385,0.818983812977,0.0047284111596,0.0,0.818970131835,-0.57370448574,-0.0114818597725,0.0,-0.00669087542392,0.0104606945611,-0.999922900055,0.0,0.416858388453,-0.0606617686519,0.3049606764,1.0,-0.33998,-0.446830857143,1.953
-0.0224396735069,-0.368236329787,-0.138556892779,-2.51563121226,-0.0479414458926,2.14191304882,-0.299811341751,-1.14941352362,-0.845318163293,-0.0253352189258,-0.748785515473,-0.155793340753,-0.09998920616,-1.06666213652,0.573782328596,0.818981969633,0.0048082959066,0.0,0.81896902148,-0.573705753235,-0.0114977154924,0.0,-0.00665800284255,0.0105352341983,-0.999922336903,0.0,0.411426619712,-0.0678159344788,0.304955808585,1.0,-0.33998,-0.446830857143,1.969
-0.0398967396186,-0.380749345117,-0.138939969085,-2.52669760997,-0.0501262462085,2.14026395815,-0.315934315087,-1.18240925228,-0.856797863843,-0.0383733552406,-0.703615838817,-0.145463040531,-0.104768177214,-1.07355052278,0.573718905969,0.819026584813,0.00477673577191,0.0,0.819012663129,-0.573641545007,-0.0115923413409,0.0,-0.00675443169384,0.0105631558508,-0.999921395606,0.0,0.406320858995,-0.0744668128327,0.304940362625,1.0,-0.33998,-0.446830857143,1.984
-0.0625337485874,-0.396091795241,-0.139459818575,-2.54003937163,-0.052797863264,2.13825058338,-0.336924359019,-1.20290614933,-0.792986859239,-0.0160385619357,-0.678258202775,-0.134681502087,-0.117287928624,-1.1126906464,0.573679793025,0.819053402584,0.00487500680267,0.0,0.819041126321,-0.573602739314,-0.0115012063397,0.0,-0.00662391246104,0.0105910446454,-0.999921973734,0.0,0.39990078704,-0.0829270186343,0.304956099309,1.0,-0.33998,-0.446830857143,2.003
-0.0832391142716,-0.409239555114,-0.140004183026,-2.55141631579,-0.0550900083632,2.13613150416,-0.356229889662,-1.2249241257,-0.772256356034,-0.0392083855641,-0.640297854264,-0.135411810587,-0.11286334245,-1.15210471034,0.573693265163,0.819044044219,0.00486189644011,0.0,0.819030034867,-0.57361377297,-0.0117383280717,0.0,-0.00682548834719,0.0107164452946,-0.999919281997,0.0,0.394082824631,-0.0905077750995,0.304899745358,1.0,-0.33998,-0.446830857143,2.02
-0.104390706997,-0.421964145396,-0.140480859903,-2.5620118729,-0.0573797677904,2.13417024187,-0.376039449379,-1.24010135312,-0.722613559844,-0.0124132757907,-0.610052783962,-0.149971082941,-0.119085479994,-1.16730730272,0.573628225644,0.819088828293,0.00498969045818,0.0,0.819078020853,-0.573550830547,-0.0114624358343,0.0,-0.00652703769611,0.0106623277972,-0.999921853219,0.0,0.388378900397,-0.0981127135034,0.304990097897,1.0,-0.33998,-0.446830857143,2.037
-0.12594922661,-0.434007059859,-0.14100267842,-2.57229203884,-0.0594617418183,2.13187889335,-0.396236331234,-1.26999457136,-0.691467149476,-0.0253816642355,-0.591468986278,-0.124371365559,-0.134355879599,-1.20240777713,0.573706418784,0.819034265227,0.00495624168933,0.0,0.819020372885,-0.573624858234,-0.0118700343591,0.0,-0.00687907387661,0.0108693870889,-0.999917263961,0.0,0.382517231582,-0.105672371289,0.304875609498,1.0,-0.33998,-0.446830857143,2.054
-0.145238344258,-0.444332786652,-0.141408093201,-2.58060432113,-0.0612686848052,2.13000027089,-0.414500061449,-1.29723913592,-0.672119672428,-0.0387289020417,-0.538821891028,-0.115101512332,-0.117675139192,-1.2288980137,0.573657609456,0.819067307055,0.00514203550612,0.0,0.819057004744,-0.573577342654,-0.011636231133,0.0,-0.00658162815365,0.010887042344,-0.999919073965,0.0,0.377145813848,-0.112797681815,0.304984623222,1.0,-0.33998,-0.446830857143,2.07
-0.170199050815,-0.456566023474,-0.141928221491,-2.590619543,-0.0635266519284,2.12755160323,-0.438144277172,-1.32517085594,-0.637414126141,-0.0307035927602,-0.517345802791,-0.118382968914,-0.144900019294,-1.25855089421,0.573575808302,0.819124744564,0.00511779976501,0.0,0.819113655932,-0.573494856725,-0.011713875414,0.0,-0.00666022159327,0.0109110653066,-0.999918291713,0.0,0.371012702623,-0.120814011615,0.304958323202,1.0,-0.33998,-0.446830857143,2.088
-0.192794302491,-0.466823770356,-0.142377769805,-2.59895111921,-0.0653611600616,2.12535528489,-0.459734931958,-1.32744063314,-0.583030383403,-0.0164355151911,-0.470018097421,-0.0907600023145,-0.126695222658,-1.26280771257,0.573479193656,0.819192078152,0.00516724659508,0.0,0.819180597531,-0.573396398403,-0.0118518280835,0.0,-0.00674617297507,0.0110298973257,-0.999916411764,0.0,0.365234191386,-0.128325314584,0.304924280633,1.0,-0.333982285714,-0.438948146939,2.105
-0.212950800874,-0.475126174356,-0.142637417309,-2.60545799151,-0.0668079890837,2.12361203651,-0.47869868464,-1.34202090098,-0.544874612063,-0.027138370928,-0.415624649627,-0.0892312824485,-0.102604683026,-1.26300974402,0.573657372631,0.819066527513,0.00529048530068,0.0,0.8190575159,-0.573575569255,-0.0116875533523,0.0,-0.0065385165081,0.011038075414,-0.99991770096,0.0,0.360298016058,-0.134929048008,0.304985832891,1.0,-0.325205142857,-0.427412473469,2.12
-0.236843128359,-0.48419756404,-0.142812704392,-2.6125364142,-0.0683350878102,2.12152725701,-0.501398317909,-1.32610710076,-0.481436042073,0.000281751460835,-0.38741414503,-0.0914121937212,-0.112267753372,-1.24129257776,0.573701679106,0.81903482143,0.00539366086395,0.0,0.819027317662,-0.573619823287,-0.0116317735806,0.0,-0.00643304066182,0.0110909371589,-0.999917800172,0.0,0.354500019351,-0.142591001954,0.30503043646,1.0,-0.314672571429,-0.413569665306,2.138
-0.257797061881,-0.491369305242,-0.142876384461,-2.61827418373,-0.0694313326158,2.11972844109,-0.521277794748,-1.2937889527,-0.432203556455,0.00324998126083,-0.349265087438,-0.0768954598964,-0.109777994047,-1.24384538561,0.573827319242,0.818946222912,0.00548074547281,0.0,0.818938145309,-0.573742208044,-0.0118718056093,0.0,-0.00657796199973,0.0113009754985,-0.99991450553,0.0,0.349440846423,-0.149159707798,0.304972785557,1.0,-0.305310285714,-0.401264946939,2.154
-0.279774758417,-0.498194243284,-0.142806329143,-2.6235600009,-0.0704787684358,2.11815082484,-0.542131881805,-1.29544670385,-0.396472914088,0.000370063176699,-0.300692595902,-0.0594949691476,-0.095358333001,-1.21914112798,0.573939906006,0.818866517276,0.00559982850985,0.0,0.818860482891,-0.573855210074,-0.0117666618694,0.0,-0.00642195830167,0.0113390533969,-0.999915088555,0.0,0.344299022041,-0.155975753955,0.304997559359,1.0,-0.295362857143,-0.388191183674,2.171
-0.30108837173,-0.504099517965,-0.142570795683,-2.6281505996,-0.0713183645899,2.11661872433,-0.562528858921,-1.25123164558,-0.335630110006,0.0153748570656,-0.261097404172,-0.0397134811682,-0.0733495590817,-1.17595103455,0.573892458054,0.818899363017,0.00565921732492,0.0,0.818893609411,-0.57380668998,-0.0118273370416,0.0,-0.00643822596426,0.0114221363402,-0.999914038329,0.0,0.339364572335,-0.162456052044,0.304990249648,1.0,-0.285415428572,-0.375117420408,2.188
-0.322050592156,-0.509298270562,-0.142354855344,-2.63206088151,-0.0720234360088,2.11536004019,-0.582551213442,-1.21669154258,-0.296006201952,0.0172126995498,-0.217082900616,-0.0272778265057,-0.0808918048948,-1.16237957803,0.573974207031,0.818841086,0.00579934843765,0.0,0.818838021295,-0.573889500089,-0.0116569065786,0.0,-0.00621708856476,0.0114397109593,-0.999915236819,0.0,0.334612213268,-0.168807547579,0.305042702764,1.0,-0.275468,-0.362043657143,2.205
-0.342484738423,-0.513802024195,-0.142019235965,-2.63557874063,-0.0726279448935,2.11406693783,-0.602153185197,-1.1852978112,-0.250322783862,0.0212862506864,-0.200342624335,-0.0223453143782,-0.0762911244469,-1.14564347489,0.573949212607,0.81885846912,0.00581857374443,0.0,0.818854702506,-0.573862699445,-0.0118036125835,0.0,-0.00632654749999,0.0115394627912,-0.999913404048,0.0,0.329949968172,-0.174875697278,0.305008960197,1.0,-0.265520571429,-0.348969893878,2.222
-0.362325349972,-0.517580913059,-0.141669793179,-2.6386387905,-0.0730977690046,2.11296842433,-0.621233235579,-1.14985059704,-0.211351043847,0.0283338514601,-0.160482485714,-0.035537775841,-0.0498443202327,-1.11519925697,0.573941502229,0.818863635796,0.005851913468,0.0,0.818858798632,-0.573852134415,-0.0120309031997,0.0,-0.00649366112511,0.0116971506941,-0.99991050051,0.0,0.325447928566,-0.180709544576,0.304927426138,1.0,-0.255573142857,-0.335896130612,2.239
-0.381584325559,-0.520758590919,-0.141251036546,-2.64115237522,-0.0734707229922,2.11206125117,-0.639735271836,-1.13169566521,-0.176958874578,0.00936003460716,-0.137472273109,-0.017481256495,-0.052938418334,-1.07288174267,0.57395530318,0.818853743406,0.00588249631698,0.0,0.818848670374,-0.5738646628,-0.0121223230842,0.0,-0.00655077899373,0.0117747726096,-0.999909216891,0.0,0.321146148494,-0.18633636645,0.304887423892,1.0,-0.245625714286,-0.322822367347,2.256
-0.398019965047,-0.523120246122,-0.140838592105,-2.64294918961,-0.0736846162435,2.1113662864,-0.655642590177,-1.0851886824,-0.145665452928,0.0234745448327,-0.113977214087,-0.0050656126524,-0.0412454065196,-1.05722006368,0.573896897283,0.818894258205,0.00594071279591,0.0,0.818889846148,-0.573805841563,-0.0121253026912,0.0,-0.00652065059023,0.0118236906232,-0.999908836573,0.0,0.317518354373,-0.191107600369,0.304889119463,1.0,-0.236848571429,-0.311286693878,2.271
-0.417215735113,-0.525456994212,-0.140357004786,-2.64468351147,-0.0739377071865,2.11064984373,-0.674076975857,-1.04664848812,-0.12392812653,0.0261633151027,-0.0928424372655,-0.016462160526,-0.0367543013351,-1.02130410533,0.573967570993,0.818844590295,0.00595913534579,0.0,0.818840652642,-0.57387684766,-0.0120870261724,0.0,-0.006477710903,0.0118173708494,-0.999909190381,0.0,0.313300356511,-0.196673382281,0.304908403189,1.0,-0.226316,-0.297443885714,2.289
-0.434591719419,-0.527140442599,-0.139904514058,-2.64594754374,-0.0739967451022,2.11014698565,-0.690859065999,-1.01362982082,-0.0898548400942,0.017765630447,-0.0650263410673,-0.00790162108449,-0.0255022752114,-0.981561794622,0.574033256387,0.818797757995,0.00606621500965,0.0,0.818795381071,-0.573942369048,-0.0120427509193,0.0,-0.00637904245533,0.0118801570864,-0.999909080709,0.0,0.309512429966,-0.201683165934,0.304918718771,1.0,-0.216368571429,-0.284370122449,2.306
-0.450273319886,-0.528376595478,-0.139386144065,-2.64687456294,-0.0740498862679,2.10973556661,-0.706047641532,-0.960518803945,-0.0663385439201,0.030672576462,-0.0443170591215,-0.000927495718308,-0.0180224067204,-0.944618969273,0.573992868978,0.818826011782,0.0060741825118,0.0,0.818823885752,-0.573902230864,-0.0120175052412,0.0,-0.00635438133554,0.0118718766088,-0.999909336082,0.0,0.306102787987,-0.206161757246,0.304927580217,1.0,-0.207006285714,-0.272065404082,2.322
-0.466417158927,-0.529305801181,-0.138873176083,-2.6475779594,-0.0740677779941,2.10939137933,-0.721543714599,-0.928181756688,-0.0449699288097,0.0313501891005,-0.0309165661361,-0.00127995742018,-0.0261557525841,-0.898131964934,0.574111782007,0.818742572678,0.00608344862002,0.0,0.81874062419,-0.574021186456,-0.0120089425406,0.0,-0.00634032618717,0.011875470562,-0.999909382626,0.0,0.302596919472,-0.210772547554,0.304931229902,1.0,-0.197058857143,-0.258991640816,2.339
-0.481655085345,-0.529880529529,-0.138224946916,-2.64802301047,-0.0740521610157,2.10914592548,-0.736412377098,-0.889600802563,-0.0318799458887,0.0407226048588,-0.0246498003586,-0.000494229798625,-0.0114690333064,-0.864622120723,0.573950409334,0.818856275305,0.0060062400673,0.0,0.818853418915,-0.57386035063,-0.0120051325327,0.0,-0.00638385798834,0.0118088083013,-0.999909895142,0.0,0.299129129127,-0.215327310111,0.304930789776,1.0,-0.186526285714,-0.245148832653,2.357
-0.496255108625,-0.530146349236,-0.137653781363,-2.64824761305,-0.0740056432678,2.10896906979,-0.750540066547,-0.835790715339,-0.00929248243906,0.0429773923391,-0.00992322247218,0.00305702022378,-0.00972876256789,-0.814291992141,0.573928017219,0.818872345553,0.0059547997172,0.0,0.818868825567,-0.573838187361,-0.0120136648373,0.0,-0.00642069004635,0.0117714053265,-0.999910100337,0.0,0.296172697713,-0.219215390128,0.30492951411,1.0,-0.177164,-0.232844114286,2.373
-0.510070854265,-0.530251371339,-0.137016819336,-2.6483340016,-0.0739039831997,2.10888411151,-0.763954711498,-0.800595920334,-0.00381258342845,0.0311479570437,-0.00230270078656,0.00394650933983,-0.00324708542466,-0.770610475439,0.573872391683,0.818911725116,0.00590012139156,0.0,0.818907807344,-0.573783370386,-0.011974716739,0.0,-0.0064209680283,0.0117038401417,-0.999910891678,0.0,0.293033007381,-0.223318999555,0.304936830578,1.0,-0.166631428572,-0.219001306123,2.391
-0.523256207205,-0.5301315159,-0.136391270907,-2.64829430158,-0.073713028144,2.10883998386,-0.776676359926,-0.749507611776,0.0141268784401,0.0472249629227,0.00326112769486,0.0152200927757,0.000998323548933,-0.732813546339,0.573863982899,0.818917767899,0.00587923896636,0.0,0.818913493003,-0.573774892581,-0.0119921024935,0.0,-0.00644731023072,0.0116966490151,-0.999910806319,0.0,0.290531295625,-0.226564928647,0.30492559668,1.0,-0.157854285714,-0.207465632653,2.406
-0.534162304536,-0.529901764539,-0.135810156906,-2.64816755007,-0.073463357599,2.10884749153,-0.787262181591,-0.722496987497,0.0188878919728,0.0361398255683,0.0103377794718,0.0113497360186,0.00491118775676,-0.692975672123,0.573848200118,0.818928583121,0.00591319460279,0.0,0.818924638126,-0.573758770881,-0.0120023668248,0.0,-0.00643645791241,0.011730223193,-0.99991048293,0.0,0.287882395844,-0.229987301954,0.30491532416,1.0,-0.147906857143,-0.194391869388,2.423
-0.546641052185,-0.529498175157,-0.135166435064,-2.64790576053,-0.0731568583034,2.10886300807,-0.799221580649,-0.665591228961,0.027771093857,0.0435811846027,0.0151585170805,0.0206867486709,0.00336146288512,-0.647218695332,0.573951920868,0.818855679215,0.00594273088355,0.0,0.818851899949,-0.573861949211,-0.0120322940092,0.0,-0.00644252919358,0.0117724013891,-0.999909948137,0.0,0.285358245254,-0.233236820484,0.304904544512,1.0,-0.137959428572,-0.181318106123,2.44
-0.557446137506,-0.528953996453,-0.134444547971,-2.64757460677,-0.0727824695671,2.10895602302,-0.809803210376,-0.623392926997,0.0362896301743,0.0392413540109,0.0226632137374,0.0175782815,0.00633604119651,-0.610557752356,0.573804610262,0.818958695236,0.00597257412095,0.0,0.818955053113,-0.573714083649,-0.0120630885144,0.0,-0.0064527455768,0.0118133530037,-0.999909399278,0.0,0.283078411262,-0.236180368358,0.304883143387,1.0,-0.128012,-0.168244342857,2.457
-0.565983505112,-0.528457104547,-0.133949770724,-2.64722400022,-0.0725136976682,2.10901279066,-0.817897902302,-0.601512730383,0.0363815210569,0.0338517070903,0.0323998300367,0.0166628281429,0.00705209812902,-0.562012680264,0.573952650474,0.81885474589,0.00600058733169,0.0,0.818851296991,-0.573861658867,-0.0120870508996,0.0,-0.00645415625507,0.011851211792,-0.999908942177,0.0,0.281255955429,-0.238528913712,0.304878699778,1.0,-0.11982,-0.157477714286,2.471
-0.576988956817,-0.527602211575,-0.133110933011,-2.64663868172,-0.0720480758373,2.10917133529,-0.82861783787,-0.52211642136,0.038671783281,0.0392581936184,0.0282428708051,0.0225350885083,0.00446239490756,-0.508558472961,0.573826284381,0.818943159004,0.00602034681578,0.0,0.818939810648,-0.573734945533,-0.0121056066546,0.0,-0.00645984477496,0.0118770456381,-0.999908598919,0.0,0.278970055194,-0.241516726499,0.304867503182,1.0,-0.108117142857,-0.142096816327,2.491
-0.585674423983,-0.526877715269,-0.132444380839,-2.64613196093,-0.0717021287107,2.1092906997,-0.836934659424,-0.503951287519,0.0442905477096,0.0352295283831,0.0255944633079,0.0191206625275,0.00364572541442,-0.477263845636,0.57383369607,0.818938040331,0.00601017928819,0.0,0.818934389667,-0.573742088421,-0.0121337668013,0.0,-0.00648863531582,0.0118849355798,-0.999908318756,0.0,0.277151630805,-0.243869861932,0.304860136867,1.0,-0.0981697142858,-0.129023053061,2.508
-0.593213291256,-0.5261880866,-0.131873451778,-2.64562208375,-0.0713219895597,2.10939843045,-0.84404731914,-0.456720198291,0.0419217872599,0.0315527291946,0.0338471290142,0.0242782793576,0.00619368317046,-0.435786629347,0.573969995282,0.818842113055,0.00606508895696,0.0,0.818839071214,-0.573877920202,-0.0121431074941,0.0,-0.0064627915918,0.011936340971,-0.999907873801,0.0,0.275578596332,-0.245911254576,0.304863342204,1.0,-0.0888074285715,-0.116718334694,2.524
-0.600263958995,-0.525431003616,-0.131167623153,-2.64509096611,-0.070895689096,2.1095409483,-0.850873701973,-0.395879638767,0.0450830042329,0.0393710345842,0.0302954971477,0.0281118921995,0.00901274197606,-0.389471835963,0.573866351666,0.818914612815,0.00608393333699,0.0,0.818911658752,-0.573773922762,-0.0121625498906,0.0,-0.00646941209411,0.0119621123811,-0.999907523011,0.0,0.274152695866,-0.247782195943,0.304857637231,1.0,-0.0788600000001,-0.103644571429,2.541
-0.60667641552,-0.524762210821,-0.130483015829,-2.64459465365,-0.0704939965734,2.10967228071,-0.856962829179,-0.364554331121,0.0376384734659,0.0435554033583,0.0301640418494,0.0199729600521,0.00946420749646,-0.334584774136,0.57384584204,0.818928941092,0.00608982071528,0.0,0.818926163611,-0.57375357597,-0.0121457612823,0.0,-0.00645258324546,0.0119571383376,-0.999907691246,0.0,0.27285896399,-0.249469374608,0.304866678776,1.0,-0.0689125714287,-0.0905708081634,2.558
-0.61208536445,-0.524170395724,-0.129831764455,-2.64413635367,-0.070111407062,2.10980561172,-0.861954767571,-0.319271247622,0.0403949450992,0.0424428510245,0.0286066836934,0.0218454135211,0.00268586120139,-0.292843064376,0.573914949111,0.818880527611,0.00608765858501,0.0,0.818878052074,-0.573823290851,-0.0120960162388,0.0,-0.0064120753291,0.0119273641866,-0.999908307433,0.0,0.271791386599,-0.250878639158,0.304885758886,1.0,-0.0595502857144,-0.078266089796,2.574
-0.617035066927,-0.523543940016,-0.129182899311,-2.6436659994,-0.0696628414305,2.10994651123,-0.866565552535,-0.273374509641,0.0306613188318,0.0327472812594,0.0258101558219,0.0151859963774,0.00699011172285,-0.251906704108,0.573950355341,0.81885534706,0.00613653774972,0.0,0.818853690502,-0.573858817957,-0.012059747305,0.0,-0.0063538045959,0.0119468528482,-0.999908446746,0.0,0.270840998787,-0.252156100181,0.304898040234,1.0,-0.049602857143,-0.0651923265307,2.591
-0.621471311111,-0.522997100205,-0.128443823312,-2.64327190328,-0.0692251325135,2.11005296653,-0.870680948253,-0.230501102834,0.028370660643,0.0469559773598,0.0189758744047,0.0233058192206,0.00123304589812,-0.212522698296,0.573898194573,0.818891901839,0.00613695934058,0.0,0.818890256366,-0.573806676951,-0.0120578778008,0.0,-0.00635279254954,0.0119457205001,-0.999908466705,0.0,0.270011267074,-0.253249877345,0.304903915841,1.0,-0.0390702857144,-0.0513495183675,2.609
-0.624455395266,-0.522637271026,-0.127751416414,-2.64301252288,-0.0688599506165,2.1101283853,-0.873359791956,-0.187143009371,0.0158906580237,0.0480990652384,0.0205768490835,0.0207235058056,0.00362285641093,-0.17035430413,0.573827799836,0.818941512144,0.00609940352782,0.0,0.81893947766,-0.573736646487,-0.0120473776333,0.0,-0.00636676891078,0.0119083918137,-0.999908823072,0.0,0.26949772031,-0.253932578005,0.30491319126,1.0,-0.0302931428572,-0.0398138448981,2.624
-0.627187182272,-0.522351058815,-0.127002954444,-2.64280451718,-0.0684683762301,2.11021622277,-0.875768255699,-0.141875341368,0.0160416942099,0.0416225615074,0.0109002008561,0.0192068320793,0.00343585937454,-0.127989595181,0.573740801073,0.819002775411,0.00605755353013,0.0,0.819000521002,-0.573650449778,-0.0120022901331,0.0,-0.00635511297877,0.0118475711553,-0.999909619714,0.0,0.269052599136,-0.254521145069,0.304928438033,1.0,-0.0203457142858,-0.0267400816328,2.641
-0.629311017322,-0.522097529418,-0.126470823801,-2.64263067029,-0.068134835328,2.11024568232,-0.87755498913,-0.116098851081,0.0119258290437,0.0230875377875,0.00737786185287,0.0137047194161,0.00059284727799,-0.0944940848108,0.573791662026,0.818967005043,0.0060761946311,0.0,0.818964845505,-0.573700946052,-0.0120230289941,0.0,-0.00636066790114,0.0118751322195,-0.999909257452,0.0,0.268693539192,-0.254983416562,0.304929830642,1.0,-0.0196525,-0.025829,2.658
-0.631098285467,-0.521868592592,-0.126128797372,-2.64245301402,-0.067922698226,2.11027683422,-0.879165060578,-0.101628154291,0.0123598751712,0.017759898511,0.0107270041194,0.00688628976317,0.000236121177247,-0.0972228547876,0.573794430446,0.818965009923,0.00608366766089,0.0,0.818962944041,-0.573703675505,-0.0120223084292,0.0,-0.00635574981231,0.0118808607393,-0.999909220676,0.0,0.268370244652,-0.255411037505,0.304937440377,1.0,-0.0193125,-0.0253821428571,2.675
-0.632763930304,-0.521633694521,-0.125929949109,-2.64225692178,-0.0677668744985,2.11034496139,-0.880759405432,-0.0943923606974,0.0128326669314,0.0110487127782,0.00989714618211,0.0107184369449,0.0116694191868,-0.0884024697502,0.573788695625,0.818968840233,0.00610887885357,0.0,0.818967369474,-0.57369833714,-0.0119754999727,0.0,-0.00630302903662,0.0118746075769,-0.999909628676,0.0,0.268052000766,-0.255852745227,0.304950906118,1.0,-0.0189725,-0.0249352857143,2.692
-0.634282834786,-0.521360491076,-0.125784168945,-2.6420736275,-0.0676935938393,2.11040877542,-0.882194839669,-0.088023527542,0.0199516073574,0.0106244310547,0.0109666551048,0.00208591940832,0.00390389937807,-0.0888060699228,0.573794899039,0.818964622825,0.00609157612979,0.0,0.818962850486,-0.573704467725,-0.0119908355909,0.0,-0.00632542749002,0.011869283369,-0.999909550449,0.0,0.267747502935,-0.256270509942,0.304942765909,1.0,-0.0186325,-0.0244884285714,2.709
-0.635640801341,-0.521129634966,-0.125689763962,-2.64192847259,-0.0676668819193,2.11040859863,-0.883562163627,-0.0796770355282,0.0162254211936,0.00408271162299,0.00178120560798,0.00186997353512,-1.64333642826e-05,-0.0835222202379,0.573739650707,0.819003489305,0.00606997652817,0.0,0.819000957534,-0.573648429705,-0.0120688672636,0.0,-0.00640253516576,0.0118959333106,-0.999908742993,0.0,0.267450390584,-0.256643198992,0.304926120931,1.0,-0.0183125,-0.0240678571429,2.725
-0.637013931458,-0.520914294933,-0.125597761597,-2.64177189041,-0.0676334473264,2.11042265047,-0.88489792944,-0.0790718130218,0.0131694216201,0.00339690129374,0.010301533914,-0.000224734144026,0.000667997396984,-0.0795119578775,0.573727665734,0.819012019626,0.00605179150674,0.0,0.819009034034,-0.5736361242,-0.0121056219991,0.0,-0.00644324775039,0.0119020313189,-0.99990840891,0.0,0.267154235625,-0.257024558495,0.304921517384,1.0,-0.0179725,-0.023621,2.742
-0.638416552622,-0.520672472573,-0.125545334996,-2.64157730773,-0.0675974938368,2.11049411614,-0.886415486314,-0.0763970825133,0.0181456359148,-0.000333916698225,0.0131066628937,0.000645732070398,0.00755639909166,-0.086333759599,0.573621906561,0.819086126384,0.00604754328622,0.0,0.819083292296,-0.573530788005,-0.0120723814097,0.0,-0.0064199914634,0.011878652807,-0.999908836503,0.0,0.266859080783,-0.257439064519,0.304928388972,1.0,-0.0176125,-0.0231478571429,2.76
-0.639606297274,-0.520499350207,-0.125548348354,-2.64142991398,-0.0675674515888,2.1105541856,-0.887585709975,-0.0785046091392,0.0118970974676,-0.00102331655618,0.0106875692499,3.56097385516e-05,0.00465761022783,-0.0745471981165,0.573660512553,0.819058942747,0.00606725177146,0.0,0.81905661618,-0.573569767513,-0.0120303029161,0.0,-0.00637365771208,0.0118709609953,-0.999909224266,0.0,0.266594502723,-0.257796870699,0.304936774238,1.0,-0.0173125,-0.0227535714286,2.775
-0.641029084153,-0.52030455132,-0.125563651705,-2.64125606355,-0.0675437737765,2.11055967988,-0.888962035588,-0.0773139075742,0.0123798547033,-0.000483915710817,0.0107850991123,0.000544193158684,-0.000614246268367,-0.0843374778326,0.573728551223,0.819011096142,0.00609268491136,0.0,0.819009036108,-0.573637563288,-0.012037095157,0.0,-0.00636364409229,0.011896218201,-0.999908987872,0.0,0.266263006598,-0.258218615629,0.304944245801,1.0,-0.0169525,-0.0222804285714,2.793
-0.642332860986,-0.520122800614,-0.125561149991,-2.64109840412,-0.0675147215678,2.1105866408,-0.890278131419,-0.0725464996421,0.00862107882059,-0.00225301573695,0.0054519991899,0.0031353735148,0.000726161667251,-0.0724263021511,0.57373728372,0.819004829493,0.00611272762157,0.0,0.8190030818,-0.573646304853,-0.0120256322621,0.0,-0.00634262940293,0.0119061255791,-0.999909003473,0.0,0.265965921213,-0.258602911782,0.304951406846,1.0,-0.0166125,-0.0218335714286,2.81
-0.643510232275,-0.519952862445,-0.125547077901,-2.64093461308,-0.0674907141753,2.11062960235,-0.891402348876,-0.0697945518905,0.00840452310138,0.000360662912056,0.0118429253447,0.00011929341999,0.00438001921935,-0.066739132176,0.573789497413,0.818968214214,0.00611748860652,0.0,0.818966803788,-0.573699005413,-0.0119821693709,0.0,-0.00630354008555,0.0118854918651,-0.999909496137,0.0,0.265707306994,-0.258955256598,0.304967326917,1.0,-0.0162925,-0.021413,2.826
-0.644739179864,-0.519755504938,-0.125499597659,-2.640770523,-0.067464087001,2.11068872763,-0.892688118063,-0.0745826816809,0.0144887550671,0.00121991047992,0.00958170087436,0.000786708996883,-0.000294670451153,-0.0768273991041,0.573729205516,0.819010517205,0.00610887444727,0.0,0.819009206075,-0.573639160648,-0.0119490851883,0.0,-0.00628225778271,0.0118589918852,-0.999909944719,0.0,0.26544435837,-0.259315318208,0.30497545724,1.0,-0.0159525,-0.0209661428571,2.843
-0.645937407489,-0.519545288589,-0.125432482983,-2.64061457184,-0.0674397695096,2.1107239698,-0.893872085823,-0.0682157182267,0.0130916636467,0.00292315688128,0.00985219911459,0.00264132680931,-2.09407163562e-05,-0.0698884287751,0.573711911071,0.819022761459,0.00609148664321,0.0,0.819021162015,-0.573621824434,-0.0119618395788,0.0,-0.00630293055308,0.0118519345,-0.999909898298,0.0,0.265187010922,-0.259657271932,0.304973569016,1.0,-0.0156125,-0.0205192857143,2.86
-0.647016720057,-0.519351507907,-0.125400431627,-2.6404749514,-0.0674158871674,2.11074130544,-0.894989878592,-0.068562760343,0.0105689072547,0.0010456395882,0.00425429346867,0.00408910202397,-0.00076141236576,-0.070976584455,0.573675044591,0.819048569448,0.00609352117304,0.0,0.81904672938,-0.573584455731,-0.0120030886726,0.0,-0.00633608556998,0.0118769796853,-0.999909391582,0.0,0.264930332057,-0.259986611199,0.304964881904,1.0,-0.0152725,-0.0200724285714,2.877
-0.648234752701,-0.519148057664,-0.125355157279,-2.64032715825,-0.0673914846329,2.11077818277,-0.896221731794,-0.0681968297139,0.0126144094422,0.00448964646058,0.0101831795488,0.000382793254859,0.0038257344855,-0.0670609190783,0.57365006215,0.819066100014,0.00608908080792,0.0,0.819064200111,-0.573559493361,-0.0120037732473,0.0,-0.00633955569197,0.0118735419732,-0.999909410414,0.0,0.2646767254,-0.260318510599,0.30496442851,1.0,-0.0149325,-0.0196255714286,2.894
-0.649343991755,-0.518948807175,-0.125339636651,-2.64017871016,-0.0673686975275,2.11083433801,-0.897315857265,-0.0615794342358,0.0139175351392,0.00212400028608,0.00791615882766,0.00168544384498,0.00836500659889,-0.0649588242797,0.573668964851,0.819052828542,0.00609341657526,0.0,0.819051056563,-0.573578507944,-0.0119920335347,0.0,-0.00632717801686,0.0118705052924,-0.999909524868,0.0,0.264431765085,-0.26064880527,0.304963690864,1.0,-0.0145925,-0.0191787142857,2.911
-0.650398169074,-0.518777259661,-0.125344271463,-2.64003352802,-0.0673441132322,2.11086695999,-0.898347537518,-0.0653835363782,0.0082175117143,-0.000119363355771,0.0109196205731,0.00213704489361,0.0021840118491,-0.0515345308854,0.573708706465,0.819024864315,0.00611053697708,0.0,0.819023382086,-0.573618295598,-0.011979042219,0.0,-0.00630613903478,0.0118773821539,-0.999909576114,0.0,0.264192680198,-0.260964876685,0.304969175384,1.0,-0.0142725,-0.0187581428571,2.927
-0.651490326699,-0.518608312711,-0.125340030085,-2.63989946251,-0.0673250673528,2.11090017241,-0.89949475869,-0.0650732944406,0.0096649304866,0.00188508963838,0.00546962194002,0.000323856195256,0.0049332504256,-0.0713722902373,0.57366576916,0.819054893311,0.00611669340105,0.0,0.819053512187,-0.573575381218,-0.0119738522169,0.0,-0.00629897877556,0.0118791170647,-0.999909600636,0.0,0.263960039511,-0.261265862244,0.304970436283,1.0,-0.0139525,-0.0183375714286,2.943
-0.652562921684,-0.518432316861,-0.125324730483,-2.63974493689,-0.0673067337054,2.11093014431,-0.900535677207,-0.0600693995475,0.0094675167867,0.00121369434589,0.00541663568802,0.000275475067244,0.000612961406854,-0.0637603397626,0.57370663546,0.819026225354,0.00612254135327,0.0,0.819025007969,-0.573616380146,-0.011959584064,0.0,-0.0062833439582,0.011876035866,-0.999909735607,0.0,0.26370311674,-0.26160538656,0.304979129359,1.0,-0.0135925,-0.0178644285714,2.961
-0.653531914168,-0.518253035791,-0.125326373125,-2.63959900667,-0.0672882137112,2.11097028169,-0.901501208358,-0.0567074497282,0.00896204228204,0.000695270901285,0.00972598045134,0.000411412534365,0.0020002196456,-0.0675784083776,0.573726136115,0.819012497946,0.00613154532484,0.0,0.819011467852,-0.573635972266,-0.0119471230984,0.0,-0.0062676888406,0.0118764113673,-0.999909829399,0.0,0.263486514925,-0.261899444202,0.304982785799,1.0,-0.0132725,-0.0174438571429,2.977
-0.654534906068,-0.518065946376,-0.125319813524,-2.63946462254,-0.0672665127195,2.11099893446,-0.902523727117,-0.0550134598143,0.00800737018321,0.00225109674705,0.00376534723597,-3.49614987466e-05,0.00483453499815,-0.0552592852467,0.573719993813,0.819016751639,0.00613808880153,0.0,0.819015690292,-0.573629583671,-0.0119643927674,0.0,-0.00627816965017,0.0118916313321,-0.999909582757,0.0,0.263245251164,-0.262212505728,0.30497702672,1.0,-0.0129125,-0.0169707142857,2.995
-0.655628480049,-0.517865657597,-0.125295662523,-2.63932074897,-0.0672532964496,2.11102841124,-0.903579673856,-0.054749036957,0.0133362077165,0.000741047783396,0.00843607553116,0.000857214243891,0.00119173640735,-0.0529785558538,0.573748779057,0.818996582967,0.00613860896519,0.0,0.818995392479,-0.57365810346,-0.011986422886,0.0,-0.0062954978166,0.0119049171614,-0.999909315715,0.0,0.263010767075,-0.262514443558,0.304972181781,1.0,-0.0125525,-0.0164975714286,3.013
-0.656484327274,-0.517711237307,-0.125277862045,-2.63920366967,-0.0672413089985,2.11107017978,-0.904374474796,-0.0584481537063,0.012315360404,0.00171317954656,0.0105683625817,-0.000301682229859,0.000181646304949,-0.0489480292343,0.573797388281,0.818962565541,0.00613354261466,0.0,0.818961372634,-0.573706843774,-0.0119780816995,0.0,-0.00629086626298,0.0118963555163,-0.999909446764,0.0,0.262820824993,-0.262767849941,0.304972456771,1.0,-0.0122525,-0.0161032857143,3.028
-0.657356477057,-0.517548859458,-0.125250361072,-2.63907630234,-0.0672325086281,2.11110293996,-0.905296575963,-0.0574851698913,0.00888020172587,0.00300103007076,0.00901533540943,-0.00022908218972,0.00100965217504,-0.0627739682518,0.573743128326,0.819000656634,0.00612323712154,0.0,0.818999340883,-0.573652659551,-0.0119771751297,0.0,-0.00629682426942,0.0118869779552,-0.999909520786,0.0,0.262617292912,-0.263040067001,0.304973321265,1.0,-0.0119125,-0.0156564285714,3.045
-0.658295332541,-0.517366296983,-0.125219956976,-2.63893311686,-0.0672159036354,2.11113442478,-0.906268430083,-0.055344852433,0.0109961955094,0.000815743890222,0.00687647712173,-7.82015964367e-05,-2.0256579325e-05,-0.0500119120116,0.573713315611,0.819021597905,0.0061155994707,0.0,0.819020174792,-0.573622869922,-0.0119792857537,0.0,-0.0063033673994,0.0118817038555,-0.999909542245,0.0,0.262423574635,-0.263301393545,0.304975092253,1.0,-0.0115725,-0.0152095714286,3.062
-0.659127810542,-0.517212539541,-0.125178453714,-2.63883041593,-0.0672039031681,2.11117923058,-0.907071813737,-0.0561188104923,0.0123308280397,-0.000119533220396,0.00522867024113,0.000483488599111,0.000101336870204,-0.048233661175,0.573718250804,0.819018251363,0.00610078109903,0.0,0.819016635629,-0.573627866275,-0.0119820072136,0.0,-0.00631402611604,0.0118711659869,-0.99990960016,0.0,0.262241505217,-0.263539835204,0.304969873982,1.0,-0.0112525,-0.014789,3.078
-0.659999866969,-0.517054990669,-0.125151499021,-2.63872966633,-0.0671904964441,2.11120988732,-0.907937204722,-0.0540902153601,0.00811537468802,0.000481846269463,0.00612534777571,-0.000113387001447,0.000264736186858,-0.0478121479251,0.573715680413,0.819020077713,0.00609731523086,0.0,0.819018283728,-0.573625060895,-0.0120036383926,0.0,-0.00633376997329,0.0118807169642,-0.999909361854,0.0,0.262042953356,-0.263788959949,0.304960813876,1.0,-0.0109125,-0.0143421428571,3.095
-0.660830239696,-0.516895584361,-0.125144791045,-2.63862773432,-0.0671733729004,2.1112374218,-0.908774040196,-0.0438065894267,0.0128522147502,-0.00159355885054,0.0104500463098,-8.72926201441e-05,0.00282409325736,-0.0471865590265,0.573718384505,0.819018111539,0.00610697580285,0.0,0.819016275918,-0.573627409623,-0.0120283669423,0.0,-0.00634844389477,0.011902836996,-0.999909005726,0.0,0.261850774673,-0.264030867603,0.30495085684,1.0,-0.0105725,-0.0138952857143,3.112
-0.661644477724,-0.516732813955,-0.125145820914,-2.63851670068,-0.067159941096,2.11126759023,-0.909575821754,-0.049159731107,0.0131800203583,-0.00118091825796,0.00685803013782,0.000336125691026,0.00107589143398,-0.0474274575816,0.573740935982,0.819002251312,0.00611535983688,0.0,0.819000410695,-0.573649706467,-0.0120452668291,0.0,-0.00635714867015,0.0119195743714,-0.999908751041,0.0,0.261662995744,-0.264273138178,0.304943826406,1.0,-0.0102325,-0.0134484285714,3.129
-0.66242251254,-0.516577769162,-0.12514812949,-2.63839601631,-0.0671424411651,2.11129603715,-0.910330926882,-0.0437665834892,0.0138432897859,-0.0013368688918,0.00343666114967,0.00057655286094,0.00187922545356,-0.0456635355235,0.573775116955,0.818978229025,0.00612555691606,0.0,0.818976506119,-0.573683808123,-0.0120464776324,0.0,-0.00635179239054,0.0119288859816,-0.999908674036,0.0,0.261486747286,-0.264508074165,0.3049438475,1.0,-0.0098925,-0.0130015714286,3.146
-0.663170945158,-0.516420090287,-0.125127917135,-2.63827227601,-0.0671225601494,2.1113250936,-0.911049898424,-0.0457383570583,0.00825462675135,-0.000112848803787,0.0127499360814,0.00359795782254,0.00110497817946,-0.0508412609856,0.573799817644,0.818960921389,0.00612579873376,0.0,0.818959199233,-0.573708498042,-0.0120472472989,0.0,-0.00635192425145,0.0119297172129,-0.999908663282,0.0,0.261324067344,-0.264730886072,0.304944862264,1.0,-0.0095525,-0.0125547142857,3.163
-0.663805491942,-0.516297882016,-0.125110942594,-2.63819244482,-0.0671042316824,2.11134793737,-0.911707627385,-0.0418766705981,0.00409366929827,-0.000778289585977,0.00757420314982,0.000648303177804,0.00727712884715,-0.0377618648373,0.573780849524,0.818974167823,0.0061315625142,0.0,0.818972415571,-0.573689311592,-0.0120624706916,0.0,-0.00636136249474,0.0119430251845,-0.999908444417,0.0,0.261180394279,-0.264913033545,0.304938402159,1.0,-0.0092525,-0.0121604285714,3.178
-0.664544156884,-0.51614735653,-0.125083100981,-2.6381030489,-0.0670818201052,2.11137503724,-0.91247679379,-0.0395363963724,0.0105837281516,0.0010695440112,0.00179638576678,0.00688893314181,0.00512143382401,-0.0439982892024,0.573750481773,0.818995408042,0.00613621813399,0.0,0.818993523067,-0.573658567259,-0.012091496407,0.0,-0.00638290882136,0.0119632551265,-0.999908065275,0.0,0.261013980115,-0.265122128401,0.304926455859,1.0,-0.0088925,-0.0116872857143,3.196
-0.665229915847,-0.516021920804,-0.125034251991,-2.63801690315,-0.0670633601849,2.11140069959,-0.913128031128,-0.0366072220485,0.0101335841617,0.000855218504806,0.00621476381108,0.000948919607766,0.00465353142531,-0.0374481657022,0.573760346705,0.818988573817,0.00612596178471,0.0,0.818986484219,-0.573668342304,-0.0121044870099,0.0,-0.00639928941713,0.011962384881,-0.999907970987,0.0,0.260855749981,-0.265323909499,0.304921137428,1.0,-0.0085325,-0.0112141428571,3.214
-0.665834444948,-0.515906859486,-0.125014381808,-2.63794175614,-0.0670465290723,2.11141920433,-0.913742389436,-0.0379822977851,0.0076471198922,0.00416159494078,0.000953126408571,0.000178770632688,0.000415286322478,-0.0420924942515,0.573745498509,0.818998955173,0.00612872474376,0.0,0.818996802014,-0.57365329901,-0.0121193121936,0.0,-0.00641006426963,0.0119730372998,-0.999907774474,0.0,0.260728173592,-0.265484446277,0.304916386361,1.0,-0.0082325,-0.0108198571429,3.229
-0.666468903141,-0.515792135066,-0.125012463925,-2.63786006666,-0.067022873429,2.11144311275,-0.914351404161,-0.034937777036,0.00280741299835,0.000627921023809,0.00247343361285,0.00307984135148,0.0015509850245,-0.0297089447041,0.573779366271,0.818975105794,0.00614506568131,0.0,0.818973125419,-0.573687011829,-0.0121234978963,0.0,-0.0064036218936,0.011989087414,-0.999907623438,0.0,0.260581895277,-0.265669735882,0.304913252995,1.0,-0.0078925,-0.010373,3.246
-0.667100023912,-0.515671696978,-0.125002022227,-2.63777379283,-0.0669986566574,2.11146549741,-0.915015292711,-0.0403920052576,0.00742359837493,0.0016024277521,0.00343225310002,0.00116869555795,0.000748077157994,-0.0391376481113,0.573759981731,0.818988588328,0.0061581208804,0.0,0.818986719423,-0.573667463245,-0.0121302070481,0.0,-0.00640191081924,0.0120034776961,-0.999907461749,0.0,0.260438994676,-0.265853060638,0.304910160151,1.0,-0.0075325,-0.00989985714286,3.264
-0.667610986064,-0.515603727344,-0.124989469264,-2.63771600718,-0.0669734004899,2.11147898883,-0.91551770403,-0.0380436429953,0.00870107640521,0.00106941424499,0.0057061278501,0.00399092422226,0.00268794808487,-0.0364898411999,0.573771822644,0.818980188783,0.00617193832164,0.0,0.818978537517,-0.573679310384,-0.0121223275829,0.0,-0.00638735578865,0.012010366249,-0.999907472114,0.0,0.260321848304,-0.265996687567,0.304912781766,1.0,-0.0072325,-0.00950557142858,3.279
-0.668207036768,-0.515524647348,-0.124967195084,-2.63763268895,-0.066953094595,2.11149422742,-0.916073743838,-0.032755000526,0.00437691409486,-5.30228825098e-05,0.00436987001235,0.000347810477832,-0.000150688677624,-0.0264673831699,0.573801630513,0.818959291993,0.00617363592755,0.0,0.818957812331,-0.573709385709,-0.0120991434729,0.0,-0.00636695568035,0.0119986866378,-0.999907742441,0.0,0.260189472228,-0.266167516373,0.30492327295,1.0,-0.00687250000001,-0.00903242857144,3.297
-0.668721298702,-0.515432342442,-0.124923913116,-2.63753931604,-0.066928365165,2.11151330107,-0.916574824194,-0.03197604334,0.00487669657584,0.00112518829383,0.00174946005883,0.00158654452551,0.000374721040872,-0.0229049661218,0.573796945087,0.818962627511,0.00616664009139,0.0,0.818961211157,-0.573705023256,-0.0120759187079,0.0,-0.0063520160136,0.0119795949461,-0.999908066373,0.0,0.260086430251,-0.266314985954,0.304934270926,1.0,-0.00653250000001,-0.00858557142858,3.314
-0.669186165821,-0.515344219264,-0.124868850615,-2.63745112418,-0.0669042168159,2.11154379764,-0.917036763494,-0.0251650286218,0.000786542837434,0.00372136058645,0.0056450205783,-4.97954088338e-05,0.000262785441,-0.0328880332201,0.573774969625,0.818978134126,0.0061519880781,0.0,0.818976749162,-0.573683535285,-0.012042947175,0.0,-0.00633373808117,0.0119485068924,-0.999908554291,0.0,0.25999975022,-0.266447453001,0.304945707408,1.0,-0.00621250000001,-0.00816500000001,3.33
-0.669656519324,-0.51525059961,-0.124836232784,-2.63737192808,-0.0668831707258,2.11157208961,-0.917517635133,-0.027789998843,0.00469673926963,0.000250467086737,0.00325043463988,0.00162416447113,0.000338139839633,-0.0302269876017,0.573756221085,0.818991298406,0.00614807310359,0.0,0.818989971267,-0.573665012853,-0.0120260921772,0.0,-0.00632245213774,0.0119354852115,-0.999908781235,0.0,0.25990375992,-0.26658370007,0.304950307789,1.0,-0.00587250000001,-0.00771814285715,3.347
-0.670105231531,-0.515162161578,-0.124798250431,-2.63730511416,-0.0668597440822,2.11159472002,-0.917972361885,-0.0273033564913,0.00509953520852,0.00364857086024,0.00617699207134,0.000222782574725,0.000426067183254,-0.0270356096178,0.573737772948,0.819004239943,0.00614570976796,0.0,0.819002908917,-0.573646629465,-0.0120219212374,0.0,-0.00632066046393,0.0119310142036,-0.999908845921,0.0,0.259811340309,-0.266708944403,0.304950838505,1.0,-0.00553250000001,-0.00727128571429,3.364
-0.670498805416,-0.51509774314,-0.124782155723,-2.63726431324,-0.0668344989162,2.11160742858,-0.918384056185,-0.0267792537452,0.000518866582207,0.000309308584458,-7.17536556666e-05,0.00338267632674,0.00150783439772,-0.0233952234075,0.573724442682,0.819013475486,0.00615936216505,0.0,0.819012263566,-0.57363313283,-0.0120286303925,0.0,-0.00631851781921,0.0119459424135,-0.999908681227,0.0,0.259721987098,-0.266816565749,0.304947061178,1.0,-0.00521250000001,-0.00685071428572,3.38
-0.670902389948,-0.515032074032,-0.124773563307,-2.63722984977,-0.0668198175701,2.11162007651,-0.918791550607,-0.0243960810585,0.000116790277612,0.000214168193196,0.00167604560218,0.000633823598348,0.000100720307212,-0.0214852207292,0.573723288279,0.819014212407,0.00616889482294,0.0,0.819013018093,-0.573631736209,-0.012043849457,0.0,-0.00632553181565,0.0119624723959,-0.999908439259,0.0,0.259625812103,-0.266927733405,0.30493975423,1.0,-0.00487250000001,-0.00640385714286,3.397
-0.671309431727,-0.514976649981,-0.124766782262,-2.63720387435,-0.0667984981294,2.11162996309,-0.919169770251,-0.0199594924291,0.00233738926806,-0.00139922012744,9.74549867061e-05,0.000302733443494,0.000232430240285,-0.0209716007649,0.57375262772,0.818993532055,0.00618575286511,0.0,0.818992445042,-0.573660783759,-0.0120593135492,0.0,-0.00632809779656,0.0119853784564,-0.999908148722,0.0,0.259526759351,-0.267037057617,0.304932100192,1.0,-0.00451250000001,-0.00593071428572,3.415
-0.671651907757,-0.514925150376,-0.12474556592,-2.63715775961,-0.0667853147018,2.11163182245,-0.919488571669,-0.0243072667106,-0.000558787622079,0.00141241733368,0.00140608043996,0.000719308111191,0.000112512053792,-0.0180750278528,0.573764924651,0.818984919872,0.00618539920059,0.0,0.818983821242,-0.573673066326,-0.0120606971903,0.0,-0.00632925405388,0.011985977655,-0.999908134222,0.0,0.259450757018,-0.267131479856,0.304934691625,1.0,-0.00419250000001,-0.00551014285715,3.431
-0.671998261251,-0.51488611156,-0.124726120217,-2.63711874344,-0.066767126298,2.11163778531,-0.91981064827,-0.0206843417449,0.000787495702388,0.00235749636373,0.00209343746076,0.00567171560202,8.06088764612e-06,-0.0259117024213,0.5737807209,0.818973817835,0.00619006671953,0.0,0.81897283237,-0.573688938121,-0.0120519300862,0.0,-0.00631916405521,0.0119848923532,-0.999908211048,0.0,0.259373064392,-0.267225721248,0.304938971592,1.0,-0.00385250000001,-0.00506328571429,3.448
-0.672298707043,-0.514832881629,-0.124700233893,-2.63706929325,-0.0667540120048,2.11164512915,-0.920091261128,-0.0176244029412,0.00296757523028,0.00469205384403,7.1041136523e-05,0.00355088828265,0.000546588654253,-0.0160017801771,0.573786676332,0.818969678298,0.00618570891124,0.0,0.81896867426,-0.573694983618,-0.0120467113058,0.0,-0.0063173027378,0.0119783748881,-0.999908300906,0.0,0.259310831424,-0.267309835919,0.304943014669,1.0,-0.00351250000001,-0.00461642857144,3.465
-0.672560930632,-0.514778001566,-0.124679147735,-2.63702723492,-0.0667396348658,2.11165368152,-0.92035973887,-0.0169461119413,0.00146873922529,0.00337652962887,-0.000184392085788,0.000334758997513,-0.000505926612254,-0.014122055417,0.573774886424,0.81897793761,0.00618581588341,0.0,0.818976919045,-0.573683165579,-0.012049004225,0.0,-0.00631929185875,0.0119796871108,-0.999908272617,0.0,0.259256325836,-0.267383144,0.304943080852,1.0,-0.00319250000001,-0.00419585714286,3.481
-0.672811338436,-0.514725020429,-0.12465678488,-2.63699251955,-0.0667297704943,2.11167149165,-0.920611788396,-0.0169854483001,0.00514228384572,0.00303913705979,-0.000290327807233,2.84403905875e-05,0.00217762306597,-0.0129670369264,0.573766243553,0.81898403831,0.00617977782285,0.0,0.818982952656,-0.573674572632,-0.0120480237518,0.0,-0.00632207946407,0.0119741125572,-0.999908321767,0.0,0.259201767163,-0.267458007546,0.304941798736,1.0,-0.00283250000001,-0.00372271428572,3.499
-0.67305719045,-0.514687221316,-0.124627667963,-2.63697322761,-0.0667160363,2.11168560404,-0.920835595926,-0.0154390548542,0.000237886866952,0.00143952108666,0.000165439856612,0.00011517246848,0.000576772168477,-0.0142667971509,0.573767956344,0.818982849436,0.00617830922044,0.0,0.818981728666,-0.573676261151,-0.0120508259049,0.0,-0.00632519218335,0.0119745306641,-0.999908297075,0.0,0.259152373437,-0.267515517927,0.304938023984,1.0,-0.00249250000001,-0.00327585714286,3.516
-0.673237270409,-0.514662601421,-0.124597881526,-2.63696055358,-0.0667091663304,2.1116967169,-0.921027134526,-0.0095531450098,0.00179032098039,0.00247433785303,0.00104346600898,-0.000675509236521,0.000409766229395,-0.0114275154807,0.573741016875,0.819001787449,0.00616965252444,0.0,0.819000559722,-0.573649375917,-0.0120508748795,0.0,-0.0063305926299,0.0119672604853,-0.999908349937,0.0,0.259115528757,-0.267559591188,0.304936336534,1.0,-0.00219250000001,-0.00288157142858,3.531
-0.673465019788,-0.514633529604,-0.124576646765,-2.63693310349,-0.0666902761519,2.1117069124,-0.921216772848,-0.00687431522348,0.00486121188003,-0.00111522582549,0.000869750721558,0.00470830678654,0.000102179768506,-0.0127380000614,0.573766585939,0.818983848032,0.00617320209123,0.0,0.818982733546,-0.573675050959,-0.0120401396269,0.0,-0.00631938952603,0.0119642060794,-0.999908457354,0.0,0.259068175976,-0.267620312961,0.304939444378,1.0,-0.00181250000001,-0.00238214285715,3.55
-0.673639978892,-0.514625272561,-0.124552168939,-2.63691096132,-0.0666826004007,2.11171245201,-0.92137254025,-0.0128073315576,0.00123399404245,-0.000443877771911,0.00291770492228,-1.62623924856e-05,3.96280014317e-05,-0.00947466251182,0.573769225212,0.818982056813,0.00616552662814,0.0,0.818980977763,-0.573677979008,-0.0120200401574,0.0,-0.00630729179045,0.0119464081598,-0.999908746538,0.0,0.259033184394,-0.26766607113,0.304947502452,1.0,-0.00149250000001,-0.00196157142858,3.566
