nelsonifechukwu/NELSON_IML_WORK/CNN-GradCAM/train2dof/data_sample_2022-02-21-08-13-04/robot_state.csv
position_joint1,position_joint2,position_joint3,position_joint4,position_joint5,position_joint6,position_joint7,velocity_joint1,velocity_joint2,velocity_joint3,velocity_joint4,velocity_joint5,velocity_joint6,velocity_joint7,ee_T_00,ee_T_10,ee_T_20,ee_T_30,ee_T_01,ee_T_11,ee_T_21,ee_T_31,ee_T_02,ee_T_12,ee_T_22,ee_T_32,ee_T_03,ee_T_13,ee_T_23,ee_T_33,v_x,v_y,time
0.465066952915,0.547548501241,-0.12399453607,-1.35573652436,0.0794347799612,1.8941001853,0.159143266271,-0.000824374794522,-0.000314816106328,0.00484303754323,0.000179970978244,0.000160095460901,-8.71474855504e-05,-0.0003525511427,0.573779443927,0.818995175106,0.00219084037671,0.0,0.818955879648,-0.573720645154,-0.0116891152406,0.0,-0.00831655874851,0.00850133932777,-0.999929278539,0.0,0.661712103559,0.260886510394,0.303425186708,1.0,0.0,0.0,0.0
0.465066952915,0.547551375611,-0.123994454238,-1.35573900353,0.0794340542543,1.89409979381,0.159146188103,-0.000263229630354,0.000896875082215,0.00157653762521,-0.000790895499579,-0.000104922833895,4.88054237135e-05,6.18162082727e-05,0.573781726207,0.818993590327,0.00218553782331,0.0,0.818954229347,-0.573722950374,-0.011691593104,0.0,-0.00832160682146,0.00849844153845,-0.999929261174,0.0,0.661711403004,0.26088608067,0.303421932176,1.0,-8e-05,-0.000105142857143,0.005
0.465070037992,0.54754645045,-0.123996959988,-1.35573903002,0.0794387021951,1.89409990004,0.159146882689,0.00158935350455,-0.000680561439662,-0.000372250208573,-0.000494651075099,0.000330336436672,0.000220289435714,0.000740777066219,0.573782742605,0.818992861308,0.00219187521407,0.0,0.818953553925,-0.573723913639,-0.0116916351873,0.0,-0.00831799467653,0.00850366622152,-0.99992924681,0.0,0.661711058,0.260887494724,0.303425509482,1.0,-0.00032,-0.000420571428571,0.017
0.465066273718,0.547541213625,-0.123994682159,-1.35574330248,0.0794380876243,1.89410186394,0.159146032053,-6.20336132691e-05,-0.00169375038396,0.000667205196871,0.0010628492131,0.000198620526853,-0.000163652858499,-0.00571466228105,0.573783611532,0.81899224473,0.0021947916946,0.0,0.818952967687,-0.573724763864,-0.0116909771581,0.0,-0.00831577338347,0.00850568602866,-0.999929248106,0.0,0.661711102198,0.260885917934,0.303427279799,1.0,-0.00066,-0.000867428571429,0.034
0.465068409629,0.547496613448,-0.1239941211,-1.35578492053,0.0794350318868,1.89411086777,0.159141354135,0.000894271207596,-0.00301175411099,0.000722276315217,-9.89226541281e-05,0.0005656916156,0.00368036815366,0.000320445850824,0.573779082954,0.818995388425,0.00220558487881,0.0,0.818956245104,-0.573720189022,-0.0116858980852,0.0,-0.0083054679738,0.00851156527143,-0.999929283729,0.0,0.66170402118,0.260883418991,0.303439822994,1.0,-0.001,-0.00131428571429,0.051
0.465065891179,0.547353886489,-0.123990200715,-1.3559306041,0.0794348260477,1.89413178121,0.15914099716,-0.00389819910501,-0.0100635405886,-0.000220693602944,-0.0114225040092,0.000379262164255,2.04003977575e-05,-0.000950617072641,0.573785899145,0.818990549446,0.00222907208217,0.0,0.818951575304,-0.573726777615,-0.0116896901251,0.0,-0.00829502710063,0.0085330457399,-0.999929187321,0.0,0.661678330417,0.260869989687,0.30347327032,1.0,-0.00134,-0.00176114285714,0.068
0.465059577943,0.547231462255,-0.123994708618,-1.35610977151,0.0794277910945,1.89417383516,0.159136809017,-0.000813709883601,-0.00514672610169,0.000349125900544,-0.0119554548858,-0.000656643418906,0.00826144861129,0.000296982122706,0.57379878231,0.818981552188,0.00221844473281,0.0,0.818942398597,-0.573739656212,-0.0117004944602,0.0,-0.00830983938619,0.00853067216619,-0.999929084586,0.0,0.661651949033,0.260845256095,0.303478495863,1.0,-0.00166,-0.00218171428571,0.084
0.46504212914,0.547050964771,-0.123995191892,-1.35632352735,0.0794223469153,1.89429587085,0.159133694183,-0.0024121253893,-0.008420061283,-0.000233433355666,-0.0157361674531,0.000270644871202,0.0135143254984,0.00139501241855,0.573821585582,0.818965358297,0.00229711355305,0.0,0.818927218666,-0.573762158903,-0.0116594356447,0.0,-0.00823083552794,0.00857176969472,-0.999929386562,0.0,0.661637012288,0.260817846864,0.303515211148,1.0,-0.002,-0.00262857142857,0.101
0.465018337037,0.546857097376,-0.123997730419,-1.35653544676,0.0794201844655,1.89440817902,0.159118940204,-0.00528877678134,-0.0120548353694,-0.00155367432904,-0.0130575607008,0.000167975936897,0.00694258402113,-0.00100076633525,0.573842156014,0.818950700591,0.00238262109216,0.0,0.818913634685,-0.573782382119,-0.0116182528063,0.0,-0.00814782714036,0.00861837006848,-0.999929665832,0.0,0.66162284016,0.260785314014,0.303561492948,1.0,-0.00234,-0.00307542857143,0.118
0.464994102462,0.546656508973,-0.12399244298,-1.35681103981,0.0794107095558,1.89454953434,0.159107282829,0.000546557290146,-0.0099399559698,5.87433050583e-05,-0.0156112767262,-1.24645747652e-05,0.00649529626475,-0.00293101803102,0.573861881282,0.818936700719,0.002443016154,0.0,0.818900381238,-0.573801853792,-0.0115907330826,0.0,-0.00809042527736,0.00865223333442,-0.999929839477,0.0,0.661598755814,0.260750333552,0.303584468636,1.0,-0.00268,-0.00352228571429,0.135
0.464955214324,0.546387537238,-0.123997787527,-1.35719003249,0.0793961566846,1.89467147211,0.159080015415,-0.00300383164204,-0.0161944803085,-0.00230789415172,-0.0232687196881,-0.000611129333323,0.00968232999021,-0.00243699932247,0.573892304839,0.818915337529,0.00245750027583,0.0,0.81887913829,-0.573832150949,-0.0115916483616,0.0,-0.00808254157531,0.00866492032993,-0.999929793374,0.0,0.661555407458,0.260685977603,0.303605293316,1.0,-0.00302,-0.00396914285714,0.152
0.46492173833,0.546122012262,-0.123995901327,-1.35759405377,0.0793751676343,1.89481655171,0.158967250258,-0.00298066594242,-0.0229731895731,-8.54543254339e-05,-0.0283855985947,-0.00419153786771,0.0104967771797,-0.0072759079832,0.573843045394,0.818949829616,0.00246631820247,0.0,0.818913693044,-0.573782811531,-0.0115929046049,0.0,-0.00807903180499,0.00867237640096,-0.999929757099,0.0,0.661508106969,0.260626902912,0.303613507277,1.0,-0.00334,-0.00438971428571,0.168
0.464876390325,0.545835508136,-0.123995399268,-1.35808454435,0.0793327745536,1.89497764993,0.158919833861,-0.00318272230148,-0.017769844725,0.000859979065782,-0.0250839453792,-0.00322214464573,0.0104855823951,-0.000163461163731,0.573857103211,0.818940109875,0.00242248510208,0.0,0.818903483335,-0.573797104457,-0.0116066704619,0.0,-0.00811530929102,0.00864451821136,-0.999929704559,0.0,0.661449288266,0.260546803547,0.303596794942,1.0,-0.00368,-0.00483657142857,0.185
0.464817170215,0.545506020891,-0.123995399268,-1.35863844368,0.0792684127682,1.89517013226,0.158875569144,-0.00298810725001,-0.0210167217983,0.000344928862897,-0.0369972535369,-0.00334669425884,0.00996541788377,-0.000354215583929,0.573883186596,0.81892196386,0.00237742534471,0.0,0.818885002311,-0.573823607685,-0.0116003083894,0.0,-0.00813568117636,0.00860422556089,-0.999929886539,0.0,0.661388216054,0.260448853901,0.303583016716,1.0,-0.00402,-0.00528342857143,0.202
0.464759937296,0.545133760103,-0.123992482151,-1.35926868308,0.0792534884678,1.89537658795,0.158778339876,-0.00422906936328,-0.0186277273093,0.00147797304068,-0.0401605699873,-0.000336812490811,0.015047647569,-0.00833088782933,0.573879510762,0.818924627211,0.00234712084771,0.0,0.818887017454,-0.573819771326,-0.0116477285933,0.0,-0.00819194516837,0.00860658528066,-0.99992940687,0.0,0.661309504827,0.260354365976,0.30356436428,1.0,-0.00436,-0.00573028571429,0.219
0.464693541546,0.544753225807,-0.123998566832,-1.35991757136,0.0792304947411,1.89558587768,0.158682322888,-0.00608015003189,-0.0270596245716,-0.00196993172777,-0.0412063676218,-0.00647481383427,0.0120724987896,-0.00359957602849,0.573889483643,0.81891775982,0.00230436892241,0.0,0.818879437235,-0.573829733418,-0.0116897913042,0.0,-0.00825082115701,0.00859581411787,-0.999929015446,0.0,0.661232121372,0.260245390026,0.303543190017,1.0,-0.00468,-0.00615085714286,0.235
0.464630698383,0.544332956176,-0.124007203152,-1.36064490206,0.079196150659,1.89583255449,0.158618356887,-0.00162995675908,-0.0286716803284,-0.00125090382076,-0.0477417734567,7.20756857173e-05,0.0137569149009,-0.0122330138823,0.573925985379,0.818892315859,0.00225504661466,0.0,0.818853276477,-0.573866334864,-0.0117255367917,0.0,-0.00830801659738,0.00857630768678,-0.999928709362,0.0,0.661145422813,0.260129200702,0.303516080262,1.0,-0.00502,-0.00659771428571,0.252
0.464561529482,0.543853948453,-0.124004159495,-1.36141508373,0.0791586487605,1.89611083418,0.158506569473,-0.00343509767311,-0.0290726498179,-0.000374993493538,-0.0479797242464,-0.00254951734319,0.0206448349487,-0.004801167926,0.573921886866,0.818895203729,0.00224944122389,0.0,0.81885598034,-0.573862143265,-0.0117418434938,0.0,-0.00832463043306,0.00858103458337,-0.999928530633,0.0,0.661055766619,0.2600129224,0.30351245144,1.0,-0.00536,-0.00704457142857,0.269
0.464479098593,0.54335507519,-0.124005935213,-1.36224183901,0.0791090164083,1.89639749651,0.158413985354,-0.00443720726318,-0.0309852629561,0.00090499518766,-0.0499791998949,-0.0010905414988,0.0194096561329,-0.00546376563887,0.57394757247,0.818877299474,0.00221345047299,0.0,0.818837582166,-0.573887935561,-0.0117642828708,0.0,-0.00836339268633,0.00856470292618,-0.999928347196,0.0,0.660960403913,0.259877241802,0.303496764083,1.0,-0.0057,-0.00749142857143,0.286
0.464408123415,0.542774476858,-0.12401686778,-1.36316176267,0.079053149931,1.89671962675,0.158288146042,-0.00375322310406,-0.0343946719224,0.00265702846504,-0.0504922545401,-0.00249495397288,0.0174439940749,-0.00628144095446,0.573946495534,0.818878100902,0.00219613953795,0.0,0.818838181659,-0.573886948699,-0.0117706954381,0.0,-0.00837859022212,0.00855419699741,-0.9999283099,0.0,0.660852154134,0.25973524896,0.303497852155,1.0,-0.00606,-0.00796457142857,0.304
0.46434035316,0.54227109475,-0.124014812474,-1.36395987234,0.079004185082,1.89700683999,0.158178094107,-0.00689428917926,-0.0330451004383,0.000336614746743,-0.0497260344451,-0.00656378759636,0.018695109341,-0.00483951730878,0.573942379932,0.81888099476,0.00219267857845,0.0,0.818841028086,-0.573882844411,-0.0117727870763,0.0,-0.00838233235856,0.008552521277,-0.999928292871,0.0,0.66075311261,0.259608208095,0.303500310305,1.0,-0.00638,-0.00838514285714,0.32
0.464258192556,0.541618748001,-0.12402234653,-1.36494836185,0.0789423070412,1.89737534454,0.158055943151,-0.00246556961324,-0.0358081412475,-0.00129028733847,-0.0566093827665,-0.00464432657423,0.0227584192918,-0.00655780007607,0.573952603478,0.818873771439,0.00221411643196,0.0,0.818834116157,-0.573893018073,-0.0117575901292,0.0,-0.008357477118,0.00856145837155,-0.999928424442,0.0,0.660647906889,0.259462677806,0.303521735976,1.0,-0.00672,-0.008832,0.337
0.464174552256,0.540989295289,-0.124023292063,-1.365939942,0.0788849740547,1.89774485324,0.157921387919,-0.0039269659268,-0.0402138251472,-0.00193593478409,-0.0564634595873,-0.000317500110005,0.0269993678022,-0.00403232921151,0.573951305726,0.818874662481,0.00222096920439,0.0,0.818835071313,-0.573891668784,-0.0117569294361,0.0,-0.00835301672226,0.00856667741314,-0.999928417013,0.0,0.660534500863,0.259313239432,0.303526814009,1.0,-0.00706,-0.00927885714286,0.354
0.464098486438,0.540330072092,-0.124020957946,-1.36693910492,0.0788267408266,1.89811175973,0.157810668605,-0.00308746989706,-0.0495150697518,0.00121006846813,-0.0703231945256,-0.00305200484704,0.0197233071738,-0.00864814873811,0.573961045574,0.818867768246,0.00224570544516,0.0,0.818828457683,-0.573901271474,-0.0117488037464,0.0,-0.0083320639111,0.0085823684458,-0.999928457272,0.0,0.660416771387,0.259169884119,0.30354889494,1.0,-0.00738,-0.00969942857143,0.37
0.463996215671,0.539618892527,-0.124026491619,-1.36804942962,0.0787601559633,1.89852609622,0.157662551148,-0.00723282579574,-0.0430672474869,-0.00296401669684,-0.0674326038242,-0.00492893738038,0.01954205335,-0.00961553817417,0.573971067001,0.81886071284,0.00225701436566,0.0,0.818821565744,-0.57391126596,-0.0117409189513,0.0,-0.00831901145675,0.00858720514518,-0.999928524424,0.0,0.660293058635,0.25899402334,0.303559049444,1.0,-0.00772,-0.0101462857143,0.387
0.463893698478,0.538868269832,-0.124029692384,-1.36919990208,0.0786968020083,1.89896451119,0.157517359786,-0.0097300399378,-0.0466737112214,-0.000741418615122,-0.0698791794002,-0.00210030284395,0.0252476677428,-0.00267633838601,0.573985083828,0.81885079105,0.00229182055008,0.0,0.818812064742,-0.573925117912,-0.0117264045765,0.0,-0.00828700183466,0.00860751735185,-0.999928615575,0.0,0.660165032063,0.258817272135,0.303579864536,1.0,-0.00806,-0.0105931428571,0.404
0.463778298663,0.538094046565,-0.124026612622,-1.3704084249,0.0786250337433,1.89942461198,0.157372436525,-0.00846435612352,-0.0532230907669,-8.22391781094e-05,-0.0724875250564,-0.0021083112207,0.0220160680685,-0.0107667929612,0.574006339216,0.818835828748,0.00231408713408,0.0,0.818797372336,-0.573946267649,-0.0117171587179,0.0,-0.00826642685008,0.00862065782081,-0.999928672679,0.0,0.660030641275,0.25862920448,0.303591257385,1.0,-0.0084,-0.01104,0.421
0.463686814145,0.537360461328,-0.124039260269,-1.3715769554,0.0785608630328,1.89986319623,0.157224155272,-0.00507153923855,-0.0431463649645,0.00142809870644,-0.070994725167,-0.00415385460943,0.0199918935535,-0.00955494633802,0.574016035691,0.818829024571,0.00231650423939,0.0,0.818790598972,-0.573955953354,-0.0117160379841,0.0,-0.00826401966319,0.00862209157332,-0.999928680215,0.0,0.659896890191,0.258451789924,0.303591520958,1.0,-0.00872,-0.0114605714286,0.437
0.463573392044,0.536531957456,-0.124040287617,-1.37287741802,0.0784815616381,1.90035541592,0.157064287592,-0.00347985083385,-0.0472964054329,0.000729697826311,-0.0760494732871,-0.00617679229111,0.02879784867,-0.0029211545259,0.574029152383,0.818819785513,0.00233194492186,0.0,0.818781572707,-0.573969024124,-0.0117065128178,0.0,-0.00824721894795,0.0086293993034,-0.999928755886,0.0,0.659749350637,0.258253434254,0.303600122815,1.0,-0.00906,-0.0119074285714,0.454
0.463451909462,0.535672564929,-0.124053499178,-1.37422359521,0.0783941676575,1.90085382485,0.156901376423,-0.00785613355331,-0.0500562037829,-0.00115107308191,-0.0821215665601,-0.00650515158406,0.0276118719354,-0.00681426584543,0.574060525945,0.818797788078,0.00233274324722,0.0,0.818759649888,-0.574000458116,-0.0116985768274,0.0,-0.00823993178155,0.00862581328433,-0.999928846903,0.0,0.659588706103,0.258023662649,0.3036055567,1.0,-0.00942,-0.0123805714286,0.472
0.463330947731,0.534778250254,-0.12404930269,-1.37563370014,0.0783269216982,1.90136190382,0.156735570356,-0.00691859031819,-0.0557536462515,-6.77892784123e-05,-0.0819086888114,-0.00341566542614,0.0258983243588,-0.0137742516679,0.574074716259,0.818787822203,0.00233864605759,0.0,0.818749588904,-0.57401444506,-0.0117164172919,0.0,-0.00825100203688,0.00864103079729,-0.999928624229,0.0,0.659429611246,0.257827412882,0.303613295109,1.0,-0.00974,-0.0128011428571,0.488
0.463214063537,0.533931705159,-0.124058124615,-1.37701880325,0.078241245744,1.90186894503,0.156564136841,-0.00743907450261,-0.051874910741,0.000972843399007,-0.0834288132098,-0.00570308714315,0.024529719816,-0.00896678941908,0.57408798983,0.818778627651,0.0022990727866,0.0,0.818739927053,-0.574027912914,-0.0117317494463,0.0,-0.00828613329199,0.00861756505723,-0.99992853623,0.0,0.659257504316,0.257597629949,0.303591357866,1.0,-0.01008,-0.013248,0.505
0.463079904098,0.532969194658,-0.124058863916,-1.37859627045,0.078156940466,1.902458402,0.156371697533,-0.010459353535,-0.0506633190654,0.000248856099486,-0.0909518178882,-0.0032618185207,0.0360074484088,-0.0152755984821,0.574105799864,0.818766167613,0.00228915628179,0.0,0.818727215069,-0.574045630089,-0.0117519692693,0.0,-0.00830819463886,0.00862123425024,-0.999928321542,0.0,0.659083109332,0.257375346745,0.303574465896,1.0,-0.01042,-0.0136948571429,0.522
0.462944553749,0.532010558198,-0.124062048149,-1.38013412645,0.0780623362182,1.90304896851,0.156178726099,-0.0117356211898,-0.055174728744,-0.000196758974928,-0.0955456473126,-0.00600828711886,0.0378836285074,-0.0116527541216,0.574119592187,0.818756480226,0.00229496321116,0.0,0.818717640332,-0.574059437469,-0.0117445545814,0.0,-0.00829864465549,0.00862187174932,-0.999928395349,0.0,0.658908662123,0.257139104741,0.303569595318,1.0,-0.01076,-0.0141417142857,0.539
0.462825905595,0.531069411386,-0.124059664859,-1.38163169247,0.0779656417556,1.90358439974,0.155988898187,-0.00981416335632,-0.062031985804,-0.000879111518496,-0.097352875516,-0.00365944872503,0.0268333922656,-0.0146505901365,0.5741151289,0.818759668095,0.0022741085227,0.0,0.818720552581,-0.574055048558,-0.0117560583753,0.0,-0.00832008316242,0.00861135615112,-0.999928307811,0.0,0.658726283041,0.256917622015,0.303566390757,1.0,-0.01108,-0.0145622857143,0.555
0.462681392581,0.529994773955,-0.124064515589,-1.38337095807,0.0778732350303,1.90418728683,0.155754937718,-0.00605505035093,-0.0595681980756,-0.00117322896754,-0.0925282155733,-0.00504069029611,0.0349222642148,-0.00828721689452,0.574114891891,0.818759961778,0.00222773402885,0.0,0.818720069888,-0.574054810144,-0.0118012293615,0.0,-0.00838369407807,0.00859931764236,-0.999927880104,0.0,0.658512074693,0.256653251981,0.303548103259,1.0,-0.01144,-0.0150354285714,0.573
0.462542009737,0.529012404737,-0.124062060179,-1.38491179922,0.0777679391167,1.90476230463,0.155549216436,-0.00899797025725,-0.0624248148394,0.000467778876318,-0.0905814106781,-0.00143195248419,0.0349267439475,-0.0109339094312,0.574114127404,0.818760477821,0.00223507810854,0.0,0.818720760832,-0.574054098956,-0.0117878817215,0.0,-0.00836855704178,0.00859765980963,-0.999928021159,0.0,0.658333498717,0.256414905883,0.303556322597,1.0,-0.01176,-0.015456,0.589
0.462400292317,0.527926401235,-0.124057157059,-1.38662285653,0.077659875117,1.90542923142,0.155314008832,-0.00993939017997,-0.059689227277,0.00180990337038,-0.101947917131,-0.00419529955539,0.0381037972749,-0.01477676121,0.574097919395,0.81877175376,0.00226739769245,0.0,0.818732492571,-0.574037806166,-0.0117664609098,0.0,-0.00833263426666,0.00861165869249,-0.999928200693,0.0,0.658135919604,0.256163400041,0.303564172141,1.0,-0.0121,-0.0159028571429,0.606
0.462268935126,0.526826684038,-0.124061931074,-1.38828098358,0.0775509336373,1.90605711659,0.155084241671,-0.00817591282894,-0.0714989560235,-0.00156873011223,-0.105513665097,-0.00738888575749,0.0418136147772,-0.0162506110245,0.574084048179,0.818781348741,0.00231419147554,0.0,0.818742818009,-0.574023887709,-0.0117269433319,0.0,-0.00827356058185,0.00862714485008,-0.999928557732,0.0,0.657930755844,0.255897130105,0.303600699834,1.0,-0.01244,-0.0163497142857,0.623
0.46209553641,0.525530883501,-0.124076002491,-1.39030343708,0.0774262795331,1.90679792832,0.154822125772,-0.0105141659298,-0.0667300730462,-0.00132668601474,-0.106438337929,-0.00862329257686,0.0365553295789,-0.0181763772643,0.574093670462,0.818774562347,0.00232819447311,0.0,0.818736232999,-0.574033477144,-0.0117172861074,0.0,-0.0082575132183,0.00863316317698,-0.999928638438,0.0,0.657704324568,0.255601617387,0.303617165666,1.0,-0.0128,-0.0168228571429,0.641
0.461957616249,0.524494430024,-0.124077608862,-1.39193400749,0.0773128401062,1.90738773108,0.154594904995,-0.011465814814,-0.0666423739421,-0.00035772283942,-0.106199269093,-0.0103915830961,0.0352173421941,-0.0148266114344,0.574078668178,0.81878511512,0.00231622584281,0.0,0.818746720225,-0.574018614952,-0.0117125876973,0.0,-0.00826069475982,0.00862051502989,-0.999928721281,0.0,0.657508154407,0.255351761851,0.303621125906,1.0,-0.0131,-0.0172171428571,0.656
0.461781374641,0.523179537016,-0.124087206184,-1.3940669443,0.0771847241722,1.90816898395,0.154306520224,-0.0117053321129,-0.0648943883931,-0.000216013205104,-0.113313006619,-0.0113558295192,0.0441011036289,-0.0162334078421,0.574073607949,0.818788759464,0.00228187053539,0.0,0.81874990319,-0.574013667602,-0.0117325331435,0.0,-0.00829680112204,0.00860378456152,-0.99992856644,0.0,0.657251248779,0.255026722666,0.303598364814,1.0,-0.01348,-0.0177165714286,0.675
0.461663882435,0.522311141177,-0.124085117486,-1.39544023116,0.0771044191229,1.90869678564,0.154119258976,-0.012605661533,-0.0653157712392,0.00129095013876,-0.108181079984,-0.00233193769855,0.0461517173904,-0.01702235012,0.574067035442,0.818793310793,0.00230215567797,0.0,0.818754685296,-0.574006986073,-0.0117257045281,0.0,-0.00827963439836,0.00861640707704,-0.999928600043,0.0,0.657089977591,0.254821946188,0.303600702154,1.0,-0.01372,-0.018032,0.687
0.461462797645,0.520764635219,-0.124098850571,-1.39791030416,0.0769458135606,1.90965117922,0.153786565,-0.0105328260306,-0.0742159530498,-0.000856882235517,-0.119152305052,-0.00761475284968,0.0505214652914,-0.0164038541211,0.57405842035,0.818799308548,0.00231716376019,0.0,0.818761028388,-0.573998473204,-0.0116994894353,0.0,-0.00824964423073,0.0086135596451,-0.999928872451,0.0,0.656801826896,0.254448080692,0.303594626236,1.0,-0.01414,-0.018584,0.708
0.461311368906,0.519622308399,-0.124103082639,-1.39972431973,0.0768315543414,1.91030625186,0.153545568464,-0.0108472613318,-0.0792430626838,0.000523936501534,-0.120811381233,-0.00345947142988,0.0474393272715,-0.0156483176981,0.574053755694,0.818802628406,0.00229960647269,0.0,0.818764122001,-0.573993875841,-0.0117085405558,0.0,-0.00826718291861,0.00860433261439,-0.999928807039,0.0,0.656580049488,0.254171876488,0.303590264767,1.0,-0.01444,-0.0189782857143,0.723
0.461125076595,0.51812794842,-0.124112086271,-1.40204762571,0.0766796898081,1.91113328621,0.153228226569,-0.0123805083697,-0.079444913862,-0.0011594749328,-0.125141491154,-0.0119538878553,0.0378518071759,-0.0185166472204,0.574034923915,0.818815854248,0.00229125718686,0.0,0.818777290688,-0.573975130658,-0.0117066024847,0.0,-0.00827058630508,0.00859619352171,-0.999928848898,0.0,0.656292778687,0.253819844538,0.303605262612,1.0,-0.01482,-0.0194777142857,0.742
0.46097537422,0.516983930812,-0.1241119822,-1.4038095184,0.076565544876,1.91175761449,0.152988773491,-0.00802959795942,-0.0869504885291,0.000250707941539,-0.12500964367,-0.00587489731387,0.0446909075243,-0.0239894188961,0.574023578414,0.818823799392,0.00229431351674,0.0,0.818785269623,-0.573963769091,-0.0117055935256,0.0,-0.00826812491829,0.00859800233264,-0.999928853702,0.0,0.656074522092,0.253551550497,0.303623366601,1.0,-0.0151,-0.0198457142857,0.756
0.460771151554,0.515491918424,-0.124120985989,-1.40622036128,0.0764108283651,1.91267674456,0.152665257143,-0.00777260274737,-0.0827512814276,-0.000772649513992,-0.129464659617,-0.0049319592044,0.0420629911194,-0.0101269336736,0.574020251071,0.818826144392,0.00228987380451,0.0,0.818787646108,-0.573960551256,-0.0116971399913,0.0,-0.00826378591183,0.00858948099102,-0.999928962806,0.0,0.655772207922,0.253161488796,0.303604332829,1.0,-0.0155,-0.0203714285714,0.776
0.460610250074,0.514261014959,-0.124119163679,-1.40818208219,0.0763023776426,1.91339602458,0.15239484923,-0.00836834842395,-0.0828847838789,0.000124677986534,-0.130393294758,-0.00734111774666,0.0472206838848,-0.0145004876953,0.574001209274,0.81883951738,0.00228110258989,0.0,0.818800765307,-0.573941399127,-0.0117185324407,0.0,-0.00828653777769,0.00859438580679,-0.999928732373,0.0,0.655544252947,0.25289338471,0.303593692903,1.0,-0.01578,-0.0207394285714,0.79
0.460391946155,0.512692706794,-0.124122335055,-1.41072505823,0.0761576981795,1.91426586367,0.152040935197,-0.011782507832,-0.0839296438887,0.00106342190113,-0.133547083895,-0.0106280683919,0.042052449917,-0.013703835435,0.573986590136,0.818849991921,0.00219817557559,0.0,0.818809935044,-0.573926862986,-0.0117895342617,0.0,-0.0083924296028,0.00856708751339,-0.999928083482,0.0,0.655218155599,0.252503007144,0.303557759499,1.0,-0.01616,-0.0212388571429,0.809
0.460233320848,0.511537654727,-0.124122038019,-1.41261084486,0.0760355062994,1.91496400634,0.151776599962,-0.0122233487626,-0.0797589518635,0.00215628497061,-0.136678247481,-0.0107137894497,0.0506425116271,-0.0175148072129,0.573965537576,0.818864837151,0.00216496051388,0.0,0.818824368397,-0.573905962406,-0.0118045302827,0.0,-0.00842399320828,0.00854828057583,-0.999927979025,0.0,0.65498540044,0.252218315652,0.30352970307,1.0,-0.01644,-0.0216068571429,0.823
0.459994760372,0.509817531115,-0.124126536638,-1.41535262417,0.0758681949308,1.91601464429,0.151388713416,-0.0115641870689,-0.0849801129598,-0.00052876306883,-0.139455174232,-0.00563481617799,0.0541887346872,-0.0219989199971,0.573944626769,0.818879438275,0.0021858352127,0.0,0.818839254847,-0.57388498712,-0.0117916572243,0.0,-0.00840168938982,0.00855777074498,-0.999928085502,0.0,0.654656650552,0.251800962563,0.303520124397,1.0,-0.01684,-0.0221325714286,0.843
0.45982921832,0.50855527014,-0.124126050253,-1.4172970406,0.0757383544658,1.91670463123,0.151115195844,-0.0139759612878,-0.0899236746452,0.0017413471467,-0.138196726328,-0.00764461147062,0.0432580351466,-0.0192083547923,0.573921525879,0.818895622783,0.00218815454536,0.0,0.818855487495,-0.573861898418,-0.0117880890971,0.0,-0.00839767772251,0.00855738519496,-0.999928122501,0.0,0.654411664268,0.251504685821,0.303537587277,1.0,-0.01712,-0.0225005714286,0.857
0.459574998883,0.506693702322,-0.12413195133,-1.42025692747,0.0755523351006,1.91777910952,0.150708301896,-0.0122404171216,-0.0881396124144,0.00024936777088,-0.138923271899,-0.00917791361776,0.0555279930846,-0.0204101817144,0.573903705844,0.818908177341,0.00216342385794,0.0,0.818867701434,-0.573844157306,-0.0118032866348,0.0,-0.00842450200189,0.00854567239333,-0.999927997032,0.0,0.654042160966,0.251051124949,0.303524011494,1.0,-0.01754,-0.0230525714286,0.878
0.459421617269,0.505543830415,-0.12414013009,-1.4219968377,0.0754378926042,1.9184397725,0.15046080675,-0.00819430772132,-0.0939733026064,-0.000544939435143,-0.141022158214,-0.0149215918634,0.0509974215888,-0.0204064676078,0.573890270913,0.818917437217,0.00222145778584,0.0,0.818877846763,-0.573830633838,-0.0117568129869,0.0,-0.00835327945826,0.00856638808796,-0.999928417297,0.0,0.65381767358,0.250758039613,0.303558546738,1.0,-0.0178,-0.0233942857143,0.891
0.459141582089,0.503532402893,-0.124144018171,-1.42504722964,0.0752452008729,1.91960717865,0.150049825757,-0.0144754231063,-0.0917776900285,-0.00113539891071,-0.140205644709,-0.00549752692446,0.0562517337313,-0.0191134676936,0.573891928348,0.818915997476,0.00232175709903,0.0,0.818877751404,-0.573831958098,-0.0116986760859,0.0,-0.00824809337505,0.00861517687947,-0.999928871312,0.0,0.653469093742,0.250308394933,0.303611670412,1.0,-0.0182,-0.02392,0.911
0.458953130966,0.502116474857,-0.124149743775,-1.4270946567,0.0751153554985,1.92038332328,0.149755127144,-0.0144066893822,-0.105437982519,-0.000642149017357,-0.145754721075,-0.00847296727342,0.0595865518123,-0.0226330287177,0.573878778435,0.818924860186,0.00244293532125,0.0,0.818888247703,-0.573818437115,-0.0116269472419,0.0,-0.00811995115069,0.00867311628895,-0.999929419233,0.0,0.653224452206,0.249989348185,0.303693097055,1.0,-0.01848,-0.024288,0.925
0.458696280496,0.500225296539,-0.12415018137,-1.42998667486,0.074927007688,1.92139107335,0.149348236285,-0.0126726173283,-0.0936728006589,0.000510256136168,-0.149742816495,-0.0154866932955,0.0538307542722,-0.025609288975,0.573852455534,0.818943295674,0.00244635441801,0.0,0.818906684988,-0.57379205993,-0.0116301394965,0.0,-0.00812088237974,0.00867748716354,-0.999929373749,0.0,0.652853259343,0.24954132294,0.303723628933,1.0,-0.01886,-0.0247874285714,0.944
0.458478603962,0.498710273465,-0.124153632179,-1.43229179383,0.0747784340359,1.92224680811,0.149021632274,-0.0160800471096,-0.0992814189725,-0.00147014900623,-0.15246197235,-0.0148682454847,0.0600069269488,-0.0281603999947,0.573842755197,0.818949936181,0.00249824706111,0.0,0.818914036873,-0.573782220482,-0.0115978692826,0.0,-0.00806477983476,0.00870137037777,-0.999929620263,0.0,0.652570906915,0.249177869406,0.303757349487,1.0,-0.01916,-0.0251817142857,0.959
0.458197030807,0.49686811934,-0.124151155428,-1.43525012194,0.0745985837935,1.92333354571,0.148590293015,-0.0150113035836,-0.0944742158439,-0.00308125578989,-0.158154592937,-0.014415035619,0.0496826770221,-0.017758956292,0.573819856094,0.818966055438,0.00247380151639,0.0,0.818929733522,-0.573759295825,-0.0116236357654,0.0,-0.0081001524696,0.00869591004201,-0.999929381846,0.0,0.652200622703,0.248713798068,0.303727639888,1.0,-0.01954,-0.0256811428571,0.978
0.457977593257,0.495464763151,-0.12414899858,-1.4374945783,0.0744633836905,1.92409686197,0.148265000398,-0.0189735904893,-0.100216156709,0.00658371848051,-0.161402123301,-0.00704651686069,0.0455199739223,-0.017232019478,0.573808164656,0.818974431671,0.00241191715977,0.0,0.818937128322,-0.573747635938,-0.0116780568773,0.0,-0.00818035572279,0.00867633994249,-0.999928898925,0.0,0.651907883473,0.248354433011,0.303703241715,1.0,-0.01982,-0.0260491428571,0.992
0.457638287513,0.493405168961,-0.124151079599,-1.44091040907,0.0742442182828,1.92531971412,0.147778616356,-0.0205375465757,-0.100824003771,0.00116311877368,-0.162197279416,-0.0107693978966,0.0689980563151,-0.0233440935423,0.573801697523,0.818979308483,0.00229152723734,0.0,0.818940377537,-0.573741546896,-0.0117491406131,0.0,-0.00830771862203,0.00861846694132,-0.999928349353,0.0,0.651474144609,0.247802010853,0.303617858592,1.0,-0.0208097142857,-0.0273499102041,1.013
0.457425407957,0.49201949431,-0.124155763955,-1.44312495018,0.0741020801387,1.92613646909,0.147464379523,-0.0147172192811,-0.102767494243,-0.000359285892673,-0.179855583506,-0.0114913972104,0.0636324501078,-0.0220300777981,0.573794565547,0.818984348026,0.00227621145979,0.0,0.81894523165,-0.573734487727,-0.0117555115417,0.0,-0.00832179916026,0.00860950691876,-0.999928309455,0.0,0.651196964036,0.2474488834,0.30359914191,1.0,-0.0217085714286,-0.0285312653061,1.026
0.45706547907,0.489791246712,-0.124156944001,-1.44671851482,0.07387497678,1.92739402211,0.146953019443,-0.0142014469758,-0.11493202606,-0.00130443675158,-0.17867758224,-0.0161048546917,0.0640353947782,-0.0285549841146,0.573788878855,0.818988586737,0.00218270432159,0.0,0.81894811239,-0.573729016021,-0.0118216872464,0.0,-0.00842970842611,0.00857083927058,-0.999927737754,0.0,0.650733179974,0.246866244047,0.303547687031,1.0,-0.0230914285714,-0.0303487346939,1.046
0.456811994879,0.488264423791,-0.124169647941,-1.44914869997,0.0737222910911,1.92828688869,0.146608330548,-0.0176539097945,-0.118312629235,-0.000409429280999,-0.185861965922,-0.0155653899048,0.0768602430123,-0.0244725436954,0.573802775916,0.818978886788,0.00216892786522,0.0,0.818938245795,-0.573742978205,-0.0118275709998,0.0,-0.00844228633813,0.008563075919,-0.999927698152,0.0,0.650432381598,0.24646203064,0.303530120925,1.0,-0.0239902857143,-0.0315300897959,1.059
0.45639403119,0.485712641355,-0.12417542903,-1.45300621259,0.0734871266774,1.92977043171,0.146044519874,-0.0210439376875,-0.130028726353,0.000202638667682,-0.199534009334,-0.0125319593502,0.0729359554726,-0.0327294832569,0.573814967877,0.818969930088,0.00232016229292,0.0,0.818931263092,-0.573754595477,-0.0117472295177,0.0,-0.00828958355922,0.00864095593066,-0.999928305772,0.0,0.649969672737,0.245826115195,0.303595159869,1.0,-0.0253731428571,-0.0333475591837,1.079
0.45611332323,0.484026429058,-0.124192671373,-1.45561180033,0.0733187548855,1.93069783349,0.14563930089,-0.0220858272126,-0.124848020399,0.000814664586651,-0.204278485054,-0.0136415943853,0.0740844313162,-0.0376996253315,0.573807745499,0.818974986008,0.00232172353331,0.0,0.818936366193,-0.573747396181,-0.0117431002525,0.0,-0.00828538205238,0.0086397920575,-0.999928350652,0.0,0.649642757731,0.245383108323,0.30360627221,1.0,-0.026272,-0.0345289142857,1.092
0.45565139653,0.481140124268,-0.12424543622,-1.46008475424,0.0730411964782,1.93224219173,0.144984045488,-0.0167743082856,-0.141600678778,-0.000757070043079,-0.225154096241,-0.0134179049669,0.0784035931579,-0.024812782263,0.573830810855,0.818958942736,0.00227980854077,0.0,0.818919752269,-0.573770589871,-0.0117684512605,0.0,-0.00832995168807,0.00862024614118,-0.999928149049,0.0,0.649068613724,0.244620910629,0.303614603307,1.0,-0.027724,-0.0364372571429,1.113
0.455335208337,0.479280674384,-0.124260535925,-1.4629310996,0.0728684322421,1.93330184845,0.144559469448,-0.0216253764463,-0.146342861161,4.22091573223e-05,-0.219613058901,-0.00622342735397,0.0779447258378,-0.0279007118435,0.57384495008,0.818948862004,0.00234127984587,0.0,0.818910452964,-0.573784477798,-0.0117383970917,0.0,-0.00826991612775,0.00865348503859,-0.999928360276,0.0,0.648718542605,0.244138470313,0.303640725784,1.0,-0.0286228571429,-0.0376186122449,1.126
0.454905171543,0.476781823323,-0.12427564096,-1.46675670377,0.0726253330341,1.93469938368,0.144015410187,-0.028450667246,-0.147535172231,-0.0018199482753,-0.22516414915,-0.0145326574408,0.0837989785175,-0.0367788663964,0.573881794499,0.818922881793,0.00239719006268,0.0,0.818885206798,-0.573821119174,-0.0117084661059,0.0,-0.00821293064451,0.00868246618425,-0.999928578725,0.0,0.648241030841,0.243486673037,0.303671840735,1.0,-0.0297982857143,-0.0391634612245,1.143
0.454457127673,0.474181391429,-0.124285311709,-1.47075666941,0.0723724324977,1.93615954077,0.143438925472,-0.0335355400242,-0.152946000302,-0.000394480016025,-0.241475542711,-0.0216771353141,0.0797295903968,-0.037453183984,0.57390756362,0.81890467734,0.00244637527473,0.0,0.818867602764,-0.573846665589,-0.0116876189721,0.0,-0.00816735879603,0.00871103809996,-0.999928703491,0.0,0.64773659695,0.242810175438,0.303694057486,1.0,-0.0309737142857,-0.0407083102041,1.16
0.454002221672,0.471512318015,-0.124283264701,-1.47490796306,0.0721095670091,1.93759436523,0.14282418843,-0.0308731587896,-0.154161910933,0.000646870808201,-0.243570334136,-0.016461054118,0.0873039731894,-0.0329921848609,0.573901945714,0.818908723054,0.00240975367074,0.0,0.818870952126,-0.573840947567,-0.0117336081333,0.0,-0.00822609710129,0.00870738546483,-0.999928253809,0.0,0.647188008414,0.242116501221,0.30368761853,1.0,-0.0321491428571,-0.0422531591837,1.177
0.45351852934,0.468567829928,-0.124283632604,-1.47934975396,0.0718217938636,1.93931185449,0.142104437499,-0.0264739739151,-0.162795756961,-0.000450499243775,-0.248223695889,-0.0128365460479,0.097077188308,-0.0449957828644,0.573842147098,0.818950074798,0.00259077272046,0.0,0.818914765554,-0.573780629393,-0.011625101804,0.0,-0.00803399746913,0.00879276470241,-0.999929068571,0.0,0.64663671648,0.241387182274,0.303755698895,1.0,-0.0333937142857,-0.0438888816327,1.195
0.453083064495,0.466018427306,-0.124283948517,-1.48322050337,0.0715561729532,1.94068725916,0.141495430388,-0.029273296368,-0.169242435339,-0.00486259248367,-0.259412119587,-0.0182139932536,0.0939973749383,-0.0356207514491,0.573809940945,0.818972519959,0.00262871176321,0.0,0.818937738378,-0.573748336059,-0.0116006220335,0.0,-0.00799252554067,0.00880947311985,-0.999929253857,0.0,0.64613279908,0.24073265421,0.303791436591,1.0,-0.0344308571429,-0.0452519836735,1.21
0.452571757646,0.463104849239,-0.124290359665,-1.4878422968,0.0712457440103,1.9422538155,0.140819551391,-0.030202710532,-0.173946178752,-0.00247169217303,-0.276010357441,-0.0178308100878,0.0957996524119,-0.0389688187454,0.57381114656,0.81897207367,0.00250150614423,0.0,0.818935506063,-0.573749838613,-0.0116835996978,0.0,-0.00813345972017,0.00875292045951,-0.99992861406,0.0,0.645507891279,0.239948227279,0.30373626361,1.0,-0.0356062857143,-0.0467968326531,1.227
0.452062966268,0.460282252417,-0.124287557422,-1.49225356758,0.0709528814829,1.94380072047,0.140159591546,-0.0342822170553,-0.176892626722,9.24660910081e-05,-0.278262362173,-0.0203129958653,0.0966822619437,-0.0411566358173,0.573810345396,0.818972753932,0.00246226221099,0.0,0.81893556098,-0.573749055332,-0.0117181640912,0.0,-0.00818429407225,0.00874060615335,-0.999928306997,0.0,0.644922218614,0.239196374869,0.303714578518,1.0,-0.0367125714286,-0.0482508081633,1.243
0.45149493653,0.457231866517,-0.12429353742,-1.49703045867,0.0706321182935,1.94549840562,0.139436573046,-0.0375435607394,-0.1784389403,-0.00101840366131,-0.293213521048,-0.0149053400443,0.10237886496,-0.0417066165828,0.573820599444,0.818965669025,0.00242889153599,0.0,0.818928010417,-0.573759396331,-0.0117394964383,0.0,-0.00822080348913,0.00872562019173,-0.999928138389,0.0,0.644294690539,0.238367373831,0.303687007505,1.0,-0.037888,-0.0497956571429,1.26
0.450895129909,0.454105716754,-0.124325392493,-1.50202423992,0.0702865639075,1.94719635355,0.138658577133,-0.0320782168903,-0.185597315885,-0.00150922464073,-0.2902176586,-0.0172770176854,0.102351083834,-0.0486993411389,0.57383154377,0.818958463637,0.0022674021487,0.0,0.818918718889,-0.573770964427,-0.011821976779,0.0,-0.00838089978074,0.00864080761063,-0.999927545857,0.0,0.64362474028,0.237475241069,0.303607076547,1.0,-0.0390634285714,-0.0513405061224,1.277
0.450294749983,0.450739781847,-0.124365914824,-1.50700694591,0.0699576804965,1.94908608677,0.137857615869,-0.038832700464,-0.197886749789,6.81912901317e-05,-0.2906533642,-0.0273300582413,0.116422435516,-0.046118850145,0.573834020287,0.818956095596,0.00248546736571,0.0,0.818919454699,-0.573772911925,-0.0116755795524,0.0,-0.00813584983648,0.00873541051728,-0.999928747737,0.0,0.642999153062,0.236597639317,0.303710559481,1.0,-0.0402388571429,-0.052885355102,1.294
0.449661838145,0.447320338294,-0.124381931616,-1.51217329132,0.0696016964219,1.95083336903,0.137103456274,-0.0410109856587,-0.206295249248,-4.80270438964e-05,-0.309275254174,-0.0243199162058,0.104774821065,-0.0405151523837,0.573880652922,0.818923442779,0.00247749276018,0.0,0.818886651945,-0.573819517542,-0.0116858656714,0.0,-0.00814835252818,0.00873524615364,-0.999928647367,0.0,0.642298817681,0.235680442735,0.303747724476,1.0,-0.0414142857143,-0.0544302040816,1.311
0.449038564211,0.44387476936,-0.12439087156,-1.51746770014,0.0692319322852,1.95267214217,0.136299030016,-0.0348049851832,-0.200562129069,-0.000319659377279,-0.308735800305,-0.0217213097742,0.114254223673,-0.0446323302686,0.573873107272,0.818928794672,0.00245619795675,0.0,0.818891735155,-0.573812057993,-0.0116959436328,0.0,-0.00816890629409,0.00872351567641,-0.999928582072,0.0,0.641576938743,0.234763701746,0.303747004924,1.0,-0.0425897142857,-0.0559750530612,1.328
0.448371219646,0.440398375006,-0.124390852078,-1.52285407591,0.0688649260925,1.95459933429,0.135408147407,-0.046672576695,-0.198617116885,-0.000181863719972,-0.318371211839,-0.0224998682893,0.111868861676,-0.0562217729059,0.573827599123,0.818960664164,0.00246250659697,0.0,0.818923646253,-0.573766489635,-0.0116971740948,0.0,-0.00816677893544,0.00872893426766,-0.999928552162,0.0,0.640853332175,0.233820733159,0.30372833345,1.0,-0.0437651428571,-0.0575199020408,1.345
0.447713677473,0.437040895034,-0.124399336744,-1.52807171213,0.0685132491664,1.95643653462,0.134564683767,-0.0405510409916,-0.217489216457,-0.000818580771953,-0.330713249082,-0.0229045291628,0.111712859974,-0.0534631467759,0.573813768043,0.818970431802,0.00243687093833,0.0,0.818932987946,-0.573752654462,-0.0117217598413,0.0,-0.00820177145876,0.00872190910516,-0.999928327055,0.0,0.640145451065,0.232894756142,0.303698402709,1.0,-0.0448714285714,-0.058973877551,1.361
0.446979913328,0.433271056545,-0.124416391785,-1.53365493597,0.06812483549,1.95843503733,0.133688440873,-0.0465793495225,-0.221393400922,-0.00359143519939,-0.336913233925,-0.0204976200238,0.123844151294,-0.0537431051845,0.573844838112,0.818948218502,0.00258148913506,0.0,0.818912783147,-0.573783346039,-0.0116306623851,0.0,-0.00804384963564,0.00878837922931,-0.999929027918,0.0,0.639403077289,0.231883457995,0.303786313052,1.0,-0.0460468571429,-0.0605187265306,1.378
0.446226505106,0.429538700588,-0.124445604796,-1.53947082679,0.067685913192,1.96036261029,0.132757820685,-0.0439003903509,-0.223159782571,-0.00258478838525,-0.344868015834,-0.027570356876,0.11093259254,-0.0560510578311,0.573848190599,0.818946364645,0.0024192730229,0.0,0.818908978079,-0.573787440625,-0.0116963884922,0.0,-0.00819072405601,0.00869328314431,-0.99992866689,0.0,0.638589179261,0.230814097365,0.303729593844,1.0,-0.0472222857143,-0.0620635755102,1.395
0.445462672752,0.425680916854,-0.124483012128,-1.5453894892,0.0672590875852,1.96234046275,0.131778810124,-0.0471508394361,-0.231711866565,-0.00208355909866,-0.34765977378,-0.02347206129,0.117222280901,-0.0589875172826,0.57383229625,0.818957762085,0.00232950685218,0.0,0.818919257927,-0.573771929942,-0.0117374745188,0.0,-0.0082760495617,0.00864318638617,-0.999928398603,0.0,0.637759425723,0.229729383495,0.303710238492,1.0,-0.0483977142857,-0.0636084244898,1.412
0.444654747733,0.421721877345,-0.124486944129,-1.55133373665,0.0668551730485,1.96442231484,0.130801619764,-0.0475716995646,-0.231975094286,0.000535499858251,-0.351925486559,-0.0241621770415,0.11599235603,-0.0533643538147,0.573835186228,0.818955504325,0.00240995491958,0.0,0.818917919157,-0.573774389593,-0.0117106119821,0.0,-0.00820785775557,0.00869368385598,-0.999928522912,0.0,0.636942087921,0.228646179491,0.30375154539,1.0,-0.0495731428571,-0.0651532734694,1.429
0.443824730719,0.417707958915,-0.124507223977,-1.55735252928,0.0664360860513,1.96657709261,0.12985723626,-0.0536759471273,-0.243407252261,-0.000430964325277,-0.352309490877,-0.0276500948015,0.132409497495,-0.0605444790682,0.573891252205,0.818915872477,0.0025241530739,0.0,0.818879860892,-0.573830136767,-0.011640208938,0.0,-0.00808407239811,0.00874736061519,-0.999929063212,0.0,0.636124211448,0.227535099578,0.30379750345,1.0,-0.0507485714286,-0.066698122449,1.446
0.443037367007,0.413858281361,-0.124514765891,-1.56312241094,0.0660309075848,1.96865949196,0.128881710259,-0.0522282819557,-0.236860442044,8.45963298623e-05,-0.363673028092,-0.0310037447946,0.129693764536,-0.0601531795875,0.573868133974,0.818931675059,0.00265015024237,0.0,0.818897378107,-0.573806677766,-0.011564064212,0.0,-0.00794965762503,0.00880661859027,-0.99992962073,0.0,0.635333121622,0.226484316801,0.3038401744,1.0,-0.0518548571429,-0.0681520979592,1.462
0.442175328894,0.409699624797,-0.124536739653,-1.56949148107,0.0655676277053,1.97067018908,0.127815167793,-0.051607306965,-0.244038584685,-0.000187312010352,-0.380299324185,-0.0290399672749,0.124108816056,-0.0565439976436,0.573845636379,0.818947999558,0.00247113961826,0.0,0.818911153886,-0.57378455784,-0.0116854664372,0.0,-0.00815204456157,0.00872946578953,-0.999928667754,0.0,0.634394497539,0.225301136008,0.303797560103,1.0,-0.0530302857143,-0.0696969469388,1.479
0.441290437748,0.405485907701,-0.12455743355,-1.57591444343,0.0651354004803,1.97287982352,0.126769097591,-0.0537600487919,-0.249786440663,-0.00164249583644,-0.380004422688,-0.0227007696651,0.130784543514,-0.0672773626995,0.573867976657,0.8189323418,0.00247220986287,0.0,0.818895269707,-0.57380663421,-0.0117145503775,0.0,-0.00817501114761,0.00874725469677,-0.999928324795,0.0,0.633479204742,0.224117665441,0.303779451354,1.0,-0.0542057142857,-0.0712417959184,1.496
0.440408583713,0.401465785706,-0.124551968358,-1.58198990589,0.0647139852807,1.97498413535,0.125726522238,-0.0536676695968,-0.254970543124,0.00135196542178,-0.376467702697,-0.022264730144,0.135035723652,-0.0719756185747,0.573861476927,0.818936763273,0.00251594142945,0.0,0.818900017838,-0.573799717282,-0.0117214390374,0.0,-0.00815562788641,0.00878695597532,-0.999928134987,0.0,0.632562103347,0.222914292058,0.30378000788,1.0,-0.0553811428571,-0.072786644898,1.513
0.439426012006,0.397042431439,-0.124570070586,-1.58845303646,0.0642285136279,1.97728122021,0.124607902926,-0.0586405610972,-0.259322230946,0.00261646090514,-0.381702875558,-0.0280174911304,0.128570046463,-0.0716819772996,0.573875528515,0.818926309991,0.00270619255918,0.0,0.818892411567,-0.573813519096,-0.0115762895933,0.0,-0.00792743087193,0.00885960043433,-0.999929329163,0.0,0.631721917455,0.221741315375,0.303883378527,1.0,-0.0564874285714,-0.0742406204082,1.529
0.43843945,0.392563390158,-0.12458007747,-1.59525537812,0.0637182291332,1.97944674814,0.123502010127,-0.0587497618791,-0.269447483293,-9.83624237397e-05,-0.406725645983,-0.0368064354222,0.120782974031,-0.0599760470515,0.573903663848,0.818907066421,0.00255892344656,0.0,0.818871070806,-0.573841952151,-0.0116760545184,0.0,-0.00809334174896,0.00879652821062,-0.999928556903,0.0,0.630704939913,0.220451716936,0.303845549244,1.0,-0.0576628571429,-0.0757854693877,1.546
0.437453840828,0.388077058559,-0.124590317636,-1.602048715,0.0632104755886,1.98171789817,0.122312203764,-0.0546113058117,-0.255041156199,-0.00170003915209,-0.397687163871,-0.0340511020856,0.141816985323,-0.0725602576779,0.573859837459,0.818937924733,0.00251182940667,0.0,0.818901275544,-0.573798254125,-0.0117051859256,0.0,-0.00814469415291,0.00877424532917,-0.99992833572,0.0,0.629703168713,0.219172933442,0.303821062017,1.0,-0.0588382857143,-0.0773303183673,1.563
0.436429726771,0.383502907892,-0.124585068748,-1.60887419046,0.0627169601897,1.98403824716,0.121057680979,-0.0651438173785,-0.278380533539,-0.000751460169601,-0.396621897861,-0.021088435935,0.143409873067,-0.0685883402143,0.57378520528,0.818990048366,0.00256627755224,0.0,0.818953947104,-0.573723263727,-0.0116959857027,0.0,-0.00810671884288,0.00881281636216,-0.999928305119,0.0,0.628701139035,0.217884136867,0.303838511472,1.0,-0.0600137142857,-0.0788751673469,1.58
0.435426054857,0.379132851878,-0.124596023482,-1.61533282977,0.0622445037742,1.98629827395,0.119942235648,-0.0691254849933,-0.269402886477,-0.00143078362934,-0.41702047969,-0.0328874047126,0.134573177994,-0.0640513931812,0.573808707946,0.8189731572,0.0026984017877,0.0,0.818938845751,-0.573746385103,-0.0116189243304,0.0,-0.00796754227081,0.00887703691363,-0.999928855712,0.0,0.627770286038,0.216639344659,0.3038838018,1.0,-0.06112,-0.0803291428571,1.596
0.434238175264,0.374150973168,-0.124620770253,-1.62295054341,0.0616227824817,1.98868574796,0.118580266634,-0.0710437850297,-0.27449036927,-0.00199242457916,-0.416802477333,-0.0385572044696,0.136954191889,-0.0831567282397,0.573783438968,0.818991643442,0.00244949778311,0.0,0.818954177188,-0.57372208442,-0.0117376495361,0.0,-0.0082078639366,0.00874106365026,-0.999928109804,0.0,0.626607946624,0.215136128109,0.30379345579,1.0,-0.0623645714286,-0.0819648653061,1.614
0.433248422806,0.369897809691,-0.12467145331,-1.629269674,0.0611488738887,1.99072066367,0.117497881159,-0.0606118796335,-0.28426389172,-0.0015279257675,-0.425806052058,-0.0380650321618,0.142835043987,-0.0670657688327,0.573838419716,0.81895324285,0.00240852343446,0.0,0.818915200847,-0.573777164269,-0.0117646286301,0.0,-0.00825288391487,0.00872354030893,-0.999927892276,0.0,0.625654978462,0.213882199356,0.303798683232,1.0,-0.0634017142857,-0.0833279673469,1.629
0.432007292704,0.364695828145,-0.124700451228,-1.63676536267,0.0605630235653,1.99334198336,0.116146824858,-0.0691923314347,-0.289500484058,0.000351042741453,-0.408266354703,-0.0298310619021,0.151333148103,-0.0856741718355,0.573868616566,0.818931329034,0.00265257389332,0.0,0.818896898842,-0.573806969774,-0.0115834971948,0.0,-0.00796417669986,0.00881975985309,-0.99992938937,0.0,0.62457009553,0.212385186423,0.303919154509,1.0,-0.0646462857143,-0.0849636897959,1.647
0.430727152127,0.359495685069,-0.124715650113,-1.64444101666,0.0599874759011,1.99591459644,0.114693894069,-0.07733249024,-0.288915947844,-0.000118943124309,-0.436000168238,-0.0360052674479,0.134402929982,-0.0769882717741,0.573842240849,0.81894957891,0.00272336582094,0.0,0.818916003593,-0.573780291107,-0.0115543713845,0.0,-0.00789998604555,0.00886076481845,-0.999929536051,0.0,0.623420267675,0.210854164272,0.303942406636,1.0,-0.0658908571429,-0.0865994122449,1.665
0.429616712292,0.355104721904,-0.124740411782,-1.65105191418,0.0594955998209,1.99791209038,0.113488234436,-0.0709163676709,-0.301756930297,0.00105853906813,-0.440154186245,-0.0305601061943,0.141775999482,-0.0836359826916,0.573868695332,0.818931636433,0.00253816252505,0.0,0.818895178002,-0.573806852697,-0.0117102581034,0.0,-0.00813364237932,0.00879880899687,-0.999928209834,0.0,0.622378462935,0.209513372768,0.303880907366,1.0,-0.066928,-0.0879625142857,1.68
0.428331329672,0.350109659732,-0.124775197886,-1.65859007788,0.0589276484223,2.00032095594,0.112107105297,-0.0767162697083,-0.302456488307,-0.00117309739826,-0.439423107844,-0.0373295497342,0.137063434021,-0.0872985235374,0.573908495116,0.818904115176,0.00241583999196,0.0,0.818865787625,-0.57384680094,-0.011807531875,0.0,-0.00828307386637,0.00875486012539,-0.999927368918,0.0,0.621212404477,0.20797883477,0.303808732084,1.0,-0.0681034285714,-0.0895073632653,1.697
0.426939892492,0.344607419874,-0.124776395931,-1.66638510323,0.0583364448741,2.00304680167,0.110623571865,-0.0807509966986,-0.299697888693,0.000422078520051,-0.434925571282,-0.0299577687485,0.146242035324,-0.0759534467068,0.573923057276,0.818892791437,0.00276899984839,0.0,0.818859267678,-0.57386033802,-0.0115999606172,0.0,-0.00791025723834,0.00892507788515,-0.999928882879,0.0,0.620058060196,0.20639529318,0.303966055633,1.0,-0.069348,-0.0911430857143,1.715
0.425775625693,0.340022149159,-0.124782700034,-1.67313885624,0.0577856541776,2.00513690595,0.109378849034,-0.0749835949732,-0.299961919837,-0.000636862744638,-0.454083868349,-0.0320916300781,0.133930879825,-0.0817300148757,0.573920392194,0.818894942886,0.00268381090876,0.0,0.818860225569,-0.573857864424,-0.0116545836772,0.0,-0.00800390773811,0.00888664033637,-0.999928479985,0.0,0.618983034052,0.205025465229,0.30395449449,1.0,-0.0703851428571,-0.0925061877551,1.73
0.424434828162,0.334804455216,-0.124779747246,-1.6809295546,0.0571334322399,2.00752162623,0.107873937932,-0.0817727407545,-0.304095833179,0.0010107135808,-0.456943694263,-0.0360177184912,0.142868566164,-0.0902818936407,0.573838412691,0.818953024234,0.00248336868835,0.0,0.818915586417,-0.573776486556,-0.0117708410473,0.0,-0.00821502547734,0.00878839927226,-0.999927636079,0.0,0.617650508494,0.203359200811,0.303875443314,1.0,-0.0716297142857,-0.0941419102041,1.748
0.423068769561,0.329468290954,-0.124772917929,-1.68859745268,0.05652301326,2.01005547566,0.106373608538,-0.0846936043388,-0.321793598298,0.000588597319593,-0.443760463363,-0.034981123456,0.152431855137,-0.0917364694349,0.57378738516,0.818988246101,0.002652598936,0.0,0.818953066435,-0.57372491972,-0.0116764022857,0.0,-0.00804112893376,0.00887229718744,-0.999928308724,0.0,0.616523170865,0.201899084682,0.303956799445,1.0,-0.072736,-0.0955958857143,1.764
0.421624061467,0.324139537013,-0.124778218962,-1.69634272415,0.0559061358389,2.01263589317,0.104817964161,-0.0875835153361,-0.308825314834,-0.000211509337608,-0.470828822102,-0.0441586605276,0.146944660434,-0.0854794758067,0.573758736227,0.819007922123,0.00277182332644,0.0,0.818974376656,-0.573695962635,-0.0116042982427,0.0,-0.00791398070861,0.0089282916728,-0.999928824726,0.0,0.615317717679,0.200288229612,0.30398385581,1.0,-0.0739114285714,-0.0971407346939,1.781
0.420133742338,0.31871348362,-0.124817523747,-1.70435269682,0.0552464544766,2.01503476957,0.103336340888,-0.0874971158769,-0.323050637885,-0.00492224395932,-0.467626257325,-0.0392576741893,0.148166623891,-0.0912280570888,0.573841940422,0.818950206815,0.00259481632369,0.0,0.818914159672,-0.573779544671,-0.0117209260667,0.0,-0.00811015844332,0.0088510611972,-0.999927939426,0.0,0.61400880369,0.198589978063,0.303926943623,1.0,-0.0750868571429,-0.0986855836735,1.798
0.418629663571,0.313214130443,-0.12485756826,-1.71235724948,0.0545863577131,2.01749818674,0.10166422352,-0.0908316148432,-0.328697962682,-0.00311621932301,-0.464564190881,-0.0396030144621,0.160035560326,-0.101722422793,0.573775465749,0.818996957884,0.00253865763324,0.0,0.818960110697,-0.573713206002,-0.0117576037886,0.0,-0.00817313768336,0.00882545384354,-0.999927652975,0.0,0.612707163889,0.196893117902,0.303917488923,1.0,-0.0762622857143,-0.100230432653,1.815
0.417254202525,0.308269587174,-0.124866584714,-1.71927700856,0.0539911900369,2.01982827154,0.100254541694,-0.0918938282318,-0.327035828262,-0.000154230199732,-0.466460301082,-0.0358504972402,0.15362196554,-0.0957343087694,0.573776574606,0.818995330907,0.00279951549812,0.0,0.818962416879,-0.573714015284,-0.0115557477776,0.0,-0.00785813349112,0.0089232871562,-0.999929309844,0.0,0.61162877516,0.195409543087,0.304041386045,1.0,-0.0772994285714,-0.101593534694,1.83
0.415540114157,0.302364604163,-0.124900427521,-1.72790726395,0.0532793135801,2.02242522161,0.0984638658103,-0.0973065018358,-0.335230587141,-0.00522047883848,-0.485815357529,-0.0407616191067,0.14285659411,-0.0985335687286,0.573771730893,0.818999135224,0.002676608299,0.0,0.818964362884,-0.573709289611,-0.0116520487804,0.0,-0.00800757699964,0.00887783393329,-0.999928528834,0.0,0.610203909563,0.193536462754,0.303993878169,1.0,-0.078544,-0.103229257143,1.848
0.413894010692,0.296786180607,-0.124958778067,-1.73616897321,0.0526147430422,2.0248544927,0.0968666402411,-0.0954114485815,-0.328813675991,-0.00093527489597,-0.48030885122,-0.03985497389,0.150421121921,-0.101175096757,0.573887511249,0.818918696333,0.0024576675141,0.0,0.818880570592,-0.573825298139,-0.0118273083977,0.0,-0.00827549150899,0.00880025018946,-0.999927033256,0.0,0.608818104924,0.191729484829,0.303888287334,1.0,-0.0797194285714,-0.104774106122,1.865
0.412203729387,0.290966474899,-0.124983785006,-1.74421753854,0.0519530747944,2.02753842446,0.0951260118257,-0.0996198035447,-0.342309915665,-0.000196573633601,-0.470534221416,-0.0438541420184,0.163536401329,-0.100602861693,0.573885529622,0.818918920895,0.00281900550207,0.0,0.818885871358,-0.573822450912,-0.0115961812941,0.0,-0.00787887531833,0.00896349699561,-0.999928786987,0.0,0.607541370064,0.189961154991,0.304048252188,1.0,-0.0808948571429,-0.106318955102,1.882
0.410593721234,0.285539164722,-0.125001836037,-1.7520127784,0.0512901083745,2.02985069477,0.0934894594601,-0.0994299208985,-0.333200509432,-0.00197047792087,-0.493450286134,-0.0419570780002,0.133103431961,-0.10621824229,0.573888463245,0.818917135589,0.00273928726142,0.0,0.81888281589,-0.573825388154,-0.0116663898015,0.0,-0.00798208762279,0.00893853387545,-0.999928191866,0.0,0.606138001033,0.188142693586,0.304030595077,1.0,-0.0820702857143,-0.107863804082,1.899
0.408745743689,0.27938629256,-0.125017109207,-1.76095762088,0.0504802351902,2.03241852786,0.0915748432434,-0.100340633857,-0.341188137287,0.000471647334331,-0.503194029766,-0.0472711055911,0.13733800833,-0.110345464596,0.573825814531,0.818961683025,0.00253834895866,0.0,0.818924722291,-0.573763431263,-0.0117716212499,0.0,-0.0081842525147,0.00883374694512,-0.999927488834,0.0,0.60476502446,0.186393654723,0.303960801462,1.0,-0.0831765714286,-0.109317779592,1.915
0.406941260786,0.273439725962,-0.125033940056,-1.7692219768,0.0497898032043,2.03507634404,0.0898081698487,-0.107442556348,-0.345679221283,-0.00107981020598,-0.475816326084,-0.0392184484148,0.159700141905,-0.106509653548,0.573861616563,0.818935735797,0.00280224412776,0.0,0.818902348141,-0.573798459879,-0.0116197482792,0.0,-0.00790805599665,0.0089630643946,-0.999928560512,0.0,0.603318540034,0.184449798139,0.304069954764,1.0,-0.0844211428571,-0.110953502041,1.933
0.405195243998,0.267867053762,-0.125080021425,-1.77712939128,0.0490966305667,2.03747048702,0.0880433178964,-0.107844177401,-0.345830001084,-0.00183332820014,-0.49948113839,-0.0400397370348,0.146952346802,-0.11042021743,0.573862056073,0.818935349768,0.00282496046922,0.0,0.818902355036,-0.573798935066,-0.0115957722777,0.0,-0.00787538014269,0.00896791316228,-0.999928774924,0.0,0.601981691956,0.182652153439,0.304079969671,1.0,-0.0855274285714,-0.112407477551,1.949
0.403307976303,0.261852403856,-0.125149744643,-1.78576129177,0.04831336765,2.0398468647,0.0861946210565,-0.114154303864,-0.353946433063,-0.00249620924138,-0.511087909652,-0.0489888637516,0.135548968332,-0.106682063398,0.573908870983,0.818903309692,0.00259308376227,0.0,0.818867107836,-0.57384632873,-0.0117387226312,0.0,-0.00812500364868,0.00886051864529,-0.999927735151,0.0,0.600459199015,0.180679794748,0.304018323615,1.0,-0.0867028571428,-0.113952326531,1.966
0.401380171746,0.255765023626,-0.125161535801,-1.79422379928,0.0475612130449,2.04240124098,0.0842997713738,-0.111958436641,-0.363768495456,0.00120622827279,-0.491535081448,-0.0478808620351,0.154547584779,-0.110383808336,0.573906492757,0.818904567209,0.00271924198442,0.0,0.81887012627,-0.573843639977,-0.0116593336899,0.0,-0.00798761567728,0.00891824503682,-0.999928328882,0.0,0.599006646809,0.178756882233,0.304085498081,1.0,-0.0878782857143,-0.11549717551,1.983
0.399535339063,0.250029126718,-0.125142858283,-1.80223469378,0.0468432256634,2.04485317577,0.0824654385942,-0.116895310289,-0.360441640553,6.10179124861e-06,-0.509889977402,-0.0463071480351,0.145753209999,-0.118752035037,0.573855760752,0.818939694686,0.00284415551254,0.0,0.81890699473,-0.573792629446,-0.0115801242496,0.0,-0.00785161911527,0.00897459264287,-0.999928901855,0.0,0.597623447657,0.176949896767,0.304125739386,1.0,-0.0889845714286,-0.11695115102,1.999
0.397536654725,0.243939560666,-0.125166599603,-1.81099797623,0.0460838045115,2.04728513419,0.0804918390993,-0.115019590012,-0.357924888137,-0.000240860955068,-0.520866325548,-0.0469726419523,0.143639241821,-0.122731247871,0.573848696783,0.818945316779,0.00264352550767,0.0,0.818909350179,-0.573785519365,-0.0117643893579,0.0,-0.00811773120454,0.00891595891699,-0.999927301416,0.0,0.596043267371,0.174955475527,0.304024347838,1.0,-0.09016,-0.118496,2.016
0.395481757337,0.237661075406,-0.125154590259,-1.81965102341,0.045341596574,2.04977381337,0.0784479696258,-0.12019575453,-0.377090185045,0.000866670874219,-0.501974015779,-0.0418315366068,0.150528928177,-0.111623957645,0.573798454959,0.818980173776,0.00274862675522,0.0,0.818945157295,-0.573734443552,-0.0117628451571,0.0,-0.00805671024554,0.00900065023787,-0.999927036196,0.0,0.594500994963,0.172975543959,0.30408482006,1.0,-0.0913354285714,-0.12004084898,2.033
0.393392183428,0.231350089716,-0.125152770503,-1.82828722911,0.0445273969096,2.05237977717,0.0764634492888,-0.12427698427,-0.364268929929,-7.87234805845e-05,-0.5135304301,-0.0527517646409,0.154852365449,-0.130132054975,0.573799248999,0.81897894716,0.00294157409534,0.0,0.818946902941,-0.573735104637,-0.0116080477288,0.0,-0.00781921293018,0.00906985668711,-0.999928296234,0.0,0.592984301383,0.170975606738,0.304172472252,1.0,-0.0925108571428,-0.121585697959,2.05
0.391087682737,0.224665940964,-0.125182854897,-1.83772925411,0.0436260311246,2.05492076505,0.074179660071,-0.126208562789,-0.378028821021,-0.001898619277,-0.526990339766,-0.0481945237825,0.145379050357,-0.124054666972,0.573735188726,0.819024559621,0.00272962561572,0.0,0.818989521071,-0.573671504489,-0.0117437734379,0.0,-0.00805268547375,0.00897352361361,-0.999927312424,0.0,0.591249615225,0.168748966416,0.304097663947,1.0,-0.0937554285714,-0.123221420408,2.068
0.389132470562,0.219070830336,-0.125226420245,-1.84548067473,0.0429345245007,2.05713361444,0.0723162734855,-0.133979011001,-0.384174353403,-0.00272118752255,-0.51549363274,-0.044683638619,0.161154798881,-0.129330731366,0.573769586913,0.819000172387,0.00281525566024,0.0,0.8189661359,-0.573705471507,-0.0117152513013,0.0,-0.00797981889559,0.00902762775917,-0.999927409579,0.0,0.589767485504,0.166772465787,0.304127027892,1.0,-0.0948617142857,-0.124675395918,2.084
0.386834590449,0.212631325994,-0.125281925848,-1.85421620605,0.0421310050363,2.05969877446,0.0701904453605,-0.136968226211,-0.375120577625,-0.00442075209492,-0.528395230613,-0.0496195681657,0.140272484002,-0.129900229788,0.573859364914,0.818936725249,0.00296921549176,0.0,0.818904889869,-0.573794947645,-0.0116140564205,0.0,-0.00780760680483,0.00909651526292,-0.999928144761,0.0,0.58830046105,0.164757832288,0.304188635652,1.0,-0.095968,-0.126129371429,2.1
0.384354045748,0.205795038812,-0.125344637054,-1.86376453462,0.0411909611454,2.06217402312,0.067829846603,-0.139581486165,-0.383501123356,-0.00281552260295,-0.531063034169,-0.0511132566372,0.132120376483,-0.135419359404,0.573867199546,0.818932046599,0.00273628192581,0.0,0.818896975661,-0.573803341826,-0.0117564902913,0.0,-0.00805783408016,0.00898757019215,-0.999927144792,0.0,0.586510083563,0.162422838675,0.304116754217,1.0,-0.0972125714286,-0.127765093878,2.118
0.38212113699,0.199633058992,-0.125382811665,-1.87217461145,0.0403912974249,2.06450671142,0.0656744818182,-0.143941436928,-0.39536204977,-0.000699878160084,-0.516389240211,-0.0480623432662,0.153484940392,-0.134355737112,0.573842139751,0.818949441124,0.00278539580069,0.0,0.818915024852,-0.573778128989,-0.0117297769206,0.0,-0.00800804924236,0.00901221627134,-0.999927322912,0.0,0.584956817319,0.160371164755,0.304140502371,1.0,-0.0983188571428,-0.129219069388,2.134
0.379659818082,0.193066958548,-0.125425619083,-1.88105830479,0.0395433861239,2.06706274963,0.0634348979995,-0.145500345919,-0.38082043352,-0.00181626669018,-0.536592754413,-0.0439425433628,0.143651961459,-0.136677045879,0.573924304769,0.818891272689,0.00295344047548,0.0,0.818859335433,-0.573860050542,-0.0116093956485,0.0,-0.00781212168477,0.00908154147917,-0.999928245605,0.0,0.583337613694,0.15815775665,0.304196326052,1.0,-0.0994942857143,-0.130763918367,2.151
0.377136893769,0.186477604538,-0.125545097005,-1.89016456552,0.0387008499694,2.06937181725,0.0610318831323,-0.150207003163,-0.389699578969,-0.0125838412742,-0.541712827489,-0.0491987371259,0.129628064424,-0.144461782194,0.573983032063,0.818850699321,0.00278532361457,0.0,0.818815912798,-0.573918587864,-0.0117771963432,0.0,-0.00804537136436,0.00904075222666,-0.999926765718,0.0,0.581604079884,0.155844097884,0.304130447755,1.0,-0.100669714286,-0.132308767347,2.168
0.374730160693,0.180149490108,-0.125584809116,-1.89860365487,0.0378779373296,2.07166892865,0.0588046971331,-0.153058303664,-0.399347681496,0.00134410592974,-0.515805872899,-0.0463669359248,0.146764362743,-0.142982961333,0.57401336228,0.818828977306,0.00291766162055,0.0,0.818796066228,-0.573948626981,-0.011692836165,0.0,-0.0078999972971,0.00910098928138,-0.999927378381,0.0,0.580021309916,0.15371599599,0.304203213793,1.0,-0.101776,-0.133762742857,2.184
0.372171270842,0.173416047997,-0.125559715253,-1.90764476017,0.0369329809032,2.07410360374,0.0564360189744,-0.153423323364,-0.393597674133,0.00150790776569,-0.538771888601,-0.0556774101163,0.137993951673,-0.13527249179,0.573956939134,0.818868329627,0.00297281931944,0.0,0.818836521736,-0.573892474809,-0.0116157190458,0.0,-0.0078058161022,0.00910135080985,-0.99992811474,0.0,0.578291409969,0.151487502331,0.304237959703,1.0,-0.102951428571,-0.135307591837,2.201
0.369570587203,0.166705710579,-0.125564072321,-1.91686776279,0.0360157151081,2.07635827628,0.0539343645934,-0.156315612906,-0.392900206245,-0.000992630150654,-0.542609622393,-0.05610382256,0.133316273474,-0.147906681978,0.573855469718,0.81894020788,0.00275366902751,0.0,0.818904892308,-0.573791025376,-0.011806076924,0.0,-0.0080885962461,0.00903014871553,-0.999926512812,0.0,0.576459812574,0.149209161776,0.304146914342,1.0,-0.104126857143,-0.136852440816,2.218
0.367045930446,0.160246258463,-0.125572666353,-1.92536506266,0.0351990191816,2.07864119325,0.0515509086665,-0.164197211542,-0.4119025593,-0.00162169913006,-0.525644246814,-0.0450964959555,0.144641267363,-0.148010028984,0.573806285744,0.818973875427,0.00298072309035,0.0,0.818941564235,-0.573741109065,-0.0116876446805,0.0,-0.00786186365213,0.00914765813413,-0.999927253079,0.0,0.574727486349,0.146932947566,0.304245056451,1.0,-0.105302285714,-0.138397289796,2.235
0.364122334724,0.152938685995,-0.12556788775,-1.93504058065,0.0341756195983,2.08113228905,0.04888081425,-0.161722895459,-0.396396570637,-0.000151114188534,-0.544474069053,-0.0536131320625,0.128105520077,-0.145653757146,0.573779052461,0.818992846645,0.0030104821696,0.0,0.81896116377,-0.57371406196,-0.0116419176671,0.0,-0.00780764165792,0.00914553254884,-0.999927697369,0.0,0.572930824846,0.144591564198,0.304278930986,1.0,-0.106477714286,-0.139942138775,2.252
0.361446250357,0.146459203162,-0.125598223332,-1.9438525596,0.0332765791797,2.08316937052,0.0464554048717,-0.17149634012,-0.401813566776,-0.000448402463307,-0.549830596343,-0.0478386760826,0.129154146581,-0.146637046545,0.573798539811,0.818980065126,0.00276324780639,0.0,0.818944441033,-0.573733584211,-0.0118542713848,0.0,-0.0081232002795,0.00906508457234,-0.999925916185,0.0,0.571141613143,0.142320246843,0.304184846634,1.0,-0.107584,-0.141396114286,2.268
0.358557839086,0.139466925632,-0.125642636947,-1.95293236048,0.0323884561569,2.08557893731,0.0438177636223,-0.173611041029,-0.410501477698,-0.00421816352188,-0.526837593883,-0.0559685724466,0.151380406543,-0.165791175017,0.573832062638,0.818955655133,0.00302418836657,0.0,0.818923559961,-0.573766327754,-0.0117111475937,0.0,-0.00785588434656,0.00919698815324,-0.999926847569,0.0,0.569372572858,0.139933839393,0.304286414891,1.0,-0.108759428571,-0.142940963265,2.285
0.355597069964,0.132487090504,-0.125681279587,-1.9621698218,0.0313989565299,2.08788547186,0.0410555437007,-0.178692651189,-0.409925352666,-0.00732875913706,-0.553806796568,-0.0681486687295,0.129423924465,-0.160756202845,0.573771019509,0.818998418259,0.00302571671681,0.0,0.818966528302,-0.573705504679,-0.011686159484,0.0,-0.00783522664932,0.0091833171638,-0.9999271353,0.0,0.567525952189,0.137492155799,0.304284760145,1.0,-0.109934857143,-0.144485812245,2.302
0.352559916994,0.125470289677,-0.125793006486,-1.97154590786,0.0303802825492,2.09002500075,0.0383481567133,-0.179800885412,-0.396753045847,-0.00529224602513,-0.546244632185,-0.0576302534392,0.120176170295,-0.152835334513,0.57385774133,0.818938420121,0.00281134610397,0.0,0.818903492136,-0.573792679466,-0.0118227940883,0.0,-0.00806916585467,0.00908699800676,-0.999926154788,0.0,0.565604046688,0.134958827321,0.304212608525,1.0,-0.111110285714,-0.146030661224,2.319
0.349624566167,0.11867863711,-0.125870442337,-1.98013838417,0.0294681739059,2.09227093028,0.0357284356556,-0.188161462746,-0.426364746775,-0.00620093658605,-0.542002916716,-0.0593162482303,0.147398344619,-0.170589368181,0.573930063652,0.818886546085,0.00313904111826,0.0,0.818856638215,-0.573864764053,-0.0115665694978,0.0,-0.00767047073572,0.00920900392726,-0.999928176483,0.0,0.563910772032,0.132598575936,0.304366300371,1.0,-0.112216571429,-0.147484636735,2.335
0.346815935928,0.112459267995,-0.125883062626,-1.98836772089,0.0285776170713,2.09420369345,0.033177299573,-0.187965796396,-0.412503977145,0.00100322253359,-0.560721400447,-0.065204330277,0.12522851649,-0.17199519712,0.573898522735,0.818908966895,0.00305555938305,0.0,0.818877801074,-0.573833287788,-0.0116297737019,0.0,-0.00777049388675,0.00917661637421,-0.999927701955,0.0,0.56221294672,0.130372790069,0.304317801628,1.0,-0.113253714286,-0.148847738775,2.35
0.343250875148,0.104452277917,-0.125895544322,-1.99888769095,0.0274099416168,2.09652787443,0.0299678908425,-0.187254482422,-0.417625997922,6.960332589e-05,-0.552733419229,-0.0622843595444,0.123678648441,-0.178763657628,0.573854214113,0.818940675184,0.00287373881599,0.0,0.818906789399,-0.573789189758,-0.0117636259361,0.0,-0.00798494523488,0.00910410582631,-0.999926675265,0.0,0.559989418998,0.127553004422,0.304258825152,1.0,-0.114567428571,-0.150574334694,2.369
0.340034543773,0.0971421470022,-0.125885954008,-2.00806740442,0.0264796416249,2.09878621545,0.0269750903174,-0.189373286086,-0.416188770805,0.000489194084016,-0.549606633523,-0.054236682282,0.133541892704,-0.175386641291,0.573756300031,0.819008052169,0.00320399089603,0.0,0.818978517482,-0.573690251819,-0.0115943853551,0.0,-0.00765794406093,0.00927652995846,-0.999927648325,0.0,0.558094356025,0.12508705444,0.304395572886,1.0,-0.115742857143,-0.152119183673,2.386
0.33668822594,0.0899006210298,-0.125912856181,-2.01750779552,0.0255058651676,2.10081051302,0.0240110713561,-0.199623083612,-0.432647709548,-0.00726955334048,-0.549280545717,-0.0464915728867,0.118832592846,-0.174774257025,0.573794052924,0.818982037308,0.00309100261506,0.0,0.818950064059,-0.573727215251,-0.0117737826852,0.0,-0.0078692757156,0.00928728208374,-0.999925907701,0.0,0.55606713371,0.122509217929,0.304337855102,1.0,-0.116918285714,-0.153664032653,2.403
0.333435256687,0.0830697195388,-0.125991518221,-2.02639832425,0.0244822705793,2.10269817639,0.0210447185708,-0.205126935472,-0.435149023695,-0.0116429762461,-0.54252577998,-0.0619050298075,0.132078119292,-0.179442880979,0.573765101222,0.819002863491,0.00294365659986,0.0,0.818968791457,-0.57369858287,-0.0118659822081,0.0,-0.00802965638254,0.00921922686948,-0.999925262444,0.0,0.554044621722,0.119840763275,0.304286232256,1.0,-0.118093714286,-0.155208881633,2.42
0.329945260922,0.0756279295318,-0.126055620022,-2.03559795035,0.0234308899086,2.10491584752,0.0179321184776,-0.210120763195,-0.431163467502,-0.00378078324913,-0.55048454391,-0.0593986971115,0.121021518728,-0.172894670093,0.573773091874,0.818996130637,0.00324406288782,0.0,0.818966937113,-0.573706696914,-0.011598652211,0.0,-0.00763825773761,0.00931195407171,-0.999927469635,0.0,0.552241088684,0.117372158854,0.304425883448,1.0,-0.1192,-0.156662857143,2.436
0.326335994072,0.0682508599958,-0.126142348664,-2.04515216504,0.0223711887643,2.10685312399,0.0147410420886,-0.21377962274,-0.438878774403,-0.00677555123064,-0.55957686939,-0.0726985482478,0.106684312236,-0.188570325919,0.573828092676,0.818958327848,0.00305355633475,0.0,0.81892590242,-0.573761422381,-0.0117874269753,0.0,-0.00790155078872,0.00926477149138,-0.999925862004,0.0,0.550144045619,0.114649317853,0.304338055488,1.0,-0.120375428571,-0.158207706122,2.453
0.322611121072,0.0608213781026,-0.126271862989,-2.05454307609,0.0212642545982,2.10877186197,0.011471954781,-0.221087776674,-0.442721742949,-0.00827619842212,-0.54115666245,-0.0649624967744,0.123261905402,-0.188809012589,0.573918167205,0.818895457982,0.0029854898065,0.0,0.81886216877,-0.573851751524,-0.0118178987299,0.0,-0.00796454838046,0.00922738909293,-0.99992570787,0.0,0.548096952874,0.111864993534,0.304336416313,1.0,-0.121550857143,-0.159752555102,2.47
0.318876327468,0.0533162978081,-0.126295370703,-2.06380780518,0.0202174605927,2.11091143536,0.00817511515775,-0.222248390878,-0.437399294034,0.000688858743109,-0.554530310343,-0.0619121578189,0.116247131672,-0.196391139224,0.573923781167,0.818890439415,0.00326933415702,0.0,0.818861438752,-0.573857120709,-0.011605862207,0.0,-0.00762794577807,0.00933819178224,-0.999927303666,0.0,0.546106743013,0.109179590477,0.304436537826,1.0,-0.122726285714,-0.161297404082,2.487
0.315322471317,0.0462371142228,-0.126287583133,-2.07280444694,0.0192120890983,2.11260591893,0.00502371943459,-0.222738745514,-0.442847854622,0.00154031393303,-0.564856373427,-0.0608434799494,0.105006318293,-0.199943435626,0.573880683621,0.818921250472,0.00311342137979,0.0,0.818889263822,-0.573813395285,-0.0118028763338,0.0,-0.00787925505362,0.0093231695807,-0.999925495149,0.0,0.544058551836,0.106632844513,0.304369297667,1.0,-0.123832571429,-0.162751379592,2.503
0.311218393062,0.0381668352002,-0.126312632733,-2.08271024366,0.01805960286,2.11462654632,0.00136960749136,-0.232066517681,-0.46119676204,-0.00273906853972,-0.540437836855,-0.0602504315118,0.128808653628,-0.203191302616,0.573837683187,0.818950855939,0.00324897084894,0.0,0.818920800532,-0.573770137523,-0.0117174503936,0.0,-0.00773200244349,0.00938474508069,-0.999926068616,0.0,0.541846628947,0.103730948038,0.304442335141,1.0,-0.125077142857,-0.164387102041,2.521
0.307467446592,0.0310382458528,-0.126369965685,-2.09152067039,0.0169797039832,2.11644407179,-0.00191795967417,-0.233362533629,-0.451661136435,-0.00132554956544,-0.563497227794,-0.0658726358736,0.10866483434,-0.209565339822,0.573848365629,0.818943113593,0.00331313510629,0.0,0.818914381702,-0.573781208042,-0.0116235811991,0.0,-0.00761818378827,0.00938352772294,-0.999926953674,0.0,0.539878004273,0.101089855275,0.304465576348,1.0,-0.126183428571,-0.165841077551,2.537
0.303422639366,0.0233831815149,-0.126455789549,-2.10108729187,0.0158560968131,2.11807397612,-0.00552007379576,-0.239323194821,-0.443282228038,-0.00485061021757,-0.566128304186,-0.0667800730403,0.0916734772832,-0.217303532904,0.573840387748,0.818949519459,0.0031049748759,0.0,0.818917088362,-0.573772739768,-0.0118487294342,0.0,-0.00792211386009,0.00934217634347,-0.999924979113,0.0,0.537644032671,0.098240686854,0.304397304067,1.0,-0.127358857143,-0.167385926531,2.554
0.299264936685,0.0156280272515,-0.126565055762,-2.11038389771,0.014718694201,2.11992769739,-0.00913977573033,-0.237750722346,-0.462535866308,-0.00215991396681,-0.53798689507,-0.0692425247721,0.108870219591,-0.214530197595,0.573914229669,0.818896931431,0.00331957488815,0.0,0.81886801004,-0.573846706066,-0.0116570567433,0.0,-0.00764114799727,0.00940862556906,-0.999926542613,0.0,0.53554237828,0.0953651695937,0.304507920621,1.0,-0.128534285714,-0.16893077551,2.571
0.29524293955,0.00840654469515,-0.126624340035,-2.11928959831,0.0136552874131,2.12151388667,-0.0126924143533,-0.252006782523,-0.450062564055,-0.00198573713462,-0.571277314154,-0.0706052233529,0.0969289462311,-0.221415854847,0.573912902251,0.81889814951,0.00324780855411,0.0,0.818867808953,-0.573845022695,-0.0117536501044,0.0,-0.00776145297903,0.00940527839879,-0.999925647529,0.0,0.533462654816,0.0926313252656,0.304468538465,1.0,-0.129640571429,-0.17038475102,2.587
0.290951221488,0.000683999698161,-0.126640146646,-2.12879941773,0.0125286091276,2.12315315004,-0.0164749977127,-0.251898229335,-0.45805829546,-0.000972811091113,-0.551679462979,-0.0723793251362,0.0909921236553,-0.230797444637,0.573873835499,0.818925907096,0.00315063771746,0.0,0.818893524416,-0.573805371929,-0.0118969624399,0.0,-0.00793503068446,0.00940757341574,-0.999924263557,0.0,0.531204637948,0.0897626114989,0.304410153804,1.0,-0.12998,-0.170830857143,2.604
0.286648323714,-0.00710906168602,-0.12664013679,-2.13798535489,0.0113792360942,2.12490192484,-0.0203312023584,-0.253293297859,-0.452409846481,-0.00150107610383,-0.539564471117,-0.0748300095006,0.106170372771,-0.226750937625,0.573751327006,0.819010743842,0.00340046051807,0.0,0.818982447259,-0.573683036551,-0.0116735408661,0.0,-0.00761011539062,0.00948280961314,-0.999926078501,0.0,0.529060327176,0.086940069164,0.304528165596,1.0,-0.12998,-0.170830857143,2.621
0.282205956395,-0.0147967467645,-0.126658889539,-2.14730199308,0.0102121645477,2.12644066113,-0.0241971105656,-0.262204876167,-0.449719361633,-0.00189035850936,-0.550081282545,-0.0761813280391,0.0771371559871,-0.222195262236,0.573733591594,0.819023489409,0.00332213392648,0.0,0.818993854637,-0.57366516707,-0.0117511300844,0.0,-0.00771880766325,0.00946300753091,-0.999925432968,0.0,0.526817760097,0.084041490481,0.304493838473,1.0,-0.12998,-0.170830857143,2.638
0.277954322508,-0.0219465135566,-0.126732407654,-2.15601154316,0.00912311783604,2.12772731271,-0.0279024961206,-0.270075606652,-0.45237724093,-0.00396044329161,-0.539977726499,-0.0673575087442,0.0901108991952,-0.222988731543,0.573761059179,0.819005037095,0.00312139148169,0.0,0.818971860823,-0.573692232264,-0.0119607993542,0.0,-0.00800539100043,0.0094191540441,-0.999923593707,0.0,0.524681759014,0.0812691630711,0.3044125979,1.0,-0.12998,-0.170830857143,2.654
0.273365793415,-0.0296936212352,-0.126843900782,-2.16486164092,0.0079861946506,2.12937870694,-0.0318306997498,-0.2742422799,-0.451181780885,-0.00895070192581,-0.526209827613,-0.0665507004274,0.0860422136184,-0.23578557164,0.573884416946,0.818917014382,0.00351375070554,0.0,0.818890333449,-0.573815931002,-0.0116037069213,0.0,-0.00748637103115,0.00953674667976,-0.999926499655,0.0,0.522601094807,0.0783264350164,0.304596288258,1.0,-0.12998,-0.170830857143,2.671
0.268731936297,-0.0372784373748,-0.12693671993,-2.17396431143,0.00685169896896,2.1306680215,-0.0358142624852,-0.273538169688,-0.446848463682,-0.00156015329629,-0.531982492814,-0.065017619251,0.0701673158905,-0.240068049512,0.573975770993,0.818853620628,0.00336291518825,0.0,0.818824026218,-0.573906571373,-0.0117986577412,0.0,-0.00773152334022,0.00952596283228,-0.999924736957,0.0,0.5203340533,0.0753718180934,0.304530231088,1.0,-0.12998,-0.170830857143,2.688
0.26409372793,-0.0447855865631,-0.126934476003,-2.18296847348,0.00575315585669,2.13199336135,-0.0399192497591,-0.275275078358,-0.438927702288,-0.000842621280681,-0.521089636809,-0.06006359805,0.0775426047998,-0.233098565413,0.573901446794,0.818906093642,0.0032689547307,0.0,0.81887429603,-0.573831400558,-0.0119648625274,0.0,-0.00792242249294,0.00954369866477,-0.99992307356,0.0,0.51807762463,0.0725004717523,0.304454246446,1.0,-0.12998,-0.170830857143,2.705
0.259431407408,-0.0524295335756,-0.126935168185,-2.1915905431,0.0045726101894,2.13344149271,-0.0439708959046,-0.275441240937,-0.447979286314,-0.00115461976129,-0.510368964357,-0.0642000910815,0.0822993880152,-0.249396081348,0.57384955445,0.81894118782,0.00357304513075,0.0,0.81891490444,-0.573780412778,-0.0116260095708,0.0,-0.00747101861778,0.00959778511115,-0.999926030465,0.0,0.515965528978,0.0696514162969,0.304615686277,1.0,-0.12998,-0.170830857143,2.722
0.254946655199,-0.0594683112617,-0.126960930322,-2.19991135969,0.00349599059789,2.13448733686,-0.0478690372213,-0.282547842667,-0.431934801314,-0.00665635663186,-0.517532605154,-0.0693136530325,0.0664457279649,-0.243820591921,0.573837477301,0.81895034269,0.00341068228428,0.0,0.818921080574,-0.573767775067,-0.0118131700451,0.0,-0.00771760865883,0.00957210361199,-0.999924403817,0.0,0.513825168542,0.0669167576454,0.304549828479,1.0,-0.12998,-0.170830857143,2.738
0.250129917636,-0.0669426628193,-0.127014913669,-2.20868988102,0.00235613670003,2.13563646776,-0.052095559701,-0.289854346736,-0.441038384868,-0.00423333879666,-0.508299446919,-0.0637440096148,0.0698227042315,-0.249503951591,0.573813759178,0.818967374269,0.00331006984528,0.0,0.818936110773,-0.573743571218,-0.0119460394386,0.0,-0.00788443705777,0.00956572169281,-0.999923163358,0.0,0.511565470353,0.0640012621981,0.304492221462,1.0,-0.12998,-0.170830857143,2.755
0.245247773385,-0.0744069223786,-0.127150977892,-2.21703625547,0.00120117072427,2.13690891081,-0.0563328814035,-0.285475195749,-0.433460693758,-0.00480752571682,-0.492991988336,-0.0689316926967,0.0666648289819,-0.253344956223,0.573889711467,0.818913061391,0.00356985396061,0.0,0.818886425222,-0.573820174745,-0.0116694705973,0.0,-0.00750797221992,0.00962047928649,-0.999925535593,0.0,0.509470246803,0.0610550726816,0.304618489049,1.0,-0.12998,-0.170830857143,2.772
0.240315739976,-0.0818236185674,-0.127165014688,-2.22562449219,0.000108583102268,2.13790044444,-0.0606257365072,-0.286833609664,-0.436480273017,0.00150405467287,-0.51001836417,-0.0720829409454,0.0581252938291,-0.256288915329,0.573879333434,0.818920719323,0.00348037665726,0.0,0.818891906096,-0.57380881269,-0.0118422764747,0.0,-0.00770096303905,0.00964627572511,-0.999923819365,0.0,0.507205043528,0.0581639084174,0.304569608225,1.0,-0.12998,-0.170830857143,2.789
0.235421629623,-0.0891874700161,-0.12714874876,-2.23414160577,-0.001007076459,2.1388728078,-0.0649342413263,-0.289498570342,-0.437894510603,0.00185149469207,-0.48783529168,-0.0713497613557,0.059158685854,-0.26089382643,0.573783049103,0.81898863653,0.00337234296711,0.0,0.818957564559,-0.573711879091,-0.0119972556193,0.0,-0.00789101472764,0.00964581340511,-0.99992234207,0.0,0.504935763664,0.0553329653952,0.304507612875,1.0,-0.12998,-0.170830857143,2.806
0.230407864227,-0.096603323294,-0.12716514254,-2.24228619868,-0.00215483247149,2.13996301874,-0.069328174418,-0.297976175752,-0.4319668583,0.000531497660825,-0.47229525935,-0.0723133656292,0.0655570484487,-0.253614376998,0.573722566516,0.819029994508,0.00360994020008,0.0,0.819003255712,-0.573652123659,-0.0117326491677,0.0,-0.00753868686438,0.00968802489378,-0.999924652348,0.0,0.502812110104,0.0524626986276,0.304633621734,1.0,-0.12998,-0.170830857143,2.823
0.22558716137,-0.103481256497,-0.127217523709,-2.25007782963,-0.00322510422326,2.14075898496,-0.0734671487463,-0.303415183161,-0.430871097596,-0.003418807291,-0.493951200906,-0.0696755578319,0.040850793914,-0.251688805841,0.57377272024,0.818995194847,0.00353316114714,0.0,0.818966991935,-0.57370193546,-0.0118280290459,0.0,-0.00766026504857,0.0096803291338,-0.999923802881,0.0,0.500707211248,0.0497080096173,0.304608206373,1.0,-0.12998,-0.170830857143,2.839
0.220378825449,-0.110764259671,-0.127381651745,-2.25838251084,-0.00435156401604,2.14156163063,-0.0779618281197,-0.304889586292,-0.422329592972,-0.0119672277573,-0.488222728297,-0.0716147525871,0.0553316113212,-0.268518304783,0.573903065104,0.818904397808,0.00340676033851,0.0,0.818873534026,-0.57383145373,-0.0120143615155,0.0,-0.00788385903302,0.00968497124267,-0.999922020009,0.0,0.49844136221,0.0467114527398,0.30453621936,1.0,-0.12998,-0.170830857143,2.856
0.215151546066,-0.118094205855,-0.127449371539,-2.26631955766,-0.00548382404951,2.14249425642,-0.0824562062287,-0.307514124615,-0.428827890547,-0.00250895385335,-0.458519118366,-0.066576637497,0.0589910288902,-0.268553542579,0.573964560593,0.81886034405,0.00362863984426,0.0,0.818833450407,-0.573893509094,-0.0117799667263,0.0,-0.00756384038029,0.00973272249487,-0.99992402833,0.0,0.496309219968,0.0437928042271,0.304649122848,1.0,-0.12998,-0.170830857143,2.873
0.209962277354,-0.125256874868,-0.127441884511,-2.27430057596,-0.00655530268455,2.14326602174,-0.087054230275,-0.304895754882,-0.420772854632,-2.3327761524e-05,-0.474386612336,-0.0614403881403,0.0484148497132,-0.2628399222,0.573868924742,0.818927367341,0.00362920611811,0.0,0.818900010841,-0.573797281079,-0.0118405815739,0.0,-0.00761429429184,0.0097670867923,-0.999923310328,0.0,0.49409836272,0.0409596311327,0.304629484486,1.0,-0.12998,-0.170830857143,2.89
0.204619267444,-0.132507137488,-0.127460289419,-2.28231446609,-0.00769236778646,2.14390560171,-0.091695539852,-0.319966059655,-0.426690419519,8.03667061428e-05,-0.469623831647,-0.0636835920141,0.0390245976805,-0.277908392883,0.573847493922,0.818942730667,0.00355028289971,0.0,0.818913878203,-0.573775536486,-0.0119348530947,0.0,-0.0077370446701,0.00975634931679,-0.999922472889,0.0,0.491839535681,0.0380546624567,0.304609849357,1.0,-0.12998,-0.170830857143,2.907
0.199275549894,-0.139684950259,-0.127488668155,-2.29013493082,-0.00881610567109,2.14463094821,-0.096409466081,-0.316928978009,-0.428429120246,-0.00362186956199,-0.455617305893,-0.0664960553242,0.0457017015013,-0.282995572851,0.573777368845,0.818991612902,0.00360775534763,0.0,0.818963802507,-0.573705589601,-0.0118715434768,0.0,-0.00765305247583,0.00976643205234,-0.999923020833,0.0,0.489645811114,0.0351790981985,0.304633191842,1.0,-0.12998,-0.170830857143,2.924
0.194141023628,-0.146442666214,-0.127620183946,-2.2972901933,-0.0098225601277,2.14532646452,-0.100846139032,-0.324661684165,-0.414858401523,-0.00976534022796,-0.452895449907,-0.0585535167055,0.0363137475249,-0.270693714887,0.573901962368,0.818903234408,0.00384410805627,0.0,0.818879201082,-0.573830297292,-0.0116786491616,0.0,-0.00735795956675,0.00985044945734,-0.999924411681,0.0,0.487645252013,0.0324065248823,0.304734334546,1.0,-0.12998,-0.170830857143,2.94
0.188930855411,-0.153075855122,-0.127693369258,-2.30463974192,-0.0108969273001,2.14575585852,-0.105414896757,-0.320565034268,-0.423245085152,0.00162863077859,-0.456290435307,-0.0710114996832,0.0281535526698,-0.2914072733,0.573873686729,0.818923930179,0.0036517340355,0.0,0.818896424255,-0.573801395649,-0.0118891376589,0.0,-0.00764107636633,0.00981344414354,-0.999922652142,0.0,0.485368134131,0.0294741239697,0.304651203538,1.0,-0.12998,-0.170830857143,2.957
0.18251913459,-0.161414576935,-0.127671602635,-2.31363272344,-0.0122174601977,2.14633061892,-0.111075493879,-0.325963173951,-0.412740841744,0.00124158001236,-0.43721451295,-0.0609898020957,0.030874772064,-0.28810598412,0.57375533018,0.81900709143,0.00359891370416,0.0,0.818978711923,-0.573683007539,-0.0119341183089,0.0,-0.00770964032176,0.00979488628241,-0.999922307806,0.0,0.482867370548,0.0263133040897,0.304640257994,1.0,-0.12998,-0.170830857143,2.976
0.177889688439,-0.167252277612,-0.127693578542,-2.31965988108,-0.0130289228878,2.14681666377,-0.115140859752,-0.337755881596,-0.416036929799,0.000855782864588,-0.429826023746,-0.0611438196196,0.0308992682466,-0.295198931368,0.573769783655,0.818995789427,0.00385735228048,0.0,0.8189713267,-0.573697291053,-0.011752922329,0.0,-0.00741278406607,0.00990272327485,-0.999923490425,0.0,0.481125146458,0.0239441730168,0.304748621149,1.0,-0.12998,-0.170830857143,2.99
0.17119944441,-0.1754215883,-0.12776402151,-2.32849638206,-0.0142926590999,2.14727607545,-0.120946234783,-0.340436948545,-0.410138273996,-0.00377314560128,-0.439387032512,-0.0653502193786,0.0183746272345,-0.285937101631,0.573829226814,0.818954604458,0.00375781752881,0.0,0.818927866026,-0.573755772008,-0.0119252352084,0.0,-0.00761030330779,0.0099206209917,-0.999921829226,0.0,0.478483246179,0.0205189581916,0.30468040349,1.0,-0.12998,-0.170830857143,3.01
0.166415596409,-0.181149712299,-0.127911413018,-2.33459666357,-0.0152386812601,2.14756542132,-0.125139969735,-0.342092688485,-0.412491281044,-0.0102568038387,-0.436730164095,-0.065883078059,0.0280078623064,-0.300818871014,0.573894337857,0.818909229433,0.00370267837955,0.0,0.818881549427,-0.573820782995,-0.011977642147,0.0,-0.00768407583639,0.00990614674156,-0.999921408529,0.0,0.476645869587,0.0180442192083,0.30465912563,1.0,-0.12998,-0.170830857143,3.024
0.159276511506,-0.189754553129,-0.127959175926,-2.34351171398,-0.0165160645298,2.14805280186,-0.131412601135,-0.338057608153,-0.420522075141,-0.000249819599977,-0.41011032377,-0.0630185871366,0.0247121028189,-0.296672190902,0.573897514462,0.81890620295,0.00387563730237,0.0,0.81888106972,-0.573823729445,-0.0118687860358,0.0,-0.00749563416953,0.00998534507445,-0.999922051138,0.0,0.473955819765,0.0144867319811,0.304726567349,1.0,-0.12998,-0.170830857143,3.045
0.15484719382,-0.195035898322,-0.127956702236,-2.34892190977,-0.0173691359721,2.14833708119,-0.135352553637,-0.349135482476,-0.398007386271,0.000562214663379,-0.413233617288,-0.0641768839128,0.0161243796743,-0.30294892406,0.573804759339,0.818970794538,0.00396014579203,0.0,0.818947575004,-0.573731802784,-0.0117232576649,0.0,-0.00732908516748,0.00997020479349,-0.999923436833,0.0,0.472310121946,0.0123078692371,0.304783042988,1.0,-0.12998,-0.170830857143,3.058
0.148219944134,-0.202636307546,-0.128007176907,-2.35704220432,-0.0185953616701,2.14853389585,-0.141168881499,-0.347176221575,-0.403336982636,-0.00105446653623,-0.427225148329,-0.0597015497732,0.00797029631491,-0.30108656128,0.573790625855,0.818981619281,0.00376455340963,0.0,0.818954691037,-0.573716790956,-0.0119584574858,0.0,-0.00763411635465,0.00994484094851,-0.999921407115,0.0,0.469762824724,0.00905741870847,0.30467846016,1.0,-0.12998,-0.170830857143,3.077
0.143308219921,-0.208260980912,-0.128112515259,-2.36287108527,-0.0194343490555,2.14868148365,-0.145516759531,-0.356169841343,-0.394433079172,-0.0113582229303,-0.409127391051,-0.0620708486201,0.00776341149783,-0.305598189565,0.573834682932,0.818950652942,0.00378571147807,0.0,0.818923390575,-0.573759969218,-0.0120301701507,0.0,-0.00768017386595,0.0100037291562,-0.999920467003,0.0,0.467927309332,0.00664987976254,0.304670175151,1.0,-0.12998,-0.170830857143,3.091
0.137219527792,-0.215086408286,-0.128234158956,-2.36969472195,-0.020448725242,2.14892359271,-0.15081723465,-0.354250128177,-0.404287237637,-0.00189214242084,-0.385389092408,-0.0680525675232,0.0154746885339,-0.312462030133,0.573969976039,0.818854827862,0.00399804878906,0.0,0.818830959608,-0.57389531623,-0.0118647586921,0.0,-0.00742119634337,0.0100839355357,-0.999921616973,0.0,0.465785109369,0.00369742454425,0.304764769169,1.0,-0.12998,-0.170830857143,3.108
0.131243859395,-0.221812878261,-0.128217353162,-2.37654774111,-0.0215044859819,2.14908571329,-0.156177638078,-0.350839743734,-0.393201803413,0.000239152819005,-0.411995656703,-0.0712049532429,0.00528932299496,-0.326592365782,0.573828665621,0.818953708635,0.00402896098458,0.0,0.818930489791,-0.573754259393,-0.0118173440864,0.0,-0.00736636606534,0.0100807638667,-0.999922054388,0.0,0.463593773142,0.000882801825182,0.304780449061,1.0,-0.12998,-0.170830857143,3.125
0.123627008717,-0.230059414569,-0.128255950135,-2.38509935662,-0.022838615391,2.14912346103,-0.162922604557,-0.35942104307,-0.392922158445,-0.00141840453178,-0.401649821326,-0.0583787649465,0.00289661250767,-0.326482563747,0.573770677408,0.81899509853,0.003871076362,0.0,0.818968918638,-0.573695617854,-0.0119998025561,0.0,-0.00760710639189,0.0100556196654,-0.999920505063,0.0,0.460795577977,-0.00269259649766,0.304697421544,1.0,-0.12998,-0.170830857143,3.146
0.117376241948,-0.236741536607,-0.128352022405,-2.39179262798,-0.023852079461,2.14913605635,-0.168416656567,-0.369274086722,-0.396729918205,-0.0122500552587,-0.382947946334,-0.0602115311661,0.00101513157295,-0.324230870199,0.573846225983,0.818941904062,0.00392601535762,0.0,0.818916193092,-0.573770624698,-0.012011903532,0.0,-0.00758456489197,0.0101082576747,-0.999920145563,0.0,0.458586797792,-0.00561556033768,0.304718443114,1.0,-0.12998,-0.170830857143,3.163
0.112878403375,-0.241462661311,-0.128461895971,-2.39635002925,-0.0246226291728,2.14920694775,-0.172379440014,-0.377014125812,-0.389394009342,-0.00363559139819,-0.376067687155,-0.0666577860096,0.00589422422051,-0.322180048199,0.573909623708,0.818896777821,0.00406915121089,0.0,0.818874043612,-0.57383501805,-0.0118076102067,0.0,-0.00733433370209,0.0101088180628,-0.999922006632,0.0,0.457087945215,-0.00772827374607,0.304806851571,1.0,-0.12998,-0.170830857143,3.175
0.106577179897,-0.24805568105,-0.12850745398,-2.40291291417,-0.0256271574333,2.14923146925,-0.178014773081,-0.371018942096,-0.389762412745,-0.00275168899065,-0.385454329379,-0.0561653192208,9.5818973173e-05,-0.328532315321,0.573869763677,0.818924338605,0.00414353474809,0.0,0.818902681748,-0.573795071422,-0.0117626841671,0.0,-0.00725534822293,0.0101435957959,-0.999922230669,0.0,0.454893503456,-0.0106028166717,0.304823833607,1.0,-0.12998,-0.170830857143,3.192
0.100210209485,-0.254537748252,-0.128526253792,-2.40954799105,-0.02661885034,2.14917425557,-0.183723653207,-0.378446708999,-0.387724165447,-0.00299728280275,-0.382392930259,-0.065073313272,-0.00191660416811,-0.340663723355,0.573802091651,0.818972158863,0.00406319152319,0.0,0.818948456421,-0.573726300324,-0.0119291635465,0.0,-0.00743863619981,0.0101727192771,-0.999920588084,0.0,0.452634668313,-0.0134627789744,0.304737791675,1.0,-0.12998,-0.170830857143,3.209
0.0937375307523,-0.26102141393,-0.128607690356,-2.41594842415,-0.0276321180445,2.14910760521,-0.189427247568,-0.376632009606,-0.379047689664,-0.00731576314458,-0.372597812246,-0.0597404992966,-0.00641021901755,-0.333842718208,0.573865924215,0.818927216257,0.00410638527657,0.0,0.818904126606,-0.573790039985,-0.0119066511978,0.0,-0.00739462011769,0.0101957535422,-0.999920679956,0.0,0.450436422539,-0.0163755111856,0.30474321071,1.0,-0.12998,-0.170830857143,3.226
0.0871482185277,-0.267518227188,-0.128766856087,-2.42211477202,-0.0286293968921,2.14902925474,-0.195277445683,-0.384202010864,-0.380580334704,-0.00780418162161,-0.358858916748,-0.0575684172913,-0.00180268904572,-0.357268490643,0.573974858386,0.818849838819,0.00430700679238,0.0,0.81883026134,-0.573899560956,-0.0117065772166,0.0,-0.00711427653166,0.0102461857683,-0.999922198347,0.0,0.448296799556,-0.0193478824366,0.304844523736,1.0,-0.12998,-0.170830857143,3.243
0.0809902997918,-0.273548407926,-0.128788760641,-2.4279578502,-0.0295660655616,2.14891069806,-0.200795603285,-0.379597056073,-0.366154250749,0.000479625085171,-0.36627697974,-0.0529554587799,-0.0106066352006,-0.344561247886,0.573918890435,0.818888738764,0.00436893900797,0.0,0.818870272439,-0.573843854588,-0.0116384864651,0.0,-0.00702367192916,0.0102573389997,-0.999922724529,0.0,0.446113929682,-0.0222076767137,0.304867552231,1.0,-0.12998,-0.170830857143,3.26
0.0744073869692,-0.279858076878,-0.128804232509,-2.43428819799,-0.0305926781497,2.148662122,-0.206777308604,-0.392112134377,-0.368086106064,-0.00324965714565,-0.37115676765,-0.0607790817231,-0.0178892119615,-0.352077606793,0.57378439487,0.818983773672,0.00421824217882,0.0,0.818962503776,-0.573708648351,-0.0118131756031,0.0,-0.00725489679493,0.0102329950081,-0.999921323048,0.0,0.443971916507,-0.0248913311402,0.304776455574,1.0,-0.12998,-0.170830857143,3.276
0.0676630956679,-0.286176813688,-0.128842447507,-2.44037082067,-0.0315918107608,2.14845110062,-0.212771700142,-0.397567834345,-0.366328376882,-0.00540026793153,-0.359065954451,-0.0619266332918,-0.0117797888447,-0.362805825804,0.573796242068,0.818975310309,0.00424977565002,0.0,0.818954717616,-0.57372076789,-0.0117642631551,0.0,-0.00719659507551,0.0102308607823,-0.999921766193,0.0,0.441773469777,-0.027795599111,0.304788605017,1.0,-0.12998,-0.170830857143,3.293
0.0608260183091,-0.292480541677,-0.129017102515,-2.44630567607,-0.0324854392438,2.14821154871,-0.218901926219,-0.400632458303,-0.369649913214,-0.00725060361041,-0.349889098518,-0.0569289203087,-0.0160217654791,-0.352913577485,0.57392748573,0.818882338674,0.00443885491396,0.0,0.818864192137,-0.573851369987,-0.0116955932752,0.0,-0.00703020715308,0.010347441006,-0.999921750264,0.0,0.439596074742,-0.0307586589351,0.304843576794,1.0,-0.12998,-0.170830857143,3.31
0.0540153285457,-0.298725795723,-0.129061948922,-2.45211255368,-0.0334166261037,2.14796652138,-0.225033753735,-0.387507943081,-0.36884528368,-0.00127973299534,-0.345683107561,-0.051972253233,-0.0218309545466,-0.3618933003,0.573916748366,0.818888984247,0.00459829581928,0.0,0.818873666021,-0.573841294125,-0.0115254134768,0.0,-0.00679947302231,0.0103802510332,-0.999923005814,0.0,0.437446731322,-0.0336362325032,0.304919814932,1.0,-0.12998,-0.170830857143,3.327
0.0475339279718,-0.30449830357,-0.129074854388,-2.45772016867,-0.0343834864958,2.14758304382,-0.230865931729,-0.410068759822,-0.356002553311,-0.00465092280498,-0.350931403637,-0.0608139138333,-0.026326360797,-0.365366168625,0.573844178917,0.818940614386,0.0044581759577,0.0,0.818922962241,-0.573768375747,-0.0116524593444,0.0,-0.00698484631647,0.0103377976609,-0.999922167902,0.0,0.435319893803,-0.0363402414447,0.304857414924,1.0,-0.12998,-0.170830857143,3.343
0.0405679251273,-0.310613337289,-0.129131447964,-2.46355305899,-0.0353586263027,2.14718019296,-0.237144693904,-0.414491028916,-0.35965589162,-0.00520364275422,-0.335751273608,-0.0496586703519,-0.0193871701365,-0.375306938193,0.573821737682,0.818956609104,0.00440825023246,0.0,0.818937867775,-0.573745446791,-0.0117336231604,0.0,-0.00708025105351,0.0103432902176,-0.99992144011,0.0,0.43294951567,-0.0394102863794,0.304819251115,1.0,-0.12998,-0.170830857143,3.361
0.0334791355636,-0.316682485962,-0.129300098559,-2.46921976422,-0.0362454036013,2.14680221891,-0.243507813779,-0.418280036862,-0.350083198633,-0.00466258318041,-0.328106714461,-0.0566295108659,-0.0221617436342,-0.372376686046,0.573959924283,0.818859113511,0.0045281825867,0.0,0.818841721291,-0.573882919036,-0.0117208195958,0.0,-0.0069991880591,0.0104353464641,-0.999921054339,0.0,0.43088102057,-0.0421923077648,0.304842053183,1.0,-0.12998,-0.170830857143,3.377
0.0264690763343,-0.322690761958,-0.129302444744,-2.47466391245,-0.0371835731048,2.14643592582,-0.249947543052,-0.409884495734,-0.349120515896,0.00079397942267,-0.314494394323,-0.063015031252,-0.01495194841,-0.388935729693,0.573821261419,0.81895563493,0.00464487463174,0.0,0.818940894876,-0.573745650684,-0.0115102529039,0.0,-0.0067615400378,0.0104089060318,-0.999922965159,0.0,0.428748966091,-0.0450376249669,0.304922872092,1.0,-0.12998,-0.170830857143,3.394
0.0193023819512,-0.328643463127,-0.12932723067,-2.48016860162,-0.0381294890221,2.14599021164,-0.25642457658,-0.428576277447,-0.347031865717,-0.00264708139383,-0.328487169135,-0.0524628801425,-0.025895466868,-0.377503992327,0.573789484641,0.81897783544,0.0046561008337,0.0,0.81896351953,-0.573714277656,-0.0114642136313,0.0,-0.00671779467665,0.0103914220244,-0.999923441861,0.0,0.42655112689,-0.0479259375053,0.304933929217,1.0,-0.12998,-0.170830857143,3.411
0.0124862067279,-0.334182406109,-0.129424221481,-2.48543143034,-0.0389872332959,2.14544227268,-0.262612421586,-0.43141878999,-0.34982377154,-0.0134980273422,-0.32273769888,-0.0558648293728,-0.0327769446843,-0.390098225247,0.573815971698,0.818959730973,0.00457564969659,0.0,0.8189431254,-0.573739094945,-0.0116771226652,0.0,-0.00693799769864,0.0104479175068,-0.999921349511,0.0,0.42427445693,-0.0508403097881,0.304861348727,1.0,-0.12998,-0.170830857143,3.428
0.00513252155916,-0.340032721726,-0.129567914823,-2.49074871013,-0.0398379335962,2.14496268404,-0.269184324869,-0.429992070047,-0.345206606066,-0.0014479663956,-0.312639163685,-0.046835079372,-0.0302710749553,-0.394990974563,0.573987117256,0.818839115792,0.00469452604603,0.0,0.818823992258,-0.573909751641,-0.0116453242193,0.0,-0.0068415444306,0.0105284593424,-0.9999211693,0.0,0.422208940912,-0.0536162331156,0.30488338508,1.0,-0.12998,-0.170830857143,3.444
-0.00301650263118,-0.346482234112,-0.12958331359,-2.49661067711,-0.0408283331666,2.14433667068,-0.276732142577,-0.434714221448,-0.338951377843,-0.0030056450376,-0.30654539593,-0.0515689863941,-0.0329043001182,-0.398663664935,0.57383235364,0.81894748662,0.00471072974368,0.0,0.818932576142,-0.573754967979,-0.0116369821742,0.0,-0.00682740415883,0.0105356497587,-0.999921190213,0.0,0.419753420074,-0.056801545914,0.304893286916,1.0,-0.12998,-0.170830857143,3.463
-0.0104610230317,-0.352235107931,-0.129650937399,-2.5016546516,-0.0417494178959,2.14379914732,-0.283477951265,-0.438176307461,-0.337855649867,-0.00316079888884,-0.294311891585,-0.0463799469855,-0.0300140893863,-0.399061006558,0.573854913955,0.818931118362,0.00480707902438,0.0,0.818918537703,-0.573778937738,-0.0114414211057,0.0,-0.00661166238048,0.0105025240555,-0.999922988489,0.0,0.417598773408,-0.0597226256324,0.30497525295,1.0,-0.12998,-0.170830857143,3.48
-0.0175520164319,-0.35754985644,-0.129806422217,-2.50648603768,-0.0425880095416,2.14320942229,-0.289931748738,-0.449462143672,-0.326561019564,-0.0144783621915,-0.308704222793,-0.0570543307039,-0.0401345289712,-0.39725473492,0.57393765379,0.818873119787,0.00480938179748,0.0,0.818860077802,-0.573860879189,-0.0115156945144,0.0,-0.00667010504702,0.0105477045202,-0.999922124782,0.0,0.415493778457,-0.062502711044,0.304954265451,1.0,-0.12998,-0.170830857143,3.496
-0.0246011688955,-0.362821697526,-0.1298346496,-2.5113154255,-0.0433967231661,2.14256475711,-0.296480289548,-0.437221063578,-0.328566703544,0.000120954973845,-0.298330897126,-0.049183371848,-0.0357332794133,-0.408067673645,0.573821882866,0.818954598029,0.00474973812531,0.0,0.818939949247,-0.573744000397,-0.0116588351625,0.0,-0.00682305427611,0.010580048743,-0.999920751109,0.0,0.4133704873,-0.0651840959393,0.304905154011,1.0,-0.12998,-0.170830857143,3.512
-0.03220376742,-0.368373117942,-0.129858095032,-2.51623940286,-0.0442864980628,2.14196109188,-0.30342476381,-0.458801909403,-0.322669568349,-0.000212334721659,-0.288183459621,-0.0542507953348,-0.0410023680892,-0.412940588144,0.573788438451,0.818977943511,0.00476475013419,0.0,0.818963971841,-0.573711266619,-0.0115819809334,0.0,-0.0067519260875,0.0105479685297,-0.999921572852,0.0,0.411176351709,-0.0680683849105,0.304923518353,1.0,-0.12998,-0.170830857143,3.529
-0.0403545299033,-0.374076745329,-0.129935944464,-2.52134977279,-0.0451546506584,2.1412255257,-0.310843536408,-0.455410699493,-0.316503449643,-0.0109062309976,-0.283577787802,-0.0526206458552,-0.0398445897643,-0.413708631115,0.573856787991,0.8189300984,0.00475685953978,0.0,0.818915397886,-0.573778653966,-0.0116779390278,0.0,-0.00683416287208,0.0105971341312,-0.999920494322,0.0,0.408833966143,-0.0711456188705,0.304898034283,1.0,-0.12998,-0.170830857143,3.547
-0.0472036237993,-0.378841175083,-0.130068016522,-2.52545599664,-0.0458401871447,2.14063721241,-0.317123809213,-0.454142012634,-0.316030704852,-0.00440478119751,-0.269159592094,-0.0430463088652,-0.0350404646477,-0.41715276527,0.573951264545,0.818863139325,0.00488383905684,0.0,0.818850218452,-0.573872929329,-0.0116158351283,0.0,-0.0067092053661,0.0106662612978,-0.999920605565,0.0,0.406915435542,-0.0737394060972,0.304943356827,1.0,-0.12998,-0.170830857143,3.562
-0.0549272359564,-0.384190392685,-0.13007614812,-2.53009807749,-0.0466768510551,2.13998320669,-0.324341380952,-0.459485768048,-0.303768053636,0.000417546464448,-0.27339822731,-0.0474928025557,-0.0396826685951,-0.417819167921,0.573808968388,0.818962628668,0.0049221483036,0.0,0.818950784629,-0.573731471999,-0.0115133528977,0.0,-0.00660514153169,0.0106376671722,-0.999921602998,0.0,0.404739636685,-0.0765917706925,0.304974595181,1.0,-0.12998,-0.170830857143,3.579
