nelsonifechukwu/NELSON_IML_WORK/CNN-GradCAM/train2dof/data_sample_2022-02-22-11-34-18/robot_state.csv
position_joint1,position_joint2,position_joint3,position_joint4,position_joint5,position_joint6,position_joint7,velocity_joint1,velocity_joint2,velocity_joint3,velocity_joint4,velocity_joint5,velocity_joint6,velocity_joint7,ee_T_00,ee_T_10,ee_T_20,ee_T_30,ee_T_01,ee_T_11,ee_T_21,ee_T_31,ee_T_02,ee_T_12,ee_T_22,ee_T_32,ee_T_03,ee_T_13,ee_T_23,ee_T_33,v_x,v_y,time
0.465070171565,0.547761481358,-0.124003438889,-1.35584092831,0.0795335057924,1.89409313292,0.159150622998,-0.00031825409236,0.000581535127733,0.000104539879113,-0.00117691847693,-4.57015148616e-05,0.00526375492158,0.000766602760346,0.573821260446,0.818966452898,0.00196392172725,0.0,0.81892323654,-0.573762383379,-0.0119250566161,0.0,-0.0086395632449,0.00845131486956,-0.999926963945,0.0,0.661676766722,0.260883763025,0.303224477259,1.0,0.0,0.0,0.0
0.465075461279,0.547759271362,-0.124001637693,-1.35583591697,0.0795320816371,1.89409314164,0.159146696348,0.00101938633741,0.000490025926814,0.00704745653135,0.00136322025482,-0.000488742478182,-0.000866036269939,-0.00214308613233,0.573811799471,0.818973067902,0.00196970579638,0.0,0.818929935657,-0.573752908088,-0.0119208995632,0.0,-0.00863293746945,0.0084535666281,-0.999927002137,0.0,0.661676263136,0.260888700702,0.303228366434,1.0,-0.00012,-0.000157714285714,0.007
0.465064168982,0.547755844192,-0.124000989479,-1.35584155881,0.0795335057924,1.89409267977,0.159152490247,-0.000493124332296,-0.000349249390877,0.00118046203605,-0.000109593051323,-3.8840540726e-05,0.00659001348187,0.00195997525674,0.573826015451,0.818963110027,0.00196858035115,0.0,0.818919941407,-0.573767105737,-0.0119241285295,0.0,-0.00863608100573,0.00845464764581,-0.999926965852,0.0,0.661677685079,0.260881178228,0.303228050106,1.0,-0.00044,-0.000578285714286,0.023
0.465066185204,0.547751677556,-0.12400652045,-1.35585364819,0.0795324411852,1.89409386441,0.15915334445,-0.000230672604031,0.000630432264674,0.000351492444662,0.000824035651128,-1.3814675247e-05,0.000392099674443,9.24215738072e-05,0.573829306988,0.818960821216,0.00196128944871,0.0,0.818917584355,-0.573770453376,-0.0119249221333,0.0,-0.00864088045076,0.00844916689383,-0.999926970715,0.0,0.661676063033,0.260877837531,0.303225531921,1.0,-0.00078,-0.00102514285714,0.04
0.46506491134,0.547686869457,-0.123998839781,-1.35591825974,0.0795325344071,1.89410988147,0.15914776503,0.000118731953998,-0.00921226224316,0.00150137716402,-0.00327221090931,3.16558076094e-05,0.000190104932926,-0.000253937365303,0.573823964345,0.818964519335,0.00198013008213,0.0,0.818921442548,-0.573764949419,-0.0119247916059,0.0,-0.00863001814391,0.00846446514379,-0.999926935139,0.0,0.661664724462,0.260875727743,0.303241827119,1.0,-0.00112,-0.001472,0.057
0.46505981518,0.547567140108,-0.124004362776,-1.35607435176,0.0795313467622,1.89413509686,0.159148387048,-0.00324361653415,-0.00752278520224,0.000413510251194,-0.00339898299394,0.000378421552041,0.00109766210248,0.000950273559673,0.573835300761,0.818956597802,0.00197114646364,0.0,0.818913279984,-0.57377620041,-0.0119439779988,0.0,-0.00865076921187,0.0084682372629,-0.99992672389,0.0,0.661635043864,0.260857461074,0.303252793997,1.0,-0.00146,-0.00191885714286,0.074
0.465053473963,0.547429800865,-0.124004129173,-1.35628901713,0.0795265663107,1.89420252265,0.159145386145,0.000327120458452,-0.00638616343249,0.000604520780854,-0.012603583731,0.000137314406327,0.0066719476035,-6.00590723689e-05,0.57385392755,0.818943544692,0.00197163449321,0.0,0.81890017551,-0.573794766347,-0.0119505466036,0.0,-0.00865567609176,0.00847260306122,-0.999926644444,0.0,0.66160951764,0.260829784618,0.303255673937,1.0,-0.00178,-0.00233942857143,0.09
0.46503612164,0.547243219533,-0.124004294706,-1.35649813202,0.0795232582006,1.89432594705,0.159137965769,0.00054650062081,-0.0130481584592,0.000696954867008,-0.0159901293689,0.0005359158288,0.00591485325563,0.0015450840304,0.573873242289,0.818929787714,0.00206191201129,0.0,0.818887579658,-0.573813690139,-0.0119049482468,0.0,-0.00856632832889,0.00852056943341,-0.999927006294,0.0,0.661595871615,0.260803700218,0.303299023773,1.0,-0.00212,-0.00278628571429,0.107
0.465015840457,0.547041679857,-0.124006608758,-1.35673382331,0.0795243045262,1.89444696061,0.159126739812,-0.00192221275523,-0.0114105784388,-0.000896675820849,-0.0147086430307,0.000461273723171,0.0093463565558,0.000207740241332,0.573895893498,0.81891370485,0.00214344042109,0.0,0.818872484553,-0.573835934853,-0.0118710073008,0.0,-0.00849151091907,0.00856809168705,-0.999927238376,0.0,0.661577045451,0.260772013806,0.303340182096,1.0,-0.00246,-0.00323314285714,0.124
0.464980677369,0.546822039567,-0.12400130828,-1.35705951155,0.0795141572267,1.89458224988,0.159106759171,-0.00184689034251,-0.0134703207594,0.000600538637948,-0.0158518201998,-0.000163994789857,0.011007090244,0.000914512516047,0.573920250396,0.818896553927,0.00217417876092,0.0,0.818855643947,-0.57386007519,-0.0118657229056,0.0,-0.00846928827006,0.00859048260383,-0.999927234735,0.0,0.661543640414,0.260723588908,0.303352282563,1.0,-0.0028,-0.00368,0.141
0.464945652165,0.546559366978,-0.124002019877,-1.35744927705,0.0795088953391,1.89471974645,0.159020292072,-0.00105114065559,-0.0180144047186,0.000879213896079,-0.0191861915041,0.000172243553797,0.011898280934,-0.00432779321547,0.573898978287,0.818911409574,0.00219383042745,0.0,0.81887058242,-0.573838551761,-0.0118757172433,0.0,-0.00846641887691,0.00861209100165,-0.999927073161,0.0,0.661498156549,0.260665672941,0.303364746604,1.0,-0.00314,-0.00412685714286,0.158
0.464910084987,0.546292270808,-0.124002028629,-1.35786013721,0.0794953501288,1.8948747946,0.158942132108,-0.000835995762218,-0.0151823889374,0.000533604017931,-0.0225738854457,0.000602569335557,0.0106747359303,4.41658516192e-05,0.573883520017,0.818922199865,0.00220973334266,0.0,0.818881479209,-0.573822929686,-0.0118791951436,0.0,-0.00846030384621,0.00862695012781,-0.99992699683,0.0,0.66145186592,0.260605210064,0.303371773556,1.0,-0.00346,-0.00454742857143,0.174
0.464860126868,0.545968064742,-0.124003118817,-1.35840784752,0.0794734908588,1.89505499907,0.158911922471,-0.000447699353278,-0.0207220404136,0.000667133862272,-0.0297156585542,-0.000436536765297,0.00658749841194,0.000844442566617,0.573929754607,0.818889885628,0.00217690026157,0.0,0.818848608592,-0.573869159233,-0.0119118087958,0.0,-0.00850536757424,0.00861925919677,-0.999926680859,0.0,0.661389999547,0.260522189909,0.303353858339,1.0,-0.0038,-0.00499428571429,0.191
0.464800423685,0.545649020973,-0.124002266367,-1.35895805385,0.0794263982831,1.89523851165,0.158828404307,-0.0032823580692,-0.0175908948965,0.00059131347059,-0.0357145650978,-0.00123646067372,0.00772034737551,-0.00322453392838,0.573923271647,0.818894552744,0.00212994121672,0.0,0.818852745211,-0.57386294979,-0.0119265845953,0.0,-0.00854448531621,0.008589218032,-0.999926605859,0.0,0.661321743818,0.260424169629,0.303336117578,1.0,-0.00414,-0.00544114285714,0.208
0.464740216051,0.545259383588,-0.124012280304,-1.35962205281,0.0793488600256,1.89545919963,0.158741164255,-0.00784300850792,-0.0260353814884,-0.00261673131582,-0.0402117956584,-0.000841199751651,0.0107102052199,-0.00421185753435,0.573924522028,0.818893853264,0.00206082576342,0.0,0.818851489361,-0.573864827067,-0.0119224799622,0.0,-0.00858077534289,0.00853027809368,-0.999926799646,0.0,0.661245780566,0.26030726852,0.303315266139,1.0,-0.00448,-0.005888,0.225
0.464674102464,0.544837334575,-0.124005224856,-1.36031528739,0.0793327800117,1.89569515063,0.158672041497,-0.00425187625995,-0.0189233698034,0.000780948888937,-0.0412098429947,0.00010692483977,0.0126739054309,-0.0087495680379,0.573951449451,0.818875016481,0.00204645023808,0.0,0.818832160888,-0.573891508646,-0.0119655965799,0.0,-0.00862405372179,0.00854353526068,-0.999926314137,0.0,0.661161097647,0.26020429898,0.303304283206,1.0,-0.00482,-0.00633485714286,0.242
0.464609547394,0.544427151552,-0.124006288948,-1.36100564609,0.079308477157,1.89593553612,0.158566172813,-0.00929471604297,-0.0281856095102,0.0010302320467,-0.0462877099346,-0.00483757011697,0.01430633967,-0.0108612160664,0.573950373697,0.818875832448,0.00202150090377,0.0,0.818832465828,-0.573890354365,-0.0120000405379,0.0,-0.00866659017359,0.0085428627974,-0.999925952113,0.0,0.661079479358,0.260096816312,0.303286872431,1.0,-0.00514,-0.00675542857143,0.258
0.464542236454,0.543944069975,-0.124011637166,-1.36180114378,0.0792776347791,1.89622251243,0.158475413066,-0.0054631805963,-0.0293356913464,0.00664012379982,-0.0514794332211,-0.000307846979962,0.0220694807981,-0.00532463659957,0.573971060687,0.818861368041,0.00200706866376,0.0,0.818817663402,-0.57391095272,-0.0120249469769,0.0,-0.00869505324989,0.00854555937311,-0.99992568197,0.0,0.660986860123,0.259975616485,0.303275140618,1.0,-0.00548,-0.00720228571429,0.275
0.464456096748,0.54341996596,-0.124009249896,-1.36263774026,0.0792309387984,1.89651548759,0.158384270662,-0.0083013907222,-0.0327906243157,0.000920057430887,-0.051379020763,0.000361640488025,0.0221991887647,-0.00357741245897,0.573999365847,0.818841561669,0.00199293558963,0.0,0.818797594959,-0.57393923867,-0.0120414162634,0.0,-0.00871635597966,0.00854374066026,-0.999925512043,0.0,0.660890949216,0.259839963157,0.303273052353,1.0,-0.00582,-0.00764914285714,0.292
0.464382257723,0.542865268608,-0.124017316069,-1.36351994528,0.0791786182332,1.89682411629,0.158256472918,-0.00551266635102,-0.0311736202397,0.000218732247122,-0.0500265676931,-0.000212383829486,0.0203314563823,-0.000617966913901,0.57399588444,0.818844043982,0.00197564721714,0.0,0.818799847548,-0.573935828204,-0.0120507950369,0.0,-0.00873399517588,0.00853493071948,-0.999925433363,0.0,0.660787846464,0.259701530585,0.303272528834,1.0,-0.00616,-0.008096,0.309
0.464305447686,0.542273056732,-0.124018632876,-1.36444788573,0.0791295757911,1.89716702674,0.158132605222,-0.0053376900648,-0.0337517021445,-0.000507551431214,-0.0578396550705,-0.00341340282533,0.0307637991981,-0.00629645450401,0.573996799251,0.818843380285,0.00198492198233,0.0,0.818799237941,-0.573936637349,-0.0120536781862,0.0,-0.0087310232422,0.00854418980673,-0.999925380243,0.0,0.660680934065,0.259562974683,0.303279458853,1.0,-0.0065,-0.00854285714286,0.326
0.464228369369,0.541677995217,-0.124026248019,-1.36534399413,0.0790682470147,1.89749627174,0.158010073947,-0.00416716500378,-0.0421897739137,-0.000706873272725,-0.057787341325,-0.000331416628142,0.0195091538869,-0.00248391773347,0.57399827496,0.818842300589,0.00200349972773,0.0,0.818798497459,-0.573938127828,-0.0120329915695,0.0,-0.00870340518441,0.00854754353692,-0.999925592351,0.0,0.66058076746,0.259421503599,0.303302467801,1.0,-0.00682,-0.00896342857143,0.342
0.464139296265,0.541037206482,-0.124021307413,-1.36635248171,0.0790126419339,1.89787240964,0.1578879536,-0.00961551900068,-0.0370997836387,0.00138368258503,-0.0621248253527,-0.00152610580988,0.0189589682377,-0.00503805920366,0.574008899661,0.818834826816,0.00201405195089,0.0,0.818791083025,-0.573948628982,-0.0120366336328,0.0,-0.00870021996647,0.00855838738083,-0.999925527316,0.0,0.660464981228,0.259270758732,0.303307913111,1.0,-0.00716,-0.00941028571429,0.359
0.464052995859,0.540325862406,-0.124025482791,-1.36741824998,0.0789522538012,1.8982631006,0.157762544851,-0.00496096140419,-0.0356537703807,0.00555193955157,-0.0608267163683,-0.00286580667352,0.0251629751531,-0.00815718014565,0.574022670142,0.818825092947,0.00204651528318,0.0,0.818781748662,-0.573962235502,-0.0120227774192,0.0,-0.00867009627707,0.00857716129586,-0.999925628102,0.0,0.660342184166,0.259110915441,0.303337415726,1.0,-0.0075,-0.00985714285714,0.376
0.463941650786,0.539490831249,-0.124031903238,-1.36870420651,0.0788737431978,1.89874746878,0.157600858372,-0.00509649688336,-0.0439928334531,-0.000405359159742,-0.0699893846059,-0.00452419375593,0.0241112182931,-0.00608696168961,0.57403618816,0.818815551157,0.00207238202866,0.0,0.818772587404,-0.573975685131,-0.0120045780632,0.0,-0.0086402046592,0.00858803717391,-0.999925793487,0.0,0.660198221998,0.258912151198,0.303357582283,1.0,-0.00788,-0.0103565714286,0.395
0.463854827705,0.538869268164,-0.124027599022,-1.36965854322,0.0788140497026,1.89911615786,0.157468581829,-0.008874438554,-0.0444809540744,0.00115323140753,-0.073194571265,-0.000754946167514,0.0249041893481,-0.0134792841113,0.574032286413,0.818818216157,0.00209998713929,0.0,0.818775628107,-0.573971683704,-0.0119884955378,0.0,-0.00861123116945,0.00860136739618,-0.999925928845,0.0,0.660084221627,0.258756027582,0.30337112178,1.0,-0.00818,-0.0107508571429,0.41
0.463745273342,0.538095724103,-0.12404095278,-1.37087040216,0.0787491660858,1.89957750682,0.157332592302,-0.00796859158533,-0.043930378267,-0.00222976323716,-0.0758561394563,-0.00414212034463,0.0283141211858,-0.00651857394854,0.574069718348,0.818791898499,0.00212892684841,0.0,0.818749694408,-0.574008997153,-0.0119731364026,0.0,-0.00858164914414,0.00861663914594,-0.99992605168,0.0,0.659951893257,0.258559760984,0.303389431659,1.0,-0.00852,-0.0111977142857,0.427
0.463626022535,0.537192647835,-0.124042478837,-1.37228057759,0.0786728981109,1.90010790077,0.157156922724,-0.00690518485137,-0.0476735978937,0.000691751623428,-0.0740695831622,-0.00426682666567,0.0276952708231,-0.0100873115171,0.574082486733,0.818782903278,0.00214537344618,0.0,0.818740829893,-0.574021611667,-0.0119745441167,0.0,-0.00857322633525,0.00863104707415,-0.99992599967,0.0,0.659797249475,0.258363139812,0.303396777969,1.0,-0.00888,-0.0116708571429,0.445
0.463516146576,0.536396225176,-0.124048171797,-1.373529016,0.0785976602439,1.90058033678,0.157005636548,-0.00423826454197,-0.0517404724789,-0.000815688796369,-0.0806595025216,-0.0025353520774,0.0343935097164,-0.0109130720295,0.574101226661,0.818769724095,0.00216040550986,0.0,0.818727876143,-0.574040316913,-0.01196353985,0.0,-0.00855538907638,0.00863723341128,-0.999926099028,0.0,0.659656765099,0.25816948601,0.303405913474,1.0,-0.0092,-0.0120914285714,0.461
0.463420781493,0.53563167484,-0.124052294931,-1.37473208216,0.0785203935778,1.90101138371,0.156858168187,-0.00473159036533,-0.0497094076796,0.000444904733436,-0.0786613496525,-0.00668148978718,0.0328776181725,-0.0014549346261,0.574112127522,0.818762085088,0.00215869286086,0.0,0.818720223394,-0.57405123211,-0.0119635120142,0.0,-0.00855623447925,0.0086359291048,-0.99992610306,0.0,0.659503586349,0.257977781949,0.303415679941,1.0,-0.00952,-0.012512,0.477
0.463292887498,0.534672758665,-0.124055306804,-1.37625919487,0.0784489159144,1.90156646085,0.156679925002,-0.00918771903401,-0.0535300875361,-0.000442141698288,-0.0849110021854,-0.00139511791702,0.0394822721878,-0.0100940677609,0.574132333292,0.818747941401,0.00214923769787,0.0,0.818705768676,-0.574071285144,-0.0119904466772,0.0,-0.00858350314516,0.00864386285063,-0.999925800802,0.0,0.65933223194,0.257759481646,0.303408327772,1.0,-0.00986,-0.0129588571429,0.494
0.463161134486,0.533768682167,-0.124055667472,-1.37774580628,0.0783521738032,1.90210697568,0.156488367023,-0.00762751191712,-0.0511983891492,0.00036192950785,-0.0870635039101,-0.0098964179538,0.0309214723334,-0.00895975823747,0.574139108079,0.818743297414,0.00210817806722,0.0,0.818700611545,-0.574078253064,-0.012008951499,0.0,-0.00862215537001,0.00862094135531,-0.999925666141,0.0,0.659157464131,0.257528839665,0.30338530633,1.0,-0.0102,-0.0134057142857,0.511
0.463030155539,0.532838628492,-0.124057881338,-1.37925015759,0.0782764625473,1.90267957843,0.156297016157,-0.0109965761547,-0.0502376867552,-9.25415396192e-05,-0.0891795662288,-0.00687469711251,0.0362824038327,-0.0170431281486,0.574153392229,0.818733269353,0.00211252171444,0.0,0.818690512968,-0.574092389946,-0.0120215923803,0.0,-0.00862986114405,0.00863190572211,-0.999925505075,0.0,0.658984332334,0.257301447468,0.303374857206,1.0,-0.01054,-0.0138525714286,0.528
0.462889213593,0.531804458389,-0.12405885504,-1.38090438205,0.0781761966154,1.90328572783,0.156090541423,-0.00423645281996,-0.0592815333427,4.40936003271e-05,-0.0911428444399,-0.0016464273028,0.0380878599166,-0.0167964631397,0.574163783551,0.818726016094,0.00209931682358,0.0,0.818683060222,-0.574102808558,-0.0120315839422,0.0,-0.00864551355679,0.00862694097523,-0.999925412711,0.0,0.658788915164,0.25705013676,0.303369095123,1.0,-0.0109,-0.0143257142857,0.546
0.462766722196,0.530861876009,-0.124061647828,-1.38243272814,0.0780865816407,1.90382543761,0.155903509912,-0.00528021745386,-0.0569549560209,-0.000878804992239,-0.0978945309213,-0.0014080800165,0.0361154857126,-0.0130890826905,0.574171979084,0.818720367055,0.00206055949653,0.0,0.818676827369,-0.574111090688,-0.0120604634908,0.0,-0.00869132437097,0.00861187830774,-0.999925145415,0.0,0.658601823187,0.256820910577,0.303352786907,1.0,-0.01122,-0.0147462857143,0.562
0.462621742065,0.529834085986,-0.12406697466,-1.38407304827,0.0779860964831,1.90441648766,0.155683929175,-0.00546907519152,-0.0552590389669,-7.51521868172e-05,-0.0973159549885,-0.0025998108075,0.0285107799906,-0.0161810647916,0.574176749698,0.818717072804,0.00204002614696,0.0,0.818673251599,-0.574115935742,-0.0120725450982,0.0,-0.00871295501514,0.00860205516034,-0.999925041722,0.0,0.658407594524,0.256564979704,0.303347522233,1.0,-0.01156,-0.0151931428571,0.579
0.462503262811,0.528896408544,-0.124067273218,-1.38552839317,0.0778880661613,1.90497114564,0.155482115711,-0.00580011064829,-0.063481263395,0.00195387004545,-0.0933995200774,-0.000253129621079,0.0366991893288,-0.0133183988114,0.574161396136,0.818727777104,0.00206520862921,0.0,0.818684381459,-0.574100571817,-0.0120483980384,0.0,-0.00867888778419,0.00860864483122,-0.999925281279,0.0,0.658238479328,0.256348144199,0.303363263301,1.0,-0.01186,-0.0155874285714,0.594
0.462351960249,0.527727243966,-0.12406845269,-1.38735569615,0.0777784024799,1.90567690383,0.155234433911,-0.00585179075097,-0.065407411374,-0.000305471119151,-0.101515276756,-0.00422357461603,0.0419926999943,-0.0141115251768,0.574152971054,0.818733585692,0.00210437402174,0.0,0.818690717002,-0.574091997205,-0.0120264517553,0.0,-0.00863852200206,0.00862802059936,-0.999925463821,0.0,0.658027368692,0.256076456144,0.303377868396,1.0,-0.01222,-0.0160605714286,0.612
0.462202168338,0.52656226583,-0.124068487808,-1.38914850965,0.0776678572246,1.90635340868,0.15498047735,-0.0084818743406,-0.0680599150299,-0.0003089399373,-0.110106756179,-0.00558580903873,0.0402190531662,-0.0132613984258,0.574134859108,0.818746182776,0.00214444556207,0.0,0.81870385167,-0.574073734105,-0.0120040814874,0.0,-0.00859739155055,0.00864779397167,-0.999925647495,0.0,0.657817219181,0.255808387586,0.303403041587,1.0,-0.01256,-0.0165074285714,0.629
0.462067088945,0.525456979999,-0.124076556576,-1.3908710655,0.07755769715,1.90697576179,0.154754781573,-0.00736350864512,-0.0682037366272,-0.00634093053607,-0.106764673049,-0.00169672523692,0.0431373159309,-0.0179424332878,0.57412942213,0.818749996553,0.00214398916711,0.0,0.818707703583,-0.57406834407,-0.0119991387764,0.0,-0.00859366397559,0.00864452549316,-0.9999257078,0.0,0.657608667481,0.255549319138,0.30341492743,1.0,-0.01288,-0.016928,0.645
0.461873054965,0.524073831322,-0.124080726353,-1.39307120736,0.0774213969035,1.90776689036,0.154445002431,-0.00834141833951,-0.0628493310015,0.000173788293741,-0.111829688324,-0.00597866327036,0.0397507765367,-0.015423616664,0.574119058832,0.818757327351,0.0021194565404,0.0,0.818714686457,-0.574058056756,-0.0120148472337,0.0,-0.00862071908221,0.0086333492015,-0.999925571472,0.0,0.657343886454,0.255207980537,0.303409119317,1.0,-0.01328,-0.0174537142857,0.665
0.461737827778,0.52308013171,-0.12408788754,-1.39465375582,0.0773216449796,1.90836593521,0.154243786425,-0.00941662378715,-0.0718026383044,0.000401881055109,-0.120958739152,-0.0104835690841,0.0439203945804,-0.0219011250878,0.574128212427,0.818750899989,0.00212281974671,0.0,0.818708364766,-0.574067256997,-0.0120060321393,0.0,-0.00861147410783,0.00863113823017,-0.999925670221,0.0,0.657158803739,0.254964645148,0.303406576899,1.0,-0.01356,-0.0178217142857,0.679
0.46157364253,0.521772778002,-0.124093623196,-1.39673129516,0.0771940856272,1.90917839388,0.15395629345,-0.0063475651052,-0.0773512914487,-0.000954602310827,-0.118084969815,-0.00483818142313,0.0528256551546,-0.0143537621201,0.574108440467,0.818764683229,0.00215382973123,0.0,0.818722620939,-0.574047427224,-0.0119819932335,0.0,-0.00857419755827,0.00864251896686,-0.999925892255,0.0,0.656916034633,0.254658465528,0.303407048895,1.0,-0.01392,-0.0182948571429,0.697
0.461418647297,0.520665909891,-0.12409679655,-1.39850191413,0.0770820663367,1.90984152947,0.153714183341,-0.0137262883026,-0.0786980708857,-1.02370781541e-05,-0.120994476217,-0.00394221479705,0.0451216555356,-0.0149922264635,0.574103741957,0.818767991122,0.00214874081504,0.0,0.8187258961,-0.574042784269,-0.0119806421052,0.0,-0.00857606222443,0.00863752751207,-0.999925919394,0.0,0.656706114169,0.254386068976,0.303399389962,1.0,-0.01422,-0.0186891428571,0.712
0.461261532401,0.519340194633,-0.12410250032,-1.40055478806,0.0769534572591,1.91056706194,0.153432674138,-0.00524930254077,-0.0760784269946,-0.000605855864832,-0.111949780605,-0.00468932122852,0.0347283508004,-0.0187298806251,0.574080263104,0.818784462223,0.00214542277038,0.0,0.818742302777,-0.57401930084,-0.0119846071309,0.0,-0.00858146124571,0.00863684108033,-0.999925879003,0.0,0.656449157783,0.254081811173,0.303416191655,1.0,-0.01456,-0.019136,0.729
0.461093938225,0.518088807235,-0.124106053191,-1.40253543031,0.0768243238866,1.91128982453,0.15317500186,-0.0122559190951,-0.0786549289308,-0.00222834936659,-0.123223537174,-0.0137442415671,0.0436039183541,-0.0101768791676,0.574079254534,0.818785199681,0.00213382267193,0.0,0.818742933395,-0.574018385246,-0.0119853792839,0.0,-0.00858876308601,0.00862777594981,-0.99992589457,0.0,0.656208268083,0.253779285079,0.303414535595,1.0,-0.01488,-0.0195565714286,0.745
0.460909029556,0.516728015855,-0.124108543464,-1.40466474479,0.0766907267549,1.91205853828,0.152873105244,-0.00958949215067,-0.0790461358009,-0.000470798319908,-0.122232538383,-0.00231168371214,0.0474177962439,-0.0185170599467,0.57406371915,0.818796123739,0.00212155772184,0.0,0.818753722518,-0.574002927958,-0.0119886387484,0.0,-0.00859863614234,0.00861944178072,-0.999925881593,0.0,0.655932795219,0.253431174747,0.303414693032,1.0,-0.01524,-0.0200297142857,0.763
0.460729990039,0.515352073827,-0.12411519489,-1.40684149514,0.0765520522335,1.91288758203,0.152577462751,-0.00786932856676,-0.0875516024505,0.000115809362598,-0.131258013258,-0.00593265369132,0.0480616414113,-0.00746448891823,0.574048674809,0.818806599552,0.00214904184487,0.0,0.81876459499,-0.573987809995,-0.0119699151775,0.0,-0.0085676866758,0.0086310394952,-0.999926047217,0.0,0.655687670566,0.253124521465,0.303423357579,1.0,-0.01556,-0.0204502857143,0.779
0.460539405874,0.513972080325,-0.124118108462,-1.40909286048,0.0764098373582,1.91368508613,0.152268707429,-0.0132782201018,-0.0845408852883,-0.000356838431395,-0.133182797521,-0.00823142562198,0.048245213431,-0.017894917434,0.574033932063,0.818817107464,0.00208237019738,0.0,0.818774185079,-0.573973298794,-0.0120097052637,0.0,-0.00863869355567,0.00859913485684,-0.999925711167,0.0,0.655404924837,0.252780003907,0.30338836674,1.0,-0.0159,-0.0208971428571,0.796
0.460316382381,0.512397939808,-0.124123834623,-1.41163671106,0.0762638004637,1.91457426906,0.151915623547,-0.0139137638143,-0.0838331088301,-0.00270445804645,-0.132990120802,-0.00722250795409,0.043587608429,-0.0186898402594,0.574025397221,0.81882325154,0.00201816332693,0.0,0.818779297902,-0.573964847576,-0.0120649067866,0.0,-0.00872083930138,0.00857815841862,-0.999925178281,0.0,0.655084092435,0.252386101045,0.303357781055,1.0,-0.01628,-0.0213965714286,0.815
0.460148084912,0.511121708329,-0.124122441677,-1.41367446735,0.0761437789419,1.91534508059,0.151630706544,-0.00750105497177,-0.08769580567,1.13303460665e-06,-0.134414479186,-0.00572764093482,0.048783582002,-0.0157220291149,0.574003312283,0.818838711339,0.002027116741,0.0,0.818794809551,-0.573942662761,-0.0120675853854,0.0,-0.00871812513685,0.00858679197073,-0.999925127846,0.0,0.654834592441,0.252084519397,0.303348431208,1.0,-0.01658,-0.0217908571429,0.83
0.459950514946,0.50963672169,-0.124127689911,-1.41603144132,0.0759937462406,1.91622620315,0.151290122374,-0.0131036702032,-0.0940845776335,-0.000219677776232,-0.141980745323,-0.0132990321236,0.0499689236693,-0.0189826004251,0.573972389153,0.81886038232,0.00202920143778,0.0,0.81881655087,-0.573911777035,-0.0120613060373,0.0,-0.00871211080499,0.00858456564433,-0.999925199381,0.0,0.654546149848,0.25172748443,0.303342616809,1.0,-0.01692,-0.0222377142857,0.847
0.459724899516,0.508041622414,-0.124132234368,-1.41853998987,0.0758319270357,1.91712017558,0.150951095391,-0.0187651298674,-0.0923407855672,7.50800898754e-05,-0.143672993185,-0.00526390857325,0.0567335323619,-0.0195346445527,0.573969116965,0.818862728637,0.00200781475379,0.0,0.818818614543,-0.573908594288,-0.0120726459827,0.0,-0.00873370583921,0.00857352711603,-0.999925105703,0.0,0.654233457212,0.251335084589,0.303342237918,1.0,-0.01728,-0.0227108571429,0.865
0.459508305213,0.506489066785,-0.124140738646,-1.4209674815,0.0756808033602,1.91800756471,0.150625638405,-0.0110868595925,-0.0963897579027,-4.20976498177e-05,-0.151871643656,-0.00542036075958,0.0592201909295,-0.0206179249771,0.573970860489,0.818861488647,0.00201509840727,0.0,0.818817471755,-0.573910308131,-0.0120686814315,0.0,-0.00872626070274,0.00857723438773,-0.99992513891,0.0,0.653934724484,0.250956660192,0.303349672371,1.0,-0.01762,-0.0231577142857,0.882
0.459317270855,0.505084854219,-0.124141421472,-1.42311870286,0.0755447963447,1.91884560454,0.150326519455,-0.0153711609622,-0.0929104543878,0.00137387252804,-0.143519023155,-0.00400793751235,0.0567476790221,-0.0183564703428,0.573957352629,0.818870772382,0.0020886368729,0.0,0.818827788473,-0.573896559924,-0.0120224054494,0.0,-0.00864630138806,0.00861074769912,-0.999925545476,0.0,0.653678559275,0.250629447997,0.30337982812,1.0,-0.01792,-0.023552,0.897
0.459060821509,0.503224061092,-0.124144700639,-1.42590419766,0.0753723391222,1.91989722124,0.149936112936,-0.0127843204094,-0.0922036064242,-0.000215618550589,-0.149269987721,-0.0110097483816,0.0578590619827,-0.0224202673957,0.573946696709,0.818877960866,0.00219577919589,0.0,0.818836404795,-0.573885489867,-0.0119638457059,0.0,-0.00853696811935,0.00866476048878,-0.999926018314,0.0,0.653342710175,0.250197437011,0.303445019551,1.0,-0.0183,-0.0240514285714,0.916
0.458843897082,0.501623901768,-0.124152941169,-1.42826628558,0.0752175391588,1.92075933277,0.149611517226,-0.0134766826418,-0.099721375136,-0.00076879376464,-0.157412934325,-0.0071021117971,0.0563091913068,-0.0260236018856,0.573943286386,0.81888013143,0.00227623878486,0.0,0.818839709819,-0.573881842215,-0.0119125019021,0.0,-0.00844878168126,0.00870114272079,-0.999926451397,0.0,0.653053047645,0.2498253173,0.303512718645,1.0,-0.01862,-0.024472,0.932
0.458618142962,0.500005824529,-0.124147959458,-1.43071709008,0.0750602158182,1.92161909692,0.149257359447,-0.0154112080366,-0.100874243468,-0.000767410477902,-0.152747933876,-0.0106698332329,0.0566286177109,-0.0181343378769,0.573916717623,0.818898686143,0.0022999928266,0.0,0.818858503979,-0.573855109918,-0.011908408081,0.0,-0.00843207943892,0.00871797101107,-0.999926445804,0.0,0.65274034976,0.249444471695,0.303549548157,1.0,-0.01894,-0.0248925714286,0.948
0.458349327274,0.498227159275,-0.124150065111,-1.43349481628,0.0748894200499,1.92266392201,0.148858813257,-0.0166169822696,-0.09971145482,-0.000579775392324,-0.154058317715,-0.0139956493087,0.0636628421114,-0.0254443680135,0.57390731156,0.818905172069,0.00233747702887,0.0,0.818865461921,-0.573845539886,-0.0118911112468,0.0,-0.00839650339272,0.00873864314003,-0.999926564727,0.0,0.652401876029,0.249005088579,0.30355851678,1.0,-0.0193,-0.0253657142857,0.966
0.458119050002,0.496759232931,-0.124153631061,-1.43585463716,0.0747499876252,1.92349689747,0.148516668171,-0.0161916895193,-0.0914682060576,-0.000751984639819,-0.15687004081,-0.00507588775378,0.0566399859665,-0.0187976378786,0.573900150941,0.818910323387,0.00229039317787,0.0,0.818869845697,-0.573838407685,-0.0119333388293,0.0,-0.00845818163185,0.00872424683232,-0.999926170615,0.0,0.652101748735,0.248626367577,0.30353090781,1.0,-0.0196,-0.02576,0.981
0.457866426839,0.495181718114,-0.124145840061,-1.43841795925,0.0745837895713,1.92437699018,0.14813895058,-0.0185878211106,-0.0926299057082,0.00126773104036,-0.163469271451,-0.016128987707,0.0567684624492,-0.0164907098909,0.573874030432,0.818928889415,0.00219503498661,0.0,0.81888704097,-0.573812549163,-0.0119966434843,0.0,-0.00856502420737,0.00868221501253,-0.999925626986,0.0,0.651749112025,0.248188631941,0.303481302783,1.0,-0.01994,-0.0262068571429,0.998
0.457544397347,0.493126972676,-0.124193934709,-1.44162063896,0.0743917050408,1.92553789441,0.147684107266,-0.0157801106118,-0.135069291818,-0.00341606077515,-0.208764994658,-0.0125921093862,0.06912726841,-0.0271068596714,0.57391124466,0.818902787798,0.0022032453392,0.0,0.818861107461,-0.573849786623,-0.0119856573359,0.0,-0.00855092096994,0.0086830226133,-0.999925740677,0.0,0.651377625077,0.247673310875,0.303494421639,1.0,-0.030348,-0.0398859428571,1.015
0.457200245597,0.490177608757,-0.124263290552,-1.44616723297,0.0741520425216,1.92729046554,0.147008298635,-0.0243699660633,-0.18883786709,-0.00185294881779,-0.302693634935,-0.018995145975,0.119036994662,-0.0433124845477,0.573853664939,0.8189427586,0.002340144044,0.0,0.818902840161,-0.573791636678,-0.01191817754,0.0,-0.00841771217808,0.0087558090412,-0.999926236244,0.0,0.650812691456,0.246988435963,0.30353629009,1.0,-0.0429377142857,-0.0564324244898,1.032
0.456661534146,0.486478344731,-0.124286538889,-1.45206763124,0.0738302709144,1.92952081296,0.146125252122,-0.0380634065392,-0.253984414504,-0.00245579879286,-0.403768265862,-0.0308668835574,0.149477569414,-0.0633348359111,0.573796071323,0.818982998992,0.00237966320754,0.0,0.818943247633,-0.573733530311,-0.0119390222943,0.0,-0.00841272568162,0.00879954262181,-0.999925894302,0.0,0.650070390092,0.246073038216,0.303492917422,1.0,-0.0547868571429,-0.0720055836735,1.048
0.455904535502,0.481477049829,-0.124436303741,-1.45996892676,0.0733460897408,1.93232335111,0.144907501951,-0.0513172167402,-0.31292717717,-0.00504938247339,-0.506960586604,-0.0278392925003,0.170503261869,-0.0734744886734,0.573784562159,0.818991369006,0.0022717002639,0.0,0.818950431218,-0.573722686446,-0.0119673374543,0.0,-0.00849798371934,0.00872725141875,-0.999925806925,0.0,0.649069237618,0.244735570449,0.303450304476,1.0,-0.0673765714286,-0.0885520653061,1.065
0.455019929429,0.475770991205,-0.124591035933,-1.46898987012,0.0728113643343,1.93545087323,0.143607696866,-0.0582277394252,-0.379602492708,-0.0139433396914,-0.594253574147,-0.040068074885,0.210270610203,-0.0803699453171,0.573850321084,0.818945748644,0.00210158761365,0.0,0.818902466087,-0.573789020961,-0.012068859208,0.0,-0.00867804011924,0.00864688049038,-0.999924958723,0.0,0.6478985419,0.243204530823,0.303385107254,1.0,-0.0792257142857,-0.10412522449,1.081
0.453897259702,0.468694082514,-0.124721624947,-1.47986779771,0.072193061312,1.93943227,0.141961646429,-0.0690188799482,-0.441063665205,-0.00677417183863,-0.653482986951,-0.0362685984376,0.258393454835,-0.111612921001,0.573872178529,0.81892999158,0.00226682655313,0.0,0.818888591754,-0.573809902815,-0.0120173469654,0.0,-0.00854080276196,0.00875286800685,-0.999925218199,0.0,0.646514876346,0.241377713586,0.303447807027,1.0,-0.0918154285714,-0.120671706122,1.098
0.452471075911,0.460148454312,-0.124802877212,-1.49302227824,0.0713548178446,1.94420902774,0.139851042617,-0.0905038509474,-0.482937366692,-0.00965296971246,-0.750366001245,-0.0502236318829,0.270100094374,-0.115614217378,0.573771339779,0.819000267368,0.00239970851519,0.0,0.818960630094,-0.573708567883,-0.0119462293622,0.0,-0.00840739357448,0.00881984063338,-0.999925760316,0.0,0.644915675507,0.23928492741,0.303491069035,1.0,-0.104405142857,-0.137218187755,1.115
0.450963404661,0.451579581097,-0.124952227345,-1.50622844925,0.0704907099635,1.94873426296,0.137791836438,-0.0991504099418,-0.56174287277,-0.0124845362557,-0.825363455315,-0.0521289835295,0.303156400237,-0.141250498685,0.573791195146,0.818986709055,0.00227632723189,0.0,0.81894539165,-0.573728847933,-0.0120167152459,0.0,-0.00853569981131,0.00875944174553,-0.999925204207,0.0,0.643046863301,0.236821710242,0.303493740784,1.0,-0.116994857143,-0.153764669388,1.132
0.449198858506,0.441525622619,-0.125077834018,-1.52151026633,0.0694683747156,1.95420484449,0.135453234821,-0.10153450547,-0.600270693226,-0.00342948127671,-0.937958456956,-0.0571573567599,0.32928064955,-0.141301266751,0.573821301295,0.818965125048,0.00244643340662,0.0,0.81892634455,-0.573758600236,-0.0118936015607,0.0,-0.00833694319444,0.00882842066595,-0.999926274466,0.0,0.641013894562,0.234155020064,0.303584868983,1.0,-0.129584571429,-0.17031115102,1.149
0.44719152313,0.430462728606,-0.125209760458,-1.53809518515,0.0683677530558,1.95999334799,0.132721297369,-0.120271930161,-0.674101103137,-0.00683953621698,-0.996714852139,-0.0677300503243,0.349324687784,-0.167750064008,0.573749507702,0.819014765046,0.00265780911544,0.0,0.818978687702,-0.573685965155,-0.0117927679256,0.0,-0.00813385986627,0.00894295599292,-0.999926929261,0.0,0.638754597347,0.231207190398,0.303745737107,1.0,-0.142174285714,-0.186857632653,1.166
0.445057700088,0.419412364255,-0.125335456859,-1.55489027169,0.0671695844458,1.96576056631,0.12993246992,-0.141476414008,-0.713230641054,-0.00598422894521,-1.07426052422,-0.0767648173176,0.374222123733,-0.179684188112,0.573687770818,0.819058119205,0.00262409586316,0.0,0.819021883807,-0.573624667151,-0.0117746329935,0.0,-0.00813901933923,0.00890432632724,-0.999927232021,0.0,0.63641881465,0.228152041611,0.303766982969,1.0,-0.154023428571,-0.202430791837,1.182
0.442522736401,0.406771218132,-0.125477583575,-1.57373411274,0.0658373256531,1.97241543729,0.126793140556,-0.155125867336,-0.746168429793,-0.00141512078289,-1.13718954848,-0.0806991662773,0.383608479249,-0.195011447833,0.573704951258,0.819044953842,0.00295624575948,0.0,0.819013541658,-0.573641285234,-0.0115430220017,0.0,-0.00775857868236,0.00904366830301,-0.99992900574,0.0,0.633812446385,0.224664368335,0.303933930881,1.0,-0.166613142857,-0.218977273469,1.199
0.439699158389,0.393277932146,-0.125629855185,-1.59383048277,0.0644976546327,1.97928834828,0.123370259238,-0.169657915781,-0.795942443364,-0.00351791980725,-1.21138609344,-0.0767452393933,0.417917857261,-0.199754682022,0.573756123323,0.819008205045,0.00319654818699,0.0,0.818979327242,-0.573691012304,-0.0114991674868,0.0,-0.00758422757752,0.00921580207512,-0.999928771705,0.0,0.630939905378,0.220884919738,0.304057042967,1.0,-0.179202857143,-0.235523755102,1.216
0.436596008027,0.379110794371,-0.125785184027,-1.61507372385,0.0628481839572,1.9863751625,0.11959050969,-0.187158890362,-0.848066315691,-0.00847815904038,-1.27607567088,-0.101715357828,0.445041321617,-0.233440046279,0.57365881162,0.819076709829,0.00310775925414,0.0,0.819047316989,-0.57359474847,-0.0114587940709,0.0,-0.00760318334334,0.00911901563757,-0.999929515094,0.0,0.62782028553,0.216793445829,0.304058285544,1.0,-0.191792571429,-0.252070236735,1.233
0.433151788885,0.364199440801,-0.125944071078,-1.63728362949,0.0611928230792,1.99370222286,0.115634392658,-0.211674848305,-0.909425025297,-0.00964829180047,-1.32057169579,-0.101230769707,0.440437537443,-0.23733755012,0.573698320518,0.819049118024,0.00308645443071,0.0,0.819019313269,-0.573634154191,-0.0114877560688,0.0,-0.00763868786778,0.00911854771174,-0.999929248765,0.0,0.624495117867,0.212426311776,0.304064119367,1.0,-0.204382285714,-0.268616718367,1.25
0.429308186188,0.348596830025,-0.126148006287,-1.66059280271,0.0594204255793,2.00122286573,0.111303002211,-0.235807002622,-0.934641238229,-0.0126127693865,-1.38713561619,-0.0890131673541,0.432596446769,-0.261154581216,0.573753655713,0.819011109747,0.00287950820204,0.0,0.818978318458,-0.573689790543,-0.0116312090602,0.0,-0.00787429658738,0.00903187739555,-0.999928207745,0.0,0.620928753894,0.207695326507,0.303965518879,1.0,-0.216972,-0.2851632,1.267
0.425365350755,0.333106271013,-0.126329151216,-1.68325052066,0.0576485380214,2.0085881149,0.107003756134,-0.254536723029,-0.967391833979,-0.000805481048129,-1.44762986482,-0.120029227256,0.445191820854,-0.273728271349,0.573831249979,0.818956351447,0.00298962767477,0.0,0.818925092288,-0.573767133923,-0.0115635700901,0.0,-0.00775485837333,0.00908399389354,-0.999928669069,0.0,0.617425307621,0.203013941768,0.304024016483,1.0,-0.228821142857,-0.300736359184,1.283
0.42096259016,0.315986138772,-0.126497109886,-1.70805723481,0.0556018980741,2.01645469282,0.102101516699,-0.271400367952,-1.02346668592,-0.0140631346543,-1.50500047148,-0.129467516166,0.461096254866,-0.290093467335,0.573715300507,0.819037341265,0.00305523801209,0.0,0.819007263228,-0.57365138375,-0.0114864965595,0.0,-0.00765537547889,0.00909241600536,-0.999929359104,0.0,0.613458901801,0.197871946221,0.304101660637,1.0,-0.241410857143,-0.317282840816,1.3
0.416160438931,0.298294835466,-0.126653860402,-1.73360190959,0.0534695433509,2.02444528006,0.0968434030825,-0.286892431256,-1.05009631278,-0.00952553856226,-1.54262422052,-0.125333000809,0.459156149473,-0.307064206897,0.573566950953,0.819141081302,0.00309654624149,0.0,0.819111606328,-0.573503009011,-0.0114552142818,0.0,-0.00760770449815,0.00910692463056,-0.999929590899,0.0,0.609283477828,0.192464393214,0.304130875528,1.0,-0.254000571429,-0.333829322449,1.317
0.410906573218,0.279921482665,-0.126843770519,-1.75982104156,0.0513243990721,2.03246711642,0.0913351053251,-0.320012801382,-1.09575705404,-0.0123121981369,-1.58851158892,-0.134513679957,0.465548173549,-0.347670097403,0.573569001505,0.819139160689,0.00322224138262,0.0,0.819110698435,-0.573503938395,-0.0114735894704,0.0,-0.00755064369872,0.00922044516778,-0.999928983064,0.0,0.604903753096,0.186757461494,0.304195232895,1.0,-0.266590285714,-0.350375804082,1.334
0.405526552868,0.262063514761,-0.127067281905,-1.78508547336,0.0491335567458,2.04004106055,0.0857966889985,-0.35276209735,-1.11803785235,-0.0171553360461,-1.64627850888,-0.147636346368,0.47077919146,-0.344596076077,0.57357142879,0.819137158993,0.0032981410027,0.0,0.819109654117,-0.573506109693,-0.0114395619928,0.0,-0.00747921029321,0.00926312339674,-0.999929125468,0.0,0.600601514972,0.181080649081,0.304254587712,1.0,-0.278439428571,-0.365948963265,1.35
0.399297333851,0.24258285477,-0.127335314279,-1.81256761897,0.0466335084133,2.04807745863,0.0796225969,-0.377044695441,-1.16071415286,-0.0138751460077,-1.64221895637,-0.150964651322,0.464159725833,-0.378236259706,0.573671693672,0.819067234767,0.00322485832088,0.0,0.81903900031,-0.573606846287,-0.0114476532178,0.0,-0.00752674176766,0.00920865664051,-0.999929271899,0.0,0.595816102951,0.174714617299,0.304237721153,1.0,-0.291029142857,-0.382495444898,1.367
0.392724893967,0.222460774785,-0.12752101557,-1.84056848828,0.0441268468077,2.05609094582,0.0729682423838,-0.400162477353,-1.19834278378,-0.0133609084789,-1.68362935053,-0.158143465171,0.466581029329,-0.396166402047,0.573536212821,0.819161769679,0.00330977039401,0.0,0.819133931593,-0.573470265028,-0.011498006032,0.0,-0.00752081686296,0.0093058472365,-0.999928416698,0.0,0.590781200046,0.16823377044,0.30426439454,1.0,-0.303618857143,-0.399041926531,1.384
0.385571157106,0.201797246009,-0.127787438455,-1.869103903,0.0413580974177,2.06392967651,0.0659374380071,-0.439480816701,-1.21740760699,-0.0175775190457,-1.68484052156,-0.167841493668,0.440326872777,-0.426727510913,0.573471059468,0.819207913078,0.00317584714704,0.0,0.819178422515,-0.573405632758,-0.0115515933193,0.0,-0.00764225515003,0.00922626754966,-0.999928233386,0.0,0.585523583617,0.161370186024,0.304243598053,1.0,-0.316208571429,-0.415588408163,1.401
0.378285058136,0.181761908529,-0.128113986135,-1.89631798292,0.0387448463303,2.07121698962,0.0588991810094,-0.478502031538,-1.25511212253,-0.0278455706975,-1.71789761941,-0.168219988976,0.442346305061,-0.450549274082,0.57351361073,0.819177957961,0.00321844668833,0.0,0.819148609011,-0.573447546945,-0.0115850835001,0.0,-0.00764478187177,0.00928076788021,-0.999927709716,0.0,0.580410233534,0.154612555251,0.304293086541,1.0,-0.328057714286,-0.431161567347,1.417
0.369440176745,0.158679411507,-0.128517327207,-1.92723497726,0.0356517141141,2.07927655225,0.0505382194955,-0.502065869188,-1.29694247294,-0.0139128763692,-1.70769553761,-0.17641291937,0.448284423705,-0.479738529407,0.573619762614,0.819103182208,0.00333042594329,0.0,0.819075214772,-0.573553249278,-0.0115416502229,0.0,-0.0075437710452,0.00934856799471,-0.999927845294,0.0,0.574473627578,0.146697599802,0.304380975778,1.0,-0.341388,-0.448681371429,1.435
0.361083815626,0.137686934099,-0.128836348659,-1.95507711641,0.032710551222,2.08635194802,0.042684769608,-0.540716856044,-1.33852583267,-0.0223155577846,-1.75252299829,-0.174745116467,0.448456453784,-0.506048611717,0.573593364432,0.819121336996,0.00341093235974,0.0,0.819094831064,-0.573527137981,-0.0114466862237,0.0,-0.00742010550963,0.00935980053279,-0.99992866554,0.0,0.568978269693,0.139474801714,0.304431916891,1.0,-0.353237142857,-0.464254530612,1.451
0.351549687782,0.114868961738,-0.129290625421,-1.98497034168,0.0295097406428,2.09363472776,0.0337803845624,-0.57430081249,-1.36290301602,-0.031757851446,-1.77350126792,-0.202816950016,0.442935806525,-0.538035274446,0.57362664738,0.819097661978,0.00349806498943,0.0,0.819072374233,-0.573560284016,-0.0113926848759,0.0,-0.00732551143547,0.00940049701485,-0.999928981247,0.0,0.562930702402,0.131470913175,0.304477706619,1.0,-0.365826857143,-0.480801012245,1.468
0.341295255283,0.0915183490692,-0.129687686341,-2.01508622942,0.0260932852215,2.10059081699,0.0242914802831,-0.602003767161,-1.38751601462,-0.00766464723536,-1.79025115023,-0.200584135995,0.407553059362,-0.564890219611,0.573547935976,0.819152620619,0.00353499254416,0.0,0.819128275678,-0.573482082995,-0.0113099677007,0.0,-0.00723747413735,0.00938260162208,-0.999929790413,0.0,0.556653697485,0.123209709752,0.304540268951,1.0,-0.378416571429,-0.497347493877,1.485
0.331089959549,0.06938694743,-0.130060675992,-2.04342956369,0.0229152243138,2.10680006074,0.0148877141339,-0.648712585071,-1.36589752394,-0.0191303688136,-1.76894549564,-0.210866898773,0.388901593542,-0.593059377324,0.573471250758,0.819206415843,0.00350994252731,0.0,0.819180961806,-0.5734044644,-0.0114288635242,0.0,-0.00735012312251,0.00942958430408,-0.999928526761,0.0,0.55056321327,0.115290183684,0.304508402392,1.0,-0.37998,-0.499402285714,1.501
0.319529098421,0.046026983179,-0.130579705088,-2.07290666445,0.0193824714807,2.1127885755,0.00465517447836,-0.684671878968,-1.37180263717,-0.0309886339165,-1.7277718287,-0.212266069477,0.34218516463,-0.59477061145,0.573718881506,0.819033779932,0.00332554270413,0.0,0.819005605976,-0.573652192515,-0.0115640089712,0.0,-0.00756375474102,0.0093583085867,-0.999927603217,0.0,0.544074369787,0.106607807922,0.30446778599,1.0,-0.37998,-0.499402285714,1.518
0.307614255132,0.0228877266105,-0.130953962416,-2.10154305523,0.0159411885709,2.11832509703,-0.00584735051003,-0.71603836891,-1.33778023554,-0.0300678249967,-1.65352680899,-0.211282443153,0.311581619942,-0.61286023706,0.573861416421,0.818933846048,0.00334326797355,0.0,0.818905138313,-0.573793707444,-0.0116577288868,0.0,-0.00762870950422,0.00942792165023,-0.999926455838,0.0,0.537585150856,0.098069753758,0.304486763502,1.0,-0.37998,-0.499402285714,1.535
0.295156484637,8.54509106719e-06,-0.13143636454,-2.12926242376,0.0124449890411,2.1233809578,-0.016786177905,-0.752143979104,-1.33371773241,-0.03679684153,-1.60808325926,-0.198241360151,0.272778616763,-0.652485074207,0.574067221806,0.818789072852,0.00346784196935,0.0,0.818762040039,-0.57399916252,-0.0115944002728,0.0,-0.00750297431899,0.00949548533599,-0.999926767886,0.0,0.531167911276,0.0894245194751,0.304579709672,1.0,-0.37998,-0.499402285714,1.552
0.28322839123,-0.0212177030887,-0.131709094551,-2.15470030342,0.00917669418282,2.12777317079,-0.0274095542076,-0.75434678386,-1.32142753403,-0.0234736483187,-1.60085593396,-0.214709148215,0.249661960749,-0.683456459403,0.573955767144,0.818866805018,0.00356088504217,0.0,0.818840779784,-0.573887182698,-0.0115769511848,0.0,-0.00743657792098,0.00956063985507,-0.999926643047,0.0,0.524707548731,0.080995051784,0.304616691258,1.0,-0.37998,-0.499402285714,1.569
0.267550438163,-0.0473659789678,-0.132230140867,-2.18550103094,0.00508686246712,2.13251553064,-0.0410412432223,-0.800038452192,-1.29102926968,-0.0296357114082,-1.52181045703,-0.207463151274,0.213214514211,-0.687068911914,0.574178244064,0.818710711788,0.00358627232098,0.0,0.81868456095,-0.57410896442,-0.0116289954892,0.0,-0.00746201575296,0.00961332707711,-0.99992594839,0.0,0.51788509649,0.0718916351835,0.304632812766,1.0,-0.37998,-0.499402285714,1.587
0.256376191613,-0.0655188478217,-0.132450929018,-2.20661275134,0.00220152361439,2.13553146158,-0.0509105418074,-0.809286357683,-1.28752033681,-0.0211704452562,-1.51923703052,-0.212121810407,0.192293798638,-0.726447964707,0.574054300403,0.818797237356,0.0036730352331,0.0,0.818772146516,-0.573984684414,-0.0115974586985,0.0,-0.00738784341243,0.00966513606545,-0.999925999719,0.0,0.512172077338,0.0644807509643,0.304674277737,1.0,-0.37998,-0.499402285714,1.602
0.242259021515,-0.0872279861324,-0.132884761129,-2.2314521971,-0.00127735903078,2.13873745262,-0.0633312194942,-0.846382691973,-1.25624869115,-0.0274736673184,-1.46686880757,-0.211245190177,0.185530151007,-0.752100834112,0.57407732434,0.818780835958,0.00373031487421,0.0,0.818756241778,-0.574007205835,-0.0116056494976,0.0,-0.00736139750932,0.00971694587916,-0.999925692634,0.0,0.505729493528,0.0559525984769,0.304694949115,1.0,-0.37998,-0.499402285714,1.619
0.226116543799,-0.111117550317,-0.133168361313,-2.25842790011,-0.00520978071647,2.14175173155,-0.0775568808954,-0.868816750784,-1.23132041967,-0.0175845435668,-1.41328827507,-0.225423250139,0.156618823771,-0.767109286852,0.573861552026,0.818932464039,0.00364490760381,0.0,0.81890652867,-0.573791426855,-0.0116723035346,0.0,-0.00746755533347,0.00968331128902,-0.999925231755,0.0,0.498482462174,0.046616613322,0.304664783292,1.0,-0.37998,-0.499402285714,1.638
0.211934706812,-0.131002575715,-0.133564138333,-2.28041083131,-0.00842731607151,2.14381386364,-0.0899998438129,-0.890745408589,-1.21916934558,-0.0196760628139,-1.35622089666,-0.198388765049,0.108855035399,-0.788406899555,0.573895888637,0.818908328741,0.00366128739152,0.0,0.818881898201,-0.573824787964,-0.0117599497694,0.0,-0.00752952831736,0.00974733645869,-0.999924144941,0.0,0.492403115614,0.0386324825284,0.304675247005,1.0,-0.37998,-0.499402285714,1.654
0.196477381945,-0.151878504981,-0.133917561941,-2.30323992526,-0.0118536165986,2.14572020835,-0.103716285905,-0.92688465323,-1.21681321364,-0.0267002089337,-1.33093063158,-0.19954580274,0.0897430700084,-0.819798523701,0.573734448108,0.819021442583,0.0036614947318,0.0,0.818994454518,-0.573662646399,-0.011832096008,0.0,-0.00759042372281,0.00978741339175,-0.999923293061,0.0,0.4859155032,0.0302266916159,0.304641574896,1.0,-0.37998,-0.499402285714,1.671
0.182311453415,-0.170138626685,-0.134308263398,-2.32275442523,-0.0148619160788,2.14697212383,-0.116154565755,-0.95331705101,-1.23042875161,-0.0205023912359,-1.29315564075,-0.201296910897,0.0923561577849,-0.828159748187,0.57377869809,0.818990250897,0.00370424828306,0.0,0.818963397432,-0.57370619671,-0.011870148433,0.0,-0.00759653190592,0.00984467161325,-0.999922684583,0.0,0.480201059089,0.0227224083871,0.304666579524,1.0,-0.37998,-0.499402285714,1.686
0.165801643575,-0.190405803365,-0.134850929831,-2.34422795352,-0.0182758883982,2.14796298019,-0.130739683939,-0.991850825527,-1.19583521178,-0.0423739562813,-1.24421858827,-0.200808186405,0.0609077173652,-0.876913247872,0.573835706951,0.818950537535,0.00365313580158,0.0,0.818922131287,-0.573762239993,-0.0120075704332,0.0,-0.00773772385544,0.00988219668774,-0.999921231807,0.0,0.473337480635,0.0136719733268,0.304641112351,1.0,-0.37998,-0.499402285714,1.704
0.147800121504,-0.211644858629,-0.135341239116,-2.3662644366,-0.0217423559349,2.14868232044,-0.14673428905,-1.01095657005,-1.17398441884,-0.0277210543556,-1.20621750219,-0.193165517301,0.0178081462279,-0.907308381735,0.573829328808,0.818954837537,0.00369085017455,0.0,0.818925414641,-0.573753793326,-0.0121859263165,0.0,-0.00786223539089,0.0100153657555,-0.999918935566,0.0,0.466836284385,0.00522736340861,0.304608437091,1.0,-0.37998,-0.499402285714,1.721
0.130210379745,-0.231390756927,-0.135909888254,-2.38621894249,-0.0251815827441,2.14904292037,-0.162258158625,-1.04393242142,-1.15560915058,-0.0276579207676,-1.16215603311,-0.215571156168,0.00794628644176,-0.93048333184,0.573936621413,0.81887920518,0.00378798430303,0.0,0.818851984792,-0.573861899805,-0.0120288759173,0.0,-0.00767656427944,0.010005803511,-0.999920473966,0.0,0.460413460704,-0.00332264451202,0.304682194073,1.0,-0.37998,-0.499402285714,1.738
0.112104928761,-0.250824977994,-0.136495015221,-2.40544298262,-0.0283829685545,2.14910910473,-0.178412919578,-1.07776236456,-1.12214318209,-0.0388379690791,-1.12305053226,-0.19636855222,-0.00703873662853,-0.963936610899,0.574040015132,0.818805232766,0.00409862462649,0.0,0.818782445104,-0.573964686896,-0.0118571787076,0.0,-0.00735639580461,0.010162572599,-0.999921299683,0.0,0.454016439,-0.0118428498301,0.304794616091,1.0,-0.37998,-0.499402285714,1.755
0.0957903535657,-0.267533814568,-0.136873220276,-2.42193122498,-0.031235501582,2.14894311483,-0.193072154851,-1.08909039754,-1.11221848725,-0.0211023642952,-1.06839494132,-0.181124134264,-0.0105488031717,-0.989488810548,0.573931440748,0.818880914756,0.00418278268892,0.0,0.81885950742,-0.573856244764,-0.0117840720459,0.0,-0.00724957530672,0.0101885569807,-0.999921815426,0.0,0.448347678426,-0.0192568571881,0.304794610439,1.0,-0.37998,-0.499402285714,1.77
0.07675234107,-0.286120899736,-0.137452853409,-2.43996970124,-0.0344095098667,2.14836102007,-0.210261941602,-1.12112412055,-1.08151055156,-0.0265964504935,-1.05696642933,-0.186019689329,-0.0444744140151,-1.02439588601,0.573909690734,0.818895719557,0.00426781851969,0.0,0.818875065645,-0.573833718649,-0.0117998774059,0.0,-0.00721398981901,0.0102670718362,-0.999921269694,0.0,0.441899094178,-0.0277359698881,0.304789078105,1.0,-0.37998,-0.499402285714,1.787
0.0547630541896,-0.306454539085,-0.138106284679,-2.45924695346,-0.037988632349,2.14738179469,-0.230123309299,-1.17740705597,-1.03475620578,-0.0276012654784,-1.004396233,-0.188902843043,-0.0562506057508,-1.05345508831,0.573905985952,0.818897803128,0.0043651142206,0.0,0.818879101636,-0.573830693266,-0.0116661592452,0.0,-0.00704869136658,0.0102699771643,-0.99992241875,0.0,0.434714461771,-0.0372539372088,0.304831746218,1.0,-0.37998,-0.499402285714,1.806
0.0357555318251,-0.323123968721,-0.138667533161,-2.47483418678,-0.0407630168418,2.14619845658,-0.247318712463,-1.21565170605,-1.02395361131,-0.04506367257,-0.942971246599,-0.164351800118,-0.067742496214,-1.07360994122,0.574021299174,0.818816299742,0.00449024195413,0.0,0.818798218023,-0.573944114652,-0.0117634314628,0.0,-0.00705507731181,0.0104292631172,-0.999920725035,0.0,0.428632926743,-0.0452260241864,0.304832209633,1.0,-0.37998,-0.499402285714,1.822
0.0151092674927,-0.34043478325,-0.139169152325,-2.49077012161,-0.0438020767847,2.14478566586,-0.266262509499,-1.23233029802,-1.01605048954,-0.0258203116966,-0.929430796153,-0.179950581088,-0.0951407912766,-1.13463583253,0.573835674429,0.818946154023,0.00453458543217,0.0,0.818928874678,-0.573758713162,-0.0117125655373,0.0,-0.00699033718392,0.0104347917916,-0.999921122042,0.0,0.422176578438,-0.0536387591228,0.30483743995,1.0,-0.37998,-0.499402285714,1.839
-0.00496556512687,-0.356312084461,-0.139813691978,-2.50498856217,-0.0465922820999,2.14318883486,-0.284574279274,-1.26283118173,-0.979214079655,-0.0388235961286,-0.851501142646,-0.159011305701,-0.0985511128546,-1.15689074574,0.573956348112,0.81886079522,0.00467497758984,0.0,0.818845736301,-0.573879536513,-0.0116053700677,0.0,-0.00682043990461,0.0104892632401,-0.999921725415,0.0,0.416115708205,-0.0616870194202,0.304908154215,1.0,-0.37998,-0.499402285714,1.855
-0.0254053964845,-0.371623418424,-0.14037078407,-2.51867990004,-0.049339950262,2.1414369673,-0.303474058601,-1.2605076333,-0.943429544947,-0.026096759376,-0.857666067152,-0.18164094703,-0.118873853105,-1.20843763043,0.573841820973,0.818941056952,0.00467510878391,0.0,0.818925842356,-0.573764785793,-0.0116267883496,0.0,-0.00683937322911,0.0105007069687,-0.99992147598,0.0,0.410028517582,-0.0696455824036,0.304892381674,1.0,-0.37998,-0.499402285714,1.871
-0.0476809899288,-0.387361439634,-0.141003159452,-2.53235086975,-0.05210468153,2.13940733441,-0.324038329406,-1.31587157997,-0.922343691811,-0.0320765227123,-0.799042307409,-0.158965583218,-0.108495900895,-1.22226385551,0.573890930301,0.81890578802,0.00482258920631,0.0,0.818892859257,-0.573814033887,-0.0115189614467,0.0,-0.00666580317176,0.0105600146779,-0.999922023539,0.0,0.403615436962,-0.0781320120709,0.304959321272,1.0,-0.37998,-0.499402285714,1.888
-0.0705145233532,-0.402479568708,-0.141607578772,-2.54549640114,-0.0547212847574,2.13722878094,-0.345276509774,-1.35983026264,-0.869975248937,-0.0450108923248,-0.778301953266,-0.166623931007,-0.132692765762,-1.28001976776,0.573889001615,0.818906643316,0.00490614510432,0.0,0.818893821157,-0.573810305095,-0.0116357354504,0.0,-0.006713513697,0.0106954384326,-0.999920264986,0.0,0.397129821085,-0.0865895384211,0.304924278095,1.0,-0.37998,-0.499402285714,1.905
-0.0923406182599,-0.416177794003,-0.142118111342,-2.55694069443,-0.0571747740944,2.13506608356,-0.365760240529,-1.38670096641,-0.883167142015,-0.0442962417164,-0.705115282889,-0.15227585921,-0.123882210803,-1.29852967573,0.573737562377,0.819012020692,0.00502656747475,0.0,0.81900177371,-0.573660182806,-0.0114383663206,0.0,-0.00648474274857,0.0106795937031,-0.999921944149,0.0,0.391126229315,-0.0945047704612,0.305025944519,1.0,-0.37998,-0.499402285714,1.921
-0.116187973291,-0.429954992637,-0.142718591997,-2.56860634486,-0.0596749763211,2.13263134543,-0.38816011074,-1.41813147911,-0.829550213083,-0.032318837478,-0.674670067094,-0.136955501059,-0.150446460572,-1.33404594808,0.573690878755,0.819044818408,0.00501078571092,0.0,0.819033226172,-0.573611688953,-0.0116168680768,0.0,-0.00664061820227,0.0107686985726,-0.999919965458,0.0,0.384634670223,-0.102968917622,0.304974015638,1.0,-0.37998,-0.499402285714,1.938
-0.140431892166,-0.443054209425,-0.143325447898,-2.57941817564,-0.0620654521036,2.13014016565,-0.411017033298,-1.42607192737,-0.779634461774,-0.0314103811082,-0.598882504251,-0.132641021672,-0.142693213974,-1.35690973244,0.573671229491,0.819058302802,0.00505608208318,0.0,0.819046745036,-0.573591002724,-0.0116849450893,0.0,-0.00667065653204,0.0108446931827,-0.999918944201,0.0,0.378185539368,-0.111403561514,0.304980164902,1.0,-0.37998,-0.499402285714,1.955
-0.165278363538,-0.455367662405,-0.143962638011,-2.5894651001,-0.0643789603268,2.12778573234,-0.434558528089,-1.45582687414,-0.720842241239,-0.0361461806629,-0.587240095719,-0.129266743663,-0.145724031592,-1.39478839837,0.573664473739,0.81906255359,0.00513339819691,0.0,0.819052175267,-0.573584292339,-0.011633601061,0.0,-0.00658433718931,0.0108785140352,-0.99991914895,0.0,0.371749237475,-0.119904962624,0.304987055869,1.0,-0.37998,-0.499402285714,1.972
-0.190388561607,-0.466700960397,-0.14442539289,-2.59877637222,-0.0664235824552,2.12535065194,-0.458504171003,-1.46947427443,-0.646618874702,-0.0257594446951,-0.536510613737,-0.111702770828,-0.130269830719,-1.40896805958,0.573558597528,0.819136631816,0.00514397895366,0.0,0.819124642024,-0.573475533984,-0.011890317552,0.0,-0.00678997932168,0.0110335662086,-0.999916074777,0.0,0.365325298683,-0.128247209408,0.3049028902,1.0,-0.368295428572,-0.484045420408,1.989
-0.215539817868,-0.47697666543,-0.144723918587,-2.60684033178,-0.0681784304039,2.12314299657,-0.48220461019,-1.46974466615,-0.58182127742,-0.0250542686662,-0.456046376874,-0.0956629102594,-0.129985763598,-1.38853684923,0.573749893851,0.819001546838,0.00531718753373,0.0,0.818992398832,-0.573667169554,-0.0117548344273,0.0,-0.00657705828506,0.0110992848738,-0.999916770626,0.0,0.35916484055,-0.136456313748,0.304967148611,1.0,-0.355705714286,-0.467498938776,2.006
-0.238914287353,-0.485663429976,-0.144800717026,-2.61368620339,-0.0696101283989,2.12111107139,-0.504311700052,-1.44642648418,-0.519273546939,0.00432963214096,-0.420553763273,-0.0852002648808,-0.127581947576,-1.37089087906,0.573832577885,0.818943112143,0.00539430554409,0.0,0.818934569261,-0.573748900625,-0.0117947955316,0.0,-0.00656441606958,0.0111860365786,-0.999915886976,0.0,0.353500591781,-0.14388879797,0.304973595375,1.0,-0.343856571429,-0.451925779592,2.022
-0.263322775727,-0.493825536723,-0.144705822061,-2.62014150385,-0.0709031649746,2.11908345545,-0.52749058231,-1.42952720645,-0.4580773284,0.0223188649431,-0.358243546931,-0.0710738390264,-0.119658706787,-1.3443175838,0.573838675938,0.818938622809,0.00542705922157,0.0,0.818929490303,-0.573753153069,-0.0119396883069,0.0,-0.0066642078652,0.0112960512553,-0.999913990081,0.0,0.34767024008,-0.151482563229,0.304942656933,1.0,-0.331266857143,-0.435379297959,2.039
-0.287129021006,-0.500988764471,-0.144519050606,-2.62566302165,-0.071882569671,2.1173613924,-0.550201333233,-1.37263905016,-0.395038850632,0.0320627993416,-0.314865871115,-0.0610702704713,-0.111586375529,-1.32667736482,0.573855139439,0.818925862684,0.00560867794446,0.0,0.818919225024,-0.573769163974,-0.0118741845546,0.0,-0.00650611563775,0.0114073356556,-0.999913767858,0.0,0.342124382365,-0.158780668137,0.304972043086,1.0,-0.318677142857,-0.418832816327,2.056
-0.310370882204,-0.50711562162,-0.144301078367,-2.63030318648,-0.0726791163553,2.11584563833,-0.572355119588,-1.35136417055,-0.345378553059,0.0204469478453,-0.253795609789,-0.0600324115471,-0.0828879790364,-1.30444431957,0.573971681022,0.818842831111,0.00580294960621,0.0,0.818839170681,-0.573885784361,-0.0117586550213,0.0,-0.00629838134467,0.0115010388628,-0.999914024553,0.0,0.336814660962,-0.165843393001,0.305020344993,1.0,-0.306087428572,-0.402286334694,2.073
-0.333070017033,-0.51240120473,-0.143983479146,-2.63429607216,-0.0733834238655,2.11448497386,-0.594000873816,-1.32887641967,-0.291958173391,0.00588178079347,-0.229623950171,-0.0417813018066,-0.0798249447255,-1.25978252994,0.574066018352,0.81877593388,0.00590961707374,0.0,0.818774114841,-0.573980572197,-0.011661839822,0.0,-0.00615654693416,0.0115335294981,-0.999914533661,0.0,0.331675152021,-0.172651340271,0.305056515605,1.0,-0.293497714286,-0.385739853061,2.09
-0.35368006738,-0.516544414943,-0.143460686438,-2.63760077765,-0.0738850116278,2.11325171852,-0.613813257267,-1.270096093,-0.250371133079,0.0339854620555,-0.202547072736,-0.0279571161509,-0.0783462194809,-1.23188801721,0.57393441878,0.818868390004,0.00588130026827,0.0,0.81886487376,-0.573846640083,-0.0118785137452,0.0,-0.00635209732545,0.0116337020688,-0.999912150059,0.0,0.327011937238,-0.178679955642,0.304992745641,1.0,-0.281648571429,-0.370166693878,2.106
-0.374865587169,-0.520165570666,-0.142949266275,-2.6404894992,-0.0742940827602,2.11223372853,-0.63412901359,-1.22631305901,-0.197165759137,0.0357234555043,-0.15926839414,-0.0141323485901,-0.0539290472516,-1.19067173687,0.573935231311,0.81886765203,0.00590471165568,0.0,0.81886367946,-0.573845969922,-0.0119926713325,0.0,-0.00643213946704,0.0117183961232,-0.999910649395,0.0,0.322285045801,-0.184864456636,0.304939277535,1.0,-0.269058857143,-0.353620212245,2.123
-0.395290861201,-0.523111181027,-0.142368283764,-2.64277391665,-0.07458984592,2.11135230408,-0.653733629216,-1.17355815694,-0.161148532571,0.0343193736642,-0.12239894692,-0.00931185717808,-0.0429602827273,-1.13318721941,0.57393144383,0.818870248776,0.00591272811155,0.0,0.818866038481,-0.573841527815,-0.0120440391364,0.0,-0.00646966095185,0.0117544113253,-0.999909984599,0.0,0.317784697415,-0.190783514588,0.304922527678,1.0,-0.256469142857,-0.337073730612,2.14
-0.414956827659,-0.525452625959,-0.141751822002,-2.64455381112,-0.0747439547585,2.11062844476,-0.67264766282,-1.13898643371,-0.128501073445,0.0406447517755,-0.0992220636324,-0.0125250442457,-0.0402728413875,-1.108938168,0.573937687829,0.818865586197,0.00595223763364,0.0,0.818861816321,-0.573847470291,-0.0120479671867,0.0,-0.00645011338888,0.0117890695262,-0.999909702862,0.0,0.313494852448,-0.196445493197,0.304925962995,1.0,-0.243879428572,-0.32052724898,2.157
-0.432669353319,-0.527135898741,-0.141122756182,-2.64588978943,-0.0748149103185,2.11010248439,-0.689713381646,-1.09153815915,-0.0948367051882,0.0260974725589,-0.0749366972612,-0.00112341128299,-0.0336029354355,-1.04375374563,0.573939814497,0.818863928368,0.00597520325264,0.0,0.818860220424,-0.573849065559,-0.0120804083567,0.0,-0.00646347028205,0.0118265112808,-0.999909174467,0.0,0.309409499871,-0.201817023482,0.304907624252,1.0,-0.231289714286,-0.303980767347,2.174
-0.452644353298,-0.528626514745,-0.14037224905,-2.64706366072,-0.0748033965868,2.10959534911,-0.708977598494,-1.02451040759,-0.0725731901195,0.0481981295951,-0.0551820411956,-0.0013403088132,-0.018898072775,-0.988897184659,0.573899075642,0.818892431676,0.0059819079101,0.0,0.818888620928,-0.573807958638,-0.0121078495386,0.0,-0.00648268479612,0.0118474280769,-0.999908802464,0.0,0.305320696982,-0.207170002052,0.304894054918,1.0,-0.217959428572,-0.286460963265,2.192
-0.468778628874,-0.529492971821,-0.139768707511,-2.64773339327,-0.0748052191542,2.10926351329,-0.724388005675,-0.988182650883,-0.0488923034121,0.0483358918536,-0.0368936723636,-0.00131396676733,-0.0172612922029,-0.941801954402,0.574025173587,0.818804252983,0.00595334252357,0.0,0.818800089577,-0.573934189408,-0.0121122432933,0.0,-0.00650085466778,0.0118275576677,-0.999908919736,0.0,0.301828494436,-0.211748252415,0.304893597352,1.0,-0.206110285714,-0.270887804082,2.208
-0.483948255171,-0.529998051523,-0.139027300768,-2.64813130401,-0.0747140557952,2.10904842058,-0.739084188604,-0.933478514494,-0.0285547715619,0.0345037198094,-0.0226825589083,0.00723260529419,-0.0126890830545,-0.901630453484,0.573905164627,0.818888843341,0.00588822278666,0.0,0.818884040304,-0.573814861845,-0.0120904823028,0.0,-0.00652213689486,0.0117607883338,-0.999909568705,0.0,0.298591179838,-0.216004479031,0.304898335026,1.0,-0.194261142857,-0.255314644898,2.224
-0.500898093412,-0.530249153299,-0.138155640005,-2.64830036635,-0.0744840395119,2.10888641098,-0.755457252111,-0.863863342858,-0.00878899145555,0.0490473770157,0.00190112083998,0.0197195500072,-0.00775039822852,-0.842863504032,0.573850587347,0.81892723729,0.00586773603426,0.0,0.818922571865,-0.57376111102,-0.0120314451573,0.0,-0.00648632427897,0.0117096988024,-0.999910401262,0.0,0.294998204919,-0.220743761293,0.304922397689,1.0,-0.180190285714,-0.236821518367,2.243
-0.514368080145,-0.530260972998,-0.137459864272,-2.64833262224,-0.0742434942732,2.10882647049,-0.768374195631,-0.827881870208,0.00228119454714,0.0386649820635,-0.00116945008142,0.0228301352258,-0.0016872803206,-0.789697402328,0.573913540846,0.818883044289,0.00587829156339,0.0,0.818878679701,-0.57382430406,-0.0120051198206,0.0,-0.00645780683311,0.011703733792,-0.999910655682,0.0,0.292127847307,-0.224489201164,0.304925364698,1.0,-0.168341142857,-0.221248359184,2.259
-0.526112937976,-0.530095498696,-0.136662600624,-2.64825198214,-0.0739282759658,2.10882941018,-0.779749797972,-0.761356098015,0.0128892710534,0.0502077050108,0.007472821489,0.0274742167951,0.00431567801763,-0.752625469163,0.573792949159,0.818967644655,0.00586475963397,0.0,0.818963224578,-0.573704010236,-0.0119871734851,0.0,-0.00645259534652,0.0116814029905,-0.999910950454,0.0,0.289663521909,-0.22769675655,0.304922960508,1.0,-0.157232571429,-0.206648522449,2.274
-0.539352515625,-0.529750447204,-0.135846317373,-2.64806527529,-0.0735204670473,2.10882265983,-0.792417173827,-0.724447096566,0.0178933573906,0.0324006168807,0.0127084917983,0.0324678945987,0.00299401644311,-0.693949327125,0.573870815113,0.818912694101,0.00591894442992,0.0,0.818908538653,-0.573780838141,-0.0120458293282,0.0,-0.00646843018929,0.0117600504462,-0.999909926256,0.0,0.286850249686,-0.231312492994,0.304902844287,1.0,-0.143902285714,-0.189128718367,2.292
-0.55143940095,-0.529240677388,-0.134918763492,-2.64777240601,-0.0730622202878,2.10887374617,-0.804029084726,-0.636864934616,0.032096327938,0.0566813856183,0.0163825115479,0.0276333175507,0.0086965775918,-0.628534995703,0.5738181221,0.818949514483,0.00593315931333,0.0,0.818945114867,-0.573727316272,-0.0121083566045,0.0,-0.00651224257344,0.0118071536082,-0.999909086778,0.0,0.284320609931,-0.234564304232,0.30487851683,1.0,-0.130572,-0.171608914286,2.31
-0.56077341356,-0.528743312287,-0.134193909997,-2.64747987064,-0.0726895454093,2.10895080125,-0.812947229891,-0.615865089383,0.0346084773664,0.0479657772918,0.0186886421009,0.0239354818771,-0.00135763765379,-0.575440824759,0.573823273079,0.818945807343,0.00594666371607,0.0,0.818941248626,-0.573731800446,-0.0121572758949,0.0,-0.00654448604402,0.011846324133,-0.999908412959,0.0,0.282365483574,-0.237071519316,0.30485529149,1.0,-0.119463428572,-0.157009077551,2.325
-0.571624007274,-0.528076614683,-0.133352030092,-2.64698852482,-0.0721779016025,2.1090934713,-0.823118433306,-0.537502761476,0.0411442388061,0.0491969857074,0.0251464949918,0.0260188332729,0.0025374612013,-0.510954774464,0.574031379389,0.818799469546,0.00601257426427,0.0,0.818796094447,-0.573940168365,-0.0120989981651,0.0,-0.00645591969055,0.0118685054366,-0.999908725674,0.0,0.280115246241,-0.239999126714,0.304869039037,1.0,-0.105392571429,-0.138515951021,2.344
-0.5791123268,-0.527467059992,-0.132563948126,-2.64658013897,-0.0717565775187,2.10920393639,-0.830328330076,-0.493363448772,0.0387034653562,0.0516651080562,0.0265379599416,0.0251933797892,0.00994425901346,-0.459059230684,0.573905884578,0.81888750277,0.00600336194789,0.0,0.818883866079,-0.573814479988,-0.0121203685027,0.0,-0.00648052705176,0.0118722356257,-0.999908522211,0.0,0.278607398471,-0.241968417285,0.304861507247,1.0,-0.0942840000001,-0.123916114286,2.359
-0.586939832468,-0.526848383371,-0.131733777976,-2.64610874414,-0.0712906347015,2.10930948319,-0.837612933798,-0.445333596299,0.0356038656083,0.0500945484026,0.0302980836372,0.0290886847947,0.00839375092939,-0.404257593218,0.573989080974,0.818829158167,0.00600762514492,0.0,0.818825769744,-0.573897994168,-0.0120912362905,0.0,-0.0064530170531,0.0118596642251,-0.999908849313,0.0,0.277029606504,-0.244022389193,0.304879689816,1.0,-0.0816942857144,-0.107369632653,2.376
-0.59414063312,-0.526159176116,-0.130856602285,-2.64560492363,-0.0707598195401,2.10944953406,-0.844300832985,-0.37911528036,0.0444057513195,0.0515650990387,0.0261397528443,0.0332695885322,0.0109284570633,-0.359753395998,0.574043670689,0.818790719792,0.00603060735022,0.0,0.818787767309,-0.573952725559,-0.0120668069453,0.0,-0.00641902960511,0.0118648901161,-0.999909006081,0.0,0.27561796766,-0.245887201104,0.304890684104,1.0,-0.0683640000001,-0.0898498285716,2.394
-0.599151167561,-0.525611963342,-0.130032366869,-2.64524356197,-0.0703015097794,2.10955780064,-0.849016670393,-0.314758867323,0.0390190787934,0.0608254062859,0.0240584964254,0.034219083029,0.00690376743488,-0.300783627728,0.573918086286,0.818878876122,0.00601359926876,0.0,0.818875559201,-0.573826976921,-0.012089913218,0.0,-0.0064495332331,0.0118632377256,-0.9999088294,0.0,0.274682771026,-0.247125244615,0.304884547526,1.0,-0.0572554285715,-0.0752499918369,2.409
-0.604312143015,-0.525106044052,-0.129070421104,-2.64491837945,-0.0697552071728,2.10961540144,-0.853743438288,-0.27408628037,0.0263974991134,0.054281793357,0.0211532610001,0.0350671935229,-0.00134924160946,-0.248365937319,0.573844645268,0.818930361696,0.00601104746193,0.0,0.818926595472,-0.573752799266,-0.0121533313778,0.0,-0.00650400197541,0.0118969598199,-0.999908075928,0.0,0.273724744386,-0.248345543866,0.304875967294,1.0,-0.0439251428573,-0.0577301877553,2.427
-0.608087307473,-0.52472310385,-0.128230277609,-2.64464518689,-0.0692835903494,2.10973040578,-0.856995031865,-0.220938517045,0.0253736436474,0.0511775914705,0.0154295865312,0.0358603461492,0.00724338610716,-0.181398953039,0.573895280378,0.818895022434,0.00599135159003,0.0,0.81889136098,-0.573804171377,-0.0121020132194,0.0,-0.00647254046874,0.0118517825109,-0.999908816578,0.0,0.27307517975,-0.249215832942,0.304890445188,1.0,-0.0320760000001,-0.0421570285716,2.443
-0.611061869276,-0.524377034244,-0.127374628296,-2.64444675017,-0.0687517742048,2.10981816051,-0.859505533596,-0.156910079219,0.01384357072,0.0487365262666,0.0056624534167,0.0280843531454,0.00162032426523,-0.12459927864,0.573907910792,0.818885985836,0.00601656321787,0.0,0.818882532184,-0.573816468436,-0.012116349993,0.0,-0.00646963071136,0.0118807563752,-0.999908491566,0.0,0.272610052453,-0.249834807503,0.304882362347,1.0,-0.0199666666667,-0.0262419047619,2.46
-0.613440299567,-0.524155696682,-0.126709249467,-2.64430348379,-0.0683282852684,2.10981721144,-0.861504098513,-0.121732919089,0.00804896429149,0.0271381960782,0.00842719641507,0.0200117320953,-0.000729397076898,-0.0993465935188,0.573936689066,0.818865555487,0.00605193212443,0.0,0.818862250924,-0.573844511338,-0.0121588535198,0.0,-0.00648372314074,0.0119343406669,-0.99990776217,0.0,0.272219119809,-0.250320989492,0.304882547552,1.0,-0.0196066666667,-0.0257687619048,2.478
-0.615159928945,-0.524003291328,-0.126248691083,-2.64412549918,-0.0681127459021,2.10985962885,-0.863084447637,-0.101483268662,0.0106838179183,0.0293199263258,0.0101417422835,0.0132459487315,0.00437733696843,-0.0989268910878,0.573825940977,0.818943542243,0.00600091513581,0.0,0.818940192322,-0.573735148323,-0.0120701233897,0.0,-0.00644193769582,0.0118407684787,-0.999909144693,0.0,0.271948751032,-0.250710613256,0.304922351014,1.0,-0.0192866666667,-0.0253481904762,2.494
-0.616767144946,-0.523803480671,-0.125951833335,-2.64391708313,-0.0679353477144,2.10997932905,-0.864596153703,-0.0872199685829,0.0101793922108,0.00972872440454,0.0150671452305,0.0149349458604,0.00310283842897,-0.085669605766,0.573780450116,0.818975501842,0.00598910250725,0.0,0.818972939273,-0.573691453726,-0.0119242426132,0.0,-0.00632988752428,0.0117470363447,-0.999910965867,0.0,0.271687248034,-0.251127245057,0.304961215797,1.0,-0.0189466666667,-0.0249013333333,2.511
-0.6182042111,-0.523627707034,-0.125816093081,-2.64376683134,-0.0678234086285,2.10998997706,-0.865973879262,-0.0896944362992,0.00960223638284,0.0083571621229,0.00237265078691,0.0017561001372,-0.000175225335111,-0.0930095132538,0.573788603493,0.818969594581,0.00601569232211,0.0,0.818967338944,-0.573699426646,-0.0119252886934,0.0,-0.00631537120092,0.0117694768775,-0.999910793771,0.0,0.271397528957,-0.251511432596,0.304969239688,1.0,-0.0186266666667,-0.0244807619048,2.527
-0.619908319445,-0.523444330955,-0.125695938615,-2.64360388409,-0.0677933570703,2.10998753516,-0.867639428572,-0.086405418281,0.0137850044565,0.00479675114502,0.00517917306719,-7.01928985176e-05,0.000770792416788,-0.0883499442907,0.573756508673,0.818992314472,0.00598368554892,0.0,0.818989598078,-0.573667384332,-0.0119380607926,0.0,-0.00634465695566,0.011750342534,-0.999910833414,0.0,0.271030348966,-0.251980951795,0.304978685727,1.0,-0.0182466666667,-0.0239813333333,2.546
-0.62124174327,-0.523268388393,-0.125608381604,-2.64343862742,-0.0677583198057,2.11001018431,-0.86892260888,-0.0772805531831,0.0192072106138,0.00725883799027,0.00785909513568,0.000343784002325,0.000846628176221,-0.0763489620094,0.573759212714,0.818990554367,0.00596528158289,0.0,0.818987749358,-0.573670440331,-0.0119180196845,0.0,-0.00633876187679,0.0117237918484,-0.999911182457,0.0,0.270754288433,-0.252360443551,0.304993266689,1.0,-0.0179266666667,-0.0235607619048,2.562
-0.622570973699,-0.523054613318,-0.125583166757,-2.64327261567,-0.0677129413336,2.11010208667,-0.870327657215,-0.0761576083736,0.0169926467671,-9.80243449303e-05,0.00480723389764,0.00272529498757,0.00653839987931,-0.0796974135685,0.573707366544,0.819026746676,0.00598270047085,0.0,0.819024479128,-0.573619113528,-0.0118643198496,0.0,-0.0062855249632,0.0117068512268,-0.999911717008,0.0,0.270477063384,-0.252760308322,0.304998728808,1.0,-0.0175866666667,-0.0231139047619,2.579
-0.623824171165,-0.522871041782,-0.125587715416,-2.6431447362,-0.0676928994491,2.11010617312,-0.871514450031,-0.0835441768714,0.0107731597883,-0.000191925227598,0.00422261243619,0.00229177844489,-0.00253350243506,-0.0695558739034,0.573780385792,0.818975448447,0.0060025512941,0.0,0.818973142981,-0.573691488644,-0.0119085613568,0.0,-0.00630932826412,0.0117490534345,-0.999911072106,0.0,0.270187505825,-0.25312758526,0.304989710994,1.0,-0.0172666666667,-0.0226933333333,2.595
-0.625085416358,-0.522698165636,-0.125585988907,-2.64304067588,-0.0676734528757,2.11010963689,-0.872774930655,-0.076880645287,0.00877180706301,0.00581906091448,0.0078173283864,0.00341023578963,-0.0002766082504,-0.0824459644613,0.573793784125,0.818965914313,0.00602257373047,0.0,0.818963483033,-0.573704084706,-0.0119659329457,0.0,-0.00634463821981,0.0117984730618,-0.999910266774,0.0,0.269891223194,-0.253489489235,0.30497388095,1.0,-0.0169466666667,-0.0222727619048,2.611
-0.626302235568,-0.522518766465,-0.125585970496,-2.64291646506,-0.0676474638158,2.11012476695,-0.873990241714,-0.0780597782997,0.00953526426023,0.000573953477495,0.00687299257229,0.00165439065534,0.00182666260866,-0.0703342907703,0.573812754348,0.818952456242,0.00604518522634,0.0,0.818950090547,-0.573722532233,-0.0119980040863,0.0,-0.00635765834519,0.0118355406307,-0.999909746006,0.0,0.269612418628,-0.253845318255,0.304965765303,1.0,-0.0166266666667,-0.0218521904762,2.627
-0.627678629366,-0.522297665944,-0.12556859739,-2.64276945342,-0.0676113033361,2.11016867271,-0.875395003586,-0.0734332785913,0.0133674470058,0.00111216796159,0.0069358989733,0.00158530024394,0.00123403342257,-0.0758863812233,0.57380055649,0.818960853381,0.0060653855606,0.0,0.818958593817,-0.573709960184,-0.0120187395443,0.0,-0.00636322759716,0.0118638874851,-0.999909374648,0.0,0.269306201241,-0.254247895083,0.304955562065,1.0,-0.0162466666667,-0.0213527619048,2.646
-0.628756070205,-0.522142759098,-0.125506430812,-2.6426642917,-0.0675863713691,2.11020440527,-0.876515804974,-0.067143234979,0.00716472172613,0.00374366507561,0.00407063641414,0.000245679004266,0.00297577340862,-0.0740009756294,0.573737300706,0.819005244727,0.00605522831796,0.0,0.819002812723,-0.573646685561,-0.0120257971861,0.0,-0.00637575206553,0.0118591257654,-0.999909351352,0.0,0.269074406126,-0.254550340619,0.304950999334,1.0,-0.0159466666667,-0.0209584761905,2.661
-0.629881264725,-0.521967788124,-0.125414022909,-2.64255175037,-0.0675616468227,2.11023222141,-0.877606236475,-0.0684036298748,0.00928322295624,0.0109239721801,0.00961099981898,0.00124955632715,-5.68081621181e-05,-0.0690188205963,0.57370743166,0.81902634443,0.00603132566961,0.0,0.819023427765,-0.573616602555,-0.0120567386512,0.0,-0.00641524155699,0.0118570658749,-0.999909123203,0.0,0.268823089292,-0.254876234095,0.304941718604,1.0,-0.0156066666667,-0.0205116190476,2.678
-0.63117367355,-0.521776263066,-0.125371980179,-2.64242518748,-0.0675281333658,2.11026428831,-0.878935125541,-0.0695862125567,0.0111802355006,0.00333652819412,0.00997800130742,0.00472190097747,0.00139148056528,-0.070872402281,0.573678407127,0.819046627256,0.00603775439413,0.0,0.819043646298,-0.573587283069,-0.0120781232621,0.0,-0.00642949077024,0.011874371507,-0.999908826319,0.0,0.268549250307,-0.255226786252,0.304933359587,1.0,-0.0152466666667,-0.0200384761905,2.696
-0.632236210771,-0.521609343887,-0.125364546907,-2.64229750346,-0.0675048366495,2.11028812584,-0.880081641436,-0.0670658965421,0.0152945659349,0.00232141730834,0.0112670952383,0.00172792186614,0.00134894366606,-0.0728301431898,0.573625304591,0.819083692088,0.0060549310655,0.0,0.819080889334,-0.573534033377,-0.0120812329089,0.0,-0.006422955482,0.0118898081449,-0.999908684883,0.0,0.268296505025,-0.255560460012,0.304933759554,1.0,-0.0149066666667,-0.0195916190476,2.713
-0.633307227215,-0.521448833327,-0.125368694556,-2.64217179397,-0.0674783951535,2.11031936322,-0.881100384569,-0.0664207295938,0.0120679840933,-0.00167959368574,0.00829029818823,-0.00028586732893,0.00196088859315,-0.0668387352198,0.573684684847,0.819041966684,0.00607339150409,0.0,0.819039379289,-0.573593274717,-0.0120829331448,0.0,-0.00641289627289,0.0119063697354,-0.999908552379,0.0,0.268069791918,-0.255859494587,0.304933001923,1.0,-0.0146066666667,-0.0191973333333,2.728
-0.63436381914,-0.521286998633,-0.125363053727,-2.64204329332,-0.0674564584022,2.11033674778,-0.882154658066,-0.0608617778686,0.0141022279812,-0.000754263024382,0.00905854281868,-0.000110498901079,0.000591334059636,-0.064085602225,0.573707956313,0.819025552143,0.00608873564543,0.0,0.819023071252,-0.573616301008,-0.0120952418745,0.0,-0.00641383762204,0.0119261810812,-0.999908310242,0.0,0.267815437085,-0.256191238333,0.30493100365,1.0,-0.0142666666667,-0.0187504761905,2.745
-0.635506307955,-0.521099797691,-0.125345292582,-2.64191836869,-0.0674317193644,2.11037068632,-0.883319121923,-0.0636097525948,0.0117150624344,0.000697327154625,0.00926871490308,0.00196458185953,0.00425301554121,-0.0652650125177,0.573685376737,0.819041299212,0.00609800008931,0.0,0.819038811662,-0.573593448747,-0.0121131105325,0.0,-0.0064234885584,0.0119438430819,-0.999908037475,0.0,0.267575011763,-0.256503858383,0.304924838672,1.0,-0.0139266666667,-0.0183036190476,2.762
-0.636529172005,-0.520941136209,-0.125298634955,-2.64179169635,-0.0674120742697,2.11041530503,-0.884312491981,-0.0621538825406,0.0106296644827,-0.000186947826178,0.00457441049016,0.00407321989242,0.000335755419785,-0.0567367566511,0.57369148902,0.819037105924,0.00608616849299,0.0,0.819034594372,-0.573599853572,-0.0120949619766,0.0,-0.00641532081196,0.0119237888588,-0.999908329257,0.0,0.267357295008,-0.256800728723,0.304928997662,1.0,-0.0135866666667,-0.0178567619048,2.779
-0.637540681741,-0.520778295958,-0.125239230699,-2.64165175276,-0.0673877714226,2.11044520518,-0.885364625447,-0.0552640145381,0.0145002153226,0.00524011436566,0.00883924186688,-0.000403811525671,0.000414020921573,-0.062784747863,0.573633762525,0.819077639196,0.00607242635975,0.0,0.819075040782,-0.573542370172,-0.0120819736315,0.0,-0.00641340410975,0.0119046300622,-0.999908569836,0.0,0.267145961833,-0.25709235663,0.304936691189,1.0,-0.0132466666667,-0.0174099047619,2.796
-0.638594989163,-0.520601887311,-0.125192453942,-2.64150267021,-0.0673646508943,2.11047553603,-0.886453444211,-0.0624638225211,0.0121071295285,0.00174298035871,0.0116815824056,0.00510370857668,0.00754842207477,-0.0561620386494,0.573589966799,0.819108375604,0.0060634894367,0.0,0.81910572463,-0.573498740738,-0.0120728270175,0.0,-0.00641167361541,0.0118917203094,-0.99990873455,0.0,0.266922372005,-0.257400293639,0.30494327589,1.0,-0.0128866666667,-0.0169367619048,2.814
-0.639508685314,-0.520451366218,-0.125165392994,-2.64138397504,-0.0673454335345,2.11049884671,-0.887356263682,-0.0552914797613,0.00767224472077,0.000786468956011,0.00615494040229,0.000658663687588,-0.000116008153539,-0.054700538603,0.573594118708,0.819105472332,0.0060629267058,0.0,0.81910279455,-0.573502858081,-0.0120760355709,0.0,-0.00641456452637,0.0118931321683,-0.999908699217,0.0,0.266722488842,-0.257667017265,0.304944495805,1.0,-0.0125666666667,-0.0165161904762,2.83
-0.640413513454,-0.520309701197,-0.12516915085,-2.64128954887,-0.0673316510285,2.11052030328,-0.888243600519,-0.0550579244708,0.0106355844207,-0.000883974514481,0.00884253316528,0.00530177767863,-3.2376884145e-05,-0.0546577654797,0.573622046307,0.819085816657,0.0060761700727,0.0,0.819083169316,-0.573530458852,-0.0120963388835,0.0,-0.00642319466948,0.0119158447206,-0.99990837341,0.0,0.266511784708,-0.257932282424,0.304937047905,1.0,-0.0122466666667,-0.0160956190476,2.846
-0.641299552772,-0.52016955585,-0.125161013244,-2.64119392916,-0.067323835371,2.1105440026,-0.889150090691,-0.0494260289499,0.00981027684393,0.00061056427437,0.00905379930111,0.000155618893379,-8.82835268036e-05,-0.0603239968126,0.573607964261,0.81909566278,0.00607827712727,0.0,0.819092936522,-0.57351617332,-0.0121122739819,0.0,-0.006435244745,0.0119266003065,-0.999908167699,0.0,0.266308375851,-0.258191009001,0.304931164374,1.0,-0.0119266666667,-0.0156750476191,2.862
-0.642222032821,-0.520017425136,-0.125167771011,-2.64109473418,-0.0673155542158,2.11057816355,-0.890080897905,-0.0538169968261,0.0129907054497,0.0020317512618,0.0062587094007,0.000160579197807,0.000750682270824,-0.0627441727346,0.573614787352,0.81909081764,0.00608728923572,0.0,0.819088112376,-0.573522776487,-0.012125836771,0.0,-0.00644108654246,0.0119418154474,-0.999907948487,0.0,0.266094351138,-0.258464664035,0.304923030928,1.0,-0.0115866666667,-0.0152281904762,2.879
-0.643127698531,-0.519876821505,-0.125148295887,-2.64098978012,-0.0673041511878,2.11063087609,-0.890901537506,-0.0502970672241,0.0075183981633,0.00259776551147,0.0082590794043,0.000415202273405,0.00496325080296,-0.0553637903244,0.573681001642,0.8190444865,0.0060814792184,0.0,0.819041856258,-0.573589281938,-0.0121045546525,0.0,-0.00642602117248,0.0119253686656,-0.999908241707,0.0,0.265894892331,-0.258731840229,0.304923953731,1.0,-0.0112466666667,-0.0147813333333,2.896
-0.644097391827,-0.519705711382,-0.125127756915,-2.64086208266,-0.0672974920023,2.11065552516,-0.891870215567,-0.0463598450074,0.00641379272588,0.0012694536425,0.00351197856407,0.000897234710185,0.000245028303719,-0.0501900687341,0.573679905048,0.819045345884,0.00606917047801,0.0,0.819042504375,-0.573588145232,-0.0121145605986,0.0,-0.00644129425301,0.0119210180782,-0.999908195314,0.0,0.265701821133,-0.258988455472,0.30492222983,1.0,-0.0109066666667,-0.0143344761905,2.913
-0.64485336491,-0.519582143256,-0.125102837846,-2.64077550648,-0.0672881017708,2.1106696695,-0.892627342253,-0.0525002425354,0.00754039809905,0.00374530135371,0.00735574118626,0.00037557222658,0.00342960542197,-0.0466939734514,0.573666839122,0.819054500073,0.00606881398661,0.0,0.819051504012,-0.573574806467,-0.0121376300324,0.0,-0.0064605860767,0.0119338568421,-0.999907917705,0.0,0.265508315774,-0.259233850246,0.304917271288,1.0,-0.0105666666667,-0.0138876190476,2.93
-0.645726711997,-0.519460574315,-0.125098189904,-2.64067648623,-0.0672824827411,2.110694681,-0.893453380588,-0.0449149755574,0.00282842911086,0.00186583506351,0.0075041070244,0.00222400750965,0.00123272070529,-0.0491714953445,0.573709848612,0.819024375469,0.00606868147531,0.0,0.819021425431,-0.573617895692,-0.0121310068445,0.0,-0.00645461027838,0.0119302879477,-0.999907998886,0.0,0.26530741278,-0.259490784221,0.30491976745,1.0,-0.0102066666667,-0.0134144761905,2.948
-0.64652572536,-0.519369258154,-0.125090663927,-2.64060537524,-0.067270148458,2.11071443325,-0.894211726407,-0.0439088521989,0.00507039965936,-0.000235366502462,0.00260028541339,-0.000314058783717,0.00026031793254,-0.0395161761459,0.57374680349,0.818998437693,0.00607547872534,0.0,0.81899559999,-0.573654856677,-0.0121268095177,0.0,-0.0064467342914,0.0119337383027,-0.999908008522,0.0,0.265120205369,-0.25971918424,0.304920337567,1.0,-0.00986666666667,-0.0129676190476,2.965
-0.647218737139,-0.519280090516,-0.125084499227,-2.64053012001,-0.0672631910852,2.11074495025,-0.894881032524,-0.047145877421,0.00216651161959,0.000152896324352,0.0105531850299,-0.000647975605858,0.00520642494619,-0.0416039999213,0.573768710499,0.818983090448,0.00607546819399,0.0,0.818980384725,-0.573677003878,-0.0121066741127,0.0,-0.00642992878527,0.0119223496152,-0.999908252589,0.0,0.26496229173,-0.259922812606,0.304924461771,1.0,-0.00956666666667,-0.0125733333333,2.98
-0.647967369158,-0.519174628081,-0.125071152303,-2.64044014403,-0.0672503122043,2.11076550049,-0.895613068174,-0.045122182408,0.00885398963332,0.00197198001514,0.00283240373302,-0.000297762177226,0.000138156613411,-0.0443909647511,0.573782992868,0.818973071324,0.00607720680565,0.0,0.818970447483,-0.573691385517,-0.0120974061327,0.0,-0.00642113228985,0.0119185681432,-0.999908354197,0.0,0.264793289066,-0.260141000334,0.30492859627,1.0,-0.00922666666667,-0.0121264761905,2.997
-0.648763829241,-0.519059967675,-0.12507075515,-2.64035090015,-0.0672369922389,2.11079987247,-0.896405547787,-0.0411028779037,0.0103805835412,-0.00117020509476,0.00625928154021,0.000196588008984,0.0003483882106,-0.0474016844541,0.573796315259,0.818963676626,0.00608538119483,0.0,0.818961239798,-0.57370481916,-0.0120836700341,0.0,-0.00640499763641,0.0119174861169,-0.999908470576,0.0,0.264610693697,-0.260376116,0.304929882094,1.0,-0.00884666666667,-0.0116270476191,3.016
-0.649344811858,-0.518949129379,-0.125052318657,-2.64026882994,-0.0672282129961,2.11081505225,-0.896971851309,-0.0352979299426,0.00907721049827,0.00276267903773,0.00293655464491,0.00466847264289,0.000396439342112,-0.0389369906735,0.573803328926,0.818958794618,0.00608106348329,0.0,0.818956238306,-0.573711732564,-0.0120944019494,0.0,-0.00641616290627,0.0119201624752,-0.999908367092,0.0,0.264482963111,-0.260546174559,0.304928097388,1.0,-0.00854666666667,-0.0112327619048,3.031
-0.650052434429,-0.51880906456,-0.125027537369,-2.64016564826,-0.0672096852641,2.11084079612,-0.897655873013,-0.0399557988261,0.00881456693704,0.00203583924253,0.00116566136229,0.000537385286663,0.000585880884156,-0.0392761762993,0.57381841463,0.818948231436,0.00608014478193,0.0,0.818945620235,-0.573726739385,-0.0121015087537,0.0,-0.00642229119985,0.0119236060736,-0.999908286691,0.0,0.264330230018,-0.260753674975,0.304926195689,1.0,-0.00818666666667,-0.0107596190476,3.049
-0.650647698493,-0.518692098109,-0.124993578452,-2.64009030862,-0.0671973475049,2.11086302709,-0.89825015118,-0.0381637031641,0.00854604927426,0.00159473087931,0.00417975480301,0.000945123267581,0.000288544205985,-0.0393161930268,0.573804428834,0.81895809151,0.00607196036593,0.0,0.81895527623,-0.573712611756,-0.0121178194351,0.0,-0.00644055003835,0.0119261520538,-0.999908138887,0.0,0.264201675615,-0.260922779991,0.30492005772,1.0,-0.00786666666667,-0.0103390476191,3.065
-0.651362088309,-0.518556248357,-0.124962193539,-2.64001161515,-0.0671777360327,2.11088983547,-0.898982146324,-0.0338765392059,0.00717312250423,0.000586740755652,0.00257625726812,0.00023650573627,0.00034917023349,-0.0362562830928,0.573780386219,0.818974931407,0.00607264510391,0.0,0.818971955388,-0.573688257338,-0.0121435818995,0.0,-0.00646160837207,0.0119413050546,-0.999907822177,0.0,0.264043072317,-0.261124286792,0.304908818908,1.0,-0.00746666666667,-0.00981333333334,3.085
-0.651899588798,-0.518467334076,-0.124941187811,-2.63996214455,-0.067167617667,2.11090765354,-0.899511055816,-0.0333695245467,0.00526157323463,0.00057140052645,0.00610993680379,0.000280201198338,0.000282540367287,-0.0325010228298,0.573779538288,0.818975534205,0.00607146739134,0.0,0.818972423897,-0.573687195217,-0.0121621479171,0.0,-0.00647750320095,0.0119509860761,-0.999907603674,0.0,0.263920348143,-0.261274267642,0.304900568142,1.0,-0.00714666666667,-0.00939276190477,3.101
-0.652394858252,-0.51839756781,-0.124936570008,-2.63992076271,-0.0671564332287,2.11092066923,-0.899981967172,-0.0309130135172,0.00243651253015,-0.00149048730236,0.000825843103556,0.000758928504244,0.000750847987441,-0.0299340399153,0.573803221963,0.818958880527,0.00607958645775,0.0,0.818955791513,-0.573710681382,-0.0121742563295,0.0,-0.00648241645224,0.0119647704053,-0.999907406986,0.0,0.263802908344,-0.261414088208,0.304894897853,1.0,-0.00684666666667,-0.00899847619048,3.116
-0.652896624387,-0.518349962766,-0.124929541782,-2.6398789349,-0.0671412434937,2.11093827199,-0.900471961401,-0.0281950491538,0.000877487652965,0.00525264876081,0.00117548130953,-0.000102216146202,0.00423517094324,-0.0256162232872,0.57381650624,0.818949505579,0.00608862704532,0.0,0.818946626455,-0.573724092316,-0.0121587752812,0.0,-0.00646435543884,0.011963396863,-0.999907540348,0.0,0.263685903714,-0.261555777956,0.304898042372,1.0,-0.00652666666667,-0.00857790476191,3.132
-0.653369427206,-0.518293055983,-0.12492558098,-2.63981913746,-0.0671311486658,2.11094824641,-0.900936271424,-0.0263085962152,0.00662023759937,-0.00107600091453,0.00439497515183,0.00153608481007,0.000201064796321,-0.0247474020101,0.573827987126,0.818941427619,0.00609312903406,0.0,0.818938705451,-0.573735732702,-0.0121430077054,0.0,-0.00644869037235,0.0119581271036,-0.999907704535,0.0,0.263577976427,-0.261694355582,0.304905197229,1.0,-0.00620666666667,-0.00815733333334,3.148
-0.65384662964,-0.518252155359,-0.124921271232,-2.63973531539,-0.067116446319,2.11096135406,-0.901411878207,-0.0274929669382,0.00572466178907,-0.000789847813041,0.0050400487098,0.000104580911237,-0.0001985958505,-0.0210449617033,0.573836565885,0.818935388998,0.00609681896185,0.0,0.818933091379,-0.573744993353,-0.0120839293478,0.0,-0.00639806120884,0.0119273169572,-0.999908397766,0.0,0.263475663473,-0.261840406029,0.304929440876,1.0,-0.00586666666667,-0.00771047619048,3.165
-0.654327106808,-0.51819121701,-0.124905369481,-2.63963330192,-0.0670994245799,2.11097681304,-0.901899100656,-0.0262098281669,0.00419887174088,9.78735433439e-05,0.00687137431327,-0.000111907022539,-0.000282831080177,-0.0219431713114,0.573832011218,0.818938596514,0.00609466504955,0.0,0.818936651347,-0.573741159794,-0.012024539089,0.0,-0.00635072124225,0.0118914389832,-0.99990912688,0.0,0.263379245911,-0.261989194817,0.304955042827,1.0,-0.00550666666667,-0.00723733333334,3.183
-0.654793160519,-0.518126293415,-0.124886583196,-2.6395411744,-0.0670788287989,2.11099452448,-0.902352313841,-0.0257412181922,0.00867015668989,0.00163075918742,0.00207775459813,0.00198015076728,0.00203668727788,-0.0321535354952,0.573842533154,0.818931220793,0.0060950516636,0.0,0.818929585078,-0.573752249047,-0.0119765729089,0.0,-0.00631106138064,0.0118643134912,-0.999909700208,0.0,0.263285489244,-0.262130866839,0.304974946759,1.0,-0.00514666666667,-0.0067641904762,3.201
-0.655122953698,-0.518070529622,-0.124861070096,-2.63949205873,-0.0670587025298,2.111009894,-0.902655317616,-0.0240489950625,0.00310327705261,0.00366382653754,0.00242715258395,0.000212862483392,0.000526767279552,-0.0130674602036,0.573857475998,0.818920740711,0.00609627557929,0.0,0.818919192133,-0.573767317644,-0.0119653191324,0.0,-0.00630092563236,0.0118589732312,-0.999909827479,0.0,0.26321883607,-0.262223969552,0.304978640471,1.0,-0.00486666666667,-0.0063961904762,3.215
-0.655490272301,-0.518003817028,-0.124817758719,-2.63945118915,-0.0670337622663,2.11103315856,-0.90302244267,-0.0174561347889,0.000854455666179,0.00478839143539,0.00194097969792,0.0025028401105,0.000102684674545,-0.0195622615619,0.573839727555,0.818933192031,0.00609433920531,0.0,0.818931621638,-0.573749587273,-0.0119648270717,0.0,-0.00630189075312,0.0118569684787,-0.999909845172,0.0,0.263145763725,-0.262321374075,0.304975647628,1.0,-0.00452666666667,-0.00594933333334,3.232
-0.655839515813,-0.517940637892,-0.124758850356,-2.63944554369,-0.0670069238005,2.11104611512,-0.903348440847,-0.0210462515452,0.000731656970001,0.00158386623041,0.00116402046936,0.000764709173426,0.000278545891427,-0.0182077070548,0.573828963722,0.818940750045,0.00609222541601,0.0,0.81893889192,-0.57373834581,-0.0120061962662,0.0,-0.00633714205255,0.0118788921987,-0.999909362168,0.0,0.263071407566,-0.262399943513,0.304957439793,1.0,-0.00418666666667,-0.00550247619048,3.249
-0.656177163684,-0.517874845808,-0.124719740557,-2.63943713493,-0.0669784340178,2.11105511056,-0.903693549598,-0.0165131401086,0.000274018250635,-0.000121882260659,-0.000675043533243,0.000201318122227,-0.000274247724664,-0.0123896058446,0.573807950992,0.818955402474,0.00610172428185,0.0,0.818953372477,-0.573716743739,-0.0120506664833,0.0,-0.00636841964553,0.0119120252648,-0.999908769281,0.0,0.262995821497,-0.262479689685,0.304938720473,1.0,-0.00380666666667,-0.00500304761905,3.268
-0.656439607085,-0.517800694052,-0.124679134215,-2.63941953337,-0.0669571803715,2.11106065598,-0.903970715827,-0.017448283282,0.00344524844737,0.000150968437102,-0.000265812373003,0.000288293142103,5.65326511706e-05,-0.0185957195513,0.573777306766,0.81897686354,0.00610296053742,0.0,0.818974536069,-0.573685515187,-0.0120990014715,0.0,-0.00640774558595,0.0119405316459,-0.999908178035,0.0,0.262941001537,-0.262541783769,0.304920832168,1.0,-0.00348666666667,-0.00458247619048,3.284
-0.656710903754,-0.517762522749,-0.124658561431,-2.6394021257,-0.0669363333765,2.11106628414,-0.904246123976,-0.0170164630727,0.00166613954485,0.000293855329382,0.00337374967306,-6.71634459517e-05,4.12401843793e-05,-0.0134568329553,0.573769214919,0.818982464141,0.00611214711236,0.0,0.818980167937,-0.573677219858,-0.0121111041136,0.0,-0.00641250578823,0.0119549361371,-0.999907975401,0.0,0.262880172886,-0.262611168376,0.304915650279,1.0,-0.00312666666667,-0.00410933333334,3.302
-0.65691625547,-0.517727136802,-0.124648983659,-2.63938865837,-0.0669241986507,2.1110709339,-0.904450344644,-0.0142645323729,0.00264477971661,-0.00170010740968,-0.000519147996097,1.46627776589e-05,0.00113903018567,-0.017417033845,0.573769308835,0.818982346098,0.00611914377126,0.0,0.818980035933,-0.573677086797,-0.0121263237649,0.0,-0.00642095613744,0.011969399439,-0.999907748144,0.0,0.262832455367,-0.262665366963,0.304909356984,1.0,-0.00284666666667,-0.00374133333334,3.316
-0.657156730068,-0.517691262632,-0.124624198708,-2.63936068959,-0.0669008297227,2.11107711581,-0.904700805079,-0.0127090534352,0.00319813989856,0.00065313047066,0.000182878049465,0.0036702637422,-0.000207804274802,-0.0101559991262,0.573754965863,0.818992340937,0.00612629861993,0.0,0.818990122288,-0.573662711873,-0.0121251599141,0.0,-0.00641610755214,0.0119744793143,-0.999907718447,0.0,0.262783392708,-0.262728300976,0.304909966472,1.0,-0.00246666666667,-0.00324190476191,3.335
-0.657341687558,-0.517669830733,-0.124596857678,-2.63933481459,-0.0668805826433,2.11107862055,-0.904887541565,-0.0103197617498,0.00442057227138,0.00165564891162,-0.00138746314543,0.00166361134016,0.000537066705505,-0.0101067915038,0.573744034005,0.818999979123,0.00612899181994,0.0,0.818997843597,-0.573651860071,-0.0121170343657,0.0,-0.0064080667098,0.011971937758,-0.999907800443,0.0,0.262748292878,-0.262775444,0.304914606116,1.0,-0.00214666666667,-0.00282133333334,3.351
-0.657523680798,-0.517661665399,-0.124564484733,-2.63930722842,-0.0668617698232,2.11108539867,-0.905063531499,-0.0142359040285,0.000869293564504,0.00275099706417,0.00168895826446,-0.000112333653435,2.4618232061e-05,-0.011083511424,0.57373530141,0.819006116408,0.00612634506375,0.0,0.819004127226,-0.57364347913,-0.0120890586659,0.0,-0.00638679805794,0.0119536517543,-0.999908155292,0.0,0.262716455343,-0.2628222698,0.304925479647,1.0,-0.00182666666667,-0.00240076190477,3.367
-0.657691584119,-0.517651819388,-0.124531898092,-2.63928777477,-0.0668405580817,2.11108731342,-0.905223506333,-0.0101659604936,0.00429322224517,0.00318313383114,0.000119323879362,0.000171415751421,0.00735821630408,-0.00441748074163,0.573728654992,0.819010764985,0.00612733060771,0.0,0.819008873523,-0.573636988781,-0.012075474895,0.0,-0.00637520319466,0.011946614118,-0.999908313394,0.0,0.262685920965,-0.262862286232,0.304931630602,1.0,-0.00148666666667,-0.00195390476191,3.384
-0.657852128562,-0.517643860264,-0.124510883553,-2.63927455916,-0.0668245931262,2.11109100909,-0.905352241777,-0.00755054454984,0.00313698913849,-0.00155404790659,0.000945780819228,-0.000205107758941,8.13087083708e-05,-0.00832746667234,0.573747244897,0.818997723085,0.00612988215507,0.0,0.818995931964,-0.573655689494,-0.0120648348136,0.0,-0.00636475300875,0.0119427442177,-0.999908426197,0.0,0.262653196324,-0.262902082128,0.304935519793,1.0,-0.00114666666667,-0.00150704761905,3.401
-0.657977877264,-0.517648468625,-0.124491658019,-2.63926556963,-0.0668071435394,2.11109294816,-0.905439099791,-0.0123063150046,0.000637753675588,0.000804667458965,0.00175678724534,-0.000163954237005,0.000516962194438,-0.00317295295537,0.573773283616,0.818979447723,0.00613433919584,0.0,0.818977822158,-0.573681905384,-0.0120476200632,0.0,-0.00634771604082,0.0119367200973,-0.999908606431,0.0,0.262628394988,-0.262931850868,0.304941930194,1.0,-0.000826666666672,-0.00108647619048,3.417
-0.658071528452,-0.517642097221,-0.124485615131,-2.63926509078,-0.0667894818399,2.11109438219,-0.90547575418,-0.005029739255,1.85841749234e-05,-8.18135402665e-05,0.00135494192457,0.00185656053329,0.00144541092512,0.000558348775017,0.573823260106,0.818944338919,0.00614677274886,0.0,0.818942850771,-0.573731771527,-0.012050245354,0.0,-0.00634200350007,0.0119487967235,-0.999908498438,0.0,0.262606886706,-0.262953572972,0.304940074633,1.0,-0.000486666666672,-0.000639619047626,3.434
-0.658099322802,-0.517630394829,-0.124474937984,-2.63926990605,-0.0667761997902,2.1110982618,-0.905517115783,-0.000736697860306,0.00117508677405,0.00108240817386,-0.00120712613126,2.71129858492e-05,-0.000239098855731,0.000274161251478,0.573808932964,0.818954319688,0.00615447937581,0.0,0.81895291309,-0.573717378646,-0.0120516588764,0.0,-0.00633894836621,0.01195580852,-0.999908433996,0.0,0.262603209176,-0.262957320426,0.304938994049,1.0,-0.000106666666672,-0.000140190476198,3.453
-0.658091576079,-0.517627145262,-0.124450465059,-2.639269676,-0.0667644090878,2.11109984628,-0.905537518238,0.000429819546634,0.00117385161086,0.0044456942238,-0.000224613888441,0.00358324006471,1.80526344652e-05,-0.00391703021799,0.573774702176,0.818978320759,0.00615208676155,0.0,0.818976814731,-0.573683036836,-0.0120622170919,0.0,-0.00634946872925,0.0119596416996,-0.999908321406,0.0,0.262611093391,-0.26294801275,0.304933787244,1.0,0.0,0.0,3.468
-0.658089235937,-0.517617874708,-0.124416938357,-2.63926697805,-0.0667551683868,2.11109584054,-0.90554364297,-0.000613049073931,0.00352849712088,0.00502205408094,-0.00116902336734,-8.92206336033e-05,-0.000353790359937,0.000704352014139,0.573748085889,0.818997028906,0.00614389806412,0.0,0.818995355867,-0.573656348292,-0.0120726150017,0.0,-0.00636307219863,0.0119586939722,-0.999908246266,0.0,0.262619698273,-0.262939156221,0.304932046562,1.0,0.0,0.0,3.486
-0.658086730284,-0.517620797281,-0.124381977261,-2.63926188978,-0.0667485987905,2.11110300032,-0.905553904991,-0.00019585702208,0.00229045488851,0.00149515656664,-0.00029381992195,-2.2792018844e-06,0.000532334296414,-0.00145551032329,0.573715828625,0.81901972607,0.0061305133752,0.0,0.819017984574,-0.573624354858,-0.0120576680949,0.0,-0.0063589786704,0.0119389056123,-0.999908508776,0.0,0.26263099139,-0.262932619704,0.304936870476,1.0,0.0,0.0,3.503
-0.658084198151,-0.517619302189,-0.124369149127,-2.63926207519,-0.0667448726701,2.11110490921,-0.90556031714,-3.13017022815e-05,0.00106469395745,0.00175390904312,-4.72324736706e-05,-0.000280753816951,0.000242675162476,-0.0016879469366,0.573700983946,0.819030148707,0.0061272693453,0.0,0.819028368928,-0.573609534789,-0.0120573376729,0.0,-0.00636078541337,0.0119359437085,-0.999908532645,0.0,0.262635040142,-0.262928989621,0.304936701194,1.0,0.0,0.0,3.519
-0.658084224593,-0.517616766537,-0.124370607528,-2.63925954206,-0.0667448726153,2.11110266205,-0.905552485794,0.000897984566543,-3.29878496346e-05,-3.04390832072e-05,0.00118478767419,-0.000166791415757,0.000239859489714,-0.00147697347227,0.573708585182,0.819024819595,0.00612789339024,0.0,0.81902303361,-0.573617104824,-0.0120596173217,0.0,-0.00636218392787,0.0119378216657,-0.999908501329,0.0,0.262634880277,-0.262929605831,0.304936691485,1.0,0.0,0.0,3.535
-0.658092020103,-0.517613712203,-0.124372434066,-2.63926108683,-0.0667411467697,2.11110654556,-0.905560289407,-0.00119300722582,-0.000586093939725,0.0010780468576,-0.000520677339897,-0.000241246451836,0.000253985948932,0.000359432291024,0.573711406075,0.819022813213,0.00613195545636,0.0,0.819021074409,-0.573619896799,-0.0120598744632,0.0,-0.00636002310397,0.0119413181889,-0.999908473324,0.0,0.262632955488,-0.262931773514,0.304935154691,1.0,0.0,0.0,3.551
-0.658093034017,-0.51761370336,-0.124375897562,-2.6392532537,-0.0667408335068,2.11110614109,-0.905561920443,-0.000620711854384,-0.000816088304334,-0.00108580087201,0.00119692129834,-0.000286183647653,-0.000411006774491,-0.000766243818881,0.573713852579,0.819021093213,0.00613279160371,0.0,0.819019411933,-0.573622426763,-0.0120524392934,0.0,-0.00635341752643,0.0119377565916,-0.999908557846,0.0,0.262633676929,-0.262934725669,0.30493859463,1.0,0.0,0.0,3.568
