nelsonifechukwu/NELSON_IML_WORK/CNN-GradCAM/train2dof/data_sample_2022-07-05-18-55-04/robot_state.csv
position_joint1,position_joint2,position_joint3,position_joint4,position_joint5,position_joint6,position_joint7,velocity_joint1,velocity_joint2,velocity_joint3,velocity_joint4,velocity_joint5,velocity_joint6,velocity_joint7,ee_T_00,ee_T_10,ee_T_20,ee_T_30,ee_T_01,ee_T_11,ee_T_21,ee_T_31,ee_T_02,ee_T_12,ee_T_22,ee_T_32,ee_T_03,ee_T_13,ee_T_23,ee_T_33,v_x,v_y,w_z,time
0.46506695295227896,0.5473173362973162,-0.12399772053107966,-1.3555678922418908,0.07943126683764988,1.8941658557236123,0.1591575979893201,-0.0011756435031132486,-0.0006247677786470689,-0.0003880532801246711,-0.0017331894683836173,-6.113549636304624e-05,0.00015701854418644323,0.0012342913478608879,0.5737831472916428,0.8189914362352064,0.002583439315980366,0.0,0.8189575189930036,-0.5737232931780551,-0.011441671685564848,0.0,-0.007888603694668761,0.008680932577557837,-0.9999312033041736,0.0,0.6617708663546814,0.260911660427953,0.3036750535052808,1.0,5e-324,6.94041163351007e-310,6.94019943393107e-310,0.0
0.4650694585684606,0.5473127011764535,-0.1239977294090727,-1.3555653865881134,0.07943126683764988,1.894164188875575,0.15915881520742936,-0.0004251046508771706,-0.0014135815345103064,-0.0005895822412901584,-0.00036114056045280003,-9.596148383175919e-05,-0.00028756697433655025,0.0005529378541087661,0.5737819387704014,0.8189922678416881,0.002588215140997366,0.0,0.8189584127754889,-0.5737220699421655,-0.011439034344614657,0.0,-0.007883716317635403,0.008683319048506374,-0.9999312211283958,0.0,0.661770577600829,0.26091355848709946,0.3036793857792631,1.0,-8e-05,-0.00010514285714285717,-4e-05,0.005
0.4650691457605309,0.5473134742170799,-0.12399493759132015,-1.3555660951699895,0.07943258926603529,1.894164223754807,0.15914945067508146,-0.0015324922261494203,0.0018259295199987478,-0.0014035032637589118,0.0002975302282559987,0.0007223918454898518,0.0030054366474375864,-0.0009911002047480735,0.5737729659756883,0.8189985531433094,0.0025885064874884896,0.0,0.8189646761571594,-0.5737130690150073,-0.011442051799778525,0.0,-0.007886115700071916,0.008685202592326607,-0.9999311858498541,0.0,0.6617697682286715,0.26091508959820353,0.3036784137861225,1.0,-0.0004400000000000002,-0.0005782857142857147,-0.0002200000000000001,0.02300000000000001
0.46506909023047793,0.5472939593459519,-0.12399518312322708,-1.3555806064154161,0.07943330128668018,1.894167451314198,0.15915561496820047,0.0003625953133464933,-0.004347210960939489,6.109155490053079e-05,-0.001309334212966882,0.0005963548765796777,-5.773731707372431e-05,0.0007945094604880203,0.5737791952019802,0.8189941633840101,0.002596612697667181,0.0,0.8189603771425629,-0.5737192559753774,-0.011439532104886326,0.0,-0.00787933502239968,0.008690455757006749,-0.999931193662014,0.0,0.6617676300904853,0.2609137789522771,0.3036856208954754,1.0,-0.0007600000000000004,-0.0009988571428571436,-0.0003800000000000002,0.03900000000000002
0.46506943353583635,0.5472174112960614,-0.12399989944194706,-1.3556550083958436,0.07942802856189733,1.8941706048405542,0.15915256320436796,0.0008696769596129748,-0.0029796338746660377,-0.0017561356735005056,-0.011256194731482028,-0.0001011173181269426,0.0005492845087132173,-0.009986620664170671,0.5737822596911277,0.8189920017138351,0.002601248492008189,0.0,0.8189582752479574,-0.5737223050712968,-0.011437087381715061,0.0,-0.007874640418858547,0.008692879185533492,-0.9999312095788088,0.0,0.6617545093140832,0.26090280583521547,0.3037048487613775,1.0,-0.0011000000000000007,-0.001445714285714287,-0.0005500000000000004,0.056000000000000036
0.46506828343592277,0.5470815359363002,-0.12399315143512134,-1.3558228300658592,0.07942863920233749,1.8942055810521738,0.15914934978939657,8.058844525439003e-05,-0.011845188069767464,-0.00012631766824568115,-0.01306434098733201,0.00016758747231237386,0.0003766934706039095,-0.0014879871719470912,0.573785175111523,0.8189899215872787,0.002613056048075247,0.0,0.8189561940596028,-0.5737250124523219,-0.011450292537821153,0.0,-0.007878650262412967,0.008710154242348084,-0.9999310276629668,0.0,0.6617253130891341,0.2608902836462685,0.3037240254598394,1.0,-0.001440000000000001,-0.00189257142857143,-0.0007200000000000005,0.07300000000000005
0.4650502849515371,0.5469373751426099,-0.12399814055415136,-1.356021660565606,0.07942252227127737,1.8942738635444565,0.15915315649402295,-0.00295635929593958,-0.011464106002385985,-0.0009268198222881235,-0.010012156317430614,4.694020341768994e-05,0.0038936934976525855,0.0009279045419162573,0.5738159607459777,0.8189683079267003,0.0026269194993658223,0.0,0.8189347293585852,-0.5737557163120623,-0.01144700619468779,0.0,-0.007867676692193737,0.008719918351979342,-0.999931028965199,0.0,0.6617033366429186,0.26085742308164833,0.3037375770720302,1.0,-0.0017800000000000014,-0.0023394285714285735,-0.0008900000000000007,0.09000000000000007
0.4650357827389397,0.5467454781874485,-0.12399634797566116,-1.3562410614430918,0.0794169283152551,1.8943977944380979,0.1591464468847822,0.001420709983824855,-0.009799694687435058,0.0003275513792005421,-0.014765596865967377,-0.00048140185024604795,0.004725897581334075,-0.00010619194759485764,0.5738320400433743,0.8189567608721784,0.0027130319970956303,0.0,0.8189242765844496,-0.5737715012350477,-0.011403529818608968,0.0,-0.00778248723788072,0.008765647310953542,-0.9999312957996727,0.0,0.6616864901381592,0.26083285776095844,0.30377976524439904,1.0,-0.0021200000000000017,-0.002786285714285717,-0.0010600000000000008,0.10700000000000008
0.46501090659048855,0.5465544886761861,-0.12399777479422623,-1.3564661269538,0.07941479068549238,1.8945049258327598,0.15913937174854198,-0.003247426855852252,-0.014429130269567192,-0.0006202392456930928,-0.014396979307642065,0.0002537530418525135,0.009236612587641434,-0.0014245495355986178,0.5738622265768405,0.8189353450358211,0.002791497902476161,0.0,0.8189038024157289,-0.5738013621478927,-0.011371283458418351,0.0,-0.007710729099075331,0.008811687943556093,-0.99993144705642,0.0,0.6616683160372921,0.26079657647616844,0.3038214614388469,1.0,-0.002460000000000002,-0.0032331428571428606,-0.001230000000000001,0.1240000000000001
0.4649814988283218,0.546313979494471,-0.12399037269857019,-1.3567939584828446,0.07940254912693644,1.8946509770179818,0.15913795256526453,-0.0013343686438645466,-0.018764496292853334,0.0008118813802254708,-0.02071763984971755,-0.0002227371769794552,0.0042040299485018575,0.0015046654047052915,0.5738926070819647,0.818913901018184,0.002836398606364806,0.0,0.8188828912305223,-0.573831550300051,-0.011353820123155237,0.0,-0.007670333796647,0.008838721895065293,-0.999931519142541,0.0,0.6616351459488802,0.2607553028282048,0.3038439586864668,1.0,-0.002800000000000002,-0.0036800000000000036,-0.001400000000000001,0.1410000000000001
0.4649561870820467,0.5460652111677803,-0.12399313037751074,-1.3571809991648047,0.07939135889352229,1.8947772137209906,0.15912283265858426,-0.005669784327551005,-0.015086007909691918,-0.0007131981911226785,-0.026276528243039495,3.478827732050511e-05,0.013130401260173294,-2.9596370084797764e-05,0.5739214584056453,0.8188936954803943,0.002832310930758133,0.0,0.8188625263615315,-0.5738602875739596,-0.011370143690866145,0.0,-0.007685736194171011,0.008845013027455204,-0.9999313452451112,0.0,0.6615859564134657,0.2607010398734449,0.30384691503726685,1.0,-0.003120000000000002,-0.004100571428571432,-0.001560000000000001,0.1570000000000001
0.4649147681372127,0.5458020706111942,-0.1239932735739158,-1.357600057080516,0.07936354591708804,1.8949320274613874,0.15910978357336883,-0.0023282900659102857,-0.016192074842578702,0.0005400274887558468,-0.025058097326032615,-0.00015782015020322437,0.014285694205053085,-0.0034091332917314037,0.5739608622243858,0.8188660889592912,0.0028291144130092568,0.0,0.8188349003888088,-0.5738997212213893,-0.011369379423223948,0.0,-0.007686519278575332,0.008842326677463819,-0.9999313629846345,0.0,0.661540005051012,0.2606332739129304,0.3038471608490315,1.0,-0.0034400000000000025,-0.004521142857142862,-0.0017200000000000013,0.17300000000000013
0.46485794390696517,0.5454729977743641,-0.12399607028191964,-1.3581455626339978,0.0793215132000218,1.8951087273894462,0.15906836658017517,-0.008397159286902683,-0.013987338708725627,0.0015169941560939674,-0.034979716778987514,-0.00010873169957091758,0.015083424458655324,-0.001973131306941325,0.573994669914748,0.8188425276078567,0.0027894070058732366,0.0,0.8188108813997304,-0.573933707963571,-0.011383596347004936,0.0,-0.007720586745368019,0.0088182902161162,-0.9999313127900196,0.0,0.6614765193939406,0.26053882002566914,0.3038358347113447,1.0,-0.003800000000000003,-0.004994285714285719,-0.0019000000000000015,0.19100000000000014
0.46480941570569095,0.5451499048302489,-0.12399378623821211,-1.358695591042952,0.07926925883785695,1.8952867873985413,0.15896020577102848,-0.0046823251942082625,-0.014032903289341113,8.476933184472222e-05,-0.03255437703151322,-0.0006887468907005518,0.015175156227124079,-0.003666675035164163,0.5739610140631044,0.8188662916208976,0.002738189894883219,0.0,0.8188340907318177,-0.5739003345873809,-0.0113966976400257,0.0,-0.0077610728610778,0.008783552477871076,-0.9999313051174634,0.0,0.6614093017436362,0.2604506220910826,0.3038180298317719,1.0,-0.004120000000000003,-0.0054148571428571475,-0.0020600000000000015,0.20700000000000016
0.46474216272428664,0.5447619742860689,-0.12399366286336382,-1.3593295934492868,0.07924941485838712,1.8955027090447467,0.15896164508993374,0.0001564002241923124,-0.02350652473220162,0.0006431904485368549,-0.03502948640840558,-0.003940092932049326,0.01622502913589278,0.0015709518638604269,0.5740472219166525,0.8188059149011387,0.0027216968771390125,0.0,0.8187733285933553,-0.5739863884252104,-0.011428437686277049,0.0,-0.00779560550426861,0.008789084933292654,-0.9999309878790923,0.0,0.661335549535437,0.2603474960030398,0.30380954614728595,1.0,-0.004460000000000004,-0.005861714285714292,-0.002230000000000002,0.22400000000000017
0.4646715545006395,0.5443636561187608,-0.1240049486527708,-1.3600476054900392,0.07922305646552905,1.8957349531304504,0.1589355843029865,-0.001911801277373206,-0.02329987134847034,0.0005286562983671908,-0.04372431962922377,-0.00036486416921155,0.011460993568674634,0.0003821073571578078,0.5741245806509423,0.8187519025522852,0.0026523311635800843,0.0,0.8187182871147904,-0.5740638105535713,-0.01148279834123218,0.0,-0.007879107351125625,0.008764237548198023,-0.9999305514922265,0.0,0.6612498060008468,0.2602257665612278,0.3037701697912774,1.0,-0.004800000000000004,-0.006308571428571435,-0.002400000000000002,0.2410000000000002
0.4645935017921383,0.5439123912729822,-0.12400061660410809,-1.3607948741002907,0.07918210722077085,1.8959848758247762,0.1588637245849601,-0.0036501103556872824,-0.023341938853040273,0.0013993953787035502,-0.03981615246009637,-0.0015894853252288834,0.013097468777866978,-0.004932183914289001,0.5741572860410413,0.8187290844231119,0.0026161244021013635,0.0,0.8186949079609525,-0.5740965276754464,-0.011513969385549345,0.0,-0.007925066259976632,0.008752805659191482,-0.9999302884290822,0.0,0.6611613237526853,0.2601042268591188,0.30375529633047016,1.0,-0.005140000000000004,-0.006755428571428578,-0.002570000000000002,0.2580000000000002
0.46455150123660666,0.5435326017345211,-0.12401687654872295,-1.3614035790082861,0.07914773321225343,1.8961990913460698,0.1588287185980112,-0.00020765751901472018,-0.03423734341740828,-0.0011633007991622428,-0.04729329959615902,-0.006275618681389044,0.017494817992614264,0.0004514918883674134,0.57419911474659,0.8186997996647457,0.0026002988955382547,0.0,0.8186654589371783,-0.5741384482329698,-0.011517617159167083,0.0,-0.007936692093916065,0.008742348782778256,-0.9999302876982809,0.0,0.6610905988836372,0.2600087494727191,0.30375335682083116,1.0,-0.005400000000000004,-0.0070971428571428635,-0.002700000000000002,0.2710000000000002
0.46447763678898174,0.5430610970433792,-0.12401763431459416,-1.3621793687318768,0.07910439706132305,1.8964775020903353,0.15877012821708755,-0.0004850858760439629,-0.027432058554673983,-0.000868578120094621,-0.04947122750701348,0.00042126202064558327,0.009155991317466467,-0.012737894151672504,0.5742438079432316,0.8186685200543956,0.0025788004984582105,0.0,0.8186338606372411,-0.5741831630045103,-0.011534489217581281,0.0,-0.00796237269072636,0.008734870592176494,-0.999930148888847,0.0,0.6610017970081709,0.2598854701178736,0.3037417843509166,1.0,-0.005720000000000004,-0.007517714285714292,-0.002860000000000002,0.2870000000000002
0.4644006883301365,0.5425219889185252,-0.12402081989230941,-1.3630583261849791,0.0790509568148027,1.8967771610069977,0.15869698711691427,-0.0013693854154204748,-0.0308626774778849,0.001246973454073835,-0.05079776297239798,0.00017874749459872617,0.016342163778268488,1.2249478725399096e-05,0.5742837016683708,0.8186406473766178,0.002543100877714574,0.0,0.8186055065329738,-0.5742231509831194,-0.011556143392988195,0.0,-0.008000175337309845,0.008718469044447535,-0.9999299902953672,0.0,0.6608970606723178,0.25974720103622584,0.3037307764174899,1.0,-0.006060000000000005,-0.007964571428571435,-0.0030300000000000023,0.3040000000000002
0.46432846896928265,0.541947843806121,-0.12402439382303652,-1.3639631318065204,0.07900036695634155,1.8971084421666369,0.15865524848472173,-0.0037563987394874133,-0.03600543264679108,0.0003462882626652201,-0.05271472967908892,-0.0037569014782944197,0.019385090836324427,-0.0036277586369196204,0.5743479424910427,0.8185955762432582,0.0025437005489154013,0.0,0.8185604199103069,-0.5742873564890314,-0.011559326723941332,0.0,-0.008001752715167954,0.008721416024208062,-0.9999299519746461,0.0,0.6607921614170705,0.25961183836554685,0.30373494478147633,1.0,-0.006400000000000005,-0.008411428571428578,-0.0032000000000000023,0.32100000000000023
0.464247349453067,0.5413505980520744,-0.1240251193085292,-1.3649117820319365,0.07894249989684758,1.8974466768520233,0.15856178340640145,-0.0036086448586963938,-0.03556705685875014,0.0006544990075090471,-0.05117934541038522,-0.004813629278747283,0.019953828445215604,-0.009601093001363966,0.5743755148095392,0.8185762680165964,0.0025314676586121595,0.0,0.8185409391301987,-0.5743149516300046,-0.011567808923311822,0.0,-0.008015428453500784,0.00871654394068537,-0.9999298849261568,0.0,0.6606810642008603,0.25946664673539444,0.3037349989235282,1.0,-0.006740000000000005,-0.008858285714285721,-0.0033700000000000023,0.33800000000000024
0.4641661802116991,0.5406870904855757,-0.12403787992463344,-1.3659220169459751,0.0788793928517936,1.897811262692054,0.15850196219902768,-0.005199125124746269,-0.041966584461723924,-0.004846707189737714,-0.06280264595398362,-0.0009310094955751484,0.026396036774518437,-0.0004777064785516566,0.5744410149385986,0.8185302715892896,0.002541997144979738,0.0,0.818495143698861,-0.574380478255177,-0.011554775720171138,0.0,-0.007998014159084854,0.008718317265168876,-0.999930008907411,0.0,0.66056565271938,0.25930895283449595,0.3037551717125061,1.0,-0.0070800000000000056,-0.009305142857142866,-0.0035400000000000028,0.35500000000000026
0.46407226444734634,0.5399888685599361,-0.1240315603557262,-1.3669757261368765,0.0788248852495073,1.898216062269543,0.1584361504374521,-0.012869775482859357,-0.039218245104569456,0.0004932067717355876,-0.06615719933405781,-0.0048327530913921425,0.022071870336937457,-0.005863652752816376,0.5745034392385917,0.818486310482861,0.0025893544353941733,0.0,0.818451706994586,-0.5744426382379892,-0.011541472741165959,0.0,-0.007959255088578865,0.008750045806837053,-0.999930041031278,0.0,0.6604474125060685,0.25915332246898676,0.3037819701027449,1.0,-0.007420000000000006,-0.009752000000000009,-0.003710000000000003,0.3720000000000003
0.4639120545471941,0.5387507731521521,-0.12404037664130747,-1.3689149453662581,0.07871524027837555,1.898943938177267,0.15826166760042068,-0.006238001989470081,-0.04094243476395032,-8.056703815261154e-05,-0.07117301298051228,-0.0011753685551993596,0.023381315553905217,-0.011603690853356264,0.5745574481622036,0.8184483537119187,0.0026034532442325417,0.0,0.8184139571025277,-0.5744966202589878,-0.011531480043354348,0.0,-0.007942398683317808,0.008756368806220466,-0.9999301197126149,0.0,0.6602554928524405,0.2589032805151427,0.3037959922139082,1.0,-0.007920000000000007,-0.010409142857142869,-0.0039600000000000034,0.3970000000000003
0.4638445513032279,0.5382540345676748,-0.12404036789052153,-1.3696755065147965,0.0786757738613225,1.899236210692422,0.15821903912692084,-0.0025447822958306943,-0.04840890684308841,0.00018791336316814527,-0.07225814415179939,-0.0072904479985864655,0.0222355515529279,-0.0024933402961296487,0.574620778644212,0.8184037658205155,0.002642677113591209,0.0,0.8183697843392096,-0.5745597106110657,-0.01152310393654036,0.0,-0.007912328194818685,0.008784271180381692,-0.9999301133791135,0.0,0.6601491281528632,0.2587572077759884,0.3038122809468095,1.0,-0.008200000000000006,-0.010777142857142867,-0.004100000000000003,0.4110000000000003
0.46376232422281416,0.537671762469454,-0.12404814226121072,-1.3706132173389411,0.07861116284990152,1.8995933117588697,0.1581705739762682,-0.006962380379505017,-0.05040863087776359,-0.0013526457737293557,-0.07303430640928796,-0.000503941528345979,0.027751737414603808,-0.006965978748154037,0.5746954024941503,0.8183514014373121,0.0026315430610652103,0.0,0.8183173936607026,-0.5746344925382787,-0.011514778280021471,0.0,-0.007911111844625673,0.008771096468091447,-0.9999302386547418,0.0,0.6600378003385899,0.2585965849266649,0.3038072882552266,1.0,-0.008480000000000007,-0.011145142857142867,-0.004240000000000003,0.4250000000000003
0.46366036935995425,0.5368613751829913,-0.12404926624870614,-1.3718869627832482,0.07854162685423047,1.9000720746442827,0.15804981395900977,-0.001028810625980228,-0.05188357893542699,0.0004524485189317006,-0.07899047260220121,0.00035643872602629685,0.031141888932154953,-0.001530565656245025,0.5747324163697721,0.8183253569137547,0.002647018501477306,0.0,0.8182914925950219,-0.5746713879246923,-0.01151416295382672,0.0,-0.007901317837499977,0.008783764532114963,-0.9999302048928592,0.0,0.6598900251452664,0.25840932065810934,0.3038147176669147,1.0,-0.008820000000000007,-0.01159200000000001,-0.004410000000000003,0.44200000000000034
0.4635476033157998,0.5360748625143046,-0.12404996969791847,-1.3731281886168045,0.07847007824982731,1.900537917470286,0.15798267315641357,-0.007355224406655601,-0.04610202806387867,0.0007477058579581997,-0.07991578951610703,-0.0135096598981908,0.03435148014233163,-0.005025308168777583,0.5748194126296448,0.8182642204781362,0.002656172175616333,0.0,0.818230452811267,-0.5747583191109965,-0.011512932127778448,0.0,-0.007894115364210696,0.008791387106778265,-0.999930194791294,0.0,0.6597491144211987,0.25821752739332093,0.3038194886855314,1.0,-0.009140000000000007,-0.01201257142857144,-0.004570000000000004,0.45800000000000035
0.46342876924896603,0.5351988917824534,-0.12405393115125979,-1.3745061707846484,0.07837864208731442,1.9010288843511072,0.1578864169171551,-0.00765964979077021,-0.05143240669727289,0.0005904109225329385,-0.08143221470579545,-0.003160133414481265,0.02603194195962011,-0.0037324631965675943,0.5748917146874021,0.8182134753302747,0.0026404683185162516,0.0,0.8181795589012976,-0.5748307242279708,-0.011514980713528966,0.0,-0.007904042249450127,0.008780413261293474,-0.9999302127944129,0.0,0.6595869525878792,0.258003298336211,0.3038244011467186,1.0,-0.009480000000000008,-0.012459428571428583,-0.004740000000000004,0.47500000000000037
0.4633170896434065,0.5343574258075041,-0.12406265874623719,-1.375847998902614,0.07832644531706934,1.9015239284830288,0.15776341000375083,-0.008555849188646455,-0.05090786702927086,0.0004113605866767573,-0.08208370531828238,-0.005785999429807966,0.0363548976789067,-0.003838318060967529,0.5749518057992349,0.8181712198674312,0.0026500735926975267,0.0,0.818137246697344,-0.5748905749878673,-0.011533397496687615,0.0,-0.00791294391630587,0.008799441046903611,-0.9999299751261783,0.0,0.6594211216457743,0.2577847603411434,0.3038254433342825,1.0,-0.009820000000000008,-0.012906285714285726,-0.004910000000000004,0.4920000000000004
0.4631889501512435,0.5334382700015672,-0.12407162852312388,-1.377318908732241,0.07823132949983583,1.9020582295182265,0.15767772552347822,-0.007517687187995208,-0.04944440127932326,-0.0013767401553981726,-0.089299131874927,-0.005001257035394927,0.036349923574713824,-0.010680424729910482,0.575044250868104,0.8181063263230943,0.002625885542076804,0.0,0.8180720775043966,-0.57498313029377,-0.011542217569704288,0.0,-0.007933074061054868,0.008785618646806548,-0.999929937166067,0.0,0.6592589368893664,0.2575701201165781,0.30381732671691586,1.0,-0.010140000000000007,-0.013326857142857154,-0.005070000000000003,0.5080000000000003
0.4630496957097985,0.5324606626890068,-0.1240694633891909,-1.3788951284099449,0.07814645691103117,1.9026531224341945,0.1575499219466742,-0.001722389569104285,-0.05680362965076064,-0.00017715833778740437,-0.08628283227728127,-0.006277277522059388,0.02869900211711515,-0.005487777032248262,0.5751155972909394,0.818056171496409,0.002626200779132318,0.0,0.8180218304109568,-0.5750543600771971,-0.01155486168335732,0.0,-0.007942470619551056,0.008793840055682137,-0.9999297903040657,0.0,0.6590765085910943,0.257331946359316,0.30380787759496664,1.0,-0.010500000000000008,-0.013800000000000012,-0.005250000000000004,0.5260000000000004
0.462928176518735,0.5315445299294922,-0.12406704259434945,-1.380356423561157,0.07805968644644072,1.9032033864398363,0.1574344689270102,-0.004987915455360245,-0.052848548914746774,0.00036775889045876953,-0.09304188988844647,-0.004984758157344779,0.030420092199424577,-0.004218884110036728,0.5751753464102413,0.8180141516450419,0.0026297322125377514,0.0,0.8179798313460994,-0.5751140623044428,-0.01155671890705115,0.0,-0.007941316531977938,0.008798377108449648,-0.9999297595591385,0.0,0.6589054006963915,0.2571151397768337,0.30380569659295403,1.0,-0.010820000000000008,-0.014220571428571442,-0.005410000000000004,0.5420000000000004
0.4627912897407408,0.5305345907934782,-0.12407233230790826,-1.3819718709855024,0.07795161543782915,1.903776631116142,0.15733017902450996,-0.005639974847446578,-0.06055686946953375,-0.0006008212123023723,-0.09725711875475448,-0.002558485406249126,0.03301301491540094,-0.006449405015274961,0.575264486829365,0.8179515809215959,0.0025939086371109385,0.0,0.8179168627133346,-0.5752033848073458,-0.01156800313611851,0.0,-0.007970194876296077,0.008776431975882376,-0.9999297226482503,0.0,0.6587118730985158,0.25686482373895375,0.30379825615049416,1.0,-0.011160000000000008,-0.014667428571428585,-0.005580000000000004,0.5590000000000004
0.46265658403205,0.5295713007212287,-0.12407578793631746,-1.383525603882871,0.07785576907568324,1.9043386907211197,0.1572019701211844,-0.007938573360027843,-0.061884115988137006,-0.0005056407079869851,-0.0979901333601939,-0.006607947392805439,0.03427715207590503,-0.012367284406160467,0.5753312892343001,0.8179046826770326,0.00256604446357085,0.0,0.8178696053693242,-0.5752702753274219,-0.011582997839359753,0.0,-0.007997773049103984,0.008762919566253885,-0.9999296209568603,0.0,0.6585147450906477,0.25661224388040194,0.3037875960273495,1.0,-0.011500000000000008,-0.015114285714285728,-0.005750000000000004,0.5760000000000004
0.46250645873652113,0.5284320032181868,-0.12407619116536478,-1.3852860677907468,0.07774335538139297,1.9049922925256568,0.1570789869837991,-0.006153754296009433,-0.06643902590766092,0.00030129180794266354,-0.1045170629003903,-0.0045007209733981726,0.03505985900452921,-0.005257270121884502,0.5754184746537144,0.8178432751614031,0.0025890542038251984,0.0,0.8178085346151401,-0.575357414429009,-0.011566904227621334,0.0,-0.007970436760072919,0.008773329925380699,-0.9999297479422612,0.0,0.6583208100549625,0.25635804232787374,0.3038070746845993,1.0,-0.011840000000000009,-0.01556114285714287,-0.005920000000000004,0.5930000000000004
0.4623740280611433,0.5273302598114079,-0.12408086612787766,-1.3870203644780956,0.07764457451309578,1.905655999353408,0.15695595414201588,-0.00782462987764275,-0.06308355465915255,0.00041237698364581806,-0.10270401859941694,-0.005587506714982847,0.037694709799316634,-0.01029550940253545,0.5754968530733076,0.8177880413220313,0.002615047724980525,0.0,0.8177536200160833,-0.5754356765986857,-0.011556208254114228,0.0,-0.007945890139287315,0.008789195446568476,-0.9999298039729071,0.0,0.6581167371290328,0.2561058011455074,0.3038148333411116,1.0,-0.012180000000000009,-0.016008000000000015,-0.006090000000000004,0.6100000000000004
0.46223197135829347,0.5262526221218972,-0.12409037076546431,-1.3886826858396377,0.077539280339568,1.90628780341382,0.15684525568588156,-0.007105007115534588,-0.06773848148576486,-0.0013362052007149191,-0.10101721266657508,-0.008146183392708641,0.031538112400535834,-0.006736219340962635,0.575590621757526,0.8177219388379607,0.0026483559200784707,0.0,0.8176880409694576,-0.5755294254447657,-0.011528009540111354,0.0,-0.007902651701560348,0.008801112591588417,-0.9999300418095428,0.0,0.6579259378465395,0.255849461391366,0.30383697472647225,1.0,-0.01250000000000001,-0.016428571428571445,-0.006250000000000005,0.6260000000000004
0.4620807292154643,0.5250827905685619,-0.12409676033743001,-1.390515300123489,0.07742591638897581,1.9069550771203965,0.1566986196445026,-0.008203308912960809,-0.06870068379831208,0.0009296872875704104,-0.11035905431138998,-0.008568552287326494,0.03330795009553014,-0.009422407565713123,0.5756669704444555,0.8176681925313635,0.002648199955441033,0.0,0.8176343093895926,-0.5756057837676564,-0.011526695252090477,0.0,-0.007900844977460353,0.0088009663225741,-0.99993005737423,0.0,0.6577062594896431,0.25557103973171247,0.30384561641330077,1.0,-0.01284000000000001,-0.016875428571428586,-0.006420000000000005,0.6430000000000005
0.4619315887183318,0.5239216591311849,-0.12409781971965808,-1.3923742003656858,0.07730816035772971,1.9076199922351706,0.15657304008477438,-0.005331747127782598,-0.0702130152102478,0.0005135031085013236,-0.11183531358863803,-0.006038570319424745,0.043562576625619145,-0.009935401870266317,0.5757549966263145,0.8176063171286534,0.002615521431907123,0.0,0.8175720088046299,-0.5756939046181013,-0.011544934210941663,0.0,-0.007933624142803186,0.008785599818848883,-0.9999299329671975,0.0,0.6574776113603765,0.255293052063512,0.3038349532139748,1.0,-0.01318000000000001,-0.01732228571428573,-0.006590000000000005,0.6600000000000005
0.4617741242822275,0.5226417703742804,-0.12410670862541408,-1.394411743656064,0.07717892325266765,1.9083845242352393,0.15642046832321121,-0.008142647518660772,-0.07360720599142917,4.890417411344241e-05,-0.11913504444513806,-0.0016531404275401697,0.04398275419254329,-0.0063993766469113995,0.575839706153994,0.8175466659178264,0.002613190451457338,0.0,0.8175124058066464,-0.5757786981409839,-0.011537071574319917,0.0,-0.00792762763530408,0.008779988560022947,-0.9999300298125673,0.0,0.6572338630340572,0.2549903042862753,0.303831309771447,1.0,-0.01354000000000001,-0.017795428571428587,-0.006770000000000005,0.6780000000000005
0.46161525690625516,0.5215056533727591,-0.12410964209502792,-1.3962450582405124,0.07706863335519326,1.9091078718828223,0.1562779970528853,-0.008427967363254452,-0.06543428184617306,-0.0012425676626421102,-0.11971377383826388,-0.0061530037367288045,0.04055346907622757,-0.007475578683347259,0.5759237988980855,0.817487372366817,0.0026307384519816523,0.0,0.8174533809025896,-0.5758627685411368,-0.01152340055153406,0.0,-0.007905442313599964,0.008787275845996617,-0.9999301414424073,0.0,0.6570235153046472,0.2547127289908338,0.3038197837791588,1.0,-0.013860000000000011,-0.018216000000000017,-0.006930000000000006,0.6940000000000005
0.46147349247197716,0.5203951619357429,-0.12410676960060761,-1.3980347550424046,0.07696145800733178,1.9097754781761995,0.15615189501579044,-0.011605664472361174,-0.07564562454093973,-0.003965009855679404,-0.11687256965701967,-0.002855616964660074,0.04414268838540875,-0.014515799361730457,0.5760134674458467,0.8174242219725228,0.0026217465240477543,0.0,0.8173900946857594,-0.575952433948684,-0.011531428333051198,0.0,-0.007916219953419401,0.008785416804755225,-0.9999300725116811,0.0,0.6567926904643713,0.2544286601140099,0.30380872122748553,1.0,-0.01418000000000001,-0.018636571428571447,-0.007090000000000005,0.7100000000000005
0.46130159511778196,0.5190745834683931,-0.12411905537767562,-1.4000910910915083,0.07682819457689395,1.9105183417765585,0.15600160025597773,-0.013797050080967786,-0.07722934864376423,-0.0004603454481954853,-0.12573401328869627,-0.006736938941344948,0.04111612646041973,-0.010500258135727965,0.57610076462667,0.8173627143806819,0.002617066681998243,0.0,0.8173285870536415,-0.576039802860639,-0.01152706408337911,0.0,-0.007914410189380605,0.008779922886480843,-0.999930135092178,0.0,0.6565564349746689,0.2541335266970897,0.30381885527196023,1.0,-0.014500000000000011,-0.019057142857142877,-0.007250000000000006,0.7260000000000005
0.4611255345886416,0.517722459597679,-0.12411710127456585,-1.402183563875482,0.07669550055061862,1.9112685758657275,0.15584575946632745,-0.0118655099733449,-0.08223638612951605,-0.0005065252140316833,-0.12319561052738055,-0.004537914160574739,0.05410523553637306,-0.006338247480499418,0.5761910057810384,0.8172990835504332,0.0026229345904436032,0.0,0.8172650443104166,-0.5761300269402694,-0.01152329411694816,0.0,-0.007906978578848589,0.008783420289495913,-0.9999301631702946,0.0,0.6562821811470689,0.2538007110451041,0.303838752378615,1.0,-0.014860000000000012,-0.019530285714285733,-0.007430000000000006,0.7440000000000005
0.4609494226960725,0.5163974671541761,-0.124127972961093,-1.4042991508342466,0.07654333596959963,1.91205092105121,0.15568045692361981,-0.007232050270245744,-0.07793941371284234,-0.0012717682991984012,-0.12023355767914162,-0.01187778236188244,0.052644210447742285,-0.009010036729086854,0.5762780276367307,0.8172378083145481,0.002597388219320946,0.0,0.8172036278867991,-0.5762173319444116,-0.011513636989500762,0.0,-0.007912871696568291,0.00875781970626234,-0.999930341101572,0.0,0.6560439204294837,0.2534909414308488,0.3038273546226728,1.0,-0.015180000000000011,-0.019950857142857163,-0.007590000000000006,0.7600000000000006
0.4606782432305873,0.5143628249907041,-0.12413081236246286,-1.4075226251700583,0.07635368470635517,1.9132609940072678,0.1554333673661537,-0.014272806849812077,-0.07837650882524388,-0.001138761057170852,-0.12515531915277714,-0.007623397417904162,0.04642393487040023,-0.012565101236462125,0.576408544633947,0.8171457286249462,0.002606676847932531,0.0,0.817111642586959,-0.576347773678654,-0.011513219606578712,0.0,-0.007905778036956579,0.008766432939386101,-0.9999303217360446,0.0,0.6557026617454587,0.25306369050161653,0.3038190419179053,1.0,-0.015620000000000012,-0.020529142857142878,-0.007810000000000006,0.7820000000000006
0.4605567046430297,0.5134617507882675,-0.12413305894644616,-1.4089857704684516,0.07627176662359739,1.913770150814225,0.15530555059447243,-0.012673646020595484,-0.07740936435702794,-0.0015110273303657045,-0.13418602410555266,-0.003021856329420441,0.042042627469111415,-0.01209069048974969,0.5764975981524122,0.8170830821721835,0.002550108568871021,0.0,0.8170481515005067,-0.5764368800825166,-0.011558040990911192,0.0,-0.007974056654714956,0.008746912768104714,-0.9999299505152821,0.0,0.6554343917939047,0.2527410661115486,0.30378973799804904,1.0,-0.015940000000000013,-0.020949714285714308,-0.007970000000000007,0.7980000000000006
0.46038185035872986,0.5122304194924878,-0.124138752454425,-1.4110049968333065,0.07614489575869736,1.9144755004080882,0.1551596291001609,-0.010593702775682985,-0.08146581597160744,-0.00012709072852791113,-0.13513868286766254,-0.0036226293980575956,0.05474741248704661,-0.011556466936651673,0.5765686840467583,0.8170330880119353,0.0024965118622785774,0.0,0.8169974005813716,-0.5765080712289649,-0.011594746756553889,0.0,-0.008034187191700737,0.008724979564177435,-0.9999296608100857,0.0,0.6552125342996172,0.25247164912344133,0.30376669175619925,1.0,-0.016200000000000013,-0.021291428571428593,-0.008100000000000007,0.8110000000000006
0.46021406700677914,0.5109508698140933,-0.12413730311798522,-1.413049404323213,0.07602965013875555,1.9152333390652545,0.15500685817678084,-0.008986066709101683,-0.08954850534645155,-0.0001189499866650971,-0.13536502285023125,-0.010590218909969248,0.04530218630765187,-0.006554975193089164,0.5766557413225603,0.8169716553169042,0.00249345336715724,0.0,0.8169358153934484,-0.576595005719081,-0.011611193240274915,0.0,-0.008048457960971811,0.008732820739114772,-0.9999294775964898,0.0,0.6549587602667559,0.2521695777905226,0.3037552968094164,1.0,-0.01650000000000001,-0.021685714285714305,-0.008250000000000006,0.8260000000000006
0.4600231492552198,0.50956429362573,-0.12413694050980924,-1.4152517133701414,0.07588956752556532,1.9160740743008629,0.15483435065973294,-0.01749081126751717,-0.08644812083904056,0.0005267669381272897,-0.14076278774780981,-0.01155112636960028,0.054695121011124205,-0.007873045085323944,0.5767475321197391,0.8169068125262798,0.0025081353935351583,0.0,0.8168712128677036,-0.5766867887868793,-0.011598108808441563,0.0,-0.008028320122136945,0.008738172470376199,-0.9999295927303553,0.0,0.6546933632236204,0.2518360605281432,0.3037504642571173,1.0,-0.016820000000000012,-0.022106285714285735,-0.008410000000000006,0.8420000000000006
0.45981394530889225,0.5080692327941154,-0.12414796547367599,-1.4176274205235897,0.07573364282740448,1.9169272834044655,0.15463933603721047,-0.013668732423466513,-0.09145108773230301,-0.0023988106211026597,-0.14475596607906477,-0.008244808328887248,0.05520009124016224,-0.004109493123456766,0.5768479451512806,0.8168360117957,0.0024748554803480215,0.0,0.8168000529367395,-0.5767873823391824,-0.011607583644397753,0.0,-0.008054181984458564,0.008717440698548476,-0.9999295657096194,0.0,0.654399018725823,0.2514632126057599,0.3037399646927723,1.0,-0.017160000000000012,-0.022553142857142876,-0.008580000000000006,0.8590000000000007
0.4595970010951845,0.5065416505711622,-0.12415360733895438,-1.4200248913236915,0.07558389564971425,1.9177891678047103,0.15444922264200978,-0.012308030413996831,-0.08590110750291541,-0.0007593838945622029,-0.14248824387504808,-0.009869653860940337,0.05112860137813791,-0.010105703808458317,0.5769572665181372,0.8167588311694142,0.0024639845575918666,0.0,0.8167227176805131,-0.5768967129911541,-0.011616017638043024,0.0,-0.008066175695633171,0.008714505729710748,-0.9999294946142624,0.0,0.6541014595904996,0.251087944974864,0.30374190349995406,1.0,-0.017500000000000012,-0.02300000000000002,-0.008750000000000006,0.8760000000000007
0.4593779593335819,0.5049383407724558,-0.12415750438650805,-1.4224777965915076,0.07543010527469739,1.9187353266539522,0.15425856062474408,-0.01591617515643437,-0.08782543172834549,-0.00037462717765394135,-0.14669334892935143,-0.005045280549936463,0.06200482967915442,-0.013860352034849954,0.5770682556019433,0.8166801829314103,0.002540489097908374,0.0,0.8166451310947334,-0.5770075027215265,-0.011567997386831369,0.0,-0.007981626622998172,0.008750370596982318,-0.9999298598656141,0.0,0.6538087926603517,0.25071180013959354,0.3037770446402994,1.0,-0.017840000000000016,-0.02344685714285717,-0.008920000000000008,0.8930000000000007
0.4591486632604888,0.5032872841829753,-0.12416642024555177,-1.424952105120804,0.07527568839709803,1.9196867927706258,0.15406976873124267,-0.01813424873155321,-0.09815089644361631,-0.0008674633741229881,-0.14351947341609478,-0.0028639864215980497,0.05393454262726208,-0.00839766982950717,0.5771931174353093,0.816591611579746,0.0026442360164675334,0.0,0.8165579880057208,-0.5771321002473211,-0.011503824988836269,0.0,-0.00786800498470891,0.008799270062371467,-0.9999303312450973,0.0,0.6535159789895933,0.2503244477289184,0.3038353173537139,1.0,-0.018180000000000016,-0.02389371428571431,-0.009090000000000008,0.9100000000000007
0.45892345087180364,0.5015981267478912,-0.12416749336972314,-1.4274568617574241,0.0751185164254493,1.9206152563963603,0.15387736709066707,-0.0165343579082765,-0.1015011669926203,0.001414130640642995,-0.14862954364926972,-0.004398261853537657,0.056908579036986394,-0.005085764891406135,0.5773061615028343,0.816511386576316,0.0027383176027005957,0.0,0.8164789930811451,-0.5772448457353164,-0.011453769266849899,0.0,-0.007771602930894683,0.008848280725996568,-0.999930652653512,0.0,0.6532085120171318,0.2499393837353393,0.3039027766810553,1.0,-0.018520000000000016,-0.024340571428571454,-0.009260000000000008,0.9270000000000007
0.4587069179490726,0.4999894276799486,-0.12417044247306624,-1.4298845783057137,0.07496034567238335,1.9214757378613567,0.15367812221752755,-0.015102546611130654,-0.09307639413663114,0.0009641313865732027,-0.14736201166866797,-0.008647917563036607,0.052366825666308854,-0.013796985787375796,0.5774029519377565,0.8164428391344242,0.002769191379144974,0.0,0.81641085639355,-0.5773415414216813,-0.011437001914655163,0.0,-0.007739038095524842,0.008864727245674456,-0.9999307595529884,0.0,0.6529011262379815,0.2495623853898699,0.303944310200973,1.0,-0.018840000000000016,-0.024761142857142884,-0.009420000000000008,0.9430000000000007
0.4584601654792414,0.4983106475570944,-0.12416809763414287,-1.4325133514576223,0.07479846223518927,1.922450312515987,0.15347467065221904,-0.015431284044448794,-0.09558653293719013,0.0005336406563476838,-0.153260263871536,-0.009596360189680676,0.06345027479323137,-0.008347889417554304,0.577526455631609,0.8163554169612159,0.0027880360254209603,0.0,0.8163236392066319,-0.5774649272944699,-0.011433316161201006,0.0,-0.007723805268498474,0.00887915322441904,-0.9999307493372688,0.0,0.6525753725347774,0.249153009475779,0.30394826393758856,1.0,-0.019180000000000016,-0.025208000000000026,-0.009590000000000008,0.9600000000000007
0.4582072658877167,0.49663100866551846,-0.12416292847981872,-1.4351648681796019,0.07463576844552167,1.9234188346993608,0.15326236070529894,-0.017994856349344845,-0.09655483140621629,0.0020158764250463672,-0.1538380111657385,-0.006166293592646938,0.05567070871969014,-0.014921306380956602,0.5776460826404617,0.8162707864797857,0.002784466018738367,0.0,0.8162388844577133,-0.5775844605044834,-0.01144645727641468,0.0,-0.007735293308566538,0.008884961705823216,-0.9999306089388986,0.0,0.6522426604109085,0.24873820501861582,0.3039407544399318,1.0,-0.019520000000000017,-0.02565485714285717,-0.009760000000000008,0.9770000000000008
0.4579460004358731,0.49496454608504714,-0.12417390427419768,-1.4378799896839505,0.07446336537474513,1.9243517737788256,0.15305192497201903,-0.018314719269953983,-0.09835556601066484,-0.001339340719166931,-0.15588068061967048,-0.00960083747166693,0.05549503276313721,-0.016484246153012323,0.5777853607434623,0.8161725578195258,0.002679491386099817,0.0,0.816139247451256,-0.5777239950563513,-0.0115091792511373,0.0,-0.007845620852020785,0.008836843505504177,-0.9999301757774417,0.0,0.6518920550399478,0.24829707212959162,0.30389064168336627,1.0,-0.019860000000000017,-0.02610171428571431,-0.009930000000000008,0.9940000000000008
0.45766739269265966,0.4932511761203123,-0.12417830001200449,-1.4406812050101907,0.07428528954405127,1.925357352254445,0.15283456977169588,-0.013739539163165004,-0.10425162481329696,0.002926815327229744,-0.16620456982339651,-0.012381709454803507,0.06640026473719761,-0.01033483638570845,0.5779309124382095,0.8160697491573163,0.0026022797432214,0.0,0.8160354131274754,-0.5778697518376241,-0.01155427774471887,0.0,-0.007925470381263566,0.008801296157127159,-0.9999298595927568,0.0,0.6515381364852346,0.24784298982326539,0.30383769808702055,1.0,-0.021631428571428517,-0.02842987755102034,-0.017401594088571115,1.0109999999999995
0.45742908772919055,0.491408242525115,-0.12424514527188021,-1.4435627386350496,0.07411195810610609,1.9264313680707117,0.15270160230344784,-0.011921515522386877,-0.11258317962699795,-0.0006738158033021676,-0.18751284676079183,-0.014060390948649547,0.06676182814319205,-0.005772227705741428,0.5781622545878397,0.8159058223796658,0.002615965992867379,0.0,0.8158718871512928,-0.5781012688308487,-0.011521008356885118,0.0,-0.007887916405206197,0.008795474618208038,-0.9999302077650345,0.0,0.6511841681605824,0.24737614777122433,0.30384372337412596,1.0,-0.02427371428571394,-0.031902595918366895,-0.029260144630284098,1.0269999999999977
0.4571101198106205,0.48926350876288405,-0.12427749198588588,-1.4470431506755344,0.07391785318722814,1.9276668265189276,0.1527031194146578,-0.020335237063904887,-0.13094453543214268,-0.0018386809280370835,-0.218981901649381,-0.0016540770116265015,0.07379806212723065,0.00040316737594513994,0.578567955727382,0.8156184599046914,0.002528906749081565,0.0,0.8155832541504142,-0.5785070506329479,-0.011588564130080773,0.0,-0.007989010256750084,0.008767474655471078,-0.9999296510771561,0.0,0.6507362578513324,0.24681785572232667,0.30378682942384655,1.0,-0.027081142857142238,-0.035592359183672664,-0.041859854580854304,1.043999999999996
0.4567419755803158,0.48683201303630136,-0.12433993098178175,-1.4508659356653073,0.07370088122054429,1.9291161967528312,0.15278204476561336,-0.021864062441017636,-0.14424050149274728,-0.00590019875049595,-0.22426063565011942,-0.013843231263286878,0.08741836435478761,0.005865439508596178,0.5791086817341914,0.8152345055626921,0.0025656541560146505,0.0,0.8151998997414508,-0.5790477220686258,-0.011558803133206938,0.0,-0.007937651786934397,0.008785493403623265,-0.999929901938013,0.0,0.6502729471378231,0.2461839554216212,0.30378444641892,1.0,-0.0298885714285705,-0.03928212244897838,-0.05445956453142435,1.0609999999999942
0.45634592250607164,0.4841149426337925,-0.12443059646552956,-1.4550053867379096,0.0734655496659485,1.9306769987059287,0.1531074796733066,-0.02162467767946329,-0.165773387904094,-0.002766923048957702,-0.2538196830819391,-0.021655791298879262,0.09596679282163202,0.025617502606777188,0.5799025246513855,0.8146696924671808,0.0026647663287670403,0.0,0.8146366140122278,-0.579841417119088,-0.011483248896929357,0.0,-0.007810063330942862,0.008830151253504587,-0.9999305132555996,0.0,0.649773362468361,0.24548642223679457,0.303838468208956,1.0,-0.03269599999999877,-0.0429718857142841,-0.06705927448199439,1.0779999999999923
0.45589410020421983,0.4811959832685017,-0.12450881929953701,-1.459587457394214,0.07318771566006303,1.9322593132833608,0.15362608852017148,-0.02416646415344722,-0.1866014819100579,-0.0017408455280743327,-0.27423744657065485,-0.018613010303964873,0.09398701596752684,0.03412807076274686,0.5808975070141116,0.81396081691677,0.00257328004358013,0.0,0.8139266791408293,-0.5808367084580359,-0.011525015905606473,0.0,-0.007886407688838748,0.008789483513029744,-0.9999302723456969,0.0,0.649184615482884,0.24470557566392742,0.30382166213413614,1.0,-0.03550342857142703,-0.04666164897958981,-0.07965898443256444,1.0949999999999904
0.4554003751865739,0.47802719461755944,-0.1245798992625603,-1.4645060194110462,0.07291357117631872,1.934055073018736,0.1542805880235752,-0.032207685845927314,-0.19619162519635713,-0.006907176523235926,-0.2924217672451411,-0.009608548229632863,0.10504947499219944,0.045118741661004186,0.5820480087458231,0.8131384271543888,0.002600134826719532,0.0,0.8131046493926795,-0.5819869926797568,-0.01152025992712702,0.0,-0.007854472612126684,0.008819695873948014,-0.9999302576803426,0.0,0.6485669251754431,0.24388036272254582,0.3038339895778552,1.0,-0.03831085714285529,-0.05035141224489553,-0.09225869438313448,1.1119999999999886
0.4548940547704692,0.4748143152873847,-0.12464163655585689,-1.4694050256888456,0.07263019852760287,1.93589850972447,0.15507690492820908,-0.028975961667729828,-0.2031870972269583,-0.00032753174696425764,-0.3065272361686413,-0.013400168255136222,0.11806515463333801,0.05610044349821157,0.5833110229472945,0.8122324910189407,0.0027162368371912073,0.0,0.8122003549034932,-0.5832496412490447,-0.011453662240034877,0.0,-0.0077189410652087065,0.008887347069867352,-0.9999307141051781,0.0,0.6479619797973692,0.24305748606284255,0.30388745792506194,1.0,-0.04095314285714072,-0.05382413061224209,-0.10411724492484747,1.1279999999999868
0.4543158223140033,0.4712219018181496,-0.12470691404157819,-1.4749811245929587,0.07230932079684713,1.9378716202519923,0.15607315451287346,-0.03893394101042341,-0.2169663425693558,-0.0011589206455958367,-0.3369302424077541,-0.017395964558504402,0.1246515063070559,0.05609251689953226,0.584815704967939,0.8111498573530979,0.0026920327096823238,0.0,0.8111173628054593,-0.5847541547269591,-0.011486913697103522,0.0,-0.007743580183099508,0.008901453384302399,-0.999930398124587,0.0,0.6472407478346384,0.24211452433467598,0.3038899375671801,1.0,-0.04376057142856898,-0.05751389387754781,-0.11671695487541751,1.144999999999985
0.4537146095743135,0.46734194626981296,-0.12473803034177144,-1.4807923142748372,0.07195642893076473,1.9401014233285903,0.15717431438409105,-0.033128619799527796,-0.2308069096758689,-0.0005519388557768981,-0.34773491633282305,-0.02519559357367053,0.134916795937509,0.0610837828858011,0.5863979180941572,0.8100059716168604,0.0029248078693085346,0.0,0.8099766691701493,-0.5863356940701587,-0.011357647665961715,0.0,-0.007484987290076184,0.00902930092373476,-0.9999312209797713,0.0,0.6465140691888951,0.24116528409534527,0.30399672101062,1.0,-0.04656799999999724,-0.06120365714285353,-0.12931666482598755,1.161999999999983
0.45310149012051365,0.4635371885810708,-0.1247587047823049,-1.4866591928670834,0.07158835846121506,1.9421846208201907,0.15839361465156032,-0.03858480560107135,-0.24369835546405785,-0.003314864953554315,-0.3778295800509888,-0.021420959334191393,0.130413387130411,0.08693045081098681,0.5880705882062232,0.8087924352467706,0.002920081436085708,0.0,0.8087630822609753,-0.5880081739559893,-0.011375897058178826,0.0,-0.007483851819103771,0.009051658809559729,-0.9999310273387585,0.0,0.6457374867429637,0.2401960162292333,0.3040088733185127,1.0,-0.04921028571428267,-0.06467637551020008,-0.14117521536770053,1.1779999999999813
0.45241453767267104,0.45930334678363854,-0.12481185767876243,-1.49326170859632,0.07116255295724869,1.9444845299293385,0.15992189045002514,-0.043871126544154704,-0.2555002015760765,-0.00303501565022412,-0.3794987051967564,-0.026628679863167193,0.13255292624670909,0.0917486971695413,0.59008858559033,0.807321646577062,0.0028225919495618243,0.0,0.8072911891196024,-0.5900263744813711,-0.011426298063487883,0.0,-0.0075594396148926934,0.009021355363224362,-0.9999307326110739,0.0,0.6448525537010925,0.2390853748354159,0.3039826161235297,1.0,-0.05201771428571092,-0.0683661387755058,-0.15377492531827058,1.1949999999999794
0.4516643713763334,0.4549253562638441,-0.12483791412639454,-1.500156326416191,0.07071588488898618,1.9469721598143344,0.16150561894287052,-0.04843953412488004,-0.25734071864520724,-0.0013589672941746972,-0.4084507804877365,-0.020024989124440933,0.14093873376984575,0.09127719712492412,0.5921840111474941,0.8057860986031615,0.0027581044883931956,0.0,0.8057549645711488,-0.5921219036091916,-0.01146015865432332,0.0,-0.00760144880286473,0.009009052556811503,-0.9999305250606796,0.0,0.643937871644142,0.23792773796307284,0.3039278197279698,1.0,-0.054825142857139186,-0.07205590204081151,-0.1663746352688406,1.2119999999999775
0.4508526305247326,0.4502104214924368,-0.12491185455184514,-1.5072673896124205,0.07022298102238442,1.9496436799776582,0.163307873035877,-0.047316487516502144,-0.28111334111239916,-0.004389191293930792,-0.4248400213834479,-0.025762025376028733,0.16700769048048938,0.103538369403551,0.5945281944846339,0.8040574674658452,0.0029260684305771525,0.0,0.8040292287885924,-0.5944661919154681,-0.01130012497059369,0.0,-0.007346642554328708,0.009071062085891882,-0.999931869016991,0.0,0.6430330720966332,0.23668724265113553,0.30401317074118,1.0,-0.05763257142856745,-0.07574566530611723,-0.17897434521941066,1.2289999999999757
0.4500093675837458,0.445300227702986,-0.1249971954676751,-1.514782968294059,0.0697373515245363,1.9522584855296938,0.1652045432164747,-0.0509040158557546,-0.28691618399662244,-0.0019723411939572798,-0.45524826113374306,-0.035957933187635994,0.15693559021749542,0.11288233873998527,0.5969928423318814,0.8022293626313924,0.002888397088265696,0.0,0.802200878017547,-0.5969309131003485,-0.011312965759212819,0.0,-0.007351561339525914,0.009071008909096442,-0.9999318333482748,0.0,0.642019493162438,0.23537425236636114,0.3040300261924625,1.0,-0.06043999999999572,-0.07943542857142295,-0.19157405516998072,1.2459999999999738
0.44910354688676196,0.4402314440543298,-0.12503913596390415,-1.5226795502624988,0.06920863123710631,1.9549620464309236,0.16732646772895945,-0.05069446799048886,-0.2989080352862542,-0.004381834609853324,-0.4673265200591869,-0.03210476492549449,0.16340683895406002,0.1348351056169892,0.5996511524334904,0.8002448236183315,0.002732134414840745,0.0,0.8002144825370845,-0.599589494828549,-0.011400286415697524,0.0,-0.007485005207874984,0.009022662128443784,-0.9999312807714109,0.0,0.6409277241503505,0.23400535531397018,0.30397495550119197,1.0,-0.06324742857142397,-0.08312519183672867,-0.20417376512055074,1.262999999999972
0.44784022187126643,0.43333739592471987,-0.12507876982317154,-1.533103585015042,0.06853609755562064,1.9588065664403365,0.1702675554080426,-0.057932213411432454,-0.3222031484119071,-0.001551793542177998,-0.46610426915743164,-0.03316746301697827,0.17244708815596002,0.14729525271126254,0.6033063036873605,0.7974920468845903,0.002947200049082696,0.0,0.7974647453660142,-0.6032439212040814,-0.011291515834937087,0.0,-0.007227152706537343,0.009162707228595066,-0.9999319042114816,0.0,0.639541372228791,0.2321914809484837,0.30405387677128537,1.0,-0.06688057142856643,-0.08790017959183019,-0.2204792721154061,1.2849999999999695
0.4471516016732281,0.4298357371707114,-0.12513424544864196,-1.5384944540020422,0.06816707064946115,1.9607648850383599,0.1718193607891334,-0.0665417591252444,-0.3266925283838415,-0.006484108880365928,-0.5033577173999345,-0.04160636152300509,0.17173827423204527,0.1500196098052805,0.6060276212658328,0.79542631147871,0.002872659300868191,0.0,0.795398603253804,-0.6059657628935763,-0.011282865057789615,0.0,-0.00723409382976864,0.00912281270998462,-0.999932218790214,0.0,0.638538846281405,0.2308194938607516,0.30401891446219304,1.0,-0.06935771428570905,-0.09115585306121764,-0.2315966632482622,1.299999999999968
0.44585393464543,0.4231668031885724,-0.12528364916507512,-1.5488312731538576,0.06741412385456634,1.9641806796975092,0.1748823203306512,-0.061019766202663445,-0.33768903126230576,-0.01119481523306701,-0.514376315536585,-0.03511804966436122,0.17002309424709594,0.14815475895048794,0.6090564950004859,0.7931103250225935,0.002635363634769905,0.0,0.7930801919073901,-0.6089956330446644,-0.011352314207855244,0.0,-0.00739885511697963,0.009004428761946126,-0.999932086296679,0.0,0.6373758856243974,0.2292790172865202,0.3039621912069398,1.0,-0.07199999999999449,-0.09462857142856419,-0.24345521378997517,1.3159999999999663
0.44481516986293873,0.41796151639584206,-0.1253490701518908,-1.556726982605535,0.06686822995134771,1.9669537265044297,0.17728310628196836,-0.07005840337377786,-0.3508142545448223,-0.0034013546818431645,-0.529285349590665,-0.03887825196539847,0.19228276787970444,0.15252151934835384,0.6121989262106119,0.7906870986806956,0.0026708851878297765,0.0,0.7906578607624076,-0.6121380942379248,-0.011306975660334069,0.0,-0.00730546986384939,0.00903404866032892,-0.9999325057596995,0.0,0.6362236213074873,0.22772717215676133,0.30399084330912446,1.0,-0.0746422857142799,-0.09810128979591075,-0.2553137643316882,1.3319999999999645
0.44357894818370097,0.4118601827450109,-0.12539952051271505,-1.5657932850289724,0.06624260278487079,1.970309056257269,0.18017203085864858,-0.07472972487060855,-0.355940901459916,-0.0013431465593243817,-0.5393775015705816,-0.03365093082278858,0.18454425474951178,0.1771051928733521,0.6157007991869264,0.787962493321234,0.0028951512521153333,0.0,0.7879365535459134,-0.615639492293634,-0.01116915466060995,0.0,-0.0070186406382806155,0.009158229274658883,-0.9999334305443255,0.0,0.63499259568495,0.22605053087389138,0.3040778378713692,1.0,-0.0774497142857082,-0.10179105306121651,-0.26791347428225837,1.348999999999963
0.4422745832267272,0.40566539891970654,-0.12548845262599975,-1.5753527536421732,0.06558912635300515,1.9735102002484013,0.1832480354228569,-0.07592019977678821,-0.3670833412177948,-0.006290678984815548,-0.5693383567938283,-0.03936277620788085,0.19736591614641444,0.17455709813691336,0.6192001003317583,0.7852163107275835,0.0027070311619438354,0.0,0.7851882230681019,-0.6191391043234028,-0.011268130012538157,0.0,-0.007172028712039924,0.009102931481790658,-0.9999328470665374,0.0,0.6337043882686886,0.22435916956933818,0.3040050699645464,1.0,-0.08009199999999363,-0.10526377142856307,-0.27977202482397134,1.3649999999999611
0.4409149817075747,0.39923267755712666,-0.12560806804773336,-1.584993377205755,0.0649273617996397,1.9769099879512768,0.18639154375790365,-0.07980007299324654,-0.39105152133607707,-0.0056616765256956815,-0.5521764051288386,-0.038691550041065254,0.20639661673844173,0.19809119500032715,0.6227767233309016,0.7823824166435491,0.002766569253398586,0.0,0.7823555477212525,-0.6227156880218316,-0.01121230317483388,0.0,-0.007049658505748235,0.00914737835114618,-0.9999333116684599,0.0,0.632441198948383,0.22262434030483927,0.3040331910950774,1.0,-0.08273428571427904,-0.10873648979590964,-0.2916305753656843,1.3809999999999594
0.43956059466958863,0.3930079503289288,-0.12564179235039194,-1.5943038278188326,0.06424055951157107,1.9801975136466012,0.18959043842359724,-0.08594769685574453,-0.39060434568951746,-0.003930671388385771,-0.5891310960622004,-0.04429372056422199,0.1986586460537603,0.2105071173917442,0.6267515440507928,0.7792014390354035,0.002892461981079646,0.0,0.7791767309239342,-0.6266904196513466,-0.011112461703807988,0.0,-0.006846299750570051,0.009218669089753134,-0.9999340699865863,0.0,0.6310489978901324,0.22075655541140402,0.3040925177438748,1.0,-0.08554171428570731,-0.11242625306121534,-0.30423028531625435,1.3979999999999575
0.4380709600647324,0.3862766716321945,-0.1256970000466328,-1.6046074265631303,0.0634682996966264,1.9835381071848006,0.1930652690317078,-0.08865789975154058,-0.40125809801336776,-0.003935818310678739,-0.6131611810413914,-0.049353168073109174,0.19371770090677312,0.20338739568332925,0.6308194017832939,0.7759129229896584,0.00260099454439119,0.0,0.7758849364951056,-0.6307589526182145,-0.011245261809651342,0.0,-0.007084879771814934,0.009111977248357994,-0.9999333859559069,0.0,0.6295131540622493,0.21878753211691554,0.3039970701757893,1.0,-0.08834914285713558,-0.11611601632652106,-0.3168299952668244,1.4149999999999556
0.43655266470385956,0.3792507369992474,-0.1257329401788442,-1.6148772191864569,0.0627201698000714,1.9871462707079095,0.1967642271679903,-0.08749147781186095,-0.4086099552623811,0.0009596217064996857,-0.597160427305268,-0.04685476138643601,0.2144922781788156,0.21942347837371748,0.6350505723212291,0.7724528799786828,0.002840019071553834,0.0,0.7724283459002829,-0.6349895486763947,-0.011111724560571582,0.0,-0.006780031746486226,0.00925039637422767,-0.9999342285052735,0.0,0.6280299666856918,0.21684479769121529,0.30412396271563275,1.0,-0.09115657142856383,-0.11980577959182678,-0.32942970521739445,1.4319999999999538
0.4349334503881191,0.3721967325724587,-0.1257702486488584,-1.6255298810395538,0.061952388447919615,1.9907430970858302,0.2004625708089828,-0.09578016288092023,-0.43652344788726155,-0.0035170965167923393,-0.62776303149945,-0.0447039454030255,0.20517494533530903,0.22184301835444054,0.6393410392570664,0.768905810460603,0.002763523624999529,0.0,0.768880541380319,-0.6392798975707958,-0.011165686265899435,0.0,-0.0068188272312603715,0.00926367935669925,-0.9999338417315249,0.0,0.626444774918215,0.2147975141256153,0.3040757188619129,1.0,-0.0939639999999921,-0.1234955428571325,-0.3420294151679645,1.4489999999999519
0.4333617486001915,0.3653398950827801,-0.12587794196889,-1.6357581830135175,0.06115256133334236,1.994083498511188,0.2042528400464659,-0.0905621825616832,-0.4263324681894024,-0.005900803976705953,-0.6249648455288351,-0.04236238568772224,0.20636198451486415,0.2433199815308679,0.6436607124171405,0.7652938828374145,0.0026281330828488627,0.0,0.7652676288503486,-0.643600247856656,-0.011176944744624346,0.0,-0.006862312459130604,0.009205562625193495,-0.9999340809695741,0.0,0.6249035501195801,0.2127696225763426,0.30406457519504937,1.0,-0.09660628571427753,-0.12696826122447905,-0.3538879657096775,1.4649999999999501
0.4315090891610982,0.35742079692083445,-0.125906695847706,-1.6474030778963682,0.06023707468935641,1.9980842340466298,0.20852343793989722,-0.10800874233589505,-0.4305082416789469,-0.0005729138830832665,-0.6475749610574285,-0.045857264465579216,0.22215372074991505,0.2397177914094948,0.6484909422387116,0.7612047342229158,0.002756325847246225,0.0,0.7611808018223142,-0.6484304865531378,-0.011065168178030044,0.0,-0.006635700449656834,0.009273902207646317,-0.9999349789948273,0.0,0.6231628937104359,0.21049710809523806,0.3041260171121076,1.0,-0.09957885714284863,-0.13087506938774393,-0.3672288350691046,1.4829999999999481
0.4296267229846097,0.34988282418575467,-0.12596639148505417,-1.6587532247637728,0.059416214944280496,2.001737372413621,0.21276775684900462,-0.1160439251149689,-0.44129380828074644,-0.00889717475441682,-0.6681550017277355,-0.05261556156024431,0.20969006934679593,0.26199375059362195,0.6533281974355322,0.757057824159693,0.0025424821410831248,0.0,0.7570312825550439,-0.6532676257815779,-0.011215758555411383,0.0,-0.006830187998647097,0.009252487975081602,-0.9999338678123539,0.0,0.6214069111667085,0.20821782693505253,0.3040322265134562,1.0,-0.10238628571427688,-0.13456483265304964,-0.3798285450196746,1.4999999999999463
0.4277150232513934,0.34203100827630556,-0.12606982446242318,-1.6699749229090404,0.05855503722460471,2.0056497447369135,0.21717251426748005,-0.10983851331118512,-0.4580463175851704,-0.004783554432682219,-0.6631736568694986,-0.052717511678923364,0.2265412559222025,0.24153633491455628,0.6582867396584114,0.7527488355085816,0.0029164930278636455,0.0,0.7527276728900932,-0.6582256506694364,-0.010990458019143768,0.0,-0.006353466278591957,0.009430379350664042,-0.9999353486158742,0.0,0.6197400137165119,0.2059300598699119,0.3042117288492785,1.0,-0.10519371428570515,-0.13825459591835537,-0.3924282549702447,1.5169999999999444
0.42594043054664227,0.33509910310485047,-0.12607370732738293,-1.6803236405946709,0.057727231000028044,2.00896954722325,0.22114707812159307,-0.11886239101100182,-0.4656277764448978,-0.0005428575044907829,-0.687362905507118,-0.06204247162710781,0.22233391375403516,0.26857658744528395,0.6626930758758862,0.7488732495386426,0.002736825313946958,0.0,0.748850229080662,-0.6626322398495595,-0.011072308657365991,0.0,-0.006478371805011263,0.009387195277098068,-0.9999349535162704,0.0,0.618101182094878,0.20384960407833,0.3041357598985176,1.0,-0.10767085714284773,-0.14151026938774275,-0.4035456461031006,1.5319999999999427
0.42376415392346933,0.3265119933477622,-0.12610765679178826,-1.692760463055756,0.05667064677188041,2.013060522084492,0.22611314017259382,-0.11963406301867437,-0.47781152479574307,-7.165154490485501e-05,-0.6868683202444438,-0.060913885452986975,0.23423182393753347,0.27603622349373264,0.6681214858526849,0.7440339672069087,0.0028076120738159066,0.0,0.7440127637684824,-0.6680610848348598,-0.010960893214639479,0.0,-0.006279741399272176,0.00941228869519116,-0.9999359847857645,0.0,0.6161498509143712,0.2013151572175665,0.30420299294288206,1.0,-0.11064342857141883,-0.14541707755100763,-0.4168865154625277,1.5499999999999408
0.4215970140497759,0.3183200348023931,-0.12611122784259535,-1.704735699217929,0.0557481597629878,2.0169493502742233,0.23093984371036955,-0.12876751266177835,-0.48271498950111086,-0.00142518787779111,-0.6934887180017397,-0.05181356956564748,0.2269520964013046,0.28715561528109507,0.6733998302312447,0.7392600999494683,0.0028142793823092,0.0,0.7392391573407795,-0.6733388841739654,-0.01099828235053094,0.0,-0.00623574762815321,0.00948684963803588,-0.9999355554911844,0.0,0.6142362441465146,0.1988689666124656,0.3041957158307173,1.0,-0.1134508571428471,-0.14910684081631334,-0.4294862254130977,1.5669999999999389
0.4193520443309563,0.3099327515810779,-0.12621072328663874,-1.7168621812127842,0.054760088803494825,2.0208169489400225,0.23596847825025827,-0.12744199527704658,-0.5091835212195187,-0.005241541741195348,-0.6963097785135299,-0.06613792406043666,0.23286723051814903,0.29676580477058445,0.6788886870586596,0.734222722626325,0.0028091038008604173,0.0,0.7342023368222202,-0.6788278527681842,-0.010973687262528148,0.0,-0.006150351051118608,0.00951254585880315,-0.9999358402683804,0.0,0.6122898727260672,0.19630487820400444,0.30422517320319353,1.0,-0.11625828571427536,-0.15279660408161908,-0.4420859353636678,1.583999999999937
0.41727878236952365,0.30245199574229903,-0.12623531958676867,-1.727691097383281,0.0538203097140524,2.0242906483595537,0.24040222492774024,-0.1431561560786179,-0.4983674020846025,0.00036450689104128954,-0.7148482209950288,-0.06274670769989636,0.23071398963065204,0.29651694483984514,0.6836945643696523,0.7297497268235267,0.0027974548411223345,0.0,0.7297299338839934,-0.6836341454612036,-0.010923628261756115,0.0,-0.006059195748455648,0.009509994898884336,-0.999936421050811,0.0,0.6105355794057237,0.19401410699004515,0.3042303972861466,1.0,-0.11873542857141794,-0.15605227755100648,-0.45320332649652373,1.5989999999999354
0.41508136844853466,0.29486254786453125,-0.12629426837282293,-1.7388156056888613,0.05291730757868251,2.0276234833426674,0.2449923068723408,-0.14662898929576082,-0.5128996121321316,-0.010034001590702914,-0.7403636320750532,-0.063597454430806,0.2284073160520993,0.3085736831703439,0.6890595069587149,0.7246870392074027,0.0025373166592464833,0.0,0.7246643600038087,-0.6889992056243404,-0.011063764752850012,0.0,-0.006269678469330853,0.009462477420718512,-0.9999355742511383,0.0,0.6085632761222313,0.1914396194730023,0.3041463558455601,1.0,-0.12137771428570338,-0.15952499591835304,-0.4650618770382367,1.6149999999999336
0.41253932242529273,0.28602505251124266,-0.12641942436829845,-1.751224464695453,0.05189654104608229,2.0317194254657385,0.25033161376507657,-0.14881565097335384,-0.5179170690863816,-7.136237232319566e-05,-0.7378192716432865,-0.057271687659263736,0.24058539381370503,0.3061001794512364,0.6945128299434781,0.7194612122729638,0.0028705365051568486,0.0,0.7194432543155277,-0.6944520661284361,-0.010884786219193372,0.0,-0.005837843878274629,0.009624997116343667,-0.9999366374972783,0.0,0.6066906400426725,0.1888639560506602,0.3042905853044054,1.0,-0.12401999999998879,-0.1629977142856996,-0.4769204275799497,1.6309999999999318
0.40990989906058045,0.27720120243616175,-0.12644571674631602,-1.7640818664101325,0.050779027329734557,2.0355701936269637,0.2558604907114113,-0.1535635394680216,-0.5226894466610436,0.0004035030603242997,-0.761147857207668,-0.06986907571628374,0.2192175781563772,0.32762512536399224,0.7003707019256195,0.7137611699620053,0.0025727494810641746,0.0,0.7137401446423212,-0.7003104075095424,-0.011003906623786561,0.0,-0.00605255455887338,0.009543272130329697,-0.9999361442313994,0.0,0.604495204456286,0.18606858355969258,0.3041785417209829,1.0,-0.12682742857141707,-0.1666874775510053,-0.4895201375305197,1.64799999999993
0.40714810474540863,0.268118202853727,-0.12653272709051858,-1.7768090660464915,0.04964016184557508,2.039653331809193,0.2615062864324846,-0.16832292715016842,-0.5320409606435851,-0.010315745427037485,-0.7371664809144726,-0.06666409859734872,0.23597869306424865,0.3325427721844311,0.7063773124330495,0.7078162971667867,0.0028158206919864856,0.0,0.7077991897548479,-0.7063171958246055,-0.010820016915663444,0.0,-0.005669830895232486,0.009636235601045415,-0.9999374960371576,0.0,0.6023968681146135,0.1831994541635742,0.30429021400514983,1.0,-0.12963485714284534,-0.17037724081631103,-0.5021198474810898,1.664999999999928
0.40445776754446844,0.2595223588000156,-0.1266442992031872,-1.7891441907960917,0.04855349996493099,2.0432566252706104,0.2669089120949129,-0.1731760240835553,-0.5387561395556386,-0.005115811987379766,-0.757091217642852,-0.06639233944718591,0.22268571702964995,0.33777532532536053,0.7121227868370928,0.7020365530723179,0.0025615461969155755,0.0,0.7020169807373736,-0.7120631293831451,-0.01090896102626079,0.0,-0.005834619129939711,0.009566952848184346,-0.9999372133453226,0.0,0.6002619522423271,0.1803913950921313,0.30421759237046897,1.0,-0.13227714285713074,-0.1738499591836576,-0.5139783980228028,1.6809999999999263
0.40147812849737696,0.2501653627257684,-0.12675260459638413,-1.8021360392733918,0.047360892583677434,2.047326249018178,0.27283173403495614,-0.1798228631019352,-0.5378556022678155,-0.0007964722598716347,-0.7616566514767218,-0.07326438564893668,0.23403963128916633,0.35376434236638077,0.7183532366913352,0.6956590807425559,0.002796000127526097,0.0,0.6956433089543257,-0.7182938286849855,-0.010728899354064856,0.0,-0.005455411659003262,0.009652344195213422,-0.9999385334785172,0.0,0.5980713080579869,0.17738037888813135,0.3043314473837576,1.0,-0.135084571428559,-0.1775397224489633,-0.5265781079733729,1.6979999999999245
0.39839902460958215,0.24079047008672108,-0.1267624626157917,-1.8155076333949136,0.046177480555660996,2.0511734910572548,0.27883741352783625,-0.18137960403529116,-0.5511327816541581,0.00010195405504392097,-0.7809382684971143,-0.061064380122848684,0.2260775144815696,0.3482568253313841,0.7245844672857318,0.6891673788474522,0.0025338906829131744,0.0,0.689148847095481,-0.7245250267674037,-0.010867338030567192,0.0,-0.0056536565011189865,0.00962071740911083,-0.999937737044013,0.0,0.5956882953127887,0.17433844365541373,0.3042344966576218,1.0,-0.13789199999998727,-0.18122948571426903,-0.5391778179239429,1.7149999999999226
0.3950699082653283,0.23058174014912436,-0.1267816959310004,-1.8295027038866685,0.04492300345248864,2.0555220839037918,0.28536793540869704,-0.19100184185210478,-0.5512052087357245,-0.0004075147024283079,-0.7956935014610363,-0.06882438672488618,0.23383875596934353,0.36593771455268514,0.7312701019390518,0.6820676978132263,0.0029052557585354482,0.0,0.6820542129300432,-0.7312100273562661,-0.010709501353289937,0.0,-0.005180352527929533,0.009813269011922837,-0.9999384299540579,0.0,0.593253590451135,0.1711267215189597,0.3043791693377814,1.0,-0.14086457142855838,-0.1851362938775339,-0.55251868728337,1.7329999999999206
0.3918220186121542,0.22092819805208744,-0.126773090595535,-1.8431230130679535,0.04361062203626297,2.0593129297764454,0.2916036545899659,-0.19374972464012305,-0.5708684609538512,0.0027105169939419895,-0.771079760566155,-0.06779555593339671,0.21614683277421318,0.37507754134375465,0.7375718421496142,0.6752494710678719,0.0025838714735554914,0.0,0.6752328879385849,-0.7375123751651708,-0.010806961902185318,0.0,-0.005391861930768238,0.009715812854891245,-0.9999382634970463,0.0,0.5907497194485235,0.16799575053098714,0.30428125084240193,1.0,-0.14367199999998664,-0.18882605714283962,-0.5651183972339401,1.7499999999999187
0.3881944304285469,0.21044023582904237,-0.12684623408048779,-1.8573797417744262,0.04229463044066837,2.063502932715524,0.2983997956548498,-0.19810798206572822,-0.5764640202801222,-0.009358225099216853,-0.8176562604477792,-0.06562915844978491,0.2263806205916218,0.37645117656791327,0.7444887474055228,0.6676146277611423,0.0028214689640946224,0.0,0.6676014998699744,-0.7444288524831126,-0.01070830814112199,0.0,-0.005048737454170005,0.009856021586039737,-0.9999386826643993,0.0,0.5881948965192004,0.1645841771214524,0.3044047548165868,1.0,-0.14664457142855775,-0.19273286530610448,-0.5784592665933671,1.7679999999999167
0.3846451033294243,0.20052562402704288,-0.1268966516053297,-1.8711712697263516,0.04095167537162943,2.0673051879481816,0.30495494749933044,-0.21160024184884355,-0.5921518250425524,-0.005306160894218538,-0.8184731990924692,-0.08471165405270324,0.22290182963936928,0.3783177704115337,0.7510686529670304,0.6602044557395677,0.002588832385411504,0.0,0.6601893419408164,-0.7510092452393697,-0.010765372912822788,0.0,-0.0051632095167074565,0.009794842262307188,-0.9999386992873829,0.0,0.5856327201639931,0.1612725088695949,0.3043331436809363,1.0,-0.149451999999986,-0.1964226285714102,-0.5910589765439372,1.7849999999999149
0.38119950444498535,0.19102168664844424,-0.1269384571882169,-1.8840574468965128,0.03970240171156757,2.071038665090336,0.3112088192737829,-0.2135838759391015,-0.5876363186712655,-0.005030991056621997,-0.7909148804274444,-0.08423443702112503,0.227839136091581,0.3875088349697991,0.757304518400349,0.6530413299977789,0.0027630827631674763,0.0,0.6530289842012008,-0.757245064325339,-0.010667954315103464,0.0,-0.004874378136443425,0.00988345342211662,-0.9999392770494795,0.0,0.5832672634380337,0.15814103797111442,0.30440144882277226,1.0,-0.15209428571427144,-0.19989534693875677,-0.6029175270856502,1.8009999999999131
0.37733212631798607,0.18083834440319843,-0.12707067819437962,-1.8979790821907516,0.03837702554669991,2.0747952943782155,0.3179878603418076,-0.233936047609457,-0.5982775215857139,-0.006514815488008092,-0.7753078853274844,-0.08143225843700172,0.22516387806359314,0.38909486257981885,0.7641210136634295,0.645052625560747,0.0026331798966318896,0.0,0.6450393252225559,-0.7640614644884319,-0.010728201220650593,0.0,-0.004908437579476288,0.009896339110416388,-0.9999389829948325,0.0,0.5806501395866885,0.15463860300373644,0.3043732690653188,1.0,-0.1549017142856997,-0.20358511020406247,-0.6155172370362202,1.8179999999999112
0.37338088602546154,0.1705324773227489,-0.1271599137942135,-1.9119097503673985,0.03693982171451183,2.078656796204827,0.3248212509741267,-0.23320715231794215,-0.5934971052835177,0.0001165270565366644,-0.789210899647831,-0.08684350798659068,0.22404614857805308,0.41312257323751084,0.7708660667533327,0.6369765608195227,0.0026673949815873947,0.0,0.6369646747941626,-0.7708071506468249,-0.01063421258477078,0.0,-0.00471778786589977,0.009896780548929077,-0.999939896299982,0.0,0.5780245899102016,0.1511310689760375,0.3043927489688273,1.0,-0.15770914285712795,-0.2072748734693682,-0.6281169469867902,1.8349999999999094
0.36930415776623926,0.16006552178089758,-0.12717039913822345,-1.9259508772308738,0.03550539882830544,2.08236347775991,0.33177660653578617,-0.24310863327587015,-0.6155146711832425,-0.0004660225432971769,-0.8251945251342205,-0.08207383792304779,0.22605633182555163,0.4121032579762649,0.7776199069217504,0.6287138775636668,0.002624389276582986,0.0,0.6287022181872834,-0.7775611185239436,-0.01062895608193043,0.0,-0.004642038505008161,0.009915438101590082,-0.9999400659868426,0.0,0.5753034232804282,0.14761089755216159,0.3044115146534659,1.0,-0.16051657142855627,-0.21096463673467397,-0.6407166569373605,1.8519999999999077
0.3651030531780146,0.14953112955506603,-0.12718208073496629,-1.9400169099502724,0.03401741667798239,2.08617559703371,0.33885997414366303,-0.2549295094489456,-0.6091005657222135,-0.0006516368936400862,-0.871835057267139,-0.08392973020937491,0.21416360658925296,0.42321216510694193,0.7844123903208863,0.6202182336348583,0.0027002739005978042,0.0,0.6202084000029319,-0.7843540964155906,-0.010532753822905833,0.0,-0.0044147200730170755,0.009936946475358643,-0.9999408819232377,0.0,0.5725772493327911,0.14404561245695868,0.3044362101380741,1.0,-0.1633239999999845,-0.21465439999997968,-0.6533163668879305,1.8689999999999058
0.36097429180793494,0.13945962995072395,-0.12722583539054994,-1.9533752547378131,0.03268204995987594,2.0895734675021487,0.3456419721920796,-0.25979326106309414,-0.6391927799303487,-0.0008956042128933695,-0.8235419385135158,-0.07556668854908097,0.22839509602682928,0.42969937376622486,0.7913294457491037,0.6113682871884207,0.0026967780630011845,0.0,0.6113589057006777,-0.7912706702193781,-0.01057174404978102,0.0,-0.004329431021928398,0.010014624457582624,-0.9999404798906784,0.0,0.5697664328882339,0.14037982437706775,0.30445982780801195,1.0,-0.16613142857141278,-0.21834416326528538,-0.6659160768385005,1.885999999999904
0.35646657062264114,0.12866341830429387,-0.12732066598722191,-1.9675753796008169,0.031162386013364417,2.093306486449772,0.3529619414212952,-0.26905197786968527,-0.6377736937821357,-0.004419446527064911,-0.8178105094511984,-0.0997711202080408,0.21558287387672567,0.44276889729695396,0.7978750436211461,0.602800447881143,0.0027895702277670703,0.0,0.6027930238304646,-0.7978167291580972,-0.010477785930649958,0.0,-0.00409052701224516,0.010041690712916884,-0.9999412142903141,0.0,0.5671247060637004,0.13685326055428304,0.30449614281109977,1.0,-0.1687737142856982,-0.22181688163263197,-0.6777746273802135,1.9019999999999022
0.35175942951589795,0.11771998276966794,-0.12742551813204184,-1.9818454117968183,0.029597055331686172,2.096879502660334,0.3602890516572031,-0.2825205100341786,-0.644586499825635,-0.003712706098728044,-0.8521492597987416,-0.0929829366848359,0.21121288561538626,0.4321927560904971,0.8048210238406688,0.5934945979212943,0.0028335002219063835,0.0,0.5934885975408397,-0.8047632317008172,-0.010400595784504394,0.0,-0.0038924755598765404,0.010052461761708043,-0.9999418966352721,0.0,0.5642558234001661,0.13301389358795226,0.30454657919261524,1.0,-0.17158114285712647,-0.22550664489793767,-0.6903743373307836,1.9189999999999003
0.34716241813693394,0.10739659902203955,-0.12752225417884264,-1.995432211846945,0.028127697317013124,2.100143716548121,0.367283573300744,-0.2914244790008705,-0.6448646855675191,-0.004006912954456524,-0.8401895982554839,-0.09319652852713405,0.19639553890135275,0.43384445730595794,0.8118045719259306,0.5839067167269608,0.002651426503908217,0.0,0.583899426300962,-0.8117470387599169,-0.010438004173311748,0.0,-0.003942609040425038,0.010021978878337029,-0.999942006205018,0.0,0.5612899787255373,0.1290991221817994,0.30448942027091164,1.0,-0.17438857142855474,-0.22919640816324338,-0.7029740472813536,1.9359999999998985
0.34191513667935436,0.09559204512161387,-0.12751374150310713,-2.010588948492124,0.026428540422494953,2.1038381194172375,0.3752882090674535,-0.2864475091129048,-0.6525204141464269,0.0014640226887055303,-0.8563161167437289,-0.08415241612932231,0.20275283011278683,0.4423456021188452,0.8187101617450981,0.5741834208602453,0.0027959194819933107,0.0,0.5741786161400025,-0.8186529319874923,-0.010346043545337868,0.0,-0.0036517093004162504,0.010075962156930046,-0.9999425683537018,0.0,0.5583275789156815,0.12525050318865233,0.30456805815602034,1.0,-0.177195999999983,-0.23288617142854912,-0.7155737572319236,1.9529999999998966
0.33679580339640286,0.08444344853410087,-0.1275155420100093,-2.025143108139434,0.024911436084041418,2.107158206003549,0.3829187028393385,-0.30828303055285616,-0.6638647568085829,-0.003477348080247672,-0.867011329075832,-0.091833389177348,0.1801978709366491,0.45657679123598915,0.8256422191609861,0.5641711270407217,0.002571430289193451,0.0,0.5641641976116883,-0.8255842372399009,-0.01049629722230944,0.0,-0.0037988486593537596,0.010117089822747935,-0.999941604916198,0.0,0.5552233531531412,0.12133274350078971,0.30447456972915254,1.0,-0.18000342857141127,-0.23657593469385482,-0.7281734671824938,1.9699999999998947
0.3317394762509299,0.07370694605136423,-0.1275491606101377,-2.0385790886335675,0.023303324980643997,2.1103923639235034,0.39017456297303765,-0.31794760025475954,-0.668846064354703,-0.002083705903307757,-0.8358240285486044,-0.09496750773319473,0.194663053420128,0.4501055621661357,0.8321790387161505,0.5544821865817811,0.002880830810520674,0.0,0.5544797881356702,-0.8321219584565251,-0.010293575895069011,0.0,-0.0033104656307329505,0.01016365623266001,-0.9999428688226601,0.0,0.5524124866882253,0.1175370966360569,0.3046196182868025,1.0,-0.18264571428569668,-0.24004865306120138,-0.7400320177242067,1.985999999999893
0.3261984794291279,0.06236286216063295,-0.12763459002377386,-2.0532090954057645,0.021660252481475822,2.113538999501416,0.39796352313587074,-0.33936114258358724,-0.6733052224396534,-0.0067295616019704615,-0.8578503797854701,-0.09558565925539493,0.17707412572626682,0.4480425810049525,0.8391688104059023,0.5438472372211692,0.002576258925710579,0.0,0.5438421334096641,-0.8391116960631128,-0.010394342678570036,0.0,-0.003491232768869146,0.010123881246986835,-0.999942657517045,0.0,0.549225548624973,0.11339876481530405,0.3045129058899176,1.0,-0.185453142857125,-0.24373841632650714,-0.7526317276747769,2.0029999999998913
0.32041419233286134,0.050773231738885316,-0.1277678392086645,-2.0676244979681813,0.019946467210589153,2.116809117367545,0.4057514393003731,-0.33808648617085224,-0.6777393903514727,-0.0023645078467017175,-0.8639327219870149,-0.10109571066521725,0.18546214161328062,0.46404116823030994,0.8461423221685043,0.5329315637747867,0.0028046156707300066,0.0,0.5329299626425832,-0.8460857956714949,-0.010258078860911493,0.0,-0.003093968095821631,0.010174654286612406,-0.9999434502868498,0.0,0.5461278970969179,0.10916141621667881,0.3046128322293133,1.0,-0.18826057142855324,-0.24742817959181287,-0.765231437625347,2.0199999999998894
0.3142259201644447,0.03848388190874745,-0.12777303739132675,-2.0830371408558674,0.018191472495698822,2.1200247434118458,0.4141131787386239,-0.347754330004087,-0.6926838605944962,-0.0007869431920076377,-0.8426000393435035,-0.11015254905827442,0.1833411086362422,0.4594606071358534,0.8533958743847375,0.521237791669996,0.0027190107214781485,0.0,0.5212359123686819,-0.8533389721319542,-0.010318391307561342,0.0,-0.003058156563448766,0.01022311543296145,-0.9999430661739086,0.0,0.5426853069989265,0.1047568575267099,0.30459385375063647,1.0,-0.18998000000000004,-0.24968800000000008,-0.7729482150000002,2.0379999999998875
0.3085254904219402,0.027580079297965295,-0.12780020674170792,-2.096579324856444,0.016520745803687495,2.1228218097899862,0.42154241187611674,-0.3589982646183265,-0.6727814283492908,-0.002877311252743376,-0.8491649926099515,-0.10767331758164138,0.17168720504564655,0.47154537106699695,0.859776688909782,0.5106442907216924,0.0026833676378957136,0.0,0.510642925540673,-0.8597204817900967,-0.010258785847982618,0.0,-0.0029317007488612323,0.010190703832156908,-0.9999437757624796,0.0,0.5396452574467199,0.10076228649428241,0.3045946702624635,1.0,-0.18998000000000004,-0.24968800000000008,-0.7729482150000002,2.0539999999998857
0.30230154416300753,0.01597621496447459,-0.1278337503009117,-2.11080293742459,0.014792073056800133,2.125666551829031,0.42933506976972435,-0.3777620229684885,-0.677875638532824,-0.004309428436038258,-0.8149289575576957,-0.10671097786989846,0.17208778646627218,0.46210478782157427,0.8664464494075529,0.49924333544147537,0.0027183133600885974,0.0,0.4992431728171708,-0.8663905114059545,-0.010221694692237635,0.0,-0.002748044958189255,0.010213847107826676,-0.9999440612235095,0.0,0.536413833565821,0.09648814436422853,0.3046304675641361,1.0,-0.18998000000000004,-0.24968800000000008,-0.7729482150000002,2.070999999999884
0.29589883668649086,0.004507208347948623,-0.12793825207133552,-2.1248308861372838,0.013096594678230194,2.1283752583313778,0.43701462655915085,-0.3758009902490257,-0.6683886384096959,-0.005287589402971787,-0.8351140435125142,-0.08789676230799481,0.15753062511633517,0.44459223439848133,0.8722647607924247,0.48900687117149805,0.002685875649521773,0.0,0.48900706327498866,-0.8722090189806424,-0.010211081098748305,0.0,-0.002650694888094496,0.010220375149618613,-0.9999442573205823,0.0,0.5335764046356082,0.09265890149333225,0.30462547147947194,1.0,-0.18998000000000004,-0.24968800000000008,-0.7729482150000002,2.085999999999882
0.28991509441075025,-0.0062770631218313985,-0.12792343666849487,-2.137740251060855,0.011504483632409935,2.130883021774605,0.44419173141541957,-0.37883995471738274,-0.6761030794468726,0.0028887272615715485,-0.8013916264262044,-0.10358933578557938,0.16492900719656078,0.43901952577996356,0.878970827657975,0.47684653632308227,0.0029003144902374663,0.0,0.4768498344400175,-0.8789151211024924,-0.010158355827961105,0.0,-0.002294890713635811,0.010312111454341494,-0.9999441953599039,0.0,0.5301907785570571,0.08820291415267427,0.3047185263125773,1.0,-0.18998000000000004,-0.24968800000000008,-0.7729482150000002,2.10399999999988
0.28384312726407557,-0.016884831009276752,-0.1279131848762716,-2.150662175007998,0.009831444937771864,2.133218035466066,0.4512397721407662,-0.3829992547899707,-0.6571063609949606,7.596839545591458e-05,-0.7851222646696341,-0.10804322215245572,0.1366244650648511,0.43942431599938087,0.8850944506543351,0.4653827734988067,0.0027266192743701633,0.0,0.4653850767279727,-0.8850394937233845,-0.010127774185983695,0.0,-0.0023001701832814914,0.01023316166977771,-0.9999449942968704,0.0,0.5269192840541723,0.08399414911756718,0.30465670464621963,1.0,-0.18998000000000004,-0.24968800000000008,-0.7729482150000002,2.1209999999998783
0.27682508943011436,-0.028948017629973725,-0.12791555813747307,-2.164814726257267,0.008031263302203561,2.135711305227365,0.45913726148006556,-0.38950974244403497,-0.6677715444169249,0.002762462651451792,-0.7914668748439786,-0.09855758258292906,0.14608719697548486,0.43896127296376697,0.891144027277437,0.45368968047768665,0.002956920190636214,0.0,0.45369522098038295,-0.8910893664477668,-0.010056558282389872,0.0,-0.0019277136889942481,0.010303580783489953,-0.999945058562205,0.0,0.5237283129026657,0.07976412751200529,0.30477716142583644,1.0,-0.18998000000000004,-0.24968800000000008,-0.7729482150000002,2.1379999999998764
0.2703803416973695,-0.03944829787807173,-0.12799441248163826,-2.1773965805254374,0.00643505803320096,2.1377700577436927,0.46605703629739254,-0.39871436517189146,-0.6616697633802395,-0.002751107143647147,-0.7962260868811318,-0.09769189729042205,0.12481179123289698,0.4208471895894018,0.8967693773721787,0.44246772143215113,0.002783199483280842,0.0,0.4424720810856454,-0.8967147018887234,-0.01009691921154468,0.0,-0.001971862906541,0.010286294065193706,-0.9999451504513046,0.0,0.5206578575966256,0.07568215336363014,0.304715583007952,1.0,-0.18998000000000004,-0.24968800000000008,-0.7729482150000002,2.1539999999998747
0.26353730878501447,-0.05061483134179978,-0.12796981573121244,-2.1903949716127697,0.0047974694143762394,2.139895924155503,0.47332448865027915,-0.40382394905923236,-0.6556589807641621,0.0032807612713991767,-0.7477255416323866,-0.10777401967196791,0.13178991607157128,0.4117865329407724,0.9025104474808698,0.4306357140413457,0.002919054845072069,0.0,0.43064221238260214,-0.9024556848636665,-0.010088046028685203,0.0,-0.001709988188052125,0.010361834669530834,-0.9999448526407235,0.0,0.5174566248210118,0.07148116025818418,0.3047814360795086,1.0,-0.18998000000000004,-0.24968800000000008,-0.7729482150000002,2.170999999999873
0.2562121971408519,-0.06223220945260876,-0.12796456987611865,-2.204172251611697,0.002975643424953813,2.141943355256084,0.4808187177753749,-0.4135491426495923,-0.6437736146466656,-0.0013596293395685523,-0.7822717582292883,-0.09792684454548407,0.10253805843752804,0.40767452159559175,0.9083478026388856,0.4181842543420944,0.0026354814860216932,0.0,0.41818852941989776,-0.9082933471343657,-0.010114164042678302,0.0,-0.00183582919363251,0.01028950491550347,-0.9999453764180151,0.0,0.5139749744072896,0.06702289911889678,0.30467832801796546,1.0,-0.18998000000000004,-0.24968800000000008,-0.7729482150000002,2.188999999999871
0.24954752558526871,-0.0726384964053999,-0.1279804592058003,-2.216099434966984,0.0013490477767750465,2.1436979851189113,0.4874415001484779,-0.4166317614313349,-0.650319909003423,-0.0035286849065620726,-0.7203490811316091,-0.10013468644207421,0.11037492043809977,0.4101276731035113,0.9134376688282753,0.40694600486099425,0.0027057705835013533,0.0,0.4069517911703469,-0.9133838728380643,-0.010044272188317813,0.0,-0.001616100339142057,0.010276132605621872,-0.9999458931954097,0.0,0.5109500021770099,0.06303491216872072,0.30473166594254186,1.0,-0.18998000000000004,-0.24968800000000008,-0.7729482150000002,2.204999999999869
0.2422450069322728,-0.08352470373692786,-0.12806212679329207,-2.2286932695744524,-0.0002787014218908273,2.145526470407483,0.4943883452405289,-0.42264541475018924,-0.6316782801780046,-0.0017016382652984023,-0.7578435425208488,-0.10241533289925724,0.11146326130678524,0.40633335897300904,0.9187849802211676,0.39472485757086134,0.002682132893811367,0.0,0.39473107167912297,-0.9187309867264992,-0.010074819145424085,0.0,-0.0015126520754067396,0.010315512306397802,-0.999945649567793,0.0,0.5077248022377213,0.05872136651841037,0.30469720153044333,1.0,-0.18998000000000004,-0.24968800000000008,-0.7729482150000002,2.221999999999867
0.23543706845476522,-0.09377266640356872,-0.12802257454498658,-2.2403168721851476,-0.0018049789298285508,2.1470032908944265,0.5008575413504396,-0.43027169371165586,-0.6459441406927603,0.00233074067197353,-0.7079602505567867,-0.09946586629893117,0.10242280933510511,0.3992000724283527,0.9238623146459174,0.3826904894218448,0.002675777338530399,0.0,0.38269732412210156,-0.9238082781735859,-0.010088121180184663,0.0,-0.0013887495136397643,0.010344246970164894,-0.9999455324813489,0.0,0.5044824922263865,0.054562220026212395,0.30472305185215876,1.0,-0.18998000000000004,-0.24968800000000008,-0.7729482150000002,2.2389999999998653
0.22801553895413934,-0.10456312795009057,-0.12803808565482885,-2.2525191269656206,-0.0035750440062074975,2.148601864834776,0.5075804879164459,-0.4337337953663022,-0.6259554146559801,-0.0004327769312848108,-0.7272294199455054,-0.09678649449150314,0.08723528675709089,0.39588365314837987,0.9284936141296343,0.3713129132573873,0.002660050753168664,0.0,0.3713203762665031,-0.9284407344501711,-0.009986374924744492,0.0,-0.0012383943341692794,0.010260213933396628,-0.999946595768751,0.0,0.5014504970932918,0.050570087266846746,0.3047187982028805,1.0,-0.18998000000000004,-0.24968800000000008,-0.7729482150000002,2.2549999999998636
0.22040384685100886,-0.11531972939873464,-0.12809795467316312,-2.2646218553938082,-0.005234387196933444,2.1499409714153366,0.5142032961080026,-0.44741482314013703,-0.6347888554114691,-0.0033853883876706708,-0.6889120193846283,-0.09899033799772854,0.08704485667930165,0.3768536730677153,0.9333252019363397,0.3589965232746012,0.0025120924441844406,0.0,0.3590031363205909,-0.9332723321846957,-0.010012441846347406,0.0,-0.0012499895044517095,0.010246910659090752,-0.999946717754593,0.0,0.49817996038515816,0.04628428012491364,0.3046909047140428,1.0,-0.18998000000000004,-0.24968800000000008,-0.7729482150000002,2.2719999999998617
0.21269672388693403,-0.12602553339078837,-0.12814451277944888,-2.2764252660957154,-0.006817588098928898,2.1513635558350552,0.5207137667759626,-0.4498125344183823,-0.6169913311175736,0.0006331946903002654,-0.7013569602655241,-0.09513244453205927,0.06887782853776278,0.38409307994901315,0.9379921072194406,0.34661831046574104,0.002701952093800885,0.0,0.3466275846703639,-0.9379392193379243,-0.010004262819581937,0.0,-0.0009334118095004063,0.010320689396738539,-0.999946304614788,0.0,0.49499091853618526,0.042035794379021635,0.3047448815600203,1.0,-0.18998000000000004,-0.24968800000000008,-0.7729482150000002,2.28899999999986
0.20493872047325126,-0.13661081527280217,-0.1281480201585743,-2.288157255424958,-0.00851219175018291,2.1525115801997328,0.5270410370883077,-0.4560674200419747,-0.6257649059007802,-0.00030131767622761416,-0.669520055285567,-0.09827025129112037,0.06981980301658963,0.37516245879051763,0.9424102768154476,0.3344205205797292,0.0025558695237538915,0.0,0.3344290051982441,-0.9423579802470483,-0.00997118087413578,0.0,-0.0009260412857078348,0.010251897610814225,-0.9999470191179702,0.0,0.49172626472948344,0.037824301248897865,0.3047120365157091,1.0,-0.18998000000000004,-0.24968800000000008,-0.7729482150000002,2.305999999999858
0.19701738559497967,-0.14721586738091189,-0.12816157477646686,-2.299488765466236,-0.010123320630906419,2.153705117386634,0.5333697539095384,-0.4653634228933723,-0.6165317744591604,-0.004160219165133532,-0.6654858389839524,-0.09707571041936525,0.05627674650484328,0.3677474637210554,0.9467365833211501,0.3219662932380172,0.002880055758973399,0.0,0.32197884905638974,-0.946685037442272,-0.009889769686670052,0.0,-0.0004576756046490438,0.010290521925918835,-0.9999469464384263,0.0,0.4885775206788005,0.03360607724816642,0.30483909579192414,1.0,-0.18998000000000004,-0.24968800000000008,-0.7729482150000002,2.322999999999856
0.18890089666359214,-0.15766516405754064,-0.12826979353717477,-2.310954602826837,-0.011773740272346974,2.154632889511049,0.5395238931327965,-0.4741038512768357,-0.6146867546849667,-0.006055731082078159,-0.6582273832164347,-0.09673807089080576,0.054856142306925454,0.35035560094653684,0.9509216891664665,0.30938909179427876,0.0026604234087165726,0.0,0.3094000639972215,-0.950870178471551,-0.009912163901210087,0.0,-0.0005370084447318124,0.010249024138624444,-0.9999473331761708,0.0,0.48528988721055105,0.029295768442730886,0.3047699068324212,1.0,-0.18998000000000004,-0.24968800000000008,-0.7729482150000002,2.339999999999854
0.18128710402292894,-0.16751258110841094,-0.1282514232059714,-2.321310677752659,-0.01325077714548812,2.1555791265464177,0.5452087601489221,-0.4780075974863533,-0.610322021876988,0.0005244304678111962,-0.6410591297845888,-0.09089670128042822,0.06089599439163881,0.3499873144112964,0.954642711381051,0.2977065570508592,0.0029742893549700444,0.0,0.2977213997890866,-0.954591910754893,-0.009848803488630842,0.0,-9.282260629472905e-05,0.010287796128340385,-0.9999470749168605,0.0,0.482323021339634,0.02538016627662587,0.3048843845470939,1.0,-0.18998000000000004,-0.24968800000000008,-0.7729482150000002,2.3559999999998524
0.17303306097293525,-0.1777728169912673,-0.12825852927835085,-2.3323925137075125,-0.01483201402346935,2.1563011117405164,0.5511487476069477,-0.4788477410377468,-0.6106730887746755,-0.0007641883455971308,-0.6393480488922523,-0.09804261798903975,0.03747205751505955,0.3420547581960708,0.9584589783099307,0.28518333990831624,0.002756163462071297,0.0,0.2851966025876093,-0.9584080029644532,-0.009886588257940697,0.0,-0.00017796456653978998,0.01026213531414065,-0.9999473270664847,0.0,0.47904441867262876,0.021179661780606363,0.304814898460143,1.0,-0.18998000000000004,-0.24968800000000008,-0.7729482150000002,2.3729999999998506
0.1644847523971368,-0.18807955109252575,-0.12839174844852524,-2.3431806504247836,-0.016415665121826656,2.1569786547986785,0.5568968723835366,-0.5036407489783389,-0.6105524237796499,-0.00799948102739392,-0.6167633753128108,-0.08040259474340064,0.041530456166507565,0.3284351340091749,0.9621689986153615,0.2724032800251548,0.0028316137196279403,0.0,0.27241799477446793,-0.9621182934699799,-0.009877873995937467,0.0,3.358273009773649e-05,0.01027576450290593,-0.999947202374246,0.0,0.4758295773360581,0.016843064095231734,0.30486166172701706,1.0,-0.18998000000000004,-0.24968800000000008,-0.7729482150000002,2.3899999999998487
0.15648207287904364,-0.1976637466013773,-0.1283932958349506,-2.3531578575549355,-0.017927374072366997,2.1576503132436704,0.5621772447139076,-0.5025002154684751,-0.5900137745950957,-0.0005791315062683443,-0.6276746583670102,-0.09694437650245628,0.03259057781791314,0.3256595204120616,0.9654228570822392,0.26063484805996046,0.0029882940176206192,0.0,0.26065176685242947,-0.9653732356167031,-0.009793839535764298,0.0,0.0003322095815007642,0.010234297703934676,-0.9999475730193566,0.0,0.47283055693928694,0.012893376616919595,0.30490443831737546,1.0,-0.18998000000000004,-0.24968800000000008,-0.7729482150000002,2.405999999999847
0.1478035954127644,-0.20773599466145085,-0.1284236354957003,-2.3638047524927948,-0.019477485795591554,2.158035417296258,0.5677401021160067,-0.5147839307440185,-0.594094105832144,-0.0007665938608511401,-0.615255061993746,-0.0981127511206438,0.014836565955794235,0.3336458900053539,0.968765620388726,0.24792473285070277,0.0026919314558528753,0.0,0.24793929119524521,-0.968715569460713,-0.0098488713675313,0.0,0.00016594030539462956,0.010208880110182875,-0.9999478742568091,0.0,0.4695196056577741,0.008665317481746149,0.3048159067210622,1.0,-0.18998000000000004,-0.24968800000000008,-0.7729482150000002,2.422999999999845
0.13890871999959473,-0.21784212642313858,-0.12855162217377636,-2.3739491245549917,-0.020972784880374903,2.158546476239577,0.5731520630044245,-0.5209320452788387,-0.5910488408821156,-0.008590599395770726,-0.5951848570908195,-0.08170810325156723,0.028823040970172575,0.3153880757831619,0.971984310191844,0.23498491097458513,0.0030560196922154465,0.0,0.23500385010376917,-0.9719348925772746,-0.009823539505428698,0.0,0.0006618813583960659,0.01026670032928572,-0.9999470769882854,0.0,0.46637629753487353,0.004360299920279406,0.3049483202593848,1.0,-0.18998000000000004,-0.24968800000000008,-0.7729482150000002,2.439999999999843
0.1305925512114208,-0.22712284150600945,-0.12854525408287404,-2.3835804516857646,-0.0224730798625266,2.158810182732494,0.5781359595776735,-0.5200310404067644,-0.5746945923754504,0.006028670322502138,-0.5968099760836189,-0.0941084552179526,0.009842461348965569,0.29721686958975235,0.974777676129314,0.22311668324994072,0.002859139151561394,0.0,0.22313418405402008,-0.9747287681741374,-0.00978321529373894,0.0,0.0006040982661442706,0.010174627443891512,-0.9999480546616724,0.0,0.463299522453641,0.0004357007820215017,0.3048813775720599,1.0,-0.18998000000000004,-0.24968800000000008,-0.7729482150000002,2.4559999999998414
0.12150262621389556,-0.23698972885694344,-0.12858831662668044,-2.393593266932526,-0.02397004283417381,2.15900877226514,0.5832879864330446,-0.526407203802218,-0.5790628442397403,0.0010692075861117164,-0.5699108668764864,-0.08940761698620034,0.01799474488513235,0.2938144378027489,0.9777890448997967,0.20952616667127094,0.002848869108014047,0.0,0.20954424341868594,-0.9777403607313613,-0.009784883658290954,0.0,0.0007352793015050207,0.010164711870735447,-0.9999480676499823,0.0,0.4598713315593404,-0.004052457790593187,0.304891862655969,1.0,-0.18998000000000004,-0.24968800000000008,-0.7729482150000002,2.4739999999998394
0.11221745188308543,-0.24683042773188085,-0.1287210118873544,-2.403265542265064,-0.025514850252707024,2.1592454935974676,0.5883300381312827,-0.5479576140423869,-0.58166950530559,-0.011627007066282453,-0.5710644130783822,-0.08105728051857049,0.007468340072990057,0.2858980567905421,0.9803398166685853,0.1972433896553466,0.0031041895371297563,0.0,0.19726459221946363,-0.98029236537704,-0.009711124609691184,0.0,0.0011275798779573631,0.010132743889443418,-0.999948026681832,0.0,0.45689469116338555,-0.008118277482886568,0.30498201752378024,1.0,-0.18998000000000004,-0.24968800000000008,-0.7729482150000002,2.4899999999998377
0.10354067544507825,-0.2558998595791426,-0.12873545552119922,-2.412501391229305,-0.026836553861285844,2.1592598931192906,0.5928430020404473,-0.5485796228297097,-0.5591489103532623,-0.0026184943845809763,-0.5763997934295563,-0.08437512611410755,-0.004207304204723534,0.27289506980894096,0.9828106704810601,0.18454228972967274,0.002841864019880625,0.0,0.18456154523523638,-0.9827623002154029,-0.00980021412624761,0.0,0.0009843418180087715,0.010156449374256136,-0.9999479374483919,0.0,0.45359363442882655,-0.01227248150919507,0.3048768887708899,1.0,-0.18998000000000004,-0.24968800000000008,-0.7729482150000002,2.506999999999836
0.0940273820863671,-0.2655071234814351,-0.12879443015054615,-2.4218896383650192,-0.028332314736790827,2.1592924157449085,0.5976273883522158,-0.5599601321009384,-0.5577905759953361,-0.004700928093772861,-0.5300896201370761,-0.08469815653535942,0.0016214992542444174,0.2764650207348195,0.9851652306909596,0.17152503932402102,0.003062029348341985,0.0,0.17154707541514702,-0.9851181063961096,-0.009729556426748146,0.0,0.001347623950601784,0.010110697543480113,-0.9999479774992657,0.0,0.4504251039657177,-0.01654241476105842,0.30496057925325243,1.0,-0.18998000000000004,-0.24968800000000008,-0.7729482150000002,2.523999999999834
0.08381004541350168,-0.2755485538720088,-0.12893831830722507,-2.431690369845159,-0.0298642910028156,2.1592539652606177,0.6024406677024416,-0.5647536536747874,-0.5492209764277788,-0.00561150721139432,-0.5558149346072168,-0.08295918997327179,0.0003864293661123239,0.2583276601689178,0.9873442702893733,0.15849993282707764,0.0031321113908390763,0.0,0.15852328650757164,-0.9872976155566063,-0.009722800640053438,0.0,0.001551292726685749,0.010096458482618847,-0.999947826147437,0.0,0.4472141570151343,-0.02082977545188451,0.30496921411337213,1.0,-0.18998000000000004,-0.24968800000000008,-0.7729482150000002,2.540999999999832
0.07591115407202657,-0.2833092225083695,-0.12894599856527586,-2.439350838918378,-0.031052041990908625,2.1591069585880858,0.6060894923570284,-0.5716361794677826,-0.5456456235217859,-0.0016918450662456357,-0.538818487862895,-0.07779138823904853,-0.012901032138036546,0.258187758787021,0.9889727525569516,0.1480018835543005,0.0030139783533688225,0.0,0.14802453884999284,-0.9889261792741648,-0.009720840789658014,0.0,0.0015419290377232664,0.010059983114626005,-0.9999482082560958,0.0,0.4445108321909571,-0.024243413446281725,0.304917520465892,1.0,-0.18998000000000004,-0.24968800000000008,-0.7729482150000002,2.5549999999998305
0.06478266549286878,-0.29373981528967213,-0.12905941909330454,-2.4492666587856333,-0.03259536707412314,2.1589590654879913,0.6109335163349642,-0.5879695787847492,-0.5418279417646377,-0.009909078562847527,-0.5050645923604917,-0.08231969960597314,-0.0005837765298361448,0.2471547603803172,0.9910621907631723,0.1332879171282345,0.0032881740414785407,0.0,0.1333139884289583,-0.9910166164902329,-0.009705319707378765,0.0,0.001965071097864979,0.010057128638261095,-0.999947494951177,0.0,0.4409652132470049,-0.029038667664051835,0.30499276148066573,1.0,-0.18998000000000004,-0.24968800000000008,-0.7729482150000002,2.5739999999998284
0.05478269686221738,-0.302968873174686,-0.12916012534112897,-2.45800261637779,-0.0339680320852013,2.1586684943271726,0.6151123881577464,-0.5803263091703218,-0.5362489120835402,-0.0007171529701891703,-0.5291483485016608,-0.07741934378677272,-0.021648810486272506,0.2403399130208832,0.9927325996669635,0.12021269813779828,0.003411695489182164,0.0,0.1202406082412425,-0.9926876376434406,-0.009705519093284291,0.0,0.0022200640415958595,0.010045402946481964,-0.9999470791973413,0.0,0.4377613076863118,-0.03328183351103094,0.3050332391204381,1.0,-0.18998000000000004,-0.24968800000000008,-0.7729482150000002,2.5909999999998266
0.04468264901444614,-0.31200899191568887,-0.12921866431664195,-2.4667719426599506,-0.03542663892747147,2.158224319223454,0.6191193126506479,-0.5985240918512696,-0.5313336497103834,-0.000572963402009756,-0.5087187310331588,-0.08592787605285451,-0.02058818124632838,0.23559870097540708,0.9942132818758422,0.10728818999693401,0.003152987481243119,0.0,0.10731400759122905,-0.9941685280662531,-0.009663771442738915,0.0,0.002097832766384866,0.009946401142924496,-0.9999483327662426,0.0,0.43446652817937503,-0.03749378032944188,0.3049367044428849,1.0,-0.18998000000000004,-0.24968800000000008,-0.7729482150000002,2.6079999999998247
0.03490418688140938,-0.3205027019013987,-0.12935936995928543,-2.4745745096555174,-0.03666105851110475,2.157882561151791,0.6227572526239332,-0.6074970197052704,-0.5356752116935858,-0.010935135838619013,-0.4799799538328479,-0.08156685216717134,-0.013242049725085303,0.22529569283984097,0.9955536117056057,0.09403026350182675,0.003473135026093683,0.0,0.09405983295436815,-0.9955100572383558,-0.00965508483081203,0.0,0.0025497197678556738,0.00993902843211757,-0.9999473559357668,0.0,0.43130898336970136,-0.04180859851164367,0.3050377445080917,1.0,-0.18998000000000004,-0.24968800000000008,-0.7729482150000002,2.624999999999823
0.025237452003098113,-0.3288425389670728,-0.12938289869231678,-2.4822870358872855,-0.03793903063868424,2.1574481162219943,0.6262717336854197,-0.5995247364995921,-0.515889209433096,0.0034539441155928287,-0.48457341714606317,-0.08546487372368317,-0.033894446561603134,0.21977320504137096,0.9965606649732119,0.08267373955969132,0.0035553785416202214,0.0,0.08270447982346374,-0.9965181736823066,-0.009604448928450002,0.0,0.0027490165488070484,0.009865651688064185,-0.9999475545371288,0.0,0.4284971699684968,-0.045472475954768214,0.3050604196847778,1.0,-0.18998000000000004,-0.24968800000000008,-0.7729482150000002,2.639999999999821
