nelsonifechukwu/NELSON_IML_WORK/CNN-GradCAM/train2dof/data_sample_2022-02-22-11-45-13/robot_state.csv
position_joint1,position_joint2,position_joint3,position_joint4,position_joint5,position_joint6,position_joint7,velocity_joint1,velocity_joint2,velocity_joint3,velocity_joint4,velocity_joint5,velocity_joint6,velocity_joint7,ee_T_00,ee_T_10,ee_T_20,ee_T_30,ee_T_01,ee_T_11,ee_T_21,ee_T_31,ee_T_02,ee_T_12,ee_T_22,ee_T_32,ee_T_03,ee_T_13,ee_T_23,ee_T_33,v_x,v_y,time
0.465070546445,0.547814367854,-0.124002681702,-1.35585460234,0.079564206851,1.89409365788,0.159159572016,-0.00151540890606,0.0018072940759,7.6738206927e-05,0.000680940223189,-0.000251774648214,-1.66502749237e-05,-0.00166169099625,0.573836730026,0.818955709472,0.00192356382396,0.0,0.818911663279,-0.573777724934,-0.0119815281289,0.0,-0.00870881046628,0.00845083247743,-0.999926367314,0.0,0.661670330992,0.260887128438,0.303180581999,1.0,0.0,0.0,0.0
0.465071224581,0.547811617802,-0.124003165063,-1.35585575889,0.0795654089356,1.89409680047,0.159159703185,-3.4686438967e-07,0.000643493591139,0.000621641587257,-0.000598303067446,0.000284207175915,6.00513518411e-05,-0.00156108212492,0.573837018873,0.818955496363,0.00192812055773,0.0,0.818911504308,-0.573777989236,-0.0119797362491,0.0,-0.00870472530252,0.00845353899932,-0.999926380008,0.0,0.661670632752,0.260887605528,0.303182270853,1.0,-0.00012,-0.000157714285714,0.007
0.465070172673,0.54780986171,-0.124003419654,-1.35585185417,0.0795679972124,1.89409626882,0.159160267899,-0.000583803657203,0.000585940718519,0.000257583656692,1.65769257896e-05,-0.000161254185196,-0.000454011240289,-0.0082088999087,0.573838986743,0.818954104073,0.00193380903066,0.0,0.818910167652,-0.573779914678,-0.01197888685,0.0,-0.00870074528374,0.00845773100736,-0.999926379199,0.0,0.661671656945,0.260887633362,0.303185340308,1.0,-0.00044,-0.000578285714286,0.023
0.465073041663,0.547803492478,-0.123998141645,-1.35586702401,0.0795647985312,1.89409910682,0.159161330849,0.000895375058814,0.000356665894325,0.00214106300885,9.85291096602e-05,-3.92416192915e-05,-4.1454937757e-05,-0.008394880125,0.573833809061,0.818957743963,0.00192875152535,0.0,0.81891373106,-0.5737747489,-0.0119827169911,0.0,-0.00870683758505,0.00845573204086,-0.999926343075,0.0,0.661667131429,0.260890542065,0.303182698266,1.0,-0.00078,-0.00102514285714,0.04
0.465074343651,0.547759539545,-0.124003776452,-1.35590944797,0.0795661209573,1.89410435057,0.159161136551,0.00170862805947,0.000304931734819,-0.000802568746003,-0.00467633656153,0.000243037949702,7.68107786316e-05,-0.00039651104914,0.573839146643,0.818953986624,0.00193609768036,0.0,0.818910049973,-0.573780035597,-0.0119811395614,0.0,-0.00870127533865,0.00846089964843,-0.99992634778,0.0,0.661660495872,0.260884256261,0.303194287799,1.0,-0.00108,-0.00141942857143,0.055
0.46507375074,0.547629362515,-0.124000935547,-1.35606802229,0.0795617252564,1.89412833806,0.15916057376,-6.12279361632e-05,-0.0104395793705,4.66126089106e-05,-0.00950042408672,-0.000197570170745,0.00483827584068,0.000604972531742,0.573844616186,0.818950149984,0.00193783848474,0.0,0.818906128345,-0.573785392339,-0.0119926393314,0.0,-0.00870963805142,0.00846898237923,-0.999926206549,0.0,0.661632115422,0.260869310466,0.303213012431,1.0,-0.00142,-0.00186628571429,0.072
0.465053774456,0.547453303756,-0.123997798269,-1.35630817093,0.0795614697498,1.89420059135,0.159152110903,-9.63971919245e-06,-0.00593890360726,0.00183129010266,-0.00776161549592,4.51623550244e-05,0.00348016252548,-0.000843515244372,0.57386508867,0.818935765116,0.00195435920489,0.0,0.818891791487,-0.57380562876,-0.0120033803393,0.0,-0.00870874282008,0.00848889307077,-0.999926045512,0.0,0.661600620908,0.260836581744,0.303229598255,1.0,-0.00182,-0.002392,0.092
0.465039033181,0.547304627161,-0.124001955448,-1.35648609215,0.0795608634531,1.89430301096,0.159149123201,-4.92711868793e-05,-0.00955465221901,0.000150381865457,-0.00925251404566,0.00037093435992,0.00712100906672,0.00106310820749,0.573887623832,0.818919813009,0.00202038982262,0.0,0.818876685866,-0.573827867417,-0.0119707485926,0.0,-0.00864389363748,0.00852447871002,-0.999926305467,0.0,0.661589019387,0.260812126119,0.303259259667,1.0,-0.0021,-0.00276,0.106
0.465010940937,0.547094560071,-0.124005817292,-1.35674255774,0.0795551571709,1.89443974045,0.159126899597,-0.000512859076891,-0.0103415033711,-0.0021258752682,-0.0169988020998,0.000601632704173,0.0101955602042,-0.00285535027425,0.573908192301,0.818905195486,0.00210107536349,0.0,0.818863115644,-0.573848094487,-0.011929341704,0.0,-0.00856346667971,0.00856700499243,-0.999926634041,0.0,0.661571562483,0.260771996308,0.303297975671,1.0,-0.00246,-0.00323314285714,0.124
0.464977444267,0.546876513812,-0.124001345394,-1.35705847342,0.0795501909257,1.89457571821,0.159105369118,-0.00185312471235,-0.0118248791987,-6.93581174023e-06,-0.0213369206244,0.000320737213853,0.00685240297467,-0.00463859488151,0.573935841364,0.818885709219,0.00214292708753,0.0,0.818844027677,-0.573875421511,-0.0119250083876,0.0,-0.00853561010223,0.00859907832847,-0.999926596912,0.0,0.66153666043,0.260723329782,0.30331441671,1.0,-0.00282,-0.00370628571429,0.142
0.464952705387,0.546646394552,-0.124003892174,-1.35739907755,0.0795441345387,1.89469265048,0.159016571396,-0.000349979264195,-0.0183776258693,0.00101320650124,-0.0216185570072,-0.00214322543255,0.011500423059,-0.0138240350555,0.573898052865,0.818912159537,0.0021556395862,0.0,0.818870535024,-0.573837476442,-0.0119308172539,0.0,-0.00853346883787,0.00861242834829,-0.999926500293,0.0,0.661498583134,0.260677930171,0.303324784171,1.0,-0.0031,-0.00407428571429,0.156
0.464908250671,0.546360801824,-0.123999548414,-1.35783740722,0.0795341561278,1.89486188684,0.158952135052,-0.00279544023773,-0.0138627326519,0.000470759509853,-0.0246680731599,-0.000195285522685,0.00803957421581,-0.00138812425103,0.573900584019,0.818910322308,0.00217958281353,0.0,0.818868847866,-0.573839746008,-0.0119374535786,0.0,-0.00852513684475,0.00863587031505,-0.999926369182,0.0,0.661450427574,0.260612631666,0.303332935326,1.0,-0.00344,-0.00452114285714,0.173
0.464865758789,0.546029296277,-0.124001664707,-1.35839840455,0.0795200544651,1.89505460654,0.158920401575,-0.00292235370094,-0.0206030704237,-0.000360528905463,-0.0334123757723,-3.36557875047e-05,0.00446375110783,-7.89163072274e-06,0.57393760043,0.818884423977,0.00216284110049,0.0,0.818842564623,-0.573876657745,-0.0119659081869,0.0,-0.00855765657242,0.00863887731052,-0.999926065423,0.0,0.661386547905,0.260533358768,0.303321901879,1.0,-0.0038,-0.00499428571429,0.191
0.464805049979,0.545685210076,-0.124003711907,-1.35898757206,0.0794819019974,1.89524962256,0.158813444867,-0.00333804642535,-0.0224095357053,0.000175545448961,-0.0334314714928,-0.00868715987046,0.013546107214,-0.00118876896566,0.57392475395,0.818893557114,0.00211324920138,0.0,0.818851011842,-0.573863979231,-0.0119958596439,0.0,-0.00861078036279,0.00861532291301,-0.999925812584,0.0,0.661312234872,0.260432146399,0.303297568112,1.0,-0.00416,-0.00546742857143,0.209
0.464746060165,0.54532897362,-0.124004498173,-1.3596214091,0.079375508841,1.89545522319,0.158759716293,-0.00172358699814,-0.0232240636667,-0.000440097538533,-0.0397467504441,-0.00978898254211,0.0110395259612,-0.00347103529408,0.573936635095,0.818885481888,0.00201329350892,0.0,0.818842204364,-0.573876845369,-0.0119815525732,0.0,-0.00865630358564,0.00852538580205,-0.999926190379,0.0,0.661238487972,0.260318834288,0.303265765385,1.0,-0.00448,-0.005888,0.225
0.464691464995,0.54495343263,-0.124007318343,-1.36023205441,0.0793670879635,1.89565979216,0.158659394836,-0.00144767436718,-0.0280937153819,-0.000447843408613,-0.0389406645775,-0.00516510118355,0.0155467608524,-0.00911878655691,0.573932908253,0.818888119853,0.00200272047803,0.0,0.818844419438,-0.573872883519,-0.0120198676331,0.0,-0.00869378721365,0.0085386784706,-0.999925751761,0.0,0.661164150271,0.260226063826,0.303258795372,1.0,-0.00478,-0.00628228571429,0.24
0.464616769548,0.544525855156,-0.124007639602,-1.36095638772,0.0793474851418,1.89591679272,0.158595059713,-0.00325166502522,-0.0262847084463,-0.00113023557408,-0.0473263730343,-0.00178367010787,0.013429148803,-0.00105295736774,0.57397681809,0.818857396269,0.0019808512516,0.0,0.818813166738,-0.573916642997,-0.0120595094761,0.0,-0.00873834326945,0.00854399046125,-0.999925318003,0.0,0.661080704655,0.260110388556,0.3032389646,1.0,-0.00512,-0.00672914285714,0.257
0.464549193235,0.54404133631,-0.124013698653,-1.36175151428,0.0793192367892,1.89620124894,0.158485285807,-0.00317141688093,-0.0269353867494,-3.42475750541e-05,-0.0483640384237,0.000264808361612,0.017578440119,-0.00170815697664,0.573983312369,0.818852876419,0.00196743601089,0.0,0.818808295305,-0.573923022557,-0.0120866298388,0.0,-0.00876818360232,0.00854864134426,-0.999925017033,0.0,0.66098780071,0.259988911258,0.303228247911,1.0,-0.00546,-0.007176,0.274
0.464462823439,0.543525085172,-0.124008666759,-1.36259017577,0.0792786593128,1.89649283754,0.158365943988,-0.00546544076168,-0.0335248552954,0.000162305059086,-0.0471499627181,3.54287703265e-05,0.0211942939761,-0.000823583804096,0.573988624244,0.818849199589,0.00194794052133,0.0,0.818804206007,-0.573928265846,-0.0121146518249,0.0,-0.00880226429563,0.00854881881736,-0.999924716086,0.0,0.660890048291,0.259855181754,0.303219439762,1.0,-0.0058,-0.00762285714286,0.291
0.46437434629,0.54293096371,-0.124017288792,-1.3635245706,0.0792222052511,1.89682842626,0.158265061402,-0.00722307532875,-0.0369338845943,0.00122233338898,-0.0516157564912,-0.00142061530347,0.0151228390856,-0.00820136299272,0.574022539921,0.81882544448,0.0019395968843,0.0,0.818780388122,-0.573962258968,-0.0121139675115,0.0,-0.00880613896828,0.00854195874839,-0.999924740597,0.0,0.66077900751,0.259694410786,0.303225023294,1.0,-0.00618,-0.00812228571429,0.31
0.464304734834,0.542405813083,-0.124022941091,-1.36433519524,0.0791753760399,1.89711806615,0.158141035246,-0.00935431032047,-0.0364351148827,-0.000665617462236,-0.0529639077072,-0.000967120692028,0.0206850609449,-0.00177240117636,0.574013337527,0.818831881997,0.00194531921765,0.0,0.818786864219,-0.573952997342,-0.012115061958,0.0,-0.00880384668915,0.00854717353056,-0.99992471622,0.0,0.660692254713,0.259575714259,0.30323519655,1.0,-0.00646,-0.00849028571429,0.324
0.464220370738,0.541751256426,-0.124031829285,-1.36534628593,0.0791166634936,1.8974983235,0.15800869853,-0.00254109341398,-0.0400657735791,-0.000170622147405,-0.0573832621681,-0.0034500471012,0.0188383388304,-0.00293006101634,0.57402083759,0.818826579236,0.0019641922121,0.0,0.818781833792,-0.57396043839,-0.0121025086625,0.0,-0.00878265623847,0.00855550178064,-0.999924831344,0.0,0.660579355918,0.259419704319,0.303250047173,1.0,-0.00682,-0.00896342857143,0.342
0.464137127839,0.541092330569,-0.124029692435,-1.36634886785,0.0790647806401,1.89787880075,0.15788396236,-0.00224665059877,-0.039850809665,-0.00184984001093,-0.0616439118671,-0.00230526640337,0.0307859709385,-0.00920428642141,0.574027205819,0.818822027041,0.00200047826292,0.0,0.818777674342,-0.573966567617,-0.0120932278108,0.0,-0.00875416221214,0.00857995389997,-0.999924871695,0.0,0.660465207144,0.259273021853,0.303271606894,1.0,-0.00716,-0.00941028571429,0.359
0.464057311541,0.540430514126,-0.124032235092,-1.36735760242,0.078999646835,1.89824630955,0.157752053509,-0.0038057546285,-0.0376295150891,0.000809251176307,-0.0657318154474,-0.00300646599411,0.0250064109951,-0.00907673473956,0.574024790636,0.818823683624,0.00201538396437,0.0,0.818779562239,-0.57396412385,-0.0120813862701,0.0,-0.00873593531145,0.00858533571869,-0.999924984909,0.0,0.66034786878,0.259122183607,0.303291186996,1.0,-0.00748,-0.00983085714286,0.375
0.463976031389,0.53976752475,-0.124032891695,-1.36835090359,0.0789385206066,1.89862273544,0.157620727456,-0.00445824960869,-0.0433553899454,-0.00077925472878,-0.0660927279714,-0.000599526868698,0.0308102953441,-0.00779900452736,0.574022956472,0.818824873704,0.00205391045209,0.0,0.818781278548,-0.573962146523,-0.0120589866156,0.0,-0.00869549875599,0.00860400422889,-0.999925176907,0.0,0.66023546039,0.258974581297,0.303319559577,1.0,-0.00778,-0.0102251428571,0.39
0.463866740709,0.538971009381,-0.124028643822,-1.36959830374,0.0788696870943,1.89909528262,0.157479801773,-0.00322087129779,-0.0438189351851,0.00126108848516,-0.0688895786049,-0.00276219109429,0.02086856385,-0.00763219769123,0.574044742337,0.818809545586,0.00207575356183,0.0,0.81876616125,-0.573983762346,-0.012056560703,0.0,-0.00868074528269,0.00862072803348,-0.999925161054,0.0,0.660093326257,0.258788199512,0.303329410023,1.0,-0.00814,-0.0106982857143,0.408
0.463760863437,0.538188009554,-0.124044619684,-1.37079168171,0.0788035782101,1.89956002359,0.157318405172,-0.00717173630909,-0.0511717039712,-0.00150107158841,-0.072532776173,-0.00736299503187,0.0356510410225,-0.00956134192492,0.574058862961,0.818799530766,0.00212065410838,0.0,0.818756785986,-0.573997743809,-0.0120275685681,0.0,-0.00863108300135,0.00864099864438,-0.999925415993,0.0,0.659965118682,0.25859849847,0.303355267762,1.0,-0.00848,-0.0111451428571,0.425
0.463653627209,0.537392393127,-0.124046341211,-1.37206135633,0.0787275674865,1.90003094788,0.15718031055,-0.00417390619476,-0.0468051576304,-0.00250682108171,-0.0778062192644,-0.000251737100199,0.022074462898,-0.0121475182318,0.57408452474,0.81878154909,0.0021166543021,0.0,0.818738741952,-0.574023409045,-0.0120310097926,0.0,-0.00863592598515,0.00863996976555,-0.999925383069,0.0,0.65981816707,0.258406110739,0.303353647433,1.0,-0.00882,-0.011592,0.442
0.463544926123,0.536594039798,-0.124050303001,-1.37328270911,0.0786603276943,1.90049536952,0.157025641388,-0.00338462316262,-0.0513570103877,-0.000993752813054,-0.0776667968535,-0.00879700825804,0.0315543321572,-0.0179791002582,0.574098993574,0.818771306614,0.00215405265174,0.0,0.818728958909,-0.574037690119,-0.0120153679585,0.0,-0.00860149671973,0.00866176270319,-0.999925491285,0.0,0.659681331856,0.258218220088,0.303376328768,1.0,-0.00914,-0.0120125714286,0.458
0.463425710483,0.53573066955,-0.124049122817,-1.37463973663,0.07858050614,1.90099532184,0.156847163776,-0.00480712746077,-0.0502838749241,0.000185743402052,-0.0801384494881,-0.00456635581045,0.03141486358,-0.0147867913531,0.574102872554,0.818768569976,0.00216042714219,0.0,0.818726261086,-0.574041497238,-0.0120173107946,0.0,-0.00859938710773,0.00866813797255,-0.999925454184,0.0,0.659523757061,0.258011520933,0.30338308078,1.0,-0.00948,-0.0124594285714,0.475
0.463303227856,0.534829975636,-0.124054482883,-1.37608121107,0.0785014449004,1.90151568259,0.156679142106,-0.00915801644635,-0.0492665353381,-4.5372905517e-05,-0.0855649127769,-0.00763192113354,0.0323107510743,-0.0153179432435,0.574127265487,0.818751505051,0.00214543753144,0.0,0.818708915786,-0.574065864698,-0.0120349949119,0.0,-0.00862221375007,0.00866627440679,-0.999925273767,0.0,0.659353573941,0.257790860788,0.303377802426,1.0,-0.00982,-0.0129062857143,0.492
0.463153089925,0.533827712244,-0.124055655467,-1.37773594098,0.0784045245999,1.90211444222,0.156483423216,-0.0103526088042,-0.0511384654766,0.000893694481683,-0.0821401574801,-0.00819266777417,0.0271794009951,-0.00487499086892,0.57415546732,0.818731847935,0.00209938698266,0.0,0.818688584182,-0.574094185108,-0.0120671312389,0.0,-0.00867466581367,0.00864732001988,-0.999924984201,0.0,0.659158865908,0.25753287177,0.303349141669,1.0,-0.0102,-0.0134057142857,0.511
0.463033887728,0.532959712367,-0.124058530598,-1.37914497929,0.0783326406209,1.90265814596,0.15630118556,-0.00542396114718,-0.0560996002602,-0.00090591790925,-0.0901549480429,-0.00749250189896,0.0337317802916,-0.0120070110726,0.574163920545,0.818725902907,0.00210598081784,0.0,0.818682628563,-0.574102512587,-0.0120750003055,0.0,-0.00867723371235,0.00865732610797,-0.999924875338,0.0,0.658997451373,0.257322009986,0.303337835784,1.0,-0.01052,-0.0138262857143,0.527
0.462904570456,0.531998056935,-0.12406161837,-1.38070302776,0.0782439676585,1.9032220721,0.156094580105,-0.00772873707512,-0.0551266638431,-0.000603068505494,-0.09649377639,-0.00525538110924,0.0359262549862,-0.017055593241,0.574164076187,0.818725860651,0.00207981196872,0.0,0.818682161492,-0.57410269829,-0.0120978168402,0.0,-0.00871093755388,0.00864900330812,-0.999924654316,0.0,0.658811011049,0.257086595831,0.303323193931,1.0,-0.01086,-0.0142731428571,0.544
0.462778191251,0.53105267153,-0.124058863917,-1.38222730334,0.0781548393834,1.90376882848,0.155908825708,-0.00811457233449,-0.0537105879342,-0.000379550370587,-0.0916256995135,-0.00711504133235,0.0341592821213,-0.0121582934556,0.574172593154,0.818719952506,0.00205415194709,0.0,0.81867582336,-0.57411123196,-0.0121217360449,0.0,-0.00874516382549,0.00864181953682,-0.999924417676,0.0,0.658626114191,0.256859099555,0.303311270954,1.0,-0.01118,-0.0146937142857,0.56
0.462637780494,0.530015827473,-0.12406711203,-1.3838723506,0.0780513540457,1.90434975374,0.155688166282,-0.00813763323164,-0.0574569406369,-0.00092616182646,-0.0972551691273,-0.00502207462823,0.0324933058047,-0.0135576818465,0.574174194316,0.818718896868,0.00202716404231,0.0,0.818674422781,-0.574112958951,-0.0121345271903,0.0,-0.00877111443977,0.00862708582325,-0.999924317607,0.0,0.658428716913,0.256602866391,0.303309387044,1.0,-0.01152,-0.0151405714286,0.577
0.462505622987,0.529023140852,-0.124062165769,-1.38543779406,0.0779482610641,1.90493756494,0.155472803913,-0.0100860479726,-0.0637594938023,0.000265347818976,-0.0939016908788,-0.00438442969358,0.0367010907944,-0.0201022895674,0.574159877495,0.818728916049,0.00203568184431,0.0,0.818684593916,-0.574098646536,-0.0121254538606,0.0,-0.00875894614118,0.00862869659639,-0.999924410372,0.0,0.658244546721,0.256369156034,0.303314218005,1.0,-0.01184,-0.0155611428571,0.593
0.462365389532,0.527930274506,-0.124063124554,-1.38714298076,0.0778520306162,1.90559978308,0.155239379113,-0.011124006273,-0.0660434391873,0.000338532776149,-0.098113703393,-0.0104923423098,0.0405782934804,-0.0162471538268,0.574150991235,0.818735035829,0.00208020941065,0.0,0.818691262011,-0.574089534014,-0.01210666523,0.0,-0.00871809238997,0.00865426973153,-0.999924546394,0.0,0.658047753517,0.256117581652,0.303329502633,1.0,-0.01218,-0.016008,0.61
0.462226989533,0.526825448133,-0.124065256515,-1.38881131757,0.0777446594606,1.9062364528,0.155007673058,-0.0122653166283,-0.0691449386175,0.00312041512491,-0.103071826655,-0.00761536377109,0.040161305108,-0.0178635105984,0.574137427668,0.818744397304,0.00213844225994,0.0,0.818701468409,-0.574075805901,-0.0120673777115,0.0,-0.00865263651775,0.00867924611866,-0.999924898464,0.0,0.657854726793,0.255867579378,0.303368243397,1.0,-0.0125,-0.0164285714286,0.626
0.462080409456,0.525670307171,-0.124071236712,-1.390648394,0.0776336991779,1.90690302925,0.154756530618,-0.00826006687385,-0.0712943757299,0.000231795514826,-0.105626328503,-0.00398868296006,0.0429561961342,-0.010474086191,0.574125208352,0.818753003853,0.00212384501927,0.0,0.818709857301,-0.574063623414,-0.0120777783926,0.0,-0.00866966208932,0.00867313687348,-0.999924804001,0.0,0.657632035108,0.255592075569,0.303364555602,1.0,-0.01284,-0.0168754285714,0.643
0.461924645737,0.524481969164,-0.124083167801,-1.39251990787,0.0775112229107,1.90756921124,0.154500472974,-0.0119478097304,-0.0757694785055,-0.00282234847901,-0.112337221355,-0.00796819394556,0.0423987623111,-0.0167296961265,0.574119038958,0.818757385896,0.002102153332,0.0,0.818714024539,-0.574057616228,-0.0120808185003,0.0,-0.0086846694509,0.00865705699705,-0.999924813114,0.0,0.657405785403,0.255301585294,0.303367649296,1.0,-0.01318,-0.0173222857143,0.66
0.461770712988,0.523282036969,-0.124080515798,-1.39442104902,0.0773894996582,1.90827393872,0.154255407751,-0.00897590393685,-0.0719180031882,0.00117982558056,-0.109140226106,-0.0172006458772,0.0401724896749,-0.0136555141805,0.574111797816,0.818762465672,0.00210126555714,0.0,0.818719107187,-0.574050394244,-0.0120795404205,0.0,-0.00868420917529,0.00865551957406,-0.999924830421,0.0,0.657176130299,0.255020179426,0.303367360245,1.0,-0.01352,-0.0177691428571,0.677
0.461592181309,0.521983410551,-0.124084031284,-1.39649806101,0.0772695074344,1.90908272611,0.153957252986,-0.0125722944941,-0.0777640386276,-0.0013637226367,-0.117421251098,-0.0119840627328,0.0458991287348,-0.0167888930199,0.574095589347,0.81877376449,0.00212691699623,0.0,0.818730725171,-0.574034062232,-0.0120682210707,0.0,-0.0086603867327,0.00866985170419,-0.999924912867,0.0,0.656935349696,0.254706770822,0.303361645569,1.0,-0.01388,-0.0182422857143,0.695
0.461445091987,0.520878364121,-0.124089933926,-1.3982761951,0.0771582898188,1.90975152037,0.153719710402,-0.00880444390513,-0.0743010143405,-0.00128510827504,-0.116273156446,-0.00102779604751,0.0388957502645,-0.0130347010575,0.574090810165,0.81877713763,0.00211836706409,0.0,0.818734025193,-0.574029358707,-0.0120680667802,0.0,-0.00866521912003,0.00866271221225,-0.99992493288,0.0,0.65672337811,0.254437560235,0.303349773883,1.0,-0.01418,-0.0186365714286,0.71
0.461245694851,0.519399771222,-0.124093599132,-1.40055885416,0.0770188649349,1.91058121436,0.15342114913,-0.0113586484261,-0.0822885881439,0.000502020173515,-0.119220819068,-0.0122016481855,0.0475706213845,-0.0154697184292,0.574096058523,0.818773402528,0.00213958003692,0.0,0.818730538379,-0.574034487253,-0.0120606745743,0.0,-0.00864693330881,0.00867589228957,-0.999924976904,0.0,0.656447894376,0.254086753479,0.303373565192,1.0,-0.01456,-0.019136,0.729
0.46106989139,0.51807808278,-0.124099341459,-1.4026606355,0.0768785818102,1.91133369872,0.153137810454,-0.0114826362116,-0.0759667472674,0.00152701737161,-0.120070240643,-0.0113385228233,0.0466687130569,-0.0105353969397,0.574085637411,0.818780791352,0.00210796884084,0.0,0.818737574702,-0.574024262595,-0.0120696571879,0.0,-0.00867254517762,0.00865505677302,-0.999924935659,0.0,0.656189293278,0.25376434374,0.303366248905,1.0,-0.0149,-0.0195828571429,0.746
0.460914757023,0.516856629772,-0.124106293291,-1.40455063124,0.0767625869552,1.91200722137,0.152865927162,-0.00819838872961,-0.0797704588459,0.000538033538901,-0.123312675369,-0.00329663415556,0.0398680313826,-0.0238406358423,0.574063587675,0.818796242165,0.00211140300547,0.0,0.81875304291,-0.574002173581,-0.0120708885343,0.0,-0.00867181521637,0.00865834191389,-0.999924913549,0.0,0.655955446599,0.253477213639,0.303382207036,1.0,-0.0152,-0.0199771428571,0.761
0.460736033228,0.515497330307,-0.12410990069,-1.40672590328,0.0766191492112,1.91284825227,0.152575422837,-0.0136868939181,-0.0784117037786,0.00110154048332,-0.124995643994,-0.0133208351747,0.0518705520251,-0.0176043584257,0.574051035202,0.818805012852,0.00212292563588,0.0,0.818762092007,-0.573989701515,-0.0120501513853,0.0,-0.00864835341544,0.00865573956169,-0.999925139276,0.0,0.655697059965,0.253151442837,0.30337315594,1.0,-0.01554,-0.020424,0.778
0.460540109701,0.514111232597,-0.124118482236,-1.40897501127,0.0764878757585,1.91364200647,0.152268408649,-0.0128788254504,-0.0835836864082,-0.000150894979246,-0.135517342186,-0.00811469017615,0.0381084177416,-0.0177986206903,0.574049089929,0.81880652442,0.00206514390927,0.0,0.81876272491,-0.573987880712,-0.0120937998601,0.0,-0.00871728248929,0.00863346387887,-0.999924733311,0.0,0.655416354084,0.252801953324,0.30334343364,1.0,-0.01588,-0.0208708571429,0.795
0.460360772384,0.512772561522,-0.124118118653,-1.4111127252,0.0763584506379,1.9143842836,0.151964172665,-0.0148657279974,-0.0841392565901,0.000178671688638,-0.135719971609,-0.00683342911716,0.0430424319861,-0.0196854492966,0.574019645548,0.818827294942,0.0020135747468,0.0,0.818782667115,-0.573958513281,-0.0121373788601,0.0,-0.00878287782928,0.00861593989633,-0.999924310454,0.0,0.655124928209,0.252461695212,0.30332522157,1.0,-0.01622,-0.0213177142857,0.812
0.460167983055,0.511346853757,-0.124119176484,-1.41340804122,0.076209896441,1.9152545509,0.151652167061,-0.0125314317975,-0.0869931880963,-0.00197836030885,-0.139241412826,-0.00871414147735,0.0560223194174,-0.0184789569159,0.574006917141,0.818836221794,0.0020119280217,0.0,0.818791654252,-0.573945874007,-0.0121287896645,0.0,-0.00877692349995,0.00860952479714,-0.999924417992,0.0,0.654864790953,0.252132536814,0.303309823401,1.0,-0.01654,-0.0217382857143,0.828
0.459961106597,0.509876325298,-0.124122713225,-1.41573233922,0.0760743762006,1.91613679937,0.151310521089,-0.0152105401553,-0.084867295704,-0.000837672241537,-0.140673532814,-0.00413140737405,0.0501277050926,-0.0249382308086,0.573984049474,0.818852188543,0.00203744189649,0.0,0.818807900044,-0.57392284374,-0.0121218464176,0.0,-0.00875683461722,0.00862618609541,-0.999924450527,0.0,0.654585291448,0.251776460199,0.303309580756,1.0,-0.01688,-0.0221851428571,0.845
0.459735910404,0.508185059164,-0.124129741694,-1.418394876,0.0759036352116,1.91707115714,0.150945067165,-0.0120797378731,-0.0880094309947,-0.00188324984264,-0.142539831476,-0.0172519956641,0.0537007384635,-0.0225790182418,0.57396614304,0.818864828259,0.00200164592567,0.0,0.818820043635,-0.573905069475,-0.0121430751181,0.0,-0.00879495170713,0.00860886754174,-0.999924265244,0.0,0.654247418519,0.251367183181,0.30330684895,1.0,-0.01726,-0.0226845714286,0.864
0.459542286813,0.506827724826,-0.124128636971,-1.42050438173,0.0757730421768,1.91784466296,0.150658354687,-0.0133304807495,-0.0880772116492,0.00135064657158,-0.135391314502,-0.00514533032878,0.049381657731,-0.0173440294803,0.573963112037,0.818866909034,0.00201945805062,0.0,0.818822318262,-0.57390192193,-0.012138452203,0.0,-0.0087809750404,0.00862076710086,-0.99992428556,0.0,0.653988021965,0.251040130177,0.30331901275,1.0,-0.01756,-0.0230788571429,0.879
0.45933606875,0.505318107125,-0.124142116869,-1.42283308154,0.0756221546969,1.91873411522,0.150339167285,-0.00880582931456,-0.0934463912544,-0.00261788347584,-0.140777937652,-0.0171585654916,0.0535189871196,-0.0155122141532,0.573959871569,0.818869052672,0.00207058091608,0.0,0.818825277316,-0.573898603752,-0.0120956496519,0.0,-0.00871661749712,0.00863802782237,-0.999924699692,0.0,0.653709981187,0.250676937153,0.303343331695,1.0,-0.01788,-0.0234994285714,0.895
0.459098877758,0.503574602036,-0.124140477549,-1.42545148045,0.0754641534848,1.91973560225,0.149970339762,-0.0110620654646,-0.0907952087695,0.00092832465911,-0.140683763794,-0.00267123483767,0.0549130387165,-0.015973445741,0.573943180721,0.81888046696,0.00218014583309,0.0,0.818838116001,-0.573881440909,-0.0120407003456,0.0,-0.00860891483771,0.00869603178659,-0.999925130005,0.0,0.653394642717,0.250277554144,0.303401770003,1.0,-0.01824,-0.0239725714286,0.913
0.458869787921,0.501869342366,-0.12414974778,-1.42795888498,0.0752955243062,1.92065875696,0.149613028134,-0.0114743224121,-0.0941259903619,-0.000645785427549,-0.145087932902,-0.0075472409921,0.0546860695141,-0.0265188769141,0.573927457511,0.818891227575,0.00227548148207,0.0,0.818850271091,-0.573865478287,-0.0119746927396,0.0,-0.00850031422572,0.00873605178304,-0.999925710269,0.0,0.653089167272,0.249882919591,0.30347909431,1.0,-0.01858,-0.0244194285714,0.93
0.458648930355,0.5002442788,-0.124150089994,-1.43040535088,0.075138891135,1.92151276821,0.149274739606,-0.0128664640453,-0.0990195888476,-0.000588501908292,-0.149622146138,-0.0101524658858,0.0587894143319,-0.0270173925118,0.573918426276,0.818897495574,0.00229752566783,0.0,0.818856756946,-0.573856286828,-0.0119716570834,0.0,-0.0084852738227,0.00875226751888,-0.99992569621,0.0,0.652756712676,0.249474396989,0.303520404788,1.0,-0.01892,-0.0248662857143,0.947
0.45841007153,0.498651344085,-0.124153634777,-1.43288035521,0.0749832778594,1.92243053462,0.148929002782,-0.0123898794841,-0.0953198432175,-0.000348140207314,-0.149987056935,-0.0170884388507,0.0560573653721,-0.0267696141356,0.57391270445,0.818901411741,0.0023307552231,0.0,0.818861133037,-0.573850459015,-0.0119516689569,0.0,-0.00844989631349,0.00876794832672,-0.999925858419,0.0,0.65247321478,0.249109085492,0.303535262383,1.0,-0.01922,-0.0252605714286,0.962
0.45814562815,0.496981792819,-0.124148354163,-1.43553670552,0.0748243050921,1.92339202598,0.148530649548,-0.0206401785516,-0.0949128386844,5.93323874878e-05,-0.154481664447,-0.0122464756795,0.0499346778382,-0.0170735532337,0.573891099034,0.818916603023,0.00231314582308,0.0,0.818875936411,-0.573828763623,-0.0119790528476,0.0,-0.00848265897516,0.00876902008686,-0.999925571622,0.0,0.652140144188,0.248686255669,0.303518020691,1.0,-0.01956,-0.0257074285714,0.979
0.457881368879,0.495324036767,-0.124151471458,-1.43825409598,0.0746639073412,1.92432143496,0.148142367854,-0.0123985756944,-0.0916581950841,-0.000144882974231,-0.158898446416,-0.00507335938549,0.0494574521713,-0.0211699428907,0.573885581481,0.818920763229,0.00220676728221,0.0,0.818878458197,-0.573823431601,-0.0120617970828,0.0,-0.00861152709691,0.00872933368894,-0.999924817341,0.0,0.651786196382,0.248249073151,0.303460460685,1.0,-0.0199,-0.0261542857143,0.996
0.457584928901,0.493456224296,-0.124185191296,-1.44118715553,0.0744779053741,1.92537979778,0.147720410573,-0.0197064113573,-0.132030798083,-0.0053775234364,-0.19680688945,-0.00728599840745,0.0691380284337,-0.0334588671588,0.573904247042,0.818907724107,0.00219123861049,0.0,0.818865313524,-0.573842258805,-0.0120584914823,0.0,-0.00861753241628,0.00871491655553,-0.999924891362,0.0,0.65142610218,0.247754883802,0.30345781406,1.0,-0.0293674285714,-0.0385971918367,1.013
0.457249210728,0.490526012565,-0.124264889635,-1.44564152498,0.0742373294455,1.92709684373,0.147061928846,-0.0238750337272,-0.183852611344,-0.00164354618425,-0.301622397282,-0.015004329282,0.113764294287,-0.0378709784333,0.573856541728,0.818940699889,0.00235509703812,0.0,0.818900530941,-0.573793989764,-0.0119634709186,0.0,-0.00844619533683,0.00879407557654,-0.999925660246,0.0,0.650876667366,0.247077534037,0.303527625256,1.0,-0.0426662857143,-0.0560756897959,1.03
0.456731501648,0.486832609639,-0.124290917807,-1.45151311792,0.0739298604404,1.92931277453,0.146179339503,-0.0380430565993,-0.256281831644,-0.0030070207659,-0.400527742886,-0.0178835008035,0.147232516277,-0.0589476112626,0.573796223185,0.818982809014,0.00240825646937,0.0,0.818942894801,-0.573733006309,-0.0119883038022,0.0,-0.00843668093138,0.00885123838232,-0.999925236202,0.0,0.65008262895,0.246107761002,0.303486756839,1.0,-0.0559651428571,-0.0735541877551,1.047
0.455968732804,0.481789387346,-0.12443635057,-1.45949447385,0.0734475022577,1.93218287105,0.144956099874,-0.0520806756157,-0.313601523987,-0.00520639300886,-0.506747819459,-0.0346010339174,0.171845555595,-0.0675852176413,0.573777992612,0.818995812633,0.00232830081837,0.0,0.818955047424,-0.573715303418,-0.0120053248493,0.0,-0.00849669255808,0.00879533423726,-0.99992522136,0.0,0.649128588402,0.244835741539,0.303447548044,1.0,-0.0684817142857,-0.0900045387755,1.063
0.455129601884,0.476362088739,-0.124581230287,-1.46806768889,0.072932363829,1.93514735406,0.143705161524,-0.0588272970916,-0.378900453945,-0.00805359421237,-0.595290156362,-0.0321688542399,0.21143984001,-0.0841138222556,0.573823262903,0.818964553663,0.00216094781291,0.0,0.818921517855,-0.573761182682,-0.0120995761467,0.0,-0.00866942291888,0.00871283267621,-0.999924460973,0.0,0.648015148838,0.243381261676,0.303388463645,1.0,-0.080216,-0.105426742857,1.078
0.453832755965,0.468251927814,-0.124735051011,-1.48053786379,0.0722175178745,1.93970063015,0.141824498065,-0.0710916053554,-0.468007378708,-0.0025644209536,-0.681208331373,-0.0392430334949,0.266251627454,-0.112290661043,0.573863024286,0.8189362149,0.00233499094531,0.0,0.818895203591,-0.573799951381,-0.0120419364116,0.0,-0.00852192420755,0.00882270479737,-0.999924765514,0.0,0.646430636243,0.241276463021,0.303457841888,1.0,-0.0950794285714,-0.124961534694,1.097
0.452543206515,0.460466511368,-0.124820247146,-1.49257520064,0.0714523074336,1.94405472465,0.139913026159,-0.0896894362479,-0.501843945309,-0.00299866687665,-0.805268019446,-0.0533311848005,0.270821106795,-0.114447775281,0.573774493106,0.818998033709,0.00240805812911,0.0,0.818957968583,-0.573711124292,-0.0120057677707,0.0,-0.00845133317508,0.00886087230985,-0.999925027144,0.0,0.6448645487,0.239246251173,0.303474893306,1.0,-0.107596,-0.141411885714,1.113
0.450899975223,0.451107793945,-0.124973926837,-1.50697002403,0.07051199288,1.94902395494,0.137655671684,-0.0957706833753,-0.580223590062,-0.0114066884757,-0.845857996821,-0.0594569013205,0.317173354955,-0.139709439574,0.57378976928,0.81898756806,0.00232614138836,0.0,0.818946401042,-0.573726701048,-0.0120503787104,0.0,-0.0085347052488,0.00881953894172,-0.999924684433,0.0,0.642948225776,0.236709534889,0.30349043333,1.0,-0.120894857143,-0.158890383673,1.13
0.449182041815,0.441357714023,-0.125098248975,-1.52179215101,0.0695094804587,1.95430603173,0.135375385437,-0.112748469453,-0.625382365283,-0.00572828334196,-0.957749511678,-0.0633689399829,0.332786865339,-0.150232015838,0.573812473652,0.818971255916,0.00246454182617,0.0,0.818932270068,-0.573749235117,-0.0119373005933,0.0,-0.00836243807434,0.00886823555559,-0.999925709254,0.0,0.64097287826,0.234114347459,0.303575060947,1.0,-0.133411428571,-0.175340734694,1.146
0.446987870777,0.429299248456,-0.125244304185,-1.53995693538,0.0683089999314,1.96062527728,0.132405115054,-0.130166584919,-0.684153108792,-0.0142076670261,-1.04666288229,-0.0762267595544,0.363472957637,-0.166146453564,0.573749861466,0.81901460202,0.00263154836848,0.0,0.818977643231,-0.573685825484,-0.0118718333637,0.0,-0.00821368101839,0.00896681466762,-0.999926063106,0.0,0.638488322719,0.23088691236,0.303708100962,1.0,-0.147492571429,-0.193847379592,1.164
0.444607323486,0.417076106469,-0.125384266574,-1.55836147205,0.0670148506067,1.96700782634,0.129341458006,-0.147500739654,-0.734322847424,-0.00456743882234,-1.08944845386,-0.0682740225361,0.38503515786,-0.174172368714,0.573715107623,0.819038542392,0.00275468006974,0.0,0.819003494889,-0.573650962703,-0.0117726484152,0.0,-0.00806218314618,0.00901041233534,-0.999926904165,0.0,0.635944773502,0.227520855866,0.303808469141,1.0,-0.160791428571,-0.211325877551,1.181
0.441961757592,0.403962372698,-0.125533978871,-1.5781295139,0.0656290272718,1.9738695926,0.126032854397,-0.165666794998,-0.761384974542,-0.00828856615349,-1.20480197661,-0.0744112755157,0.403959512083,-0.208708697623,0.57370788399,0.819043140742,0.002888659233,0.0,0.819009991848,-0.573643447563,-0.011686540211,0.0,-0.00791487254341,0.00907067566912,-0.999927536192,0.0,0.633165055693,0.223866317883,0.303866109625,1.0,-0.174090285714,-0.22880437551,1.198
0.439177123393,0.390744285745,-0.125699704185,-1.59770058535,0.064261818988,1.98060638491,0.122666121654,-0.184252487141,-0.805958755494,-0.00731972509829,-1.25369490025,-0.100819854244,0.424307406847,-0.212266469148,0.57374603538,0.819015304015,0.00318835018612,0.0,0.818986112054,-0.573680698519,-0.0115304514096,0.0,-0.00761466781072,0.00922694295244,-0.999928437618,0.0,0.630378092903,0.220151215061,0.304033103178,1.0,-0.186606857143,-0.245254726531,1.214
0.4359435316,0.375985530437,-0.125848871144,-1.61975441071,0.0625686061062,1.98792818578,0.118714618974,-0.196730306214,-0.866799249386,-0.00742290185534,-1.33334149847,-0.10398336763,0.431355725481,-0.245942548214,0.573622150215,0.819102307617,0.00312815303675,0.0,0.819072734124,-0.573557495989,-0.0115066029593,0.0,-0.00763105633542,0.00916280360409,-0.999928902477,0.0,0.627115675377,0.215909495517,0.304054429025,1.0,-0.199905714286,-0.26273322449,1.231
0.432304601019,0.360406641871,-0.126032394058,-1.6428041538,0.0608221654558,1.99559279394,0.114602261486,-0.223320213376,-0.945354513742,-0.0147122606858,-1.38631936462,-0.10554182446,0.47183425942,-0.244260625892,0.573706309246,0.819042981969,0.00322665767107,0.0,0.819014933766,-0.573641651556,-0.0114254439136,0.0,-0.00750712895334,0.00919770716228,-0.999929520115,0.0,0.623676952014,0.211333227474,0.304120756937,1.0,-0.213204571429,-0.280211722449,1.248
0.428258180153,0.344120003727,-0.126269810987,-1.66690100307,0.0589826584582,2.00336317655,0.110053688525,-0.249624972899,-1.0083926421,-0.0183518800003,-1.41108012218,-0.118051484825,0.488120194511,-0.272030859708,0.573771892453,0.818997376072,0.00314011455978,0.0,0.818968052739,-0.573707296509,-0.0114897095594,0.0,-0.00760868183688,0.00916430234527,-0.999929059245,0.0,0.619987506704,0.206391013695,0.304104173719,1.0,-0.226503428571,-0.297690220408,1.265
0.424953637634,0.331268136186,-0.126383442347,-1.68597563099,0.057513174149,2.00943701883,0.106429351383,-0.255744750758,-0.99150666332,-0.00826506151139,-1.47657688625,-0.10320482749,0.464732937067,-0.283209780409,0.573792022375,0.818983825674,0.002992531287,0.0,0.818952008426,-0.573727205073,-0.011638253996,0.0,-0.00781479562944,0.00912885256374,-0.999927793903,0.0,0.616979667258,0.202481727487,0.304008424395,1.0,-0.236673142857,-0.311056130612,1.278
0.419529788508,0.310479195086,-0.126562601966,-1.71607595144,0.0550623736512,2.01896389563,0.100421934754,-0.275034499102,-1.03916225825,-0.0116532469515,-1.51568399739,-0.109486418214,0.47799215324,-0.308144290997,0.573649300111,0.819083406491,0.0030984825513,0.0,0.819052970199,-0.573584163661,-0.0115838727186,0.0,-0.00771106586585,0.00918307861709,-0.999928102681,0.0,0.612143587803,0.196223087907,0.304090594982,1.0,-0.252318857143,-0.331619069388,1.298
0.414419221556,0.292003578848,-0.126758227936,-1.74263511595,0.0528061177564,2.0271518544,0.0949444641005,-0.306475121173,-1.10554532342,-0.00940275611171,-1.53185941179,-0.115972343585,0.476479135057,-0.321374029332,0.573574747449,0.819135617935,0.00309764760493,0.0,0.819105366068,-0.573509856087,-0.0115581638168,0.0,-0.00769132030992,0.00916694715973,-0.999928402773,0.0,0.60776788351,0.19051731245,0.304134537637,1.0,-0.265617714286,-0.349097567347,1.315
0.408162872305,0.270551943775,-0.127010913938,-1.77307163285,0.0502577343043,2.03650157216,0.0883719357622,-0.34172444608,-1.16253201374,-0.0152773360858,-1.58066699886,-0.13825453136,0.5174727093,-0.358655865976,0.57353580024,0.819161891023,0.00335097596051,0.0,0.819134751564,-0.573469935231,-0.0114559621366,0.0,-0.00746274732125,0.00931548462436,-0.999928762037,0.0,0.602667096616,0.183804917377,0.304245734663,1.0,-0.280481142857,-0.368632359184,1.334
0.402731291611,0.253149559528,-0.127272579018,-1.79764325696,0.0480493556599,2.04380989425,0.0829501046777,-0.370143879222,-1.16420447702,-0.0175093040366,-1.60498676382,-0.14919928928,0.507112158008,-0.362282698414,0.573650952421,0.819081182582,0.00336868334023,0.0,0.819054691091,-0.573585545566,-0.0113921824428,0.0,-0.00739903665029,0.00929445114806,-0.999929431227,0.0,0.598456756298,0.178156927575,0.304277356603,1.0,-0.292215428571,-0.384054563265,1.349
0.396572045327,0.233967827483,-0.127504805124,-1.82441635648,0.0456406763702,2.0515737141,0.0767599322537,-0.390996401421,-1.22382652329,-0.00999221700949,-1.67748113723,-0.146398327544,0.502998864536,-0.396675533998,0.573637416952,0.819090319753,0.00345092170066,0.0,0.819064747323,-0.573571598898,-0.011371346968,0.0,-0.00733495076702,0.00934973842418,-0.999929387951,0.0,0.593731952655,0.171957165332,0.304334927969,1.0,-0.304732,-0.400504914286,1.365
0.388752787432,0.210493665919,-0.127757942133,-1.85694491751,0.0425853530168,2.06075998572,0.068907221214,-0.422074394747,-1.26262123234,-0.016721465241,-1.74429149821,-0.172582137763,0.481959825946,-0.426264229883,0.573463715439,0.819211871631,0.00346747094222,0.0,0.8191864438,-0.573397786237,-0.0113708369982,0.0,-0.00732702556513,0.00936144785965,-0.999929336499,0.0,0.587811848618,0.164327754339,0.304348829757,1.0,-0.319595428571,-0.420039706122,1.384
0.382005353356,0.191463474986,-0.128021550738,-1.88305250045,0.0400698585625,2.06784517569,0.0623231831851,-0.460419289803,-1.30332817448,-0.0234225962092,-1.75830140707,-0.168633344015,0.485103223547,-0.447500293876,0.573432202474,0.819234185765,0.00340660253748,0.0,0.819207724791,-0.573366137531,-0.0114334105401,0.0,-0.0074135529692,0.009347180864,-0.999928832189,0.0,0.582942681788,0.157969734349,0.304338592246,1.0,-0.331329714286,-0.435461910204,1.399
0.373184622984,0.168007244177,-0.128475908524,-1.91476719289,0.0370006429014,2.0761405761,0.0539424224784,-0.497512846853,-1.30087436062,-0.0231132695899,-1.76852361694,-0.177287763613,0.440052725665,-0.47501306034,0.573608056808,0.819111104741,0.00339737502867,0.0,0.819083787678,-0.573541069665,-0.0115385038658,0.0,-0.00750292699513,0.00940149459546,-0.999927656376,0.0,0.576903113667,0.14992358066,0.304363937622,1.0,-0.345410857143,-0.453968555102,1.417
0.364318790075,0.145286678611,-0.128825367185,-1.94515384589,0.0338100095012,2.08387280627,0.0455314431088,-0.53265374065,-1.34156465248,-0.0209065340144,-1.80076060051,-0.194617275904,0.440745307412,-0.499231453192,0.573544659244,0.81915575659,0.00333424626663,0.0,0.819127866455,-0.573478178775,-0.0115353269102,0.0,-0.00753725708162,0.00934737913862,-0.999927905531,0.0,0.570937884009,0.14213002279,0.304364441087,1.0,-0.358709714286,-0.471447053061,1.434
0.355318399799,0.123409823061,-0.129211219482,-1.97392653412,0.0307619523628,2.09093622131,0.0370815935197,-0.585596248946,-1.3679517218,-0.0207966131174,-1.81614592839,-0.198707594996,0.433713621957,-0.535872468675,0.573532802302,0.819163790441,0.00339941406145,0.0,0.819136682759,-0.573466048614,-0.0115122954579,0.0,-0.0074811510699,0.00938744456992,-0.999927951536,0.0,0.565159659027,0.134506219581,0.304414794595,1.0,-0.371226285714,-0.487897404082,1.45
0.345588361904,0.101017963808,-0.129710886528,-2.00284499525,0.027564572002,2.0977133072,0.0281758264597,-0.62370786081,-1.40854786579,-0.0299718688073,-1.77786413231,-0.199290979053,0.416069098818,-0.584725280755,0.573676969876,0.81906228738,0.00352853058677,0.0,0.819037384331,-0.573610503129,-0.0113798361069,0.0,-0.00729693287508,0.00941852969367,-0.999929020515,0.0,0.558855484015,0.126022570595,0.304537855811,1.0,-0.384525142857,-0.505375902041,1.467
0.334720501112,0.076807362389,-0.130106270204,-2.03382677819,0.0241446493045,2.10465941123,0.0180695803031,-0.650140913116,-1.42816232936,-0.0324555286882,-1.79844270109,-0.192893697878,0.389773809683,-0.596176192599,0.573565323612,0.819140012671,0.00363401872547,0.0,0.81911559293,-0.573497430802,-0.0114494184612,0.0,-0.00729471682673,0.00954385455667,-0.99992784837,0.0,0.552637213679,0.117974205533,0.304577135418,1.0,-0.38998,-0.512545142857,1.483
0.323095368094,0.0527664924261,-0.130613104565,-2.06433195474,0.0204807855196,2.11113656438,0.00764050867076,-0.69510324416,-1.42271621857,-0.0317174194256,-1.78242683428,-0.213023252553,0.371314113674,-0.611806312844,0.573677771431,0.819061761174,0.00352034797412,0.0,0.819036195288,-0.573610610749,-0.0114597096773,0.0,-0.00736704287773,0.00945765520888,-0.999928137136,0.0,0.545999616238,0.109135465446,0.304536029642,1.0,-0.38998,-0.512545142857,1.5
0.30954836578,0.0261342499343,-0.131041787068,-2.09741817035,0.0165217390493,2.11756650045,-0.00432831184122,-0.722181322958,-1.39210583868,-0.022801543452,-1.71032389024,-0.214907079522,0.312256720319,-0.645719179538,0.573825206604,0.818958633451,0.00348365652812,0.0,0.818931607681,-0.573756880668,-0.011610802238,0.0,-0.00751013942465,0.0095156306396,-0.99992652259,0.0,0.538532896543,0.099340894362,0.30454485636,1.0,-0.38998,-0.512545142857,1.519
0.297634997782,0.00400485338623,-0.131482715449,-2.12428775995,0.0130955072057,2.12258462801,-0.014810688546,-0.757043139805,-1.39286749289,-0.031612876221,-1.63319031654,-0.202807668393,0.290459975552,-0.666940861566,0.573966557995,0.818858979416,0.0036206399856,0.0,0.818834313781,-0.573898552948,-0.0114701525955,0.0,-0.0073146982302,0.0095483720987,-0.999927659273,0.0,0.532349429171,0.0910261330042,0.304643391716,1.0,-0.38998,-0.512545142857,1.535
0.285414346085,-0.0177907213044,-0.131790593227,-2.15048534868,0.00977677706274,2.12714024455,-0.0256068468614,-0.76615570458,-1.34622204988,-0.0255981665134,-1.61492922381,-0.207749640949,0.264926992088,-0.688275835061,0.573963570679,0.818860675804,0.00370945504181,0.0,0.818836665831,-0.573894659719,-0.0114970055966,0.0,-0.00728574960681,0.00963648571501,-0.999927025335,0.0,0.52572197758,0.0823258952947,0.304666487005,1.0,-0.38998,-0.512545142857,1.552
0.270251883739,-0.0433546011285,-0.132333348492,-2.18078833481,0.00573908496781,2.13185206655,-0.038851357418,-0.818401020063,-1.31448397691,-0.0323058904982,-1.605107177,-0.195829117374,0.234044874445,-0.703601141785,0.574150561657,0.818729679742,0.00368659188915,0.0,0.81870497366,-0.574081164813,-0.0115641347348,0.0,-0.00735163890381,0.00965797151444,-0.999926335783,0.0,0.518703402229,0.0729853174051,0.304674772955,1.0,-0.38998,-0.512545142857,1.57
0.257132605774,-0.0646571652728,-0.132652474558,-2.20554518909,0.00238070198075,2.13541375951,-0.050386493156,-0.833893354879,-1.31887675473,-0.0220985199296,-1.56969331683,-0.208381011453,0.208929790771,-0.729452532069,0.574114141861,0.818754853885,0.00376673021821,0.0,0.818730921247,-0.57404415868,-0.0115641420034,0.0,-0.0073060685817,0.00972326316726,-0.999926037022,0.0,0.51245514603,0.0648218029891,0.304707410741,1.0,-0.38998,-0.512545142857,1.586
0.2426629788,-0.0869276932338,-0.133111513737,-2.23106459913,-0.00120680740824,2.1387072842,-0.0631115994349,-0.861715934719,-1.29957784545,-0.0269382688708,-1.51733913028,-0.21559972362,0.18506809501,-0.766260768255,0.574145919368,0.818732441906,0.00379456787844,0.0,0.818708596204,-0.574075482543,-0.0115897258876,0.0,-0.0073106569439,0.00976102709593,-0.999925635558,0.0,0.505838949021,0.0560624845883,0.304715557014,1.0,-0.38998,-0.512545142857,1.603
0.229642555278,-0.106387722076,-0.133349492228,-2.25292074104,-0.00431765537045,2.14115374825,-0.0745971603839,-0.871521684714,-1.27037675736,-0.0146729870765,-1.44843318317,-0.19667127483,0.143457099601,-0.760622511495,0.574002923275,0.818832422008,0.00385430170141,0.0,0.818808966905,-0.573931810308,-0.0116146344991,0.0,-0.00729847346292,0.00982296007196,-0.999925118067,0.0,0.499985382261,0.0485089772181,0.304758878446,1.0,-0.38998,-0.512545142857,1.618
0.214278174129,-0.128082807031,-0.133789085795,-2.2771391681,-0.00793959867171,2.14359382977,-0.0880863473065,-0.90878733442,-1.27356037391,-0.0255942873187,-1.40691048832,-0.198575430612,0.130588465849,-0.801442877172,0.573988825918,0.818842686894,0.00377210054054,0.0,0.818817910471,-0.573917632055,-0.0116845200544,0.0,-0.00740305131802,0.00979563602651,-0.999924617332,0.0,0.493338183307,0.0397871582392,0.304706273086,1.0,-0.38998,-0.512545142857,1.635
0.19946681205,-0.148271263414,-0.134075766994,-2.29924281594,-0.011293711682,2.14546761235,-0.101268870339,-0.941732613964,-1.2520912779,-0.0253915028224,-1.38065080241,-0.210197164972,0.118194902176,-0.83875745401,0.573733163026,0.819021977535,0.00374230663873,0.0,0.818996582686,-0.573661797154,-0.0117254823809,0.0,-0.00745675298091,0.00979242297739,-0.999924249775,0.0,0.487079589658,0.0317100390649,0.304685526974,1.0,-0.38998,-0.512545142857,1.651
0.183085156353,-0.169455734764,-0.134559894228,-2.32203981902,-0.0147813299027,2.14694488478,-0.115650191775,-0.960678556307,-1.27259408264,-0.0216929183077,-1.32910283946,-0.200983631605,0.0989433006211,-0.85992641749,0.573810583965,0.818967860159,0.00371546196786,0.0,0.818941039295,-0.573737891677,-0.0118807707979,0.0,-0.0075984144144,0.00986024615523,-0.99992251682,0.0,0.480416226892,0.0229879582277,0.304659436657,1.0,-0.38998,-0.512545142857,1.668
0.166170720615,-0.190264440519,-0.135081938425,-2.34407395915,-0.0183030916627,2.1479591506,-0.130595993149,-1.00822162814,-1.21837489484,-0.0355614895253,-1.26277200925,-0.196238221638,0.0528570660964,-0.872110636754,0.573829974234,0.818954731913,0.00361312196424,0.0,0.818925554958,-0.57375634165,-0.0120558182554,0.0,-0.00780026794652,0.00987705795252,-0.999920796636,0.0,0.473756268846,0.0142489303704,0.304617347427,1.0,-0.38998,-0.512545142857,1.685
0.148748691199,-0.210882800241,-0.135583740362,-2.36549949407,-0.0216575408027,2.14867862291,-0.146102036632,-1.03296035119,-1.20060093631,-0.0219495052512,-1.23377632874,-0.195301885069,0.0139560122418,-0.917480234337,0.573820543456,0.818960960166,0.00369817953053,0.0,0.818931481679,-0.573744787237,-0.0122022266374,0.0,-0.00787148756572,0.0100306370837,-0.999918709698,0.0,0.467081098813,0.00556315677026,0.304598032665,1.0,-0.38998,-0.512545142857,1.702
0.129607314985,-0.232358229886,-0.136215603918,-2.38722443613,-0.0254207139356,2.1490601894,-0.162975955097,-1.06505110908,-1.17879786044,-0.0254833496224,-1.20906847364,-0.206264734612,0.00923618652208,-0.950399927777,0.573952677773,0.818868006861,0.00377596578874,0.0,0.81884048154,-0.57387780583,-0.0120530770975,0.0,-0.00770308456589,0.0100100022438,-0.99992022799,0.0,0.460084553012,-0.00374714688558,0.3046658567,1.0,-0.38998,-0.512545142857,1.72
0.113224684711,-0.249962714096,-0.136766250566,-2.40460305017,-0.0282905578521,2.14913246144,-0.17758087639,-1.11237732426,-1.16075074648,-0.0380804448353,-1.16207222177,-0.191471599644,1.76096209235e-05,-0.983151505236,0.574084817293,0.818773752622,0.00411235596326,0.0,0.818750944646,-0.57400915982,-0.0118794774459,0.0,-0.0073662161587,0.0101870191004,-0.999920978628,0.0,0.454304620575,-0.0114613937522,0.304783937555,1.0,-0.38998,-0.512545142857,1.735
0.0930694634667,-0.270551180315,-0.137324995229,-2.4247993513,-0.0318565188353,2.14893604342,-0.195708609105,-1.1355271266,-1.13892837126,-0.0378024264819,-1.10065222962,-0.19954523111,0.000340534635069,-1.03332263076,0.57399038917,0.818839119078,0.00427517372085,0.0,0.818819431586,-0.573915625515,-0.0116764784136,0.0,-0.00710770514332,0.0102029781438,-0.999922686894,0.0,0.447351315385,-0.0206530807506,0.304829944431,1.0,-0.38998,-0.512545142857,1.753
0.0723198515313,-0.290679632887,-0.137938311446,-2.44431147644,-0.0352964549977,2.14814405885,-0.214446517414,-1.15751292218,-1.11403985737,-0.0319795861497,-1.06823958815,-0.199950768435,-0.0509192953724,-1.05185530655,0.573952400701,0.818865651765,0.0042933658086,0.0,0.818845199906,-0.573876151294,-0.0118088300904,0.0,-0.00720612384244,0.0102935065456,-0.999921054635,0.0,0.440303769355,-0.0298297071454,0.304795362662,1.0,-0.38998,-0.512545142857,1.771
0.0532373259685,-0.308163398278,-0.138500661897,-2.46083199932,-0.038368931107,2.14727164559,-0.231724232566,-1.19723368004,-1.06896319741,-0.0315354216304,-1.03135432056,-0.183141094059,-0.0619496354185,-1.08982626723,0.57392552484,0.818883919046,0.00440067805808,0.0,0.818865509608,-0.573849870764,-0.0116768960066,0.0,-0.00703682931004,0.0103054305612,-0.999922137536,0.0,0.434107395984,-0.0380479344321,0.304836317021,1.0,-0.38998,-0.512545142857,1.787
0.0324355471715,-0.326318693428,-0.139136001998,-2.47768068827,-0.0414316784047,2.14599928089,-0.250564523704,-1.23316983599,-1.06346592643,-0.0399255780794,-0.95511828227,-0.187446418547,-0.070318331661,-1.12891780378,0.574039086924,0.818803263774,0.00459225632669,0.0,0.818787067577,-0.573962415363,-0.0116460560106,0.0,-0.00690017898819,0.0104455725595,-0.999921635701,0.0,0.427504395068,-0.0467576946192,0.304880952505,1.0,-0.38998,-0.512545142857,1.804
0.0137002210637,-0.341898115884,-0.139617516683,-2.49207627253,-0.0442239235895,2.1446375407,-0.267779874632,-1.26749728109,-1.04173339156,-0.0408707121572,-0.941980480561,-0.189240063914,-0.0972385812164,-1.16664311913,0.573852317316,0.818934497275,0.00453365038928,0.0,0.818917241067,-0.573775409004,-0.0117080829467,0.0,-0.00698699043684,0.0104315958396,-0.99992117878,0.0,0.421627409141,-0.054376623147,0.304841144216,1.0,-0.38998,-0.512545142857,1.819
-0.00821022916726,-0.359068047251,-0.140291012417,-2.50747986611,-0.0471942037174,2.14286302585,-0.287831537112,-1.29523202918,-0.990242063256,-0.0268696009398,-0.886703396787,-0.173398720807,-0.106885489447,-1.17472637114,0.573916990556,0.818888298163,0.00468934785835,0.0,0.818873109964,-0.573839656245,-0.0116458404265,0.0,-0.00684584048809,0.0105239291728,-0.999921187586,0.0,0.414636331731,-0.0636111111245,0.304898752718,1.0,-0.38998,-0.512545142857,1.837
-0.0319839234777,-0.376629590508,-0.140979544763,-2.52314852634,-0.0503871163505,2.1407341011,-0.309769046041,-1.32581518924,-0.970773494744,-0.0480689279613,-0.832358433769,-0.165765962424,-0.140066758914,-1.22205170086,0.573877226836,0.818916434173,0.00464211822156,0.0,0.818899886266,-0.573798910874,-0.0117700065194,0.0,-0.00697514368252,0.0105561720239,-0.999919954098,0.0,0.4079597387,-0.0723273224838,0.304853935566,1.0,-0.38998,-0.512545142857,1.854
-0.053651054226,-0.39171008709,-0.14157120162,-2.53609996966,-0.0530409482632,2.13879472267,-0.329772853122,-1.36424373076,-0.932885529803,-0.0349716597559,-0.790659777902,-0.162451641864,-0.125393938501,-1.24468385474,0.573927621395,0.818879907178,0.00485076498113,0.0,0.818867247611,-0.573850485692,-0.0115237911486,0.0,-0.00665311527882,0.0105861584287,-0.999921831598,0.0,0.40179612077,-0.0805208322759,0.304963321468,1.0,-0.38998,-0.512545142857,1.87
-0.0771567438973,-0.407003266346,-0.142224745577,-2.5493633031,-0.0557334693949,2.13638286905,-0.351707483417,-1.37941686219,-0.891036680796,-0.0273754360577,-0.774088354142,-0.156144052561,-0.160968589371,-1.29971165277,0.573894437844,0.818903152235,0.00485266659091,0.0,0.818888704303,-0.573814442736,-0.0117907664587,0.0,-0.00687109793459,0.0107406559365,-0.999918709858,0.0,0.39511607526,-0.0891753095621,0.304902792287,1.0,-0.38998,-0.512545142857,1.887
-0.10126221102,-0.421696620694,-0.14288026622,-2.56153672886,-0.0583780410588,2.13416376247,-0.374298408077,-1.42552444696,-0.845664283319,-0.038571618688,-0.709534322993,-0.147855602668,-0.134294038685,-1.32994286951,0.573864098809,0.818922892689,0.0051028255369,0.0,0.818913663877,-0.573786541123,-0.0114089107091,0.0,-0.00641520905824,0.0107261443306,-0.99992189441,0.0,0.388597844179,-0.0978977817582,0.305040796297,1.0,-0.38998,-0.512545142857,1.904
-0.125898611787,-0.435473853482,-0.143521601461,-2.57330007021,-0.0608655346721,2.1315606825,-0.39746973702,-1.45641566012,-0.786544174959,-0.0378559186608,-0.678689521782,-0.151376136366,-0.150011669816,-1.36628623656,0.573853591961,0.818930699663,0.00503100827663,0.0,0.818917810089,-0.573771793345,-0.0118446773442,0.0,-0.00681345044358,0.0109173031119,-0.999917191264,0.0,0.381884851854,-0.106551280178,0.304905037719,1.0,-0.38998,-0.512545142857,1.921
-0.151011460543,-0.448702098857,-0.144174265152,-2.58389348299,-0.0632908466225,2.12916220766,-0.421254959462,-1.49304539034,-0.767231734471,-0.0537951622386,-0.619293603561,-0.143467450348,-0.136055393113,-1.42188925395,0.573804232848,0.818963901365,0.00525143099761,0.0,0.818955686658,-0.573724732854,-0.0115004827281,0.0,-0.00640572768649,0.0108999248051,-0.999920075952,0.0,0.375352173893,-0.115252422583,0.305044179947,1.0,-0.38998,-0.512545142857,1.938
-0.17970400047,-0.46226384834,-0.144797099301,-2.59503244904,-0.0658332659312,2.12627483459,-0.448509586505,-1.51089672529,-0.68106975831,-0.0209080572682,-0.558936593132,-0.135773617095,-0.145556722682,-1.44129728142,0.573727527155,0.81901792149,0.00520727988642,0.0,0.819007456883,-0.573645364847,-0.0117697859764,0.0,-0.00665266176085,0.0110176633846,-0.999917173162,0.0,0.367925738191,-0.124910237758,0.304968390437,1.0,-0.382114857143,-0.502208097959,1.957
-0.200918702734,-0.471330761279,-0.145098734919,-2.60240299744,-0.0674403115425,2.12433065925,-0.468621499026,-1.52888283971,-0.636551992588,-0.0319869002045,-0.495072976021,-0.0974400065764,-0.138832227281,-1.42501096022,0.573743152244,0.819006681358,0.00525338416433,0.0,0.818995941567,-0.573659378328,-0.0118874831098,0.0,-0.00672240442474,0.0111230764954,-0.999915539657,0.0,0.362603681245,-0.131878783847,0.304922542835,1.0,-0.371162857143,-0.487814040816,1.971
-0.225001923633,-0.480800051428,-0.145296935654,-2.6097858822,-0.0690392944279,2.12225108201,-0.491365578593,-1.50805329139,-0.5733438573,-0.0213677501676,-0.450013406262,-0.0897285037239,-0.126257505425,-1.42584755012,0.573871005055,0.818916102342,0.00540682740111,0.0,0.81890803333,-0.57378780948,-0.0117443407854,0.0,-0.00651538357116,0.0111676460556,-0.999916413236,0.0,0.356752308135,-0.13965931101,0.304989346395,1.0,-0.358646285714,-0.471363689796,1.987
-0.250194160654,-0.489741028208,-0.145298848144,-2.61688528331,-0.0704864567573,2.12007719416,-0.515281451007,-1.48135442759,-0.498977421731,-0.00545849074629,-0.400483508343,-0.0831218962781,-0.130867652237,-1.3892780281,0.5738823518,0.818907826677,0.00545569431911,0.0,0.818899266546,-0.573797053923,-0.0119029013607,0.0,-0.00661704515564,0.0112987466384,-0.999914272844,0.0,0.350666819769,-0.147579737808,0.304955941174,1.0,-0.345347428572,-0.453885191837,2.004
-0.277779469059,-0.498448235169,-0.145146755169,-2.62365103651,-0.0717118262375,2.11800383032,-0.541482347905,-1.45213121523,-0.445321753042,0.00105466981366,-0.33616669284,-0.0530319618639,-0.115917152949,-1.37559842819,0.57398134955,0.818837025723,0.00566414823433,0.0,0.818831066715,-0.573895068516,-0.0118693477813,0.0,-0.00646855923526,0.0114509852655,-0.999913512599,0.0,0.344189031368,-0.156096195666,0.304975360846,1.0,-0.330484,-0.4343504,2.023
-0.301698954296,-0.505028011551,-0.14485975007,-2.62871887573,-0.0726085985971,2.11632816042,-0.564308978811,-1.40093510447,-0.371523695201,0.0111997461265,-0.279107490865,-0.043710048818,-0.0957212741008,-1.33542607858,0.573983684175,0.818834566481,0.00578186289515,0.0,0.818829992751,-0.573896702203,-0.0118644457975,0.0,-0.00639694944414,0.0115445833311,-0.999912897023,0.0,0.338679671007,-0.163359748579,0.304990544446,1.0,-0.317185142857,-0.416871902041,2.04
-0.323679917028,-0.510417377135,-0.144542883264,-2.63273916459,-0.0733450821556,2.11501506161,-0.58526804436,-1.36257135405,-0.320896772113,0.0213858648767,-0.245976970129,-0.0358438920595,-0.0783675620084,-1.29275400132,0.574036364589,0.818796832516,0.00589458163443,0.0,0.818794926367,-0.573951178119,-0.0116473427427,0.0,-0.0061537237496,0.0115126734751,-0.999914791386,0.0,0.333713494515,-0.169984964085,0.305059988563,1.0,-0.304668571429,-0.400421551021,2.056
-0.345065176253,-0.51496206786,-0.144118045736,-2.63629709994,-0.0739439902739,2.11370489258,-0.605755770416,-1.31509705157,-0.267335720404,0.0266980206846,-0.215922066881,-0.0269423560338,-0.0662189134091,-1.25265860709,0.573998200751,0.818823574849,0.00589624515603,0.0,0.818820767545,-0.57391129995,-0.0117948008561,0.0,-0.00627406007444,0.0115983857588,-0.999913053029,0.0,0.328863270546,-0.17630842471,0.305022486424,1.0,-0.292152,-0.3839712,2.072
-0.365743518886,-0.518740698747,-0.143580012895,-2.63935428913,-0.0743891605744,2.1126024282,-0.625573421241,-1.27209776557,-0.222753555644,0.0493989162445,-0.173865604064,-0.0290654950597,-0.0658454520515,-1.22880278677,0.573946577202,0.818859914825,0.00587480311476,0.0,0.818855548386,-0.573857426864,-0.0119996421766,0.0,-0.0064548508478,0.0116979939037,-0.999910741936,0.0,0.324214775222,-0.182333317257,0.304945571058,1.0,-0.279635428572,-0.36752084898,2.088
-0.389353296286,-0.522353117295,-0.142940148343,-2.6421708019,-0.0747191774508,2.11153978853,-0.648200316164,-1.21037519212,-0.173229360279,0.0528205232128,-0.141230980677,-0.0198855512265,-0.0569146749643,-1.17528244704,0.573986537106,0.818831484033,0.00593320134469,0.0,0.818827295176,-0.573896078031,-0.0120788739426,0.0,-0.0064856461628,0.0117916052602,-0.999909443119,0.0,0.318999333379,-0.189188070472,0.304919067859,1.0,-0.264772,-0.347986057143,2.107
-0.407238146422,-0.52469116451,-0.142356502125,-2.64391765534,-0.0748442638324,2.11085430762,-0.665409633471,-1.19148936215,-0.155574692431,0.0335316936988,-0.107832941366,-0.00958690397567,-0.0406467236227,-1.12879555709,0.573967067886,0.818844637449,0.00600096698448,0.0,0.818841558597,-0.573876743607,-0.0120304597501,0.0,-0.00640738542287,0.0118191564221,-0.999909622393,0.0,0.315097174401,-0.194331051826,0.304939261259,1.0,-0.253037714286,-0.332563853061,2.122
-0.426691743196,-0.52667117199,-0.141679491778,-2.64545705375,-0.0749443580775,2.11024621903,-0.684145998771,-1.12559695176,-0.104940979001,0.042913039705,-0.0894004344606,-0.00499086926075,-0.0332533872895,-1.07404991608,0.573940142708,0.818863412247,0.00601428078966,0.0,0.818860454083,-0.573849670848,-0.0120357345703,0.0,-0.0064044529332,0.0118328757348,-0.99990947892,0.0,0.310879062562,-0.199903895779,0.304930341802,1.0,-0.239738857143,-0.315085355102,2.139
-0.445284819807,-0.528178955457,-0.140977594543,-2.64664602727,-0.0749781799165,2.10974629693,-0.702043557842,-1.06469760505,-0.0804447084269,0.0477005825765,-0.0628114224212,0.000814404347236,-0.033455318946,-1.03668238473,0.573928082175,0.818871915236,0.00600748119334,0.0,0.818868711898,-0.573837352666,-0.0120611882106,0.0,-0.00642937497123,0.0118418209967,-0.999909213085,0.0,0.306851209634,-0.20518938065,0.304917021788,1.0,-0.22644,-0.297606857143,2.156
-0.461947487231,-0.529154187151,-0.140345395841,-2.64743233976,-0.0749598822437,2.10939160873,-0.717989541987,-1.03117453268,-0.0521856434502,0.0295360178967,-0.0386017046662,0.00224000358092,-0.0212621006387,-0.978449237076,0.574029599998,0.818800817423,0.00599888438661,0.0,0.81879733142,-0.573938572294,-0.012090996377,0.0,-0.00645725089886,0.0118526885421,-0.999908904693,0.0,0.303251598687,-0.209917684813,0.304902272802,1.0,-0.213923428572,-0.281156506123,2.172
-0.478641072743,-0.529865457234,-0.139512623211,-2.64798575347,-0.0748989862363,2.10911362377,-0.73412258426,-0.956755161727,-0.0395201899559,0.0463409684557,-0.0283689524617,0.00177099365289,-0.00928261927544,-0.937877400447,0.57389410034,0.818896501866,0.00590150220103,0.0,0.818892023651,-0.573804018161,-0.0120643791763,0.0,-0.00649329724459,0.0117565954644,-0.999909805709,0.0,0.299680248356,-0.214594950707,0.304908691128,1.0,-0.200624571429,-0.263678008163,2.189
-0.494483626977,-0.530180834212,-0.138738425478,-2.64822990255,-0.0747712596654,2.10891049675,-0.749280460493,-0.899965602638,-0.00791904585373,0.0496726082558,-0.00767322045134,0.0100106374981,-0.00835702297434,-0.874255018715,0.573948717868,0.818858705685,0.00583406223657,0.0,0.81885343523,-0.573859061697,-0.0120654805608,0.0,-0.00653212007812,0.0117024343102,-0.999910188186,0.0,0.29630174353,-0.21903895816,0.304915977466,1.0,-0.187325714286,-0.246199510204,2.206
-0.509145297987,-0.530275162741,-0.137851538058,-2.64831416233,-0.0745091326167,2.10884114294,-0.763510448158,-0.851560948319,0.000395630458081,0.0465914062693,-0.00293571833175,0.0102302657974,-0.00235439153795,-0.821952633395,0.573783567993,0.818974735458,0.00579194997199,0.0,0.818969377895,-0.573694942931,-0.0120007260588,0.0,-0.00650560429372,0.0116294729853,-0.999911212294,0.0,0.293211348144,-0.223090707259,0.304929707579,1.0,-0.174026857143,-0.228721012245,2.223
-0.523783731419,-0.530137944469,-0.136942154734,-2.64826296005,-0.0741313415517,2.10882592422,-0.777538149643,-0.785502310852,0.0147534694923,0.0578620321258,0.00812044022339,0.0258144644586,0.00145022545792,-0.767431038794,0.573806638849,0.818958443753,0.00580995008577,0.0,0.818953415737,-0.573718107567,-0.0119826042008,0.0,-0.00648010608223,0.0116340002997,-0.999911325199,0.0,0.290122314352,-0.227108321333,0.304925715196,1.0,-0.159945714286,-0.210214367347,2.241
-0.535743932981,-0.529860405472,-0.136112454796,-2.64811295921,-0.0737147093466,2.10882710398,-0.789002085957,-0.737075858699,0.0211236733958,0.0548995550251,0.00695881872866,0.0224729081634,0.00139676150415,-0.696747080056,0.573814400868,0.818952673158,0.00585656763939,0.0,0.818948015032,-0.57372525329,-0.0120095509336,0.0,-0.0064753177581,0.0116877027413,-0.999910729948,0.0,0.287608308773,-0.230351210903,0.304914633364,1.0,-0.147429142857,-0.193764016327,2.257
-0.546938415994,-0.529441006754,-0.135325809779,-2.64788780675,-0.0733069331897,2.10884228229,-0.799665839042,-0.670647382284,0.0309876843751,0.0585491586444,0.0156045823024,0.0255926310969,0.00330715163159,-0.644273810167,0.573881419581,0.818905426996,0.0058961680036,0.0,0.818900678292,-0.573790999215,-0.0120960825916,0.0,-0.00652250512774,0.0117703196416,-0.999909454152,0.0,0.285245620028,-0.233376281176,0.304885849437,1.0,-0.134912571429,-0.177313665306,2.273
-0.557706195802,-0.528903152394,-0.134396915933,-2.64757953077,-0.0728073326827,2.10890966396,-0.810030274987,-0.619086940555,0.0304203441125,0.0573067598366,0.0225747772827,0.02569431682,0.00615224732495,-0.588945183973,0.573787468426,0.818971023056,0.00592885935062,0.0,0.818966212605,-0.573696045951,-0.0121629097504,0.0,-0.00655983377227,0.0118346885362,-0.999908450173,0.0,0.283014026757,-0.236237857536,0.304859578029,1.0,-0.121613714286,-0.159835167347,2.29
-0.567710095914,-0.528330009271,-0.133621990359,-2.64719452354,-0.0723402623203,2.10901848062,-0.819361476396,-0.56351277221,0.0286371569161,0.042073123979,0.0280167726418,0.0294811290823,0.00960440825736,-0.525454211755,0.574012652669,0.818812740997,0.00599305077661,0.0,0.81880874623,-0.573920862097,-0.0121584558369,0.0,-0.00651608713667,0.0118864987317,-0.999908121657,0.0,0.280928183603,-0.238925677001,0.304854620995,1.0,-0.108314857143,-0.142356669388,2.307
-0.575947844135,-0.527709693095,-0.132748200117,-2.64677933324,-0.0718572457701,2.10914834041,-0.827273740717,-0.495212257024,0.0391536053437,0.0523510101043,0.0223782136848,0.0329931463435,0.00328601816735,-0.469825197276,0.573891966498,0.818897281767,0.00599996705801,0.0,0.818893369031,-0.573800155789,-0.0121564087911,0.0,-0.00651219346239,0.0118900275048,-0.999908105069,0.0,0.279274134472,-0.241087108384,0.30485020855,1.0,-0.0957982857144,-0.125906318367,2.323
-0.584762651471,-0.527026515093,-0.131782335692,-2.64627527289,-0.0713242801134,2.10927315741,-0.83545135299,-0.441700414668,0.0360482348168,0.047120206581,0.0284315354241,0.0286031332559,0.00989233504875,-0.397080939359,0.573987144975,0.818830583518,0.00599831654938,0.0,0.818826834035,-0.573895659306,-0.0121299214789,0.0,-0.0064900678057,0.0118742301638,-0.999908436647,0.0,0.277505276095,-0.243390845803,0.304864820417,1.0,-0.080934857143,-0.106371526531,2.342
-0.590842984742,-0.526503842525,-0.131007037125,-2.64587967782,-0.0708559437347,2.10938289248,-0.841009028256,-0.387892971883,0.0361213149404,0.0465441847675,0.025921404897,0.0320813023,0.00702326357573,-0.348510960919,0.574089026509,0.818758991498,0.00602082909538,0.0,0.818755795826,-0.57399790012,-0.0120873636566,0.0,-0.00644081842535,0.011869040068,-0.999908816716,0.0,0.276319161349,-0.244950855139,0.304882454173,1.0,-0.0692005714287,-0.0909493224491,2.357
-0.596676770156,-0.525901308516,-0.130087666894,-2.64546484354,-0.0703271361904,2.10950281984,-0.846445181535,-0.315231579626,0.0345912885136,0.0575122057588,0.0201770814614,0.0356915987011,0.00304349961826,-0.30006675347,0.574013542373,0.818811936877,0.00601764911572,0.0,0.818808663087,-0.573922377893,-0.012092324367,0.0,-0.00644780018663,0.0118686896819,-0.999908775878,0.0,0.27522430125,-0.246403004314,0.304883849908,1.0,-0.0559017142858,-0.0734708244899,2.374
-0.601420376114,-0.525421680133,-0.12910686992,-2.64517579223,-0.0697640151091,2.10958668437,-0.850789089411,-0.264473930553,0.025873949151,0.053568196853,0.016926966043,0.0331622452857,0.000790164571192,-0.244300512993,0.573903904028,0.8188887904,0.00601704243401,0.0,0.818885187069,-0.573812174333,-0.0121402589303,0.0,-0.00648899468169,0.0118948379277,-0.999908198676,0.0,0.27437433567,-0.247499893318,0.30487125458,1.0,-0.042602857143,-0.0559923265308,2.391
-0.605523362127,-0.525050326596,-0.128085226886,-2.64491657348,-0.0692201730104,2.10964803829,-0.85434881733,-0.207488719758,0.0229024485572,0.058632897007,0.0126554808529,0.0317656792655,0.0100228881597,-0.171684375297,0.573872516202,0.818911083659,0.00597654660883,0.0,0.818907009627,-0.573781075141,-0.0121381338746,0.0,-0.00651094838195,0.0118602056857,-0.999908467347,0.0,0.273677800329,-0.248402713376,0.304883557851,1.0,-0.0285217142858,-0.0374856816328,2.409
-0.608185184718,-0.524748865867,-0.127233591666,-2.64472775742,-0.068691886395,2.10975846854,-0.856517854735,-0.146064421518,0.0172290864129,0.0559035326652,0.0107124551511,0.0332245140622,0.00390820405899,-0.1173521775,0.573909405073,0.818885089356,0.0059960070059,0.0,0.818881516273,-0.573818323824,-0.0120971257388,0.0,-0.00646566168583,0.0118529017495,-0.999908847815,0.0,0.27329365409,-0.248940005551,0.304889303967,1.0,-0.0198783783784,-0.0261258687259,2.425
-0.610192854027,-0.524542095588,-0.126681859341,-2.64460482211,-0.0683300272019,2.10976963487,-0.858198657412,-0.117577790044,0.0112338673238,0.0364648424261,0.00694921861491,0.0214809173978,-0.000517366252555,-0.0974728116903,0.573947924741,0.818857819792,0.00603303833196,0.0,0.818854420627,-0.573856107397,-0.0121388929942,0.0,-0.00647805628161,0.0119075018069,-0.999908118873,0.0,0.272965328171,-0.249354902018,0.304883864302,1.0,-0.0195583783784,-0.0257052972973,2.441
-0.611993687823,-0.524375938554,-0.126207995197,-2.6444335425,-0.0681149749991,2.10978810153,-0.859842486096,-0.101100305051,0.0125204692376,0.0238339325376,0.0149575034599,0.00630158882993,0.000860008785577,-0.0945609237143,0.573838242232,0.818935112519,0.00597495905034,0.0,0.818931361961,-0.573747443267,-0.0120848103504,0.0,-0.00646868258754,0.0118280354083,-0.999909122733,0.0,0.272654659575,-0.249784443455,0.30491653324,1.0,-0.0191983783784,-0.0252321544402,2.459
-0.613600099336,-0.524181320708,-0.125931198128,-2.64423978406,-0.067955240065,2.10988016046,-0.861409466767,-0.0901522500788,0.0111557647293,0.011916321804,0.0124066143974,0.00407441360852,0.00640350251018,-0.084384435652,0.573756494323,0.818992451119,0.00596633332894,0.0,0.818989227759,-0.573666921286,-0.011985622165,0.0,-0.00639356909894,0.0117634177635,-0.999910368121,0.0,0.272399461539,-0.250175678876,0.304945150171,1.0,-0.0188783783784,-0.0248115830116,2.475
-0.615105634301,-0.524003022674,-0.125810156301,-2.64407959033,-0.0678443614639,2.10992750254,-0.862886136085,-0.0904881584486,0.0104878643386,0.00819749046387,0.00811016098188,0.00676794354634,-0.00974284307279,-0.085783096079,0.573750117747,0.818996696981,0.00599663412312,0.0,0.818994105455,-0.573660861845,-0.0119422660541,0.0,-0.0063407642329,0.0117633110343,-0.999910705624,0.0,0.272099038533,-0.250590085959,0.304959569792,1.0,-0.0185383783784,-0.0243647258687,2.492
-0.616602742738,-0.523858293641,-0.125731848108,-2.64391920991,-0.0678149957428,2.1099291385,-0.864301352215,-0.0909127048582,0.00705870337818,0.00544360453997,0.0101153030589,0.00147941704056,-0.00103392675854,-0.072985413869,0.573782533443,0.818974096579,0.00598166778139,0.0,0.81897149803,-0.573693678895,-0.0119161701552,0.0,-0.00632751151628,0.011736331685,-0.999911106607,0.0,0.271777517148,-0.251014347872,0.304981400594,1.0,-0.0181983783784,-0.0239178687259,2.509
-0.617950520991,-0.523708308189,-0.125665426448,-2.6437587496,-0.0677805490588,2.10993943974,-0.865562212924,-0.0786786270962,0.00980505649566,0.000988796074809,0.00708019792412,0.00339025000109,-0.000616497650806,-0.0814482797309,0.573829649008,0.818941137807,0.00597441447621,0.0,0.818938642168,-0.573741179529,-0.0118872275015,0.0,-0.0063072934418,0.0117141479974,-0.999911494476,0.0,0.271492144555,-0.251400893688,0.305001791683,1.0,-0.0178783783784,-0.0234972972973,2.525
-0.619309083562,-0.523503508359,-0.125642765239,-2.64361221489,-0.0677457708976,2.10999955039,-0.866990182655,-0.0769259265403,0.0138766554538,8.24029655963e-05,0.00613539073259,-0.000247865706866,0.0059957849727,-0.0835653660202,0.573779422678,0.818976220465,0.00598926751089,0.0,0.818973963581,-0.573690990259,-0.0118760924934,0.0,-0.00629036964396,0.0117195372843,-0.999911537935,0.0,0.271197903658,-0.251802167108,0.304998940884,1.0,-0.0175383783784,-0.0230504401544,2.542
-0.620656130616,-0.523312361862,-0.125628618459,-2.6434736834,-0.0677196012551,2.11001055563,-0.868325621551,-0.0839339776538,0.0129812801521,0.00121041407465,0.00579505444625,0.00512168647669,0.000266874753677,-0.0827733666728,0.573797482455,0.818963453394,0.00600483425533,0.0,0.818961172266,-0.573708562765,-0.0119092498265,0.0,-0.00630833699002,0.0117514499212,-0.999911050199,0.0,0.270893896361,-0.252194345645,0.304993049107,1.0,-0.0171983783784,-0.0226035830116,2.559
-0.621910877544,-0.523141566645,-0.125624489285,-2.64335565257,-0.0676932411763,2.1100156127,-0.869559615595,-0.0801837387314,0.00880679839457,-0.00106254009605,0.00841921684363,0.0033428208808,-3.65115240812e-05,-0.0817353598028,0.573829142421,0.818941106128,0.00602718042212,0.0,0.818938841495,-0.573739615584,-0.0119488200696,0.0,-0.00632746956969,0.0117927003719,-0.999910443663,0.0,0.270605204419,-0.25255779826,0.304984553186,1.0,-0.0168783783784,-0.022183011583,2.575
-0.623179057976,-0.522938257024,-0.125603061244,-2.64324214769,-0.0676692724938,2.11004169482,-0.87083826071,-0.0695310285783,0.0156083518545,0.00431165568009,0.0116986099516,0.000164852294711,8.89003039418e-05,-0.076017030025,0.57382191101,0.818946088693,0.00603863889055,0.0,0.818943605826,-0.573731654801,-0.0120044015279,0.0,-0.00636652197024,0.0118339211723,-0.999909708778,0.0,0.27031766939,-0.252922143608,0.304964260198,1.0,-0.0165383783784,-0.0217361544402,2.592
-0.624421117294,-0.522761645932,-0.125554590089,-2.64312316979,-0.067633837719,2.11008564606,-0.872031495836,-0.0755312093721,0.00650751844924,0.00102123306533,0.00600362341963,0.000643062352154,0.00519127227286,-0.06758091153,0.573849088563,0.818927013813,0.00604288872094,0.0,0.818924548999,-0.573758739673,-0.0120099374228,0.0,-0.00636822458124,0.0118407895361,-0.999909616625,0.0,0.270047761974,-0.25327614448,0.304958421764,1.0,-0.0161983783784,-0.0212892972973,2.609
-0.625631869323,-0.522579971807,-0.125466357218,-2.64300541034,-0.0676120910186,2.11011497952,-0.873320364973,-0.0714175869906,0.007662353816,0.00831681286834,0.00749206964648,0.000500317210993,0.000832324299253,-0.0780644894183,0.573738297138,0.819004818376,0.00601836980006,0.0,0.819001878139,-0.573647784733,-0.0120370086571,0.0,-0.0064060669221,0.0118353768868,-0.99990943898,0.0,0.269789793822,-0.253611605303,0.304949847859,1.0,-0.0158583783784,-0.0208424401544,2.626
-0.626719580172,-0.522419669773,-0.125399025022,-2.64289934326,-0.0675842205415,2.1101383002,-0.874419935919,-0.0673681513556,0.00677073534845,0.00395888891074,0.00648814395597,0.001275117998,-0.000121595904922,-0.0592631532756,0.573698483947,0.819032730976,0.00601514820607,0.0,0.819029619379,-0.573607754642,-0.012057084835,0.0,-0.00642493516362,0.011843943869,-0.99990921648,0.0,0.269538986676,-0.253934472079,0.304943158209,1.0,-0.0155183783784,-0.0203955830116,2.643
-0.627901635481,-0.522247056807,-0.125359629678,-2.64278453705,-0.0675530717807,2.11017342418,-0.875678350365,-0.0644118135361,0.00659637582748,0.00203048500168,0.00728597860132,-0.000857481228599,0.00839463191004,-0.0709738060548,0.573627528408,0.819082419537,0.00601627449028,0.0,0.819079196469,-0.573536576703,-0.0120752638708,0.0,-0.00644020686614,0.0118547372848,-0.999908990328,0.0,0.269294990159,-0.25425154724,0.304935525005,1.0,-0.0151783783784,-0.0199487258687,2.66
-0.629045961064,-0.522070937764,-0.125357468342,-2.64267786114,-0.0675308527978,2.1102105188,-0.876861514424,-0.0673389775303,0.0063217789047,0.00102093235732,0.00585125360556,0.000347031890494,0.000694059458791,-0.0661240615584,0.573609350136,0.819095027996,0.0060328641387,0.0,0.819091851005,-0.57351801758,-0.0120983481911,0.0,-0.00644986474899,0.0118814242521,-0.999908611325,0.0,0.269048822025,-0.25456525582,0.304924198006,1.0,-0.0148583783784,-0.0195281544402,2.676
-0.630138962494,-0.521920636314,-0.125359518021,-2.64255739685,-0.0675004159335,2.11023078331,-0.877867135403,-0.064643198857,0.0065587101024,-0.000727589090072,0.007976530254,0.000629031848284,0.00306657425105,-0.0689273810259,0.573701803025,0.819030080527,0.00605931505256,0.0,0.819027201974,-0.573610250773,-0.0121024598981,0.0,-0.00643671740486,0.0119061761487,-0.999908401624,0.0,0.268785165891,-0.254907640946,0.304923775715,1.0,-0.0145183783784,-0.0190812972973,2.693
-0.631272032293,-0.521761656613,-0.125359019274,-2.64241370396,-0.0674793814331,2.11025821585,-0.878978837222,-0.0646670822734,0.00846638974154,0.00157217357702,0.0107964479238,0.00169396119152,4.63041499765e-06,-0.0739732123449,0.573735372849,0.819006466992,0.00607255029969,0.0,0.819003871499,-0.573643961011,-0.0120835163371,0.0,-0.0064131196892,0.0119064121917,-0.999908550441,0.0,0.26853255976,-0.255247122894,0.30493303285,1.0,-0.0141783783784,-0.0186344401544,2.71
-0.632348420031,-0.521598547164,-0.125350734633,-2.64229609577,-0.0674471108185,2.11030096274,-0.880097208132,-0.0704039071876,0.0112310132547,0.000878148698631,0.00606907499028,9.20403403066e-05,0.00421108877043,-0.064388953921,0.573715125796,0.819020494645,0.00609349536066,0.0,0.819018179073,-0.573623640571,-0.0120784198862,0.0,-0.00639722360352,0.0119204851652,-0.999908484594,0.0,0.268292933511,-0.255563725035,0.304930410072,1.0,-0.0138383783784,-0.0181875830116,2.727
-0.633497891162,-0.52141927771,-0.12529645923,-2.64215210492,-0.0674227480694,2.11033184737,-0.881221328448,-0.0561335660525,0.0117769698894,0.00374480073185,0.00671581165323,0.000313408511551,0.00567754302213,-0.0653504169028,0.573715388833,0.819020388773,0.00608295087967,0.0,0.819017961442,-0.573623996896,-0.0120762544406,0.0,-0.00640149525895,0.0119106083572,-0.999908574954,0.0,0.26804725878,-0.255895105041,0.30493390134,1.0,-0.0134583783784,-0.0176881544402,2.746
-0.634270616917,-0.521286161553,-0.125250681721,-2.6420662829,-0.0674058376656,2.11035449034,-0.88202190186,-0.0526600467051,0.0104829026935,0.0048392733349,0.00714140449865,0.00510359053391,0.000291342489452,-0.0570743994006,0.573666620599,0.819054629864,0.00607195275061,0.0,0.819052007423,-0.573575190244,-0.0120854115905,0.0,-0.00641601439107,0.0119064715515,-0.999908531164,0.0,0.267872262173,-0.256128358632,0.304930596076,1.0,-0.0131783783784,-0.0173201544402,2.76
-0.635283747538,-0.521106959046,-0.125183915678,-2.64195073094,-0.0673827134837,2.11037909131,-0.883115883258,-0.0502652693016,0.00929559858233,0.00694023232179,0.00236063505148,0.00247233946144,0.00619317314041,-0.058774139989,0.573574551257,0.819119195743,0.00606005083114,0.0,0.819116141518,-0.573482680285,-0.0121288506761,0.0,-0.00645976458831,0.0119209150526,-0.999908077388,0.0,0.267664920654,-0.256396709859,0.304917336856,1.0,-0.0128383783784,-0.0168732972973,2.777
-0.636322470942,-0.520949411533,-0.125152312118,-2.64183234834,-0.0673643769017,2.11039928075,-0.8841302857,-0.0500964982413,0.00392240847499,-0.000216333953332,0.004335440581,-0.000707927968396,0.00116342237964,-0.0571730071369,0.57358615355,0.81911108367,0.00605837977446,0.0,0.819107926333,-0.57349413752,-0.0121419170671,0.0,-0.00647125815494,0.0119271320355,-0.999907928931,0.0,0.267434092447,-0.25669589548,0.304915695588,1.0,-0.0124583783784,-0.0163738687259,2.796
-0.637219574876,-0.520798336624,-0.125135828531,-2.64172761262,-0.0673472938712,2.11042265531,-0.885027581342,-0.0561162403417,0.00746627594788,9.87401249629e-05,0.00914175439636,0.00143978949826,-0.000306582463796,-0.0619590413079,0.573587186117,0.819110325471,0.00606312875936,0.0,0.81910711123,-0.573494929834,-0.0121594690426,0.0,-0.00648289785845,0.011941097419,-0.999907686853,0.0,0.267233452975,-0.256957584011,0.304910138732,1.0,-0.0121383783784,-0.0159532972973,2.812
-0.638103550837,-0.520661547935,-0.125127004026,-2.64162073042,-0.0673391824183,2.11044151743,-0.885930683161,-0.0576325932464,0.0077590685831,-0.000154586154846,0.00817723011038,-0.00016741233576,0.000339610319522,-0.053990762303,0.573574342655,0.819119312821,0.00606396834562,0.0,0.819116066656,-0.573482006383,-0.0121657142261,0.0,-0.00648771965206,0.0119452654231,-0.999907605795,0.0,0.267033600462,-0.257218379395,0.304910231535,1.0,-0.0118183783784,-0.0155327258687,2.828
-0.638995200909,-0.520518775786,-0.125131215269,-2.64150312004,-0.0673280039607,2.11047483827,-0.886766697003,-0.0605063983324,0.00903339034824,-0.0011132588507,0.00618710787485,0.000170855523582,0.000945685893379,-0.0486520681425,0.573633799855,0.819077628576,0.00607033206127,0.0,0.819074547997,-0.573541574868,-0.0121529264816,0.0,-0.00647272701243,0.0119436138378,-0.999907722689,0.0,0.266833657637,-0.257488254796,0.304913920185,1.0,-0.0114983783784,-0.0151121544402,2.844
-0.640006971431,-0.520367805352,-0.125135570353,-2.64138227148,-0.0673176427545,2.11053087793,-0.88772984312,-0.0520842813345,0.00244625410869,-0.000704399318659,0.00271810713182,-0.000409602677896,0.00447470738036,-0.0553923399571,0.573687439066,0.819040025065,0.00607507206624,0.0,0.819037207968,-0.573595554544,-0.0121218263077,0.0,-0.00644375065437,0.0119300792456,-0.999908071418,0.0,0.26660657373,-0.25779395777,0.304917993223,1.0,-0.0111183783784,-0.0146127258687,2.863
-0.640850767303,-0.520234971431,-0.125129874858,-2.64126775672,-0.0673102054652,2.11056192609,-0.888570407791,-0.0521261093672,0.0081866217477,0.00186086563957,0.00546116804349,-0.000376904041197,0.00353642724382,-0.0527101163103,0.573695159528,0.81903462741,0.00607370871973,0.0,0.819031904135,-0.573603486075,-0.0121048615011,0.0,-0.0064305240419,0.0119192911511,-0.999908285224,0.0,0.266419355559,-0.2580480285,0.304923956188,1.0,-0.0107783783784,-0.0141658687259,2.88
-0.641671611636,-0.520113554061,-0.125108916303,-2.64116331362,-0.0673030948103,2.11058113952,-0.889439540472,-0.050133547912,0.00509506332369,0.00205352771359,0.00739111467748,-0.000225586208206,6.81242100721e-05,-0.0567336226501,0.573649206543,0.819066862489,0.00606708375705,0.0,0.819064097279,-0.573557653931,-0.0120983084156,0.0,-0.00642962497973,0.0119097448032,-0.999908404756,0.0,0.266237129793,-0.258288517032,0.304928888064,1.0,-0.0104383783784,-0.013719011583,2.897
-0.642372225179,-0.520018430669,-0.125100773337,-2.64109715052,-0.0672935408904,2.11059390099,-0.890128268869,-0.0443384222597,0.00488892115259,0.00199495981804,0.00175274560534,0.000875240643877,0.000220919877423,-0.0480233616428,0.573660765374,0.819058731294,0.00607189123035,0.0,0.81905594672,-0.573569037433,-0.0121104228196,0.0,-0.00643662266662,0.0119207225546,-0.99990822892,0.0,0.266073922511,-0.258489248897,0.304925243722,1.0,-0.0101383783784,-0.0133247258687,2.912
-0.64315882761,-0.519903693107,-0.125078284442,-2.64101765403,-0.0672828956158,2.11061529662,-0.890850885024,-0.0474592801346,0.00264972233195,0.0015555716492,0.00714587172353,0.00121481973172,0.00507605606247,-0.0371053096879,0.573705997546,0.81902707229,0.0060687838123,0.0,0.819024192065,-0.573614171616,-0.0121203067233,0.0,-0.0064458430341,0.0119242029958,-0.999908128025,0.0,0.265895536456,-0.258713752215,0.304921514735,1.0,-0.00979837837838,-0.0128778687259,2.929
-0.643928246939,-0.519799848771,-0.125061986481,-2.64095273576,-0.067275583002,2.1106455126,-0.891599708069,-0.0454726236032,0.00461972421671,0.00250103728541,0.00100707087002,-9.22500078825e-05,0.00217433879218,-0.0449940527151,0.573717922842,0.819018731837,0.00606702663386,0.0,0.819015801853,-0.573626052458,-0.0121249807294,0.0,-0.00645050599462,0.0119255390455,-0.999908082021,0.0,0.265718055771,-0.258932959591,0.304915770316,1.0,-0.00945837837838,-0.012431011583,2.946
-0.644682422202,-0.519710434951,-0.125050187894,-2.64088219717,-0.0672623946272,2.11066256137,-0.892342442973,-0.0448159944754,0.00148905990086,0.000336257412347,0.00426385016098,0.000152770287262,0.00306320802726,-0.0329030992086,0.573728243072,0.819011461616,0.0060725402404,0.0,0.819008616334,-0.57363636999,-0.012122223283,0.0,-0.00644493395383,0.0119285543078,-0.999908081985,0.0,0.265543423571,-0.2591482289,0.304916660515,1.0,-0.00911837837838,-0.0119841544402,2.963
-0.645360694053,-0.519609612879,-0.125042243975,-2.6407972446,-0.0672549670955,2.11067685377,-0.89299738196,-0.0427990492331,0.00526779894722,-0.0008535325361,0.0069466583914,0.000503824543938,-0.000631174342187,-0.0354472724963,0.573749302672,0.81899670777,0.00607266392129,0.0,0.818993878416,-0.5736574511,-0.0121203471586,0.0,-0.00644301956157,0.0119277449537,-0.999908103977,0.0,0.265389589228,-0.259347774486,0.304919569069,1.0,-0.00879837837838,-0.0115635830116,2.979
-0.646050601758,-0.519497369175,-0.125019692889,-2.64071701714,-0.0672412980326,2.1107009831,-0.893654291023,-0.037623484227,0.0107418142177,0.000311615305153,0.00415745402424,0.00480035371163,0.000119269891056,-0.0371712474407,0.573770410239,0.818981933809,0.00607085907597,0.0,0.818979058776,-0.57367852115,-0.012124461144,0.0,-0.00644711730424,0.0119287931627,-0.99990806506,0.0,0.265236528666,-0.259546454188,0.304917312171,1.0,-0.00845837837838,-0.0111167258687,2.996
-0.646689665917,-0.519414110997,-0.12500973536,-2.6406345671,-0.0672307652683,2.11072580232,-0.894250843565,-0.0379123271411,0.00497343497947,-0.000814309363818,0.00496844340236,-0.000600854841533,-0.00109281363528,-0.0352713959706,0.573806860481,0.818956398573,0.00607050256905,0.0,0.818953699073,-0.573715299011,-0.0120971631416,0.0,-0.00642443265309,0.0119131251017,-0.999908397862,0.0,0.265094786168,-0.259735798988,0.304926489447,1.0,-0.00813837837838,-0.0106961544402,3.012
-0.64732186776,-0.519294713111,-0.124991295167,-2.64053858933,-0.0672206528801,2.11075247178,-0.894882276509,-0.0349644481248,0.00752300644463,-0.000182234643109,0.0055761533638,-0.000474336210208,-0.000255969016949,-0.0365331014796,0.573803727913,0.818958633218,0.00606513080928,0.0,0.818955910505,-0.573712277185,-0.0120907632978,0.0,-0.00642231862641,0.0119050289865,-0.999908507869,0.0,0.264959100527,-0.259924544227,0.304928865755,1.0,-0.00779837837838,-0.0102492972973,3.029
-0.647931355047,-0.519200221013,-0.12497107549,-2.64046108817,-0.0672082073498,2.11077675977,-0.895481741655,-0.0356549475197,0.0070928381906,0.000329352223223,0.00555357364976,-0.000212198212401,0.000174315828772,-0.0307056884461,0.573806930375,0.81895640903,0.0060624799994,0.0,0.818953723492,-0.573715623408,-0.0120801133459,0.0,-0.00641507026415,0.0118967723764,-0.999908652668,0.0,0.264825714441,-0.260101937266,0.304931851725,1.0,-0.00745837837838,-0.00980244015445,3.046
-0.64851432752,-0.519120235329,-0.124961523261,-2.64040743516,-0.0671945444361,2.11079619456,-0.896051293748,-0.0328809968806,0.00320928339149,0.00120163815906,0.00660130205148,0.00144264127394,0.00029815736903,-0.0325272594592,0.573819829371,0.818947321082,0.00606923503593,0.0,0.818944697459,-0.573728442083,-0.0120832176805,0.0,-0.00641354946842,0.0119041869505,-0.999908574179,0.0,0.264690970078,-0.260267912194,0.304928675054,1.0,-0.00711837837838,-0.00935558301159,3.063
-0.649025522234,-0.51903815057,-0.124952932339,-2.64035887707,-0.0671828094805,2.11080646028,-0.896561243432,-0.0357633227828,0.008473032666,0.00467564729026,0.000657429072409,0.00189001385471,-0.00047700074652,-0.030779375938,0.57382239717,0.818945472007,0.00607595966427,0.0,0.818942801267,-0.573730730079,-0.012103078786,0.0,-0.00642592051393,0.0119211106283,-0.999908293128,0.0,0.264571762858,-0.260412607806,0.304921602552,1.0,-0.00679837837838,-0.00893501158302,3.079
-0.649541174628,-0.518966519298,-0.124939847414,-2.64031479693,-0.0671694119532,2.11082309191,-0.897059119553,-0.0288347106134,0.00111778057501,0.00363134197308,0.00144908331405,-3.76257449057e-05,0.000652583209271,-0.0313611910452,0.573835762071,0.818936067744,0.00608128413296,0.0,0.818933413708,-0.573743971108,-0.0121105916894,0.0,-0.0064288240031,0.0119298870733,-0.999908169792,0.0,0.264452656083,-0.26055719945,0.304916992702,1.0,-0.00645837837838,-0.00848815444016,3.096
-0.650116017094,-0.518895169175,-0.124911359982,-2.64025729083,-0.0671552676943,2.11083843352,-0.897603233674,-0.0322740344063,0.00364931313462,0.00144354608502,0.00354980905242,0.000282587206376,0.00161187897158,-0.0247149787713,0.573849746329,0.818926290514,0.00607834223944,0.0,0.81892363378,-0.573758031434,-0.0121057962349,0.0,-0.00642638085444,0.0119248358026,-0.999908245751,0.0,0.264324349796,-0.260717210113,0.304918838295,1.0,-0.00607837837838,-0.00798872586873,3.115
-0.650599121921,-0.518823006886,-0.12489680844,-2.64020177327,-0.0671418558302,2.11085513527,-0.898076072893,-0.0308767906824,0.00393968580939,0.000694009995106,0.003426407173,0.000264840058148,-0.000192255194227,-0.0231603472617,0.573856454879,0.818921569874,0.00608099421932,0.0,0.818918965672,-0.573764760337,-0.0121026592073,0.0,-0.00642219213394,0.0119252602019,-0.999908267601,0.0,0.26421651512,-0.260855704401,0.30491926665,1.0,-0.00573837837838,-0.00754186872587,3.132
-0.651016305539,-0.518765407189,-0.124888493615,-2.64012785532,-0.067126092223,2.11087507984,-0.898494541728,-0.0292762391615,0.00124900580138,0.00212847836977,0.00466297175608,-0.000610986160753,0.00115900495491,-0.0212572229875,0.573859906951,0.818919125488,0.00608440675573,0.0,0.818916812692,-0.573768656273,-0.0120635761862,0.0,-0.00638817436438,0.011905654916,-0.999908719139,0.0,0.264129724039,-0.260983294034,0.304933547326,1.0,-0.00541837837838,-0.0071212972973,3.148
-0.65142171498,-0.518706471453,-0.12487437911,-2.6400660143,-0.0671142871462,2.11089119799,-0.898898617464,-0.0286554362013,0.00332925580649,-0.000328388409705,0.00259511322462,0.00102098440908,0.000523790128942,-0.0230984886326,0.573859151721,0.818919660206,0.00608366793568,0.0,0.818917475406,-0.573768161052,-0.0120421235463,0.0,-0.00637103942102,0.0118927337623,-0.999908982228,0.0,0.264043454059,-0.261103220523,0.304941655719,1.0,-0.00509837837838,-0.00670072586873,3.164
-0.651800600521,-0.518658188259,-0.124860926871,-2.64000591373,-0.0670967159731,2.11090301669,-0.899258556872,-0.0218096391157,0.00401197005632,0.000329908947799,0.00495442312273,0.00550295145623,-0.000478325289985,-0.0209746313112,0.57387561877,0.818908089175,0.00608790331831,0.0,0.818906124394,-0.573784914883,-0.0120157306735,0.0,-0.00634675415326,0.0118811849369,-0.999909273962,0.0,0.263963591137,-0.26121480895,0.304952516846,1.0,-0.00477837837838,-0.00628015444016,3.18
-0.652182824103,-0.518619082946,-0.12484176803,-2.63996320261,-0.0670775096322,2.11091352725,-0.899623265922,-0.0271350425432,0.00577006194981,0.000661109416922,0.000513733953437,0.00054136252213,0.000214198779962,-0.0265670477352,0.573886715522,0.818900274058,0.00609309414907,0.0,0.818898481009,-0.573796182692,-0.0119985595282,0.0,-0.00632955138587,0.0118756681054,-0.999909448543,0.0,0.263880216166,-0.261321348387,0.304958880529,1.0,-0.00443837837838,-0.0058332972973,3.197
-0.652515510319,-0.51857145651,-0.124813783869,-2.6399259047,-0.0670552334054,2.110927176,-0.89996320338,-0.0147577079727,0.00124412600658,0.00281770575537,8.77112106587e-05,9.55676125802e-05,0.000815009988193,-0.0244256051688,0.573872368415,0.818910299255,0.00609700298719,0.0,0.8189085915,-0.573781886838,-0.0119921643294,0.0,-0.00632227872512,0.011875088507,-0.999909501437,0.0,0.26381101937,-0.261411463491,0.304960123114,1.0,-0.00409837837838,-0.00538644015445,3.214
-0.652825650847,-0.51852642895,-0.124772687752,-2.63990545721,-0.0670342492522,2.11093630612,-0.90028142246,-0.0174817129535,0.005949893331,0.000886845175705,0.00184138575802,-8.07564908286e-06,-0.000237059041894,-0.012600793736,0.573846703101,0.818928291825,0.00609598964865,0.0,0.818926489144,-0.573756077727,-0.0120048136798,0.0,-0.00633359239109,0.0118813189045,-0.999909355826,0.0,0.263745924406,-0.2614879625,0.304954588268,1.0,-0.00375837837838,-0.00493958301159,3.231
-0.653096701721,-0.51849726479,-0.124726113404,-2.63989217601,-0.0670126824226,2.11094730758,-0.900561616438,-0.0193431061684,-0.00128315259604,0.00171007148885,0.00224050258954,0.0033782336266,0.000346465759054,-0.0214385728751,0.573816117905,0.81894974885,0.00609250286684,0.0,0.818947886747,-0.573725487295,-0.0120071196452,0.0,-0.00633792546645,0.011879549848,-0.999909349389,0.0,0.263691290088,-0.261551575772,0.304951928854,1.0,-0.00341837837838,-0.00449272586873,3.248
-0.653324875339,-0.518437767674,-0.124682489724,-2.63987004792,-0.0669872539664,2.11095412261,-0.900814677643,-0.0172427502349,0.00564704015072,0.0042649449293,0.000431071924171,0.00120041501651,8.65002135631e-05,-0.0171517474771,0.573776935044,0.818977191758,0.0060938570164,0.0,0.818975165039,-0.573685965702,-0.012034895396,0.0,-0.00636046704589,0.0118962919901,-0.999909007208,0.0,0.263648248318,-0.261605294634,0.30494169048,1.0,-0.00309837837838,-0.00407215444016,3.264
-0.653544357346,-0.518384691132,-0.124649183834,-2.63984712932,-0.0669659292911,2.11096080486,-0.901057648358,-0.0147514694356,0.00298175934937,0.00231385505925,0.00015356432261,0.000449091277532,0.000398657352374,-0.0170852101608,0.573744471424,0.818999916178,0.00609636879903,0.0,0.818997782306,-0.573653236758,-0.0120558465565,0.0,-0.00637665839563,0.0119101171433,-0.999908739504,0.0,0.263605146792,-0.261659672292,0.304933918605,1.0,-0.00275837837838,-0.0036252972973,3.281
-0.653751768406,-0.518339607302,-0.124627078512,-2.6398275382,-0.0669424404965,2.11096620636,-0.901265978351,-0.0110194184177,0.00364731186961,0.00117938568311,0.00133176555318,2.92955880898e-06,0.00459563463022,-0.011635760003,0.573739171312,0.819003556198,0.00610615580064,0.0,0.81900142807,-0.573647668134,-0.0120731340091,0.0,-0.00638528058803,0.0119280098734,-0.999908471197,0.0,0.263562150705,-0.261712183274,0.304927207112,1.0,-0.00241837837838,-0.00317844015445,3.298
-0.653948471176,-0.518305038223,-0.124593579319,-2.63981728404,-0.0669215798099,2.11096534891,-0.901462910487,-0.00772511245908,0.00311080607697,0.000190179447007,0.000717786487376,-0.000135363011984,9.69211589747e-05,-0.0205823708107,0.573724753382,0.819013630336,0.00610963026358,0.0,0.819011396451,-0.573632956188,-0.0120959067571,0.0,-0.00640215049722,0.0119438078904,-0.999908174745,0.0,0.26352131549,-0.261756543722,0.304919858686,1.0,-0.00207837837838,-0.00273158301159,3.315
-0.65414386229,-0.518282408605,-0.124564868364,-2.63980798522,-0.0668971752083,2.11097153775,-0.90164535145,-0.0115863181951,0.000714103015861,0.00190885430717,0.00102354039129,0.00293865632166,-0.000414998676022,-0.00522446165486,0.573725932036,0.819012748785,0.00611711844379,0.0,0.819010576116,-0.573634033912,-0.0121003408719,0.0,-0.00640146935801,0.011952494168,-0.999908075312,0.0,0.263481245214,-0.26180218834,0.304916965014,1.0,-0.00171837837838,-0.00225844015445,3.333
-0.654294580901,-0.518266417003,-0.124544881914,-2.63980509164,-0.0668815701222,2.11097165991,-0.901792564437,-0.00866359404262,0.00357660759033,0.00343574168772,-0.000218948106192,6.75751064981e-05,-3.79100830917e-05,-0.00524553881552,0.573721489611,0.819015820939,0.00612244328597,0.0,0.819013640848,-0.573629425579,-0.0121113630929,0.0,-0.00640750772536,0.011963144169,-0.999907909273,0.0,0.263447888288,-0.261836456702,0.304912878326,1.0,-0.00141837837838,-0.00186415444016,3.348
-0.654457822221,-0.518270212023,-0.124528570797,-2.63980325778,-0.066864742145,2.11097167301,-0.901907097245,-0.00693866274927,-0.00200775398051,1.94500322976e-05,-0.00107399602748,0.00039657449196,-4.21862911263e-05,-0.00717109008035,0.573757053454,0.818990854168,0.00612954345374,0.0,0.818988811609,-0.573665034666,-0.0121037747265,0.0,-0.00639669920028,0.0119648839927,-0.999907957659,0.0,0.26341073384,-0.261874746547,0.304915504493,1.0,-0.00107837837838,-0.0014172972973,3.365
-0.654607825161,-0.51826135272,-0.124511905434,-2.63979403367,-0.0668456052408,2.11096935094,-0.901997734001,-0.0105954475913,-0.000219036427296,0.00167876748913,-0.000806526906114,0.000173058167762,-0.000647524590585,-0.000944317093969,0.573802480902,0.81895896526,0.00613783602129,0.0,0.818957026989,-0.573710408844,-0.0121037857687,0.0,-0.00639128650773,0.0119720367413,-0.999907906656,0.0,0.263378366781,-0.261910591089,0.304916636923,1.0,-0.000698378378384,-0.000917868725876,3.384
-0.654676308747,-0.518261439944,-0.124507239792,-2.63979062264,-0.0668305748671,2.11097184891,-0.902020581002,-0.00425729090989,-0.00161508499011,-0.000342912248426,-0.00136341761688,3.00880507672e-05,0.000178467043262,0.000787225825147,0.573843110828,0.818930422448,0.00614770240875,0.0,0.818928654302,-0.573751064589,-0.0120963608641,0.0,-0.00637894992525,0.011976173587,-0.999907935894,0.0,0.263363979296,-0.261927326452,0.304918550984,1.0,-0.000378378378384,-0.000497297297304,3.4
-0.654686670679,-0.518257478028,-0.124492453877,-2.63978202148,-0.0668141925079,2.11097491064,-0.902059228034,-0.000370914579387,0.00165083038308,0.00138892220346,0.000145122371654,0.000797548927667,-0.000224768171258,-0.00116469609547,0.573816856742,0.818948777205,0.00615322143064,0.0,0.818947130022,-0.573724884008,-0.0120872908414,0.0,-0.00636873842064,0.0119752848295,-0.999908011631,0.0,0.263368339318,-0.261927760549,0.304921617962,1.0,-7.83783783837e-05,-0.000103011583019,3.415
-0.654672057426,-0.518254983831,-0.124463304456,-2.63978358097,-0.0667997986374,2.11097562753,-0.902073720406,0.00260423459561,-0.000217614016815,0.00304193947315,-0.000193270152887,0.000793555671203,0.00378969651813,0.000434964638064,0.57377841755,0.818975722911,0.0061514012837,0.0,0.818974033895,-0.573686426945,-0.0120897578915,0.0,-0.00637236547362,0.0119749106291,-0.999907993004,0.0,0.263379547438,-0.261915768541,0.304920745298,1.0,0.0,0.0,3.432
-0.654673589831,-0.518254974964,-0.12441973693,-2.63978140839,-0.0667912900156,2.11097575138,-0.90208483135,-0.000134277053143,7.97459922261e-05,0.00504108850805,3.48599229507e-05,0.0024595216396,0.00387904415795,-0.00114038921215,0.573743387541,0.819000373328,0.00613682681271,0.0,0.818998520017,-0.573651516359,-0.0120875510123,0.0,-0.00637943160879,0.0119614348368,-0.999908109243,0.0,0.263389970974,-0.261906402404,0.304922767716,1.0,0.0,0.0,3.449
-0.654666193766,-0.518254987194,-0.124379154484,-2.63977637941,-0.0667800276502,2.11097768125,-0.902088853398,0.000715328007144,-0.00187389666383,0.000326655606853,0.000922456719966,0.000295532756714,0.000136087859085,7.59536177996e-05,0.573710272538,0.819023656813,0.00612532988877,0.0,0.819021707814,-0.573618559986,-0.0120804250676,0.0,-0.00638067385222,0.011947672134,-0.999908265858,0.0,0.263403265,-0.261896046328,0.30492618112,1.0,0.0,0.0,3.466
-0.654662636109,-0.518242619091,-0.124359570607,-2.63978037308,-0.0667756272631,2.11098140028,-0.90209296148,0.000643558770247,0.00334776799703,0.000154865324478,-0.000111246637202,0.000476463043422,-0.000111829131455,-0.0010983403358,0.573691848098,0.819036601433,0.00612011762811,0.0,0.819034507757,-0.573600018615,-0.0120930000402,0.0,-0.00639423317748,0.0119504731547,-0.999908145768,0.0,0.263408279152,-0.261889684955,0.304920589654,1.0,0.0,0.0,3.483
-0.654667246781,-0.51823805408,-0.124356284475,-2.63977880682,-0.0667708899913,2.11098132452,-0.902091396728,0.000530805209864,0.00203886961822,-0.000321837073881,-0.000186855141589,-0.000121131240625,-0.000282583533154,0.000478521049879,0.573696689384,0.81903319292,0.00612244930246,0.0,0.819031110306,-0.573604812548,-0.0120957130008,0.0,-0.00639504717972,0.0119539771054,-0.999908098679,0.0,0.263408462124,-0.26189001998,0.304919693057,1.0,0.0,0.0,3.499
-0.654672536601,-0.518245493194,-0.124358548873,-2.63978167028,-0.0667661968175,2.11098319799,-0.902093403521,-0.00100871638449,-0.0011653917902,-0.000824909229067,-0.000820646959756,0.000435067490952,-0.000204329198681,-0.00185127602637,0.57370281863,0.81902886221,0.00612745168746,0.0,0.819026884709,-0.573610993279,-0.0120887308984,0.0,-0.00638636882194,0.0119541168106,-0.999908152474,0.0,0.263406808742,-0.261891087107,0.304921242459,1.0,0.0,0.0,3.516
-0.654670520021,-0.518242872631,-0.124358551867,-2.6397748676,-0.0667618983176,2.11098226198,-0.902099417075,-0.00113951159326,-0.000693165752289,2.00253483378e-05,-9.98394619985e-06,0.000261071656259,-0.000508573678213,-0.00123787865371,0.573698403533,0.819031933084,0.00613035670287,0.0,0.819030012905,-0.573606602879,-0.012085114625,0.0,-0.00638180457956,0.0119543872553,-0.999908178382,0.0,0.263409073163,-0.261891696802,0.304923290444,1.0,0.0,0.0,3.533
-0.654671044998,-0.518242872631,-0.124363700889,-2.63977325635,-0.0667627280361,2.11098643073,-0.902100112817,0.000703223644137,4.67829961249e-05,-0.000432191252126,-0.000355960407927,-0.00016814455833,-6.47569336501e-05,-0.000358820190315,0.573701634457,0.819029661512,0.00613148315646,0.0,0.819027791939,-0.573609895526,-0.0120793496038,0.0,-0.00637638896978,0.0119520278354,-0.999908241137,0.0,0.263408759125,-0.261894042669,0.304924256834,1.0,0.0,0.0,3.55
-0.654673588226,-0.518242872631,-0.124357909723,-2.63977471499,-0.0667614187503,2.11098864485,-0.902103192696,0.00134507642334,0.000258297988888,9.96636401439e-05,-0.00151817931318,-0.000453018539574,-5.92923881757e-05,0.00129312794878,0.57369955959,0.81903113759,0.00612844876349,0.0,0.819029211335,-0.573607802203,-0.0120825135622,0.0,-0.00638075165089,0.0119513413672,-0.999908221512,0.0,0.263409178497,-0.261891916434,0.304922511127,1.0,0.0,0.0,3.567
