nelsonifechukwu/NELSON_IML_WORK/CNN-GradCAM/train2dof/data_sample_2022-02-22-15-15-31/robot_state.csv
position_joint1,position_joint2,position_joint3,position_joint4,position_joint5,position_joint6,position_joint7,velocity_joint1,velocity_joint2,velocity_joint3,velocity_joint4,velocity_joint5,velocity_joint6,velocity_joint7,ee_T_00,ee_T_10,ee_T_20,ee_T_30,ee_T_01,ee_T_11,ee_T_21,ee_T_31,ee_T_02,ee_T_12,ee_T_22,ee_T_32,ee_T_03,ee_T_13,ee_T_23,ee_T_33,v_x,v_y,time
0.465082243763,0.547771790739,-0.123978674548,-1.35584716984,0.0796051097278,1.89410431035,0.159159046678,0.000338931601032,-0.000749616867205,-0.000955848049004,-0.00120281897224,-0.000389903056203,0.000133384354719,-0.000477454633767,0.573820380936,0.818966971308,0.00200430286325,0.0,0.818923506547,-0.573760574807,-0.0119933366302,0.0,-0.00867232358214,0.00852355582768,-0.999926067167,0.0,0.661664434464,0.260917570096,0.30321448781,1.0,0.0,0.0,0.0
0.465079880683,0.547777080452,-0.123981727741,-1.35584474072,0.0796067622925,1.8941012699,0.159157965059,0.000323419749973,0.000449967306388,-0.000643795512119,-0.000972826133398,0.000406445367049,0.00028560403484,-0.000533112149216,0.573826827323,0.818962461578,0.00200141722089,0.0,0.818918923972,-0.573766998017,-0.011998951962,0.0,-0.00867851117282,0.00852448309524,-0.999926005578,0.0,0.6616647874,0.260916042404,0.303210775055,1.0,-0.00022,-0.000289142857143,0.012
0.465078815517,0.547773906575,-0.123981755401,-1.35585365277,0.0796063966207,1.89410115687,0.159155983468,-0.000993964710173,-4.59304364925e-05,-0.00120030457107,-0.000411961270998,2.56984251824e-05,-0.000367718016445,-0.00151554066565,0.573823509203,0.818964803287,0.0019945336543,0.0,0.818921202752,-0.573763735876,-0.0119994157174,0.0,-0.00868287522399,0.00851907675307,-0.999926013768,0.0,0.661663791429,0.260912713379,0.30320973392,1.0,-0.00062,-0.000814857142857,0.032
0.465075549393,0.547762300081,-0.123978998623,-1.35586679279,0.0796070201155,1.89410564873,0.159159723322,-0.000245482300144,0.000670594011167,0.000141787753819,0.000216780215463,7.67772823475e-05,-0.000188656103216,-0.00313011317861,0.57382821425,0.818961496791,0.00199855082727,0.0,0.818917921985,-0.573768397113,-0.0120004344562,0.0,-0.00868135560265,0.00852300105882,-0.99992599352,0.0,0.661662166347,0.260911147132,0.303212002182,1.0,-0.00088,-0.00115657142857,0.045
0.465072702874,0.547631215498,-0.12397646861,-1.35600154103,0.0796058163942,1.89412737785,0.15916507575,-0.00344698420726,-0.00670579700697,-0.000148575021167,-0.0106933399415,-0.000121828389756,0.00362501347804,0.00135359209006,0.573840118119,0.818953102053,0.00202048925881,0.0,0.818909704213,-0.57378009911,-0.0120017129055,0.0,-0.00866969040516,0.00854182706927,-0.999925934086,0.0,0.661639306638,0.260897739197,0.303242529881,1.0,-0.00128,-0.00168228571429,0.065
0.465068401255,0.547510129642,-0.123981445172,-1.35617901921,0.0796055618393,1.89416037195,0.15915484331,-0.000882211760053,-0.00967446245499,-0.00114403181995,-0.0168851059613,0.000588010224864,0.00200155689674,-7.66584392903e-05,0.573848376811,0.818947349695,0.00200642967802,0.0,0.818903651967,-0.57378830195,-0.0120224890063,0.0,-0.00869468703014,0.0085423228584,-0.99992571281,0.0,0.661610672041,0.260874730253,0.303246862695,1.0,-0.0016,-0.00210285714286,0.081
0.465046361195,0.547338260692,-0.123977293991,-1.35640813799,0.0796014870883,1.89425719628,0.159144255205,-0.00228760833338,-0.0105728156672,0.000629586144486,-0.015566765741,0.000257884077946,0.0112706976515,-0.00200416151293,0.573866655235,0.818934442485,0.00204641682161,0.0,0.818891178224,-0.573806321076,-0.0120121198104,0.0,-0.00866305852292,0.00856931268589,-0.999925756393,0.0,0.66158701626,0.260843532491,0.303267819401,1.0,-0.00196,-0.002576,0.099
0.465034752288,0.547189969186,-0.123978714933,-1.35656170266,0.0795993417086,1.89434896594,0.159135114183,0.000269243001592,-0.0135768376518,-0.000391832666105,-0.0111738935611,0.000333640678066,0.00352176025916,-0.00124802743032,0.57387785718,0.818926396556,0.00212343203408,0.0,0.818884138674,-0.573817200831,-0.011972232878,0.0,-0.0085860810122,0.00860960992361,-0.999926074182,0.0,0.661577505411,0.260824648004,0.303307779437,1.0,-0.00222,-0.00291771428571,0.112
0.46499103658,0.546931632216,-0.123982177455,-1.3568955822,0.0795965605163,1.89451284422,0.159120839192,-0.00453961443587,-0.013902667398,-0.00200507677753,-0.0150167540628,-0.00103888225384,0.00480341538998,-0.000413966318239,0.573922548099,0.818894857192,0.00220647902117,0.0,0.818853611421,-0.573861474259,-0.0119381039127,0.0,-0.00851000243862,0.00865849703494,-0.999926302428,0.0,0.661552793545,0.260768173385,0.303346182906,1.0,-0.00264,-0.00346971428571,0.133
0.464965505409,0.546749611961,-0.123982170563,-1.35717061395,0.0795889762915,1.89461339927,0.15909700112,-0.00451755190093,-0.0199497553343,-0.00412832346486,-0.0166402218857,-1.40234104842e-05,0.0064104589447,-0.00102423087614,0.573937303559,0.818884484986,0.00221782215797,0.0,0.818843305459,-0.573876098717,-0.0119419985004,0.0,-0.00850652594105,0.00867017417292,-0.999926230827,0.0,0.661521640028,0.260726629073,0.303352908697,1.0,-0.0029,-0.00381142857143,0.146
0.464921119266,0.546427688036,-0.123979287195,-1.3576524343,0.0795802159115,1.89479596555,0.158963699589,0.000800511218511,-0.0166086197098,0.00068150028865,-0.0263774453866,0.000355240138203,0.0110469289187,-0.0135570992391,0.573887137392,0.818919555592,0.00224986805417,0.0,0.818878597821,-0.573825608721,-0.0119482093956,0.0,-0.00849375395371,0.00869945997604,-0.999926085038,0.0,0.661467388387,0.260656947673,0.303367302194,1.0,-0.0033,-0.00433714285714,0.166
0.464885611516,0.546199733865,-0.123981906863,-1.35801004338,0.0795712280196,1.89491567838,0.158926278923,-0.00205696813584,-0.0232704185933,-0.00178956629995,-0.0255931528187,-5.7884223671e-05,0.0108713156716,-0.00162118012843,0.573904950774,0.818907077287,0.00224792086667,0.0,0.818865975303,-0.573843306089,-0.0119633376996,0.0,-0.00850707135571,0.00870673227805,-0.99992590853,0.0,0.661425554811,0.260599156605,0.303368976709,1.0,-0.00356,-0.00467885714286,0.179
0.464826811641,0.545810983433,-0.123982866996,-1.3586868583,0.0795472132068,1.8951484876,0.158883048148,-0.00183883049908,-0.0185753223577,-0.000926509899686,-0.0343518346125,-0.000286017024933,0.00862888076295,-0.00409928585095,0.573949830425,0.818875730184,0.00220852249149,0.0,0.818833932334,-0.573888156385,-0.0120050872639,0.0,-0.00856339457009,0.00869889843647,-0.999925495944,0.0,0.66134371769,0.260496378524,0.303342297414,1.0,-0.00398,-0.00523085714286,0.2
0.464783742965,0.545541449777,-0.123981061265,-1.35914614685,0.0795181465589,1.89530590594,0.158796009172,-0.00467349022518,-0.0267552972374,-0.00418766317835,-0.0376144438861,-0.00337282647693,0.00999040971624,-0.0109219061887,0.573930484801,0.818889363957,0.00218062259179,0.0,0.818847175126,-0.573868902139,-0.0120222230392,0.0,-0.00859364453951,0.00868568417293,-0.999925351296,0.0,0.661289151087,0.260423933245,0.303328074001,1.0,-0.00424,-0.00557257142857,0.213
0.464711738538,0.545063715959,-0.123977569868,-1.35994879016,0.0794346348026,1.8955613567,0.158719846733,-0.00656192747876,-0.0267809200212,0.00126511122467,-0.0421264513406,-0.00175546561206,0.011040082822,-0.00667039434531,0.573947061954,0.818877948469,0.00210297100428,0.0,0.818834972261,-0.573886031092,-0.0120357144407,0.0,-0.008649081988,0.00863001530022,-0.999925355322,0.0,0.661190860603,0.260293143182,0.303306144362,1.0,-0.00464,-0.00609828571429,0.233
0.464660149959,0.54474865009,-0.123980355696,-1.36049526466,0.0794183485423,1.89575351796,0.15863825991,-0.00638852381475,-0.0183608335844,-6.76604499634e-05,-0.0451909420005,-0.000306206095829,0.0155703173912,-0.0112409395391,0.573950626989,0.818875515045,0.00207738760794,0.0,0.81883204005,-0.57388954075,-0.0120678128432,0.0,-0.00869001274686,0.00862752638735,-0.999925021923,0.0,0.661126825497,0.260207087931,0.303285801993,1.0,-0.0049,-0.00644,0.246
0.464586291467,0.544188708747,-0.123983203492,-1.36142397237,0.0793830064688,1.89608804493,0.158531968582,-0.00144162408128,-0.0271333691388,0.000206249247366,-0.0447283164266,-0.00201734508435,0.0191752904173,-0.00509616627219,0.573968483054,0.818863048946,0.00205777367112,0.0,0.818819115908,-0.573907279229,-0.0121011227472,0.0,-0.00872835902756,0.00863077365374,-0.999924659909,0.0,0.661016521542,0.260070697207,0.303269132188,1.0,-0.00532,-0.006992,0.267
0.464528882736,0.543792231423,-0.123982914592,-1.36205935809,0.0793568911645,1.89631237599,0.1584671031,-0.00681065317316,-0.0287135273378,0.000847971876423,-0.0490489058027,-0.00156869596494,0.0193808572431,-0.0135228335736,0.573990594305,0.818847564841,0.00205185378441,0.0,0.818803419317,-0.573929279924,-0.0121197798017,0.0,-0.00874680161507,0.00863687079236,-0.999924446108,0.0,0.660941802494,0.259973694008,0.303266686353,1.0,-0.00558,-0.00733371428571,0.28
0.464445038125,0.543176901344,-0.123989243396,-1.36306092734,0.0793049318858,1.89666423741,0.158326056057,-0.0038863536143,-0.0311450002729,0.000203304215493,-0.0537078741169,-0.00120820754914,0.0184419822897,-0.00980470820399,0.573990060119,0.818848004969,0.00202547376336,0.0,0.818803424908,-0.5739287733,-0.0121433701515,0.0,-0.00878126581637,0.00862880474902,-0.999924213678,0.0,0.660823700964,0.259819263519,0.303255991106,1.0,-0.00598,-0.00785942857143,0.3
0.4643850722,0.542741646463,-0.123987723275,-1.36375619703,0.0792664788389,1.89691062164,0.158219061366,-0.00134865984451,-0.0355195531144,0.000356456935046,-0.0576145399813,-0.00153658191514,0.0223119274682,-0.0114561373631,0.573978877609,0.818855866195,0.00201627329092,0.0,0.818811099219,-0.573917567521,-0.0121555085173,0.0,-0.00879660415524,0.00862811820318,-0.999924084784,0.0,0.660741489198,0.259714194754,0.303254234429,1.0,-0.00624,-0.00820114285714,0.313
0.464283809179,0.542005329996,-0.123995389376,-1.36489614766,0.0792031000563,1.89732991229,0.158077531496,-0.00319238981157,-0.0393883509284,-0.000436223823204,-0.0530790521161,-0.00680202400518,0.0214444717185,-0.0142831805091,0.573997735415,0.818842612345,0.00203047940198,0.0,0.818798010171,-0.573936339436,-0.012150873073,0.0,-0.00878445586208,0.00863729241589,-0.999924112378,0.0,0.660613286593,0.259535391724,0.303268961069,1.0,-0.00666,-0.00875314285714,0.334
0.46420371315,0.541475507457,-0.123995898111,-1.36569254808,0.0791590752377,1.89762319898,0.157969778934,-0.00603667726737,-0.0406631004664,0.000400693446013,-0.0586373120392,0.000305762478338,0.0174625892417,-0.010601296471,0.574007891691,0.818835429908,0.00205570046169,0.0,0.818791120012,-0.57394634627,-0.0121424994592,0.0,-0.00876301571099,0.00865324639966,-0.999924162566,0.0,0.660525366147,0.259407385243,0.303289942372,1.0,-0.00694,-0.00912114285714,0.348
0.464099294088,0.540672016081,-0.12399630369,-1.36692587072,0.0790832645784,1.8980815541,0.157823654396,-0.00921489113454,-0.0415240871449,0.000746249374574,-0.0608584313004,-0.00106394006574,0.0261209622991,-0.00996836100914,0.574022198735,0.818825342067,0.00207880939351,0.0,0.818781346618,-0.57396056239,-0.012129556964,0.0,-0.00873900227447,0.00866489213878,-0.999924271874,0.0,0.660384616581,0.259221167333,0.303310630785,1.0,-0.00734,-0.00964685714286,0.368
0.464017908249,0.540125119381,-0.123996335207,-1.36777004999,0.0790316764135,1.89839036481,0.157720562034,-0.00568940921621,-0.0406602136006,0.00438954147224,-0.0635118732953,-0.000699501671669,0.0266427189993,-0.00448910181641,0.574037407732,0.818814655948,0.00208821198494,0.0,0.818770779374,-0.573975724395,-0.0121254092667,0.0,-0.00873004791064,0.00867037238907,-0.999924302588,0.0,0.6602895537,0.259086985116,0.30332210188,1.0,-0.0076,-0.00998857142857,0.381
0.463903224546,0.539242691574,-0.124007275731,-1.36911856384,0.0789526707817,1.89890662521,0.157544044124,-0.00517174873653,-0.045352770914,-0.000159259981103,-0.0683272643577,-0.00146430275817,0.0222934480932,-0.00677114224161,0.574048062901,0.818807081082,0.00212893188016,0.0,0.818763790277,-0.57398625522,-0.0120988202404,0.0,-0.00868478925715,0.00868856393959,-0.999924538799,0.0,0.660140588294,0.258878677047,0.303348859944,1.0,-0.008,-0.0105142857143,0.401
0.463819317861,0.538676548519,-0.124005912325,-1.37001999601,0.0789066404306,1.89925552038,0.157434224985,-0.0052600781551,-0.0436926843602,0.000754536675091,-0.0743347949008,-0.000950322553014,0.0211618959057,-0.00526135641339,0.574065438189,0.81879484843,0.00214843268551,0.0,0.818751748884,-0.574003480767,-0.0120964733463,0.0,-0.00867148917344,0.00870336785749,-0.999924525484,0.0,0.660032994178,0.258727894806,0.303352001619,1.0,-0.00828,-0.0108822857143,0.415
0.46369030525,0.537696306628,-0.124019786554,-1.3715431633,0.0788103793036,1.89983682481,0.157250306457,-0.00289780223296,-0.0432896922383,-0.000907603036995,-0.0703083412514,-0.00144174271882,0.0271509111126,-0.0097627255171,0.574086762421,0.81877984115,0.00216975602464,0.0,0.818737138939,-0.574024830625,-0.012072201533,0.0,-0.00863914774933,0.00870711857218,-0.999924772777,0.0,0.659871387245,0.25850345772,0.303368091494,1.0,-0.00868,-0.011408,0.435
0.463606347561,0.537068677146,-0.124021218616,-1.37252963454,0.078755985032,1.90020157162,0.157126349129,-0.005827956354,-0.0478350985677,-0.000202234010084,-0.076688817084,-0.00795214056304,0.0230088047719,-0.0157472722867,0.574094842966,0.818774156677,0.00217681868114,0.0,0.818731496519,-0.574032829492,-0.0120745258921,0.0,-0.00863691065506,0.00871432084007,-0.99992472936,0.0,0.659757063296,0.258354312511,0.303373377714,1.0,-0.00894,-0.0117497142857,0.448
0.463471467075,0.536004590289,-0.124029585872,-1.37417153279,0.0786629158753,1.90081686262,0.156932676104,-0.00617223516037,-0.0512507024687,-0.00118463769282,-0.0881593303774,-0.00210271932686,0.0249942249577,-0.00887823073417,0.574118060503,0.818757789792,0.00220933476827,0.0,0.818715542199,-0.574055894139,-0.0120597788646,0.0,-0.00860592193338,0.00873272169651,-0.999924836015,0.0,0.659568810873,0.258106227216,0.303396604301,1.0,-0.00936,-0.0123017142857,0.469
0.463384463744,0.535327130777,-0.124032887707,-1.37525568938,0.0786017614753,1.9012040025,0.156793677883,-0.00136210213185,-0.0513256129466,-0.0011579433885,-0.0829644696292,-0.00353893508505,0.031399546385,-0.0101751240808,0.574120938573,0.818755812771,0.00219404824709,0.0,0.818713304964,-0.574058775121,-0.0120745137783,0.0,-0.00862673178438,0.00872869572926,-0.999924691849,0.0,0.659438702882,0.257943497556,0.303392320714,1.0,-0.00962,-0.0126434285714,0.482
0.463242504417,0.534267322177,-0.124028289654,-1.37696166588,0.078512049902,1.90182324146,0.156591182931,-0.00577257675491,-0.0488171967909,0.000489243529931,-0.0875275419132,-0.00729861686803,0.03314416293,-0.00660112472756,0.574137679466,0.818744115189,0.00217847699015,0.0,0.818701215826,-0.574075390247,-0.0121042314671,0.0,-0.00865982498279,0.0087331852676,-0.999924366593,0.0,0.659234106028,0.25769145839,0.303381563517,1.0,-0.01002,-0.0131691428571,0.502
0.463119212658,0.533395889605,-0.12403370967,-1.37835921834,0.0784321390144,1.90234338945,0.156409134863,-0.00750129601072,-0.0583961869117,0.000435123606424,-0.0895455582086,-0.00975000111701,0.0342104837802,-0.00655440065303,0.574148555325,0.818736501935,0.00217341177006,0.0,0.818693505058,-0.574086254884,-0.0121104760401,0.0,-0.00866772984709,0.00873273855496,-0.999924302003,0.0,0.659073031593,0.257474934919,0.303376244664,1.0,-0.01034,-0.0135897142857,0.518
0.462988178986,0.532458826656,-0.124030498196,-1.37989066145,0.0783463207031,1.90291547053,0.156217886201,-0.00783411818421,-0.0552656511898,0.000547692864247,-0.0921665964544,-0.00773861617338,0.0309016095503,-0.0121205184109,0.574160641609,0.818728070116,0.00215678741926,0.0,0.818684768284,-0.57409832316,-0.0121289911444,0.0,-0.00869230482509,0.00872988642347,-0.999924113581,0.0,0.658883156575,0.257232587118,0.303354203206,1.0,-0.0107,-0.0140628571429,0.536
0.462882676032,0.531648189628,-0.124028694419,-1.38118086037,0.0782793119348,1.90339137898,0.156054923671,-0.00134383926311,-0.0597113665216,0.00137890816408,-0.0908658206418,-0.00318889194692,0.0366845963752,-0.0158391121467,0.574161956682,0.818727140477,0.00215959413384,0.0,0.818683734575,-0.574099484506,-0.0121437858278,0.0,-0.00870279272213,0.00874069270851,-0.999923927951,0.0,0.658738733973,0.257056341696,0.303356051171,1.0,-0.01096,-0.0144045714286,0.549
0.46272766235,0.530527094384,-0.124033983198,-1.38300071002,0.0781662239847,1.90402803802,0.155817295138,-0.0061346854704,-0.0607068171825,-0.00117255674047,-0.0900264186046,-0.0057937982297,0.0302539143754,-0.018862680893,0.574166595522,0.818724032892,0.00210367603752,0.0,0.818679853779,-0.574104326005,-0.0121764847241,0.0,-0.00876161985446,0.00871373573669,-0.999923649499,0.0,0.658517760057,0.256774774558,0.303335212952,1.0,-0.01134,-0.014904,0.568
0.46261078237,0.529676668745,-0.124034308622,-1.38437148978,0.0780801221522,1.90453237826,0.155636443314,-0.00695709813566,-0.0550235082566,-0.000743107510686,-0.104401341021,-0.00275315593106,0.0389379178716,-0.00605893851349,0.574165834694,0.818724608447,0.00208726956463,0.0,0.818680214557,-0.574103637766,-0.0121846747025,0.0,-0.00877775297374,0.00870499781422,-0.999923584113,0.0,0.65835528824,0.256566362368,0.30332556917,1.0,-0.01162,-0.015272,0.582
0.46243793667,0.528326389161,-0.124040633161,-1.38644768658,0.0779594529024,1.90531662505,0.155354830686,-0.00792729119729,-0.0608326741113,-0.000263165818967,-0.0998769368178,-0.000490993088704,0.0367526662289,-0.00873900121186,0.574161511142,0.818727510409,0.00213769142825,0.0,0.818683768457,-0.574099084889,-0.0121603822121,0.0,-0.00872896082098,0.0087322848248,-0.999923773317,0.0,0.658114026989,0.256253858697,0.303356390585,1.0,-0.01204,-0.015824,0.603
0.46232701091,0.52746262376,-0.124038209365,-1.38778389658,0.077864056298,1.90583264892,0.155149241782,-0.00692626819206,-0.0695846642894,-9.74968055403e-05,-0.109096039107,-0.0109438598305,0.0407240191724,-0.0165971821457,0.574129016471,0.818750221163,0.0021667239439,0.0,0.818706995518,-0.574066605111,-0.0121299335459,0.0,-0.00868770918005,0.00873822710474,-0.999924080666,0.0,0.65795988786,0.256054584029,0.303373051687,1.0,-0.0123,-0.0161657142857,0.616
0.462148093341,0.526022978418,-0.124043546273,-1.39000773713,0.0777306694427,1.90666089557,0.154868131582,-0.00860049852025,-0.0747238246804,0.000137692136143,-0.104602800465,0.000268329448814,0.0337770424816,-0.0174819694195,0.574133320579,0.818747105497,0.00220325728716,0.0,0.818704357472,-0.574070751373,-0.0121117453558,0.0,-0.00865179746014,0.0087577415344,-0.999924221311,0.0,0.657695899853,0.255723318668,0.303399572022,1.0,-0.01272,-0.0167177142857,0.637
0.462037035021,0.525194086335,-0.124046739974,-1.39129983754,0.0776423575691,1.90713006239,0.154695618702,-0.00762880161636,-0.0682527507378,0.00039994997372,-0.106201114195,-0.0104348331602,0.0412155686605,-0.015330585648,0.574130982092,0.818748748094,0.00220222576771,0.0,0.818706060835,-0.574068492764,-0.0121036552069,0.0,-0.00864579057908,0.00875222754169,-0.999924321546,0.0,0.657541939443,0.255523498835,0.303408380084,1.0,-0.01296,-0.0170331428571,0.649
0.461844250526,0.52374677859,-0.124055261798,-1.39362837847,0.0774996039299,1.90797440301,0.154370471952,-0.0143934745906,-0.0686053500475,-0.00131207188964,-0.107454594204,-0.00809022691949,0.0453106880791,-0.0182350706609,0.574115317576,0.818759825704,0.00216721912846,0.0,0.818716660691,-0.574052960327,-0.0121233307325,0.0,-0.0086821647597,0.00873469645137,-0.999924159671,0.0,0.657260135532,0.255168612971,0.303391255117,1.0,-0.01338,-0.0175851428571,0.67
0.461732377003,0.522812997119,-0.124054617789,-1.39511845378,0.0774144932447,1.90854458508,0.154171661991,-0.0100396060047,-0.07377487209,-0.00141285973421,-0.117482130929,-0.00637411969422,0.0449970381882,-0.0164292709608,0.574100855716,0.818769931019,0.00218046449377,0.0,0.818726890409,-0.574038394097,-0.0121222079516,0.0,-0.00867379602939,0.00874474323622,-0.999924144487,0.0,0.657080826467,0.254955753848,0.303387811768,1.0,-0.01364,-0.0179268571429,0.683
0.461534524649,0.521358412409,-0.1240555297,-1.39743998085,0.0772667008267,1.90945458267,0.153853465523,-0.00934048556468,-0.0752878633147,0.000544321097651,-0.116590603455,-0.00700791281295,0.0433281537476,-0.0175968249563,0.574089421429,0.818777821847,0.00222745534121,0.0,0.818735482403,-0.574026848374,-0.012088593878,0.0,-0.00861941934572,0.00876379931891,-0.999924447862,0.0,0.656799974854,0.254590260425,0.303395950438,1.0,-0.01406,-0.0184788571429,0.704
0.461388432509,0.520293134497,-0.124053772233,-1.39910688452,0.077167412519,1.91005524108,0.153634818902,-0.0130060955402,-0.0780572174931,0.000313464787419,-0.115562406942,-0.0118384518952,0.0383922179831,-0.00783844023467,0.57408909382,0.818778097086,0.00221065385342,0.0,0.818735479099,-0.574026532484,-0.0121038080603,0.0,-0.00864152534128,0.00875877357646,-0.999924301097,0.0,0.656609017634,0.254352514824,0.303390613245,1.0,-0.01432,-0.0188205714286,0.717
0.461193391452,0.518717397436,-0.124062060178,-1.40156305277,0.077007370908,1.91093038625,0.15331395429,-0.00446590076647,-0.0745991882177,5.07092811756e-05,-0.125304613981,-0.00785559904044,0.0404042151076,-0.0154453450107,0.57407914745,0.818785101485,0.00219930659904,0.0,0.818742381643,-0.574016682948,-0.0121040117116,0.0,-0.00864831228572,0.00874949470188,-0.999924323655,0.0,0.656304864533,0.253982359239,0.303403886896,1.0,-0.01472,-0.0193462857143,0.737
0.461045464581,0.517607963676,-0.124064625145,-1.40330060771,0.076902446033,1.91155686888,0.15306806533,-0.0088294692779,-0.0792871111618,0.006328854792,-0.125419463896,-0.00547047876384,0.039693675186,-0.0183471331155,0.574064541355,0.818795345002,0.00219824085596,0.0,0.81875256166,-0.574002033166,-0.0121101443732,0.0,-0.00865410173766,0.00875198831021,-0.999924251743,0.0,0.65609173187,0.253717690302,0.303409788576,1.0,-0.015,-0.0197142857143,0.751
0.460825517891,0.516030925999,-0.124071578056,-1.40582494859,0.0767411985296,1.91249532301,0.152720051339,-0.0127734103314,-0.0732449220784,-0.000356432284217,-0.127568700167,-0.00885470853221,0.04562126703,-0.00542793910146,0.574054708175,0.818802279009,0.00218330335694,0.0,0.818759356604,-0.573992322099,-0.0121110299419,0.0,-0.00866350635325,0.00874016208601,-0.999924273745,0.0,0.655788378222,0.253328083569,0.303396076718,1.0,-0.0154,-0.02024,0.771
0.46068556094,0.514978686431,-0.124075548086,-1.4075023062,0.0766360496759,1.91312558806,0.152483272375,-0.0122770077377,-0.0823376031876,-0.000784611314804,-0.128535996189,-0.00821493764111,0.0470866583063,-0.0208509005328,0.574038450357,0.818813675247,0.00218395089756,0.0,0.818770787935,-0.573976090471,-0.0121074890901,0.0,-0.0086604087816,0.00873848771516,-0.999924315212,0.0,0.655585823142,0.253074507653,0.303390257313,1.0,-0.01566,-0.0205817142857,0.784
0.460449148936,0.513259250849,-0.124081055637,-1.4103030923,0.0764649933857,1.914099292,0.152117746652,-0.00966747961257,-0.0765652645721,-0.00175920881616,-0.131679653268,-0.00610725894914,0.0470972562632,-0.0148493268219,0.5740374914,0.818814589895,0.00209111059882,0.0,0.818770345972,-0.573975393008,-0.0121702784785,0.0,-0.00876512430927,0.00869850294901,-0.999923751414,0.0,0.655229967401,0.25264503099,0.303346864583,1.0,-0.01608,-0.0211337142857,0.805
0.460296924991,0.512149360637,-0.124086231851,-1.4120606504,0.0763554330807,1.91472774379,0.151849786688,-0.0111304070618,-0.0906171904843,-0.00119888180725,-0.136128839869,-0.0140023616169,0.0466160766982,-0.0259508946019,0.574008844535,0.81883471849,0.0020729427708,0.0,0.818790209659,-0.573946803317,-0.0121822177543,0.0,-0.00878563311932,0.00869017329569,-0.999923643854,0.0,0.655011757897,0.252373255507,0.303342463688,1.0,-0.01634,-0.0214754285714,0.818
0.46006810399,0.510451286295,-0.124087534554,-1.41478023554,0.076193509043,1.91576725439,0.151475409446,-0.0118760208873,-0.0842197650144,-0.00063824716366,-0.140208408105,-0.0053085347214,0.0591151317521,-0.0205176825107,0.573989396078,0.818848315254,0.00208727015576,0.0,0.818803956291,-0.573927256619,-0.012179169629,0.0,-0.0087751202458,0.00869994678238,-0.999923651181,0.0,0.654682333832,0.251966546956,0.30332722672,1.0,-0.01674,-0.0220011428571,0.838
0.459916639597,0.509310862036,-0.124085115526,-1.41657437782,0.0760866116671,1.91642468051,0.151224468392,-0.0103987251562,-0.0927368965769,0.0036972777911,-0.134144046841,-0.00634875545678,0.0523573848051,-0.0233586120543,0.573970847259,0.818861303991,0.00209242052137,0.0,0.818816930839,-0.57390860647,-0.0121857331432,0.0,-0.0087777361848,0.00870773257686,-0.999923560449,0.0,0.654458564096,0.251698240695,0.30332834643,1.0,-0.017,-0.0223428571429,0.851
0.459655239056,0.507430068858,-0.124082997622,-1.41953686969,0.0758948697886,1.91748372658,0.150801978406,-0.016789324443,-0.0922118067003,0.00204785045176,-0.148080899802,-0.00859168927781,0.0531791785432,-0.018580847724,0.573939145278,0.818883583946,0.00206890383835,0.0,0.818838867835,-0.573876978423,-0.0122011909474,0.0,-0.00880422819666,0.0086970074247,-0.999923420882,0.0,0.654086577016,0.251242608813,0.303325691417,1.0,-0.01742,-0.0228948571429,0.872
0.459500786201,0.506329836955,-0.124095971098,-1.42124646001,0.075786777718,1.91812487533,0.150566739643,-0.0160943298751,-0.0996528752611,-1.92549507623e-05,-0.141822487046,-0.00888330609177,0.0482670430505,-0.0169229132782,0.573942920522,0.818880841164,0.00210685972831,0.0,0.818836685948,-0.573880648271,-0.012174981989,0.0,-0.00876094214086,0.00871308651165,-0.999923661094,0.0,0.653864970521,0.250949423324,0.303347901587,1.0,-0.01768,-0.0232365714286,0.885
0.459224161946,0.504316886252,-0.124103925782,-1.42430513021,0.0755995719439,1.91928995817,0.150154127578,-0.0123374736953,-0.0876337371797,-0.00365067029648,-0.145723725644,-0.00829365956772,0.048146175364,-0.0214745293593,0.573943314838,0.818880346988,0.00218987925092,0.0,0.818837353117,-0.573880756035,-0.0121249286499,0.0,-0.00867230318859,0.00875234518073,-0.999924090925,0.0,0.653514647975,0.250498537621,0.303389252764,1.0,-0.01808,-0.0237622857143,0.905
0.459043490669,0.503028328494,-0.124114477609,-1.42619494674,0.0754758999821,1.92001203796,0.149883209404,-0.0131420904158,-0.105738779319,-0.00298027258182,-0.14093130719,-0.00917125566507,0.0575937911816,-0.0192153381749,0.573940626947,0.818881965796,0.00228686156714,0.0,0.818840391302,-0.573877811539,-0.0120589343319,0.0,-0.00856262959684,0.00879385626026,-0.999924671896,0.0,0.653292888934,0.250196067081,0.303452527499,1.0,-0.01834,-0.024104,0.918
0.458753830022,0.500917703506,-0.124108154475,-1.42935647065,0.075278596255,1.92112220973,0.14944719052,-0.0153443797149,-0.106096999517,0.00136660907967,-0.152383067943,-0.00871294031359,0.0461530937605,-0.016494368204,0.573924271754,0.818893273924,0.00234160538201,0.0,0.818852292564,-0.573861105073,-0.0120458269881,0.0,-0.00852065449625,0.00883099144112,-0.999924703184,0.0,0.652890654182,0.249706901267,0.303516941132,1.0,-0.01876,-0.024656,0.939
0.45856871508,0.499611103046,-0.124113903948,-1.43133926226,0.0751416867996,1.92184737493,0.149167594761,-0.0159108452569,-0.0985666156876,-0.000323781943628,-0.156411493441,-0.00297397799575,0.0592347433561,-0.0307696350205,0.573914870012,0.818899767536,0.00237478611154,0.0,0.818859343008,-0.573851696679,-0.0120147196441,0.0,-0.00847623927811,0.00884021225936,-0.999924999195,0.0,0.652646580979,0.249391862971,0.303547704541,1.0,-0.01902,-0.0249977142857,0.952
0.458278688893,0.497655273918,-0.124113883762,-1.43444055998,0.0749498606487,1.92300340684,0.148720485953,-0.0161405475439,-0.0963718343103,0.000223061982856,-0.145090625852,-0.0106144640216,0.0604036812272,-0.0146996673378,0.573897115954,0.818912187283,0.00238258700956,0.0,0.818871776408,-0.573833821049,-0.0120210866693,0.0,-0.00847716858197,0.0088500706184,-0.999924904112,0.0,0.652242916216,0.248876805302,0.303537523105,1.0,-0.01944,-0.0255497142857,0.973
0.458020469997,0.496089367008,-0.12411342556,-1.43697393699,0.0747946013742,1.92388973482,0.148340268046,-0.0152996869532,-0.0981144514957,0.00451185961035,-0.159947524916,-0.00804745490335,0.0471202169544,-0.0297876500359,0.573878111647,0.818925701247,0.00231424075917,0.0,0.818884280936,-0.573814980525,-0.0120685318981,0.0,-0.00855544965044,0.00882113151014,-0.999924493109,0.0,0.651939980027,0.248495307739,0.303498011418,1.0,-0.01974,-0.025944,0.988
0.457735124447,0.494306464228,-0.124117451904,-1.43988581865,0.0746219040515,1.9248934272,0.147931142142,-0.0156397634749,-0.102906866337,0.00250232240822,-0.162673789656,-0.00818252605217,0.0527388600864,-0.0242602399848,0.573879660828,0.818924899384,0.00221155110506,0.0,0.818881884853,-0.573816709369,-0.0121486463677,0.0,-0.00867997114295,0.0087830292949,-0.999923755342,0.0,0.651562396435,0.248025568139,0.303441158259,1.0,-0.0245514285714,-0.0322675918367,1.006
0.45747744193,0.492386063847,-0.124196113715,-1.44268576098,0.0744589373948,1.9259333,0.14752164646,-0.017015563173,-0.166035788668,-0.0050650442393,-0.244689665337,-0.022599740795,0.0953488166331,-0.0400985836623,0.573908652818,0.818904229107,0.00233851916888,0.0,0.818863152893,-0.573845444445,-0.0120536145774,0.0,-0.00852897159082,0.00883277094167,-0.999924616559,0.0,0.651230837735,0.247549159569,0.303537541398,1.0,-0.0364371428571,-0.0478888163265,1.019
0.456925669942,0.487886403168,-0.124251235058,-1.44974941853,0.0741130735997,1.92866401682,0.146449733722,-0.0335440514657,-0.257915916684,-0.000532275383774,-0.392142997618,-0.0157507512835,0.145641383824,-0.0533294353827,0.573784313013,0.818990840776,0.00251232290943,0.0,0.818951537794,-0.573719887709,-0.0120256431637,0.0,-0.00840768386203,0.00895776857616,-0.999924531769,0.0,0.650340868677,0.246508646209,0.303542904697,1.0,-0.0556371428571,-0.0731231020408,1.04
0.456370277868,0.484074023581,-0.124333994457,-1.45576768767,0.0737621172785,1.93094335905,0.145529303131,-0.0434443483767,-0.312777556917,-0.00650324081837,-0.497544017859,-0.0265725856364,0.17781516218,-0.0781358181485,0.57374903348,0.819015392614,0.0025651790229,0.0,0.818976906023,-0.57368453669,-0.0119844342554,0.0,-0.00834399323543,0.00897705278653,-0.999924892329,0.0,0.649597816143,0.245533955755,0.303525915695,1.0,-0.0675228571429,-0.0887443265306,1.053
0.455167976858,0.476292771825,-0.124548142323,-1.46818788049,0.0730194147996,1.93519941592,0.143674147517,-0.0613609517723,-0.406555747935,-0.00690641257579,-0.64956955171,-0.0348871332261,0.217329881531,-0.0971033101167,0.573774277615,0.818998712343,0.002221357352,0.0,0.818955480781,-0.573710947755,-0.0121826034208,0.0,-0.00870328704813,0.00880942686418,-0.999923320457,0.0,0.647976494913,0.243429412688,0.303382938887,1.0,-0.0867228571429,-0.113978612245,1.074
0.454325216254,0.470955150516,-0.124662982476,-1.47656749725,0.0725219283772,1.93813418466,0.142468938666,-0.0738497437728,-0.460104916983,-0.0107351954729,-0.7062465978,-0.0362229131198,0.258952397317,-0.105262334137,0.573829261199,0.818960439412,0.00212710383848,0.0,0.818915749734,-0.573766118007,-0.0122549404528,0.0,-0.00881602104188,0.00877433119376,-0.99992264145,0.0,0.646883158795,0.242014175975,0.303343530877,1.0,-0.0976942857143,-0.128398204082,1.086
0.45256333448,0.460089382786,-0.124812637328,-1.493178972,0.0714926562289,1.94426710257,0.139809979198,-0.0936134981491,-0.549121992242,-0.00326602611443,-0.834628077004,-0.0590146242463,0.298269104873,-0.123190812307,0.573709616716,0.819043381462,0.00244169465988,0.0,0.819003003521,-0.573645328839,-0.0120774097086,0.0,-0.00849141923704,0.00892885326304,-0.999924082808,0.0,0.644756874433,0.239217913154,0.303465486331,1.0,-0.116894285714,-0.153632489796,1.107
0.451242985156,0.452468030142,-0.124961515291,-1.50502730119,0.0707474774721,1.94832380448,0.137959913636,-0.11013312085,-0.611985670609,-0.013919960471,-0.931965895397,-0.0606923966553,0.328389659549,-0.149551587325,0.573728372864,0.819030689323,0.00228714228719,0.0,0.818988002829,-0.573664440688,-0.0121863699821,0.0,-0.00866912571337,0.00886497899325,-0.999923126249,0.0,0.643168147497,0.237138304043,0.303421128808,1.0,-0.12878,-0.169253714286,1.12
0.448778046924,0.43859126094,-0.125155014302,-1.52622146456,0.0692995917637,1.9557844317,0.134671576335,-0.124696245452,-0.682221813722,-0.00629412801881,-1.065309107,-0.0696202231289,0.358774473158,-0.163128431795,0.573750389769,0.819015103049,0.00234480659382,0.0,0.818973703602,-0.573686756112,-0.01209651069,0.0,-0.00856220530978,0.00886088326308,-0.999924083812,0.0,0.640325244175,0.233404298139,0.303488139021,1.0,-0.14798,-0.194488,1.141
0.447022903954,0.429046134326,-0.125276786116,-1.54051431721,0.0683696242953,1.9607753371,0.132314861077,-0.135942927057,-0.759835162441,-0.0105248655143,-1.12801712245,-0.0762404082092,0.38515407906,-0.180086783897,0.573716074791,0.819038531818,0.00254869068088,0.0,0.818999634531,-0.573651438181,-0.0120155321341,0.0,-0.0083792850508,0.00898105358181,-0.999924561284,0.0,0.638376889879,0.2308475905,0.303629821543,1.0,-0.159865714286,-0.21010922449,1.154
0.443950513222,0.413253240339,-0.125502992346,-1.56414864782,0.0666559843466,1.96908337015,0.128362178981,-0.15806793818,-0.826161887384,-0.0144314759375,-1.21967683864,-0.0974891514728,0.445690917898,-0.211869705221,0.573682639223,0.819060981861,0.00284329899785,0.0,0.819027144035,-0.573618249312,-0.0117212751524,0.0,-0.00796962438156,0.0090532054246,-0.999927259634,0.0,0.635138392402,0.226490656585,0.303826757019,1.0,-0.178151428571,-0.234141877551,1.174
0.441703243813,0.402334135649,-0.125602218066,-1.58071454004,0.0655400866652,1.97469332179,0.125570032855,-0.179481959034,-0.823583138063,-0.0104964474112,-1.28995500404,-0.0834455898271,0.417972218626,-0.22505847493,0.573674943574,0.819066466761,0.00281585572899,0.0,0.819031629596,-0.573609925625,-0.0118148147373,0.0,-0.00806207098692,0.00908431298537,-0.999926236414,0.0,0.632765575984,0.223424620517,0.303807770054,1.0,-0.190037142857,-0.249763102041,1.187
0.437641823947,0.383301231333,-0.125833924158,-1.60899765026,0.0635216477721,1.98429857698,0.120628142857,-0.204193135053,-0.925851310157,-0.00706809417222,-1.37396385099,-0.0979537464518,0.446226426511,-0.251990723579,0.573663222764,0.819073765081,0.00306938194347,0.0,0.819042290548,-0.573597396826,-0.0116833021826,0.0,-0.00780904716302,0.00921641184466,-0.999927035606,0.0,0.628682934821,0.21803112288,0.303969942348,1.0,-0.209237142857,-0.274997387755,1.208
0.434839675096,0.37070461242,-0.125999226132,-1.62758141849,0.0621223307416,1.99052522041,0.117269196441,-0.221705618713,-0.986056015654,-0.0155278516128,-1.45077394301,-0.110392156565,0.479447767649,-0.263340242905,0.573624166789,0.819100559727,0.00321484551509,0.0,0.819071358533,-0.57355833574,-0.0115625272291,0.0,-0.00762711792755,0.00926591132879,-0.999927982386,0.0,0.625940821307,0.214403763423,0.30407974244,1.0,-0.221122857143,-0.290618612245,1.221
0.429999823569,0.350549584528,-0.126248640344,-1.65759371343,0.0597840499139,2.00030743469,0.111802057518,-0.255415893391,-1.02142210353,-0.0131313273783,-1.56426905556,-0.121772745613,0.491126354092,-0.288558146185,0.573684381882,0.819059023968,0.00304830158747,0.0,0.819027928727,-0.573619393389,-0.0116099266052,0.0,-0.00776079966552,0.00915725400901,-0.999927954749,0.0,0.621383719017,0.20837314607,0.304025157423,1.0,-0.239408571429,-0.314651265306,1.241
0.426555755141,0.336710702609,-0.126429454032,-1.67772065616,0.0582992337628,2.00685864568,0.107951630802,-0.267901071586,-1.05290480735,-0.0112227018073,-1.57882183819,-0.111146220822,0.49289069096,-0.297807464337,0.573734296585,0.819023220154,0.00326629345204,0.0,0.818994532259,-0.573668102614,-0.0115590256243,0.0,-0.0075934882196,0.00930706510357,-0.999927856136,0.0,0.618280255085,0.204246765445,0.304139144899,1.0,-0.251294285714,-0.330272489796,1.254
0.420519777033,0.313403812404,-0.126652110328,-1.71182078898,0.0554761425607,2.01765169319,0.101236398129,-0.303029394371,-1.11939958551,-0.00861510792564,-1.628209788,-0.146665000884,0.508144755211,-0.337391941195,0.573576475581,0.819134240876,0.0031414940902,0.0,0.819104246847,-0.573511073433,-0.0115770612453,0.0,-0.00768163352217,0.00921371853005,-0.99992804736,0.0,0.612820128429,0.197184397891,0.304100536986,1.0,-0.270494285714,-0.35550677551,1.275
0.416480392222,0.298306092564,-0.126799478322,-1.73362508793,0.0536827033138,2.02445396354,0.0967697745011,-0.317936389225,-1.15861314984,-0.0131501913979,-1.72026191465,-0.134595414935,0.511509476745,-0.344820721159,0.573436814065,0.819231889057,0.00317476427005,0.0,0.819202159257,-0.573371123657,-0.0115811798393,0.0,-0.00766750130358,0.00924202655299,-0.999927894585,0.0,0.609235353588,0.192602209431,0.304117003546,1.0,-0.28238,-0.371128,1.288
0.409538325918,0.274215020839,-0.127064246964,-1.76799519366,0.0508148931898,2.03482347523,0.0894724264514,-0.366259433603,-1.22552101706,-0.0152850140587,-1.72480962929,-0.141664005612,0.502313829672,-0.375817186842,0.573403162834,0.819255325451,0.00320491379248,0.0,0.819225264744,-0.573336508563,-0.0116602081752,0.0,-0.0077153421036,0.00931172587666,-0.999926879955,0.0,0.603454578374,0.185074047078,0.304174042886,1.0,-0.300665714286,-0.395160653061,1.308
0.404584855138,0.25793716741,-0.127325703505,-1.790996397,0.0487706143147,2.04174967895,0.0843965454431,-0.394329557192,-1.24165778841,-0.0227579699705,-1.7702558648,-0.163122163647,0.525749746629,-0.397854493283,0.573438112103,0.819230547237,0.00328465547876,0.0,0.819201995476,-0.573371775695,-0.0115604647944,0.0,-0.00758750323841,0.00932018687189,-0.999927779348,0.0,0.599536515877,0.179848466135,0.304222292444,1.0,-0.312551428571,-0.410781877551,1.321
0.395874604219,0.230759600885,-0.1277326066,-1.82880670544,0.0453356540395,2.05292303054,0.0756788925462,-0.423559133483,-1.32866993755,-0.0152498604927,-1.81906490154,-0.170337666134,0.552364455581,-0.432595379857,0.573505076066,0.819182318216,0.00360612675684,0.0,0.819158631474,-0.57343870065,-0.0113110556451,0.0,-0.00719806272799,0.00944111945797,-0.999929524095,0.0,0.592936290264,0.171040341775,0.304383023582,1.0,-0.331751428571,-0.436016163265,1.342
0.390081396135,0.213419619534,-0.127925455541,-1.85274266293,0.0431344856362,2.0596885107,0.069866439217,-0.455457294285,-1.3630176389,-0.01710309122,-1.83838433032,-0.17986400059,0.542296658061,-0.451491783398,0.573405959463,0.819251251468,0.00370668611055,0.0,0.81922856943,-0.573338944894,-0.0113027517982,0.0,-0.00713474341799,0.00951787164764,-0.999929250275,0.0,0.588589581732,0.16540573188,0.304433638169,1.0,-0.343637142857,-0.451637387755,1.355
0.379854807238,0.184545638462,-0.128386347966,-1.89231411625,0.03929276508,2.07033495585,0.0598525238499,-0.506020344221,-1.37731415466,-0.0266764454032,-1.90996153458,-0.185402551843,0.490084408136,-0.497550387101,0.573359804427,0.819284235298,0.00355293693094,0.0,0.819259240791,-0.5732927867,-0.0114203326642,0.0,-0.00731976632773,0.00945891822895,-0.999928472385,0.0,0.581182237494,0.155738348689,0.304411850901,1.0,-0.362837142857,-0.476871673469,1.376
0.373416575312,0.167643849452,-0.128754020829,-1.91519245472,0.0370854408466,2.07635340698,0.0537546554018,-0.539461510517,-1.41970631859,-0.0286321055129,-1.93760482271,-0.185825436854,0.48931014153,-0.511931245756,0.573540007003,0.819158145453,0.0035411871544,0.0,0.819132640954,-0.573472536851,-0.0114766241384,0.0,-0.00737053847009,0.00948318765536,-0.999927869556,0.0,0.576450180575,0.149385512372,0.304409589159,1.0,-0.374722857143,-0.492492897959,1.389
0.361412669412,0.137125742052,-0.12929891998,-1.95569067695,0.032798772984,2.08664077478,0.0423952003382,-0.598429169981,-1.46882776149,-0.0256425515027,-1.92356159555,-0.202497861138,0.500284406533,-0.560313596078,0.57350874137,0.819179568106,0.00364769399203,0.0,0.819156024233,-0.573441736485,-0.0113459120906,0.0,-0.0072027380642,0.00949519308278,-0.999928978414,0.0,0.568872774941,0.13937833273,0.304505097927,1.0,-0.393008571429,-0.51652555102,1.409
0.35336436231,0.117810318989,-0.12969372499,-1.98101204056,0.0301281621757,2.09275411937,0.0348636292728,-0.633707832124,-1.51511166236,-0.0359365336224,-1.92944982129,-0.205099503064,0.473452998886,-0.588073422821,0.573553565335,0.819147970131,0.00369562205528,0.0,0.819124687327,-0.573485950822,-0.0113735536917,0.0,-0.00719737466322,0.00955070141149,-0.999928488393,0.0,0.563744745818,0.132602578405,0.304537867309,1.0,-0.404894285714,-0.53214677551,1.422
0.339323208504,0.0857583437799,-0.130342171841,-2.02247676575,0.0254434630338,2.10229389421,0.0218376613379,-0.682120982262,-1.54354268442,-0.0277235203547,-2.00248070188,-0.222784455533,0.42983253871,-0.640143536681,0.573499949496,0.819185689822,0.00365519069957,0.0,0.819162121947,-0.57343276621,-0.0113590274349,0.0,-0.00720928541218,0.00950877850329,-0.999928802133,0.0,0.555079574102,0.121228399308,0.304550906089,1.0,-0.41998,-0.551973714286,1.443
0.330069080257,0.065890097292,-0.130690479481,-2.04783168328,0.0225581372014,2.10783807126,0.0133335263851,-0.72173336723,-1.52539168272,-0.0237134696129,-1.95651958333,-0.227159244114,0.420254647594,-0.659253278119,0.573438756647,0.819228462123,0.00366962188045,0.0,0.819204606565,-0.573370916829,-0.0114171458264,0.0,-0.00724933592736,0.00955338898831,-0.999928087358,0.0,0.549615737264,0.114092716688,0.304532693033,1.0,-0.41998,-0.551973714286,1.456
0.314940179545,0.0355840732729,-0.131333336113,-2.0857196166,0.0180051944861,2.11536348912,-4.43715787263e-05,-0.764852568708,-1.52292268966,-0.0223327574146,-1.84487213953,-0.205937307484,0.36795903085,-0.687718520163,0.573734506986,0.819021870902,0.00355490920052,0.0,0.81899588494,-0.573666121601,-0.0115614999071,0.0,-0.00742993335987,0.00954487122412,-0.999926843086,0.0,0.541198170475,0.102871579558,0.304555562419,1.0,-0.41998,-0.551973714286,1.476
0.30477808797,0.0160352624863,-0.131654025707,-2.10958529828,0.0150195960995,2.11993387025,-0.00908119440971,-0.791144326773,-1.50893610263,-0.0213606116565,-1.78445663751,-0.230495529146,0.353734916691,-0.708191332365,0.573741496127,0.819016346103,0.00369693653282,0.0,0.818992517424,-0.573673106297,-0.0114529653699,0.0,-0.00725947255205,0.00959898965447,-0.999927577105,0.0,0.535755881989,0.0956748121158,0.30465921533,1.0,-0.41998,-0.551973714286,1.489
0.287658022712,-0.0150659008329,-0.132214074518,-2.14691922747,0.0102536622899,2.12668367995,-0.024189231506,-0.817042589313,-1.47188349687,-0.0138166868132,-1.77081890734,-0.224536170158,0.302854690633,-0.732494361867,0.573841675371,0.818944526298,0.00404244421865,0.0,0.818925690409,-0.573773090293,-0.0112205768966,0.0,-0.00686971658301,0.00974948377543,-0.999928874751,0.0,0.527013636315,0.0840249039962,0.304826299066,1.0,-0.41998,-0.551973714286,1.51
0.276706730253,-0.0340281562221,-0.132527958259,-2.16931974357,0.00721701297416,2.13030282025,-0.0338403401238,-0.852212865711,-1.44542656595,-0.026627210201,-1.71886320304,-0.254274401055,0.299000611605,-0.74822427625,0.573808272583,0.818967599774,0.00410898234732,0.0,0.818950125503,-0.573740260155,-0.0111154269799,0.0,-0.0067458158311,0.00974336315329,-0.999929777956,0.0,0.521575935195,0.0768534497564,0.304902608004,1.0,-0.41998,-0.551973714286,1.523
0.259130292014,-0.0627673414562,-0.133120684964,-2.20295761557,0.00270999946898,2.13517985457,-0.0492313351746,-0.883697803732,-1.42894624838,-0.0208749527837,-1.65648419388,-0.225685268126,0.227009710726,-0.783539078518,0.573966429357,0.81885673434,0.00411503316485,0.0,0.818838380425,-0.573897002088,-0.0112554271072,0.0,-0.0068551090699,0.00982997365717,-0.99992818697,0.0,0.513145831717,0.065733750407,0.304893191126,1.0,-0.41998,-0.551973714286,1.543
0.246420675822,-0.082606659781,-0.133527024769,-2.22568768758,-0.000491077033721,2.13810422802,-0.0604195675231,-0.918186780616,-1.40619509332,-0.036464521724,-1.57610480067,-0.22986759725,0.182198836351,-0.813408923814,0.573972750953,0.818852227841,0.00413001493795,0.0,0.818833844055,-0.573902965542,-0.011281350722,0.0,-0.00686766357499,0.00985717369719,-0.999927833058,0.0,0.50726620934,0.0579890051411,0.304919790157,1.0,-0.41998,-0.551973714286,1.557
0.227667523857,-0.110438136796,-0.134000210077,-2.25725075568,-0.00503518809847,2.14165932566,-0.0769197512344,-0.953465351552,-1.36867312143,-0.023845314892,-1.57191547423,-0.221662886295,0.155606669931,-0.828138200168,0.573880168245,0.81891772482,0.00400741477672,0.0,0.818896825061,-0.573809405472,-0.0114674756775,0.0,-0.0070915633353,0.00986280599807,-0.999926214672,0.0,0.498820200142,0.0470277076325,0.304847366883,1.0,-0.41998,-0.551973714286,1.577
0.214969114451,-0.128340004029,-0.134425874827,-2.27711091086,-0.0080311684175,2.14364521884,-0.0880577258741,-0.983372345532,-1.3796257872,-0.0347870326848,-1.52142566954,-0.231242655867,0.134967987243,-0.866161502764,0.573922187103,0.81888827108,0.00400868309135,0.0,0.818867444578,-0.573851493742,-0.0114594171579,0.0,-0.00708372990782,0.00985958366484,-0.999926301975,0.0,0.493364178128,0.0398099424011,0.304844174506,1.0,-0.41998,-0.551973714286,1.59
0.193867694744,-0.156646697526,-0.135007117021,-2.30820530229,-0.0127596286596,2.14609893827,-0.106769314385,-1.029973313,-1.33238225548,-0.0443046900055,-1.44965779861,-0.227699380872,0.0952268911325,-0.906613195286,0.573764321622,0.818999830023,0.003811634416,0.0,0.818974957285,-0.573692224869,-0.0117472280506,0.0,-0.00743441588372,0.00986196333977,-0.999923732661,0.0,0.484489593022,0.0282948444357,0.304711671622,1.0,-0.41998,-0.551973714286,1.611
0.18033209982,-0.173957764905,-0.135361895415,-2.32680530598,-0.0156564617682,2.14723815471,-0.118725591937,-1.04796926721,-1.32534688763,-0.0257914794488,-1.43420570946,-0.223952133161,0.0671955631891,-0.923497204799,0.573711898368,0.819036855355,0.00374621702446,0.0,0.819010298774,-0.573638935994,-0.0118848018276,0.0,-0.00758526080722,0.00988683289486,-0.999922354162,0.0,0.479001448448,0.0211735702753,0.304661373996,1.0,-0.41998,-0.551973714286,1.624
0.158709377472,-0.200263788351,-0.136083701422,-2.35445499674,-0.0201220807477,2.14843856072,-0.137859532277,-1.09270650136,-1.29935416554,-0.027807214236,-1.37110338387,-0.218767214564,0.0410903358426,-0.971321135123,0.573755716227,0.819006304278,0.0037146401947,0.0,0.818978381774,-0.573681624568,-0.0120229247764,0.0,-0.00771597892268,0.00994062321957,-0.999920820705,0.0,0.470568699785,0.0100987042594,0.30463080971,1.0,-0.41998,-0.551973714286,1.644
0.144206695607,-0.217090793633,-0.136540965764,-2.37175846798,-0.0229222618723,2.14885218024,-0.150776486017,-1.13517539741,-1.3067493589,-0.0340556342083,-1.30744845841,-0.22780906921,0.0392434597996,-1.00152014611,0.573759448886,0.819003435402,0.00377021410449,0.0,0.818975337047,-0.573683982777,-0.0121174302414,0.0,-0.0077614549846,0.0100403957729,-0.999919471892,0.0,0.465098319693,0.00293195766307,0.304637073437,1.0,-0.41998,-0.551973714286,1.657
0.119982085628,-0.243880211632,-0.13734113685,-2.39868347978,-0.0275391893118,2.14913535026,-0.17229819848,-1.17929135076,-1.27136045471,-0.036296049349,-1.2527655209,-0.216481743576,0.0174056651558,-1.03307436923,0.573836186263,0.818948892721,0.00393565077818,0.0,0.818923402526,-0.573760678164,-0.0119954945295,0.0,-0.00756572096666,0.0101066399437,-0.999920304672,0.0,0.456294688636,-0.00868200901133,0.304706545684,1.0,-0.41998,-0.551973714286,1.678
0.103227270056,-0.26135456164,-0.137937833111,-2.41598943176,-0.0305492092484,2.14901291978,-0.187281631696,-1.20360365202,-1.24642261068,-0.03149669995,-1.23574502981,-0.215149217527,-0.0165622100702,-1.06680701989,0.573910692963,0.818896130109,0.00404864123186,0.0,0.818872020056,-0.573834639019,-0.0119653137173,0.0,-0.00747524244043,0.0101825365564,-0.999920215167,0.0,0.450407095653,-0.0164645465503,0.304715463488,1.0,-0.41998,-0.551973714286,1.692
0.0773890402043,-0.286960709041,-0.138756925851,-2.440609936,-0.0349411723215,2.14835599273,-0.210519559029,-1.25117933468,-1.20617396249,-0.0244299905397,-1.1629318994,-0.202713362797,-0.0529276344809,-1.10661117022,0.573940176825,0.818873769535,0.00437834388615,0.0,0.818855049623,-0.573864560309,-0.011688499898,0.0,-0.00705896548949,0.0102939268884,-0.999922100004,0.0,0.441675245719,-0.0280393939997,0.304844129012,1.0,-0.41998,-0.551973714286,1.713
0.0621517992285,-0.301292863559,-0.139286349083,-2.45398307382,-0.0374172198636,2.14774174588,-0.224324097805,-1.28462542095,-1.19894917041,-0.053345658915,-1.10943588913,-0.209306067701,-0.0431342645338,-1.16710684618,0.573963548897,0.81885585586,0.0046560459534,0.0,0.818842053262,-0.573889111686,-0.0113897409774,0.0,-0.00665463014219,0.0103500616517,-0.999924293195,0.0,0.436726075017,-0.0346907276308,0.304985458239,1.0,-0.41998,-0.551973714286,1.725
0.0360414835633,-0.324318836236,-0.140131425358,-2.47558353447,-0.041407128158,2.14618253968,-0.247955962801,-1.33417822573,-1.14767150121,-0.0619672634956,-1.0319161526,-0.191085813536,-0.0752113213358,-1.21305044885,0.574082423004,0.818771964645,0.00475272652672,0.0,0.818758612536,-0.574006452761,-0.0114749068366,0.0,-0.00666736468758,0.010479079852,-0.999922864592,0.0,0.428344010115,-0.045725850337,0.304972852386,1.0,-0.41998,-0.551973714286,1.745
0.0186767163605,-0.338892999241,-0.140640361247,-2.48904287911,-0.0440392899798,2.14494301244,-0.263925061793,-1.3439622133,-1.11446148966,-0.0433040962395,-1.02283280353,-0.193354878807,-0.10451340275,-1.25972278199,0.57392315076,0.818883768558,0.00472625802818,0.0,0.818869920203,-0.57384704043,-0.0115054282035,0.0,-0.00670958840475,0.0104736237895,-0.999922639322,0.0,0.422881565717,-0.0528442409795,0.304951630817,1.0,-0.41998,-0.551973714286,1.758
-0.0103835838185,-0.361759669135,-0.141542286429,-2.50966696918,-0.0481446457752,2.14256463755,-0.290535842831,-1.40058163066,-1.07503998091,-0.0382532147312,-0.958285643162,-0.188033205629,-0.12385765921,-1.27900769083,0.573945985489,0.818867467371,0.00477739707785,0.0,0.818854057466,-0.573869374466,-0.0115204393438,0.0,-0.0066922399622,0.0105243035192,-0.999922223455,0.0,0.414051630399,-0.064443014855,0.304965052706,1.0,-0.41998,-0.551973714286,1.779
-0.0288569138429,-0.375350540459,-0.142128339915,-2.52190696879,-0.0506826818094,2.14089236683,-0.307604579355,-1.42625769589,-1.02509877681,-0.0371384257071,-0.945532194007,-0.191743415414,-0.133497866437,-1.31374737491,0.57388521886,0.818910736593,0.00465918107136,0.0,0.81889479783,-0.573807434798,-0.0117083200303,0.0,-0.00691472937144,0.0105348137724,-0.999920598956,0.0,0.408527051546,-0.0716159413001,0.304878682613,1.0,-0.41998,-0.551973714286,1.792
-0.0609484907149,-0.397569475943,-0.143142068011,-2.54104009486,-0.0545424885728,2.1379066154,-0.337338062014,-1.46387128365,-0.980759309646,-0.0436595300008,-0.816709670496,-0.165390888935,-0.148389922799,-1.37799552517,0.57398538856,0.81883860096,0.00498660188929,0.0,0.818827120249,-0.57390691125,-0.0115650882134,0.0,-0.00660822259348,0.01072156294,-0.999920686596,0.0,0.39975786617,-0.0831874206944,0.304979310902,1.0,-0.41998,-0.551973714286,1.813
-0.0789240821603,-0.409079088531,-0.143641749881,-2.55094530942,-0.0567124399535,2.13602792992,-0.354116394298,-1.48584563329,-0.945641485067,-0.0346940367168,-0.818518112965,-0.176190471739,-0.17025438215,-1.40744169546,0.573922568157,0.818883098837,0.0049094908836,0.0,0.818869855416,-0.573843116616,-0.0117040293646,0.0,-0.00676708457264,0.0107376474137,-0.999919451503,0.0,0.394269377324,-0.0903321948358,0.304953532377,1.0,-0.41998,-0.551973714286,1.826
-0.109566323093,-0.427418959495,-0.144545099485,-2.56616618454,-0.0600626504616,2.13314424899,-0.382915181748,-1.54040786809,-0.891062359735,-0.0451197897518,-0.740928869645,-0.15696726376,-0.156123401474,-1.45860072202,0.573873224336,0.818916010334,0.00518047398054,0.0,0.818907930175,-0.573795700268,-0.0113597161502,0.0,-0.0063302416096,0.010761575353,-0.999922055231,0.0,0.385980213319,-0.101371002837,0.305078499324,1.0,-0.41998,-0.551973714286,1.846
-0.129921431293,-0.438656422507,-0.145107369779,-2.57552831411,-0.0621855532692,2.13099834076,-0.402055824697,-1.56910472466,-0.838321998606,-0.0284929318629,-0.706596093961,-0.174729713571,-0.164178987214,-1.4804937529,0.57386935339,0.818918908758,0.00515102117902,0.0,0.818909616168,-0.573790509173,-0.01149952311,0.0,-0.00646169425906,0.0108176529414,-0.999920609295,0.0,0.380498116589,-0.108508671233,0.305053811468,1.0,-0.41998,-0.551973714286,1.859
-0.163577679693,-0.455833820409,-0.146044119123,-2.58920842687,-0.0653811242442,2.12780262233,-0.433972415568,-1.60652271835,-0.774560897625,-0.050877791738,-0.637000148078,-0.134029764735,-0.158688216704,-1.53993268227,0.573852471322,0.818928824514,0.00544687423448,0.0,0.818925470045,-0.573776577077,-0.0110571700934,0.0,-0.0059298606212,0.0108059764752,-0.999924030927,0.0,0.371798695734,-0.120106393581,0.305231122845,1.0,-0.416322857143,-0.547167183674,1.88
-0.18463696244,-0.465445907971,-0.146337333624,-2.59694267943,-0.0671173550185,2.12572587657,-0.454024611451,-1.61463979858,-0.726418976141,-0.00728961956333,-0.590426174189,-0.142245260213,-0.157029414938,-1.54190058603,0.573707814411,0.819030106582,0.00545665618989,0.0,0.819026517833,-0.573631268209,-0.0111120709221,0.0,-0.00597112698402,0.0108444368296,-0.99992336898,0.0,0.366449725862,-0.127098462949,0.30523565768,1.0,-0.404437142857,-0.531545959184,1.893
-0.216875727333,-0.478869561862,-0.146703554421,-2.60707671868,-0.0693669603557,2.12300842771,-0.484516633665,-1.59492989591,-0.646735265869,-0.0263092458977,-0.466532776274,-0.0906021681678,-0.125967489407,-1.51767687206,0.573850428873,0.818927471243,0.0058505577917,0.0,0.818932130811,-0.573779418237,-0.0103966934371,0.0,-0.00515730751379,0.010757563863,-0.999928835967,0.0,0.358647922598,-0.137660561429,0.305514353631,1.0,-0.386151428572,-0.507513306123,1.913
-0.237558074525,-0.486676035308,-0.146678481976,-2.6128280837,-0.0706092663622,2.12129578371,-0.504089138503,-1.58590961539,-0.577919357777,0.0142048355847,-0.43170869404,-0.0887710591975,-0.138589089512,-1.48814049094,0.573867829099,0.818914024001,0.00602353059116,0.0,0.818922851631,-0.573801009677,-0.00992528446094,0.0,-0.00467173664765,0.010628812933,-0.999932599335,0.0,0.353750504473,-0.144249225186,0.305710773508,1.0,-0.374265714286,-0.491892081633,1.926
-0.270256221924,-0.497721552503,-0.146503849699,-2.62094575374,-0.0721527181624,2.11876146908,-0.535168272946,-1.52141264688,-0.49249919871,0.00686696057662,-0.35942797845,-0.0500138378147,-0.0981809227031,-1.45993865416,0.573920602145,0.818874564141,0.0063511839867,0.0,0.818889408121,-0.573858567861,-0.00933960715531,0.0,-0.00400336246885,0.0105613135961,-0.999936213838,0.0,0.346109459059,-0.154444496738,0.305960963029,1.0,-0.355065714286,-0.466657795918,1.947
-0.289982142552,-0.503519079241,-0.146228331998,-2.62524650283,-0.0729581135762,2.11732413998,-0.553922998277,-1.5014172469,-0.429981928104,0.0262695993888,-0.315091587166,-0.0661479087027,-0.103633717153,-1.44062591364,0.57391382216,0.818878822852,0.00641444617816,0.0,0.818895165161,-0.573853790449,-0.00912592809514,0.0,-0.0037921480136,0.0104904572101,-0.999937783025,0.0,0.341568103162,-0.160467306873,0.306055229358,1.0,-0.34318,-0.451036571429,1.96
-0.320921180131,-0.511396026368,-0.145809688991,-2.63099579566,-0.0739679304704,2.11540815981,-0.583385613873,-1.44930772365,-0.354085551087,0.0163790741391,-0.25514918712,-0.0364061065137,-0.0764897853494,-1.39053606655,0.574041609495,0.818787862315,0.00658892980255,0.0,0.818807594521,-0.573985529144,-0.00868806014965,0.0,-0.00333179198571,0.0103825736905,-0.999940548896,0.0,0.334582246308,-0.169845272625,0.306214581831,1.0,-0.32398,-0.425802285714,1.981
-0.338113922467,-0.51520522397,-0.145463116957,-2.6339360815,-0.0744685016054,2.11440389163,-0.599760729715,-1.42022880925,-0.30637885673,0.0469970776825,-0.248144071307,-0.0451153819558,-0.0725596987388,-1.34397900804,0.574071740863,0.818766939887,0.00656364160586,0.0,0.818786461608,-0.574015899988,-0.00867316261719,0.0,-0.00333372835625,0.0103534377839,-0.999940844541,0.0,0.330683371569,-0.174946476715,0.306209397226,1.0,-0.313008571429,-0.411382693878,1.993
-0.367003813741,-0.520286619498,-0.144649967255,-2.63822296722,-0.0749913425127,2.11273168622,-0.627400301524,-1.34973937593,-0.251517777347,0.0467184543964,-0.188261816101,-0.0251200746873,-0.0637099059927,-1.2985176197,0.574049036462,0.818783918891,0.00642999259228,0.0,0.818799864819,-0.573987385377,-0.00927414154482,0.0,-0.0039028584645,0.0105888929522,-0.999936319493,0.0,0.323868785977,-0.183737832057,0.306009756181,1.0,-0.292894285714,-0.38494677551,2.015
-0.384094770128,-0.522933747352,-0.144243846361,-2.64042316972,-0.0751916689896,2.11201732411,-0.643807152179,-1.30766812035,-0.180019426537,0.0273413934748,-0.159846786083,-0.0142751793138,-0.052116133615,-1.22394985065,0.574089892152,0.818754785506,0.00649182875699,0.0,0.818770817562,-0.574026442005,-0.00942014269818,0.0,-0.00398638230101,0.0107235351058,-0.999934555134,0.0,0.320354762081,-0.18830294647,0.305932436382,1.0,-0.281922857143,-0.370527183674,2.027
-0.409382984372,-0.526039789147,-0.143311141881,-2.6429310268,-0.0753863242714,2.11098455791,-0.668055243314,-1.25116930404,-0.155739775655,0.0311190468853,-0.116756674436,-0.00515448697871,-0.0397596942014,-1.1800484993,0.574046211706,0.818786092244,0.00640537865598,0.0,0.818800362381,-0.573980937792,-0.00962270838601,0.0,-0.0042024554586,0.0107688129931,-0.999933183785,0.0,0.314821559331,-0.195545932553,0.305867132199,1.0,-0.263637142857,-0.346494530612,2.047
-0.424994800347,-0.527501253487,-0.142653788293,-2.64420985014,-0.0754219629404,2.11052398383,-0.683093687574,-1.17883381002,-0.0979198544479,0.0530634296674,-0.0871721913739,0.0091766048236,-0.0391110685134,-1.13194412021,0.573959152938,0.818847642377,0.00633847253641,0.0,0.81886061498,-0.573892728832,-0.00975581518031,0.0,-0.00435100672967,0.0107899726767,-0.999932320325,0.0,0.311438801293,-0.199977340218,0.305798575724,1.0,-0.251751428572,-0.330873306123,2.06
-0.448943319772,-0.529379946953,-0.141563718791,-2.64569915943,-0.0754145975195,2.10993287699,-0.706115279751,-1.10723408285,-0.0755536971745,0.0485768676524,-0.0618094423077,0.0100131045874,-0.0210277026048,-1.06096773521,0.573861513277,0.818916952332,0.00622379823242,0.0,0.818928761529,-0.573795775808,-0.00973848588293,0.0,-0.00440390683319,0.0106855953551,-0.999933209598,0.0,0.306287102362,-0.206744413653,0.305786579819,1.0,-0.232551428572,-0.305639020408,2.081
-0.462976660651,-0.530090152433,-0.140924744815,-2.64631358249,-0.0753973851825,2.10962034775,-0.719565598633,-1.08279164988,-0.0449171668143,0.03779011362,-0.0397155071268,0.00583873002232,-0.0195221956698,-1.02079508394,0.573858780401,0.818919665404,0.0061178977339,0.0,0.818929938671,-0.573792548057,-0.00982925444605,0.0,-0.00453905302348,0.0106509386483,-0.999932975006,0.0,0.303266429409,-0.210702544431,0.305756774809,1.0,-0.220665714286,-0.290017795919,2.094
-0.483248593277,-0.530946370533,-0.139777763185,-2.6468901108,-0.0752867835873,2.10931501251,-0.739026560108,-0.999015408,-0.031047465898,0.0499155172429,-0.0258364701037,0.00246925825494,-0.0147741269097,-0.941719708463,0.573776664046,0.818978670142,0.00591815423076,0.0,0.818987597922,-0.573713106913,-0.00966086475869,0.0,-0.0045168064841,0.0103902737156,-0.999935818276,0.0,0.298753844519,-0.216640056888,0.305815487971,1.0,-0.201465714286,-0.264783510204,2.115
-0.496537302666,-0.531174472594,-0.139004025029,-2.64700993678,-0.0750811979335,2.10919190837,-0.751733451569,-0.916152843851,-0.0127260275085,0.0705955391971,-0.00276345532884,0.0157045321245,-0.00953367045146,-0.893172842707,0.573736473326,0.81900732142,0.00584923389188,0.0,0.819015936245,-0.573674150504,-0.00957142218356,0.0,-0.00448359688385,0.0102822877465,-0.99993708398,0.0,0.296171154782,-0.22006518775,0.30585054671,1.0,-0.18958,-0.249162285714,2.128
-0.515015334323,-0.531222864284,-0.137847444711,-2.64703990933,-0.0745640952681,2.10909040418,-0.769390751267,-0.853813719393,0.00370644032415,0.0529529771847,0.00426610535832,0.030080327199,-0.00504236104671,-0.814253765721,0.573810729084,0.818955083238,0.00587926252978,0.0,0.818964320383,-0.573748985666,-0.00950212020825,0.0,-0.0044086736138,0.0102675224482,-0.999937568841,0.0,0.292286383317,-0.225146182459,0.305876844956,1.0,-0.17038,-0.223928,2.149
-0.524724255916,-0.531090126381,-0.13709522384,-2.6469902926,-0.0742374693702,2.10910635367,-0.778707474863,-0.79182065412,0.0117814889549,0.0646540330701,0.000186218831461,0.0319274546455,-0.00130036512157,-0.765972936397,0.573743425202,0.81900241871,0.00585380954782,0.0,0.81901147114,-0.573681982276,-0.00948368354122,0.0,-0.00440901958057,0.0102357353176,-0.999937893206,0.0,0.290266742071,-0.227769164937,0.305872341288,1.0,-0.159408571429,-0.209508408163,2.161
-0.540407274215,-0.530669410358,-0.135863274071,-2.64675849912,-0.0735876666997,2.10909632935,-0.793567953123,-0.718259837815,0.0185476085587,0.0544912952147,0.0123674814104,0.0330575179699,0.00100885285646,-0.669228829174,0.573838150641,0.818935820746,0.00588602310916,0.0,0.818944928917,-0.573775911506,-0.00954744355354,0.0,-0.00444157076195,0.0102992144206,-0.999937097337,0.0,0.286994726804,-0.231978363539,0.305855941957,1.0,-0.140208571429,-0.184274122449,2.182
-0.549128514648,-0.530291241072,-0.13501675962,-2.64656853373,-0.0731583048074,2.10913228675,-0.80189137004,-0.646591254583,0.0344001578846,0.0729155469603,0.0134274278032,0.0360257867474,-0.00150063440449,-0.631975377374,0.573760778718,0.818990147129,0.00586980499642,0.0,0.818998761918,-0.573697873569,-0.00961897813151,0.0,-0.00451044051041,0.0103265542261,-0.999936507086,0.0,0.285204616822,-0.23427095595,0.305829543188,1.0,-0.128322857143,-0.168652897959,2.195
-0.561855740522,-0.529542945473,-0.133696859889,-2.64617035269,-0.0724547882716,2.10925719714,-0.81393931431,-0.584606253623,0.0311109263572,0.0558551250025,0.0227640169274,0.0408802747189,0.0102407981664,-0.543058772233,0.573708504192,0.81902689324,0.00585211651602,0.0,0.819034834854,-0.573644575869,-0.00972557319148,0.0,-0.00460855982828,0.0103729310434,-0.999935579664,0.0,0.282620034964,-0.237598786816,0.305782348466,1.0,-0.109122857143,-0.143418612245,2.216
-0.568435296724,-0.529133484876,-0.133010259572,-2.64589196248,-0.0720536057784,2.1093458533,-0.819987720599,-0.535279109576,0.0375197605241,0.056839103109,0.0282618679632,0.0348818398608,0.0120950910853,-0.479840000841,0.573861137491,0.818919870942,0.00586402206044,0.0,0.818928021891,-0.573797322722,-0.00970949534011,0.0,-0.00458662681896,0.0103743137643,-0.999935666165,0.0,0.281190587519,-0.239457399922,0.30578344446,1.0,-0.0972371428573,-0.127797387755,2.229
-0.578212065575,-0.528348597788,-0.131674886874,-2.64541233724,-0.0713236388649,2.10947293562,-0.829228465659,-0.439976590277,0.0298719000342,0.0611938190739,0.023986915371,0.0379895121878,0.00775512097468,-0.408151232865,0.573679461269,0.819047365424,0.00583402183634,0.0,0.819054835528,-0.57361498687,-0.0097862218689,0.0,-0.0046689867726,0.0103927383777,-0.999935093669,0.0,0.279390017083,-0.241797257656,0.305760945829,1.0,-0.0789514285716,-0.103764734694,2.249
-0.583549413742,-0.527953357197,-0.130911779493,-2.6451545196,-0.0708835521928,2.10954881443,-0.834040603498,-0.396852522411,0.0284339676257,0.0593790918914,0.0186228508449,0.0323543676837,0.00518522899724,-0.354046371218,0.573772346645,0.818982291478,0.00583501267039,0.0,0.818989746038,-0.573707794664,-0.00979332061474,0.0,-0.00467305387804,0.0103981522923,-0.999935018387,0.0,0.278352748499,-0.243129673281,0.305759524042,1.0,-0.0670657142858,-0.0881435102042,2.262
-0.590632681947,-0.52738631747,-0.129641620044,-2.64473818371,-0.0701150759697,2.10968298056,-0.840309017782,-0.307076966575,0.0311759173074,0.0553120267636,0.0207342033934,0.0380624016744,0.0100601298638,-0.268575533466,0.573892142503,0.818898212845,0.005854286844,0.0,0.818906177573,-0.573828175019,-0.00972855526861,0.0,-0.00460743049461,0.0103774528865,-0.99993553795,0.0,0.277056930351,-0.244834483177,0.305784935427,1.0,-0.0478657142858,-0.06290922449,2.283
-0.594085414501,-0.52707329473,-0.128855853666,-2.6444934253,-0.0696137377045,2.10975707502,-0.843350238227,-0.250156439968,0.0226800061922,0.0623573531998,0.0217133500046,0.0334415890953,0.00306419167975,-0.212906500967,0.573900392182,0.81889222681,0.00588282456815,0.0,0.818900727472,-0.573836836269,-0.00967630030737,0.0,-0.00454815323352,0.0103708815313,-0.999935877503,0.0,0.276477009185,-0.245622367435,0.30580770604,1.0,-0.0359800000001,-0.0472880000002,2.296
-0.597990478819,-0.526669117616,-0.127505863349,-2.64429580383,-0.0688746004928,2.10982324549,-0.846593927374,-0.16791029467,0.0195533949481,0.0681973718558,0.00583005293921,0.0381339361509,-0.00115115176419,-0.125515382287,0.573813663617,0.818953335342,0.00583616990308,0.0,0.818960991782,-0.573749522946,-0.00975324351289,0.0,-0.00463904092348,0.010376339661,-0.999935403351,0.0,0.275904679666,-0.246366303596,0.3057886409,1.0,-0.01993,-0.0261937142857,2.316
-0.599961295125,-0.526552109493,-0.12680683729,-2.64420760556,-0.0684812957889,2.10983500921,-0.848187779951,-0.127946340618,0.0081602231408,0.0385312528634,0.00718125378672,0.0240952447116,-0.000783931915803,-0.119649473898,0.573800285653,0.818962791461,0.00582454185536,0.0,0.818970398757,-0.573736360789,-0.00973761623869,0.0,-0.00463308313087,0.0103577737644,-0.99993562346,0.0,0.275616092438,-0.246730712646,0.305804089865,1.0,-0.01965,-0.0258257142857,2.33
-0.602075163292,-0.526339885914,-0.126132641932,-2.64398987116,-0.0681797176003,2.10988911624,-0.850104345907,-0.111631211179,0.0109669088785,0.0301298192046,0.0096106437028,0.0171949075649,0.00875677485289,-0.105500556475,0.573613490992,0.819094283799,0.00573272202984,0.0,0.819101341388,-0.57355090171,-0.00964896803041,0.0,-0.00461549553138,0.0102306555127,-0.999937013461,0.0,0.275297696215,-0.247208503411,0.305845341821,1.0,-0.01925,-0.0253,2.35
-0.603493262938,-0.526161534955,-0.125886650703,-2.64384010488,-0.0680322133232,2.10998385655,-0.851423598792,-0.102920717759,0.0094795796787,0.00973663125135,0.00440617847088,0.00443609587117,0.010688343245,-0.0839698931764,0.573602538981,0.819102000466,0.00572599401652,0.0,0.81910935849,-0.573540803882,-0.00956828189626,0.0,-0.00455339529797,0.0101788020485,-0.999937827357,0.0,0.275074676836,-0.247550743914,0.305863354932,1.0,-0.01899,-0.0249582857143,2.363
-0.60547335037,-0.525895414012,-0.125707125484,-2.64366280098,-0.0678887697056,2.10999734445,-0.853277927786,-0.094048483627,0.00520586500121,0.00671885685227,0.00431328977541,0.00104744807676,0.000439168290934,-0.0977616138302,0.573649180436,0.819069132787,0.0057550327167,0.0,0.819076527621,-0.573586725135,-0.00962587925271,0.0,-0.00458333844628,0.0102358870308,-0.999937107835,0.0,0.27467197825,-0.248080409252,0.305851976299,1.0,-0.01857,-0.0244062857143,2.384
-0.606562476452,-0.525772814169,-0.125616138302,-2.64357825492,-0.0678725384025,2.10999004175,-0.854291075938,-0.0904193966989,0.0120393819977,0.00804727713649,0.00959856326875,6.45271521823e-05,0.00100007461846,-0.080849616428,0.573663036841,0.81905963402,0.00572564263115,0.0,0.819066531352,-0.573600278064,-0.0096687705775,0.0,-0.00463515872647,0.0102364956259,-0.999936862737,0.0,0.274419363911,-0.248399479122,0.305845111512,1.0,-0.01831,-0.0240645714286,2.397
-0.608326843916,-0.525572170285,-0.12549712183,-2.64342821089,-0.0678337177537,2.10999782804,-0.856025061341,-0.0767809604562,0.0124999649464,0.00373732276336,0.00661519760327,0.002612971663,0.00171820499619,-0.0902371689757,0.573623801326,0.819087311061,0.00569721968848,0.0,0.819093785296,-0.573560890453,-0.00969653203963,0.0,-0.00467469395967,0.0102289157469,-0.99993675626,0.0,0.274060092973,-0.248862756094,0.305845232584,1.0,-0.01791,-0.0235388571429,2.417
-0.609353341899,-0.525463317781,-0.125493790582,-2.64332462993,-0.067810263428,2.11002426914,-0.857076736861,-0.0796077379668,0.00442554166883,0.000288619832318,0.00976165179337,0.00164098102133,0.00190983026473,-0.0795505004619,0.573616158227,0.819092556634,0.00571258157726,0.0,0.819099316341,-0.573553458768,-0.00966885748149,0.0,-0.00464330767017,0.0102255814216,-0.999936936601,0.0,0.273833790144,-0.249168091871,0.305854796725,1.0,-0.01765,-0.0231971428571,2.43
-0.611042283782,-0.525278305029,-0.125504630879,-2.64313892426,-0.0677877955712,2.11008136391,-0.858677445528,-0.0805846364125,0.0091783367663,0.00258254799426,0.00767637361747,0.00151826661273,0.00373734305232,-0.0820395493913,0.573715216168,0.819023066866,0.00572831388549,0.0,0.81903030223,-0.573653125976,-0.00960218662044,0.0,-0.00457843531657,0.0102007796222,-0.999937489059,0.0,0.273461660093,-0.249680902485,0.305876077697,1.0,-0.01723,-0.0226451428571,2.451
-0.612005196622,-0.525189890528,-0.125515967743,-2.64303910996,-0.0677742607163,2.11010288302,-0.859634959066,-0.0788189842894,0.00705135518517,0.000768629875997,0.00893499459317,0.000160120242891,0.000667348780614,-0.0849027641101,0.573732329976,0.819010978635,0.00574258803036,0.0,0.819018553835,-0.573670606706,-0.00955983138264,0.0,-0.00453534021619,0.0101882666329,-0.999937813022,0.0,0.273229015699,-0.249992890076,0.305891829654,1.0,-0.01697,-0.0223034285714,2.464
-0.613656485328,-0.525012351319,-0.125520705604,-2.64287744865,-0.0677536440653,2.11012672943,-0.861238902405,-0.0737660619552,0.00997025456621,-6.18645208723e-05,0.0023188977308,0.00229158558765,0.00299937780914,-0.0738480620969,0.573797804258,0.818964998761,0.00575825794937,0.0,0.818972797934,-0.573736144337,-0.00954671812146,0.0,-0.00451479420432,0.0101939387849,-0.999937848191,0.0,0.272871159559,-0.250461601198,0.305900995313,1.0,-0.01657,-0.0217777142857,2.484
-0.614628909497,-0.524884889525,-0.125515020349,-2.64277944227,-0.0677403462113,2.11014687683,-0.86219344755,-0.0748004062544,0.00928356814431,-3.37996372374e-05,0.00903589014204,0.000110441651017,0.00154473207739,-0.0833905287978,0.573819270125,0.818949919759,0.005763771374,0.0,0.818957759398,-0.57375754627,-0.00955056655007,0.0,-0.00451451530743,0.0102007808138,-0.999937779675,0.0,0.272653511111,-0.250749146271,0.305900675501,1.0,-0.01631,-0.021436,2.497
-0.616112528588,-0.524674749537,-0.125473280114,-2.64264232329,-0.0677212904437,2.11019260023,-0.863743259016,-0.0727257149055,0.0128946338749,0.00112414779296,0.00634764069004,0.000196342467422,0.00271678021046,-0.0637943547018,0.573751046862,0.818997774047,0.00575579992398,0.0,0.819005443363,-0.573689169385,-0.00956909465034,0.0,-0.00453511445574,0.0102045060102,-0.999937648453,0.0,0.272326845358,-0.251178890023,0.305890845288,1.0,-0.01589,-0.020884,2.518
-0.617006673176,-0.524538154222,-0.12541841914,-2.64257051583,-0.0677070311395,2.11021165173,-0.864617366033,-0.0718767028563,0.00541057846776,0.00452848833502,0.0101310845393,-0.000152337351526,0.000501880487629,-0.0661004552693,0.573738718459,0.8190065221,0.00573991290083,0.0,0.819013843249,-0.573676498661,-0.00960970093059,0.0,-0.00457764273582,0.0102147222866,-0.999937350355,0.0,0.272131951875,-0.251426735067,0.305876307201,1.0,-0.01563,-0.0205422857143,2.531
-0.618390978194,-0.524322238397,-0.12533237203,-2.64246158216,-0.0676858615854,2.1102425654,-0.866029269355,-0.0685701033612,0.012889113841,0.00256228419239,0.00660811355534,0.00450601521433,0.00396989995668,-0.076349383271,0.573670350679,0.819054586413,0.00571490418369,0.0,0.81906133336,-0.573607551328,-0.00967761100286,0.0,-0.00464846897996,0.0102328125518,-0.999936838647,0.0,0.271829538768,-0.251809557522,0.305851285316,1.0,-0.01523,-0.0200165714286,2.551
-0.619270517932,-0.524206707576,-0.125312451396,-2.64240029448,-0.0676747554659,2.11026032468,-0.866949632716,-0.0676106117109,0.0115982458356,0.00319488986099,0.0022798474099,0.00167591862334,0.00165708374523,-0.0679706143356,0.573630943238,0.819082180943,0.00571565594709,0.0,0.819088787347,-0.573567820991,-0.00970876237489,0.0,-0.00467404792308,0.0102510735823,-0.999936532369,0.0,0.271627909368,-0.252058747379,0.30583873921,1.0,-0.01497,-0.0196748571429,2.564
-0.620696388339,-0.524021738333,-0.125310099885,-2.64229686547,-0.0676552097443,2.1102843848,-0.868324032359,-0.0702188070896,0.0055483221803,-0.0015148624685,0.00416196011691,0.000221605591033,0.000779020879792,-0.0552928283475,0.573685440849,0.819043897188,0.00573204486365,0.0,0.819050445013,-0.573621735828,-0.00975805365437,0.0,-0.00470433934262,0.0102930853827,-0.999935958742,0.0,0.271294624121,-0.252469332547,0.305819982172,1.0,-0.01455,-0.0191228571429,2.585
-0.621585213286,-0.523936802174,-0.125308002994,-2.64222619089,-0.0676432792216,2.11029559194,-0.869174154476,-0.0612502556515,0.0054426750222,0.000102150437611,0.00488890007803,0.00235794554446,-4.38833926874e-05,-0.063120245052,0.573724428026,0.819016525175,0.00574099977173,0.0,0.819023177446,-0.573660701389,-0.00975609498027,0.0,-0.00469710748816,0.0102995201848,-0.99993592648,0.0,0.271088185333,-0.252726449354,0.305821958693,1.0,-0.01429,-0.0187811428571,2.598
-0.622896837365,-0.523837114152,-0.12532326,-2.64209953602,-0.0676263335366,2.11031592483,-0.870468766905,-0.0610152823927,0.00137391670292,-0.000792983813447,0.00632661316832,0.00392811594779,0.00369150411371,-0.0468226616247,0.573762745459,0.818989549491,0.00575991745208,0.0,0.818996655226,-0.573699494644,-0.00970131311059,0.0,-0.0046409016742,0.0102838031676,-0.999936350686,0.0,0.270785613232,-0.253116238172,0.305844368813,1.0,-0.01389,-0.0182554285714,2.618
-0.623719552507,-0.523772906612,-0.125317908443,-2.64200496023,-0.067611036828,2.11034484427,-0.871227481359,-0.0651929703884,0.00099198657037,0.000377474268969,0.0104601061163,0.00120918550484,0.000420987295866,-0.0484597637418,0.573825453755,0.818945599465,0.00576199974257,0.0,0.818953053611,-0.57376291116,-0.0096314412386,0.0,-0.00458169288424,0.010245770686,-0.999937014153,0.0,0.270591847322,-0.253384210237,0.305868454556,1.0,-0.01361,-0.0178874285714,2.632
-0.624982848434,-0.52360542164,-0.125297355404,-2.64180998619,-0.0675958884201,2.11043436744,-0.872520432893,-0.0564456253846,0.0114871864553,0.000317650142602,0.00466973459454,0.000205601806615,0.00558646629087,-0.076316677601,0.573800080366,0.818963459832,0.00575031588474,0.0,0.818971324125,-0.573738785867,-0.00951434461254,0.0,-0.00449280782833,0.0101688712999,-0.999938202458,0.0,0.270347174092,-0.253756463478,0.305901819751,1.0,-0.01321,-0.0173617142857,2.652
-0.62574840374,-0.523479128418,-0.125282242351,-2.6416988514,-0.0675796244677,2.11046010728,-0.873329201968,-0.0564439846068,0.0108290511678,-0.000351069155543,0.00633143274892,0.000785126565417,0.00035163219848,-0.0600112380946,0.573773604917,0.818982018929,0.00574890194462,0.0,0.818989921662,-0.573712440596,-0.00950213785403,0.0,-0.00448394980836,0.0101605642665,-0.999938326662,0.0,0.270172931382,-0.254005958071,0.305908250971,1.0,-0.01293,-0.0169937142857,2.666
-0.626938495635,-0.523258352839,-0.125240654218,-2.64155217899,-0.067553264363,2.11046917973,-0.874502677333,-0.0563707005482,0.00286198660368,0.00133946595279,0.00675538672102,0.000841374554121,0.00312040465705,-0.0506985578458,0.573769951857,0.818984588149,0.0057474882897,0.0,0.818992227658,-0.573708232665,-0.00955728571971,0.0,-0.0045299755761,0.010191027814,-0.999937809203,0.0,0.269924557853,-0.25433144778,0.305895927463,1.0,-0.01253,-0.016468,2.686
-0.627653868621,-0.523135837802,-0.125223183397,-2.64149769223,-0.0675446411082,2.11047835705,-0.875231636251,-0.0537699027073,0.0099000373217,-0.000533869088648,-0.000144656864958,-3.93725496229e-05,0.0003241253502,-0.0564089915105,0.573753237014,0.818996298253,0.00574746594761,0.0,0.819003687165,-0.573690959282,-0.00961200027696,0.0,-0.00457501147587,0.0102223088872,-0.999937284869,0.0,0.269758562289,-0.25453265687,0.305876880846,1.0,-0.01227,-0.0161262857143,2.699
-0.628804780976,-0.522964995574,-0.125179514909,-2.64143440493,-0.0675199672475,2.11049850664,-0.876409260476,-0.0571538799769,0.00414432106746,0.00248581813921,0.000876644122856,0.00124921601026,-0.000207961393959,-0.0533743930703,0.573714673986,0.819023286496,0.00575116785394,0.0,0.81903034252,-0.573651560648,-0.0096918470169,0.0,-0.00463877129176,0.0102709335762,-0.999936492846,0.0,0.26949118708,-0.25484660191,0.305845635802,1.0,-0.01185,-0.0155742857143,2.72
-0.629496329252,-0.522860499238,-0.125154753752,-2.64138438162,-0.0675083447173,2.11050097216,-0.877084863023,-0.0517920308757,0.00825633684681,0.00394442709972,0.000887891482126,0.00487779417705,-0.000340031555022,-0.0402117459919,0.573717965848,0.81902098459,0.00575059703809,0.0,0.819027811563,-0.573654361928,-0.00973980638049,0.0,-0.00467834080942,0.01029799908,-0.999936030125,0.0,0.269330971299,-0.255037428431,0.305830776349,1.0,-0.01159,-0.0152325714286,2.733
-0.630562537763,-0.522723396185,-0.125130809133,-2.6412747015,-0.0674908383233,2.11053713528,-0.878090783926,-0.0543073744729,0.0088691726709,0.000986433071953,0.00863892547116,0.00239480538572,0.0015972271014,-0.0520862928764,0.573763576314,0.818989046598,0.00574864758074,0.0,0.818995924309,-0.573700130065,-0.00972541153069,0.0,-0.00466709550857,0.0102884039236,-0.999936181446,0.0,0.269093956629,-0.255347648321,0.305833951642,1.0,-0.01119,-0.0147068571429,2.753
-0.631217936986,-0.522623975424,-0.125124403151,-2.6411826927,-0.067477415814,2.11055086652,-0.878739370125,-0.0496177679342,0.00536781224583,0.00126569112914,0.0096864774289,0.00239454619813,0.00143328307294,-0.0524864109522,0.573775079575,0.818980963409,0.00575208954846,0.0,0.818987924229,-0.573711720666,-0.00971537120028,0.0,-0.00465675253012,0.0102855277911,-0.999936259256,0.0,0.26895058879,-0.255544580446,0.305840596536,1.0,-0.01093,-0.0143651428571,2.766
-0.632238208825,-0.522461462193,-0.125122734842,-2.64102463444,-0.0674555606685,2.11059784978,-0.879809297188,-0.0485469370209,0.00598243080894,-0.00092112058172,0.0113512263839,0.000432874345385,0.00581253523098,-0.0448407969368,0.573750636195,0.818998040612,0.00575880555863,0.0,0.819005293665,-0.573687744933,-0.00966680731832,0.0,-0.00461342890104,0.0102630266816,-0.999936691275,0.0,0.268732833076,-0.255859860781,0.305856836484,1.0,-0.01051,-0.0138131428571,2.787
-0.632871293565,-0.522365574579,-0.12511023556,-2.64093853014,-0.0674438184932,2.11061927628,-0.880411325466,-0.0514515088609,0.00895322199229,0.000797273536331,0.000862088625988,0.000446253953708,0.00251878817621,-0.0468926173729,0.573776667466,0.818979814728,0.00575724249211,0.0,0.818987122518,-0.573713936757,-0.00965188176731,0.0,-0.00460177468498,0.0102533294258,-0.999936844458,0.0,0.268595904149,-0.256049051023,0.3058628901,1.0,-0.01025,-0.0134714285714,2.8
-0.633798577247,-0.522222365849,-0.125098606975,-2.64082288744,-0.0674223985216,2.1106473725,-0.881299183327,-0.043502416761,0.00654546184346,0.00151093468106,0.00444070374311,1.90520784617e-05,0.00201202722846,-0.0439255287802,0.573815874078,0.818952300179,0.00576364375118,0.0,0.818959703741,-0.573753174797,-0.00964598156831,0.0,-0.00459277831742,0.0102554067723,-0.999936864517,0.0,0.268391022825,-0.256323940182,0.305865528823,1.0,-0.00985,-0.0129457142857,2.82
-0.634367474771,-0.522115954567,-0.125081876539,-2.64075644545,-0.0674083845078,2.11066368186,-0.881885713351,-0.039753814235,0.00767795910823,0.00128247173768,0.00656304910362,3.41075841891e-05,-0.000347040740383,-0.043428639356,0.573799128076,0.818964023537,0.00576503878272,0.0,0.818971347625,-0.573736215897,-0.00966608705929,0.0,-0.00460865474512,0.0102679915982,-0.999936662319,0.0,0.268265719896,-0.256488729119,0.305858413579,1.0,-0.00959,-0.012604,2.833
-0.6352581207,-0.521991882677,-0.125040637647,-2.64068556528,-0.0673883532517,2.11068389375,-0.882809296797,-0.0464412152736,0.00525816804634,-8.81259723363e-05,-0.00041575668682,6.72344847737e-05,0.0001954973727,-0.0342899672194,0.573755330663,0.818994728865,0.00576207674565,0.0,0.819001892733,-0.57369215071,-0.00969344183209,0.0,-0.00463330876982,0.0102810136258,-0.999936414583,0.0,0.268064783455,-0.256735045939,0.305847734675,1.0,-0.00917,-0.012052,2.854
-0.63578391996,-0.521921514554,-0.125010587518,-2.64065477996,-0.0673787248423,2.11069453861,-0.883330185013,-0.040351208987,0.00888363290858,0.00327535950869,0.000220233338567,0.000203027462161,0.000272618600022,-0.0339523500504,0.573743916889,0.81900276095,0.00575693407541,0.0,0.819009750771,-0.573680494432,-0.00971932872072,0.0,-0.00465760594341,0.010291589017,-0.999936192916,0.0,0.267944372191,-0.256876425805,0.305837477043,1.0,-0.00891,-0.0117102857143,2.867
-0.636562604623,-0.521839082753,-0.124968321913,-2.64061739378,-0.0673559151252,2.11070463933,-0.8840813755,-0.0408559232599,0.00315130321469,0.00111733354309,0.00260002654366,1.6492231768e-05,-0.000403178327945,-0.0358759128643,0.573748310019,0.818999671338,0.00575864559958,0.0,0.819006540341,-0.573684573422,-0.00974905115533,0.0,-0.00468091366989,0.010310068535,-0.999935893712,0.0,0.267763849839,-0.257082813136,0.305826032864,1.0,-0.00851,-0.0111845714286,2.887
-0.637099309946,-0.521780827346,-0.124948318624,-2.64057597055,-0.0673422445628,2.11071342575,-0.884602075305,-0.0345431817684,-0.000863203473673,0.000649992931251,0.00648854436321,0.00371176145006,-0.000143602404878,-0.0340079512936,0.573755255121,0.818994793197,0.00576045476248,0.0,0.819001659569,-0.573691462038,-0.00975371256322,0.0,-0.00468360626286,0.010314264432,-0.999935837832,0.0,0.267641083934,-0.257231406359,0.305824678388,1.0,-0.00823,-0.0108165714286,2.901
-0.637847060034,-0.521673320796,-0.124935148463,-2.64047736264,-0.0673247311097,2.11073783934,-0.885364115244,-0.0398212888088,0.00147397512171,0.00334763189656,0.00268683204744,0.00246353640264,-6.44760183433e-05,-0.0369366074465,0.573746746882,0.819000733255,0.00576335593869,0.0,0.819007722398,-0.57368314642,-0.00973370778986,0.0,-0.00466566347682,0.0103051146056,-0.999936016052,0.0,0.267477463842,-0.257453340982,0.305832400377,1.0,-0.00783,-0.0102908571429,2.921
-0.638311624678,-0.521603651569,-0.124926652401,-2.64039693617,-0.067309284499,2.11075379549,-0.885839826709,-0.0372984093924,0.006486190668,0.000496952214456,0.00262976390046,-1.26416877906e-05,0.000590924651024,-0.0444166055449,0.573742226422,0.819003879319,0.00576629699281,0.0,0.81901103647,-0.573678917829,-0.00970403423676,0.0,-0.00463972799538,0.0102904732084,-0.999936287513,0.0,0.267380693856,-0.257595549921,0.305844937416,1.0,-0.00757,-0.00994914285715,2.934
-0.639017568652,-0.521487629186,-0.124907925241,-2.64028246053,-0.0672895816818,2.11080127087,-0.886508094524,-0.0382841041759,0.00422283874334,0.00357176562624,0.00174743351332,0.000131884871369,0.00170623624791,-0.0294466958866,0.573774037178,0.818981616422,0.00576308296869,0.0,0.818988972576,-0.573711254296,-0.00965434587449,0.0,-0.0046004748046,0.0102595119355,-0.999936787025,0.0,0.267236118488,-0.257811772896,0.305858853254,1.0,-0.00717,-0.00942342857143,2.954
-0.639484935171,-0.521431036233,-0.1248878761,-2.64022826827,-0.067274998893,2.11082046287,-0.886957970925,-0.0359034108237,0.00453470642051,0.00472945158479,0.00239814916205,0.000361637603019,0.000681725001775,-0.0286861849653,0.573783130821,0.818975252337,0.00576209573059,0.0,0.818982689264,-0.573720553934,-0.00963470708339,0.0,-0.00458484218284,0.0102474863479,-0.999936982137,0.0,0.267135583446,-0.257946194514,0.305864811623,1.0,-0.00689,-0.00905542857143,2.968
-0.640093056043,-0.521326698654,-0.124856474436,-2.64017900475,-0.0672560374388,2.11083115737,-0.887572152629,-0.031276766869,0.0101555889351,0.00355301835945,-0.000239403099526,0.000257302386408,0.000413454785371,-0.0244153704109,0.573766747504,0.818986719424,0.00576365922347,0.0,0.818993985897,-0.573703750215,-0.0096749653534,0.0,-0.0046171241178,0.0102717734073,-0.999936584407,0.0,0.266997955265,-0.258112007641,0.305850482833,1.0,-0.00649,-0.00852971428572,2.988
-0.640459277709,-0.521267389105,-0.12483114915,-2.64014789714,-0.0672436075156,2.11083206585,-0.887942615249,-0.0274293500309,0.00362661974663,0.000341764659962,0.000189346723534,-0.000124416261845,0.00162118495283,-0.032583419714,0.573752334513,0.818996824417,0.00576256336967,0.0,0.819003963715,-0.573689087189,-0.00969977119763,0.0,-0.00463825138973,0.0102850266284,-0.9999363504,0.0,0.266916025443,-0.258209964877,0.305843483648,1.0,-0.00623,-0.00818800000001,3.001
-0.64100124366,-0.521167754297,-0.124796854203,-2.64011440146,-0.0672272781663,2.11084478173,-0.888500599653,-0.0295208536857,0.00835308462597,0.00127606698517,0.000906399192422,0.000386566762245,0.000254612275832,-0.0351111958992,0.573723867135,0.819016771885,0.00576181841642,0.0,0.8190236696,-0.57366011085,-0.00974950031319,0.0,-0.0046797689826,0.0103127852384,-0.999935871055,0.0,0.266792498284,-0.258353998448,0.305823945707,1.0,-0.00583,-0.00766228571429,3.021
-0.641381037618,-0.521090653053,-0.124777504423,-2.64008165035,-0.0672134043898,2.11085553837,-0.888887196383,-0.0285263708451,0.00507597381362,0.000624301052379,0.0011929085856,0.00214365272348,0.000658891175821,-0.0316370464396,0.573712355226,0.819024817508,0.00576443129874,0.0,0.819031596467,-0.573648267933,-0.00978036744658,0.0,-0.00470369819373,0.010332567946,-0.999935554555,0.0,0.266707371101,-0.258458174004,0.30581184328,1.0,-0.00555,-0.00729428571429,3.035
-0.641886453131,-0.521011313697,-0.124758327015,-2.64004014469,-0.0671992236298,2.11087404519,-0.88939294749,-0.0228155008183,0.00450923420761,-0.00186794712219,0.00251455450275,0.000283762969305,0.00643646333769,-0.0235337812609,0.573706805055,0.819028689743,0.00576663798719,0.0,0.819035415595,-0.573642541626,-0.00979639416332,0.0,-0.00471562979466,0.0103435378821,-0.999935384942,0.0,0.266592918377,-0.258599082011,0.305803560634,1.0,-0.00515,-0.00676857142858,3.055
-0.642216953852,-0.520980652443,-0.124746010135,-2.64002293268,-0.0671870336448,2.11087571168,-0.889717040036,-0.0245994119852,0.00212796265735,0.00204442135755,0.000312786439722,0.000135213445018,0.00110189210878,-0.0224970957243,0.573706716994,0.819028733107,0.00576923922987,0.0,0.819035415434,-0.573642286874,-0.00981131363634,0.0,-0.00472635918941,0.010354227136,-0.999935223657,0.0,0.266519890847,-0.258681097093,0.305799522295,1.0,-0.00489,-0.00642685714286,3.068
-0.642686685888,-0.520955428994,-0.124724646376,-2.63997905999,-0.0671711929331,2.11088778444,-0.890158451977,-0.0198415452337,0.00121963949347,0.000256693039366,0.00132162484935,0.000243207467746,0.000139555997081,-0.0202359497006,0.573726385578,0.819014929156,0.00577297247265,0.0,0.819021837256,-0.573662345778,-0.00977190027911,0.0,-0.00469168561353,0.010334786525,-0.999935588062,0.0,0.266410737226,-0.258818578419,0.305812770091,1.0,-0.00445,-0.00584857142858,3.09
-0.642946996563,-0.520946279627,-0.124711852571,-2.63994484367,-0.067158269461,2.11089451617,-0.890393344086,-0.0199847747017,-0.000235776355736,0.00241337346915,0.00143453147402,0.00586553682791,4.49565366261e-05,-0.0226226477485,0.573745259892,0.81900169522,0.00577467566241,0.0,0.819008779733,-0.573681559669,-0.00973826045753,0.0,-0.00466291665821,0.0103169894787,-0.999935906414,0.0,0.266356038398,-0.258893266318,0.305825861619,1.0,-0.00421,-0.00553314285715,3.102
-0.643374670675,-0.520917530671,-0.124686297456,-2.63987780084,-0.0671398086861,2.11090840296,-0.890780850594,-0.0186901021115,0.000254243028951,0.00381521246317,0.00100416166138,0.00331535084119,0.000121933148399,-0.0198450246108,0.573771135272,0.818983590327,0.00577148208553,0.0,0.81899089814,-0.573708014216,-0.00968349569964,0.0,-0.00461956748962,0.0102830995993,-0.999936456711,0.0,0.266269511477,-0.259018155064,0.305847593611,1.0,-0.00379,-0.00498114285715,3.123
-0.643611963961,-0.520897912064,-0.124676659107,-2.63982527104,-0.0671286801653,2.11092395844,-0.891002061343,-0.0168875303528,0.000671914350974,-0.00150002171024,0.00137542791249,0.000201317267561,0.00281686746795,-0.0180409171372,0.573784729877,0.818974077019,0.00576990737212,0.0,0.818981599061,-0.57372212821,-0.00963363398519,0.0,-0.00457946113308,0.0102532774473,-0.999936947431,0.0,0.266225276297,-0.259093276206,0.305865846276,1.0,-0.00353,-0.00463942857143,3.136
-0.643942627807,-0.520835163942,-0.124648206125,-2.6397678226,-0.0671092518521,2.1109415294,-0.891314276023,-0.0144415982685,0.00491235995942,-0.000102134087067,0.00435490180579,0.000897407109013,0.00325153555953,-0.0146605906809,0.573790882752,0.818969784039,0.00576737400778,0.0,0.818977347221,-0.573728442017,-0.00961906762033,0.0,-0.00456890719329,0.0102428791736,-0.999937102279,0.0,0.266162153939,-0.259189085226,0.305871069767,1.0,-0.00313,-0.00411371428572,3.156
-0.644142887333,-0.520799913575,-0.124628498991,-2.63974721789,-0.0670999208142,2.11094681599,-0.891503814053,-0.0185334694065,0.00111199281117,-0.00111081487202,-5.69042673959e-05,0.000185651200977,-0.000232636669416,-0.00226690107141,0.573790779787,0.818969872785,0.00576501537514,0.0,0.818977375099,-0.573728267628,-0.00962709202402,0.0,-0.00457683416442,0.0102455510575,-0.999937038654,0.0,0.266120168343,-0.259242497019,0.305868385629,1.0,-0.00287,-0.00377200000001,3.169
-0.644419941695,-0.520742193324,-0.124581600816,-2.63973673121,-0.0670824207673,2.11095206912,-0.891784289722,-0.0113229889338,0.00677438910029,0.000850003191506,9.86345752661e-05,0.00172182823139,-0.000133082234418,-0.00867837898103,0.573762929075,0.818989426478,0.0057591178098,0.0,0.81899668366,-0.573700036439,-0.00966681152875,0.0,-0.00461309914892,0.010263354086,-0.999936689435,0.0,0.266062056704,-0.259306575458,0.305853460442,1.0,-0.00245,-0.00322000000001,3.19
-0.644572080365,-0.52071412011,-0.124550486943,-2.63974200911,-0.0670718900511,2.11095161725,-0.891944914734,-0.0111682163994,0.00315619776778,0.00253592249781,-1.97603265456e-05,0.000361393411125,0.000631652493586,-0.0167713214105,0.573738287808,0.819006711874,0.00575585870353,0.0,0.819013783817,-0.573675077389,-0.00969919595342,0.0,-0.00464180326755,0.0102791256003,-0.999936394597,0.0,0.26602838926,-0.259337270369,0.305841416401,1.0,-0.00219,-0.00287828571429,3.203
-0.644759880579,-0.520688760873,-0.124505239275,-2.63974200911,-0.0670573452006,2.11095457999,-0.892125876903,-0.0105357181319,-0.000371023488073,0.0034546677108,0.000621814427602,0.000607032616638,-5.30880627424e-05,-0.00854061238472,0.573718116777,0.819020897201,0.00574798503824,0.0,0.819027789705,-0.573654728642,-0.00972002560904,0.0,-0.0046636350872,0.0102845122773,-0.999936237625,0.0,0.265990707982,-0.259375792014,0.305833403737,1.0,-0.00185,-0.00243142857143,3.22
-0.64494082497,-0.520675567309,-0.124472521928,-2.63974241446,-0.0670434782458,2.11095555274,-0.892295880794,-0.0105201845486,0.000774918042212,0.00153689597669,-0.00146698272044,0.000415429874876,0.00020920806472,-0.0103321268704,0.573709824454,0.819026723101,0.0057455262033,0.0,0.819033538469,-0.573646334924,-0.00973099131962,0.0,-0.00467413187583,0.0102887420686,-0.9999361451,0.0,0.2659518759,-0.259415127594,0.30582922203,1.0,-0.00151,-0.00198457142858,3.237
-0.64514355431,-0.520670169395,-0.124454756334,-2.63972745056,-0.0670287233382,2.11096365702,-0.892434369293,-0.0139178079105,0.00152492988009,0.000885170727271,0.000334020925991,0.00052239477012,0.00479104964446,-0.00557109580511,0.573756834342,0.818993776112,0.00574775062687,0.0,0.819000707806,-0.573693532805,-0.009711742012,0.0,-0.00465649855225,0.0102797881022,-0.999936319461,0.0,0.265909062503,-0.259468480438,0.305835167968,1.0,-0.00111,-0.00145885714286,3.257
-0.645256509419,-0.520674912505,-0.124458316187,-2.63972086028,-0.0670172084755,2.11096850673,-0.892496307733,-0.00815368111381,-0.000479930891858,-0.00201134674243,0.00264636530631,-0.000101509758845,0.000109391787598,-0.00847001495627,0.57380631535,0.818959035415,0.00575827037702,0.0,0.818966160426,-0.573743145366,-0.00969423151734,0.0,-0.00463549958229,0.0102786377441,-0.999936428854,0.0,0.265882395174,-0.259500556107,0.305840254965,1.0,-0.000850000000005,-0.00111714285715,3.27
-0.645413150439,-0.520676523314,-0.124455668225,-2.63970413378,-0.0670018538823,2.11097563411,-0.892577151763,-0.00588821294184,-0.00194887675458,-0.000667940537684,0.00416039897008,7.11798839555e-05,-0.000111483735518,0.000733333243652,0.573873803226,0.818911680235,0.00576756850772,0.0,0.818919030785,-0.573810868347,-0.00966722740764,0.0,-0.00460720064883,0.0102711379226,-0.999936636707,0.0,0.265848701925,-0.259545334546,0.305849145906,1.0,-0.000430000000005,-0.000565142857149,3.291
-0.645455750851,-0.520670032628,-0.124456960347,-2.63969373471,-0.0669891787498,2.11097660998,-0.892596193568,-0.00145857023519,-0.000416565428392,5.89208005324e-06,0.0035130992025,-8.97966036008e-05,-2.24547623423e-05,-0.000861585384316,0.573899910552,0.818893312204,0.00577778483017,0.0,0.818900797401,-0.573836990689,-0.00966121287019,0.0,-0.00459608443626,0.0102761996553,-0.999936635857,0.0,0.265840900476,-0.259558331404,0.305851548805,1.0,-0.000170000000005,-0.000223428571435,3.304
-0.645455181912,-0.520661846999,-0.124446469145,-2.63969583686,-0.0669737091663,2.11097877973,-0.892615608143,0.00187753061795,0.00156207866375,0.000451045669693,0.000744468269616,0.000178561061548,-0.000371423294508,-0.00155508580127,0.573882626316,0.818905365614,0.00578621480348,0.0,0.818912904932,-0.573819597696,-0.00966800583673,0.0,-0.00459702691078,0.0102869046089,-0.999936521454,0.0,0.265844384727,-0.259553933118,0.305848019146,1.0,0.0,0.0,3.325
-0.645446642091,-0.520661372307,-0.124428291445,-2.63970612938,-0.0669683183257,2.11097881921,-0.892621795591,-0.000368537611662,-0.000280941562393,0.00262882000472,-0.00128545964163,0.000133786906611,-0.000537677490919,0.00134321082226,0.573870606348,0.81891380246,0.00578430731667,0.0,0.818921258776,-0.573807446805,-0.009681571011,0.0,-0.00460938226238,0.0102930594287,-0.999936401239,0.0,0.265847661701,-0.259546316884,0.305842821015,1.0,0.0,0.0,3.337
-0.645455425261,-0.520658402072,-0.12440789421,-2.63970083966,-0.0669573792824,2.1109812737,-0.8926251578,-0.000432375809706,0.000902319200179,0.000146122608647,-0.000756724971337,1.2265665536e-05,-0.000224248120054,0.00130239880357,0.573854392722,0.818925183858,0.00578153080915,0.0,0.818932649548,-0.573791333363,-0.00967306372978,0.0,-0.00460421186686,0.0102858124902,-0.999936499631,0.0,0.26585331611,-0.259542873584,0.305845606812,1.0,0.0,0.0,3.358
-0.645455662383,-0.520656352319,-0.124392380997,-2.63969850137,-0.0669507249704,2.11097967371,-0.892628376124,1.27756150831e-05,0.000841423842122,0.00362415433611,-0.000628558564145,0.00020109030694,-0.000158379577282,-0.000432949108407,0.57384390469,0.818932548187,0.00577940057466,0.0,0.818939986627,-0.573780844925,-0.0096740477894,0.0,-0.0046063719495,0.0102845735969,-0.999936502426,0.0,0.265857453208,-0.259539187863,0.305846148469,1.0,0.0,0.0,3.371
-0.645451912651,-0.520661281847,-0.124386856403,-2.63969857323,-0.066946593302,2.11097967291,-0.892628649086,0.000409913819038,-0.00196940721648,0.00050067963163,0.000581586722349,-0.000336632358466,0.000256715837138,0.000608973766171,0.573838425438,0.818936383358,0.00578000037068,0.0,0.81894385116,-0.573775415606,-0.00966891898246,0.0,-0.00460189602835,0.01028209097,-0.999936548566,0.0,0.265860083241,-0.259536618065,0.305848065123,1.0,0.0,0.0,3.391
-0.645454089511,-0.520664156318,-0.124376640439,-2.63969753847,-0.0669451390108,2.11097893714,-0.892633861153,0.000831741185819,-0.000657331503076,0.0030682463374,-0.000340816016259,0.000109220067252,-0.000359614000272,0.000648224403785,0.573829353033,0.818942768378,0.00577603846624,0.0,0.818950209243,-0.573766393718,-0.00966577063033,0.0,-0.00460170479484,0.0102769886818,-0.999936601899,0.0,0.265862048473,-0.259535010732,0.305849773981,1.0,0.0,0.0,3.405
-0.645451986086,-0.520656036094,-0.124377828847,-2.63969241985,-0.0669409588755,2.11098553842,-0.892635057659,-0.000599326457192,0.000625685244317,0.000258496708726,0.00203194314739,-0.00026798987275,7.05803444648e-05,-0.00109944680409,0.573829541172,0.818942615436,0.00577903131299,0.0,0.818950105027,-0.573766608209,-0.00966186738345,0.0,-0.00459678825222,0.0102772010962,-0.999936622329,0.0,0.265864759086,-0.25953637789,0.305849652803,1.0,0.0,0.0,3.425
-0.645452740084,-0.520661702672,-0.124368902176,-2.63969241607,-0.0669354584924,2.11098044828,-0.892634595318,-0.000112123826571,-0.00205596458708,0.000377535399821,0.00127536665189,0.000324692402152,0.000145496942325,0.00136819465008,0.573826525727,0.818944724313,0.00577960153515,0.0,0.818952223852,-0.573763599772,-0.00966092777395,0.0,-0.00459572933241,0.0102771120163,-0.999936628112,0.0,0.265866305515,-0.259533440139,0.305851519684,1.0,0.0,0.0,3.439
-0.645449398003,-0.52065606748,-0.124368764909,-2.63969750141,-0.0669348775346,2.11098445409,-0.892632964863,-0.000270150692954,-0.00154726707023,0.000761894368833,0.000364907743924,1.33718196213e-05,0.000528716169176,0.00125733190128,0.573825062151,0.818945743525,0.00578049406978,0.0,0.818953221623,-0.573762063888,-0.00966756102877,0.0,-0.00460066832413,0.0102816410026,-0.999936558842,0.0,0.265866597432,-0.259531633941,0.305847475854,1.0,0.0,0.0,3.458
-0.645451912655,-0.520650022028,-0.124370607452,-2.63969308792,-0.0669342276851,2.11098156047,-0.892641994497,3.73207747585e-05,-0.00044484904358,-0.00125668615539,-0.00010575651912,2.46053089794e-05,-0.000101266787682,-0.000672266618631,0.573821542539,0.818948199452,0.00578194034785,0.0,0.818955671826,-0.573758492166,-0.00967197771083,0.0,-0.00460349998729,0.0102853400361,-0.999936507768,0.0,0.26586602829,-0.25953326299,0.305846965548,1.0,0.0,0.0,3.472
-0.645451904656,-0.5206499804,-0.124370556943,-2.63970057791,-0.0669301858167,2.11098093576,-0.892644488434,0.000570795940481,0.000454636495926,-0.00108198754342,-0.00251933635086,-8.00145854324e-05,0.00011020641342,-0.0012819884497,0.573820829537,0.818948666876,0.00578649390356,0.0,0.818956150634,-0.573757679058,-0.00967966751154,0.0,-0.00460719419515,0.0102934777954,-0.999936407016,0.0,0.265864576329,-0.259530843849,0.30584349115,1.0,0.0,0.0,3.492
-0.645454336374,-0.520646497064,-0.124368075622,-2.63969404552,-0.0669298041007,2.11098392585,-0.89264215312,0.00102597935611,0.00163194460111,0.000226655151844,0.000723587070633,-3.90397596004e-05,-0.000246383347024,-0.00948235505016,0.573823454484,0.818946842161,0.00578443600487,0.0,0.818954332222,-0.573760374466,-0.00967374425784,0.0,-0.00460349077506,0.0102884083572,-0.999936476245,0.0,0.265866420988,-0.259532928872,0.305845496251,1.0,0.0,0.0,3.505
-0.645452255791,-0.520654991708,-0.124364951056,-2.63969213512,-0.0669287380292,2.11098056946,-0.892640646363,-0.000571109978332,0.000667981571068,-0.000597367992104,0.000727627574907,0.00461249659138,-4.49078460428e-05,-0.000993194149787,0.573824944625,0.818945772142,0.00578810140518,0.0,0.818953336854,-0.573761930137,-0.00966573753897,0.0,-0.00459481112246,0.0102868243211,-0.999936532464,0.0,0.265867409243,-0.259534089334,0.305848736193,1.0,0.0,0.0,3.526
-0.645459649035,-0.52065498593,-0.124367381211,-2.63969213512,-0.0669281145314,2.11098480512,-0.892644854912,-0.00121402388094,-0.000714484554531,0.0005964494647,-0.000267720741571,0.000313782434434,-4.48838104479e-05,-1.98068505218e-05,0.57382586758,0.818945148103,0.00578489370654,0.0,0.818952695481,-0.573762902727,-0.00966234551063,0.0,-0.00459386201628,0.0102822560548,-0.99993658381,0.0,0.265866106813,-0.259534764273,0.305849586936,1.0,0.0,0.0,3.539
-0.645457630201,-0.520649983289,-0.124370598739,-2.63969213512,-0.0669263361957,2.11098439686,-0.892647254121,-0.00044476396665,-0.000277386177537,-0.000136754012964,6.08603664525e-05,0.00160148470522,5.56576750592e-05,-0.00128909953671,0.573825308987,0.818945515866,0.00578823897343,0.0,0.818953073811,-0.573762275491,-0.00966752405497,0.0,-0.00459619080078,0.0102879641524,-0.999936514397,0.0,0.265865917398,-0.259534615307,0.30584763367,1.0,0.0,0.0,3.559
-0.645455181908,-0.520648969131,-0.124370603299,-2.63968962947,-0.0669262230105,2.11098179044,-0.892644072001,-7.22601823234e-05,0.00049776232441,-0.000336149706418,0.00155489944287,-0.000501363068124,0.000245282151119,0.000131725548461,0.573826083361,0.818944973083,0.00578826548069,0.0,0.818952526131,-0.573763038045,-0.00966866165902,0.0,-0.00459709758325,0.0102886429767,-0.999936503244,0.0,0.265866702902,-0.259534211925,0.305848176669,1.0,0.0,0.0,3.572
-0.645454210133,-0.520646850707,-0.124368375616,-2.63969455836,-0.066923729481,2.11098404599,-0.892644914787,1.27446394558e-05,0.000811389131451,-0.000199043869397,-0.000363429928581,-0.000199201577312,-0.000289156036806,0.000961949367076,0.573823858956,0.818946520788,0.00578980860654,0.0,0.818954068593,-0.573760759638,-0.00967321742685,0.0,-0.00459997133599,0.0102925084298,-0.999936450248,0.0,0.265866837821,-0.259532235007,0.30584540026,1.0,0.0,0.0,3.592
