nelsonifechukwu/NELSON_IML_WORK/CNN-GradCAM/train2dof/data_sample_2022-02-22-11-48-31/robot_state.csv
position_joint1,position_joint2,position_joint3,position_joint4,position_joint5,position_joint6,position_joint7,velocity_joint1,velocity_joint2,velocity_joint3,velocity_joint4,velocity_joint5,velocity_joint6,velocity_joint7,ee_T_00,ee_T_10,ee_T_20,ee_T_30,ee_T_01,ee_T_11,ee_T_21,ee_T_31,ee_T_02,ee_T_12,ee_T_22,ee_T_32,ee_T_03,ee_T_13,ee_T_23,ee_T_33,v_x,v_y,time
0.465077336957,0.547820657106,-0.1240034314,-1.35585371202,0.079568875661,1.89409749194,0.159163584764,-6.04634389405e-05,-0.00126498958652,-0.000788728808216,-0.000629781946822,-0.000371621250216,0.00556542283193,0.00160353297524,0.573836205334,0.8189560756,0.00192421062955,0.0,0.818912004442,-0.573777165141,-0.0119850175196,0.0,-0.00871130251323,0.00845335891125,-0.999926324252,0.0,0.661669271387,0.260892227329,0.303176916896,1.0,0.0,0.0,0.0
0.46507610232,0.547815495015,-0.123998142011,-1.35585417117,0.0795695892342,1.89409208637,0.159154919972,0.00018734348611,-0.00229246505653,0.000323940597329,-5.77063920985e-05,-0.00172004633626,7.00344351068e-05,-0.00122396370369,0.573826592316,0.818962807544,0.00192580191618,0.0,0.818918714874,-0.573767505516,-0.0119889509099,0.0,-0.00871371010102,0.00845681689629,-0.999926274034,0.0,0.661667291992,0.260894233414,0.303179711957,1.0,-0.00024,-0.000315428571429,0.013
0.465072551036,0.547823262554,-0.124005922069,-1.35585267787,0.0795701996038,1.89409268542,0.159160682914,-0.00046552216423,0.000358709526639,-0.000454393452372,0.00191079713467,3.3879400026e-05,0.000108422890281,0.000406566472217,0.573841910379,0.818952099724,0.00191498086847,0.0,0.818907946035,-0.573782945509,-0.0119855857281,0.0,-0.0087170050645,0.0084461870762,-0.99992633516,0.0,0.661670188476,0.260885512535,0.303173465695,1.0,-0.00066,-0.000867428571429,0.034
0.465077728514,0.547793873691,-0.123998048732,-1.35588238106,0.0795697074585,1.89409617321,0.159153096333,0.00115460576605,0.000709503981786,0.00177739550224,-0.00224694449337,4.44578049516e-05,8.47220006222e-05,-0.000717009879493,0.573825263827,0.818963740199,0.00192502829354,0.0,0.818919611426,-0.573766155249,-0.0119923314902,0.0,-0.00871693639623,0.00845810904821,-0.999926234985,0.0,0.66166175921,0.260892595031,0.303181954611,1.0,-0.00098,-0.001288,0.05
0.465077532342,0.547693999117,-0.124004129494,-1.35598694252,0.0795668739867,1.89411824592,0.1591557385,0.00124080185909,-0.00842306353689,0.000297056920328,-0.00659082814389,0.00032422477766,0.00317135245726,-0.000505525358862,0.573836773441,0.818955636409,0.00194163389337,0.0,0.818911704189,-0.57377757324,-0.0119859955916,0.0,-0.00870210020667,0.0084681947963,-0.999926278847,0.0,0.661646441569,0.260878890013,0.303205053226,1.0,-0.00128,-0.00168228571429,0.065
0.465074265238,0.547571095656,-0.123999209602,-1.35616808215,0.0795631409918,1.89415167622,0.159152370778,2.54418252605e-05,-0.0094069088832,8.04244266204e-05,-0.0137693678664,-0.000393584177533,0.00560492881707,-0.000121285683397,0.573842168199,0.818951890975,0.00192695791325,0.0,0.818907629151,-0.573782895749,-0.0120095946973,0.0,-0.0087297928713,0.00846977546592,-0.999926024074,0.0,0.661614754985,0.260861347613,0.303208636804,1.0,-0.0016,-0.00210285714286,0.081
0.465050648889,0.547427415301,-0.12400347137,-1.35636889175,0.0795596963055,1.89424008743,0.159149399477,-0.00298657118161,-0.00528568751894,0.000869489828285,-0.0172426644021,-0.000255106685872,0.0055494320526,-0.00694622876374,0.573872467704,0.818930588407,0.00195680466601,0.0,0.818886681007,-0.57381302992,-0.0119982192448,0.0,-0.00870303629201,0.00848801238492,-0.999926102672,0.0,0.661597475609,0.26082675761,0.303222651191,1.0,-0.00192,-0.00252342857143,0.097
0.465024406507,0.547209098764,-0.123999812279,-1.3566174686,0.0795584612983,1.89438016872,0.159129270558,-0.00138962756368,-0.0122740569694,0.000998597711785,-0.0141787229922,7.99495968978e-06,0.00919802912269,-0.00200606290593,0.573888749919,0.818918929552,0.00205826116505,0.0,0.818876275642,-0.573828815103,-0.0119533698058,0.0,-0.00860791696945,0.00854553022023,-0.999926436134,0.0,0.661580263995,0.260794206667,0.303271020145,1.0,-0.0023,-0.00302285714286,0.116
0.46500134709,0.54702333339,-0.124006571314,-1.3568596904,0.0795556093931,1.89449445628,0.159116180885,-0.00224200796851,-0.0176892448468,-0.00106955014986,-0.0138229983494,6.13685725999e-05,0.00580983966149,-0.00108911066148,0.573914565943,0.818900700926,0.00211185261145,0.0,0.818858712548,-0.57385437416,-0.0119295030361,0.0,-0.00855734729475,0.00857598958176,-0.999926609412,0.0,0.661560138865,0.260756033585,0.303297451485,1.0,-0.0026,-0.00341714285714,0.131
0.464963273789,0.546773622038,-0.124003825614,-1.3572445865,0.0795498787023,1.894639582,0.159085097874,-0.00262482013892,-0.0146854689747,-3.62664622059e-05,-0.0223683816912,0.000309677266937,0.0076277868404,-0.00135981919744,0.573935232489,0.818886156241,0.00213516431132,0.0,0.818844303959,-0.573874774357,-0.0119371743497,0.0,-0.00855003449685,0.0085996976408,-0.999926468352,0.0,0.661516418837,0.260695418036,0.303304714194,1.0,-0.00298,-0.00391657142857,0.15
0.464927516848,0.546486372181,-0.123999198847,-1.35765582628,0.0795409003152,1.89478839643,0.158956072952,-0.00540112633565,-0.0146660793632,0.00059227294644,-0.0257759349688,-2.58220238675e-05,0.00335337639276,-0.00702756046734,0.573879387676,0.818925221071,0.00216277479565,0.0,0.818883552029,-0.57381864564,-0.0119430747051,0.0,-0.00853960900305,0.00862511116577,-0.999926338555,0.0,0.661468651233,0.260641584561,0.303324058615,1.0,-0.0033,-0.00433714285714,0.166
0.464882459849,0.546205421098,-0.124007317979,-1.35813111627,0.0795274831528,1.89495570156,0.158931134491,-0.00281690398076,-0.0205142807251,-0.00124396701222,-0.0269365531239,-0.000474250512847,0.0150147309721,-0.00342167363158,0.573924565954,0.818893605795,0.0021452001241,0.0,0.818851595507,-0.573863777316,-0.0119656392008,0.0,-0.00856769773919,0.00862414087041,-0.999926106645,0.0,0.661414687618,0.260563529625,0.303311559635,1.0,-0.00364,-0.004784,0.183
0.464831937688,0.545897077593,-0.124002443051,-1.35864909249,0.0795086949348,1.89512934732,0.158899993529,-0.00520616723606,-0.0240087811794,-0.000491456075217,-0.0304333355997,-0.00453669182849,0.00980778641728,-0.00140610384064,0.573960935637,0.81886817509,0.00212204801278,0.0,0.818825695372,-0.5739000703,-0.011997366757,0.0,-0.00860658402193,0.00862377332309,-0.999925775868,0.0,0.661351607959,0.260484237034,0.303298232241,1.0,-0.00396,-0.00520457142857,0.199
0.464775953232,0.545570664829,-0.124000548948,-1.35922072842,0.0794639675744,1.8953297892,0.158784028295,-0.00596963712547,-0.0195427919644,0.00216925361103,-0.034820858017,-0.00623633740735,0.0169850075914,-0.00810110545321,0.573930570071,0.818889570266,0.00207830429874,0.0,0.818846571508,-0.573869943774,-0.0120136115645,0.0,-0.00864531128937,0.00859695680145,-0.999925672701,0.0,0.661285530186,0.260391093276,0.303274515505,1.0,-0.00428,-0.00562514285714,0.215
0.464707735893,0.545121252716,-0.124007320284,-1.35999244716,0.0793764819358,1.89557053598,0.158718482833,-0.00347736552814,-0.025703529588,-0.00552637093425,-0.0349102570125,-0.00251336406755,0.0154932578708,0.00116217452494,0.573957110731,0.818871201091,0.001984431167,0.0,0.818827310175,-0.573897208315,-0.0120240301801,0.0,-0.00870744017389,0.00852634821484,-0.999925738178,0.0,0.661192243164,0.260258519281,0.303246318811,1.0,-0.00466,-0.00612457142857,0.234
0.464647751646,0.544726139506,-0.124010206687,-1.36066813153,0.079362770711,1.8958067589,0.158623793152,-0.00256639971762,-0.0245138965209,-0.000563552135582,-0.037969255637,0.000420862053555,0.0166243539574,-0.00106369726641,0.573964759731,0.818865898146,0.00196018912532,0.0,0.818821424811,-0.573904701117,-0.0120671126738,0.0,-0.00875655389434,0.00853130653302,-0.999925266994,0.0,0.661111446639,0.260155974191,0.303224973707,1.0,-0.00498,-0.00654514285714,0.25
0.464575754721,0.544263820086,-0.124008421191,-1.36143689068,0.0793364189493,1.8960829055,0.158516179326,-0.00531770383826,-0.0308152246266,0.000493789789663,-0.0472661799449,-0.00765104458928,0.0192527703594,-0.00312908521092,0.573970219082,0.818862107362,0.00194515695203,0.0,0.818817219314,-0.573910013083,-0.0120997991188,0.0,-0.00879189122441,0.00853781673706,-0.999924901347,0.0,0.661021650761,0.260038697197,0.303210143286,1.0,-0.00532,-0.006992,0.267
0.464512487764,0.543756923628,-0.124013974985,-1.36226425501,0.0793044894466,1.89637177774,0.158427353761,-0.00341022495456,-0.0240032968169,-0.00181208064462,-0.0455473628708,-0.00116457315321,0.0154973918112,-0.000139495928332,0.573990721492,0.81884778061,0.00192632616177,0.0,0.818802472904,-0.573930427874,-0.0121293539955,0.0,-0.00882668734227,0.00853958168939,-0.999924579723,0.0,0.66092169728,0.259916534033,0.303200248948,1.0,-0.00566,-0.00743885714286,0.284
0.464430894216,0.543245085403,-0.124019412894,-1.3630656718,0.0792615105222,1.8966571165,0.158313969229,-0.00409268989142,-0.0359680421267,-0.00222640225282,-0.0486580178393,-0.000804593673208,0.0148999891046,-0.00339286557735,0.574001611886,0.818840150738,0.00192457602683,0.0,0.818794774319,-0.573941280338,-0.0121355334722,0.0,-0.00883263848436,0.00854181302406,-0.999924508114,0.0,0.660832387115,0.259783453398,0.303205807575,1.0,-0.00598,-0.00785942857143,0.3
0.464352980066,0.54267445775,-0.124017301879,-1.36396761279,0.0792021309625,1.89697789815,0.158218717919,-0.0069352179422,-0.0337783645029,-0.00068184908063,-0.0510898427417,-0.0098706838308,0.021463064117,-0.0013363569455,0.574020213843,0.818827137409,0.00191312404776,0.0,0.818781619424,-0.573959938853,-0.012140641941,0.0,-0.00884320078441,0.0085355690253,-0.999924468078,0.0,0.660726636308,0.259645776143,0.303207845139,1.0,-0.00632,-0.00830628571429,0.317
0.464267210782,0.542035439704,-0.124023292243,-1.36494281864,0.0791515178423,1.89734591408,0.158065711099,-0.0055147202835,-0.0362184468055,-0.00121963963231,-0.0497638125768,-0.00382495894426,0.0226565067778,-0.00766607556341,0.574010101209,0.818834155326,0.00194336891879,0.0,0.818788990151,-0.573949651752,-0.0121298706823,0.0,-0.00881712625718,0.00855404206432,-0.999924540477,0.0,0.66061848357,0.259495050172,0.303227681825,1.0,-0.00668,-0.00877942857143,0.335
0.464178019643,0.541388889647,-0.124027200266,-1.36592564981,0.079090995796,1.89771604419,0.157943355544,-0.00535844751684,-0.0407027443291,-0.00219437959525,-0.0588337497144,-0.00465270628297,0.0291062038487,-0.00675272743474,0.574024125469,0.818824259517,0.00197035729218,0.0,0.818779483599,-0.573963590564,-0.0121120124753,0.0,-0.00878686547463,0.00856604041783,-0.999924704139,0.0,0.660509985845,0.259341013914,0.303249218531,1.0,-0.00702,-0.00922628571429,0.352
0.464092507882,0.54073379688,-0.124024769234,-1.36692252156,0.0790336760642,1.8980867437,0.157820721973,-0.00768449532958,-0.0412218253905,0.000139238464308,-0.0625234057692,-0.0054182066547,0.0173669171988,-0.00221953415596,0.574031998802,0.818818675183,0.00199710386736,0.0,0.818774207883,-0.573971305643,-0.0121030452782,0.0,-0.00876408792196,0.00858287765667,-0.999924759656,0.0,0.66039582656,0.259192093889,0.303269864537,1.0,-0.00734,-0.00964685714286,0.368
0.463994501456,0.539957264855,-0.124024649109,-1.3680971259,0.0789583049194,1.89852165834,0.157660595525,-0.00645808526549,-0.0415682389517,0.000427041796959,-0.0675791001815,-0.00228890390737,0.0267066894371,-0.0113319635485,0.574025936797,0.818822852963,0.00202638896152,0.0,0.818778802298,-0.573965150319,-0.0120841229774,0.0,-0.00873184752212,0.00859592983765,-0.999924929597,0.0,0.660261189879,0.25901552904,0.303297259814,1.0,-0.0077,-0.01012,0.386
0.463903943784,0.53929723,-0.124027656774,-1.36911530149,0.0788994697914,1.89891133317,0.157550991572,-0.00944448303244,-0.0483386490223,-8.83679770772e-05,-0.0694336920068,-0.000704338758957,0.020325869421,-0.002687422215,0.574053136959,0.818803717623,0.00205301157464,0.0,0.818760019788,-0.573992237076,-0.0120701563761,0.0,-0.00870484380179,0.00861000069795,-0.999925043982,0.0,0.660148274044,0.258858719005,0.303312874014,1.0,-0.008,-0.0105142857143,0.401
0.463798584322,0.538531011829,-0.124027601981,-1.37030247166,0.0788369755814,1.89937372118,0.157386497192,-0.00778459435509,-0.0473603367387,0.00108961859707,-0.0666658759177,-0.00268650574416,0.026457186584,-0.00927839794172,0.574053729104,0.818803203056,0.00209228804725,0.0,0.818759958251,-0.573992601408,-0.0120569977386,0.0,-0.00867151746202,0.00863461243088,-0.999925121323,0.0,0.660016687515,0.258679596184,0.303329171552,1.0,-0.00834,-0.0109611428571,0.418
0.463697046875,0.537797962507,-0.124038450059,-1.37144392109,0.0787717181872,1.89981513821,0.157246179108,-0.00854700386485,-0.0485929354912,7.76286081717e-05,-0.0684476563691,-0.00837422159568,0.0242532436261,-0.0117862211205,0.574075260378,0.818788039749,0.00211855763038,0.0,0.818745178172,-0.574014058492,-0.0120391350901,0.0,-0.00864158433438,0.00864609492023,-0.99992528124,0.0,0.659892048495,0.25849980488,0.303342207007,1.0,-0.00866,-0.0113817142857,0.434
0.463585448454,0.537027698606,-0.124039685143,-1.37267148881,0.0786957330575,1.90026666233,0.157104532903,-0.00853325298501,-0.0442696422419,0.000367739686277,-0.0759651467104,-0.00392150022665,0.0322637566481,-0.00316415693701,0.574098838889,0.818771526252,0.00211137057441,0.0,0.81872857543,-0.574037669021,-0.0120424756751,0.0,-0.00864819644994,0.00864237711754,-0.999925256215,0.0,0.659751191427,0.258308186357,0.303340958439,1.0,-0.00898,-0.0118022857143,0.45
0.463475754714,0.536177103331,-0.124048961303,-1.37398068373,0.0786267509028,1.90076139257,0.156937449026,-0.00486220875725,-0.0498653573529,-0.00143369625924,-0.079845489012,-0.00281589634319,0.0262471779885,-0.0106371133257,0.574112004962,0.818762207246,0.00214491143706,0.0,0.81871965435,-0.574050651789,-0.0120301148369,0.0,-0.00861868150517,0.00866288128663,-0.999925333621,0.0,0.659602824212,0.258108596618,0.303361445809,1.0,-0.00932,-0.0122491428571,0.467
0.463354291902,0.535277373808,-0.124048560695,-1.37539504444,0.0785462426282,1.90127028666,0.156771925464,-0.00793292445925,-0.0545884357813,0.00638227543154,-0.0808852895517,-0.000895109677734,0.031853404054,-0.0140153840301,0.574131697501,0.818748404509,0.00214264766983,0.0,0.818705738625,-0.57407026752,-0.012041112634,0.0,-0.00862877756728,0.00866754925667,-0.999925206097,0.0,0.65943529576,0.257894143133,0.303367287942,1.0,-0.00966,-0.012696,0.484
0.463235496647,0.534431674087,-0.12404927502,-1.37676980085,0.0784655054086,1.90177616951,0.156598909037,-0.00374380342748,-0.0540798401814,0.000144967843457,-0.0850406688729,-0.00172926781672,0.0365435784177,-0.0115955902061,0.57414161318,0.818741503185,0.0021227055803,0.0,0.81869853188,-0.574080221254,-0.0120565485795,0.0,-0.00865276001041,0.00866018892847,-0.999925062628,0.0,0.659274181793,0.257684567194,0.303353473329,1.0,-0.00998,-0.0131165714286,0.5
0.463114143012,0.533518096645,-0.124057388723,-1.37825879212,0.0783871601516,1.90231727426,0.156424725128,-0.00975302683591,-0.0565552483641,-0.00197149986087,-0.0888619482422,-0.00684440249299,0.0351456621517,-0.00521423364624,0.574164624576,0.818725433232,0.00209660815826,0.0,0.818682015374,-0.57410323572,-0.0120821910277,0.0,-0.00868849483633,0.0086537886802,-0.999924808173,0.0,0.659097172458,0.25745912917,0.303336309466,1.0,-0.01032,-0.0135634285714,0.517
0.462973247234,0.532513616303,-0.124058215417,-1.37988414427,0.0782992469614,1.90292729068,0.156203604025,-0.0107476077319,-0.0564805892256,-0.000799033382119,-0.091713653266,-0.00118578850551,0.0365007370376,-0.0185613510035,0.574164923891,0.818725237233,0.00209117004746,0.0,0.818681642474,-0.57410345306,-0.0120971220655,0.0,-0.00870383876361,0.00865791239084,-0.999924639032,0.0,0.658908038678,0.257213195571,0.303323877288,1.0,-0.01068,-0.0140365714286,0.535
0.462854085437,0.531598877155,-0.124055903947,-1.3813568174,0.0782094876582,1.90346575111,0.156017870543,-0.0102268953502,-0.0541284633883,0.00248358279179,-0.0916403715257,-0.00897396436799,0.0400126818809,-0.0174032785083,0.574165029398,0.818725207453,0.0020737883202,0.0,0.818681345047,-0.574103593615,-0.0121105726999,0.0,-0.00872482979908,0.00865140570795,-0.999924512413,0.0,0.658731221111,0.256995239018,0.303314314049,1.0,-0.011,-0.0144571428571,0.551
0.462715878448,0.530579948128,-0.124058590653,-1.38300251401,0.0781154047807,1.90404163083,0.155812802714,-0.0101099995302,-0.0625717593841,-0.00213705071905,-0.092323415571,-0.00089664461047,0.0273819758942,-0.00742607264338,0.574176364054,0.818717361336,0.00203275905984,0.0,0.818672844915,-0.574114990149,-0.0121448748603,0.0,-0.00877635142371,0.00863763103287,-0.999924180619,0.0,0.658530087676,0.256744532318,0.303299036315,1.0,-0.01134,-0.014904,0.568
0.462577451452,0.529602238565,-0.124058626163,-1.38455372422,0.0780148244359,1.90461095784,0.155605633537,-0.00613397401765,-0.0609739942076,0.00026160819071,-0.0957812686795,-0.00982912250993,0.031175570455,-0.0165065999546,0.574177335661,0.818716699315,0.00202493871443,0.0,0.818672110521,-0.574116025519,-0.0121454352636,0.0,-0.00878128997116,0.00863156069541,-0.99992418968,0.0,0.658348003299,0.256504430844,0.303298783819,1.0,-0.01166,-0.0153245714286,0.584
0.462440755899,0.528498793687,-0.124061419983,-1.38623953082,0.0779093848961,1.9052485109,0.155366591295,-0.00763814843984,-0.0679407301685,-0.000507067527536,-0.0944989327522,-0.00657923251214,0.0488022585366,-0.0194681395817,0.57415862234,0.818729712031,0.00206928281598,0.0,0.818685751877,-0.57409716846,-0.0121172497731,0.0,-0.00873295114831,0.00865148236217,-0.999924440854,0.0,0.658151382744,0.256253402211,0.303328766142,1.0,-0.012,-0.0157714285714,0.601
0.462297331639,0.527392371179,-0.124063013,-1.38797003044,0.0778055182429,1.9059210505,0.155125747894,-0.00726642077993,-0.0675182837426,-0.00379267502825,-0.102547801416,-0.00668321852413,0.0377808996711,-0.014792267031,0.574145924046,0.818738515588,0.00210900339189,0.0,0.818695099606,-0.574084324707,-0.0120941683704,0.0,-0.00869138300688,0.0086706151528,-0.999924637307,0.0,0.657952218007,0.255996015493,0.303342320747,1.0,-0.01234,-0.0162182857143,0.618
0.462129480575,0.526086727878,-0.124068031788,-1.39000342141,0.0776757772707,1.90668092177,0.154855861661,-0.0038082231454,-0.0739087227665,-0.000637255208745,-0.109648625224,-0.00621614355862,0.0397021585194,-0.0176142650077,0.574140798038,0.818742053531,0.00213089401107,0.0,0.818698991969,-0.574079173876,-0.0120751634118,0.0,-0.00866330901052,0.00867757180668,-0.999924820586,0.0,0.657712568563,0.255689026081,0.303359253618,1.0,-0.01272,-0.0167177142857,0.637
0.461997997961,0.525048826239,-0.124071197522,-1.39163259943,0.0775785157004,1.90725554978,0.154631485573,-0.0108309476161,-0.068893301074,1.52659907077e-06,-0.108798710102,-0.00375457270093,0.0339848683347,-0.0187981406078,0.57412836225,0.818750808309,0.00211765295405,0.0,0.818707506073,-0.574066728687,-0.0120895581202,0.0,-0.00868282855052,0.00867486359062,-0.999924674778,0.0,0.657511659839,0.255444235936,0.303363801105,1.0,-0.01302,-0.017112,0.652
0.461829340442,0.523799368594,-0.12407930159,-1.39363513294,0.0774542833606,1.90797941365,0.154356371646,-0.0062688792808,-0.0666288806921,-0.00050233471186,-0.113859539312,-0.00603113895723,0.0379357903535,-0.0216721538664,0.574121010304,0.81875603752,0.00208888810573,0.0,0.818712358541,-0.574059500865,-0.0121041455617,0.0,-0.00871136391509,0.00865960951085,-0.999924558805,0.0,0.657269901394,0.25513638424,0.303352246313,1.0,-0.01338,-0.0175851428571,0.67
0.461669177115,0.522583028939,-0.124078025329,-1.39557350564,0.0773265529127,1.90872089859,0.154102768391,-0.00591503621982,-0.0743344676074,0.000492383555652,-0.113564539875,-0.00687956789876,0.0442316862446,-0.0183334313501,0.574113227112,0.818761471806,0.00209800910692,0.0,0.818718000063,-0.574051766901,-0.0120893420416,0.0,-0.0086940890365,0.00865849569616,-0.9999247188,0.0,0.657041112314,0.254847412557,0.303348818601,1.0,-0.01372,-0.018032,0.687
0.461525719763,0.521484621646,-0.12408176758,-1.39732122473,0.0772291550564,1.90940045804,0.153869308272,-0.0100945192034,-0.0706526561112,-0.00051472783128,-0.117243925281,-0.00538608447107,0.0448436483599,-0.0125614775073,0.574109717904,0.818763861902,0.00212535954764,0.0,0.818720706674,-0.574048099994,-0.0120801596712,0.0,-0.00867090651646,0.00867557996364,-0.999924772017,0.0,0.656836415834,0.25458828132,0.303347785771,1.0,-0.01402,-0.0184262857143,0.702
0.461354274302,0.520197570478,-0.124088658263,-1.39933981584,0.0771018162912,1.91014583274,0.153589724599,-0.0101153726451,-0.0743514464651,-0.00114280230666,-0.118471054201,-0.00540118337297,0.0451508755875,-0.00938042968793,0.574099371169,0.818771098056,0.00213258336459,0.0,0.818728077687,-0.574037764256,-0.012071740393,0.0,-0.00865997548173,0.00867655149767,-0.999924858316,0.0,0.656594781198,0.254278972265,0.303355784891,1.0,-0.01436,-0.0188731428571,0.719
0.461181049385,0.518857633941,-0.124092558553,-1.40141814537,0.0769685201285,1.91088545356,0.153314868473,-0.0116950886417,-0.0771164573765,-3.95213624265e-05,-0.125550883712,-0.00819815773912,0.0357591324712,-0.0230819249293,0.574093257919,0.81877539112,0.00213002558012,0.0,0.818732343066,-0.574031668439,-0.012072321544,0.0,-0.00866198442637,0.0086747262552,-0.999924856752,0.0,0.656338640902,0.253962570921,0.303371476591,1.0,-0.0147,-0.01932,0.736
0.461019722432,0.517583431712,-0.124092576119,-1.40340456052,0.0768381250597,1.91160493042,0.153035145022,-0.00830307575569,-0.0840724756889,-3.48138411849e-05,-0.125176221746,-0.00762140821453,0.0520786397207,-0.021056305764,0.574067606424,0.818793397324,0.00212194616908,0.0,0.818750256447,-0.57400606746,-0.0120747252084,0.0,-0.00866886220169,0.00866921947803,-0.999924844907,0.0,0.656077414981,0.253644425764,0.303377868063,1.0,-0.01504,-0.0197668571429,0.753
0.460829599848,0.516233846004,-0.124091874658,-1.40555843544,0.0767057150784,1.91240517536,0.152737662946,-0.00639932953769,-0.0845952963542,0.000893445008986,-0.131301614175,-0.00378844887575,0.0438998834694,-0.0221949431919,0.574056219668,0.818801369269,0.00212632174402,0.0,0.818758272044,-0.57399464995,-0.0120739674028,0.0,-0.00866585058124,0.00867224656819,-0.999924844762,0.0,0.655833741535,0.253336114949,0.303373403453,1.0,-0.01536,-0.0201874285714,0.769
0.460643379856,0.514851215597,-0.12410250151,-1.40775403475,0.0765653360586,1.91323046195,0.15244641979,-0.0095970618214,-0.0817561303504,-0.000455407891558,-0.128156586749,-0.0134098781091,0.0567972412118,-0.0179178805231,0.574055788675,0.818801664384,0.00212903562827,0.0,0.818758691842,-0.573994296775,-0.0120622843428,0.0,-0.00865473081826,0.00866775745869,-0.999924979994,0.0,0.655570936429,0.252998699946,0.303369693177,1.0,-0.0157,-0.0206342857143,0.786
0.460451723457,0.513448526607,-0.124105696985,-1.41000546408,0.0764334245424,1.91401446737,0.152126792116,-0.00918386880461,-0.0804983084908,-0.00163314131244,-0.129499342956,-0.00591875190747,0.0461739167218,-0.0186885791409,0.574035861887,0.818815767791,0.00207715810912,0.0,0.818771956357,-0.573974434875,-0.0121069605907,0.0,-0.008721302492,0.00865071491928,-0.999924549161,0.0,0.655285502096,0.252654376795,0.30334925079,1.0,-0.01604,-0.0210811428571,0.803
0.460252144205,0.512015465485,-0.124106376996,-1.4122964432,0.0762884702066,1.91483299541,0.151802324792,-0.0161568738707,-0.0840272536634,0.000273603656691,-0.134182692742,-0.01319860534,0.0509012309025,-0.02017794939,0.574014865975,0.818830577947,0.00204087232551,0.0,0.818786245202,-0.573953553489,-0.0121305402465,0.0,-0.0087616600465,0.00863431485946,-0.999924338098,0.0,0.654999599825,0.252302342651,0.303333702999,1.0,-0.01638,-0.021528,0.82
0.460050867141,0.510560684877,-0.124114213713,-1.41463433592,0.0761436092632,1.91572627837,0.151472277889,-0.0135762115786,-0.0903875323452,0.00142999969648,-0.14031613116,-0.0139432955646,0.0497387814194,-0.0156264422052,0.573998339974,0.81884215502,0.00204395950715,0.0,0.818797910685,-0.573937063442,-0.0121233480131,0.0,-0.0087541728407,0.00863253761151,-0.99992441902,0.0,0.654719153064,0.251944817891,0.303317301811,1.0,-0.01672,-0.0219748571429,0.837
0.459867146649,0.509163099951,-0.124118806911,-1.41685352461,0.0760103151679,1.91653172232,0.15116997636,-0.0109824546423,-0.0880302748987,0.000497811108253,-0.141340395343,-0.00994284417771,0.0538826917492,-0.015084220639,0.573984104668,0.818852167774,0.00203022692999,0.0,0.81880767282,-0.573922820232,-0.0121382968395,0.0,-0.00877444605,0.00862972098032,-0.999924265638,0.0,0.654441293436,0.251610043482,0.303309159103,1.0,-0.01704,-0.0223954285714,0.853
0.45964395406,0.507545139096,-0.124119578248,-1.41938703159,0.0758418320077,1.91742994869,0.150806551908,-0.0152059863398,-0.091351493028,0.00171039650275,-0.145301463143,-0.0155967233029,0.0516656796227,-0.020001684931,0.573955441011,0.818872310509,0.00200940684345,0.0,0.818827557956,-0.573894266501,-0.0121469383262,0.0,-0.00879377369366,0.00861732495273,-0.999924202755,0.0,0.654122617681,0.25121803491,0.303312949455,1.0,-0.0174,-0.0228685714286,0.871
0.459440418762,0.506081756838,-0.124131260409,-1.42167372017,0.0757018409027,1.9182895433,0.150503096076,-0.013721345089,-0.0939480924085,-0.000687812862454,-0.139820348412,-0.00847281989731,0.0518784387879,-0.00430396797465,0.573962603742,0.818867222993,0.00203654475934,0.0,0.818822862488,-0.573901345312,-0.0121289990636,0.0,-0.00876343272694,0.00862932743404,-0.999924365617,0.0,0.653846250046,0.250861721792,0.303322595578,1.0,-0.01772,-0.0232891428571,0.887
0.459219211464,0.504450805024,-0.124134097252,-1.42415739129,0.0755482078632,1.9192437333,0.150157216125,-0.0120699343132,-0.101338436333,0.000847823159333,-0.151395522745,-0.00467993021437,0.0531520907921,-0.0219581865717,0.573949303335,0.818876331871,0.00212066134274,0.0,0.818833120511,-0.573887731316,-0.0120805422206,0.0,-0.00867561560623,0.0086702534655,-0.99992477737,0.0,0.653548156337,0.250482127746,0.303362916071,1.0,-0.01806,-0.023736,0.904
0.458985912959,0.50278258116,-0.12414295354,-1.42662211216,0.0753921552386,1.92018118235,0.14981024035,-0.0137067838368,-0.0996781305703,0.000293860878082,-0.145270878069,-0.00551019836626,0.0575096175407,-0.0291577847081,0.573947021368,0.818877622156,0.00223684971468,0.0,0.818836036796,-0.573885070382,-0.0120090689957,0.0,-0.00855042782983,0.00872435050556,-0.999925385162,0.0,0.653255701291,0.250092437446,0.303436311098,1.0,-0.0184,-0.0241828571429,0.921
0.458741022783,0.500978717678,-0.124138723684,-1.42934957359,0.0752234425852,1.92113245697,0.149425663228,-0.0119302961183,-0.100542833208,0.00277666669611,-0.149692083249,-0.00463176141125,0.0554520341032,-0.0239590297225,0.573923156889,0.818894271735,0.00226464266057,0.0,0.818852915596,-0.573860957631,-0.0120104466235,0.0,-0.00853586027687,0.0087476511066,-0.999925306055,0.0,0.652905775655,0.24967258567,0.303479498018,1.0,-0.01876,-0.024656,0.939
0.4585119851,0.499371049494,-0.124145003923,-1.43180085686,0.0750648916951,1.92202848362,0.149077794788,-0.0144071203019,-0.101749681881,-0.000980962983177,-0.155543770146,-0.00866171671208,0.06065474616,-0.0233273816685,0.573912301235,0.818901767979,0.00230473301842,0.0,0.818860983204,-0.573849988635,-0.0119844745658,0.0,-0.00849169988534,0.00876546208494,-0.999925526081,0.0,0.652602913396,0.249285056733,0.303512125001,1.0,-0.01908,-0.0250765714286,0.955
0.458258147479,0.497694840787,-0.124150437493,-1.43444264819,0.0749035512037,1.92300605743,0.148694507704,-0.0131340008852,-0.0992887187503,-0.00102915032076,-0.155406375716,-0.00749672494145,0.0563402583061,-0.025831614365,0.573900947679,0.81890969918,0.00231381571033,0.0,0.818868993487,-0.573838558848,-0.0119844393322,0.0,-0.00848658032865,0.00877276193482,-0.999925505526,0.0,0.652277164862,0.24886530523,0.303508425319,1.0,-0.01942,-0.0255234285714,0.972
0.457977921381,0.495922891848,-0.124147932826,-1.43729329928,0.0747253751407,1.92399661545,0.148283647038,-0.0114135982068,-0.0980364307737,-0.00118065623345,-0.161473769838,-0.0109552499293,0.0569734589851,-0.0166992238014,0.573887978706,0.818918994686,0.00223940637141,0.0,0.818877153896,-0.573825730088,-0.0120409807205,0.0,-0.0085757239399,0.00874414115499,-0.999924995664,0.0,0.651910341741,0.248407929499,0.303472312321,1.0,-0.01978,-0.0259965714286,0.99
0.457697599801,0.49424013096,-0.124149304763,-1.4400500686,0.0745592613282,1.92496108182,0.147897736372,-0.0174933432037,-0.105353966785,0.00300930534558,-0.167026162949,-0.00869891144589,0.054111861582,-0.0295843501157,0.573896470431,0.818913288002,0.00214822305501,0.0,0.81887005653,-0.573834406048,-0.0121099899043,0.0,-0.00868447455241,0.00870916367591,-0.999924362324,0.0,0.651557564062,0.247958484911,0.303416012427,1.0,-0.0246737142857,-0.0324283102041,1.007
0.45739719392,0.491829676378,-0.124240677053,-1.44359177834,0.0743620142811,1.92630468815,0.147366631864,-0.0200618783108,-0.167348056266,-0.00384320273138,-0.255303602086,-0.0122710761612,0.0994997582077,-0.0393387917837,0.573898292199,0.818911536669,0.00232211603919,0.0,0.818870837943,-0.573835765103,-0.0119921789737,0.0,-0.00848818390122,0.00878397325829,-0.999925393491,0.0,0.651134360532,0.247380319273,0.303526994648,1.0,-0.0371902857143,-0.0488786612245,1.023
0.457015754263,0.488823180447,-0.124268956392,-1.4483790082,0.0741107962208,1.9281270041,0.146649511637,-0.0281676837231,-0.218395146255,-0.00135725227329,-0.352600305319,-0.0187080608368,0.121684324026,-0.0571944282198,0.573816296203,0.818968850744,0.00237205069611,0.0,0.818928501668,-0.573753262711,-0.0120020658393,0.0,-0.00846850928583,0.00882969088806,-0.999925157654,0.0,0.6505252384,0.246670505464,0.303498157059,1.0,-0.0489245714286,-0.0643008653061,1.038
0.456357152095,0.484290725878,-0.124363568769,-1.45550841717,0.0736984093278,1.93081137386,0.145565309199,-0.043533020391,-0.286893048904,-0.00901783936004,-0.453461312801,-0.0264438560732,0.164254929578,-0.0709263765792,0.573778743862,0.818994964964,0.00243872022848,0.0,0.818955566732,-0.57371553193,-0.0119588897208,0.0,-0.00839530043031,0.00885913079451,-0.999925514592,0.0,0.649642407195,0.245517096153,0.303488380666,1.0,-0.0622234285714,-0.0817793632653,1.055
0.455479907372,0.47866151067,-0.124522359354,-1.46448574492,0.0731499142464,1.93391351246,0.144209929511,-0.0553825700557,-0.356645079667,-0.0141783798695,-0.558254629278,-0.0334781517272,0.19315362371,-0.0810222792123,0.573792512423,0.818985974077,0.00220768081428,0.0,0.818943570473,-0.573730258665,-0.0120733414774,0.0,-0.00862145003525,0.00873572713799,-0.999924675998,0.0,0.648482357609,0.243987860234,0.303392472677,1.0,-0.0755222857143,-0.0992578612245,1.072
0.454469909958,0.472274903528,-0.124660541962,-1.47446506867,0.0725596400323,1.93742703354,0.14277019737,-0.0694409785744,-0.416712176711,-0.00643219515115,-0.654990247423,-0.0402003752675,0.230256119244,-0.0959315602939,0.573865398617,0.818935121884,0.00212539802576,0.0,0.818891338823,-0.573803184101,-0.0121502270398,0.0,-0.00873085560309,0.00871323267504,-0.999923922975,0.0,0.647104121936,0.242191676548,0.303356895834,1.0,-0.0888211428571,-0.116736359184,1.089
0.453223688317,0.464437780282,-0.124778052385,-1.48635657517,0.0718679892254,1.94186025264,0.140865687631,-0.0790173601581,-0.476122597914,-0.00169616240161,-0.725822732677,-0.0441775210678,0.265579657458,-0.121032544645,0.573789043281,0.818987656589,0.00246962877118,0.0,0.818948351157,-0.573725378465,-0.0119806153099,0.0,-0.0083952489903,0.00889701550183,-0.999925178656,0.0,0.645685112196,0.240310130323,0.303507538184,1.0,-0.101337714286,-0.133186710204,1.105
0.451710691703,0.455687678194,-0.124880695927,-1.50009705437,0.0709916272937,1.94659288747,0.138790228356,-0.094442688019,-0.532345655854,-0.00614684608351,-0.862004205596,-0.0535301190332,0.273290160385,-0.122289603239,0.573803997129,0.818977836329,0.00224129027056,0.0,0.818935083359,-0.573740797668,-0.0121479724695,0.0,-0.00866316733401,0.00880619594111,-0.999923697311,0.0,0.64384101534,0.237948059634,0.303403860666,1.0,-0.114636571429,-0.150665208163,1.122
0.449969007732,0.445683389891,-0.125049508028,-1.51511706173,0.0699448124594,1.95198963331,0.136409273735,-0.105073763153,-0.601450595592,-0.00803495428327,-0.900977619367,-0.0593258290461,0.325457498703,-0.14190104309,0.573794479307,0.818983805121,0.00248382096278,0.0,0.818945256625,-0.573731365336,-0.0119052081716,0.0,-0.00832528698448,0.00886542680657,-0.999926044167,0.0,0.642003868739,0.235448950823,0.303585207553,1.0,-0.127153142857,-0.167115559184,1.138
0.448003314051,0.434829232674,-0.125166595018,-1.5317426715,0.068870233306,1.95767973581,0.133765972759,-0.122142831088,-0.668881595608,-0.00454086538421,-0.997024691303,-0.0665031273856,0.343462502687,-0.163503944097,0.573773330411,0.818998781622,0.00243061989596,0.0,0.818958890098,-0.573709743304,-0.0120088995805,0.0,-0.00844096632322,0.00888113506849,-0.999924934946,0.0,0.639590640752,0.232362975152,0.30359218961,1.0,-0.141234285714,-0.185622204082,1.156
0.445782579036,0.422941504448,-0.125312085951,-1.54958680369,0.0676387474275,1.96394970817,0.13079121567,-0.136947942189,-0.707560706887,-0.00770337442026,-1.08196030007,-0.0752931702765,0.368638219382,-0.186741184764,0.573691091181,0.819055692832,0.00265534173369,0.0,0.819019095931,-0.57362703017,-0.011853170878,0.0,-0.00818538888708,0.00897500691778,-0.999926221608,0.0,0.637150337689,0.229152487016,0.303738231101,1.0,-0.154533142857,-0.203100702041,1.173
0.443429272642,0.410923524595,-0.125458008917,-1.567485462,0.066337055621,1.97028560221,0.127813729901,-0.150963578747,-0.788100376692,-0.00517279471022,-1.15516392836,-0.0876648807512,0.407882756718,-0.188785297684,0.573671313148,0.819068472775,0.00296787422696,0.0,0.819036839486,-0.573607180543,-0.0115846836552,0.0,-0.00778640509397,0.00907677376778,-0.99992848948,0.0,0.634688624252,0.225858776575,0.30391696,1.0,-0.167049714286,-0.219551053061,1.189
0.440608758185,0.397383413691,-0.125612495032,-1.58775223497,0.0649879983693,1.97720254707,0.124380018789,-0.171591994109,-0.810598927385,-0.0124942704357,-1.20226078503,-0.0850906567708,0.429582526546,-0.205310208783,0.57372702842,0.819028810347,0.00313872330715,0.0,0.81899878378,-0.57366161922,-0.0115795380997,0.0,-0.00768355815179,0.00921428195907,-0.999928027381,0.0,0.631804124376,0.222056261849,0.304008635491,1.0,-0.180348571429,-0.23702955102,1.206
0.43750247924,0.383074980877,-0.125757117624,-1.60929227526,0.0633847413036,1.98438408469,0.120610151822,-0.188033102462,-0.884296348037,-0.00944057436757,-1.28154133808,-0.0956918866824,0.410433593826,-0.229537346818,0.573670717636,0.819068646187,0.0030343799158,0.0,0.819037350246,-0.573605752773,-0.0116192163237,0.0,-0.00777654773088,0.00915105083876,-0.999927889187,0.0,0.628647502172,0.217943150507,0.303986166548,1.0,-0.193647428571,-0.25450804898,1.223
0.434072721047,0.367890501183,-0.12591981704,-1.63191656175,0.0616774097327,1.99190318862,0.116573723732,-0.212010115813,-0.884201647116,-0.0056483969691,-1.35001602516,-0.100006984429,0.428280666773,-0.230535159724,0.573645667726,0.81908617876,0.0030375260228,0.0,0.819055083252,-0.573580883861,-0.0115968603437,0.0,-0.00775671050434,0.00914056580909,-0.999928139167,0.0,0.625279126988,0.213535868783,0.304008232749,1.0,-0.206946285714,-0.271986546939,1.24
0.430466384863,0.352896729572,-0.126122237101,-1.65409473239,0.0599406561748,1.99921113558,0.112502730164,-0.231456021392,-0.945822438394,-0.0125662591447,-1.42304228175,-0.109652099766,0.461740027426,-0.257085232487,0.573705319306,0.819044424776,0.00303046937144,0.0,0.819013663315,-0.573641052037,-0.0115459786353,0.0,-0.00771841639489,0.00910616050297,-0.999928749406,0.0,0.621716777561,0.20876099326,0.304022656254,1.0,-0.220245142857,-0.289465044898,1.257
0.426261679034,0.336209819912,-0.126332100871,-1.6785733147,0.0581077193446,2.0071212212,0.107841794872,-0.255189176161,-0.999320298988,-0.0103631999681,-1.48048236037,-0.121974606782,0.474979734985,-0.282734806368,0.573774637966,0.818995471798,0.00313510803465,0.0,0.818965650052,-0.573709535869,-0.0115489994843,0.0,-0.00766008438634,0.00919424580527,-0.999928391912,0.0,0.618156909037,0.204022337346,0.304083679544,1.0,-0.232761714286,-0.305915395918,1.273
0.4217757488,0.318817535381,-0.126470953798,-1.70393115573,0.0560500702266,2.01517781438,0.102896527463,-0.268528703734,-1.03600240425,-0.00995927223316,-1.51117251933,-0.124281692035,0.46132676093,-0.29170138905,0.573695208171,0.819051084904,0.00314250539587,0.0,0.819021358531,-0.573630092751,-0.0115446031533,0.0,-0.00765313142228,0.00919703961931,-0.999928419459,0.0,0.614113256156,0.198790273938,0.304107388092,1.0,-0.246060571429,-0.323393893878,1.29
0.416911732408,0.300718451104,-0.126646851244,-1.73007531077,0.053863072948,2.02337722527,0.0975310102333,-0.294204818406,-1.06568787922,-0.000435250906022,-1.56604614256,-0.129605543903,0.469429714649,-0.320487507679,0.573534543088,0.819163423971,0.00318741493822,0.0,0.819134504129,-0.573469581598,-0.011491302296,0.0,-0.00758551506838,0.00920175752907,-0.999928891282,0.0,0.60985655706,0.193269469033,0.304147199382,1.0,-0.259359428571,-0.340872391837,1.307
0.411877012868,0.283020656055,-0.126847578721,-1.75536679165,0.0517624725006,2.03111361158,0.0922647413439,-0.3194850914,-1.11171503833,-0.00757257827686,-1.58542582691,-0.127890795696,0.470528515735,-0.322847365381,0.573559372626,0.81914574411,0.0032623428567,0.0,0.819117501741,-0.573493823503,-0.0114934610465,0.0,-0.00754403146888,0.00926460281008,-0.999928624815,0.0,0.605648661646,0.187759811335,0.304206269029,1.0,-0.271876,-0.357322742857,1.323
0.405710514245,0.262434153876,-0.127110879817,-1.78456200709,0.0492447334412,2.03989688924,0.0858785071348,-0.355928558789,-1.14975735068,-0.0174891591637,-1.60890180066,-0.137708196317,0.477031482548,-0.348790087473,0.573548434902,0.81915310241,0.00333684502807,0.0,0.819125754529,-0.573482578022,-0.0114663801411,0.0,-0.00747924237539,0.00930999933159,-0.99992868988,0.0,0.60068744229,0.181222919748,0.304255936684,1.0,-0.285957142857,-0.375829387755,1.341
0.399707886029,0.243600801129,-0.127398409485,-1.81109209149,0.0468348988477,2.04769264762,0.0799256719888,-0.381940672581,-1.18698304308,-0.01710588535,-1.67036973252,-0.149887199718,0.467067002424,-0.375865509439,0.573669686139,0.819068276173,0.00331618370431,0.0,0.81904101122,-0.573604309444,-0.0114308804781,0.0,-0.00746063794505,0.00927381862048,-0.999929165076,0.0,0.596084682027,0.175066584395,0.304264009276,1.0,-0.298473714286,-0.392279738775,1.357
0.392983957207,0.222955197809,-0.127590960597,-1.83984560134,0.0442567151707,2.05593555857,0.0731073291467,-0.405935359674,-1.22204630672,-0.00619924784036,-1.72368191967,-0.157786489962,0.473866489387,-0.412749722066,0.573525644723,0.819168814942,0.00339622918401,0.0,0.819141926074,-0.573459228,-0.0114789228463,0.0,-0.00745572020459,0.00936563065875,-0.999928346032,0.0,0.590919406375,0.168421277422,0.304286154283,1.0,-0.311772571429,-0.409758236735,1.374
0.385643830698,0.20173810221,-0.127872177052,-1.86913307828,0.0414167902256,2.06399284247,0.0658794747098,-0.453439795611,-1.25151229183,-0.019723006826,-1.73012018888,-0.180015252651,0.459765401968,-0.440917600642,0.573455938599,0.819218104052,0.00327587846882,0.0,0.819189769872,-0.573390033957,-0.0115211456411,0.0,-0.00756012057785,0.00929061438946,-0.999928261957,0.0,0.585528966616,0.161372868488,0.304272533684,1.0,-0.325071428571,-0.427236734694,1.391
0.377668545673,0.179866935443,-0.128253693683,-1.89881293009,0.0385669720322,2.07191555457,0.058159594097,-0.489706049436,-1.29051754369,-0.0318777098319,-1.74218883206,-0.164764644226,0.457831471899,-0.464788416553,0.573507712751,0.81918167843,0.00332084945384,0.0,0.819153464313,-0.573441092412,-0.0115612429305,0.0,-0.00756659253034,0.00935092735853,-0.9999276508,0.0,0.579948534568,0.153975647054,0.30433071529,1.0,-0.338370285714,-0.444715232653,1.408
0.36958078935,0.158741198983,-0.1286294188,-1.92716442139,0.0357240569123,2.07927827551,0.0505127353048,-0.520315757976,-1.32399567675,-0.0162760471846,-1.74666647138,-0.176568789673,0.453651995223,-0.491037234877,0.573602321646,0.819115250782,0.00336592333739,0.0,0.819087470711,-0.573535362585,-0.0115607132315,0.0,-0.00753922560958,0.00938841833866,-0.999927506211,0.0,0.574488135229,0.146729893886,0.304378695679,1.0,-0.350886857143,-0.461165583673,1.424
0.360447686055,0.135748753679,-0.129000532096,-1.95762552724,0.0325192231212,2.08705861987,0.041892245963,-0.554015965509,-1.38481146863,-0.0271068301545,-1.80997135391,-0.18230450843,0.470198150949,-0.526019823794,0.573563061764,0.819142125378,0.00351276418897,0.0,0.819116735831,-0.573496290841,-0.0114247264672,0.0,-0.00734405888309,0.00943034659193,-0.99992856413,0.0,0.568478282732,0.138830283668,0.304446448102,1.0,-0.364185714286,-0.478644081633,1.441
0.350552491262,0.112240891564,-0.129482207889,-1.98837362821,0.0291808745344,2.09448729829,0.0327084531402,-0.600428334189,-1.39897719674,-0.0298404419833,-1.83185202292,-0.212105470602,0.451165861701,-0.562996402892,0.573633624706,0.819092489032,0.00356453632008,0.0,0.819068029991,-0.573567037013,-0.0113649988873,0.0,-0.00726462455751,0.00943912498041,-0.999929061559,0.0,0.562241383235,0.130547263752,0.304493762952,1.0,-0.377484571429,-0.496122579592,1.458
0.33867198954,0.0853527745984,-0.1299504516,-2.02309024313,0.0253026328129,2.10233822143,0.0216975287731,-0.638001978726,-1.43626450985,-0.0265994360499,-1.86553991282,-0.203673638187,0.402540502797,-0.595080093079,0.573546451515,0.819153782756,0.00350643024567,0.0,0.81912814902,-0.573479492899,-0.0114496117265,0.0,-0.0073682687797,0.00943928162919,-0.999928301718,0.0,0.554933520369,0.121025285052,0.304499196625,1.0,-0.38998,-0.512545142857,1.477
0.328712575924,0.0641369060518,-0.130323860849,-2.05020114804,0.0221923950207,2.10821160518,0.0125873475408,-0.67373413014,-1.39882691603,-0.0278355093915,-1.82836641572,-0.206076917288,0.362179939535,-0.602643558729,0.573504883382,0.819183156584,0.00344261647101,0.0,0.819156190879,-0.573437477053,-0.0115473701296,0.0,-0.00748542992711,0.00944269555573,-0.999927399284,0.0,0.549077764542,0.113363204453,0.304452862775,1.0,-0.38998,-0.512545142857,1.492
0.316709709,0.0402070123073,-0.130823359861,-2.0801994211,0.0185817825847,2.11420372867,0.00204411286349,-0.70795162973,-1.39337858467,-0.0235565929692,-1.72340258562,-0.199500388444,0.340879064897,-0.622424617629,0.573793224496,0.818981748287,0.00331336621727,0.0,0.818952684273,-0.573725661342,-0.01166676226,0.0,-0.00765404949245,0.00940798042699,-0.999926450011,0.0,0.542430857817,0.104459221273,0.304449156526,1.0,-0.38998,-0.512545142857,1.509
0.30514074817,0.0179127279961,-0.131192117303,-2.10753488093,0.0152426072485,2.11946949981,-0.00823244098932,-0.730649152177,-1.37868190527,-0.0227913458658,-1.66667538709,-0.208125381275,0.317594549105,-0.642506360688,0.573862056948,0.818932682317,0.00351401901814,0.0,0.81890622271,-0.573793850989,-0.011574190085,0.0,-0.00746230369959,0.00951982385648,-0.999926840812,0.0,0.535842874392,0.0957245943853,0.304571579172,1.0,-0.38998,-0.512545142857,1.526
0.290760034229,-0.00824902677932,-0.13169010082,-2.1390344254,0.0112324737892,2.12521459823,-0.020861312562,-0.76413354187,-1.37746310868,-0.016986648616,-1.62515838612,-0.218470640783,0.317520527963,-0.68114962032,0.57402212387,0.818819582899,0.00372006334992,0.0,0.818796139542,-0.573953743749,-0.0114336699883,0.0,-0.00722710774836,0.0096093380496,-0.999927712155,0.0,0.528883109568,0.0863876496378,0.304680343985,1.0,-0.38998,-0.512545142857,1.544
0.277554198485,-0.031326544573,-0.132016631358,-2.16643292035,0.00761542853156,2.1297329503,-0.0325385010477,-0.788973805254,-1.36418974707,-0.0206042079727,-1.57593331973,-0.228524229244,0.27948677911,-0.686497870196,0.573943076008,0.818874519159,0.00382286220607,0.0,0.818852593707,-0.57387467944,-0.0113590923262,0.0,-0.00710796429397,0.00965001881593,-0.999928174411,0.0,0.522262576697,0.0777157140109,0.304756080671,1.0,-0.38998,-0.512545142857,1.561
0.26533441805,-0.0514190774394,-0.132464605744,-2.19003856392,0.00451213551244,2.13324158891,-0.0431111752705,-0.817671856184,-1.34117479456,-0.0224839256188,-1.52839011439,-0.196880208775,0.234705334917,-0.706150086405,0.574220537549,0.818679844088,0.00385149856174,0.0,0.818657434593,-0.574150863446,-0.0114689882583,0.0,-0.00717822649747,0.00973897404015,-0.999926810046,0.0,0.516404583394,0.0699022405771,0.304762912953,1.0,-0.38998,-0.512545142857,1.576
0.251278764389,-0.073913296114,-0.132791199916,-2.21605817258,0.00089127793328,2.13685307721,-0.0555700801232,-0.829387901786,-1.33953944042,-0.0232110366347,-1.50348730873,-0.21053619764,0.217428660482,-0.738450287237,0.574050081293,0.818799232283,0.00388178842154,0.0,0.818777246697,-0.573980389744,-0.0114489904269,0.0,-0.007146491733,0.0097508016545,-0.999926922091,0.0,0.509761962153,0.0612649170654,0.30477864155,1.0,-0.38998,-0.512545142857,1.593
0.237483876097,-0.0946763451901,-0.133211985588,-2.23983561296,-0.00242474376093,2.13969650153,-0.0676693161405,-0.857018250267,-1.2815720777,-0.0126301844867,-1.44961114052,-0.1988758388,0.169043270431,-0.755511760129,0.574117157729,0.818752608671,0.00379498311283,0.0,0.818728313978,-0.574046118098,-0.011651141066,0.0,-0.00736104854061,0.00979636872911,-0.999924920244,0.0,0.503503456404,0.0530329747593,0.304717483372,1.0,-0.38998,-0.512545142857,1.609
0.222497405363,-0.116548005228,-0.133525906618,-2.26440794975,-0.00608178552355,2.14233653841,-0.0808818537492,-0.891947073057,-1.28169408772,-0.0244695574209,-1.41540817022,-0.205821121163,0.139390156808,-0.77482938989,0.573934517408,0.818881084535,0.00369946218307,0.0,0.818855580014,-0.573863846178,-0.0116864036467,0.0,-0.00744693067182,0.00973674315133,-0.999924866706,0.0,0.496849179271,0.0444208643531,0.304690680872,1.0,-0.38998,-0.512545142857,1.626
0.205086985025,-0.140614830966,-0.133950744202,-2.29102147121,-0.0100046734378,2.14471422492,-0.0962728329349,-0.925443368992,-1.25590696609,-0.0139555749917,-1.35751302074,-0.197446294965,0.109339782893,-0.821541055903,0.573823647645,0.818959080468,0.00363219272956,0.0,0.818931488135,-0.573751648061,-0.0118748048193,0.0,-0.00764114978672,0.00978874927746,-0.999922893636,0.0,0.48940407673,0.0347550950752,0.304632061625,1.0,-0.38998,-0.512545142857,1.645
0.189838598001,-0.1606634571,-0.134426943995,-2.31285904199,-0.0134170047052,2.14635353435,-0.109696543251,-0.963392030118,-1.23902204946,-0.0347705951949,-1.35611721498,-0.217152217517,0.0841743480218,-0.847296987406,0.573824228349,0.818959174592,0.00351741566246,0.0,0.818929630073,-0.573752063009,-0.0119824072365,0.0,-0.00779512792755,0.00975649933634,-0.99992202031,0.0,0.483111625367,0.0265088115068,0.30456176585,1.0,-0.38998,-0.512545142857,1.661
0.173253766532,-0.181750101629,-0.134804227387,-2.3351958843,-0.0168343242282,2.14758493752,-0.124404801907,-0.994562892953,-1.23201409189,-0.0278485469385,-1.31350626067,-0.216985081976,0.0610460653422,-0.888731173624,0.573713626449,0.819036451578,0.00356548937549,0.0,0.819006488915,-0.573639986462,-0.0120947901283,0.0,-0.00786091805922,0.00985929466233,-0.999920496978,0.0,0.476053945337,0.0173833859924,0.30457361708,1.0,-0.38998,-0.512545142857,1.679
0.158030031111,-0.200051236791,-0.135329503565,-2.35424642104,-0.0199253440312,2.14841846072,-0.137824526264,-1.00934326235,-1.20048433872,-0.0231060289272,-1.26292832639,-0.193806908443,0.0410773947828,-0.896362279264,0.573828825026,0.818955146625,0.00370057919683,0.0,0.818927116934,-0.573754872726,-0.0120195705037,0.0,-0.00772041241997,0.00992787181438,-0.999920913169,0.0,0.470631607096,0.0101460984997,0.304634107771,1.0,-0.38998,-0.512545142857,1.693
0.140250473598,-0.220564847481,-0.135929052924,-2.3751805127,-0.0233457723773,2.14897151993,-0.153542677187,-1.06767663357,-1.22207171284,-0.0448886969406,-1.21180900935,-0.212106645919,0.0396903607795,-0.926651329563,0.573970979723,0.818854681353,0.00388228841427,0.0,0.818828947138,-0.573896245648,-0.0119583218817,0.0,-0.00756424274357,0.010042853217,-0.999920958542,0.0,0.464016025255,0.00136241415387,0.304707923839,1.0,-0.38998,-0.512545142857,1.71
0.119883159126,-0.242942782517,-0.136512133584,-2.39770084183,-0.0271398308894,2.14912534795,-0.171710977034,-1.08694505164,-1.17556149594,-0.0245771181281,-1.15093834631,-0.199505078443,0.0146206068719,-0.98135807743,0.57394615498,0.818871650833,0.00397209598491,0.0,0.818846865381,-0.57387080631,-0.0119522224885,0.0,-0.00750801078712,0.0101126651871,-0.999920678742,0.0,0.456621190343,-0.00833668495366,0.304738751225,1.0,-0.38998,-0.512545142857,1.729
0.100990119296,-0.262579435599,-0.137098466821,-2.41718527292,-0.0304906244244,2.14898479242,-0.188602628198,-1.11515896407,-1.15078036343,-0.0253740887623,-1.13243045998,-0.193958547526,-0.0162397755928,-0.999453644736,0.573988503526,0.818841483728,0.00407053411193,0.0,0.818817779206,-0.573912523413,-0.0119418100687,0.0,-0.00744246226166,0.0101876835369,-0.999920407262,0.0,0.449989001705,-0.0170694639719,0.304733142451,1.0,-0.38998,-0.512545142857,1.746
0.0815889151679,-0.28181235895,-0.137709419952,-2.43575497017,-0.0337696966454,2.14855647748,-0.206052202219,-1.14581347195,-1.12392697718,-0.0320579183298,-1.09202382479,-0.189485184846,-0.0469535536974,-1.04530990695,0.574021088795,0.818817402909,0.00431244861005,0.0,0.818797621963,-0.573945372105,-0.0117435517601,0.0,-0.00714085211451,0.0102722668074,-0.999921741321,0.0,0.443432966902,-0.0257833918752,0.304813720924,1.0,-0.38998,-0.512545142857,1.763
0.0652113032844,-0.297305622081,-0.138140601969,-2.45051128962,-0.0364099096319,2.14788047158,-0.220915208415,-1.19001963089,-1.10188741612,-0.0412239814496,-1.03454313446,-0.19776263961,-0.0396273501959,-1.0691273369,0.573926607079,0.818882982985,0.00443359504312,0.0,0.818864950815,-0.573850776858,-0.0116715520523,0.0,-0.00701354843345,0.0103293287273,-0.999922054515,0.0,0.438013339672,-0.0329113314541,0.304856099388,1.0,-0.38998,-0.512545142857,1.777
0.0448091962976,-0.315710037618,-0.138711191355,-2.46795439747,-0.0396442533696,2.14672261597,-0.239378277072,-1.20423948066,-1.07493012874,-0.0277933564117,-1.02189826935,-0.184373981885,-0.0817175674721,-1.09751401961,0.573896903808,0.818904019951,0.00439281333738,0.0,0.818884835828,-0.573820298074,-0.0117744669246,0.0,-0.00712160995176,0.0103547377014,-0.999921027921,0.0,0.431348317651,-0.0415803762543,0.304813279677,1.0,-0.38998,-0.512545142857,1.794
0.0237750148337,-0.333625924455,-0.139330019648,-2.4845069632,-0.0427805768337,2.14540590353,-0.25851849235,-1.24472769009,-1.03764088525,-0.0304774133944,-0.961012442099,-0.186185754492,-0.0800436962265,-1.13901865102,0.573904917201,0.818897750175,0.00451305582341,0.0,0.818880491109,-0.573828459961,-0.0116784725892,0.0,-0.0069738893249,0.0103981864107,-0.999921618222,0.0,0.424754968366,-0.0502933877425,0.304842860978,1.0,-0.38998,-0.512545142857,1.811
0.00211908617076,-0.351033742221,-0.139986577294,-2.50035528664,-0.0458690542578,2.14366283882,-0.278293477238,-1.29343565493,-1.01364632585,-0.0280935516159,-0.906684162567,-0.181525571004,-0.111083194445,-1.1729104164,0.573943384322,0.818870779479,0.00451497618958,0.0,0.818852919781,-0.573865984382,-0.0117675246607,0.0,-0.0070452264784,0.0104511955823,-0.999920565492,0.0,0.418102239268,-0.0590327953667,0.30483815772,1.0,-0.38998,-0.512545142857,1.828
-0.0200765041231,-0.367970144358,-0.140682617748,-2.51540188283,-0.0487798294503,2.14184634184,-0.29870887514,-1.3204326691,-0.98096584739,-0.0417012073516,-0.87447179069,-0.178809485448,-0.113796929594,-1.20271798178,0.574008062574,0.818824199317,0.0047351466508,0.0,0.818809325992,-0.573930140327,-0.0116717005411,0.0,-0.00683955915117,0.0105770360929,-0.999920670222,0.0,0.411496954991,-0.0677612210456,0.304897647529,1.0,-0.38998,-0.512545142857,1.845
-0.0413872315769,-0.38331974156,-0.141246630053,-2.52885696994,-0.0515489200797,2.13987598238,-0.318442871097,-1.3482244132,-0.957868368833,-0.046641284621,-0.82566376586,-0.16922087522,-0.114173284641,-1.22714752363,0.573907284579,0.818894675097,0.00476305639258,0.0,0.818880345179,-0.573829573836,-0.0116338889353,0.0,-0.0067938778831,0.0105773505176,-0.999920978317,0.0,0.405273462369,-0.0759105122417,0.304928271801,1.0,-0.38998,-0.512545142857,1.861
-0.0674379879332,-0.400779872697,-0.141976586626,-2.54401321607,-0.0545783059697,2.13746754637,-0.342639815216,-1.38421660078,-0.906833366473,-0.0446521868872,-0.783552435466,-0.1624566883,-0.121533339247,-1.30690635166,0.573939424618,0.818871194443,0.00492449808837,0.0,0.818858425318,-0.573860367453,-0.0116578236743,0.0,-0.00672041110301,0.0107235578238,-0.999919917484,0.0,0.397873859806,-0.0856242631814,0.304923506309,1.0,-0.38998,-0.512545142857,1.88
-0.0912651184204,-0.415759599595,-0.14257555893,-2.55657624022,-0.0573305772295,2.13510932595,-0.364945002765,-1.42900242157,-0.865039849058,-0.0389975782379,-0.724075420963,-0.160128475074,-0.126856131919,-1.33787064756,0.57381552347,0.818957524251,0.00500653556207,0.0,0.818946884638,-0.573737967523,-0.011466981535,0.0,-0.00651865677518,0.0106802243409,-0.999921716897,0.0,0.39130457003,-0.0943006177865,0.305017181242,1.0,-0.38998,-0.512545142857,1.897
-0.114180931165,-0.429089144165,-0.14316397051,-2.56788166048,-0.059733208405,2.13277971716,-0.38652714376,-1.43674873713,-0.85165246461,-0.0364464258917,-0.689348202109,-0.14172385683,-0.157418525428,-1.35669600494,0.573726691688,0.819019711935,0.00501414072907,0.0,0.819007983692,-0.573647194416,-0.0116432765264,0.0,-0.00665985344784,0.0107868874914,-0.999919641476,0.0,0.385045634289,-0.102439026285,0.304962923906,1.0,-0.38998,-0.512545142857,1.913
-0.139039658675,-0.442615273248,-0.143797838108,-2.57901205126,-0.0622136231255,2.13022794505,-0.409955424097,-1.46134488552,-0.777574491605,-0.0411438593238,-0.628763093379,-0.14490793745,-0.146274215903,-1.38448708835,0.573705517119,0.819034159173,0.00507667563565,0.0,0.819022972374,-0.573625387857,-0.0116632769945,0.0,-0.00664064008874,0.010849409213,-0.999919092836,0.0,0.378428482749,-0.111102986225,0.304988652698,1.0,-0.38998,-0.512545142857,1.93
-0.164523873118,-0.45526602759,-0.144451254481,-2.58934332274,-0.0645997271533,2.1278001086,-0.434084464746,-1.51324922728,-0.740479556579,-0.04197531606,-0.603311663801,-0.131724917328,-0.156669228011,-1.42690368129,0.573703542229,0.819035109656,0.00514603592562,0.0,0.819024920209,-0.573623355837,-0.0116263759182,0.0,-0.00657065018353,0.0108850342816,-0.999919168026,0.0,0.371820214208,-0.11982581614,0.304991661072,1.0,-0.389937714286,-0.512489567347,1.947
-0.188718635336,-0.466212384118,-0.144890150176,-2.59833681119,-0.0665582499864,2.12542920146,-0.45714895655,-1.50656849054,-0.654978698474,-0.0310391749207,-0.550736740162,-0.113622598926,-0.132633832986,-1.43470566181,0.573605629974,0.819103579635,0.00516275054333,0.0,0.819091756722,-0.573522364786,-0.0118969769895,0.0,-0.00678403415224,0.0110531522004,-0.999915898817,0.0,0.365625399849,-0.127862227655,0.304909706533,1.0,-0.377421142857,-0.496039216327,1.963
-0.212988906699,-0.476205662373,-0.145151939249,-2.60618196847,-0.0682895256348,2.12327376068,-0.479995038523,-1.5116854241,-0.606785409526,-0.0136463381204,-0.469313647626,-0.105500415595,-0.126646088073,-1.423433077,0.573769940903,0.818987628124,0.00529781052198,0.0,0.81897818933,-0.573687212956,-0.0117666475167,0.0,-0.00659757961144,0.0110903534427,-0.999916734535,0.0,0.359670296014,-0.135784133689,0.304972667261,1.0,-0.364904571429,-0.479588865306,1.979
-0.236872457058,-0.485161748687,-0.14526552467,-2.61323184691,-0.0697611066753,2.12119695036,-0.502655540515,-1.48953160794,-0.533611855504,0.00858685497666,-0.422534236372,-0.0977454450768,-0.140418249451,-1.38825764995,0.573858840871,0.818924684234,0.00539807441229,0.0,0.818916043707,-0.573774895811,-0.0118164799389,0.0,-0.00657965419794,0.0112017768912,-0.999915610612,0.0,0.353509523654,-0.143873342713,0.304975695821,1.0,-0.351605714286,-0.462110367347,1.996
-0.266214280908,-0.494919408796,-0.145189268796,-2.6209590357,-0.0712777127218,2.11883491355,-0.530501307489,-1.45573235619,-0.46080158798,0.00859723994165,-0.355610675758,-0.0622560869476,-0.0950869242828,-1.38967593596,0.573879399958,0.81890957632,0.00550336416917,0.0,0.818901398424,-0.573793517401,-0.0119266906593,0.0,-0.00660921375835,0.0113514132431,-0.999913728134,0.0,0.346879813759,-0.152533382658,0.304947198705,1.0,-0.336742285714,-0.44257557551,2.015
-0.289076235986,-0.501692107625,-0.144945687251,-2.62616889993,-0.0721918692589,2.1171678352,-0.55228053291,-1.41432148379,-0.398295191156,0.0305903799873,-0.306970541659,-0.0516885918238,-0.106184897389,-1.35153028859,0.573889623486,0.818901393573,0.00565283647363,0.0,0.818895215509,-0.573803275233,-0.0118816770395,0.0,-0.00648643068656,0.0114480723157,-0.999913430181,0.0,0.341569198491,-0.159512747542,0.304976365155,1.0,-0.324225714286,-0.42612522449,2.031
-0.31274777188,-0.507810009541,-0.144691950823,-2.63080702501,-0.0729925858389,2.11563438532,-0.574863695673,-1.36896653146,-0.342448118598,0.0345518158749,-0.258849377034,-0.0547580594971,-0.0962969602467,-1.32153441768,0.573978196708,0.818838087329,0.00582780782977,0.0,0.818834572862,-0.573891885556,-0.0117810389698,0.0,-0.00630235313252,0.0115342921091,-0.999913616494,0.0,0.336175200034,-0.166692281794,0.305020363569,1.0,-0.310926857143,-0.408646726531,2.048
-0.337135497011,-0.51336669307,-0.14430068304,-2.63504282708,-0.0737375422535,2.11416318883,-0.598151974382,-1.32412407601,-0.289386035297,0.0334313639957,-0.225802194642,-0.0399641279001,-0.0955992560211,-1.28689151856,0.574025215926,0.818804583477,0.00590359720031,0.0,0.818802173775,-0.573938842833,-0.0117452888653,0.0,-0.00622891253736,0.0115761930753,-0.999913592468,0.0,0.330649019006,-0.173973818902,0.3050377079,1.0,-0.296845714286,-0.390140081633,2.066
-0.355510511126,-0.51695346301,-0.143873203791,-2.63792090642,-0.0741272109732,2.11310307596,-0.615764061631,-1.30795581831,-0.245974224565,0.0250702426461,-0.198450564761,-0.0212782592846,-0.0712232802367,-1.23743557866,0.574006166687,0.818817707244,0.00593547040072,0.0,0.818814375124,-0.573917206051,-0.0119501711422,0.0,-0.00637866595595,0.0117197460573,-0.999910976124,0.0,0.32649776947,-0.179350045115,0.304973972694,1.0,-0.285893714286,-0.37574602449,2.08
-0.378293587438,-0.5207607977,-0.143237515049,-2.64096219011,-0.0745492335581,2.11202545892,-0.637599040039,-1.25024464623,-0.198167982489,0.039166762996,-0.155551852743,-0.0207027882086,-0.0690702017854,-1.18846224599,0.57396777023,0.818844685941,0.00592671451686,0.0,0.818840490484,-0.573877484062,-0.0120677807026,0.0,-0.0064805548545,0.0117797778007,-0.999909615537,0.0,0.321430516257,-0.185970519269,0.30491737908,1.0,-0.271812571429,-0.357239379592,2.098
-0.400127544235,-0.523786547911,-0.142589835866,-2.64328790613,-0.0747733940168,2.11111733885,-0.65862762748,-1.19180090461,-0.154839585477,0.0343058100924,-0.119504040561,-0.00206401968411,-0.0489123560421,-1.1546052305,0.57393193155,0.818869331223,0.00599193047702,0.0,0.818865686462,-0.573840829177,-0.0121011241586,0.0,-0.00647094967931,0.011852036014,-0.99990882387,0.0,0.316640334122,-0.192279789714,0.304910311807,1.0,-0.257731428572,-0.338732734694,2.116
-0.416548653527,-0.525678336818,-0.142034148208,-2.64472264513,-0.0749395966366,2.11054070709,-0.674340301561,-1.15585559797,-0.124927340415,0.0525677050308,-0.104330221962,-0.0224537181237,-0.0391921292708,-1.10651242697,0.573961131341,0.818849040311,0.00596789679307,0.0,0.818845252305,-0.573870436801,-0.0120797948746,0.0,-0.00646685340776,0.0118203442661,-0.999909225514,0.0,0.313065292682,-0.196999555683,0.304916578665,1.0,-0.246779428572,-0.324338677551,2.13
-0.435609606149,-0.527422372932,-0.141388427306,-2.64606990625,-0.0749701249273,2.11000146399,-0.692689829705,-1.11142431691,-0.0924971899831,0.0271306503213,-0.0697049569276,-0.00337113875521,-0.0258956695873,-1.06368177858,0.573993104589,0.81882619456,0.00602709615559,0.0,0.818823169882,-0.573902136159,-0.0120706866684,0.0,-0.00642495477216,0.0118638453104,-0.999908980423,0.0,0.308938257011,-0.202452471627,0.304913274503,1.0,-0.233480571429,-0.306860179592,2.147
-0.453638196476,-0.52872334285,-0.140613425788,-2.64710781723,-0.0749636781784,2.10955614353,-0.710081502712,-1.03533364937,-0.0718730852461,0.046325646397,-0.0552961916906,-0.00312439430119,-0.0281632850452,-1.00357391086,0.573908061765,0.818886075588,0.00598988730399,0.0,0.818882430911,-0.57381702208,-0.0120969590261,0.0,-0.00646905655747,0.0118477838909,-0.999908886511,0.0,0.305045273082,-0.207539991499,0.304899413306,1.0,-0.220181714286,-0.289381681633,2.164
-0.470952715142,-0.52957771664,-0.139914362929,-2.64778339658,-0.0749356777445,2.10921799532,-0.7266238738,-0.990073513033,-0.0402154995306,0.0485448349724,-0.0355904229363,0.00234480548158,-0.0122748949814,-0.956382791863,0.574018718893,0.818808798788,0.00595048649006,0.0,0.818804591972,-0.573927737106,-0.0121136141221,0.0,-0.00650370979896,0.0118259546083,-0.99990892013,0.0,0.301313017029,-0.212440165011,0.304893915275,1.0,-0.206882857143,-0.271903183674,2.181
-0.486240958574,-0.530040466542,-0.139167950421,-2.64815070342,-0.0748423699029,2.10901171472,-0.741335962612,-0.934085324639,-0.020807974639,0.0392618475858,-0.0182678116628,0.00585407615977,-0.0122416104269,-0.897301146756,0.573982035522,0.81883502114,0.00588030220034,0.0,0.81883010555,-0.57389173372,-0.0120947556194,0.0,-0.00652907835371,0.0117573672867,-0.999909563636,0.0,0.298049870024,-0.216729641526,0.304898020462,1.0,-0.194366285714,-0.255452832653,2.197
-0.501472509799,-0.530236349581,-0.138307335405,-2.64830190257,-0.0746339426523,2.10887457789,-0.756106815913,-0.871856772931,-0.00481709631802,0.0509642343965,-0.00425059074791,0.0205269540163,-0.00653152638275,-0.847070476525,0.573832236207,0.818940420232,0.00582234491353,0.0,0.818935049592,-0.573742746129,-0.0120578901835,0.0,-0.00653429129973,0.01168755343,-0.999910348047,0.0,0.294829509944,-0.220964952109,0.304911902361,1.0,-0.181067428572,-0.237974334694,2.214
-0.515869043665,-0.53025217029,-0.137524080987,-2.64832322708,-0.0743646643734,2.1088005658,-0.769886904725,-0.826626677063,-0.00129547286563,0.0429955168938,0.00225066250433,0.0191204096677,-0.00513033454418,-0.797566998624,0.573898212201,0.818894174843,0.00582403138683,0.0,0.818889061037,-0.573809122646,-0.0120226196681,0.0,-0.0065034960847,0.011669220196,-0.999910762938,0.0,0.291767009651,-0.224955328487,0.304922430546,1.0,-0.167768571429,-0.220495836735,2.231
-0.529104425776,-0.530047054811,-0.136570793344,-2.64822178088,-0.0739391564408,2.10880564151,-0.782659917247,-0.763794565709,0.0105267707957,0.0604026253164,0.00582948574436,0.0296292029954,-0.00217087850088,-0.730341694222,0.573792048246,0.818968460187,0.0058389630311,0.0,0.818963603205,-0.573703031473,-0.0120081308117,0.0,-0.00648457445711,0.0116722929048,-0.999910849962,0.0,0.289000058887,-0.228545123651,0.30491936225,1.0,-0.154469714286,-0.203017338776,2.248
-0.541503205048,-0.529685146007,-0.135768552409,-2.648024478,-0.0735271709184,2.10880575049,-0.79445562631,-0.715561399129,0.0238939268595,0.0412190908008,0.0109911823814,0.0207917951947,-0.000648860218573,-0.674862436611,0.573907476577,0.818887194161,0.00589223806496,0.0,0.818882556222,-0.573817359958,-0.0120724242548,0.0,-0.0065050103757,0.0117537318045,-0.999909763243,0.0,0.286372355264,-0.231917874013,0.304898117985,1.0,-0.141170857143,-0.185538840816,2.265
-0.552086742349,-0.52921072178,-0.134862577177,-2.64774971489,-0.0730730475422,2.10886403182,-0.804672770382,-0.637523945948,0.0336720188419,0.0547513806148,0.0178736588848,0.0273747116078,0.0117831442566,-0.61694075795,0.573778191145,0.818977727457,0.00590052508462,0.0,0.818972862275,-0.573687460924,-0.0121200221291,0.0,-0.00654109686249,0.0117868012238,-0.999909138556,0.0,0.284182093696,-0.234740099297,0.304878498371,1.0,-0.128654285714,-0.169088489796,2.281
-0.562528666398,-0.528636807781,-0.134028503543,-2.64741769603,-0.0726091222123,2.10895852978,-0.814559945169,-0.599091934236,0.0306942401764,0.0512787672162,0.0230067713267,0.0246715988225,-0.000226775805096,-0.563931275455,0.573861201609,0.818919264883,0.00594186777059,0.0,0.818914513792,-0.57376950747,-0.0121786000631,0.0,-0.00656415404712,0.0118549360668,-0.999908181971,0.0,0.282002262793,-0.237533976822,0.304849591869,1.0,-0.115355428572,-0.151609991837,2.298
-0.572007244665,-0.528034674527,-0.133201956546,-2.64697873999,-0.0721371620355,2.10908258001,-0.823419984723,-0.526382467248,0.037734046208,0.050800284114,0.0272109437237,0.030858917564,0.00601985133786,-0.504556772526,0.57401040068,0.818814463411,0.00597338447616,0.0,0.818810380804,-0.573919004171,-0.0121360554126,0.0,-0.00650906415019,0.0118575195417,-0.999908511472,0.0,0.280056136665,-0.240067869821,0.304861062443,1.0,-0.102056571429,-0.134131493878,2.315
-0.580237859925,-0.527375465073,-0.132289838418,-2.64654161696,-0.0716196554615,2.10919571904,-0.831300182707,-0.472640263616,0.0394384169291,0.0511293038845,0.0231773091412,0.0329847761697,0.00102757730668,-0.44645157193,0.573898864372,0.81889253424,0.00598813319567,0.0,0.818888414323,-0.573807008134,-0.0121667253148,0.0,-0.00652733340456,0.011886311587,-0.99990805053,0.0,0.278407322481,-0.242211333791,0.304851822109,1.0,-0.0887577142858,-0.116652995919,2.332
-0.587702997132,-0.526790297948,-0.1313996141,-2.64609282556,-0.0711254119105,2.10931963414,-0.838150568826,-0.415088680214,0.0346796723651,0.0525497650682,0.0222000948581,0.0281189696362,0.00911687647902,-0.387098412798,0.574009162649,0.818815258036,0.00598341913006,0.0,0.818811468966,-0.573918019836,-0.0121091576141,0.0,-0.00648129574244,0.0118502877845,-0.999908777582,0.0,0.276929196054,-0.244144369425,0.304875012314,1.0,-0.075458857143,-0.0991744979593,2.349
-0.594084464742,-0.526181771522,-0.130521462821,-2.64565575611,-0.0706088833961,2.10944092546,-0.844030854424,-0.349560742936,0.0318111043838,0.0568116359509,0.0232189838476,0.0321427342293,0.00923700254894,-0.334741560599,0.574043638005,0.818791017347,0.00599320278813,0.0,0.818787440546,-0.573952601048,-0.012094869005,0.0,-0.00646348021048,0.0118503699328,-0.999908891928,0.0,0.275699919989,-0.245766482577,0.304883539552,1.0,-0.0621600000001,-0.0816960000002,2.366
-0.59901479107,-0.525665647497,-0.129607095866,-2.64531448184,-0.0700834164427,2.10955202112,-0.84860349822,-0.289298757505,0.0293673909417,0.0601660233694,0.0200991380335,0.0290848271636,0.00575011258759,-0.267513054671,0.57393335811,0.81886835433,0.00598879177612,0.0,0.818864672626,-0.57384227622,-0.0121011093671,0.0,-0.00647271822829,0.0118494684921,-0.999908842853,0.0,0.2748056679,-0.246951226452,0.304882111883,1.0,-0.0496434285715,-0.0652456489797,2.382
-0.603601654767,-0.525237648867,-0.12858625743,-2.64504341504,-0.0695171563367,2.10959672014,-0.852691649198,-0.236906582432,0.0186015754697,0.0563405231426,0.020320710494,0.0268682526032,0.00255440700441,-0.199548061276,0.573876590697,0.818908253461,0.00597310338091,0.0,0.818904023172,-0.573784961215,-0.0121559045958,0.0,-0.00652741938306,0.0118676159641,-0.999908272037,0.0,0.273991443144,-0.247985515038,0.30487775866,1.0,-0.0355622857144,-0.0467390040818,2.4
-0.606796054493,-0.524915632139,-0.12770435634,-2.64482891569,-0.0690072555389,2.10971276582,-0.855394650445,-0.176534255492,0.0229286039093,0.0604833067524,0.0143595436355,0.0304838984911,0.00761403102974,-0.142608077944,0.573884540178,0.818902742432,0.00596488751873,0.0,0.818898766283,-0.573793602492,-0.0121020337136,0.0,-0.00648789921142,0.0118300368479,-0.999908974553,0.0,0.273486964509,-0.248670877647,0.30488895025,1.0,-0.0230457142858,-0.0302886530614,2.416
-0.609126680348,-0.524639455707,-0.126962363103,-2.64466727515,-0.0685448323604,2.10976682468,-0.857271692224,-0.132264701293,0.0172597137998,0.0381666671081,0.0116190762859,0.0250681172759,0.00309950515369,-0.10441858202,0.573937344353,0.818865574503,0.00598686491285,0.0,0.818861717083,-0.573845994564,-0.0121247565073,0.0,-0.00649313226574,0.0118614934037,-0.999908567924,0.0,0.273141318486,-0.249135113021,0.304884038901,1.0,-0.0197383783784,-0.0259418687259,2.432
-0.611160155248,-0.524455473854,-0.126392257099,-2.64452793516,-0.0682285435047,2.1097736629,-0.859051450036,-0.102251805054,0.0070192666435,0.0256636221266,0.00748224294929,0.0175403417901,0.00443950376281,-0.0936572599405,0.573884199264,0.81890290114,0.00597588829345,0.0,0.818898847769,-0.573792811919,-0.0121339611431,0.0,-0.00650773952891,0.0118573649034,-0.999908521928,0.0,0.272809918906,-0.249561344297,0.304894411022,1.0,-0.0193783783784,-0.0254687258687,2.45
-0.613046616184,-0.524251588804,-0.125987864507,-2.64431495233,-0.0680223959703,2.10983114359,-0.860894330332,-0.0924815019939,0.00733140653826,0.0165048775899,0.0115730893719,0.0109737407939,0.00452049107875,-0.0994908259278,0.573732710108,0.819009280054,0.00594335253039,0.0,0.819005396003,-0.573642574794,-0.0120459372179,0.0,-0.00645649862756,0.011779012781,-0.999909780172,0.0,0.2724960205,-0.250020525483,0.304931171601,1.0,-0.0189983783784,-0.0249692972973,2.469
-0.614469609977,-0.524064879695,-0.125826486235,-2.64414562943,-0.0678870960949,2.1099294459,-0.862272260273,-0.0920361398964,0.0112004365677,0.0113856217371,0.0120898403322,0.00612190330874,0.00507579521265,-0.0822517192945,0.573721922835,0.819016655879,0.0059682118637,0.0,0.819013676167,-0.573632753168,-0.0119502989842,0.0,-0.0063640546357,0.0117444217668,-0.999910779703,0.0,0.272237306645,-0.25040996845,0.304951990358,1.0,-0.0186783783784,-0.0245487258687,2.485
-0.615973489083,-0.523912113478,-0.12574311032,-2.64398997408,-0.0678464175646,2.10992274309,-0.863749516255,-0.0876616843117,0.00984912101468,0.00139860786923,0.00778878630075,0.0004648279543,-0.000422704418154,-0.0812313499619,0.573710132454,0.819024957963,0.00596230273712,0.0,0.819021946557,-0.573621072325,-0.0119441761558,0.0,-0.00636259838408,0.0117359776321,-0.999910888115,0.0,0.271913733156,-0.25083150119,0.304968144463,1.0,-0.0183383783784,-0.0241018687259,2.502
-0.617360281155,-0.523782388555,-0.125689181693,-2.64383513157,-0.0678139794649,2.10993013456,-0.864991466171,-0.0819124774715,0.00719667507713,0.00246034858869,0.00873200148651,0.0053396468271,0.000729887473771,-0.0833432786596,0.573812315762,0.818953386758,0.00596015919426,0.0,0.818950618427,-0.573723743908,-0.0119036614469,0.0,-0.00632918086586,0.0117117690868,-0.999911384041,0.0,0.271614682538,-0.251230339331,0.304992871014,1.0,-0.0180183783784,-0.0236812972973,2.518
-0.618584201344,-0.523604516007,-0.125639786655,-2.64368239446,-0.0677793701987,2.10996220913,-0.866239590048,-0.0810446069525,0.013041729004,0.000675639951367,0.00816441852825,0.00820212279094,0.0035660789504,-0.0882022789664,0.573780299314,0.818975814492,0.0059607296951,0.0,0.818973144613,-0.573691900289,-0.0118886015385,0.0,-0.00631697640366,0.0117033482175,-0.999911559814,0.0,0.271357687105,-0.251587450188,0.305000968025,1.0,-0.0177183783784,-0.023287011583,2.533
-0.61992547819,-0.52340332197,-0.125631478872,-2.64354726376,-0.0677470151919,2.1100076332,-0.867615424779,-0.0764193292922,0.0083825895798,0.000369151980513,0.0063708366488,0.00469030547728,0.00364280320162,-0.0773207947585,0.573767188752,0.818984840246,0.00598259639952,0.0,0.818982351692,-0.573678515408,-0.0119002301294,0.0,-0.00631414261746,0.0117278282524,-0.999911290889,0.0,0.271059304525,-0.251982565281,0.30499265299,1.0,-0.0173783783784,-0.0228401544402,2.55
-0.621429575578,-0.52320346248,-0.125622225391,-2.64342096416,-0.067721534032,2.11001161527,-0.869079770182,-0.0819811299105,0.0101241956791,0.000804737959468,0.00556646220783,0.00174264879838,-0.000123886165227,-0.0761533884471,0.573810939059,0.818954032965,0.00600374952659,0.0,0.818951416281,-0.57372142344,-0.0119604748177,0.0,-0.0063507216348,0.0117800572671,-0.999910445283,0.0,0.270710083117,-0.252414108436,0.304977281312,1.0,-0.0169983783784,-0.0223407258687,2.569
-0.622733030025,-0.523021451328,-0.125594294531,-2.64329742894,-0.0676914640633,2.11002258973,-0.87039676118,-0.0785460878554,0.015225866903,0.0019467791947,0.00547977507921,0.00140752754939,-0.000222602226663,-0.069820543035,0.573799561926,0.81896190407,0.00601741770224,0.0,0.81895920042,-0.573709501491,-0.0119992853196,0.0,-0.00637483057781,0.011813431695,-0.999909898124,0.0,0.270416127735,-0.252786830686,0.304968238734,1.0,-0.0166583783784,-0.0218938687259,2.586
-0.623896589023,-0.522839738917,-0.125552324042,-2.64317598408,-0.0676652399865,2.11005049799,-0.871525538917,-0.0698910729201,0.00661563008883,0.00191590209816,0.0037157812671,0.000867495498032,0.00208733391512,-0.0694052100668,0.573816066636,0.818950339632,0.00601745694372,0.0,0.818947477386,-0.573725708058,-0.0120244790981,0.0,-0.00639520462302,0.0118280482103,-0.99990959523,0.0,0.2701619621,-0.253120480785,0.304960122712,1.0,-0.0163383783784,-0.0214732972973,2.602
-0.625046261177,-0.522675447991,-0.125487160065,-2.64306557825,-0.067642181232,2.11010345194,-0.872709027555,-0.0707658772523,0.00687738945286,0.00476456246129,0.00799062164546,9.4228866675e-05,0.00133571343465,-0.0681017462438,0.573758004632,0.818991125916,0.00600289045849,0.0,0.818988124525,-0.573667812325,-0.0120183148196,0.0,-0.0063993513561,0.0118121277483,-0.999909756898,0.0,0.269917385104,-0.253446228465,0.304956063203,1.0,-0.0160183783784,-0.0210527258687,2.618
-0.626165147611,-0.522507060579,-0.125419125909,-2.64295117043,-0.0676209805989,2.11011942295,-0.873860188963,-0.0720918797044,0.0108517599746,0.00398263688534,0.00972276197372,-0.000184020414578,0.00123132286908,-0.0621646660936,0.573698596738,0.819032852572,0.00598777173156,0.0,0.819029465744,-0.573608132978,-0.0120495197067,0.0,-0.00643444181683,0.0118171815468,-0.999909471992,0.0,0.269675554359,-0.253758883388,0.304949219032,1.0,-0.0156983783784,-0.0206321544402,2.634
-0.627297165972,-0.522331628233,-0.125358638402,-2.64283511227,-0.0675895903105,2.11015484148,-0.875037403549,-0.0675437324058,0.01475180609,0.000272807815695,0.00817708262162,0.000190111199242,0.000979770788286,-0.070217085637,0.573638379196,0.819075059347,0.00598364190815,0.0,0.819071511834,-0.573547749276,-0.0120658486387,0.0,-0.00645105554372,0.0118226921042,-0.999909299804,0.0,0.269432687737,-0.254078424679,0.304942015573,1.0,-0.0153583783784,-0.0201852972973,2.651
-0.628433242306,-0.522166969163,-0.125348518959,-2.64272079699,-0.0675611778515,2.11018772373,-0.876231911866,-0.0641945226023,0.0140306867813,-0.000301791144897,0.0078099294521,4.8956981632e-05,0.0010642505215,-0.071099672318,0.573601578225,0.819100692679,0.00600263371072,0.0,0.819097304469,-0.573510713389,-0.0120753608997,0.0,-0.00644848588898,0.0118434151843,-0.999909071139,0.0,0.269176891329,-0.254409708919,0.304936554074,1.0,-0.0150183783784,-0.0197384401544,2.668
-0.629732630671,-0.521983560233,-0.125347811267,-2.64257937401,-0.067534551294,2.11021266337,-0.877482169476,-0.0689583043322,0.0111518493621,0.00189125243197,0.00802030347931,0.000437871560677,0.00208652795146,-0.0624937354168,0.573660142473,0.819059527461,0.00602314815401,0.0,0.819056330837,-0.573569038271,-0.0120843764213,0.0,-0.00644325639991,0.0118658511811,-0.999908838856,0.0,0.268881579633,-0.254792353645,0.304935613185,1.0,-0.0146383783784,-0.019239011583,2.687
-0.630742068517,-0.521839154282,-0.125347563103,-2.6424697336,-0.0675110028167,2.11025093363,-0.878425418841,-0.0651770780388,0.0105901471694,-0.000577047747609,0.0109965376857,0.0047569709317,0.00178560901927,-0.0661903458963,0.573730006506,0.819010469463,0.00603965609322,0.0,0.819007539229,-0.573638911426,-0.0120746380967,0.0,-0.00642479696672,0.0118743346862,-0.999908856926,0.0,0.268654924904,-0.255091657027,0.304935673696,1.0,-0.0143383783784,-0.0188447258687,2.702
-0.631959676927,-0.521657340528,-0.125344230215,-2.64232911542,-0.0674838686684,2.11028233199,-0.879707193068,-0.066088212415,0.0139825245383,0.00196950924788,0.00865014067872,0.000651916690461,0.00445344172874,-0.0570430993605,0.573694078981,0.819035491996,0.00605916615482,0.0,0.819032779801,-0.573602840618,-0.0120761644594,0.0,-0.00641537589714,0.0118909086831,-0.999908720455,0.0,0.2683810369,-0.255451837027,0.304935548891,1.0,-0.0139583783784,-0.0183452972973,2.721
-0.632894414594,-0.521524022194,-0.125315539504,-2.64221559762,-0.0674641783624,2.1103007558,-0.880629114889,-0.061204549952,0.0092608113347,0.00196613106264,0.00577013915187,0.00114679503413,0.00062896114113,-0.0621817898946,0.573698572435,0.819032345029,0.00605909924793,0.0,0.819029659524,-0.573607384512,-0.0120719573434,0.0,-0.00641190290899,0.0118884755785,-0.999908771663,0.0,0.268176462665,-0.255723210045,0.304940409659,1.0,-0.0136583783784,-0.017951011583,2.736
-0.633847667046,-0.521372339231,-0.125267121589,-2.6421023932,-0.0674404660246,2.1103343954,-0.881585237368,-0.0581945190824,0.00987577901899,0.00301689177758,0.00849890382404,0.000453975999961,-3.90881755432e-05,-0.0709500577804,0.573678019225,0.819046793567,0.00605203331468,0.0,0.819044028038,-0.573586888269,-0.0120709835267,0.0,-0.0064154569135,0.0118819684283,-0.999908826213,0.0,0.267973402729,-0.25599631876,0.304940141256,1.0,-0.0133383783784,-0.0175304401544,2.752
-0.634832805454,-0.521202510672,-0.125188919724,-2.64199071926,-0.0674211963556,2.11036164164,-0.882630561611,-0.0567907251805,0.0108926968474,0.00227913852781,0.00805369225016,-0.000135072080709,-0.000429379850078,-0.0663050498719,0.573587536598,0.819110333993,0.00602872350349,0.0,0.819107119098,-0.573496256097,-0.0120962219743,0.0,-0.00645081426125,0.0118766411673,-0.999908662024,0.0,0.267766088638,-0.256270111219,0.304932656487,1.0,-0.0129983783784,-0.0170835830116,2.769
-0.635883347159,-0.521031659698,-0.125151810869,-2.64187069233,-0.0673980910518,2.11038530386,-0.88371242546,-0.0539849844718,0.00459736111986,0.0023085277555,0.0019185631345,0.000442905881731,0.000273944606563,-0.0575598446718,0.573551832181,0.819135333786,0.00602890090619,0.0,0.819131984046,-0.573460306074,-0.0121168053115,0.0,-0.0064680925351,0.0118883103343,-0.999908411734,0.0,0.267534606947,-0.256571517081,0.304927305968,1.0,-0.0126183783784,-0.0165841544402,2.788
-0.636661319449,-0.520913691474,-0.12513475036,-2.64178500645,-0.0673868642325,2.11040414042,-0.884452632031,-0.0598375605063,0.00765856207233,0.000735872507898,0.00565493348074,0.000296207443707,0.0037105270126,-0.0521879708827,0.5735800075,0.8191156071,0.00602860701401,0.0,0.819112197005,-0.573488372917,-0.0121260772061,0.0,-0.00647544773743,0.0118936099798,-0.999908301105,0.0,0.267359875059,-0.256797004787,0.304924890845,1.0,-0.0123383783784,-0.0162161544402,2.802
-0.637779614403,-0.520735971541,-0.125135102904,-2.64165139419,-0.0673697282016,2.11043820731,-0.885585644645,-0.0570875331905,0.00914338553936,-0.00027411648146,0.0109350305386,0.000215808382425,0.000824360935652,-0.0582583080662,0.573582558373,0.819113734097,0.00604038455369,0.0,0.819110442622,-0.573490807432,-0.0121294467978,0.0,-0.00647141603898,0.0119052104035,-0.999908189155,0.0,0.267106489571,-0.257129788279,0.304923170272,1.0,-0.0119383783784,-0.0156904401544,2.822
-0.638619760075,-0.520602153658,-0.125134759101,-2.64155480389,-0.0673620530718,2.11047398396,-0.886408271031,-0.0544199338098,0.0144934803963,0.000865344490469,0.00778052296349,0.00363516332033,0.000710481165231,-0.0484794125466,0.573605051232,0.81909795873,0.00604368322368,0.0,0.819094728093,-0.573513313909,-0.0121265032065,0.0,-0.00646678573482,0.0119064017949,-0.999908204926,0.0,0.266916270996,-0.257380480414,0.304920918705,1.0,-0.0116383783784,-0.0152961544402,2.837
-0.639487773986,-0.520473219892,-0.1251344077,-2.6414353856,-0.0673526354148,2.11050046788,-0.887229690869,-0.0528350434446,0.00683286641411,0.000140191666705,0.0101383027204,-0.000327787174912,0.00947404901793,-0.0470630697616,0.573653136424,0.819064265077,0.00604612649099,0.0,0.819061206354,-0.573561636495,-0.012105217407,0.0,-0.00644724892395,0.011896572636,-0.99990844808,0.0,0.266722722742,-0.257642881802,0.304930039125,1.0,-0.0113183783784,-0.0148755830116,2.853
-0.640320600287,-0.52035072846,-0.12513901141,-2.64133252021,-0.0673469452613,2.11053265046,-0.88803497857,-0.0498221518587,0.00358684463184,-0.00101156008391,0.006466669565,0.000349489533307,-0.000325204612777,-0.0463457192248,0.573686730816,0.819040713024,0.00604914833231,0.0,0.819037801442,-0.573595409763,-0.0120885320883,0.0,-0.00643136004827,0.0118897405192,-0.999908631665,0.0,0.266533813381,-0.257893924407,0.304934369304,1.0,-0.0109983783784,-0.014455011583,2.869
-0.64123616062,-0.520195229359,-0.125118824104,-2.64121516236,-0.0673422569698,2.11056211324,-0.888996392587,-0.0451519445074,0.00447150855503,0.00124507341499,0.00794211010058,0.0025287351522,0.00024391539661,-0.0490469969775,0.573643044916,0.819071377,0.0060401407511,0.0,0.819068326417,-0.573551732035,-0.0120927350974,0.0,-0.00644060399997,0.0118844301711,-0.999908635296,0.0,0.266330753786,-0.258164273478,0.304933491596,1.0,-0.0106183783784,-0.0139555830116,2.888
-0.641953585248,-0.520086794845,-0.125107101412,-2.64113692116,-0.0673284424313,2.11058384305,-0.889723865168,-0.0474470324414,0.00203125916005,-0.00115165508875,0.00196267802243,0.000245523371188,0.000941353421225,-0.0463380671515,0.57363653728,0.819075898521,0.00604503608449,0.0,0.819072879424,-0.573545144931,-0.0120967689744,0.0,-0.00644119483268,0.0118907027116,-0.999908556918,0.0,0.266168373831,-0.258372414815,0.304931293293,1.0,-0.0103183783784,-0.0135612972973,2.903
-0.64274953391,-0.519976550857,-0.12508930712,-2.64105341257,-0.0673225479965,2.11060573286,-0.890470711662,-0.0485243809284,0.00123691909381,-0.00091347260671,0.00708219463157,0.00107343906673,0.00293410420475,-0.0380626812171,0.573671046442,0.819051768013,0.00603975910631,0.0,0.819048682656,-0.573579674367,-0.0120979128368,0.0,-0.0064446579164,0.0118873079239,-0.999908574968,0.0,0.265987340464,-0.258602151166,0.304930971108,1.0,-0.00997837837838,-0.0131144401544,2.92
-0.643526965019,-0.519856064799,-0.125060199169,-2.64098501329,-0.0673095240705,2.11062666001,-0.89121036724,-0.0450758673389,0.00752360208236,0.00135452314672,0.00408420256763,-0.000131586407547,0.00191395409251,-0.0524482218649,0.573690643943,0.819038058953,0.00603737851948,0.0,0.819034773893,-0.573598967386,-0.0121247956439,0.0,-0.0064677595293,0.0119009339011,-0.999908263722,0.0,0.265810107832,-0.258819469599,0.30492020118,1.0,-0.00963837837838,-0.0126675830116,2.937
-0.644331181893,-0.519747089684,-0.125055186226,-2.64090186754,-0.0673023107433,2.11064719199,-0.891999058451,-0.0461206520694,0.00857387688976,0.000217506454469,0.00787203649311,-0.000233612085124,0.000165394526486,-0.0397672918871,0.5737072501,0.819026405776,0.00604025869153,0.0,0.819023150193,-0.573615542583,-0.0121258260362,0.0,-0.00646670995299,0.0119040152011,-0.999908233832,0.0,0.265623631654,-0.259053562892,0.304919756238,1.0,-0.00927837837838,-0.0121944401544,2.955
-0.645110786641,-0.519652506694,-0.125041006875,-2.64082730909,-0.0672896223936,2.11067598426,-0.892772308608,-0.0451252291181,0.00173488679864,0.00186422924321,0.00589721793224,1.42085520481e-06,0.00409035142755,-0.0457682887271,0.573711705716,0.819023265326,0.00604288669476,0.0,0.819020127554,-0.573620139693,-0.0121125101141,0.0,-0.00645423033885,0.0118985637538,-0.999908379348,0.0,0.265445460346,-0.259277625671,0.304921627054,1.0,-0.00891837837838,-0.0117212972973,2.973
-0.645697098722,-0.519569812722,-0.12503672412,-2.64075796711,-0.0672801436444,2.11069707286,-0.893301796209,-0.0478763881766,0.00445238194317,-0.000374946611185,0.00808805961996,0.000220144276229,0.000381059786745,-0.0381780997847,0.573762849293,0.818987415472,0.00604590526146,0.0,0.818984388936,-0.573671392033,-0.0121017165447,0.0,-0.00644291471439,0.0118952464125,-0.999908491795,0.0,0.265312664636,-0.259450576614,0.304924607357,1.0,-0.00863837837838,-0.0113532972973,2.987
-0.646375055422,-0.51947854801,-0.125014011394,-2.64067262189,-0.0672682825813,2.11071488025,-0.893962732767,-0.0375873571602,0.00129229814267,0.00198410737474,0.00990148257986,0.00125750712269,0.000439651021249,-0.0397000729618,0.573770123448,0.81898235004,0.00604174335269,0.0,0.818979374365,-0.57367887677,-0.0120862572353,0.0,-0.00643253465965,0.011883025282,-0.999908703937,0.0,0.265163152114,-0.259646970893,0.30493185905,1.0,-0.00829837837838,-0.0109064401544,3.004
-0.647017872599,-0.51936888495,-0.124998015442,-2.64057153362,-0.0672559468554,2.11074560516,-0.894589387665,-0.0388961889022,0.0066413396801,0.00231340520049,0.00490596060062,0.00031525958351,0.00378457745771,-0.038055183786,0.57378246662,0.818973730934,0.00603787555433,0.0,0.818970873907,-0.573691546454,-0.0120608507495,0.0,-0.00641376525735,0.0118653773571,-0.99990903408,0.0,0.265026476836,-0.259840912048,0.304940432895,1.0,-0.00795837837838,-0.0104595830116,3.021
-0.647607789154,-0.51927335791,-0.124975377171,-2.6404853494,-0.0672432809628,2.11076354765,-0.895168576519,-0.0326808419376,0.00476883029978,-0.00025963941743,0.00176466651517,-0.000124523983852,0.00204173259052,-0.0304301330443,0.573785037534,0.818971962475,0.00603343044044,0.0,0.818969128171,-0.573694284915,-0.0120491269299,0.0,-0.00640667591411,0.0118550302615,-0.999909202259,0.0,0.264899749663,-0.260013919809,0.304946501185,1.0,-0.00763837837838,-0.010039011583,3.037
-0.648214013611,-0.519181729443,-0.124961379566,-2.6404192206,-0.0672308904059,2.11078477062,-0.895749929009,-0.0359470783646,0.0052610971752,-0.00099928144347,0.00340170752137,0.00254155745334,-0.000312573761219,-0.0288692944664,0.573804251565,0.818958485566,0.00603545416386,0.0,0.818955672353,-0.5737134766,-0.012049912411,0.0,-0.00640587996111,0.0118572886847,-0.999909180579,0.0,0.264762757702,-0.260188493193,0.304944965127,1.0,-0.00729837837838,-0.00959215444016,3.054
-0.648863789945,-0.519072603855,-0.12494335142,-2.6403610365,-0.067215044109,2.11080963767,-0.896399856894,-0.0307783522639,0.00566803969915,0.000100951207482,0.00166658945088,0.00300989758138,0.00114585426471,-0.0307831398007,0.573801300488,0.81896051495,0.00604064668688,0.0,0.818957622964,-0.573710233097,-0.0120717492689,0.0,-0.00642082879964,0.0118740476937,-0.999908885824,0.0,0.26461385826,-0.260371466465,0.304933782927,1.0,-0.00689837837838,-0.00906644015445,3.074
-0.64934731212,-0.519012990729,-0.124935843917,-2.64031776737,-0.0672022516834,2.11081440052,-0.89686957615,-0.025304976757,0.00129185086064,-0.000752536665649,0.00198127496388,0.00133970217586,-0.00107630020073,-0.0202973965339,0.57381502182,0.818950840456,0.00604884708447,0.0,0.81894799452,-0.573723803853,-0.0120799861581,0.0,-0.00642267091499,0.0118855975445,-0.99990873677,0.0,0.264500078418,-0.260507191614,0.304932085481,1.0,-0.00657837837838,-0.00864586872587,3.09
-0.649836652171,-0.518940139659,-0.124917640127,-2.64028440846,-0.0671900409734,2.11083187169,-0.897336019026,-0.0305630697544,0.00222322056534,0.00362296178095,0.00261793789351,0.000160193343568,0.000522151125436,-0.0330394489885,0.573827951833,0.818941759045,0.00605176744244,0.0,0.818938827794,-0.573736490335,-0.0120988797458,0.0,-0.00643628196714,0.0118989318107,-0.999908490661,0.0,0.264386430917,-0.260641143626,0.304922346247,1.0,-0.00625837837838,-0.0082252972973,3.106
-0.650315593281,-0.518879748093,-0.12489502997,-2.64022832975,-0.0671769852329,2.11084438463,-0.897792032316,-0.0305695013452,0.000770224342568,0.00109608189372,0.00383002023874,-0.000409594989067,-0.000369052013924,-0.0322431785848,0.57383913438,0.818933937586,0.00604984511433,0.0,0.818931055389,-0.573747815903,-0.0120878933901,0.0,-0.00642822447338,0.0118911412652,-0.999908635171,0.0,0.264281175584,-0.260776594823,0.304927197225,1.0,-0.00593837837838,-0.00780472586873,3.122
-0.650747805195,-0.518812063313,-0.124886115384,-2.64016019627,-0.0671636740432,2.11086232978,-0.898215371343,-0.0257848634884,0.00568295773772,-7.62764938208e-05,0.00521432913197,-6.61461683239e-05,-0.000280718109246,-0.0211071113411,0.5738492173,0.818926853184,0.00605242425963,0.0,0.81892413813,-0.573758132893,-0.0120668069011,0.0,-0.00640932796026,0.0118812327665,-0.99990887426,0.0,0.264188543056,-0.260906355931,0.304934979104,1.0,-0.00561837837838,-0.00738415444016,3.138
-0.651214418316,-0.518732759506,-0.124871224156,-2.64008222,-0.0671483494985,2.11087318846,-0.898691334429,-0.029374186459,0.00438378696523,0.000378518781088,0.0067681456981,-0.000100189999546,-0.000281105796713,-0.025868701624,0.573841510917,0.818932240307,0.00605417506812,0.0,0.818929625512,-0.573750564306,-0.0120542655886,0.0,-0.00639816354645,0.0118754099381,-0.999909014932,0.0,0.264089231781,-0.261044996008,0.304942490167,1.0,-0.00525837837838,-0.00691101158302,3.156
-0.651610653353,-0.518684782845,-0.124860830227,-2.64002709257,-0.0671326079043,2.11088751525,-0.899081587881,-0.0242449690983,0.00566698412114,0.000189755029348,-0.000677163419399,-5.07382377393e-06,-6.538745355e-05,-0.0198641381342,0.573848518082,0.818927293108,0.00605919133565,0.0,0.818924894133,-0.573757828419,-0.0120299209439,0.0,-0.00637524487542,0.011865603379,-0.999909277739,0.0,0.264003293143,-0.2611611111,0.30495134575,1.0,-0.00493837837838,-0.00649044015445,3.172
-0.651993718253,-0.518635766222,-0.124828056099,-2.63998272836,-0.0671096678807,2.11090300354,-0.899450612508,-0.0229419669658,0.00721478772041,0.00668927761032,-0.000470677295558,0.000111028643612,0.000452335191338,-0.0275441209706,0.573848824682,0.818927068962,0.00606044822959,0.0,0.818924773713,-0.573758292361,-0.0120159829721,0.0,-0.00636310379833,0.0118586372165,-0.999909437716,0.0,0.263923973709,-0.261265492434,0.304955558284,1.0,-0.00459837837838,-0.00604358301159,3.189
-0.652374636692,-0.518600585274,-0.124792381606,-2.63995614064,-0.0670825993481,2.11091791362,-0.899817699846,-0.0218334079478,0.00102475661996,0.00189659379964,-0.000146129030707,0.000580399619367,0.00243453002944,-0.0200601312271,0.573847775447,0.818927764031,0.00606587292924,0.0,0.818925596342,-0.573757326795,-0.0120060195632,0.0,-0.00635184601197,0.0118573545151,-0.999909524505,0.0,0.263842322801,-0.261363819604,0.304956810569,1.0,-0.00423837837838,-0.00557044015445,3.207
-0.652642431749,-0.518559717827,-0.124764536961,-2.63993728436,-0.0670615719252,2.11092642415,-0.900109487658,-0.0125162756074,0.00775222015201,0.00252741607619,0.000249097200863,0.000285664818561,-5.27370614562e-07,-0.0164918864403,0.57381840329,0.818948305158,0.00607127871531,0.0,0.818946131162,-0.57372779494,-0.0120165914155,0.0,-0.00635782823163,0.0118676200026,-0.9999093647,0.0,0.263785049078,-0.261431616106,0.304951720508,1.0,-0.00393837837838,-0.00517615444016,3.222
-0.652952592364,-0.518517905733,-0.124725393054,-2.63991420268,-0.0670368986733,2.11093614953,-0.900435734297,-0.0157982518259,0.0065503513998,0.00442689204603,0.0012643549935,0.00281817699474,0.000109098314402,-0.0185313163352,0.573789242441,0.818968717555,0.00607386421043,0.0,0.818966534038,-0.573698548693,-0.0120224063798,0.0,-0.00636153013149,0.0118728475587,-0.999909279097,0.0,0.263720616218,-0.26150898205,0.304948573601,1.0,-0.00357837837838,-0.00470301158302,3.24
-0.653238842268,-0.518457880513,-0.124676433329,-2.63986943109,-0.0670107129657,2.1109492709,-0.900728315952,-0.0133451785034,0.00315609310008,-0.000459406367276,0.00367054975896,0.00596137420368,-0.000500601840206,-0.0123724335397,0.573763246047,0.818986937878,0.00607288822234,0.0,0.818984688958,-0.573672463567,-0.0120304072471,0.0,-0.00636902026863,0.0118764366434,-0.999909188793,0.0,0.263667810823,-0.261587322153,0.30494637732,1.0,-0.00317837837838,-0.0041772972973,3.26
-0.653451371741,-0.518408854878,-0.124646229631,-2.63984117188,-0.0669905042565,2.11095561709,-0.900966568423,-0.0125962152718,0.00195902849995,0.00027415301512,0.00131684928202,0.00156188366982,0.000176269118544,-0.0111171302222,0.573730491497,0.819009892726,0.0060717086368,0.0,0.819007603581,-0.573639674523,-0.0120339515842,0.0,-0.00637307513126,0.0118772491712,-0.999909153306,0.0,0.263628999208,-0.261638212757,0.304945138033,1.0,-0.00287837837838,-0.00378301158302,3.275
-0.653642055561,-0.518364168202,-0.124613851899,-2.63982458367,-0.0669697609159,2.11096136055,-0.901156974039,-0.00955218634883,0.000220726840408,0.00640674196915,0.000891803021569,0.000157438784412,-0.000587240727563,-0.005596157341,0.573717570185,0.819018925243,0.00607426171322,0.0,0.819016536686,-0.57362649796,-0.0120540605349,0.0,-0.00638826922383,0.0118907760465,-0.999908895581,0.0,0.263591761826,-0.261683639826,0.304937477637,1.0,-0.00257837837838,-0.00338872586873,3.29
-0.653846289988,-0.518326337107,-0.124584023503,-2.63981199038,-0.0669495161211,2.11096457767,-0.901374609719,-0.0129304216686,0.00495672481122,0.000875579896963,0.00131926955799,0.000121076044934,0.000291410772687,-0.0168673930745,0.573694825697,0.81903482501,0.00607859288199,0.0,0.819032360488,-0.573603493343,-0.0120735992646,0.0,-0.00640211940985,0.0119053549172,-0.999908633522,0.0,0.263549207059,-0.261731971988,0.304930251242,1.0,-0.00223837837838,-0.00294186872588,3.307
-0.654051485367,-0.518298712428,-0.12456020177,-2.63980627367,-0.066928503716,2.11096885986,-0.901566865524,-0.00961563602234,0.00293221746976,-0.00080429989439,0.00135065919484,0.0035462198637,0.000486488534162,-0.022752942394,0.573697878263,0.819032626454,0.00608672168203,0.0,0.819030162886,-0.573606314869,-0.0120886196878,0.0,-0.00640971534628,0.0119206536262,-0.999908402588,0.0,0.263503967452,-0.26178033639,0.304923610281,1.0,-0.00187837837838,-0.00246872586873,3.325
-0.654239322747,-0.518282707373,-0.124539233653,-2.63980726933,-0.0669083634535,2.1109677185,-0.901733443339,-0.013410149112,0.00234620812705,0.00140316761011,-0.000729883871498,0.000336277827827,0.000169417956256,-0.0118568218897,0.573709037069,0.819024738381,0.00609636013432,0.0,0.819022291,-0.573617225733,-0.0121042178195,0.0,-0.00641680018887,0.0119375838291,-0.999908155166,0.0,0.263460428039,-0.261822536231,0.304917669779,1.0,-0.00153837837838,-0.00202186872588,3.342
-0.654398170904,-0.518278825011,-0.124526249255,-2.63979880025,-0.0668939761579,2.11096609229,-0.901864344702,-0.0138985881405,0.00431351552925,-0.000179405212961,0.004525277752,-9.42941799672e-05,-0.000263019877433,-0.00760289888086,0.573729260453,0.819010524281,0.0061027631432,0.0,0.819008186203,-0.57363746494,-0.012099448368,0.0,-0.00640892536451,0.0119402504236,-0.999908173832,0.0,0.26342456651,-0.261861986945,0.304920262611,1.0,-0.00121837837838,-0.0016012972973,3.358
-0.654532812505,-0.518278039422,-0.124504840659,-2.63979236403,-0.0668795966094,2.11097130462,-0.901947700926,-0.0108738565862,0.0011702101169,0.000898492044659,0.0016492882212,7.06799878974e-05,-3.14253380995e-05,-0.00186072124136,0.573762502667,0.818987228938,0.00610379149955,0.0,0.818984984846,-0.573670845858,-0.0120872705947,0.0,-0.00639787619624,0.0119343659891,-0.999908314841,0.0,0.263397565436,-0.261893716866,0.304923853988,1.0,-0.000918378378384,-0.00120701158302,3.373
-0.654630502654,-0.518279832374,-0.124507232,-2.63978866982,-0.0668645050767,2.11097207632,-0.902006518127,-0.00863235479372,-0.000365316359808,-0.00124459929447,0.00068142576563,-8.2414160709e-05,0.00130088291341,-0.00415618514912,0.573802634586,0.818959008094,0.00611772058302,0.0,0.818956986362,-0.573710985012,-0.0120791997858,0.0,-0.00638268885997,0.0119414565829,-0.999908327247,0.0,0.263373819601,-0.261919534793,0.304926212082,1.0,-0.000578378378384,-0.000760154440161,3.39
-0.65467240036,-0.518279823362,-0.124492207238,-2.63978199723,-0.0668495149092,2.11097644136,-0.902056223433,-0.00205298762295,-0.000892100460512,-0.000362329512627,-0.00040405639144,-0.000356970469798,0.000153399557852,-0.00286860961012,0.573792278029,0.818966231994,0.00612204450329,0.0,0.818964339408,-0.573700748223,-0.0120668623643,0.0,-0.00637025393746,0.0119378384175,-0.999908449749,0.0,0.263369699099,-0.261928117698,0.304929975106,1.0,-0.000218378378384,-0.000287011583019,3.408
-0.654673170435,-0.518274168295,-0.12446161094,-2.63977638953,-0.0668344099904,2.11097562758,-0.902076378995,0.000135202512766,-0.00128574444006,-0.000299021127931,0.00100090854964,0.000156749638406,0.00151378240642,-0.0018052865059,0.573761421132,0.818987870074,0.00611941117586,0.0,0.81898594259,-0.573669908149,-0.0120668648043,0.0,-0.0063722165423,0.011935443023,-0.999908465839,0.0,0.263378586634,-0.26192136551,0.304931098098,1.0,0.0,0.0,3.426
-0.654667435473,-0.518276672655,-0.12442637256,-2.63977891973,-0.0668255273254,2.1109791308,-0.902074609169,0.000118499233012,-0.000434286531894,0.000887466878061,0.000553474838233,-0.000646574370888,0.00019204951825,6.98204889751e-06,0.573736827252,0.819005174645,0.00610932567735,0.0,0.819003146852,-0.573645421224,-0.0120632937862,0.0,-0.0063754360795,0.0119249424501,-0.999908570602,0.0,0.263388635857,-0.261911170179,0.30493200295,1.0,0.0,0.0,3.442
-0.654664646556,-0.518265685581,-0.124393116297,-2.63977666898,-0.0668133388507,2.11097792539,-0.902076071676,-0.000373253162526,0.000690709958547,0.00240620389275,0.0010252471357,1.74149101492e-06,-2.43727297736e-05,0.00118090432329,0.573715103803,0.819020435782,0.0061034696896,0.0,0.819018275202,-0.573623622091,-0.0120727779142,0.0,-0.00638688040491,0.0119254178534,-0.999908491897,0.0,0.263397827141,-0.261902184574,0.304929663168,1.0,0.0,0.0,3.458
-0.654663944544,-0.518266049027,-0.124368223073,-2.63977564331,-0.0668077902784,2.11097862449,-0.902088785975,-0.000161029791884,0.000483893491859,-0.000122932941441,0.000475629826819,5.81771826621e-05,-0.000339242085948,-0.00129645179301,0.573688862577,0.819038874397,0.0060957429991,0.0,0.819036632472,-0.573597455871,-0.01207063329,0.0,-0.00638993825331,0.0119176541529,-0.999908564924,0.0,0.26340431549,-0.261896387077,0.304930910334,1.0,0.0,0.0,3.474
-0.6546671261,-0.518258654124,-0.124356764537,-2.63978308059,-0.0668033563082,2.11097996398,-0.902088282056,-0.000662393238283,0.00366171406065,0.00208773836082,-0.000881470554107,-0.000180273923375,0.000250917091368,-9.09121720236e-06,0.573685334643,0.81904135025,0.00609510439899,0.0,0.819039015784,-0.573593774461,-0.0120838497847,0.0,-0.00640118194854,0.0119246853027,-0.999908409181,0.0,0.263404735781,-0.26189243032,0.304925192875,1.0,0.0,0.0,3.491
-0.654667151874,-0.518259168002,-0.124363159878,-2.63978088621,-0.0668022872408,2.11098144815,-0.902094772926,-0.000223880085761,0.000342854949113,-0.000519892766959,-0.00148313320481,-0.000127115605925,-0.000238589429661,-0.00239182848949,0.573685131257,0.819041465755,0.00609872520844,0.0,0.819039202815,-0.573593600781,-0.0120794162525,0.0,-0.00639547617313,0.0119251061265,-0.999908440673,0.0,0.263404171845,-0.261894504796,0.304926356423,1.0,0.0,0.0,3.508
-0.654667152319,-0.518264240328,-0.124361025981,-2.63977737325,-0.066798729814,2.11098388976,-0.902095982497,0.00036936579435,-0.00151976806223,5.50938640699e-05,-0.00104832035856,-0.000338205692316,0.000660017659935,-0.000302912989661,0.573684279457,0.819042055456,0.00609965567952,0.0,0.819039875497,-0.573592877324,-0.0120681535672,0.0,-0.00638572919641,0.0119194006973,-0.999908570995,0.0,0.263406260608,-0.261895016159,0.304930081805,1.0,0.0,0.0,3.524
-0.654669752242,-0.518260993873,-0.124363924174,-2.6397756518,-0.0667975022574,2.11098733346,-0.902096902427,0.000188626249471,0.000320415826605,-0.000667711456238,-0.00164609960335,0.000193711999922,-0.00015686921992,-0.000680684554716,0.573688328098,0.819039205008,0.00610161982716,0.0,0.81903706208,-0.573596937998,-0.0120660913648,0.0,-0.00638285431903,0.0119198580531,-0.999908583899,0.0,0.263405919756,-0.26189708133,0.304929894477,1.0,0.0,0.0,3.541
-0.654677494216,-0.518261355383,-0.124365968325,-2.63977171516,-0.0667974891211,2.11098783091,-0.902091770447,-0.000711403435767,-1.76406892305e-05,-0.000848575508314,3.10079527327e-05,0.000110247924956,-0.00232525566167,-0.00196575118153,0.573700507196,0.819030671956,0.00610191275319,0.0,0.819028564208,-0.573609171849,-0.0120613383729,0.0,-0.00637861575932,0.0119174662313,-0.999908639456,0.0,0.26340443266,-0.261900653974,0.304931810706,1.0,0.0,0.0,3.558
-0.65467885285,-0.518264653089,-0.124361353454,-2.6397638297,-0.0667989132226,2.11098877569,-0.902096621328,0.000483559643366,-0.000479911310485,0.000597612179563,0.00196973818043,-2.50260640821e-05,0.000450627992988,0.00060883925155,0.573694109943,0.819035189251,0.00609703921266,0.0,0.819033097993,-0.573602946306,-0.0120495345548,0.0,-0.00637183583595,0.0119066531566,-0.999908811502,0.0,0.263406985991,-0.261902369606,0.304936796299,1.0,0.0,0.0,3.575
