nelsonifechukwu/NELSON_IML_WORK/CNN-GradCAM/train2dof/data_sample_2022-02-22-07-40-58/robot_state.csv
position_joint1,position_joint2,position_joint3,position_joint4,position_joint5,position_joint6,position_joint7,velocity_joint1,velocity_joint2,velocity_joint3,velocity_joint4,velocity_joint5,velocity_joint6,velocity_joint7,ee_T_00,ee_T_10,ee_T_20,ee_T_30,ee_T_01,ee_T_11,ee_T_21,ee_T_31,ee_T_02,ee_T_12,ee_T_22,ee_T_32,ee_T_03,ee_T_13,ee_T_23,ee_T_33,v_x,v_y,time
0.465086125619,0.547676091252,-0.12403119496,-1.35581072156,0.0795295616351,1.89415059042,0.15913655598,-0.001247977027,0.00119592933278,-0.00139090551433,0.00027377200444,-0.000485977900389,-5.35241567164e-05,-0.000945762712737,0.57381361492,0.818971467996,0.00210162838074,0.0,0.818930334157,-0.573754467214,-0.011818039153,0.0,-0.00847298133324,0.00850260270122,-0.999927954572,0.0,0.661699865114,0.26088626105,0.30330524954,1.0,0.0,0.0,0.0
0.465093908259,0.547673942538,-0.124030762649,-1.35580821591,0.0795330535808,1.89414826843,0.15913269042,-0.000458677670184,0.000932801247357,-0.00162179904811,0.00146369897593,9.83475615412e-05,-0.000482383652122,-0.00122616315907,0.573804541445,0.818977814598,0.00210578119147,0.0,0.818936700147,-0.573745343677,-0.0118198419128,0.0,-0.00847216926077,0.00850694425396,-0.999927924526,0.0,0.661697707754,0.260892395372,0.303307754788,1.0,-0.00024,-0.000315428571429,0.013
0.465093598242,0.547671328816,-0.124031087643,-1.35581357889,0.0795319449305,1.89415063014,0.159132690426,-0.00165776349612,-0.00170556858701,0.00107677363091,-0.000181976077299,-4.44310235231e-05,-8.44284061339e-05,-0.000206312905846,0.573805033488,0.818977472153,0.00210488759229,0.0,0.818936355234,-0.573745848383,-0.0118192402842,0.0,-0.00847218412914,0.00850587230448,-0.999927933519,0.0,0.661697236174,0.260891380469,0.303307267626,1.0,-0.00056,-0.000736,0.029
0.465087980462,0.547633583545,-0.124028645682,-1.35584071132,0.0795320831163,1.89415223703,0.159135269756,-0.00139789601405,-0.00912888798129,-0.000153831920412,-0.00040680679803,0.000138649246347,-0.000135877291766,-0.00454786104732,0.573811501676,0.818972907179,0.00211772343227,0.0,0.818931919655,-0.573752227344,-0.0118169153833,0.0,-0.00846284794521,0.00851511721932,-0.999927933895,0.0,0.661693232638,0.260886484917,0.303321151445,1.0,-0.00092,-0.00120914285714,0.047
0.465087220585,0.547542482187,-0.12402431836,-1.35593550422,0.0795320816371,1.89417991294,0.159133826617,0.00021717625903,-0.00765842834049,0.00169515698519,-0.00964002329667,-0.00478915778985,0.00274992792272,-7.89619850017e-05,0.573813122976,0.818971704485,0.00214337449831,0.0,0.818930969756,-0.573753666009,-0.0118128919742,0.0,-0.00844481788793,0.0085338324943,-0.99992792678,0.0,0.661678635417,0.260880313425,0.30334282956,1.0,-0.00124,-0.00162971428571,0.063
0.465080868485,0.547423945683,-0.124025798146,-1.35610451592,0.0795303921603,1.89422120694,0.159125491709,0.000100521577147,-0.00937933013209,0.000381378870378,-0.0111091089628,-0.000103196001771,0.00174709822203,-0.00190821921911,0.573821393099,0.818965916642,0.00214081812797,0.0,0.818925052044,-0.573761847574,-0.0118257475413,0.0,-0.00845672722892,0.00853920093153,-0.999927780298,0.0,0.661653345155,0.260859275711,0.303349985083,1.0,-0.00156,-0.00205028571429,0.079
0.465064575599,0.547261614377,-0.124026832795,-1.35630609123,0.0795248828386,1.89430124751,0.159128483893,0.00140622055057,-0.0143835141714,-0.00219445465501,-0.00885199143285,-0.000168036593079,0.0050937618857,0.00025011690158,0.57384771846,0.81894736934,0.00217925892583,0.0,0.818906961807,-0.573787975321,-0.0118107655326,0.0,-0.00842212494803,0.00856235601195,-0.999927874334,0.0,0.661632177527,0.260830648632,0.303376004324,1.0,-0.0019,-0.00249714285714,0.096
0.465036408914,0.547063530967,-0.12402580242,-1.35653709866,0.0795244173488,1.89443535274,0.159115636166,-0.00109733918437,-0.00739500713152,-1.85518018293e-05,-0.0169694565482,0.000235541863693,0.016394887731,0.000533354555606,0.573872593376,0.818929685928,0.00227221890919,0.0,0.818890432581,-0.573812433062,-0.011768516998,0.0,-0.00833392092205,0.00861449355096,-0.999928165551,0.0,0.661618324131,0.260796834766,0.303417971917,1.0,-0.00226,-0.00297028571429,0.114
0.465008723131,0.546859505005,-0.124031254414,-1.35678349382,0.0795216602352,1.89455128536,0.159094952259,-0.00612335786561,-0.0147074864438,-0.000726983177026,-0.0115772741288,0.000270083868407,0.00963612652553,-0.000583736800088,0.573895280583,0.81891359561,0.00234024572552,0.0,0.818875184375,-0.573834817671,-0.0117380297993,0.0,-0.00826967692602,0.00865293565096,-0.999928367008,0.0,0.661598951071,0.260756226958,0.303455446545,1.0,-0.00258,-0.00339085714286,0.13
0.464982155019,0.546617558022,-0.124026487712,-1.3571404739,0.0795126737524,1.8946829337,0.159035136312,-0.0021347226705,-0.0136726555453,0.000883842282158,-0.0255142932292,-4.45374884754e-06,0.00367803039238,-0.00747933401528,0.573882300814,0.818922626681,0.00236288441558,0.0,0.818884373702,-0.573821612703,-0.0117424955826,0.0,-0.00826048022017,0.00867390650661,-0.999928261333,0.0,0.661556039753,0.260709693516,0.303468143785,1.0,-0.00292,-0.00383771428571,0.147
0.464944170841,0.546343106108,-0.124031499994,-1.35754902117,0.0795015819273,1.8948331054,0.158932086998,-0.00190131758731,-0.0145003302719,-0.000344606940557,-0.0273582102693,0.000400417785956,0.0100196859509,-0.0023037190138,0.57385242062,0.818943505134,0.00238362092139,0.0,0.818905421144,-0.573791553418,-0.0117435662372,0.0,-0.00824977457956,0.00869120133898,-0.999928199542,0.0,0.661511163709,0.260645169204,0.303481229137,1.0,-0.00326,-0.00428457142857,0.164
0.464913590375,0.546079869971,-0.12402727974,-1.35799049579,0.07948435585,1.89498164367,0.158919570555,-0.0032414754831,-0.016068534515,0.00105535738203,-0.0300034631016,-0.00461090092454,0.00451682140756,-0.00152206837014,0.573884340478,0.818921194434,0.00236388728731,0.0,0.818882729278,-0.573823411961,-0.0117692173027,0.0,-0.00828176707207,0.00869008329427,-0.999927944797,0.0,0.661454371076,0.260585722265,0.303470223035,1.0,-0.00358,-0.00470514285714,0.18
0.464865453918,0.545723992091,-0.124027543432,-1.35855269653,0.0794493470962,1.89516708264,0.158834895078,-0.00405654781291,-0.0244766773414,0.000261755147798,-0.0291183331874,-0.00448461807913,0.0121892662683,-0.00151426431536,0.573876614234,0.81892665984,0.00234613288598,0.0,0.81888793821,-0.573815726788,-0.0117814789882,0.0,-0.00830207912943,0.00868250235927,-0.999927842214,0.0,0.661386224328,0.260498579275,0.303470649138,1.0,-0.00394,-0.00517828571429,0.198
0.464805830299,0.545386522347,-0.124032188166,-1.35916600489,0.0793687698209,1.89537025191,0.158760738946,-0.00794027837336,-0.0176213425536,-0.000657429741005,-0.0370487483489,-0.00389600031985,0.0184896947129,-0.00107151191681,0.573880792833,0.818923979019,0.00225812014662,0.0,0.818884476113,-0.573820616896,-0.0117839427538,0.0,-0.00835455824407,0.00861188374898,-0.999928015817,0.0,0.661315877197,0.260388815871,0.303435291158,1.0,-0.00428,-0.00562514285714,0.215
0.464753492654,0.545018057904,-0.124029692437,-1.35982351142,0.0793503128403,1.89556405213,0.158697515352,-0.00488296179493,-0.0232392130621,-3.05298409788e-05,-0.0402503416323,-0.000329314034923,0.0151972767887,0.000129220191676,0.573901724446,0.818909497039,0.00218934635587,0.0,0.818868822327,-0.573841529811,-0.0118531593691,0.0,-0.00845048961323,0.00859550156419,-0.99992735065,0.0,0.661227233254,0.260292591255,0.303399877547,1.0,-0.0046,-0.00604571428571,0.231
0.464690314312,0.544592688551,-0.124032198415,-1.36053804178,0.0793205648752,1.89579981582,0.158583217034,6.0735587976e-05,-0.0228547974574,-0.000645445121809,-0.0421290019439,-0.00751332960629,0.0134508088199,-0.0112001080819,0.57389928166,0.818911311129,0.00215079411824,0.0,0.818869958019,-0.573839062384,-0.0118940841764,0.0,-0.00850615415722,0.00858739238807,-0.999926948348,0.0,0.661136553313,0.260167910496,0.303382221506,1.0,-0.00496,-0.00651885714286,0.249
0.464622885909,0.54413688689,-0.124034654385,-1.36129680075,0.0792950261282,1.89606649143,0.158511506752,-0.00178714500451,-0.0268758655213,6.96885052653e-05,-0.0491888404443,-0.00115292820533,0.0171003081196,-0.00583127793412,0.573927173277,0.818891819101,0.00212962087545,0.0,0.818850011252,-0.573866856117,-0.0119263332388,0.0,-0.00854442239122,0.00858885216315,-0.999926609539,0.0,0.661050080309,0.260065181289,0.30336597278,1.0,-0.00528,-0.00693942857143,0.265
0.464540937658,0.543630977048,-0.124032800059,-1.36211475953,0.0792513061332,1.89634402219,0.158404771049,-0.00034216161859,-0.0322636894961,-0.000179723819259,-0.0511942937651,-0.00123139767306,0.0158930035281,-0.0148716035803,0.573939393712,0.818883320396,0.00210400204103,0.0,0.818841073835,-0.573879075024,-0.0119519852352,0.0,-0.00858000380124,0.00858272369421,-0.999926357483,0.0,0.660953843374,0.259933384103,0.303358583817,1.0,-0.00562,-0.00738628571429,0.282
0.464464863952,0.54313438249,-0.124038245628,-1.36290964196,0.079199110832,1.8966233605,0.158298196112,-0.00529539957304,-0.0296971909744,-0.0003031856367,-0.0507540368112,-0.00451244387187,0.0200256685368,-0.00323370596318,0.573950820548,0.818875367778,0.00208195577708,0.0,0.818832865045,-0.573890622802,-0.0119598948136,0.0,-0.0085990139242,0.00856933024194,-0.999926309054,0.0,0.66085787976,0.259793693874,0.303356598654,1.0,-0.00596,-0.00783314285714,0.299
0.464384953259,0.542553350968,-0.124041671188,-1.36380857223,0.0791493237711,1.89693910269,0.158184557527,-0.00136064732333,-0.0355228837384,-0.000218925741404,-0.0544705546439,-0.00199997933856,0.0204369409117,-0.00173466467117,0.573959922179,0.818868982065,0.00208442949622,0.0,0.818826462416,-0.573899664026,-0.0119644046445,0.0,-0.00860119206425,0.00857403986602,-0.999926249948,0.0,0.660759029179,0.259662114914,0.303366483088,1.0,-0.00628,-0.00825371428571,0.315
0.464293076824,0.541969290924,-0.124039352768,-1.36472683473,0.0790924080368,1.89728182794,0.158073349934,-0.0116742646106,-0.0332340220072,0.00101180582967,-0.0523639249473,-0.00107387387243,0.0206724322245,-0.0109509260219,0.573978359501,0.818856042619,0.00209073962767,0.0,0.818813603858,-0.573918071486,-0.0119614488985,0.0,-0.00859495693346,0.00857770401264,-0.999926272137,0.0,0.660657568067,0.259515465024,0.303372060727,1.0,-0.00662,-0.00870057142857,0.332
0.4642211668,0.541414628387,-0.124047398329,-1.3655689646,0.0790451849462,1.89758984643,0.15794558336,-0.00349876196046,-0.030022679306,-0.000817752617265,-0.0590997320883,-0.0037721324101,0.0186397248463,-0.00609677164702,0.573972377187,0.81886018973,0.00210874446774,0.0,0.81881798139,-0.573912011188,-0.0119525590504,0.0,-0.00857740613487,0.00858728195178,-0.999926340633,0.0,0.660562483534,0.25938387358,0.303390354361,1.0,-0.00692,-0.00909485714286,0.347
0.464130489461,0.540766776829,-0.12404592951,-1.36654095144,0.0789884315725,1.89794518953,0.157832732883,-0.0102453116465,-0.0420046789219,0.00119588285634,-0.0559471373487,-0.00570879290109,0.0250931392664,-0.000968233817014,0.573991885426,0.818846441714,0.00213711443141,0.0,0.818804569059,-0.573931366141,-0.0119420077303,0.0,-0.00855227818953,0.00860466026032,-0.999926406472,0.0,0.660452401484,0.259232887843,0.303416422531,1.0,-0.00724,-0.00951542857143,0.363
0.464036634194,0.539958383134,-0.124056658147,-1.36776200362,0.0789128708626,1.89839383203,0.157680298597,-0.00689329527225,-0.0449718381159,-0.000929400335702,-0.063611649235,-0.000464644975905,0.0233405836216,-0.00613988090989,0.573998844445,0.818841491701,0.00216447378163,0.0,0.818800033749,-0.573938271444,-0.0119210823759,0.0,-0.00851936655879,0.00861512458161,-0.999926597317,0.0,0.660312097235,0.259048570678,0.303445775489,1.0,-0.00762,-0.0100148571429,0.382
0.463936102464,0.539207166467,-0.12405717586,-1.36892183834,0.0788433118411,1.89882000807,0.157535620798,-0.00440391977112,-0.0471941872948,1.66389203335e-05,-0.0697507954126,-0.00534149959081,0.0198568551695,-0.000989328675368,0.574008608138,0.818834607682,0.00217943728092,0.0,0.818793329347,-0.573947957803,-0.0119152193518,0.0,-0.00850587415128,0.00862411322405,-0.999926634697,0.0,0.660178760506,0.258871738457,0.303461451543,1.0,-0.00796,-0.0104617142857,0.399
0.46383894315,0.538498048359,-0.12405777723,-1.37002079171,0.0787888901524,1.89925244815,0.157410510978,-0.00142172638354,-0.0462938567712,-0.000176174429672,-0.0688131365319,0.000212177833955,0.0212003281635,-0.0026833419368,0.574032501018,0.818817747424,0.0022206258891,0.0,0.818776931006,-0.573971606033,-0.0119029249008,0.0,-0.00847191305761,0.00865102955973,-0.999926690501,0.0,0.660057732113,0.258706637242,0.303476818997,1.0,-0.00828,-0.0108822857143,0.415
0.46373173349,0.537659591757,-0.124063088157,-1.37133159321,0.0787128612145,1.89975174962,0.157244914709,-0.0116522689909,-0.0489130997465,0.000144556629387,-0.070442930204,-0.00122711343177,0.0234747193162,-0.0102082163601,0.574047935023,0.818806849699,0.00224901844226,0.0,0.81876642107,-0.573986943323,-0.011886274575,0.0,-0.00844181834938,0.00866487898153,-0.99992682511,0.0,0.659902231528,0.258494557911,0.303494345528,1.0,-0.00866,-0.0113817142857,0.434
0.463623772292,0.536885348148,-0.124064153509,-1.37254426731,0.0786383543805,1.9001955404,0.157094651112,-0.00900731240633,-0.0498138660239,0.000306341750697,-0.0757982241034,-0.00763434673195,0.0316164015553,-0.00605377003708,0.574053479741,0.818802970285,0.00224614122067,0.0,0.818762488779,-0.573992482962,-0.0118896329844,0.0,-0.00844616124171,0.00866450818218,-0.999926791649,0.0,0.659769153509,0.258322186966,0.303496441798,1.0,-0.00896,-0.011776,0.449
0.463517621915,0.536043984438,-0.124070592071,-1.37387026823,0.0785663297995,1.90069118457,0.156931350564,-0.00646137021039,-0.0493416883641,-0.00187803549429,-0.0795753497959,-0.00710790760635,0.0290249275106,-0.0127265699142,0.574062613427,0.81879654463,0.0022541668443,0.0,0.81875611994,-0.574001534633,-0.0118912236782,0.0,-0.00844276018047,0.00867208680523,-0.999926754673,0.0,0.659603692132,0.258113391914,0.303503063947,1.0,-0.00932,-0.0122491428571,0.467
0.463410488794,0.535197590381,-0.124073624146,-1.37520303023,0.0784871930138,1.9011699069,0.156775091221,-0.00522870440081,-0.0579828083904,0.000668379592553,-0.0833551133582,-0.00506452323322,0.0349248397037,-0.0109345611639,0.574078782941,0.818785217224,0.0022507629918,0.0,0.818744714681,-0.574017681231,-0.011897088604,0.0,-0.00844934519949,0.00867283342878,-0.999926692576,0.0,0.659456497819,0.257924190252,0.303506874455,1.0,-0.00962,-0.0126434285714,0.482
0.463294271861,0.534362377577,-0.124071236874,-1.37655362314,0.0784129005279,1.90165885799,0.156613657467,-0.00773462086481,-0.0529290927129,0.00100121913812,-0.0868058890073,-0.0087745680843,0.0376491240453,-0.0112570438441,0.574094241503,0.818774430003,0.0022319379124,0.0,0.818733570084,-0.57403309829,-0.0119201588249,0.0,-0.00847887825701,0.0086708239746,-0.999926460013,0.0,0.659295668191,0.257720733682,0.303495576322,1.0,-0.00994,-0.013064,0.498
0.463154136512,0.533333202923,-0.124073990403,-1.37820970506,0.0783175632198,1.90225845238,0.156403521941,-0.00600709012195,-0.0524024219363,-0.000929170839808,-0.0851936114629,-0.00568674213366,0.0360466623346,-0.00882663675767,0.574103947002,0.818767684854,0.00220979123031,0.0,0.818726462834,-0.574042817038,-0.0119402748652,0.0,-0.00850796022954,0.00866434030137,-0.999926269192,0.0,0.65909909026,0.25746893208,0.303485250016,1.0,-0.01032,-0.0135634285714,0.517
0.463024676526,0.532398826218,-0.124079435717,-1.37973202824,0.0782394185024,1.90284253203,0.156209432673,-0.00279078404959,-0.0551014894467,-0.00114183674699,-0.0905008496329,-0.00895995201906,0.0278961917272,-0.0124622990273,0.574117350362,0.818758284977,0.00221036117691,0.0,0.818716977661,-0.574056121965,-0.0119509926671,0.0,-0.00851626685902,0.00867109941204,-0.999926139889,0.0,0.658924541017,0.257238969946,0.303470299898,1.0,-0.01066,-0.0140102857143,0.534
0.462895869836,0.531478737896,-0.12407454006,-1.38119897756,0.0781489559477,1.90338112115,0.156028438502,-0.00718012456056,-0.0587903474725,0.000750145381202,-0.0862398242814,-0.00844186723622,0.0241907756533,-0.00825725258658,0.574126901164,0.818751608571,0.00220266274065,0.0,0.818710165179,-0.574065666626,-0.0119592113161,0.0,-0.00852731462493,0.00866961422641,-0.999926058614,0.0,0.658751198019,0.257016800806,0.303467118242,1.0,-0.01098,-0.0144308571429,0.55
0.462751867257,0.530463560359,-0.124075244649,-1.38283641619,0.0780540807009,1.90395673638,0.15581331467,-0.0101049288953,-0.0588607882431,0.000588981848802,-0.0968843725852,-0.000879203449881,0.0301745787487,-0.0188413816052,0.574132699191,0.818747643137,0.00216505855175,0.0,0.818705602214,-0.574071510166,-0.0119910391471,0.0,-0.00857490170151,0.00865715991426,-0.999925759566,0.0,0.658552971145,0.256764210006,0.303452998036,1.0,-0.01132,-0.0148777142857,0.567
0.462614488078,0.529427669085,-0.124077622033,-1.38448049823,0.0779423462731,1.90456608262,0.155591653383,-0.011678038713,-0.0607451033581,0.00111043288509,-0.0952889299889,-0.00633150452675,0.0387162680467,-0.013228519156,0.574124658035,0.818753300784,0.00215786770329,0.0,0.818711263006,-0.574063597639,-0.0119833464936,0.0,-0.00857281625236,0.00864677177766,-0.999925867332,0.0,0.658359616484,0.256514084718,0.303453018745,1.0,-0.01166,-0.0153245714286,0.584
0.462479323974,0.528388758825,-0.124083320937,-1.38607816299,0.0778338124638,1.90516785739,0.155373670143,-0.00563664835122,-0.0675356422253,0.000357342226146,-0.103594139403,-0.0152091579463,0.0381639795701,-0.0176289781145,0.574118308166,0.818757677964,0.0021862992876,0.0,0.81871614151,-0.574057263711,-0.0119534310369,0.0,-0.00853206672148,0.00865280871398,-0.999926163644,0.0,0.658175242327,0.25626906455,0.303476450405,1.0,-0.01198,-0.0157451428571,0.6
0.462323368555,0.527213764913,-0.124089032348,-1.38790902685,0.0777286490192,1.90587177291,0.155111683067,-0.00516872032479,-0.0687375331834,-0.000437361949295,-0.10404203593,-0.0064403054823,0.033710241588,-0.0144715959606,0.574106501214,0.818765845218,0.00222774986956,0.0,0.818724838919,-0.574045279501,-0.0119332359998,0.0,-0.00849186025766,0.00867502954232,-0.999926313371,0.0,0.657964885744,0.255991935044,0.303493315778,1.0,-0.01234,-0.0162182857143,0.618
0.462180717194,0.526113747286,-0.124091849916,-1.3896135136,0.0776238576757,1.90650375685,0.154887423766,-0.0108183336599,-0.071280725327,0.00124575631261,-0.107744515617,-0.0144382254307,0.0387706347493,-0.00949232518279,0.574105473511,0.818766506467,0.00224946069903,0.0,0.818725790293,-0.574044171859,-0.0119212401098,0.0,-0.00846958537908,0.00868590791724,-0.999926407856,0.0,0.657763178925,0.255734495777,0.303510922631,1.0,-0.01266,-0.0166388571429,0.634
0.462036350659,0.525015102765,-0.124102134403,-1.39134428769,0.0775135451255,1.90712458866,0.154651501141,-0.009124669247,-0.0678755459071,-0.00208267607879,-0.110334528523,-0.00291327577342,0.0396949483971,-0.0160862662151,0.574101177252,0.818769559308,0.00223471018483,0.0,0.818728691841,-0.574039977343,-0.0119239452484,0.0,-0.00848031368469,0.00867533937803,-0.999926408675,0.0,0.657554962072,0.255466844657,0.303514055544,1.0,-0.01298,-0.0170594285714,0.65
0.461873316612,0.523764398191,-0.124108768761,-1.39334466236,0.0773874448569,1.90784222575,0.154369249715,-0.0101309990721,-0.0723366708173,0.00131292512101,-0.110787650037,-0.00165153622839,0.0443294661735,-0.0192941185155,0.574081677001,0.818783317518,0.00220317661908,0.0,0.818742042246,-0.574020610252,-0.0119396049216,0.0,-0.00851144441185,0.00865830843992,-0.999926291788,0.0,0.657310929598,0.255163093359,0.303503786628,1.0,-0.01334,-0.0175325714286,0.668
0.4617256496,0.522620895801,-0.124111378282,-1.39515507385,0.0772676077561,1.90853546596,0.154138210547,-0.0089348432408,-0.0702995419565,0.000412735203213,-0.11486983907,-0.00132179796801,0.0411267456807,-0.014369150574,0.574084688763,0.818781153234,0.00222264223216,0.0,0.818740224141,-0.574023637232,-0.0119187320491,0.0,-0.00848314732075,0.00866229495423,-0.999926497728,0.0,0.657085253667,0.254875784624,0.303507909813,1.0,-0.01368,-0.0179794285714,0.685
0.46156399467,0.521393998917,-0.124117704442,-1.39713027236,0.0771526424932,1.90929884667,0.153868068735,-0.0126652884628,-0.0747201843387,-0.000249063835964,-0.119016134742,-0.00544872253429,0.0466215682051,-0.00900533797341,0.574070781051,0.818790887505,0.00222885230558,0.0,0.818750048129,-0.574009715309,-0.0119143745448,0.0,-0.00847616162258,0.00866473405611,-0.999926535835,0.0,0.656866169098,0.254597235822,0.303494303946,1.0,-0.014,-0.0184,0.701
0.461392135212,0.520034058629,-0.124122979707,-1.39927553589,0.0770198150924,1.91009657877,0.153571692863,-0.00987651182685,-0.0766608112735,-0.0010058466222,-0.117327163872,-0.00798634405623,0.0468593715351,-0.0181029564633,0.574051209316,0.818804589893,0.00223596825098,0.0,0.818763858561,-0.573990133194,-0.0119087283395,0.0,-0.00846766073871,0.00866711676636,-0.99992658721,0.0,0.656607088749,0.254277166578,0.303497652011,1.0,-0.01436,-0.0188731428571,0.719
0.461218297006,0.51877426242,-0.124123804434,-1.40123294585,0.0768927475056,1.91079358972,0.153312533197,-0.010996649617,-0.0833606039752,0.00122141646149,-0.122371166608,-0.0147498938501,0.0480149722532,-0.0173243109806,0.574051513045,0.818804388291,0.00223181274572,0.0,0.818763608707,-0.573990459555,-0.0119101762338,0.0,-0.00847122843939,0.0086645485647,-0.999926579248,0.0,0.656368068232,0.253973562331,0.303510796796,1.0,-0.01468,-0.0192937142857,0.735
0.461056975117,0.517517096519,-0.124125105158,-1.40323153336,0.0767642771508,1.91150540202,0.153031163179,-0.00942473086281,-0.0771785550589,-0.000114071871141,-0.123174386003,-0.00381232210437,0.0510042798594,-0.0253116496771,0.574025301941,0.818822842073,0.00220293705701,0.0,0.818781673297,-0.573964354796,-0.0119263488886,0.0,-0.00850132322277,0.00864991704925,-0.999926450514,0.0,0.656118517087,0.253673803149,0.303503469917,1.0,-0.015,-0.0197142857143,0.751
0.460855134578,0.516086602287,-0.124133756325,-1.4054908546,0.0766177200874,1.91235201651,0.15271954962,-0.0120219441825,-0.0780095830147,-0.000277592269382,-0.121782577669,-0.00897119414669,0.0498403406062,-0.0168578259606,0.574021559859,0.818825446737,0.00220986314711,0.0,0.818784464278,-0.573960683086,-0.0119114327325,0.0,-0.00848517303286,0.00864698729158,-0.999926613032,0.0,0.655850847008,0.253320748675,0.303505155022,1.0,-0.01536,-0.0201874285714,0.769
0.460685482448,0.51478828672,-0.124142832113,-1.4075637639,0.0764906758592,1.91313475337,0.152438606429,-0.00766934664203,-0.0856585510331,-0.000497353136817,-0.136818887263,-0.00940229329273,0.0528670826575,-0.0163535414673,0.574012093339,0.818832076014,0.00221244051056,0.0,0.818791158802,-0.573951239686,-0.0119062854154,0.0,-0.0084795786887,0.00864604500776,-0.999926668637,0.0,0.655601221993,0.253007803609,0.303496961237,1.0,-0.01568,-0.020608,0.785
0.460492920772,0.513383981431,-0.124142414498,-1.40984020389,0.0763609706278,1.91392462456,0.152131456524,-0.00651644055274,-0.0833060349896,-0.000429569583025,-0.133637822,-0.00795981473226,0.0495613434517,-0.0135743962688,0.574002505819,0.818838968159,0.00214812439,0.0,0.818797000677,-0.573941700013,-0.0119642621657,0.0,-0.00856407080721,0.00862656035902,-0.999926116844,0.0,0.655310413759,0.252662791218,0.30346612917,1.0,-0.01602,-0.0210548571429,0.802
0.460294635074,0.511959117008,-0.124143599206,-1.41212898886,0.0762188403051,1.91473250415,0.151808228537,-0.0143318566847,-0.0833804305217,0.000201721386838,-0.139516260262,-0.00855253998948,0.0450315019243,-0.0165318896246,0.573982446304,0.818853156092,0.00209928424339,0.0,0.818810469614,-0.573921763681,-0.0119987884791,0.0,-0.00862058687296,0.00860617557664,-0.99992580686,0.0,0.655022387628,0.252311193447,0.303444955648,1.0,-0.01636,-0.0215017142857,0.819
0.460094362434,0.510501457454,-0.124146876277,-1.41445876248,0.0760817726078,1.91562153185,0.151479512807,-0.0171819445671,-0.0859225779553,-9.55977151558e-06,-0.145112994585,-0.0133382005506,0.0556210672913,-0.0154953986983,0.573964668144,0.818865581033,0.00211348587738,0.0,0.818823039317,-0.573903887867,-0.011996027512,0.0,-0.00861036205285,0.00861603276495,-0.99992581007,0.0,0.654741467938,0.251958938973,0.303433890318,1.0,-0.0167,-0.0219485714286,0.836
0.459908043248,0.509104847949,-0.124154689391,-1.41666657746,0.0759420721215,1.91645030442,0.151168744766,-0.00911560631214,-0.093574697359,-0.000477924550055,-0.140557300728,-0.0108414618397,0.0519260633827,-0.0193268918118,0.57394570173,0.818878850657,0.00212280790897,0.0,0.818836483477,-0.573884938003,-0.0119849138715,0.0,-0.00859611051288,0.0086170882711,-0.999925923593,0.0,0.654472764887,0.251622435261,0.303432552819,1.0,-0.01702,-0.0223691428571,0.852
0.459679055974,0.507507424292,-0.12415614027,-1.41918892383,0.0757717089038,1.91733853156,0.15081237577,-0.0158068732968,-0.092492222261,0.000710496141926,-0.143228080008,-0.0154174569205,0.0421760276974,-0.0210775537692,0.573926916674,0.818892116932,0.00208375751037,0.0,0.818849271227,-0.573866349377,-0.0120012901079,0.0,-0.00863212974216,0.00859431221366,-0.999925809315,0.0,0.654156006022,0.25122631185,0.303426426609,1.0,-0.01738,-0.0228422857143,0.87
0.459476618352,0.50604239785,-0.124161765972,-1.42147856222,0.0756286042231,1.91818984667,0.150500841251,-0.0109121477214,-0.0918413648762,-5.99188229528e-05,-0.15008051779,-0.0105264519192,0.0479445435445,-0.0179836571741,0.573921434619,0.818895909765,0.00210303518533,0.0,0.818853331991,-0.573860803696,-0.0119893940309,0.0,-0.00861138206664,0.00860321322976,-0.999925911666,0.0,0.653875911146,0.250872876423,0.303434878197,1.0,-0.0177,-0.0232628571429,0.886
0.459267181571,0.504508853436,-0.124159573267,-1.42380658337,0.0754807085804,1.91909610112,0.150186206619,-0.0138584694923,-0.0997329064986,0.000488408967835,-0.14139081612,-0.00323918344778,0.0514706893106,-0.0217398663952,0.573914007047,0.818900875336,0.00219449100632,0.0,0.818859561901,-0.573853072981,-0.0119337929807,0.0,-0.00851344202053,0.00864611735742,-0.99992638027,0.0,0.653598736903,0.250518759855,0.303476884329,1.0,-0.01802,-0.0236834285714,0.902
0.459022614698,0.502751108134,-0.124170294601,-1.42642865884,0.0753145491464,1.92008163479,0.149807709063,-0.0143331239848,-0.095199243609,-0.00159388866257,-0.142746487981,-0.00356644892939,0.0494524803782,-0.0234345912985,0.573901774597,0.818909176969,0.00229344537485,0.0,0.818869241283,-0.573840537675,-0.0118722324064,0.0,-0.00840636999034,0.00869169446254,-0.999926891023,0.0,0.653284306337,0.250104759257,0.303542148644,1.0,-0.01838,-0.0241565714286,0.92
0.458786623132,0.501039831658,-0.12416354944,-1.42898774776,0.0751488072503,1.92098532174,0.149456823761,-0.0107203800787,-0.10328905339,0.00097016115381,-0.154700764917,-0.00883710479301,0.0552142447226,-0.0189326574584,0.573890476089,0.818916975137,0.0023358484023,0.0,0.818877567784,-0.573829050272,-0.0118531407381,0.0,-0.00836652157034,0.00871534623717,-0.999927019365,0.0,0.652980900052,0.249730835822,0.303588491629,1.0,-0.0187,-0.0245771428571,0.936
0.458557071213,0.499443841303,-0.124166332592,-1.43142401096,0.0749938043881,1.92187076226,0.14911145929,-0.0172805786632,-0.0995765104203,0.000475364141006,-0.153665614172,-0.00613260486725,0.0621096906931,-0.0154001211971,0.573877868249,0.818925690095,0.00237767474,0.0,0.818886798251,-0.573816252219,-0.0118350006673,0.0,-0.00832779801639,0.0087390596628,-0.999927135654,0.0,0.652657774044,0.249323826413,0.303627220533,1.0,-0.01904,-0.025024,0.953
0.458316947398,0.49786358444,-0.124168925954,-1.43391034043,0.0748369366293,1.92280223702,0.148745471427,-0.0175448649911,-0.101174374032,0.000296356868063,-0.15626587343,-0.010971266695,0.0587571345919,-0.0269729170661,0.573860725331,0.818937650809,0.00239560262422,0.0,0.818899004799,-0.573799055972,-0.0118241366241,0.0,-0.00830879611563,0.00874733263767,-0.999927221391,0.0,0.652353747365,0.248929431575,0.303626543125,1.0,-0.01936,-0.0254445714286,0.969
0.458067798905,0.49629368363,-0.124164151409,-1.43643007669,0.0746813094685,1.92369370345,0.148374016745,-0.0146703046635,-0.0964757980609,0.00109772240006,-0.159895576362,-0.0187302902333,0.0552640875949,-0.0217639676346,0.573842536791,0.818950535255,0.00234748296308,0.0,0.818911123661,-0.573780909451,-0.0118653442843,0.0,-0.00837035029831,0.00873138728133,-0.99992684738,0.0,0.65203277722,0.248527066347,0.303598539689,1.0,-0.01968,-0.0258651428571,0.985
0.457768835135,0.494419825653,-0.124164633816,-1.43948674593,0.0744901595588,1.92474732351,0.147956345716,-0.01620322939,-0.0982700344509,0.000380950084587,-0.159474097775,-0.0111776799897,0.0515117283268,-0.0210937149898,0.573847835638,0.818947131665,0.00223695613749,0.0,0.818906106857,-0.57378646789,-0.0119425424017,0.0,-0.00849693927615,0.00868522636854,-0.999926181708,0.0,0.651636252698,0.248034990469,0.303540372364,1.0,-0.0214217142857,-0.0281542530612,1.004
0.457490296684,0.492445487055,-0.124231244426,-1.44250899249,0.0743148503047,1.92585729524,0.147516910266,-0.0156576863845,-0.140541835766,-0.00766182694818,-0.209091049383,-0.00656681554156,0.0771795364019,-0.025767739261,0.573867578716,0.818933157342,0.0022875325947,0.0,0.818892946698,-0.573806164985,-0.0118984778311,0.0,-0.00843162004712,0.00870156250251,-0.999926592602,0.0,0.651241967784,0.247495705595,0.303580115174,1.0,-0.0295914285714,-0.0388915918367,1.021
0.457158350649,0.489952001542,-0.124257095004,-1.44647299193,0.0741056558454,1.92734439933,0.146923762183,-0.0263698852467,-0.168092118733,0.00138994490679,-0.280208753043,-0.00779308436221,0.10094250507,-0.0391481255859,0.573816674514,0.818968793452,0.00229919602262,0.0,0.818928437322,-0.573754913646,-0.0119273012087,0.0,-0.00844907513551,0.0087271293457,-0.99992622245,0.0,0.650728406872,0.246884998813,0.303543784754,1.0,-0.0372805714286,-0.048997322449,1.037
0.456613057239,0.486386875858,-0.124302769155,-1.45215543356,0.0737793517753,1.92946044248,0.146093073115,-0.0336042603691,-0.215977750576,-0.00403521697245,-0.334921013274,-0.00975152851061,0.129536211634,-0.0423668708743,0.573810043961,0.818973413946,0.0023081594862,0.0,0.818933059127,-0.573748128643,-0.0119363499326,0.0,-0.00845141378444,0.00873959385281,-0.999926093821,0.0,0.65005742955,0.246010868201,0.303509724502,1.0,-0.0454502857143,-0.0597346612245,1.054
0.455981007718,0.48225945143,-0.124412855816,-1.45857962332,0.0733852579158,1.93177578343,0.145094840666,-0.0393068502742,-0.259506730879,-0.00773392244169,-0.410138066603,-0.021244684254,0.141157384821,-0.0620104731592,0.57379933281,0.818980925315,0.00230576201026,0.0,0.818940751807,-0.573737648271,-0.0119122998225,0.0,-0.00843320622336,0.00872372012319,-0.999926386161,0.0,0.649254565137,0.244922640142,0.303520459184,1.0,-0.05362,-0.070472,1.071
0.455267779028,0.477732352506,-0.124513470556,-1.46567405544,0.0729679887065,1.93427021684,0.144039932681,-0.052843881464,-0.300005260725,-0.00783561979854,-0.464703316146,-0.0251074251348,0.1673855005,-0.0738475030998,0.573825447633,0.818962807626,0.00224104342086,0.0,0.818921649079,-0.573763874949,-0.0119622478835,0.0,-0.00851097021762,0.00869964871548,-0.999925937006,0.0,0.648344209294,0.243722614519,0.30350032211,1.0,-0.0613091428571,-0.0805777306122,1.087
0.454332759686,0.471948600456,-0.124610435127,-1.47465052966,0.0724263775293,1.93750929736,0.142746855024,-0.051885262375,-0.335106364441,-0.0042686626324,-0.529897447755,-0.0355269242529,0.180953046539,-0.0789238912109,0.573888846806,0.818918289723,0.00227446028363,0.0,0.818877497446,-0.573827059138,-0.0119539649658,0.0,-0.0084843370393,0.00872291945731,-0.99992596061,0.0,0.647199558961,0.242206539022,0.30351255673,1.0,-0.0699594285714,-0.091946677551,1.105
0.453306931615,0.465741481994,-0.124662915375,-1.48399509267,0.0718493246957,1.94102030647,0.141236406088,-0.0618476370373,-0.376923270548,-0.00265623436086,-0.574539788171,-0.0292877126491,0.209938328445,-0.0920874988357,0.57381850235,0.818966644509,0.002590066307,0.0,0.818930043742,-0.573755590875,-0.0117835604511,0.0,-0.00816443512932,0.00888287914746,-0.99992721558,0.0,0.646028257201,0.240634276182,0.30365533349,1.0,-0.0781291428571,-0.102684016327,1.122
0.45220925259,0.459379887422,-0.124710814572,-1.49386401987,0.0712110583711,1.94442160189,0.139735499105,-0.0691846713279,-0.403267946199,-0.00278439302463,-0.627289754977,-0.038553969025,0.219635137071,-0.095202685278,0.573810478363,0.818972563041,0.00249455549122,0.0,0.818934433107,-0.573747618149,-0.0118664165502,0.0,-0.00828718385879,0.00885212197497,-0.999926478557,0.0,0.64471090748,0.238944784572,0.303636611235,1.0,-0.0858182857143,-0.112789746939,1.138
0.45099799428,0.452426056935,-0.124825884356,-1.50458191855,0.0704921792425,1.94808135923,0.138042353222,-0.0762261700352,-0.448239480213,-0.00182188619148,-0.67470517071,-0.0460388723342,0.242543103128,-0.113201460822,0.573795841375,0.818983164927,0.00237800085058,0.0,0.818943593671,-0.573733518083,-0.0119158514304,0.0,-0.00839470454732,0.00878488369575,-0.999926174652,0.0,0.643274564927,0.23705810041,0.3036350148,1.0,-0.0935074285714,-0.122895477551,1.154
0.449587419558,0.444326127275,-0.124916309449,-1.51661566664,0.0696868339482,1.95256384718,0.136201912342,-0.0900857435716,-0.481709805513,-0.00227187174624,-0.721675018177,-0.0426307699591,0.260986409595,-0.109316477002,0.573834246791,0.81895488373,0.00281114324496,0.0,0.818921532684,-0.573770974253,-0.0116249435601,0.0,-0.00790750414717,0.00897306922595,-0.999928475146,0.0,0.641723506419,0.234962180459,0.303849673043,1.0,-0.101677142857,-0.133632816327,1.171
0.447924680749,0.435283944486,-0.124955338067,-1.5305060398,0.068753560357,1.95731391607,0.133955428202,-0.0933029515414,-0.52189325848,-0.0027493508498,-0.756352883169,-0.054995571665,0.270156049488,-0.121800709065,0.573741919443,0.81901987355,0.00272093840935,0.0,0.818984927323,-0.573678493841,-0.011722688405,0.0,-0.0080403257278,0.00895437769146,-0.999927583519,0.0,0.63980169148,0.232533965875,0.303830715658,1.0,-0.110327428571,-0.145001763265,1.189
0.446306747369,0.426624995074,-0.125015493819,-1.5435290218,0.0678437079146,1.96197493959,0.131829674796,-0.108335379619,-0.547934983941,-0.0022942165045,-0.83800586117,-0.0620058117732,0.291757117609,-0.137162760141,0.57368168748,0.819061312846,0.0029383923615,0.0,0.819029520452,-0.573617908839,-0.0115709199455,0.0,-0.00779192841842,0.00904482910777,-0.99992873592,0.0,0.638035573375,0.230222089145,0.303936256,1.0,-0.118016571429,-0.155107493878,1.205
0.444397173177,0.41695588381,-0.125104237282,-1.55820721868,0.0667999471869,1.96697212457,0.129402334633,-0.112921352971,-0.580713182295,-0.0080605710058,-0.865298125122,-0.062595879138,0.304807276097,-0.144567537059,0.57365130497,0.819082761966,0.00289071906816,0.0,0.819050419186,-0.573587764072,-0.011585967333,0.0,-0.00783193582531,0.00901412349424,-0.999928700638,0.0,0.635979529346,0.22753718235,0.303950879859,1.0,-0.126186285714,-0.165844832653,1.222
0.44233953787,0.406720923385,-0.125196440886,-1.57370679951,0.0657436567132,1.97235753298,0.126829088788,-0.124257630374,-0.610731409293,-0.0053390108626,-0.948930857161,-0.0616178903102,0.317951820422,-0.154733431033,0.57364102928,0.819089644301,0.00297842703956,0.0,0.819058250237,-0.573576985976,-0.0115659317628,0.0,-0.00776532723587,0.00907437295024,-0.999928675181,0.0,0.63379549301,0.224700760205,0.303967663416,1.0,-0.134356,-0.176582171429,1.239
0.440029728964,0.395863316812,-0.125317222167,-1.58991863144,0.0646369927806,1.97787164245,0.124079578936,-0.138741728085,-0.65316446632,-0.0125561609206,-0.974640057198,-0.069741151754,0.336499696249,-0.174215809861,0.573708987496,0.819041563292,0.00310840268513,0.0,0.81901154983,-0.573644162773,-0.0115413457914,0.0,-0.00766987251244,0.00916736800923,-0.999928563658,0.0,0.631484982762,0.221625807909,0.30404945652,1.0,-0.142525714286,-0.187319510204,1.256
0.43771132953,0.385350524471,-0.125436256855,-1.6059330272,0.0634008081292,1.98321148247,0.121295517035,-0.148912419912,-0.671044442703,-0.00666722925628,-1.00893675995,-0.072445489095,0.323450756516,-0.184384151137,0.573683125162,0.819060463607,0.00289409072506,0.0,0.819028085651,-0.573619478255,-0.0115946531375,0.0,-0.00783676604449,0.00902217213813,-0.999928590204,0.0,0.629142762385,0.218547509892,0.303951110604,1.0,-0.150214857143,-0.197425240816,1.272
0.435042538262,0.373527972262,-0.125563466807,-1.62341933701,0.0621079963479,1.98905590309,0.118131823175,-0.164991407235,-0.699782169383,-0.00715679807587,-1.04473651169,-0.0740517094367,0.346824377117,-0.191000042868,0.573658747341,0.819077124208,0.0030088366983,0.0,0.819046313178,-0.573594826366,-0.0115264451162,0.0,-0.00771534289889,0.00907679742785,-0.999929040099,0.0,0.626569838993,0.215131156547,0.30404007545,1.0,-0.158384571429,-0.208162579592,1.289
0.432114828476,0.361259800945,-0.125718074566,-1.64154591555,0.0607019226346,1.99510088609,0.114935908983,-0.174073933548,-0.735826205704,-0.00908513571559,-1.0790862162,-0.095026476314,0.36571669213,-0.193908740759,0.573803291501,0.818975557513,0.00309285633081,0.0,0.818946368924,-0.573739730398,-0.011415493445,0.0,-0.00757466138672,0.00908330605636,-0.999930056582,0.0,0.623882471087,0.211483776857,0.304102709717,1.0,-0.166554285714,-0.218899918367,1.306
0.42914982918,0.349410311389,-0.12585166972,-1.65933431862,0.0593779106044,2.00076637163,0.111595818254,-0.18947091602,-0.762044709141,-0.00462221062107,-1.12262622232,-0.0788324186779,0.34734684086,-0.210015354342,0.573832083529,0.818956276112,0.00284686321781,0.0,0.818923239067,-0.573768521135,-0.0116258149042,0.0,-0.00788774544588,0.00900280136852,-0.999928363954,0.0,0.621139624022,0.207868576068,0.303979845017,1.0,-0.174243428571,-0.22900564898,1.322
0.425608159819,0.335423701665,-0.126009683059,-1.67966867838,0.0578038419423,2.00743089787,0.107724752102,-0.204538157304,-0.78084152338,-0.00610332921364,-1.14975781564,-0.0946804422525,0.367631714481,-0.226992337743,0.57389836798,0.81890902867,0.00306804405148,0.0,0.818879009095,-0.573834260397,-0.0114959540372,0.0,-0.00765373912327,0.00911004152958,-0.999929211205,0.0,0.618016250757,0.2036722237,0.304097624555,1.0,-0.182893714286,-0.240374595918,1.34
0.42254173989,0.323425867252,-0.126053921122,-1.69715140539,0.0563439750827,2.01305194988,0.104285928274,-0.205640322857,-0.795176588966,-0.00145519061774,-1.18120858109,-0.103769719737,0.37272709906,-0.228363391683,0.573745998416,0.819015618775,0.00311326294757,0.0,0.818986515887,-0.573682170176,-0.0114280933439,0.0,-0.00757390931861,0.00910671853261,-0.999929849327,0.0,0.615236957979,0.200107051246,0.304129152697,1.0,-0.190102285714,-0.249848718367,1.355
0.418797125792,0.309407943679,-0.126141202478,-1.71748661692,0.0547028338792,2.01942499619,0.100215465723,-0.225774860764,-0.835667183655,-0.00388335460613,-1.19253824025,-0.0944738543409,0.394431637803,-0.242508764705,0.573670807808,0.819068236068,0.00312663318613,0.0,0.819038974091,-0.573606549894,-0.0114643682445,0.0,-0.00759678886269,0.00913778375961,-0.999929392361,0.0,0.611940346139,0.195859005344,0.304145309498,1.0,-0.198272,-0.260586057143,1.372
0.414269936025,0.293263368728,-0.126286700073,-1.74082057761,0.0527275545409,2.02650752797,0.0954364428259,-0.246800732211,-0.863187388292,-0.00882738552316,-1.22820897158,-0.0966876750183,0.369705262438,-0.242605691493,0.573627721733,0.81909916052,0.00292386656394,0.0,0.819067111348,-0.573563918055,-0.0115864539473,0.0,-0.00781358077503,0.00904132819484,-0.999928598621,0.0,0.608266584995,0.191103743206,0.304091962938,1.0,-0.206922285714,-0.271955004082,1.39
0.410453696453,0.280105996017,-0.126426573609,-1.75961741343,0.0511862015953,2.03229401579,0.0914623410939,-0.25850058594,-0.874959265217,-0.00733254224677,-1.26926916705,-0.103641009371,0.379952364254,-0.272253598563,0.573657962814,0.8190774411,0.00307149511015,0.0,0.819046961246,-0.573593275522,-0.0115575278791,0.0,-0.00770486976232,0.00914594272249,-0.9999284908,0.0,0.604936935398,0.186718806696,0.304150804424,1.0,-0.214611428571,-0.282060734694,1.406
0.405524129502,0.263840957981,-0.126616018603,-1.78252684615,0.0491755587369,2.03915429689,0.0864450909787,-0.286399022101,-0.918305248569,-0.00954218344708,-1.27484020702,-0.120412037721,0.380509519928,-0.284521365052,0.573686767784,0.819056852237,0.00317996439951,0.0,0.819028001288,-0.573622009447,-0.0114747672997,0.0,-0.00757453504911,0.00918757893891,-0.999929104893,0.0,0.6010491198,0.181543564275,0.30425332952,1.0,-0.223261714286,-0.293429681633,1.424
0.400518990289,0.248222219816,-0.126793224474,-1.80457931723,0.0472218145204,2.04557429193,0.0815337631995,-0.294517395571,-0.931386148061,-0.00297806370207,-1.30924186819,-0.120208036572,0.374744692539,-0.292186150416,0.573805422431,0.818973975856,0.00311624152054,0.0,0.818944044859,-0.573740537592,-0.0115409624292,0.0,-0.00766398135594,0.00917447089451,-0.999928543684,0.0,0.597217406979,0.176448179651,0.304244794593,1.0,-0.231431428571,-0.304167020408,1.441
0.395607268134,0.233076912231,-0.126935671038,-1.82565788651,0.0453244688281,2.05172085848,0.0766013315266,-0.311185119265,-0.958366683,-0.00242180131139,-1.31797392409,-0.108035537857,0.401505625915,-0.311730645574,0.573755185649,0.819008659446,0.00324801392453,0.0,0.818980367302,-0.573689820352,-0.0114845504643,0.0,-0.00754273897632,0.0092495581033,-0.999928773845,0.0,0.593491582737,0.171567177088,0.304307726166,1.0,-0.239120571429,-0.31427275102,1.457
0.389798253808,0.215711559917,-0.127089100007,-1.84975524274,0.0430242959366,2.05854788704,0.0708211689519,-0.331817128154,-1.00205521571,-0.00992237957493,-1.34001251258,-0.137140341949,0.395969332931,-0.326002042206,0.573632760916,0.819094472342,0.00323231872714,0.0,0.819066244999,-0.573567787061,-0.0114554288119,0.0,-0.0075292694805,0.00921886991115,-0.99992915876,0.0,0.589121198335,0.165914107101,0.304315566404,1.0,-0.247770857143,-0.325641697959,1.475
0.384260454096,0.199974021051,-0.127257400626,-1.87148212436,0.0409891719474,2.0643884159,0.0654490338851,-0.344296487432,-0.995738993475,-0.00741397485165,-1.35354514499,-0.126979426527,0.355142065612,-0.349122242881,0.573628565898,0.819097983979,0.0030834928822,0.0,0.819067039122,-0.573563107564,-0.0116315934905,0.0,-0.00775898640337,0.00919797876783,-0.999927595037,0.0,0.585072194013,0.160676788228,0.304272534612,1.0,-0.25546,-0.335747428571,1.491
0.378275615415,0.183827883514,-0.127490845349,-1.89347698535,0.0388629839535,2.07037349262,0.0597493948775,-0.38799610489,-1.00557945054,-0.0195323382405,-1.38364451073,-0.12923161845,0.359873606647,-0.364259457491,0.573701478577,0.819046698986,0.00314090091206,0.0,0.819016459199,-0.573635776371,-0.0116095877995,0.0,-0.00770720981829,0.00923306499508,-0.999927672098,0.0,0.580968471025,0.155179852674,0.304293509319,1.0,-0.263149142857,-0.345853159184,1.507
0.371129664985,0.16533839906,-0.127754457833,-1.91843425666,0.0363646258557,2.07692458439,0.0530964448347,-0.402276726495,-1.01991126286,-0.0138362868512,-1.42781608279,-0.14839272718,0.352746625405,-0.376313986282,0.573832131985,0.818955175149,0.00313883719201,0.0,0.818924863731,-0.573766365332,-0.0116177656697,0.0,-0.00771361862288,0.00923729690945,-0.999927583595,0.0,0.576202143586,0.148802658321,0.304306501417,1.0,-0.271799428571,-0.357222106122,1.525
0.364558023203,0.148527439131,-0.127931972169,-1.94074035641,0.0340436027789,2.08267281615,0.0468720813381,-0.414777419949,-1.05670363568,-0.0129771774927,-1.42154260034,-0.147941590486,0.360592886369,-0.389236913173,0.573739287361,0.819019714848,0.00326859745079,0.0,0.818991441716,-0.573673558069,-0.0115071312645,0.0,-0.00754960479076,0.00927922528371,-0.999928447163,0.0,0.571838639485,0.143098638175,0.304392483737,1.0,-0.279488571429,-0.367327836735,1.541
0.357599866139,0.131462080492,-0.128145767515,-1.96326582114,0.0317472950371,2.08819913176,0.040354484296,-0.43518783199,-1.06728482935,-0.0118234659087,-1.41504376028,-0.134903998204,0.330218731894,-0.420886234503,0.57371680039,0.8190352986,0.00331051338428,0.0,0.819006893239,-0.573650113333,-0.011575975191,0.0,-0.00758220189992,0.00935284480109,-0.999927514627,0.0,0.567320167186,0.137213946567,0.30442427105,1.0,-0.287177714286,-0.377433567347,1.557
0.349196852782,0.111944709101,-0.128501209531,-1.98881405528,0.0289485588197,2.09439185058,0.0326758631871,-0.47056694168,-1.07500666782,-0.0203868082751,-1.4352747921,-0.150773581979,0.336057372209,-0.442166070053,0.573827987943,0.81895728755,0.0033389103775,0.0,0.818929733251,-0.573761797345,-0.0114995133222,0.0,-0.00750201545621,0.00933325527091,-0.999928302485,0.0,0.562142199008,0.130268423954,0.304444484943,1.0,-0.295828,-0.388802514286,1.575
0.34090706216,0.0931440761391,-0.128738459097,-2.01307873118,0.0262320477169,2.1000084903,0.025021674021,-0.487918667753,-1.10434827776,-0.0080664513582,-1.43308050684,-0.145679748125,0.32082848502,-0.457717334378,0.573723783475,0.819030100887,0.00338541244749,0.0,0.819003337039,-0.573657704836,-0.0114506987621,0.0,-0.00743654220431,0.0093423821788,-0.999928706326,0.0,0.557072452378,0.123654372012,0.304485504014,1.0,-0.303997714286,-0.399539853061,1.592
0.332637966313,0.0751303468892,-0.129011356107,-2.03606590631,0.0236939768579,2.10506230546,0.0174196889952,-0.527981528684,-1.14954061545,-0.0151588879266,-1.43984209004,-0.175930948474,0.334416626666,-0.481895736821,0.573677041176,0.819062605135,0.0034421211609,0.0,0.819035951169,-0.573610014677,-0.011506896071,0.0,-0.00745057654997,0.00942064444676,-0.999927867582,0.0,0.552155732458,0.117237093121,0.30451846325,1.0,-0.30998,-0.407402285714,1.608
0.323395927091,0.0560555377743,-0.129357385499,-2.06027429401,0.0208422567173,2.11018744728,0.00913341746558,-0.559604642933,-1.1447998517,-0.0298770024927,-1.41396428442,-0.172940034755,0.30653768213,-0.495371382412,0.573749785304,0.819011987794,0.00336074617737,0.0,0.818984266311,-0.573682978723,-0.0115480889699,0.0,-0.00753016540371,0.00937829237067,-0.999927669505,0.0,0.546883377619,0.110247238103,0.304488633564,1.0,-0.30998,-0.407402285714,1.625
0.31382743505,0.0371364748301,-0.12956826253,-2.08395467758,0.0181095813695,2.11487386729,0.000710218537829,-0.568498236994,-1.12727781103,-0.0138636185339,-1.36988213675,-0.158161935509,0.281349871722,-0.506624635011,0.573853662436,0.818939371197,0.00332073986717,0.0,0.818909952499,-0.573785513297,-0.0117226844174,0.0,-0.00769492352748,0.00944667419117,-0.999925771494,0.0,0.541575705987,0.103322475107,0.304467079729,1.0,-0.30998,-0.407402285714,1.642
0.304013864164,0.0183626113297,-0.129786235906,-2.10701471194,0.0152714615123,2.11927935529,-0.00801591973981,-0.576536011982,-1.08607550836,-0.00665908556679,-1.34398000378,-0.1509558368,0.241336305243,-0.509767756016,0.573809774401,0.818970218578,0.00329708740603,0.0,0.818940351966,-0.573741538874,-0.0117513145383,0.0,-0.00773244950746,0.00944331887803,-0.999925513702,0.0,0.536601626891,0.0968128937532,0.304476553657,1.0,-0.30998,-0.407402285714,1.658
0.293784628915,-0.000307013724017,-0.130081740969,-2.12965757637,0.0124401029312,2.12334242895,-0.0169625772788,-0.605718428086,-1.0859669017,-0.0151988229385,-1.32320220206,-0.15453554931,0.232579264557,-0.534843647057,0.573934865655,0.818882089327,0.00341184194599,0.0,0.818853668853,-0.573866173802,-0.0117060016066,0.0,-0.00762804123356,0.0095124648989,-0.999925660236,0.0,0.531035820627,0.0893939081634,0.304564706652,1.0,-0.30998,-0.407402285714,1.676
0.283468398211,-0.0187580811656,-0.130251968444,-2.15170126683,0.00960664149966,2.12724957144,-0.026163786973,-0.616988176656,-1.07167900256,-0.0139831730901,-1.31306651813,-0.174192480038,0.217425485697,-0.546442973157,0.573765143847,0.819000163193,0.00361099663228,0.0,0.818974871821,-0.573696543231,-0.0115404728203,0.0,-0.00738017492885,0.00957902097773,-0.999926885015,0.0,0.525796601992,0.0825639628151,0.304648823132,1.0,-0.30998,-0.407402285714,1.693
0.273341378883,-0.0359281129165,-0.130497262543,-2.17192323319,0.00691399020789,2.13047360909,-0.0349490074517,-0.642015062758,-1.05465878239,-0.0211962879748,-1.27557681271,-0.167876780981,0.195090457858,-0.550468937579,0.573855224864,0.818936671498,0.00369538542231,0.0,0.8189128564,-0.573786868077,-0.0114503513564,0.0,-0.00725688871705,0.00959722736043,-0.999927612777,0.0,0.520876837137,0.0760112954268,0.304729001375,1.0,-0.30998,-0.407402285714,1.709
0.261661709612,-0.0551130543547,-0.13073989049,-2.19424247484,0.00401060788185,2.13384831206,-0.0451992264818,-0.652372200895,-1.06355893159,-0.0099564535393,-1.23517766127,-0.176519820746,0.187654792383,-0.570109190171,0.573867705203,0.818926948711,0.00390595716298,0.0,0.81890566092,-0.573798500901,-0.0113818178737,0.0,-0.00707978132511,0.00973045547772,-0.999927594845,0.0,0.515323976048,0.0686920827535,0.304815692979,1.0,-0.30998,-0.407402285714,1.727
0.251055428797,-0.0717870060457,-0.130950840869,-2.21369777071,0.00134177789053,2.13645160333,-0.054527774191,-0.672678106073,-1.05159311057,-0.0121984855221,-1.19475716029,-0.175872529809,0.166976705416,-0.585738524545,0.573798606664,0.818976066105,0.00375620010034,0.0,0.818952247138,-0.573729032518,-0.0115308740198,0.0,-0.00728860912226,0.0096927345742,-0.999926460833,0.0,0.510334099344,0.0622054828285,0.304742555884,1.0,-0.30998,-0.407402285714,1.743
0.240063025689,-0.0883617800735,-0.131252555753,-2.23282544657,-0.00129403237287,2.13883606253,-0.0641515980482,-0.686757333342,-1.02044747543,-0.00917309252196,-1.19922824027,-0.164147444499,0.133041608441,-0.59961952632,0.573853308104,0.818938228669,0.00364764359026,0.0,0.818912135428,-0.573782924654,-0.0116968681988,0.0,-0.00748620104895,0.00969957285896,-0.999924934723,0.0,0.505335424431,0.0556227240498,0.304661436584,1.0,-0.30998,-0.407402285714,1.759
0.227564898815,-0.106953999746,-0.131437965376,-2.25366946064,-0.00423848326078,2.14117680248,-0.075164374772,-0.706097282899,-1.02460992192,-0.0152157285542,-1.14750103838,-0.166327784025,0.116565473006,-0.618095400277,0.573710803478,0.819037720227,0.00372474420926,0.0,0.819012507421,-0.573640035886,-0.0116777059961,0.0,-0.00742796230599,0.00975042591007,-0.999924874463,0.0,0.499752498003,0.048408492866,0.304716820856,1.0,-0.30998,-0.407402285714,1.777
0.215936043876,-0.123197541944,-0.13177145678,-2.27180550138,-0.00688659319604,2.14300114862,-0.0852469544866,-0.729049257095,-1.00952105413,-0.0200671259775,-1.12509013551,-0.156027259632,0.10863045065,-0.647233680672,0.573856676614,0.818935732892,0.0036779069508,0.0,0.818909557302,-0.573785577094,-0.0117471434261,0.0,-0.00750997013899,0.00975323761914,-0.999924234482,0.0,0.494793614333,0.041800258953,0.30468895718,1.0,-0.30998,-0.407402285714,1.793
0.203429111363,-0.14032502668,-0.131984451959,-2.29068169555,-0.00962314854805,2.14459157436,-0.0962709435601,-0.75124402068,-1.02029069704,-0.0140226378171,-1.08496410505,-0.159810169049,0.0925748848668,-0.652584056872,0.57376414982,0.819000846862,0.00361387915945,0.0,0.818972808973,-0.573691958971,-0.0119088738775,0.0,-0.0076802722454,0.00979274220276,-0.99992255481,0.0,0.489477640893,0.034940229697,0.304652787988,1.0,-0.30998,-0.407402285714,1.81
0.192007625574,-0.155326146116,-0.132341401244,-2.30689106969,-0.0120747671042,2.14590960074,-0.106299953123,-0.771548218166,-0.996109251058,-0.0261620989335,-1.07038067703,-0.167716272106,0.0677544253953,-0.675279959654,0.573844916091,0.818943830402,0.00370969312743,0.0,0.81891720263,-0.573772586931,-0.0118482329551,0.0,-0.00757466289307,0.00983716916049,-0.999922924322,0.0,0.48485136353,0.0287522846126,0.304682476657,1.0,-0.30998,-0.407402285714,1.825
0.178895387404,-0.17216162335,-0.132587076362,-2.32479627488,-0.0147316504763,2.14702721917,-0.1178727283,-0.772230306418,-0.973579978512,-0.014574337984,-1.04582561624,-0.148576303548,0.0603487744107,-0.695223699338,0.573801392782,0.818973794273,0.00382528906086,0.0,0.818948135645,-0.573727969002,-0.0118707880677,0.0,-0.00752733394556,0.00994437953146,-0.999922221255,0.0,0.47958562656,0.0219019059659,0.304729897202,1.0,-0.30998,-0.407402285714,1.842
0.164492939262,-0.189697399771,-0.132992235316,-2.34330066604,-0.0176615961673,2.14791110075,-0.130496771393,-0.812105856826,-0.978555646417,-0.0286894044678,-1.00110233168,-0.156598890825,0.0521868178047,-0.703679270504,0.573910041712,0.818897725784,0.00381125021496,0.0,0.818871699962,-0.573836407486,-0.0119022412585,0.0,-0.00755982971711,0.00995193232519,-0.999921900959,0.0,0.473699801108,0.014081958372,0.304731491154,1.0,-0.30998,-0.407402285714,1.861
0.149885333074,-0.207062724632,-0.133256586991,-2.36134009909,-0.0204603462736,2.14860562705,-0.143552479585,-0.808483906624,-0.970099918667,-0.0208557314859,-1.00437074077,-0.151531681315,0.0238530698638,-0.737273739854,0.573747598463,0.819011210328,0.00388297777225,0.0,0.818985563276,-0.573672999777,-0.0119450145622,0.0,-0.00755568679765,0.0100337193368,-0.999921114925,0.0,0.468409434613,0.00725696381522,0.304732729054,1.0,-0.30998,-0.407402285714,1.878
0.136432607131,-0.222326544848,-0.133605329033,-2.37680957355,-0.0230358275771,2.14897641601,-0.155381856444,-0.841717587997,-0.952373175144,-0.0170365534069,-0.967669759687,-0.169435856601,0.0216529103053,-0.740040352509,0.573835127065,0.818949334157,0.00399774081481,0.0,0.818925997519,-0.573761217941,-0.0117907707806,0.0,-0.00736243699078,0.0100400056349,-0.999922493401,0.0,0.463491422268,0.000693271362084,0.304814235449,1.0,-0.30998,-0.407402285714,1.894
0.12110118589,-0.239149057044,-0.133864190721,-2.39388767682,-0.0258500776044,2.14907560309,-0.169114739133,-0.868498202435,-0.915651626933,-0.0129570612091,-0.92286748762,-0.149322073722,0.00131593439953,-0.766320411938,0.573652652947,0.819077470552,0.00393419643449,0.0,0.819052781979,-0.573578277062,-0.0118847514076,0.0,-0.00747810648528,0.0100402270146,-0.999921632812,0.0,0.457885858999,-0.006539461364,0.30477922431,1.0,-0.30998,-0.407402285714,1.912
0.106085102054,-0.254826973408,-0.134274884072,-2.40943764433,-0.0283931447276,2.14908274039,-0.182489006587,-0.87723894324,-0.897861525685,-0.0139325931477,-0.903783429958,-0.151689978416,-0.00529047117659,-0.793574734285,0.573756215409,0.819003971335,0.00412881561317,0.0,0.818981866668,-0.573681231548,-0.0118022684445,0.0,-0.00729762120285,0.0101532454754,-0.99992182511,0.0,0.452660549284,-0.0135097652758,0.304820319727,1.0,-0.30998,-0.407402285714,1.929
0.0917212082773,-0.269418559044,-0.134600276838,-2.42368545762,-0.0308153228631,2.14893060392,-0.195335245224,-0.904483443153,-0.910857230676,-0.0275907416343,-0.886406949398,-0.147429071699,-0.00235333046934,-0.819971796688,0.573753555053,0.81900494421,0.00430189770681,0.0,0.818985851708,-0.573679103185,-0.0116279048693,0.0,-0.00705553860128,0.0101949413982,-0.999923138319,0.0,0.447743110565,-0.0200046139886,0.304876063292,1.0,-0.30998,-0.407402285714,1.945
0.0760806696827,-0.284603265298,-0.134965521159,-2.43840912121,-0.0333312048065,2.14844621084,-0.209394700174,-0.915501313801,-0.893446147872,-0.0204755314621,-0.874106785153,-0.139105122008,-0.03468008445,-0.823050173154,0.573751664528,0.819005882666,0.0043747583277,0.0,0.818987513378,-0.573676668538,-0.01163098483,0.0,-0.00701628329909,0.0102563668176,-0.999922786373,0.0,0.442478666186,-0.0269200367022,0.304879442226,1.0,-0.30998,-0.407402285714,1.962
0.0600322492028,-0.299573414802,-0.135412940365,-2.45256016125,-0.0358428609502,2.14783222332,-0.223867608217,-0.955713272105,-0.897123935624,-0.030264096705,-0.792429366487,-0.148465525024,-0.0464343166428,-0.858526140187,0.573802545567,0.818969165567,0.00457071692586,0.0,0.818954168844,-0.573728222922,-0.0114342667867,0.0,-0.00674209243598,0.0103044174619,-0.999924178711,0.0,0.437264153994,-0.0338957166949,0.304961593466,1.0,-0.30998,-0.407402285714,1.979
0.0456763563853,-0.312443051458,-0.135682879284,-2.46480336984,-0.0380255065629,2.14705318409,-0.236849207598,-0.962922989555,-0.849941681254,-0.0207510178646,-0.795065016268,-0.146992434045,-0.0546568341556,-0.869027888028,0.573740004196,0.819013209594,0.00452956920311,0.0,0.818997282146,-0.573665200912,-0.0115080841809,0.0,-0.00682694817427,0.0103125516815,-0.999923519104,0.0,0.432599702176,-0.039944274712,0.304919900066,1.0,-0.30998,-0.407402285714,1.994
0.027958080849,-0.327665517639,-0.136145491945,-2.47884181699,-0.0405410423892,2.14599873099,-0.252913772577,-0.986334400849,-0.860599122455,-0.0250385830652,-0.771159144983,-0.131230385012,-0.0562111295604,-0.900700545469,0.573820924924,0.818955407769,0.00472579159766,0.0,0.81894240716,-0.573746170667,-0.0113759527347,0.0,-0.0066051203471,0.0103981110627,-0.999924122957,0.0,0.42706808536,-0.0473081832319,0.304988243717,1.0,-0.30998,-0.407402285714,2.012
0.0109206941809,-0.341636158595,-0.136520336161,-2.49179898541,-0.0429392656644,2.14479181048,-0.268472679692,-1.02316524561,-0.813997595365,-0.0337082175166,-0.740505067996,-0.136864727982,-0.0799797118567,-0.913193505149,0.573759993199,0.818998343532,0.00468299024337,0.0,0.818984264381,-0.573684543766,-0.0114702154397,0.0,-0.00670765746706,0.010416646605,-0.999923247457,0.0,0.421772476201,-0.054203056475,0.304932833016,1.0,-0.30998,-0.407402285714,2.029
-0.00646398382378,-0.355346378279,-0.136909655025,-2.50405733743,-0.0452730487819,2.1433929973,-0.284462236237,-1.02125558628,-0.832861956116,-0.0299072652741,-0.701970349297,-0.137505335484,-0.0790867472032,-0.949037878252,0.573675257291,0.819057135919,0.00478060390676,0.0,0.819044836545,-0.573600371948,-0.0113541151544,0.0,-0.00655763911511,0.0104293046744,-0.999924110607,0.0,0.416547991251,-0.061105756699,0.305005684842,1.0,-0.30998,-0.407402285714,2.046
-0.0222119299342,-0.36710803983,-0.137340503175,-2.51463674677,-0.0472315323929,2.1420860527,-0.298878436687,-1.04859842862,-0.776422030735,-0.0256170025072,-0.696527807203,-0.138883425958,-0.0918073079038,-0.962928685686,0.573789579064,0.818976627767,0.00485273431744,0.0,0.818964559858,-0.573713364118,-0.0114355773815,0.0,-0.00658151878463,0.0105360354078,-0.999922834807,0.0,0.411877558169,-0.0672547809659,0.30498071878,1.0,-0.30998,-0.407402285714,2.061
-0.0402675302326,-0.380064558157,-0.137729572797,-2.5261074551,-0.0494390866397,2.14039777601,-0.315545208862,-1.07861622243,-0.758793992527,-0.0307244899215,-0.634912652578,-0.12478434079,-0.102660448751,-0.989238518254,0.573753478525,0.819001943657,0.00484861501646,0.0,0.818989142031,-0.573676196315,-0.0115392338396,0.0,-0.0066692483266,0.0105918425331,-0.999921663931,0.0,0.406600085469,-0.0741367249448,0.304965535679,1.0,-0.30998,-0.407402285714,2.078
-0.0598259992846,-0.393392686355,-0.138143677864,-2.53766845073,-0.0517642966335,2.13870392124,-0.333636485747,-1.08802741204,-0.712937087816,-0.0169643666838,-0.630603083921,-0.1203539021,-0.105757472048,-1.01792451287,0.573726701444,0.819020157159,0.00493974888202,0.0,0.819009445373,-0.573650636414,-0.0113676133192,0.0,-0.0064767390546,0.0105678077481,-0.999923183695,0.0,0.401069995277,-0.0814615211969,0.3050057611,1.0,-0.30998,-0.407402285714,2.096
-0.0797885127774,-0.406226295586,-0.138564053639,-2.54881789238,-0.0538976329031,2.13665673289,-0.352205794938,-1.10264073592,-0.713124046861,-0.0100709357413,-0.608704142289,-0.114822193946,-0.113314812237,-1.04408494045,0.573730806016,0.819017277484,0.00494047678795,0.0,0.819004853997,-0.573651955797,-0.011628827971,0.0,-0.00669022566075,0.0107182976757,-0.999920176302,0.0,0.395439725224,-0.0887529393463,0.304947378558,1.0,-0.30998,-0.407402285714,2.114
-0.0967194413912,-0.416628857383,-0.138967386128,-2.55743852748,-0.0556843793553,2.13514910545,-0.368058583834,-1.14308102316,-0.6837832813,-0.0366143493037,-0.567130123418,-0.112015902983,-0.100313305939,-1.06109411468,0.573719645519,0.819023775783,0.00515460456539,0.0,0.819015747754,-0.573642871525,-0.011305210327,0.0,-0.00630245522534,0.0107079297346,-0.99992280667,0.0,0.390880950217,-0.0948880468907,0.30506225013,1.0,-0.30998,-0.407402285714,2.129
-0.117357062382,-0.428551870118,-0.139300010244,-2.56759759984,-0.0578409587447,2.13296449265,-0.387463096478,-1.16524646431,-0.655244491196,-0.0241201946141,-0.556737695269,-0.111444162024,-0.125611615791,-1.08544187646,0.573535343301,0.819153846258,0.00499330005032,0.0,0.819142565524,-0.573457106143,-0.0115391361072,0.0,-0.00658901118666,0.0107085331748,-0.999920953,0.0,0.385245014363,-0.10214901263,0.304989612809,1.0,-0.30998,-0.407402285714,2.147
-0.13715160913,-0.439347349874,-0.139736228985,-2.57660240289,-0.0596683856324,2.13096900914,-0.406101762355,-1.15790799061,-0.628026921919,-0.0269231258583,-0.510544223847,-0.10244999724,-0.115570219615,-1.11230173324,0.573553986324,0.819140293887,0.00507450529878,0.0,0.819129147055,-0.573474001488,-0.0116514790449,0.0,-0.00663422683919,0.0108396361464,-0.9999192414,0.0,0.37996626116,-0.109025724778,0.304968638638,1.0,-0.30998,-0.407402285714,2.164
-0.155031119685,-0.448524470007,-0.140113093183,-2.58387285581,-0.0613246543431,2.12933374857,-0.422944979132,-1.19115465267,-0.602791650937,-0.0188402820784,-0.486966374875,-0.126034036471,-0.116485108798,-1.120157421,0.573581991309,0.81911972812,0.00522658135018,0.0,0.819112552439,-0.573504925395,-0.0112904333593,0.0,-0.00625086690489,0.0107573547517,-0.999922599995,0.0,0.375403624558,-0.115195869196,0.305101407839,1.0,-0.30998,-0.407402285714,2.179
-0.176771882998,-0.45889089,-0.140585143498,-2.59241441102,-0.0631657052351,2.12710231542,-0.443520779981,-1.21415475751,-0.565020003754,-0.0257899198521,-0.451194141953,-0.106601332646,-0.117228845428,-1.14283480428,0.573632051984,0.819084747438,0.00521462867523,0.0,0.81907571962,-0.573552122294,-0.0115618096431,0.0,-0.00647936533562,0.0109036102532,-0.999919561319,0.0,0.369760767304,-0.122525437136,0.305036662936,1.0,-0.30998,-0.407402285714,2.197
-0.197520703839,-0.468104261634,-0.140944955186,-2.59990550538,-0.0648401205759,2.12517795439,-0.463349136762,-1.2384090249,-0.531762405859,-0.0253891822137,-0.428241359803,-0.0951125405206,-0.113362997488,-1.15698199863,0.573518719678,0.819164041082,0.0052248329365,0.0,0.819154706776,-0.573438041332,-0.0116243718706,0.0,-0.00652627512215,0.0109469521271,-0.999918782688,0.0,0.364499795792,-0.129399941896,0.305003156669,1.0,-0.307046857143,-0.403547297959,2.214
-0.217234748602,-0.476143437742,-0.141197390152,-2.60617662715,-0.0661917238071,2.12347453941,-0.481982738541,-1.2330727181,-0.487627243253,-0.0125731936455,-0.377203019357,-0.0800694416637,-0.102493069222,-1.16888367579,0.573656709105,0.819066431319,0.00537662406613,0.0,0.819059836281,-0.573576870379,-0.0114588506849,0.0,-0.00630177406115,0.010977434751,-0.999919888576,0.0,0.359684691075,-0.135844246887,0.305072422999,1.0,-0.299357714286,-0.393441567347,2.23
-0.239246180611,-0.484387736163,-0.141349160408,-2.61273104434,-0.0675820169732,2.12155728973,-0.502904618324,-1.2195533767,-0.446445605202,-0.00544498258416,-0.354055723504,-0.0668685163387,-0.106262004884,-1.15193605295,0.573692420528,0.819041144002,0.00541829876746,0.0,0.819034503435,-0.573611432398,-0.0115392246747,0.0,-0.00634322378805,0.011057952275,-0.9999187393,0.0,0.354320055184,-0.142881047145,0.305055011917,1.0,-0.290707428571,-0.382072620408,2.248
-0.25979258014,-0.491371095021,-0.141381200522,-2.61835705695,-0.0687444732007,2.11979198273,-0.522479202898,-1.20211243332,-0.388909771509,0.00956417632701,-0.320000086115,-0.0781490896554,-0.094265300651,-1.15393095159,0.573692242044,0.819041437181,0.00539281922638,0.0,0.819032868566,-0.573608584917,-0.0117939992775,0.0,-0.0065665331393,0.0111832374008,-0.999915904386,0.0,0.349353034286,-0.149320754504,0.304980764875,1.0,-0.282537714286,-0.371335281633,2.265
-0.277729979471,-0.497000216544,-0.141362477905,-2.62271507895,-0.0695408462906,2.11850747658,-0.539509907563,-1.20100234557,-0.359385873229,-0.0082101801434,-0.280581665106,-0.0538035792893,-0.0904079150429,-1.1337652325,0.573828845905,0.818944625316,0.00555906245557,0.0,0.818938477345,-0.573745044796,-0.0117107129573,0.0,-0.00640106413774,0.0112726920781,-0.999915972865,0.0,0.345149559798,-0.154891297029,0.305003666861,1.0,-0.275329142857,-0.361861159184,2.28
-0.298700546337,-0.502990499017,-0.141171891604,-2.6273417116,-0.0704729910973,2.11695025475,-0.559614479088,-1.15319611996,-0.323006014775,0.021673209052,-0.243400008285,-0.0556954275553,-0.0826466789143,-1.11634679116,0.573732858871,0.819011831256,0.00556541232074,0.0,0.819005559002,-0.5736486903,-0.0117397334465,0.0,-0.006422512753,0.011293791902,-0.999915597235,0.0,0.340265241988,-0.161296369766,0.305010523771,1.0,-0.266678857143,-0.350492212245,2.298
-0.318311803682,-0.507990698664,-0.141069133258,-2.63111474731,-0.0711575144039,2.11573508547,-0.57831806795,-1.14437794469,-0.278845800306,-0.000194875994597,-0.209612008495,-0.0292671998498,-0.0665612921053,-1.10674458284,0.573888547887,0.818901623765,0.00572818473352,0.0,0.81889803355,-0.573804823315,-0.0116095775028,0.0,-0.00622036160058,0.0113536213812,-0.99991619768,0.0,0.335788708638,-0.16727425826,0.305054278348,1.0,-0.258509142857,-0.339754873469,2.315
-0.33631444652,-0.512219101541,-0.140858329912,-2.63429895291,-0.0717235607484,2.11459098833,-0.595550859397,-1.1072556878,-0.250422168044,0.020972625405,-0.193259835132,-0.0437387087302,-0.0773950976123,-1.07550129847,0.573938707361,0.818865903395,0.00580855842036,0.0,0.818863400768,-0.573854794166,-0.0115824435004,0.0,-0.00615131739571,0.0114042481195,-0.999916048686,0.0,0.331677204333,-0.172667602401,0.305081629611,1.0,-0.25082,-0.329649142857,2.331
-0.356016888866,-0.516212752664,-0.140590001595,-2.6374841996,-0.07219280405,2.11341156121,-0.614562867071,-1.0956646319,-0.209375408867,0.00170396149015,-0.165685094073,-0.0200495968271,-0.0658942466863,-1.05466264629,0.573925366782,0.818874634056,0.00589524935883,0.0,0.818871682024,-0.573838240844,-0.0118147630564,0.0,-0.00629201139355,0.011608468478,-0.999912823226,0.0,0.327179413311,-0.178491664047,0.305015169458,1.0,-0.242169714286,-0.318280195918,2.349
-0.372048061413,-0.519031844017,-0.140282315668,-2.63974306172,-0.0725439782965,2.11263347056,-0.629965743276,-1.05107312717,-0.177703211087,0.0216143318483,-0.147803773535,-0.00863150638535,-0.0467194308756,-1.01172630855,0.573938300783,0.818865402539,0.00591830387813,0.0,0.818862138259,-0.573849957027,-0.0119068151941,0.0,-0.00635398292461,0.0116802771303,-0.999911595106,0.0,0.323580269439,-0.183198738163,0.304968419102,1.0,-0.234961142857,-0.308806073469,2.364
-0.389822577685,-0.521808749571,-0.139952300304,-2.64185636555,-0.0729200094724,2.11183247093,-0.647060529362,-1.03191236254,-0.147106933383,0.0305105685251,-0.115274179737,-0.0208335866798,-0.0428204844048,-1.00137279481,0.57397489956,0.81883963597,0.00593398179303,0.0,0.818836574761,-0.5738864854,-0.0119043105611,0.0,-0.00634241148175,0.0116919618912,-0.999911532009,0.0,0.319624500669,-0.188417607068,0.304968563969,1.0,-0.226791428572,-0.298068734694,2.381
-0.405970090416,-0.523999482773,-0.139606418716,-2.64351557605,-0.0731192885643,2.11115711184,-0.662738453181,-1.01502962067,-0.131902501316,0.0139102351528,-0.0942519988924,-0.00619426234142,-0.0448906140335,-0.972704595122,0.573930852547,0.818869971896,0.0060077052521,0.0,0.818867620619,-0.573841693842,-0.0119280011588,0.0,-0.00632013189782,0.0117655897035,-0.999910809438,0.0,0.316049480383,-0.193112612515,0.304969332985,1.0,-0.219102285714,-0.287963004082,2.397
-0.421743006108,-0.525821541147,-0.139251022253,-2.64488707307,-0.0733153832773,2.11062655244,-0.678005226904,-0.973465829634,-0.108792611889,0.0228617106643,-0.0826718774703,-0.00454087237031,-0.0284003992058,-0.942426484356,0.573928754654,0.818871198495,0.00604084077822,0.0,0.818869503047,-0.573839885021,-0.0118857157846,0.0,-0.00626651560178,0.0117684409234,-0.99991111334,0.0,0.312579040668,-0.19769154038,0.304977169229,1.0,-0.211413142857,-0.277857273469,2.413
-0.43991322018,-0.527528209254,-0.138869333631,-2.64616517277,-0.0734826273477,2.110084117,-0.695491157109,-0.944430428151,-0.0798788230443,0.0233871351958,-0.0672950846513,-0.0099916756267,-0.0296365383495,-0.906088972245,0.574072072413,0.818770334504,0.00609441650505,0.0,0.818769421217,-0.573983123437,-0.0118640545801,0.0,-0.0062159633926,0.0118009714798,-0.999911045479,0.0,0.308583901444,-0.202956784316,0.304983997057,1.0,-0.202282285714,-0.265856718367,2.432
-0.454472315453,-0.52860524578,-0.13840469292,-2.64696877125,-0.0735056020254,2.10972941557,-0.709704892475,-0.899914389829,-0.0636049758356,0.0316853761353,-0.0475199944621,-0.00100537350445,-0.0178502266704,-0.874484322598,0.573969276727,0.818842181269,0.00612359776332,0.0,0.818841818132,-0.573880560327,-0.0118290429773,0.0,-0.00617202446882,0.0118039924315,-0.999911282003,0.0,0.305420854371,-0.207117686457,0.304994109889,1.0,-0.194593142857,-0.255750987755,2.448
-0.468753127785,-0.52938488659,-0.138030778045,-2.64758257133,-0.0735200355446,2.10942883064,-0.723408771544,-0.870621549051,-0.0436497107024,0.0270492953304,-0.0344228240787,-0.00187393087351,-0.0215190469326,-0.846083408133,0.574135514619,0.818725326697,0.00616418522899,0.0,0.818725290634,-0.574046219648,-0.0118567738164,0.0,-0.0061690325615,0.0118543975138,-0.999910704162,0.0,0.30229827515,-0.211210631695,0.304983848651,1.0,-0.186904,-0.245645257143,2.464
-0.482299047317,-0.52988054768,-0.137547126375,-2.6479519804,-0.0735224436731,2.10922811355,-0.73669344401,-0.841378923924,-0.0190504563356,0.0310134019802,-0.0203788666094,-0.000982327322782,-0.0081010435652,-0.823158179159,0.573992498067,0.818825872741,0.00612773979107,0.0,0.818825596478,-0.573903823974,-0.0118232940045,0.0,-0.00616460442121,0.0118042595191,-0.999911324623,0.0,0.299190628026,-0.215312456902,0.304990054476,1.0,-0.178734285714,-0.234907918367,2.481
-0.498626418421,-0.530155880931,-0.136976246146,-2.64819082049,-0.0734964806059,2.10902201263,-0.752558281289,-0.793828236352,-0.00667332452812,0.0331957454584,-0.00883864040932,0.0060758380648,-0.00453636337437,-0.780791384174,0.573958871941,0.818849837197,0.00607489459274,0.0,0.81884870694,-0.573870092917,-0.0118599535908,0.0,-0.00622544060164,0.0117817720019,-0.999911212927,0.0,0.295838073794,-0.219713859234,0.304981467118,1.0,-0.169603428572,-0.222907363265,2.5
-0.511854969165,-0.530229886516,-0.136485196202,-2.64826427963,-0.0734586016654,2.10892807304,-0.765394201581,-0.780778828927,-0.000545702420576,0.0260711043203,-0.00286381931403,0.00045481020816,-0.00508602229741,-0.746287337653,0.573946137989,0.818859177929,0.00601866357846,0.0,0.818857443432,-0.573857819485,-0.011850622452,0.0,-0.00625025413835,0.0117302723039,-0.999911663616,0.0,0.292966334058,-0.223458965152,0.304979834806,1.0,-0.161433714286,-0.21217002449,2.517
-0.522302411556,-0.530147731329,-0.136037991834,-2.64823383064,-0.0733772123008,2.10889772291,-0.775551379592,-0.71855259224,0.00969610176808,0.0417491418717,0.004558418944,0.0145297982727,-0.000451958993413,-0.721378575394,0.573905177518,0.818888210282,0.00597437699564,0.0,0.81888594711,-0.573817126148,-0.0118515090246,0.0,-0.00627698202746,0.0116942009047,-0.999911918702,0.0,0.29070677213,-0.226393912491,0.304972765477,1.0,-0.154705714286,-0.203327510204,2.531
-0.535735513718,-0.529893194932,-0.135439847425,-2.64810203574,-0.0731860069291,2.10889521715,-0.788642804453,-0.70294908179,0.0113799970994,0.0246818924677,0.00884116131825,0.023426103158,-0.00115071975685,-0.676057731676,0.573852651621,0.818925082285,0.00596579690163,0.0,0.81892256891,-0.573764386208,-0.0118744326708,0.0,-0.00630143027662,0.0116999256588,-0.999911697959,0.0,0.287795637419,-0.23014280334,0.304955186881,1.0,-0.145574857143,-0.191326955102,2.55
-0.547210771529,-0.529528530817,-0.134932502302,-2.64786932265,-0.0729817482237,2.10891376651,-0.799709233255,-0.648093849241,0.0270034100839,0.0405872582471,0.0148461460308,0.01424399875,0.00150590177092,-0.63943877873,0.573930310648,0.818870559959,0.00597925185389,0.0,0.81886803316,-0.573841626943,-0.0119028718506,0.0,-0.00631588932616,0.0117278629419,-0.999911279451,0.0,0.285303149899,-0.233340676812,0.304942675195,1.0,-0.137405142857,-0.180589616327,2.567
-0.556662541949,-0.529072675118,-0.134411250488,-2.64757277999,-0.0727210640179,2.10895111261,-0.809017539267,-0.626827841836,0.0304850889719,0.0360682971538,0.0247548040378,0.0136929391176,0.00190097456221,-0.604612650212,0.573808422003,0.818955786576,0.00600511227644,0.0,0.818953249594,-0.57371901638,-0.0119504026866,0.0,-0.00634172642148,0.0117753746333,-0.999910557529,0.0,0.283277313531,-0.235945610292,0.304927790859,1.0,-0.130196571429,-0.171115493878,2.582
-0.568206193822,-0.528392620189,-0.13387894031,-2.64710484392,-0.0724390042229,2.10905387127,-0.820054615353,-0.590303105804,0.039719149591,0.0236521023599,0.025392026263,0.010392012217,0.00830424819169,-0.563275354042,0.573994801894,0.818824896701,0.00604175816889,0.0,0.818822654279,-0.573904868938,-0.0119753559653,0.0,-0.0063384472159,0.011821148129,-0.999910038225,0.0,0.280779972487,-0.239161937046,0.304914670952,1.0,-0.121065714286,-0.159114938776,2.601
-0.577051057231,-0.527658830445,-0.133298312329,-2.64662603724,-0.0721195417511,2.10918183644,-0.828832154301,-0.539439894954,0.0472820348604,0.034098437848,0.0309980454151,0.0163222077069,0.00716592784809,-0.530428255038,0.573803843264,0.818958613869,0.00605682483895,0.0,0.818956179337,-0.573713164112,-0.0120303179672,0.0,-0.00637757517207,0.0118635452243,-0.9999092873,0.0,0.278917680163,-0.241589953324,0.304890047992,1.0,-0.113376571429,-0.149009208163,2.617
-0.586055166997,-0.526888946713,-0.132764818931,-2.64609657822,-0.0718436265661,2.10930024735,-0.837505776918,-0.518718108566,0.0503119917952,0.0301850522064,0.0310897128966,0.0125263681012,0.00998793227539,-0.495336587427,0.573845578113,0.818929388771,0.00605438592621,0.0,0.818926584223,-0.573754272871,-0.012084325199,0.0,-0.00642260290918,0.0118928631405,-0.999908650817,0.0,0.276992296282,-0.244073484488,0.30487296645,1.0,-0.105206857143,-0.138271869388,2.634
-0.593058747854,-0.52623361217,-0.132354201228,-2.64560953976,-0.0715748187914,2.1094048601,-0.844193462767,-0.490550275479,0.0482465167833,0.029682405164,0.0365228197516,0.0143960050401,0.00341734418625,-0.476935443323,0.573956166052,0.818851603353,0.00609245747094,0.0,0.818849201586,-0.57386449907,-0.0120941584881,0.0,-0.00640719937297,0.0119305504733,-0.999908300676,0.0,0.275502030346,-0.246009072848,0.304874012294,1.0,-0.0984788571429,-0.129429355102,2.648
-0.601157972408,-0.525297169181,-0.131705740825,-2.6449542077,-0.0711897073318,2.10957134679,-0.852157961326,-0.431230223616,0.0548567632417,0.0443386505322,0.0400630078265,0.0229961021906,0.00479650162523,-0.424093581868,0.573809322695,0.818954439739,0.00610194414614,0.0,0.818951833496,-0.573717034867,-0.0121410550199,0.0,-0.00644230564353,0.0119640792497,-0.999907674491,0.0,0.273829470585,-0.248215181973,0.304859740284,1.0,-0.0898285714287,-0.118060408163,2.666
-0.607909553109,-0.524548689075,-0.131168171492,-2.6444085744,-0.0708815241756,2.10971261435,-0.85867500586,-0.417176564716,0.0477654528543,0.0369727936516,0.0347609752057,0.0138644262299,0.0121117501622,-0.399115362206,0.573783130674,0.818972801693,0.00610048708778,0.0,0.818970128937,-0.573690766699,-0.0121482103565,0.0,-0.00644938492721,0.011966785265,-0.999907596473,0.0,0.272421165934,-0.250048226357,0.304859171245,1.0,-0.0821394285715,-0.107954677551,2.682
-0.614521992365,-0.523768283207,-0.130588776338,-2.64379667904,-0.0705301717527,2.10987476861,-0.864965508376,-0.375838182477,0.0498577402632,0.0349585105524,0.0402247015303,0.0166891066977,0.0157754695308,-0.361258504261,0.57382040346,0.818946662508,0.00610372363711,0.0,0.818944342471,-0.57372859474,-0.0121000170861,0.0,-0.00640751118836,0.0119420765488,-0.999908161087,0.0,0.271066632931,-0.251840605862,0.304879611803,1.0,-0.0739697142858,-0.0972173387756,2.699
-0.620497855922,-0.5229753043,-0.130064457054,-2.64321217255,-0.070166926844,2.11002457062,-0.870656323533,-0.329858840858,0.044632375166,0.0389627154663,0.0303122276518,0.0256219990035,0.0043252817387,-0.326435945175,0.573869899384,0.8189116921,0.00614215144129,0.0,0.81890979335,-0.5737777626,-0.0121068741735,0.0,-0.00639035393805,0.0119778692424,-0.999907842766,0.0,0.269842588264,-0.253456160512,0.304880323651,1.0,-0.0658000000001,-0.0864800000001,2.716
-0.625727049955,-0.52229381994,-0.129454386906,-2.64270023274,-0.0697838028796,2.11017295352,-0.875676456806,-0.293194257963,0.0346995443377,0.0377943978336,0.0312259601902,0.0305021620133,0.0104726937163,-0.281360930812,0.573800575985,0.818960170341,0.00615510320234,0.0,0.818958598129,-0.573708693391,-0.0120787656355,0.0,-0.00636091421378,0.0119718078632,-0.999908103071,0.0,0.268804792717,-0.254827415643,0.304890730926,1.0,-0.0576302857144,-0.0757426612246,2.733
-0.630191556315,-0.521754379597,-0.128894738336,-2.64227190498,-0.0694650770003,2.11028366367,-0.879875341929,-0.272767385035,0.0324643167414,0.0346285977808,0.0259775520489,0.0237872689122,0.0111782149265,-0.242920990324,0.573780850717,0.818974096875,0.00614092011573,0.0,0.818972607408,-0.573689537443,-0.0120386812044,0.0,-0.00633650844372,0.0119370399271,-0.999908673699,0.0,0.267917293652,-0.255983362505,0.304910605457,1.0,-0.0499411428572,-0.0656369306124,2.749
-0.63462075371,-0.521134772622,-0.128307590146,-2.64181456818,-0.0690835007628,2.11042266046,-0.883980546225,-0.231202973252,0.0379049839559,0.0312428169057,0.0233771075568,0.0308021266726,0.012239503138,-0.208017472165,0.573817768245,0.818948082785,0.00616063713641,0.0,0.818946963183,-0.573726576382,-0.0120180675474,0.0,-0.00630777356827,0.0119416456865,-0.999908800387,0.0,0.267054931616,-0.257124210559,0.304917163042,1.0,-0.041290857143,-0.0542679836736,2.767
-0.638271911364,-0.520576034271,-0.1277619743,-2.64142826955,-0.0687269271409,2.11050722148,-0.887317183626,-0.186324316389,0.0309447421372,0.0320337915032,0.0168820079483,0.0234900740764,0.00713452557721,-0.176637040608,0.573861817008,0.818917035501,0.00618472697845,0.0,0.81891589757,-0.573769883068,-0.0120673481962,0.0,-0.00633366887872,0.0119899924516,-0.999908058133,0.0,0.266353786922,-0.258042029121,0.304907960959,1.0,-0.0326405714287,-0.0428990367348,2.785
-0.641161905468,-0.520189563863,-0.127237526932,-2.64115854005,-0.0683954628609,2.11058871673,-0.889902610096,-0.157010475967,0.0195118413049,0.0297456331878,0.0175901650291,0.0227708458617,0.00525974498766,-0.144561634375,0.573895473543,0.818893324317,0.00620126903868,0.0,0.81889237687,-0.573803412549,-0.012069206801,0.0,-0.00632520532237,0.0120048662259,-0.999907933244,0.0,0.265816287879,-0.258735566148,0.304908207162,1.0,-0.024470857143,-0.0321616979593,2.802
-0.64341362369,-0.519882878691,-0.126694720938,-2.64095659704,-0.0680793893751,2.11064584815,-0.891790459414,-0.115401892162,0.017470864496,0.0323002808087,0.011850413606,0.0191030349945,0.0066798829905,-0.0982288241315,0.573954427245,0.818852035989,0.00619721739258,0.0,0.818850924067,-0.57386215967,-0.0120885381538,0.0,-0.00634249763524,0.0120130984702,-0.999907724837,0.0,0.265427474444,-0.259236764321,0.304905251276,1.0,-0.0198268965517,-0.0260582068966,2.819
-0.645208793067,-0.519588903428,-0.126299863881,-2.64078209581,-0.0678359461252,2.1106880131,-0.893483742107,-0.101979192776,0.0127232261082,0.0229891196694,0.00937285993873,0.00857065941917,0.0014869766824,-0.0979601143453,0.573871336627,0.818910186855,0.0062082014067,0.0,0.818908854645,-0.573778350447,-0.0121424562488,0.0,-0.00638157241822,0.0120523907467,-0.999907003381,0.0,0.265109333833,-0.259647224302,0.304889562278,1.0,-0.0194868965517,-0.0256113497537,2.836
-0.646650169855,-0.519382834702,-0.126026445618,-2.64062315131,-0.0676878440332,2.11072575321,-0.894841861741,-0.094216762027,0.0145380074036,0.0115679166326,0.00634193067027,0.00986788359399,0.00209930952152,-0.0917076867458,0.573817219032,0.818948211257,0.00619462042035,0.0,0.818946744895,-0.573724386774,-0.0121368837959,0.0,-0.00638559741549,0.0120376488987,-0.999907155267,0.0,0.26484537532,-0.259996731777,0.304895770862,1.0,-0.0191868965517,-0.0252170640394,2.851
-0.648263377435,-0.519127502548,-0.125811372856,-2.64041301528,-0.0676014765426,2.11080251366,-0.896450127625,-0.0850340086542,0.0142994953366,0.00757099659517,0.0092340891651,0.000333292558858,0.00250302321189,-0.0868498855254,0.573716564196,0.819019057966,0.00615089886988,0.0,0.819017326783,-0.573624522066,-0.0120943380874,0.0,-0.00637730974552,0.011976645431,-0.999907940705,0.0,0.264534865413,-0.260428198664,0.304908977086,1.0,-0.0188268965517,-0.0247439211823,2.869
-0.649528678873,-0.518892845784,-0.125697189415,-2.64023250076,-0.0675564797311,2.11084946908,-0.897697296201,-0.0829854944656,0.0139357105438,0.00478485288207,0.0112841943642,0.00303466671592,0.00185233397693,-0.0869982764986,0.573679126542,0.819045477935,0.00612468322192,0.0,0.819043429201,-0.57358725256,-0.0120942831391,0.0,-0.00639285077404,0.0119548495041,-0.999908102294,0.0,0.26427766813,-0.260782150371,0.304911345627,1.0,-0.0185268965517,-0.024349635468,2.884
-0.650963977123,-0.518672203496,-0.125647535805,-2.64005463508,-0.0675207968094,2.11088804915,-0.89915746355,-0.0857457048415,0.0132123172114,0.00134399887831,0.00825796443618,0.000837830694888,0.00177135246073,-0.0853695759316,0.573648069146,0.819067220846,0.00612596130062,0.0,0.819065214217,-0.573556243769,-0.0120895406828,0.0,-0.00638868613734,0.0119529336056,-0.999908151816,0.0,0.263959073541,-0.261194131771,0.304915401289,1.0,-0.0181868965517,-0.0239027783251,2.901
-0.652378141077,-0.518454908843,-0.125620639914,-2.63986481723,-0.0674869043678,2.11094049413,-0.900563912287,-0.0825651832315,0.0135980006438,0.00408558375126,0.0128102540094,0.00813686003374,0.00532707403215,-0.0874878532965,0.573659601962,0.819059092075,0.00613283519427,0.0,0.819057382995,-0.573568134158,-0.0120559421866,0.0,-0.00635705261492,0.0119393808106,-0.999908515349,0.0,0.263645238816,-0.261610382492,0.304926746784,1.0,-0.0178468965517,-0.0234559211823,2.918
-0.653660784748,-0.518235648056,-0.125624375057,-2.63968832144,-0.067460257321,2.11100147207,-0.90182217391,-0.0760519062507,0.0120891493928,-0.00088189866434,0.0115876695848,0.000650469541686,0.000158966167761,-0.0822565466541,0.573702808416,0.819028715465,0.00614798839925,0.0,0.819027357029,-0.573611554877,-0.0120299398006,0.0,-0.00632643076036,0.0119372107667,-0.999908735472,0.0,0.263356114471,-0.261996768546,0.304931298393,1.0,-0.0175268965517,-0.0230353497537,2.934
-0.655172967665,-0.5179622222,-0.125638074842,-2.63947512788,-0.0674207580489,2.1110352735,-0.90329584536,-0.0835132706983,0.0133114690086,-0.00236342432244,0.0104924257896,0.00488713043025,0.00171504007725,-0.0715083767188,0.573772124383,0.818979905674,0.00618144677548,0.0,0.818978853352,-0.573680466942,-0.0120460164293,0.0,-0.00631939179434,0.011974373173,-0.999908335636,0.0,0.263008059109,-0.262448797523,0.304930003537,1.0,-0.0171468965517,-0.0225359211823,2.953
-0.65643405282,-0.517766177965,-0.125631891914,-2.63931569182,-0.0674034953052,2.11105610047,-0.904448385884,-0.0776805204193,0.0120008712081,0.000350014846915,0.00944991539207,0.00456120596874,0.00485735836102,-0.0748580845341,0.573872328632,0.818909638863,0.00618875662194,0.0,0.818908626977,-0.573780514224,-0.0120552503469,0.0,-0.00632129445555,0.0119864315527,-0.999908179132,0.0,0.262715043281,-0.262817943137,0.304932131061,1.0,-0.0168268965517,-0.0221153497537,2.969
-0.657673921271,-0.517549533714,-0.125622249206,-2.63912511457,-0.067375051995,2.11112307696,-0.905785293332,-0.0714646732769,0.0133627259455,0.000670585986414,0.0132970468698,0.000521314487142,0.00549365574899,-0.0798512301814,0.573807991584,0.818954661274,0.00619665023402,0.0,0.818954044691,-0.573716712952,-0.0120063676715,0.0,-0.00627766983053,0.0119643518433,-0.999908718407,0.0,0.262442753615,-0.263193555922,0.304944828305,1.0,-0.0164868965517,-0.0216684926108,2.986
-0.6589495638,-0.517304078319,-0.125592189953,-2.63892548638,-0.0673452033192,2.11118851261,-0.90711009209,-0.0703859796513,0.0124063374823,0.00247731135682,0.0114017577356,1.51089843724e-05,0.00192223736339,-0.0666692140927,0.573769527403,0.818981618661,0.00619553226411,0.0,0.81898115418,-0.573678579632,-0.0119792850608,0.0,-0.00625669058083,0.0119476029207,-0.999909050168,0.0,0.262166318916,-0.263575336554,0.30495135463,1.0,-0.0161268965517,-0.0211953497537,3.004
-0.660082761939,-0.517098190528,-0.125537520319,-2.6387725979,-0.0673171575371,2.11119369263,-0.908242013493,-0.0748265292704,0.01247849186,0.00411728424853,0.00922998745093,0.000133595113413,-0.0056620072908,-0.0643734326794,0.573751803523,0.818994068453,0.00619117874146,0.0,0.818993291034,-0.573660389716,-0.0120205413266,0.0,-0.00629323920084,0.0119675715312,-0.999908582007,0.0,0.261913035392,-0.263894395431,0.304946657544,1.0,-0.0158068965517,-0.0207747783251,3.02
-0.66125308178,-0.516867686322,-0.125496641983,-2.63860866105,-0.0672928872018,2.11121572661,-0.909474220295,-0.0671960900903,0.0116021385582,-9.69452395213e-05,0.0141899626279,0.000261712744246,0.00542070212241,-0.0674588653729,0.573691137643,0.819036580186,0.00618916870335,0.0,0.819035534133,-0.573599285241,-0.0120582212651,0.0,-0.00632614336146,0.0119870745586,-0.999908140758,0.0,0.261650772293,-0.264231127103,0.304938997889,1.0,-0.0154668965517,-0.0203279211823,3.037
-0.662457223931,-0.516620209298,-0.125471710136,-2.63841654164,-0.0672598068495,2.11129374263,-0.910647288194,-0.0698174173494,0.0111873435424,0.00161526309664,0.011966715412,0.000973260318446,0.00356569925154,-0.0690914623997,0.573723026167,0.819014227379,0.00619124356813,0.0,0.819013396678,-0.573631515327,-0.0120286153495,0.0,-0.00630023597624,0.0119720355221,-0.999908484509,0.0,0.261391171137,-0.264594001373,0.304942268858,1.0,-0.0151068965517,-0.0198547783251,3.055
-0.663389882915,-0.516425965245,-0.125457784824,-2.63827872047,-0.067243093094,2.1113436923,-0.911589574209,-0.0642373679211,0.0171498156088,0.000725223970847,0.0108986893843,0.00031425910707,0.00195267181483,-0.0688194024595,0.573719659036,0.819016583617,0.0061915665278,0.0,0.819015747387,-0.573628129026,-0.0120300467031,0.0,-0.0063012723475,0.0119730952992,-0.999908465289,0.0,0.261183581225,-0.264872560157,0.30493782787,1.0,-0.0148268965517,-0.0194867783251,3.069
-0.66444469061,-0.516228960744,-0.125454916338,-2.63812808332,-0.0672179653229,2.11134736059,-0.912683858281,-0.0654454890568,0.0111273644297,-0.000947563125178,0.00913227941173,-0.000122533502624,0.000127685653926,-0.0608399389269,0.573703929157,0.819027460834,0.00621023118614,0.0,0.819026623516,-0.573611857381,-0.0120654027905,0.0,-0.00631975564087,0.0120085448691,-0.99990792353,0.0,0.260937230104,-0.265181068399,0.30493397446,1.0,-0.0145068965517,-0.0190662068966,3.085
-0.66562482167,-0.516016804316,-0.12543516836,-2.63795765529,-0.0671928724511,2.11138039704,-0.913814311373,-0.0656953491583,0.00574477258045,0.00138751801153,0.0103242812322,0.000144123675029,0.000708326531363,-0.059049634066,0.573750172006,0.818995031645,0.00621491475739,0.0,0.81899424264,-0.573658045601,-0.0120674827748,0.0,-0.00631809422659,0.0120139310279,-0.999907869329,0.0,0.260669711817,-0.265527465464,0.304936412461,1.0,-0.0141468965517,-0.0185930640394,3.103
-0.666698521357,-0.515811889235,-0.125430387446,-2.63779742658,-0.0671698934075,2.11145391191,-0.914908366701,-0.059446468857,0.0115759422074,0.000846888232019,0.0109375303253,-8.46160212029e-05,0.00449674612197,-0.072762538477,0.573748244748,0.818996337087,0.00622080280335,0.0,0.818995840396,-0.573656503859,-0.012032285538,0.0,-0.0062859148184,0.0119985453368,-0.999908256884,0.0,0.260430683173,-0.265852577956,0.304939974473,1.0,-0.0138068965517,-0.0181462068966,3.12
-0.66768533822,-0.515633646189,-0.1254090633,-2.63763046575,-0.0671442830243,2.11148815433,-0.915899742001,-0.0609138262752,0.0118230677981,0.000489335294199,0.011134538236,0.00018125135393,0.000621828343072,-0.0590806223861,0.573748831208,0.818995917477,0.00622195660351,0.0,0.818995614755,-0.573657427235,-0.0120035865957,0.0,-0.00626173735724,0.0119830296635,-0.999908594645,0.0,0.260214303127,-0.266147646529,0.304953468928,1.0,-0.0134868965517,-0.017725635468,3.136
-0.66870227166,-0.515435480048,-0.125367712976,-2.63746382126,-0.0671266088833,2.11152581828,-0.916863813457,-0.062262192433,0.0156182381235,0.00197350821657,0.00640399329644,-0.000130450747391,0.00208405693292,-0.0498123957073,0.573778898099,0.818974967222,0.00620693658996,0.0,0.818974552354,-0.573687711243,-0.0119933092525,0.0,-0.00626149735909,0.0119650612472,-0.999908811322,0.0,0.259993343942,-0.266446913639,0.304960214081,1.0,-0.0131468965517,-0.0172787783251,3.153
-0.669817839278,-0.515227593475,-0.125329453104,-2.63728381367,-0.0671007685558,2.11157688322,-0.917973706663,-0.0579658570441,0.0114015845813,-4.18742442032e-05,0.00370674355056,-0.000173070669892,0.00534902747302,-0.0707631110653,0.573776644114,0.81897660921,0.00619863995308,0.0,0.818976275357,-0.57368585412,-0.0119644509622,0.0,-0.00624265361463,0.0119416914974,-0.999909208518,0.0,0.259750668977,-0.266776720978,0.304970503206,1.0,-0.0127668965517,-0.0167793497537,3.172
-0.670660001372,-0.515052657174,-0.125303022556,-2.63714003248,-0.067087657091,2.11161160948,-0.918887583917,-0.0553894131716,0.0115025004684,0.000702025962841,0.0106156866726,0.000863806519262,0.00289832786105,-0.0605379862644,0.573712159493,0.819021853938,0.00618932340359,0.0,0.819021449226,-0.573621518481,-0.0119568450676,0.0,-0.00624270851682,0.0119292057023,-0.999909357213,0.0,0.259566849871,-0.267027919566,0.304974810646,1.0,-0.0124668965517,-0.0163850640394,3.187
-0.671672401002,-0.514859595513,-0.125296890826,-2.63697461385,-0.0670677659816,2.11164845031,-0.919876995322,-0.0569613855848,0.0112928413673,0.000936184524872,0.0103674651265,1.02435666772e-05,-0.000143656641322,-0.0518586782067,0.573743638668,0.818999768775,0.00619376583408,0.0,0.818999512188,-0.573653145268,-0.0119421463877,0.0,-0.00622766178021,0.0119246513052,-0.999909505365,0.0,0.259338147362,-0.2673324875,0.304981948619,1.0,-0.0121068965517,-0.0159119211823,3.205
-0.672657629718,-0.51466291395,-0.125277584782,-2.6368130146,-0.0670458358559,2.1116809556,-0.920824809076,-0.051571486681,0.00867785597891,0.000382045932734,0.00783286842953,0.000581413626455,0.00284598438805,-0.0561741353601,0.573778277942,0.818975496697,0.0061943904541,0.0,0.818975267601,-0.573687811698,-0.011939542244,0.0,-0.00622466607934,0.0119239321406,-0.999909532595,0.0,0.259117905511,-0.267625107493,0.304985944727,1.0,-0.0117468965517,-0.0154387783251,3.223
-0.67340193981,-0.514516231759,-0.125267501834,-2.63668160128,-0.0670313564876,2.11170908357,-0.921565128027,-0.0537408571157,0.00867057841376,-0.000242099838602,0.0117451397912,-3.41248211997e-05,-0.000345942258944,-0.0459177070679,0.57378728876,0.818969190988,0.0061934135829,0.0,0.818969054641,-0.573697026784,-0.011922914933,0.0,-0.00621147662893,0.0119136604754,-0.999909737052,0.0,0.258952787749,-0.267850222122,0.304994094957,1.0,-0.0114668965517,-0.0150707783251,3.237
-0.674329948116,-0.514334265012,-0.125246603821,-2.63652456672,-0.0670095147804,2.11174033533,-0.922514312483,-0.0541442752957,0.00883665596122,-0.000654131889408,0.00800911154747,-1.99633497889e-05,0.000270560178186,-0.0477922560612,0.573772483811,0.818979564956,0.00619321452813,0.0,0.818979495936,-0.57368235994,-0.0119114244085,0.0,-0.0062023946693,0.0119067925237,-0.999909875235,0.0,0.258746780079,-0.268126276917,0.305001364555,1.0,-0.0111068965517,-0.014597635468,3.255
-0.675206474929,-0.51413942465,-0.125228910706,-2.63637477403,-0.0669844872882,2.11179228854,-0.923348481815,-0.0466815910783,0.014434867295,-0.000881925197927,0.00804850730067,-3.56505338068e-05,0.00506717599089,-0.0426039255273,0.57381305718,0.818951123605,0.00619511553117,0.0,0.818951154629,-0.573723061672,-0.0118996528454,0.0,-0.0061910726156,0.0119019023444,-0.999910003621,0.0,0.258555178652,-0.268390101933,0.305002269294,1.0,-0.0107468965517,-0.0141244926108,3.273
-0.67591983998,-0.513981593942,-0.125216505819,-2.63626608676,-0.0669722283121,2.11183502319,-0.924047824557,-0.0484209903716,0.0144643689966,-9.60406494345e-05,0.000493498448698,-0.000249261465607,0.00201550608285,-0.0444567044079,0.57382667052,0.818941599387,0.00619321359302,0.0,0.818941590831,-0.573736651355,-0.0119026299702,0.0,-0.00619440445821,0.0119021558718,-0.999909979968,0.0,0.258394990498,-0.268602555641,0.304997251495,1.0,-0.0104468965517,-0.0137302068966,3.288
-0.676763880326,-0.51378987521,-0.125190595589,-2.63612989533,-0.0669477668349,2.11185688737,-0.924922164582,-0.0458405927794,0.00930649198125,0.00195301204557,0.0037122933293,0.000380095185631,0.00082718742309,-0.0467079758776,0.573801032491,0.818959531413,0.00619741241222,0.0,0.818959394013,-0.573710649325,-0.0119309978883,0.0,-0.00621560261037,0.0119216775498,-0.99990961586,0.0,0.258205844674,-0.26884817916,0.304990736575,1.0,-0.0100868965517,-0.0132570640394,3.306
-0.677587295525,-0.513618920381,-0.125180862442,-2.6360116427,-0.0669255267398,2.11189407731,-0.925719154452,-0.0453418712302,0.00594334583744,-0.000585642648978,0.00701462165088,0.00312889815378,-0.000194957663932,-0.0385799286584,0.573831467323,0.81893813837,0.00620641081162,0.0,0.818938047519,-0.573740905116,-0.0119413158146,0.0,-0.00621844691067,0.0119351985174,-0.999909436876,0.0,0.258016986323,-0.269089896903,0.304984664782,1.0,-0.00972689655173,-0.0127839211823,3.324
-0.678238642877,-0.513469165698,-0.125161046704,-2.63591406191,-0.0669056506892,2.11191549953,-0.92636110639,-0.0448253979901,0.00736185734525,0.00231371803664,0.00646570843517,0.000385181702286,0.000114980739427,-0.0423152474717,0.573838734008,0.818933011327,0.00621105555522,0.0,0.818932810748,-0.573747824465,-0.0119679699105,0.0,-0.00623750611718,0.011954352044,-0.99990908936,0.0,0.257869734609,-0.269277844943,0.304975924211,1.0,-0.00942689655173,-0.012389635468,3.339
-0.678858967167,-0.513324159815,-0.125145365541,-2.63581498819,-0.0668864554618,2.11194486129,-0.926976807036,-0.0403822532812,0.0158504734221,0.00111639826624,0.00609463004628,0.000202483017311,0.00587127391037,-0.0405453133976,0.573844779575,0.818928743828,0.00621517398946,0.0,0.818928513935,-0.573753692481,-0.0119806648302,0.0,-0.00624545201808,0.0119650555321,-0.999908911739,0.0,0.257731370961,-0.269460296618,0.30497019081,1.0,-0.00912689655173,-0.0119953497537,3.354
-0.67953184983,-0.513172422337,-0.125121373078,-2.63571476182,-0.0668675217255,2.11197162973,-0.927670445834,-0.0403265649404,0.0101650382257,-0.00102652274502,0.00664224132745,-0.000119491059284,0.00182900565892,-0.0395906185533,0.573824100702,0.818943222993,0.00621658021134,0.0,0.818942878363,-0.57373275736,-0.0120013337633,0.0,-0.00626187580688,0.0119779092577,-0.999908655129,0.0,0.257580276559,-0.269654276512,0.304962459099,1.0,-0.00878689655173,-0.0115484926108,3.371
-0.680211130726,-0.513008270226,-0.125073056417,-2.63561425228,-0.0668400080782,2.11199449413,-0.92839874917,-0.0398719608233,0.0067291959027,0.000148361692566,0.00483155321425,0.00676187554735,-4.26961139478e-05,-0.0375195713839,0.573766701348,0.818983450165,0.00621511719107,0.0,0.818982854118,-0.573674932869,-0.0120375645065,0.0,-0.00629323033795,0.0119970590755,-0.999908228702,0.0,0.257432806555,-0.269843070239,0.304950501086,1.0,-0.00842689655173,-0.0110753497537,3.389
-0.680815523031,-0.512864913606,-0.125039958091,-2.63552878547,-0.0668183866389,2.11201674481,-0.928995803988,-0.0390595575549,0.00891855898532,-0.000622508794967,0.00612600601818,0.000581889633732,0.0010065630356,-0.0285350493295,0.573762977814,0.818986052606,0.00621593340387,0.0,0.818985264917,-0.573670821447,-0.0120694395006,0.0,-0.00631892465081,0.0120159867589,-0.99990783938,0.0,0.257298448653,-0.27001265562,0.304938981747,1.0,-0.00810689655173,-0.0106547783251,3.405
-0.681400124585,-0.512739860279,-0.125018599943,-2.63546042915,-0.0667960968014,2.11203827943,-0.92955928486,-0.0374898151446,0.00685272260228,0.000623066857255,0.00543877567195,0.000899750210342,-0.000162872174124,-0.0371055334768,0.573776021825,0.818976834446,0.0062264211198,0.0,0.818975915839,-0.573683307709,-0.0121102697359,0.0,-0.00634615869265,0.0120481032946,-0.99990728044,0.0,0.257154106674,-0.270184328412,0.304922094246,1.0,-0.00776689655173,-0.0102079211823,3.422
-0.682039692244,-0.512590385289,-0.125007844785,-2.63536898118,-0.0667720406983,2.11205845121,-0.930157463068,-0.0342720210196,0.00955363644953,-0.00105993201746,0.00883901958271,0.000128952615098,-0.000326329962686,-0.0313115917689,0.5738197172,0.818946130624,0.00623812391581,0.0,0.818945211293,-0.573726649948,-0.0121333812426,0.0,-0.00635773008987,0.0120712875113,-0.999906927312,0.0,0.257015168089,-0.270359418833,0.304914341831,1.0,-0.00742689655173,-0.00976106403942,3.439
-0.6825641653,-0.512485921289,-0.124998041432,-2.63528365682,-0.0667533542953,2.11207974501,-0.930660312856,-0.0351852205531,0.00572514659048,-0.00084974724229,0.00280898234333,-0.000120771601575,-0.00030388727916,-0.0284654545664,0.573838948843,0.818932594006,0.00624613210259,0.0,0.818931769613,-0.573745823167,-0.012134002559,0.0,-0.00635336030838,0.0120783518354,-0.999906869778,0.0,0.256889549509,-0.27052389821,0.304913976212,1.0,-0.00710689655173,-0.00934049261084,3.455
-0.683210991439,-0.512350193275,-0.124992528282,-2.63517830437,-0.0667269408217,2.11210484063,-0.931318144407,-0.0325541698658,0.00383352905414,0.00314837318637,0.00278800796284,-0.000130683508926,0.00100031429749,-0.0320125778396,0.57384661594,0.818927123794,0.0062589288457,0.0,0.818926495109,-0.573753485596,-0.0121276657476,0.0,-0.00634071426613,0.0120852552899,-0.999906866637,0.0,0.25675011639,-0.27070546623,0.304916409526,1.0,-0.00672689655173,-0.00884106403942,3.474
-0.683683724675,-0.512247840063,-0.124970306044,-2.63509016787,-0.0667054309464,2.11212544646,-0.931816884438,-0.0274553584632,0.00403117046699,0.00278382573515,0.00649772689371,0.00124773383519,0.00151683972645,-0.0257144510714,0.573823192822,0.818943522754,0.00626073638839,0.0,0.818942975214,-0.573730169205,-0.0121178873308,0.0,-0.00633201390242,0.0120809434789,-0.999906973875,0.0,0.256649615234,-0.270844451367,0.304920852103,1.0,-0.00640689655173,-0.00842049261084,3.49
-0.684124124307,-0.512165482033,-0.124942021173,-2.63501358145,-0.0666881186985,2.11214975301,-0.93225731325,-0.0308659024261,0.00805766359283,-0.00011546017535,0.0030981553305,-0.000402289787427,0.0049626024003,-0.0257396992788,0.573814303746,0.818949791729,0.0062554252884,0.0,0.81894931156,-0.573721566636,-0.0120969406811,0.0,-0.00631803629667,0.0120645061069,-0.999907260755,0.0,0.256557239561,-0.270972065393,0.304927901136,1.0,-0.00608689655173,-0.00799992118227,3.506
-0.684573091446,-0.512070714732,-0.124898687362,-2.63494519839,-0.0666657101351,2.11217659349,-0.932699099796,-0.0204059156874,0.0106099204135,0.00441693929561,0.000767481783137,0.000364769909493,0.00142132790786,-0.0244326163091,0.573802463815,0.818958135978,0.00624907480085,0.0,0.818957597537,-0.573709804378,-0.0120938289145,0.0,-0.00631930576932,0.0120574282567,-0.999907338106,0.0,0.256464682848,-0.271096121947,0.304927201695,1.0,-0.00574689655173,-0.00755306403942,3.523
-0.685017639443,-0.512003638573,-0.124852909084,-2.63486088913,-0.0666429468032,2.11219901775,-0.933133245733,-0.0221120295086,0.000132932275028,0.0028161723189,0.00867146294458,0.00043466582554,0.000508344236696,-0.0244455579849,0.573792266362,0.818965369291,0.00623745667202,0.0,0.818964953952,-0.573700184589,-0.0120519418254,0.0,-0.00629181408055,0.0120238009257,-0.999907916404,0.0,0.256377304736,-0.271222521263,0.304943662016,1.0,-0.00540689655173,-0.00710620689656,3.54
-0.68540608771,-0.511937975071,-0.124830259055,-2.63480974464,-0.06662531171,2.11222190086,-0.933524357438,-0.0253762025106,0.00548290685167,-1.57480567902e-05,0.00393828844252,0.000300124552326,0.00139413318795,-0.023176851656,0.573784122561,0.818971069865,0.00623813454343,0.0,0.818970731762,-0.573692170372,-0.0120408086007,0.0,-0.00628242591264,0.0120179057917,-0.999908046305,0.0,0.256292113096,-0.271331252969,0.304945076404,1.0,-0.00508689655173,-0.00668563546799,3.556
-0.685792064154,-0.511865256853,-0.124811603055,-2.63476066259,-0.0666106658779,2.11224456377,-0.93390084166,-0.0221364762498,0.00185700561342,0.000794983752917,0.00142048515539,0.000347394303437,0.00523508501479,-0.0225241582337,0.573787439285,0.818968739502,0.00623900139692,0.0,0.818968421874,-0.573695500177,-0.0120392671052,0.0,-0.00628061730001,0.0120177567503,-0.999908059458,0.0,0.256205716831,-0.271439763877,0.304942827066,1.0,-0.00474689655173,-0.00623877832513,3.573
