nelsonifechukwu/NELSON_IML_WORK/CNN-GradCAM/train2dof/data_sample_2022-02-22-07-34-45/robot_state.csv
position_joint1,position_joint2,position_joint3,position_joint4,position_joint5,position_joint6,position_joint7,velocity_joint1,velocity_joint2,velocity_joint3,velocity_joint4,velocity_joint5,velocity_joint6,velocity_joint7,ee_T_00,ee_T_10,ee_T_20,ee_T_30,ee_T_01,ee_T_11,ee_T_21,ee_T_31,ee_T_02,ee_T_12,ee_T_22,ee_T_32,ee_T_03,ee_T_13,ee_T_23,ee_T_33,v_x,v_y,time
0.465090381496,0.547667002582,-0.124024850803,-1.35580762212,0.0795185261055,1.89415785774,0.159129377086,0.000159702157447,0.00110119024524,0.000681463543426,0.000631648083942,-0.000246247773004,0.00024477972228,0.0013555956162,0.573800239918,0.818980816165,0.00211052726359,0.0,0.818939901991,-0.573741163191,-0.0118009105209,0.0,-0.00845398572812,0.00849992392839,-0.999928138127,0.0,0.661701499794,0.260887067537,0.303312830466,1.0,-0.0,-0.0,0.001
0.465088562189,0.547664956124,-0.124027819972,-1.35580261082,0.0795224904317,1.89415633606,0.159133711196,0.000451443263407,-0.000548980134234,-0.00112594293267,-0.000230039743595,3.29982602859e-05,5.84832389542e-05,0.000994855806905,0.573804632844,0.818977714586,0.00211972625699,0.0,0.8189368789,-0.573745478098,-0.0118009169473,0.0,-0.00844866729982,0.00850750661708,-0.999928118593,0.0,0.661702153406,0.260890184387,0.30331737299,1.0,-0.00016,-0.000210285714286,0.009
0.465091694394,0.547666197054,-0.124025114846,-1.35581038946,0.0795198611019,1.89415785903,0.159128916573,0.00151946212326,-0.000794348822209,0.000747701997108,0.000250438847874,0.000227757236087,0.000692509903809,-0.000284981931174,0.573795992989,0.818983785963,0.00211273776457,0.0,0.818942862394,-0.573736869748,-0.0118042079734,0.0,-0.00845546217857,0.00850358246828,-0.999928094537,0.0,0.661699349562,0.260892558728,0.303312829206,1.0,-0.00036,-0.000473142857143,0.019
0.465083306714,0.547657939763,-0.124028642534,-1.35581608288,0.0795198493464,1.89415627398,0.159123503977,-0.00134945802164,-0.000759591320621,-0.00131325162227,-0.00159545097327,0.000144457936128,-0.000454965502903,-0.00100331343158,0.573801176599,0.818980152957,0.00211321973071,0.0,0.818939245838,-0.573742061071,-0.0118027914275,0.0,-0.00845397164999,0.00850321789412,-0.99992811024,0.0,0.661700945692,0.260884290149,0.303315947919,1.0,-0.00066,-0.000867428571429,0.034
0.465085372589,0.547603056001,-0.124028036974,-1.35586102626,0.0795203037924,1.89416096743,0.159129299827,0.000426958970223,-0.00646490008026,0.000322236633182,-0.00646363590915,-0.00011540313516,-0.000760320021488,0.000367027401436,0.5738063164,0.818976511852,0.00212866035035,0.0,0.818935760275,-0.573747094125,-0.0117999757166,0.0,-0.00844275281107,0.0085143006086,-0.999928110721,0.0,0.661692327051,0.260881787993,0.303333824563,1.0,-0.00102,-0.00134057142857,0.052
0.465081244207,0.547483852971,-0.124022503704,-1.3559948587,0.0795176167597,1.89419525445,0.159130808811,-0.00126015851106,-0.00801390123308,0.00139818305944,-0.0118937446759,-0.000279402473594,0.000150813886619,0.000700630854117,0.573813687617,0.818971288765,0.00215104215922,0.0,0.818930734614,-0.573754282347,-0.0117992497349,0.0,-0.00842923940045,0.00853228981013,-0.99992807139,0.0,0.661671591968,0.260869832941,0.303357356059,1.0,-0.00134,-0.00176114285714,0.068
0.465068843657,0.547327647398,-0.124024840123,-1.35619973254,0.0795170916653,1.89424741483,0.159124470747,0.000304061343268,-0.00940198187063,0.000592426826176,-0.013024529504,8.51156946564e-05,0.00249447092175,-0.000399452659399,0.573831417259,0.818958839094,0.00216132775428,0.0,0.818918295318,-0.573771844636,-0.0118085900305,0.0,-0.00843080248935,0.00854625533509,-0.999927938948,0.0,0.661642949212,0.260841463638,0.303375097679,1.0,-0.0017,-0.00223428571429,0.086
0.465043758515,0.547159559747,-0.124028302723,-1.3563983131,0.0795106627746,1.89434744722,0.159118533394,-0.00178638458659,-0.00628300982221,-0.000369211960917,-0.0125552722517,-0.00188405880119,0.00331780166882,-3.26890437199e-05,0.573859041253,0.818939318989,0.00222249577088,0.0,0.818899577793,-0.573799235675,-0.0117756328918,0.0,-0.00836842352451,0.0085777193975,-0.999928193531,0.0,0.661629508149,0.260807258556,0.303408432639,1.0,-0.00202,-0.00265485714286,0.102
0.465028969503,0.546967151644,-0.124031079319,-1.35661843501,0.0795070865397,1.89447734273,0.15909661301,-0.00115822719307,-0.013800747134,0.000947181654974,-0.0152790318201,-7.90953563176e-05,0.0028699058359,-0.000738918789996,0.573874655832,0.818928105418,0.00232044204329,0.0,0.818889613084,-0.573814453344,-0.0117269611564,0.0,-0.00827219416493,0.00863015784188,-0.999928543037,0.0,0.661614126559,0.260778207886,0.303453986747,1.0,-0.00238,-0.003128,0.12
0.465003843819,0.54677554013,-0.124028303695,-1.35685960734,0.0795039309964,1.89457983067,0.159074432804,-0.000707505474213,-0.0172578884924,-0.000183262580567,-0.0170809891889,-0.00030199703263,0.00254210903666,-0.00599115256861,0.573879901918,0.818924299358,0.00236579719156,0.0,0.818886322586,-0.573819453801,-0.0117120460382,0.0,-0.00823389717166,0.00865879350246,-0.999928611568,0.0,0.661590991001,0.260745843583,0.30348103518,1.0,-0.00266,-0.003496,0.134
0.464976109455,0.546518191485,-0.124022639194,-1.35722968341,0.0794966652758,1.89471987816,0.158996825947,7.4271723306e-05,-0.0160937626335,0.00167093857409,-0.0210396159809,6.19636298568e-05,0.00904864330348,-0.00449289363414,0.573853874534,0.818942440282,0.00239939345378,0.0,0.818904742198,-0.57379313994,-0.0117133541341,0.0,-0.0082159654975,0.0086867955791,-0.999928516192,0.0,0.661547153102,0.260698556469,0.30349910504,1.0,-0.003,-0.00394285714286,0.151
0.464936074562,0.546247383061,-0.124024251276,-1.35764769821,0.0794814920092,1.89486824406,0.158947894715,-0.000415494072798,-0.0153458065393,0.00125432099023,-0.0249430193871,0.000163526516661,0.00224434673894,0.000276614815645,0.573867041378,0.818933195524,0.00240561639878,0.0,0.818895488859,-0.573806187721,-0.0117210989034,0.0,-0.00821859763857,0.00869646820024,-0.999928410484,0.0,0.661499623367,0.260632687097,0.303504820029,1.0,-0.00334,-0.00438971428571,0.168
0.464901832509,0.545957510556,-0.124026853587,-1.35814657148,0.079462884203,1.89502667681,0.158911241855,-0.00242340059729,-0.01391049927,9.55084372193e-05,-0.0298720893345,-0.000281228832709,0.00995176554638,-0.00283891176393,0.573889750141,0.818917391737,0.00236793025755,0.0,0.818879067802,-0.573828898877,-0.0117564463368,0.0,-0.00826893076047,0.00868611980742,-0.999928085468,0.0,0.661434918687,0.260560850365,0.30348642831,1.0,-0.00368,-0.00483657142857,0.185
0.464844800879,0.545640950078,-0.124026489663,-1.35866562165,0.0794230937514,1.89519717674,0.158807064846,-0.00309432749227,-0.0186593974521,0.000870181977365,-0.031624480954,-0.00303396799289,0.00962890705043,-0.0018993850985,0.573869240492,0.81893185393,0.00233673650539,0.0,0.818893159137,-0.573808545203,-0.0117683589588,0.0,-0.00829680438433,0.008667203627,-0.999928018718,0.0,0.661375090574,0.260471005543,0.303478220579,1.0,-0.004,-0.00525714285714,0.201
0.464792903736,0.545286024864,-0.124028994377,-1.35929296497,0.0793599564074,1.89540328781,0.158744530291,-0.00352712995929,-0.0249762123273,0.000597880457847,-0.0397439317772,-0.00267645218951,0.0137764982374,0.000691054912618,0.573880489133,0.818924173025,0.00226493469402,0.0,0.818884735516,-0.57382026322,-0.0117831387627,0.0,-0.00834999250785,0.00861699978851,-0.999928009879,0.0,0.661299072858,0.260369181117,0.303448749628,1.0,-0.00434,-0.005704,0.218
0.464719834794,0.544834442646,-0.124028624642,-1.36007048975,0.0793320667392,1.89564405094,0.158657784226,-0.00287603427661,-0.0221746994513,0.000662324364175,-0.0385455671542,-0.00466329965006,0.00810590814083,-0.00410019298275,0.573904814837,0.81890729433,0.00220311161045,0.0,0.818866808745,-0.57384457566,-0.0118448057319,0.0,-0.00843571658019,0.00860201162946,-0.999927419407,0.0,0.661200796133,0.260246524944,0.303419164092,1.0,-0.00472,-0.00620342857143,0.237
0.464659027711,0.544439300622,-0.124034426878,-1.36076077883,0.0793048631244,1.89586795143,0.158564981537,-0.00365961395493,-0.0275263674147,-0.000747804830273,-0.0419473304248,0.000221092978274,0.0212771587524,-0.00744126914682,0.573913842069,0.818901112374,0.00214870575426,0.0,0.818859763054,-0.573853660667,-0.01189165637,0.0,-0.00850521171826,0.00858444015774,-0.999926981715,0.0,0.661115813601,0.260136989761,0.303389856699,1.0,-0.00504,-0.006624,0.253
0.464583544521,0.543974482181,-0.1240329873,-1.36153171787,0.0792701056241,1.89614185933,0.15847794989,-0.000908369707412,-0.0243076471546,-0.000409680330461,-0.0491180775121,-0.00138774278395,0.0143237244651,-0.00277057497404,0.573934498647,0.818886691234,0.00212722427121,0.0,0.818844910176,-0.573874248655,-0.0119208519469,0.0,-0.00854123222236,0.00858382021804,-0.999926680003,0.0,0.661018884036,0.260013967048,0.303374908775,1.0,-0.0054,-0.00709714285714,0.271
0.46451102007,0.54349355584,-0.124037873393,-1.36232066057,0.0792270794489,1.89641355443,0.158370873647,-0.00392926109087,-0.0287040722925,-0.000191962198917,-0.0488017865031,0.000497179262787,0.0190558701157,-0.00217509415586,0.573944646105,0.818879655559,0.00209757482635,0.0,0.818837447046,-0.57388447506,-0.0119411682939,0.0,-0.00857477924247,0.00857130745057,-0.999926500224,0.0,0.66093422341,0.259888831489,0.303363967704,1.0,-0.0057,-0.00749142857143,0.286
0.464435427682,0.542994038315,-0.124035335286,-1.36312450883,0.0791749803181,1.89669531296,0.158296413993,-0.00257828200964,-0.0266286077075,0.00158638346617,-0.0495705269708,-0.00597709460414,0.0243986869985,-0.00112681606621,0.573974588877,0.818858721774,0.00207653553485,0.0,0.81881623033,-0.573914492261,-0.0119533853936,0.0,-0.00859654555725,0.00856140529935,-0.999926398163,0.0,0.660840421161,0.259762166718,0.303359030306,1.0,-0.00602,-0.007912,0.302
0.464349602104,0.542384247601,-0.124039273829,-1.3640729428,0.0791202483425,1.8970311589,0.158148398672,-0.00702921583128,-0.0360501949059,0.00166048061027,-0.047389321834,9.60305869183e-05,0.0111580546515,-0.00643058105043,0.57396448218,0.818865809315,0.00207519452457,0.0,0.818823265794,-0.573904357938,-0.011958019709,0.0,-0.00860121590567,0.00856286100957,-0.999926345536,0.0,0.660731160179,0.259612526478,0.303368113531,1.0,-0.00638,-0.00838514285714,0.32
0.464279851849,0.541849115703,-0.124045074509,-1.36490081933,0.0790682449489,1.89733868823,0.158045415191,-0.00362898734352,-0.0370858429613,-0.00118473679366,-0.0551794144998,-0.00149608402086,0.0109674527228,-0.000682169042067,0.573976511056,0.81885734442,0.00208833569202,0.0,0.818815052459,-0.573916410997,-0.011941941073,0.0,-0.00858038122787,0.00856451926507,-0.999926510334,0.0,0.660632407993,0.259475924951,0.303382899962,1.0,-0.0067,-0.00880571428571,0.336
0.464183144567,0.541170375982,-0.124053160376,-1.36593739717,0.0790094685538,1.89772276381,0.157907361107,-0.00262811647185,-0.0389693624347,-0.00181973306331,-0.0635232529196,-0.00211011377199,0.0204832480596,-0.00934928988077,0.573987117526,0.818849860742,0.00210745771628,0.0,0.818807780329,-0.57392689986,-0.011936473146,0.0,-0.00856481759898,0.00857714972604,-0.999926535503,0.0,0.660523573032,0.259318132099,0.303399343332,1.0,-0.00704,-0.00925257142857,0.353
0.464098454556,0.54042311691,-0.124056952006,-1.36706029011,0.078946166513,1.89812714733,0.157769407808,-0.00673831220141,-0.0430302102783,0.000289832523241,-0.0630677652678,-0.00278968574458,0.0287378441286,-0.012408443545,0.573991394384,0.818846793414,0.00213424209715,0.0,0.818805018378,-0.573931022777,-0.0119276936071,0.0,-0.00854221037736,0.00859408708773,-0.99992658346,0.0,0.660390985861,0.259153714176,0.303428230905,1.0,-0.0074,-0.00972571428571,0.371
0.463991553005,0.539649410654,-0.124054810837,-1.36824295019,0.0788711713872,1.89857021833,0.157622270784,-0.00464743274299,-0.0444203430781,-0.0010260764845,-0.0709635352735,0.000146475705567,0.0224891612922,-0.00760352830854,0.574002398759,0.818839007855,0.00216155843417,0.0,0.818797609862,-0.573941936152,-0.0119111255392,0.0,-0.00851284908488,0.00860705922347,-0.999926722281,0.0,0.660257823473,0.258972064473,0.303450381081,1.0,-0.00776,-0.0101988571429,0.389
0.4638966045,0.538947045475,-0.124063450941,-1.36933544413,0.0788045088364,1.89897484804,0.157479215927,-0.00343656999277,-0.0372241451687,-0.000472362940497,-0.0664469821606,-0.00465361820282,0.0303308256011,-0.00288269007529,0.574011665191,0.818832486807,0.00217110009075,0.0,0.81879125218,-0.573951202463,-0.0119016572819,0.0,-0.00849952176364,0.00860953363703,-0.999926814352,0.0,0.660134636877,0.258800571445,0.303461947706,1.0,-0.00808,-0.0106194285714,0.405
0.463796004835,0.538159414848,-0.124069814723,-1.37052896523,0.0787514889528,1.89944002595,0.157336753658,-0.00410709761561,-0.0490456587098,-0.00157767433646,-0.0672159323946,-0.00227954080709,0.0287091702615,-0.00790146412447,0.574033735146,0.818816857707,0.00222965246809,0.0,0.818776273598,-0.573972921278,-0.0118847101011,0.0,-0.00845180356259,0.00864797757005,-0.999926887077,0.0,0.660002359966,0.258622112659,0.30349074538,1.0,-0.00842,-0.0110662857143,0.422
0.463698242024,0.537410205014,-0.124078939643,-1.37170281616,0.0786821640727,1.89988358213,0.157192626159,-0.0049697074438,-0.0487222483558,-0.00112674168929,-0.0734105745896,-0.00434477604105,0.027638418308,-0.00485761167795,0.574048448333,0.818806505111,0.00224344744408,0.0,0.818766132646,-0.573987610714,-0.0118739074865,0.0,-0.00843488405051,0.00865322355724,-0.999926984561,0.0,0.659869866698,0.258441665234,0.30349982612,1.0,-0.00874,-0.0114868571429,0.438
0.463587941351,0.536586517349,-0.124072033102,-1.37300420315,0.0785992478033,1.90037160963,0.157034695784,-0.0042873631094,-0.0460955407238,0.00135313677223,-0.0713434451112,-0.000515696565776,0.0291927167235,-0.0121324763474,0.574054124028,0.818802506791,0.00225043550649,0.0,0.818762224136,-0.57399325688,-0.0118704795682,0.0,-0.00842800588671,0.00865703600565,-0.999927009558,0.0,0.659718708221,0.258248921665,0.303503970903,1.0,-0.00908,-0.0119337142857,0.455
0.46347438176,0.53572414215,-0.124080471783,-1.37436230318,0.0785175242365,1.90085508071,0.156873602925,-0.00189591693853,-0.0526237716793,-0.000177076007437,-0.0852739287278,-0.00372154759453,0.0222060586178,-0.0144408864305,0.574073810916,0.818788737914,0.0022381214076,0.0,0.818748291253,-0.574012986225,-0.0118774625136,0.0,-0.00844058429583,0.00865116480902,-0.999926954274,0.0,0.659558474456,0.258038801626,0.303508381165,1.0,-0.00942,-0.0123805714286,0.472
0.463368881774,0.53492628889,-0.124082258866,-1.375614556,0.0784520742909,1.90130107626,0.156716797396,-0.00735250295741,-0.0523902041781,7.25031346804e-05,-0.08259556765,-0.000149568193523,0.0222046235336,-0.00794978208209,0.574084184268,0.81878146964,0.00223634718767,0.0,0.818740878714,-0.574023241184,-0.0118928131218,0.0,-0.00845406251183,0.0086586314867,-0.999926775783,0.0,0.659408840053,0.25784967854,0.303514037271,1.0,-0.00972,-0.0127748571429,0.487
0.463243848952,0.534037508058,-0.124090512608,-1.37708245154,0.0783711000509,1.9018354407,0.156542063399,-0.00673517382862,-0.0582602684318,-0.00396874642226,-0.0846282147603,-0.0116604267818,0.0283421757395,-0.0162108042193,0.574108114488,0.818764792178,0.00219883372593,0.0,0.818723646485,-0.574047251369,-0.0119201838139,0.0,-0.00849775597466,0.00864387784128,-0.999926533061,0.0,0.659236168126,0.257623012719,0.303488931642,1.0,-0.01006,-0.0132217142857,0.504
0.463094330141,0.533014161059,-0.124083363161,-1.37872712768,0.0782746868814,1.90245524258,0.156337445996,-0.00583336754675,-0.0553119693657,0.000568569025311,-0.0833905014593,-0.00251887880895,0.0228451177817,-0.0105787775738,0.574122230897,0.81875489321,0.00219903072672,0.0,0.818713680496,-0.574061294426,-0.0119283910125,0.0,-0.00850421381661,0.00864889751698,-0.999926434754,0.0,0.659046186607,0.257373256153,0.303481280659,1.0,-0.01044,-0.0137211428571,0.523
0.462968076989,0.53212901948,-0.124089030411,-1.38019353691,0.078198487497,1.90301291666,0.156155264947,-0.00769797294344,-0.0554263427187,-0.000828223832355,-0.0902339734632,-0.00723730265881,0.0425867800442,-0.012368510962,0.57414031254,0.818742259911,0.00218180063865,0.0,0.818700733575,-0.574079353396,-0.0119478763962,0.0,-0.00852986884828,0.00864616573716,-0.999926239857,0.0,0.658877079925,0.257149804321,0.303455894655,1.0,-0.01076,-0.0141417142857,0.539
0.462854079291,0.531251737579,-0.124094896328,-1.38159375261,0.0781155060275,1.90351314841,0.15597433952,-0.000783016004591,-0.0607774661969,-0.000612107051612,-0.0960469164868,-0.00669999589984,0.0358621092159,-0.0149038976881,0.574143627325,0.818739988363,0.00216184162856,0.0,0.818698167262,-0.574082714527,-0.0119622198788,0.0,-0.00855303652635,0.00863809440139,-0.999926111716,0.0,0.658708638939,0.256937115428,0.303451285723,1.0,-0.01106,-0.014536,0.554
0.462715876956,0.530220323809,-0.124094355528,-1.38323654227,0.0780059916956,1.90408807074,0.155768949512,-0.00696889928862,-0.0618695574399,-0.00117047431899,-0.100173107062,-0.00309980026619,0.0315782709961,-0.0102619986219,0.574147981456,0.818737029707,0.00212567103004,0.0,0.818694751463,-0.574087232074,-0.0119791818504,0.0,-0.00858764450736,0.00861826472284,-0.999925986198,0.0,0.658508366257,0.256686253416,0.303445870096,1.0,-0.0114,-0.0149828571429,0.571
0.462574888994,0.529179363943,-0.124095312245,-1.38489027923,0.0779071313657,1.904700413,0.155541857372,-0.0100914362861,-0.0650831124191,-0.000581955131277,-0.098208451738,0.000596958046382,0.0388449767474,-0.0118121191376,0.574141433859,0.81874162308,0.00212496206403,0.0,0.818699302999,-0.574080655544,-0.0119832841837,0.0,-0.00859147934028,0.00861997088545,-0.99992593855,0.0,0.658313259586,0.256435779475,0.303445047453,1.0,-0.01174,-0.0154297142857,0.588
0.462441400063,0.528093684538,-0.12409861145,-1.3865986785,0.0778008230749,1.90534778143,0.155301265634,-0.00547276529223,-0.0631415701056,-0.000940617662578,-0.104159082329,-0.00513891842603,0.037278479386,-0.012199327803,0.574120174418,0.818756485166,0.00214248150722,0.0,0.81871443073,-0.574059363581,-0.0119697493602,0.0,-0.00857056335386,0.00862632120137,-0.99992606328,0.0,0.658112071681,0.256184174489,0.303452547218,1.0,-0.01208,-0.0158765714286,0.605
0.462306831606,0.527008340127,-0.124094427799,-1.38826017337,0.0776882868191,1.90598021369,0.155064818226,-0.0073978196622,-0.0710640282902,-0.000253022151443,-0.107479931866,-0.0061868099526,0.0404359841042,-0.0050818135208,0.574093392942,0.818775152934,0.0021844952295,0.0,0.818733737251,-0.574032505323,-0.0119372200065,0.0,-0.00852009190516,0.00864176545986,-0.99992636125,0.0,0.657917302169,0.255939792611,0.303480296983,1.0,-0.0124,-0.0162971428571,0.621
0.462147438148,0.525768255293,-0.124109944951,-1.39017398582,0.0775723057162,1.90669452998,0.15482070243,-0.0134470289337,-0.0703417870151,-0.0020817105698,-0.102363653401,-0.00781294641793,0.0498484453792,-0.00805336994093,0.574107051098,0.818765494368,0.00221495234292,0.0,0.818724536368,-0.574046100434,-0.0119144881326,0.0,-0.00848385035131,0.00865379408952,-0.999926565369,0.0,0.657694271124,0.255644718049,0.303504299365,1.0,-0.01276,-0.0167702857143,0.639
0.461997047939,0.524678398483,-0.12410812186,-1.39189710049,0.0774584551444,1.907309529,0.154581091586,-0.0061655793031,-0.0708678137088,-0.000566424622426,-0.108587016405,-0.0103060471889,0.0438955294187,-0.0209967110763,0.57409462249,0.818774262564,0.00219506084754,0.0,0.818733057977,-0.574033766414,-0.0119231578515,0.0,-0.00850249943095,0.00864235607794,-0.999926505892,0.0,0.657485264668,0.255379996757,0.303503911524,1.0,-0.01308,-0.0171908571429,0.655
0.461843438349,0.523491773614,-0.124114188335,-1.39379950623,0.0773512883183,1.90799215994,0.154314733556,-0.0119273524531,-0.0723949339275,-0.00143030614062,-0.112474129215,-0.00118487299675,0.0433580393463,-0.0166849724939,0.574079864938,0.818784677141,0.00216980505831,0.0,0.818743031306,-0.574018999752,-0.0119492055588,0.0,-0.00853848147857,0.00863647736306,-0.999926250077,0.0,0.657251850631,0.255094239076,0.303492108542,1.0,-0.01342,-0.0176377142857,0.672
0.461671669499,0.522187731778,-0.124114596308,-1.39585961838,0.0772219185887,1.90878502172,0.15404818898,-0.00804773350923,-0.0691456316363,-0.00172534591108,-0.115516068166,-0.0154049317954,0.0433646310084,-0.00598997256444,0.574078256124,0.818785734236,0.00219639672714,0.0,0.818744486938,-0.574017335596,-0.011929394149,0.0,-0.00850701173636,0.00864685997998,-0.999926428576,0.0,0.657010316513,0.254786571721,0.303496775632,1.0,-0.01378,-0.0181108571429,0.69
0.461524605578,0.521084202319,-0.124120540153,-1.39761735251,0.0771064274715,1.90947573708,0.153795086281,-0.00999586247115,-0.0784027081866,-0.00190627240732,-0.121444104985,-0.0119864443856,0.0436230183328,-0.0165175261101,0.574058696734,0.818799387378,0.00221874610787,0.0,0.818758563394,-0.573997823258,-0.0119021285762,0.0,-0.00847206326385,0.00864930432051,-0.999926704153,0.0,0.656807935905,0.254520521061,0.303495473606,1.0,-0.01408,-0.0185051428571,0.705
0.461349398449,0.519802997821,-0.12411847888,-1.39966384334,0.0769795988827,1.91022403055,0.153529481868,-0.0157512688878,-0.0767350347842,0.00147894593026,-0.123670422138,-0.0135609708749,0.0363282199361,-0.0154181614448,0.574054571983,0.81880233688,0.00219736358304,0.0,0.818761194401,-0.573993744285,-0.0119178423618,0.0,-0.00849724782419,0.00864077428944,-0.999926564203,0.0,0.656541395871,0.254194091645,0.303484684316,1.0,-0.01444,-0.0189782857143,0.723
0.461157240095,0.518293061846,-0.124132572855,-1.40198290258,0.0768303126792,1.91105541204,0.153214571594,-0.0134183486346,-0.0795310576079,-0.00125779912062,-0.12204197725,-0.00963239549081,0.0427383188272,-0.0098555969834,0.57405025516,0.818805315557,0.00221510001081,0.0,0.818764473937,-0.573989427817,-0.0119004148961,0.0,-0.00847284211499,0.00864524785051,-0.999926732634,0.0,0.656276485208,0.253853397169,0.303514495973,1.0,-0.0148,-0.0194514285714,0.741
0.46098221984,0.517006436366,-0.124130587536,-1.40399906011,0.0766983775982,1.91177319309,0.152937762089,-0.00922566181994,-0.0779749723814,-0.00105195752362,-0.123994725735,-0.00848232560808,0.0486196044776,-0.0132155925586,0.574036476414,0.818815012549,0.0022013340828,0.0,0.818773988007,-0.573975702358,-0.0119078363656,0.0,-0.00848696630726,0.00863809382502,-0.999926674681,0.0,0.656027393996,0.253544738518,0.303519721572,1.0,-0.01512,-0.019872,0.757
0.460791009985,0.515586274997,-0.124138681573,-1.40627997346,0.0765491848171,1.91264413861,0.152618007836,-0.0112703619436,-0.0829425258662,6.94130092224e-05,-0.128599496302,-0.0111774457776,0.0489520999616,-0.0186653650341,0.574017406879,0.818828384935,0.00219989236349,0.0,0.81878746351,-0.573956765075,-0.0118940457398,0.0,-0.00847670236182,0.00862879971232,-0.99992684199,0.0,0.655756206097,0.253197519203,0.303505839183,1.0,-0.01548,-0.0203451428571,0.775
0.460605646254,0.514189020032,-0.124142836021,-1.40850607851,0.0764181619275,1.91345131837,0.152317245756,-0.0117250571059,-0.0800139274145,-0.000893328356186,-0.133203657092,-0.00613221782563,0.0406197822731,-0.0170431944321,0.5740077592,0.818835194158,0.0021826790393,0.0,0.818793958768,-0.573947096602,-0.0119134498715,0.0,-0.00850257344211,0.0086257431487,-0.99992664871,0.0,0.655480437806,0.252861329581,0.303495887564,1.0,-0.01582,-0.020792,0.792
0.460422986436,0.512860805034,-0.124142296602,-1.41064885252,0.0762844818878,1.91419844201,0.152009492767,-0.0146089989476,-0.0809695204262,0.000722670030298,-0.135096449186,-0.0110024762588,0.0475631714896,-0.0252017337339,0.573981136279,0.818854009248,0.00212453188326,0.0,0.818811923891,-0.573920621095,-0.011954115499,0.0,-0.00856952773534,0.00860119443565,-0.999926288608,0.0,0.655208220372,0.252534244875,0.303471441245,1.0,-0.01614,-0.0212125714286,0.808
0.460252837483,0.511618668634,-0.124140620482,-1.41267570643,0.0761647147779,1.91493246314,0.151739712311,-0.0094834887905,-0.0793432371414,0.00110623372875,-0.139905577323,-0.0042386426333,0.0537191250594,-0.0243535965884,0.573972207522,0.818860374964,0.00208283632336,0.0,0.818817630854,-0.573911751518,-0.0119889855014,0.0,-0.00862210692294,0.00858697290378,-0.999925958843,0.0,0.654953796717,0.252230018405,0.303440361924,1.0,-0.01644,-0.0216068571429,0.823
0.4600485649,0.510152870498,-0.124143392283,-1.41499278872,0.0760287076252,1.91582272047,0.151398142029,-0.0111139116425,-0.0811790102729,-0.000630170342543,-0.137143656334,-0.00223027642715,0.0516221400405,-0.0206668999476,0.573952760063,0.818873916083,0.00211794133932,0.0,0.81883160454,-0.57389213503,-0.011973623441,0.0,-0.00858958341582,0.00860669723269,-0.999926069177,0.0,0.654693833257,0.251898337215,0.303443188967,1.0,-0.01676,-0.0220274285714,0.839
0.459832489663,0.508568192346,-0.124150072407,-1.41749356147,0.0758689706491,1.9167207919,0.151049441294,-0.00693391149139,-0.0870478080422,-0.00163661358652,-0.138306950295,-0.00932036764383,0.0464862746804,-0.0207941629687,0.573929290759,0.818890420987,0.00209631246212,0.0,0.81884781999,-0.573868751281,-0.0119854454289,0.0,-0.00861192404432,0.00859552457457,-0.999925973121,0.0,0.654365122795,0.251491258239,0.303437632505,1.0,-0.01714,-0.0225268571429,0.858
0.459624064468,0.50704166529,-0.124154978656,-1.41988523701,0.075707570979,1.91759135773,0.15072216781,-0.0091281287269,-0.0964180188644,-0.000313059941898,-0.138415723151,-0.0132573620415,0.0508921101331,-0.0164108725136,0.573915647932,0.818899994417,0.00209167505926,0.0,0.818857423837,-0.573855220203,-0.0119771688896,0.0,-0.00860795061485,0.00858683361738,-0.999926082005,0.0,0.654069047753,0.251121377393,0.303442499888,1.0,-0.01748,-0.0229737142857,0.875
0.459413427599,0.505558494759,-0.124161002879,-1.4221980793,0.0755624265857,1.91846086843,0.150409738251,-0.0132922230758,-0.0935590972412,-0.00205649950898,-0.145047467334,-0.00963005843553,0.0570833102927,-0.0223612617038,0.573916999835,0.818898970674,0.00212132734485,0.0,0.818856825202,-0.573856487513,-0.0119573601172,0.0,-0.00857469752249,0.00859976119129,-0.999926256616,0.0,0.653789483014,0.25076075081,0.303454015869,1.0,-0.0178,-0.0233942857143,0.891
0.459179072457,0.503814130875,-0.124162121104,-1.42483185972,0.0753925578211,1.91946955967,0.150035532241,-0.0182224158546,-0.0998435664723,-0.00037694672744,-0.149307701022,-0.0022019481899,0.0568136574787,-0.0266771792078,0.573893065838,0.818915488783,0.00221768235341,0.0,0.818874692263,-0.573832259609,-0.0118963483748,0.0,-0.00846968933594,0.00864340220807,-0.999926775299,0.0,0.653472730857,0.250358366741,0.303506526491,1.0,-0.01816,-0.0238674285714,0.909
0.45894578654,0.502124247267,-0.124165306562,-1.42732352309,0.0752313137603,1.92039363713,0.149697641977,-0.00906862362662,-0.0999667568794,-0.000121202767499,-0.154336781531,-0.012431508973,0.0555001105533,-0.0202775494112,0.57389370658,0.818914760827,0.00231839369536,0.0,0.818875341942,-0.573832572431,-0.0118363879149,0.0,-0.00836278396974,0.00869147130078,-0.99992725844,0.0,0.653170364654,0.249967417085,0.303580606675,1.0,-0.0185,-0.0243142857143,0.926
0.458723963331,0.50051475582,-0.12416312717,-1.42975915863,0.0750831622821,1.92124911878,0.149359107763,-0.015255189511,-0.0996506899346,0.00131691665888,-0.155197525962,-0.0089982761167,0.0523663364958,-0.0237636176662,0.573880712084,0.81892378341,0.00234779987895,0.0,0.81888462243,-0.573819335953,-0.0118360354668,0.0,-0.0083457586593,0.00871521747432,-0.999927193998,0.0,0.652859803056,0.249590304406,0.303618574222,1.0,-0.01882,-0.0247348571429,0.942
0.458505169639,0.499019019843,-0.124166439943,-1.43204121715,0.0749379045778,1.92209571435,0.149030957508,-0.0137014825216,-0.101941933714,-0.00253281057743,-0.151345613275,-0.0122363840143,0.0651502292138,-0.025083405205,0.573866737299,0.818933453621,0.00239024334838,0.0,0.818894892322,-0.573805250159,-0.0118083495633,0.0,-0.00829887808611,0.00873394526169,-0.999927420777,0.0,0.652559641046,0.249203447871,0.303647587876,1.0,-0.01914,-0.0251554285714,0.958
0.458254566985,0.497350859102,-0.124168830372,-1.43468422682,0.0747719751964,1.92307862612,0.148640075483,-0.0142397616674,-0.105247255054,-0.00169947916313,-0.153454691884,-0.0118478223362,0.0553282635976,-0.0209809387264,0.57384673322,0.818947443222,0.00239977366987,0.0,0.81890897469,-0.573785179544,-0.011807023729,0.0,-0.00829253698589,0.00874078647863,-0.999927413607,0.0,0.652254311,0.248812107785,0.303639479807,1.0,-0.01946,-0.025576,0.974
0.457955555205,0.495483428612,-0.124168817369,-1.43770839533,0.0745837997549,1.92410956526,0.148199576154,-0.0143498614186,-0.09956580922,-0.000368258858689,-0.157282112516,-0.0102654469588,0.0567577461009,-0.020333179745,0.573832488846,0.818957727663,0.00229389339402,0.0,0.818917688245,-0.573771145644,-0.0118844102471,0.0,-0.00841682181985,0.00869833805586,-0.99992674533,0.0,0.651861646907,0.248322903016,0.303590734164,1.0,-0.01984,-0.0260754285714,0.993
0.45766728305,0.493773073309,-0.124179860971,-1.44050285315,0.0744048781922,1.92510092582,0.14780949896,-0.0188459254386,-0.103492413992,0.00138161604377,-0.172231721758,-0.0117726605304,0.0645107266136,-0.0218302583385,0.573849218426,0.818946240064,0.00220846070999,0.0,0.818905056718,-0.573788183047,-0.0119321405905,0.0,-0.0085047567573,0.00865593584857,-0.999926369233,0.0,0.651510442465,0.247858301836,0.303538125501,1.0,-0.024012,-0.0315586285714,1.01
0.457392168325,0.49160785267,-0.12425256607,-1.44382137755,0.0742228953223,1.92634823402,0.147333315557,-0.0169045321473,-0.143790883582,-0.00398200427831,-0.231635019741,-0.0185080172738,0.0836670719661,-0.0254533552714,0.573854725986,0.818942172212,0.00228449953271,0.0,0.818902079321,-0.573793488177,-0.0118812587915,0.0,-0.00841939502715,0.00868906521713,-0.999926804288,0.0,0.651104268118,0.247326774239,0.303575771422,1.0,-0.03118,-0.0409794285714,1.026
0.457038433212,0.489154127981,-0.124260649152,-1.44777909221,0.0740085118347,1.92779821996,0.146738446613,-0.0307074832286,-0.175429667114,-0.000181971276314,-0.286243031956,-0.019369862524,0.0955626729123,-0.0445257810356,0.573803324246,0.818978277712,0.00225224828848,0.0,0.818937405638,-0.573741852583,-0.0119398133448,0.0,-0.00848640205333,0.00869572237793,-0.999926179972,0.0,0.650595024938,0.246718780404,0.303524503842,1.0,-0.0379,-0.0498114285714,1.041
0.456504052589,0.485694407691,-0.124323506031,-1.45321078126,0.0736760791174,1.92985042374,0.145937991565,-0.0350050329935,-0.220561757554,-0.00671718247933,-0.3451978548,-0.022963974869,0.127537556725,-0.0524474154862,0.57381068376,0.818972971764,0.00230599730504,0.0,0.818932992972,-0.57374919518,-0.0118895312639,0.0,-0.00841430265563,0.00871096505201,-0.99992665661,0.0,0.64993222909,0.245821867597,0.303522587854,1.0,-0.045516,-0.0598210285714,1.058
0.45583433346,0.48134600727,-0.124435411831,-1.46005001694,0.0732692129091,1.93226263795,0.14488418385,-0.0369174577526,-0.253544525863,-0.00512206097427,-0.40718441268,-0.0300462025078,0.138404137976,-0.0556900742353,0.57380299146,0.818978573224,0.00222946023323,0.0,0.818937589875,-0.573741801877,-0.0119296089647,0.0,-0.00849112307807,0.00867120104852,-0.999926352839,0.0,0.649061550711,0.244666640816,0.303496903107,1.0,-0.05358,-0.0704194285714,1.076
0.455113230925,0.476818386082,-0.12452351005,-1.46708174433,0.0728514533416,1.93477279512,0.143851914661,-0.045258483966,-0.295127119023,-0.00497476581004,-0.451062839293,-0.0303080210661,0.166297808193,-0.0629738810776,0.573841155946,0.818951827318,0.00223140682659,0.0,0.818910783726,-0.573779866233,-0.0119390243978,0.0,-0.00849731313614,0.00867859376433,-0.999926236119,0.0,0.648167170232,0.24347742657,0.303506874176,1.0,-0.060748,-0.0798402285714,1.092
0.454230204914,0.471437494161,-0.124598767956,-1.47541256566,0.0723519436228,1.93778059691,0.14263804317,-0.0542353096758,-0.333413615794,-0.00456778617831,-0.509329241285,-0.0341981997049,0.181237731314,-0.0753599016366,0.573890674299,0.818916991995,0.00228058660096,0.0,0.818876435176,-0.5738290218,-0.0119324999187,0.0,-0.00846322310536,0.00871563685337,-0.999926203041,0.0,0.64710418737,0.2420702002,0.303526092607,1.0,-0.068364,-0.0898498285714,1.109
0.45317307672,0.465013786258,-0.124652493847,-1.48507734214,0.0717465859961,1.94139151433,0.141067283894,-0.0610015194368,-0.370614280057,4.53310190702e-05,-0.557120739115,-0.0411068615566,0.196369316595,-0.092107531787,0.573803894589,0.818976880761,0.00258964000421,0.0,0.818940461853,-0.573741190512,-0.0117606611544,0.0,-0.00814608328627,0.00886924491488,-0.999927486282,0.0,0.645886526126,0.240444550354,0.303673687696,1.0,-0.076428,-0.100448228571,1.127
0.452091082151,0.458787024061,-0.124698672053,-1.49474627103,0.0711242596089,1.94470754479,0.139611657587,-0.0694007282352,-0.404618029224,-0.00223413725224,-0.615849545401,-0.0367042201283,0.210726539909,-0.0974015403707,0.573813028433,0.818970821672,0.00247962726248,0.0,0.818932634551,-0.573750371465,-0.0118574116967,0.0,-0.00828834671358,0.00883475509826,-0.999926622513,0.0,0.644591972949,0.238785169798,0.30364888677,1.0,-0.083596,-0.109869028571,1.143
0.450760908854,0.451101039258,-0.12481975526,-1.50645469431,0.070324293863,1.94880263441,0.137744868364,-0.0717813514972,-0.449381717103,-0.00759988652688,-0.659534097256,-0.0482054504684,0.25229965905,-0.110678949876,0.573779930954,0.818993944839,0.00250121020756,0.0,0.81895641401,-0.573717597765,-0.0118007147486,0.0,-0.00822988406288,0.00881956523991,-0.999927239492,0.0,0.643043215451,0.236727987178,0.303714801098,1.0,-0.09166,-0.120467428571,1.161
0.449461289139,0.443725915413,-0.124875887775,-1.51750489546,0.0696024689467,1.95287910363,0.136074031629,-0.0811358619424,-0.468708322234,-0.00392173924246,-0.702706229652,-0.0419011769871,0.245057730326,-0.114849955746,0.573818614226,0.818965779417,0.00282789919363,0.0,0.818932681962,-0.573755328646,-0.0116117253413,0.0,-0.00788723531698,0.00897905608971,-0.999928581485,0.0,0.641600823052,0.234816422759,0.303863249382,1.0,-0.098828,-0.129888228571,1.177
0.448023902333,0.435957014035,-0.124916713664,-1.5294998785,0.0687940354387,1.95695196052,0.13412923727,-0.0931997431428,-0.501690109479,-0.0036460039064,-0.758215987433,-0.0484553028713,0.266637738692,-0.130023612407,0.57374043915,0.819021014302,0.00268951968375,0.0,0.818985741986,-0.573677216616,-0.0117282761357,0.0,-0.00806294368714,0.00893183653989,-0.999927602997,0.0,0.639936511536,0.232711668946,0.303817863843,1.0,-0.105996,-0.139309028571,1.193
0.446168292847,0.426045794304,-0.124962937393,-1.54442196893,0.0677499882912,1.96227332797,0.131684298302,-0.0996306620586,-0.525480001806,-0.00806026672548,-0.790468895016,-0.0594449186043,0.280742870304,-0.128215571513,0.573647658926,0.819085218944,0.00291794768499,0.0,0.819053183067,-0.573583976165,-0.0115781041731,0.0,-0.0078099163213,0.00903188058481,-0.999928712629,0.0,0.637904394311,0.230073473211,0.303929544354,1.0,-0.114508,-0.150496228571,1.212
0.444424001772,0.417229512791,-0.12506023605,-1.55782151065,0.0667915727972,1.96681209057,0.129496924767,-0.110915363348,-0.56851048429,-0.0127271821276,-0.852104310515,-0.0633089463462,0.29589915768,-0.129807358337,0.573653892925,0.819081126432,0.00284013298324,0.0,0.819048209212,-0.573590612272,-0.0116011810154,0.0,-0.00787338638431,0.00898144140643,-0.999928669205,0.0,0.636025907067,0.227609939073,0.30393393977,1.0,-0.121676,-0.159917028571,1.228
0.442545147695,0.407957526343,-0.1251382461,-1.5718241312,0.065829485018,1.97171713238,0.127148262898,-0.121460142764,-0.573448343601,-0.002558013497,-0.900861466008,-0.0555242813265,0.302446026126,-0.152154307682,0.573635963382,0.819093224349,0.00296955244498,0.0,0.819061938988,-0.57357221056,-0.01154150235,0.0,-0.00775046283385,0.00905304250203,-0.999928983852,0.0,0.634068080242,0.22503893259,0.303971255876,1.0,-0.128844,-0.169337828571,1.244
0.440059694115,0.396305546386,-0.125268245958,-1.58929670623,0.0646393361665,1.97764476819,0.124189100205,-0.13162287406,-0.627399205358,-0.0123644743621,-0.927006565892,-0.0674642596612,0.32599764636,-0.165252056494,0.573711413764,0.819040065001,0.00305492081986,0.0,0.819009495545,-0.57364692054,-0.0115500503894,0.0,-0.00770765649715,0.00912858065101,-0.999928627976,0.0,0.631576330169,0.221725452534,0.304027164947,1.0,-0.137356,-0.180525028571,1.263
0.437970924581,0.386799075351,-0.12538949482,-1.60375850303,0.0635185220635,1.98250538505,0.121715924553,-0.143376897768,-0.637334442309,-0.0105533251785,-0.993034471713,-0.0781220060602,0.327006888724,-0.173850304113,0.573728089931,0.819028958423,0.00289672059771,0.0,0.818996883044,-0.573664738042,-0.0115594460481,0.0,-0.00780592488206,0.00900455740802,-0.99992899022,0.0,0.629474892532,0.218941425031,0.303952871241,1.0,-0.144076,-0.189357028571,1.278
0.43542782675,0.375438371598,-0.125505545252,-1.62057180885,0.062277674444,1.98808576921,0.118664611505,-0.153378860832,-0.67153923033,-0.00862792870972,-0.998323091938,-0.0623052595415,0.331045608753,-0.176810083434,0.573676938232,0.819064518658,0.00297182041157,0.0,0.8190333985,-0.573613331668,-0.0115232276326,0.0,-0.0077337399853,0.00904480425873,-0.999929187884,0.0,0.626994195771,0.21567040216,0.304035148965,1.0,-0.151692,-0.199366628571,1.295
0.43296850732,0.365157968712,-0.125629420814,-1.63590923323,0.0611233447143,1.99316676973,0.115968991693,-0.16807890218,-0.700139753978,-0.0156737876114,-1.01368408668,-0.0765700043045,0.342528435781,-0.185630637973,0.57380329725,0.818976082793,0.0029493691673,0.0,0.818944751935,-0.573739839094,-0.0115255028251,0.0,-0.00774708971994,0.0090289157592,-0.999929228136,0.0,0.624716092968,0.212597813166,0.304026939724,1.0,-0.158412,-0.208198628571,1.31
0.430010524565,0.353035497968,-0.125777133677,-1.6538857932,0.0597347514535,1.99907158687,0.112635516201,-0.17547060547,-0.711783459647,-0.0117614903579,-1.08393799836,-0.0705966869647,0.345720292535,-0.201574819445,0.573836086982,0.818953159775,0.00293500832859,0.0,0.818921838249,-0.573772897519,-0.0115079021906,0.0,-0.00774055365812,0.00900736539787,-0.999929473112,0.0,0.62199970128,0.208959253307,0.304026669427,1.0,-0.166028,-0.218208228571,1.327
0.426652950598,0.339619032743,-0.125931567911,-1.67343524045,0.0582709746493,2.00543568569,0.108953927454,-0.186313980689,-0.765547674365,-0.0071556323081,-1.09671467306,-0.0891389667354,0.353811975015,-0.208063118093,0.573921670228,0.818892532386,0.00311187179003,0.0,0.81886322495,-0.573857599208,-0.0114551978305,0.0,-0.00759495091229,0.00912275928268,-0.99992954351,0.0,0.618997312432,0.204949348574,0.304130117778,1.0,-0.174092,-0.228806628571,1.345
0.423106100753,0.325893558373,-0.12599758212,-1.69358122129,0.0565962800847,2.01187448986,0.105004869217,-0.204224890363,-0.776051819824,-0.00398792342635,-1.12543221446,-0.107344750431,0.368688440399,-0.229048848517,0.573790540073,0.818984662818,0.00304714504852,0.0,0.818954799752,-0.573727018132,-0.0114495209206,0.0,-0.00762889946802,0.00906527539027,-0.999929807874,0.0,0.615807852139,0.200814538232,0.304110707825,1.0,-0.182156,-0.239405028571,1.363
0.419970416086,0.314056263007,-0.126041579473,-1.71089655037,0.0551862915845,2.0172499411,0.101625644176,-0.210811435489,-0.799186173938,-0.00529379021257,-1.17216564227,-0.0950565003525,0.356021468408,-0.234155512888,0.573733285238,0.81902520556,0.00292864640959,0.0,0.818993415357,-0.573669680599,-0.0115598470485,0.0,-0.00778788039555,0.00903098502377,-0.999928892586,0.0,0.61298843473,0.197235034547,0.30406698738,1.0,-0.188876,-0.248237028571,1.378
0.415940008643,0.299406763266,-0.126161429833,-1.73198966049,0.0533978321607,2.02386015227,0.0972427577165,-0.234507817333,-0.846656343447,-0.0125937422997,-1.19965932853,-0.10182164351,0.358835004995,-0.237768833264,0.573609203401,0.819111885942,0.00299115094633,0.0,0.819081238991,-0.573545806306,-0.0114838540108,0.0,-0.00769114731377,0.00903741397244,-0.999929583222,0.0,0.609553062445,0.19273537692,0.304117083323,1.0,-0.19694,-0.258835428571,1.396
0.411859517521,0.285122181692,-0.126303616148,-1.75233220293,0.0517656927051,2.03007904766,0.09303091945,-0.243539970484,-0.841002437011,-0.00545934348982,-1.2104469078,-0.108774848477,0.366121954124,-0.249509587994,0.573677824559,0.819063335837,0.00312288306249,0.0,0.819033756464,-0.57361325415,-0.0115016232022,0.0,-0.0076293776409,0.00915614910746,-0.999928976243,0.0,0.606170214219,0.188305809796,0.304197502598,1.0,-0.204556,-0.268845028571,1.413
0.407754608789,0.271387972192,-0.126455235879,-1.77188437298,0.0500896659308,2.03595436528,0.0887949834462,-0.268508096126,-0.897864198389,-0.0109601277909,-1.22418721505,-0.110526417772,0.381615787229,-0.264919038924,0.57367857859,0.819062802949,0.00312413081785,0.0,0.819033114275,-0.573613853697,-0.0115174419676,0.0,-0.00764161070761,0.00916625280889,-0.999928790262,0.0,0.60286417257,0.18394450602,0.30421758721,1.0,-0.211724,-0.278265828571,1.429
0.40278637061,0.255580811829,-0.126660021,-1.79425839183,0.0480962829866,2.04254435306,0.0838791681381,-0.283074946744,-0.89832264142,-0.0161201548303,-1.24497723854,-0.105258064172,0.371629368418,-0.278113864933,0.573800183602,0.81897783199,0.00306706830854,0.0,0.818947509107,-0.573735746214,-0.0115333319141,0.0,-0.00768600442138,0.00912977169781,-0.999928783767,0.0,0.599022376807,0.178803153935,0.304223589989,1.0,-0.219788,-0.288864228571,1.447
0.398139051665,0.24121177229,-0.126799887047,-1.81460400983,0.0462722262698,2.04840092423,0.0792346533347,-0.292622046123,-0.906137576856,-0.00483851197191,-1.28868539736,-0.114817785678,0.365367903653,-0.302285532017,0.573794120556,0.818982612658,0.00292134903326,0.0,0.818949993407,-0.573729682677,-0.0116578906982,0.0,-0.00787169668282,0.00908184276587,-0.999927775653,0.0,0.595430465977,0.174116119083,0.304154451418,1.0,-0.226956,-0.298285028571,1.463
0.393336493535,0.226395019968,-0.126913735321,-1.83501789745,0.0444474974233,2.05437049645,0.0744323474809,-0.300199190613,-0.932053324591,-0.00663185863468,-1.29376019902,-0.124800007854,0.368746946476,-0.310267105689,0.573729579817,0.819026772609,0.00320341919745,0.0,0.818997700986,-0.573664107622,-0.0115327492904,0.0,-0.00760809029473,0.00924045026984,-0.999928362955,0.0,0.591793786486,0.169403433466,0.304280549324,1.0,-0.234124,-0.307705828571,1.479
0.387520199405,0.209442346091,-0.1270752176,-1.85839692757,0.0422124465371,2.06087091659,0.0687374454489,-0.330316136277,-0.937926695344,-0.013772811715,-1.29785763037,-0.117891496765,0.352675364721,-0.318280395087,0.573675704456,0.819064575422,0.0031865824093,0.0,0.819035360437,-0.573610382227,-0.0115305965687,0.0,-0.00761659307213,0.00922492438989,-0.99992844158,0.0,0.587521732188,0.163825846364,0.304311439144,1.0,-0.242188,-0.318304228571,1.497
0.381995348756,0.194047601935,-0.127253011248,-1.87943327398,0.0401819904187,2.06663242992,0.0634228955078,-0.349539918459,-0.961463305751,-0.00852367400512,-1.31901060046,-0.126829829218,0.369291505874,-0.325897266228,0.573684961808,0.819057942489,0.00322464598585,0.0,0.819029248978,-0.573619555827,-0.011508318363,0.0,-0.00757640543106,0.00924340652477,-0.999928576208,0.0,0.583622604821,0.158673173486,0.304348152479,1.0,-0.249356,-0.327725028571,1.513
0.376045467607,0.178393133295,-0.127518397483,-1.90063395136,0.038135203693,2.07232608266,0.0578390580006,-0.382507129017,-1.0011561604,-0.0192199949391,-1.31660599802,-0.133969595681,0.365559224127,-0.348933797068,0.573847785133,0.818943564317,0.00330225129168,0.0,0.818915765277,-0.573781987124,-0.0114868417897,0.0,-0.00751244748777,0.00929614334242,-0.999928569875,0.0,0.579654587556,0.15326739431,0.304391929555,1.0,-0.256524,-0.337145828571,1.529
0.369108087407,0.160473705296,-0.127712474095,-1.92483397442,0.0356666649368,2.07852682259,0.0513036483363,-0.392390123004,-1.02145555151,-0.0121163538674,-1.32951415063,-0.13517386703,0.34093590678,-0.366767082847,0.573827702476,0.818958181743,0.00316406833185,0.0,0.818928361864,-0.573762052684,-0.0115841243039,0.0,-0.00767163873895,0.00923861460231,-0.99992789438,0.0,0.574959760272,0.147126655368,0.304358816718,1.0,-0.264588,-0.347744228571,1.547
0.362249337536,0.143271513941,-0.127886433205,-1.94791879595,0.0332689280147,2.0843419422,0.0448962951576,-0.413502608121,-1.00058667592,-0.0101915194829,-1.36202071082,-0.142610999738,0.320630692476,-0.386315172969,0.573785405425,0.818988270681,0.00304432405911,0.0,0.818956617378,-0.573719820161,-0.0116779154022,0.0,-0.00781763720247,0.00919396376952,-0.999927175138,0.0,0.570384720037,0.141214505346,0.304296140294,1.0,-0.272204,-0.357753828571,1.564
0.355386969175,0.126664343921,-0.128102848946,-1.96972879846,0.0309989730537,2.08977681536,0.0384352853194,-0.43775728419,-1.01438462886,-0.0161450689008,-1.38402139124,-0.154498947561,0.339445464095,-0.40969673356,0.573717355791,0.819035370217,0.00319451073594,0.0,0.819005594245,-0.573651199997,-0.0116139673864,0.0,-0.00767986302211,0.00927963548454,-0.999927451403,0.0,0.566017461831,0.135464686534,0.304359020426,1.0,-0.279372,-0.367174628571,1.58
0.347138943192,0.107640282892,-0.128441964402,-1.9944363006,0.0282630132522,2.09568603276,0.0309553056389,-0.467166289739,-1.06304757419,-0.0171188339053,-1.39643680997,-0.163435603853,0.3274033374,-0.425595665351,0.573848512695,0.818943168392,0.0032738848797,0.0,0.81891503826,-0.573782844536,-0.0114958395913,0.0,-0.00753608541227,0.00927808264501,-0.999928559748,0.0,0.560980661461,0.128704298217,0.304432147561,1.0,-0.287436,-0.377773028571,1.598
0.339080487757,0.0894528492138,-0.128629342343,-2.01785256956,0.0257111592648,2.10102813376,0.0235113891817,-0.48683453838,-1.08057621938,-0.0159526780311,-1.37786684398,-0.144136425537,0.299861307695,-0.436920822739,0.57373126893,0.819025023474,0.00334497773492,0.0,0.81899731461,-0.573664783011,-0.0115265907823,0.0,-0.00752181517779,0.00935287341007,-0.999927970434,0.0,0.556046493714,0.122343059849,0.304468584128,1.0,-0.295052,-0.387782628571,1.615
0.331049129327,0.072020534072,-0.128872239725,-2.04002130854,0.0232177831612,2.10589615272,0.0161087990486,-0.503363409173,-1.09091344151,-0.0121741991706,-1.38728499469,-0.159507933338,0.297176581168,-0.466719046257,0.573628538689,0.819096663353,0.00342090440369,0.0,0.819069680749,-0.57356151459,-0.0115236261924,0.0,-0.00747700860845,0.0094124211492,-0.999927747725,0.0,0.551289317532,0.116148829976,0.304515958086,1.0,-0.29998,-0.394259428571,1.631
0.322001148931,0.0534862153857,-0.129208249974,-2.06337132103,0.0204839262269,2.11082781426,0.00806236221391,-0.541797204908,-1.09427652497,-0.0198694787315,-1.36706603687,-0.157231022678,0.278567484221,-0.486367980684,0.57376394593,0.819001675589,0.00345494340859,0.0,0.818975191558,-0.573696874301,-0.0115012578264,0.0,-0.00743760239373,0.00942870154525,-0.999927888229,0.0,0.54620129646,0.109353937727,0.304546202144,1.0,-0.29998,-0.394259428571,1.648
0.313295841706,0.0362589970924,-0.129399307608,-2.08489644401,0.0179857580758,2.11507832614,0.000330929413934,-0.542949787257,-1.0849132263,-0.0217757841828,-1.32018206202,-0.154009436354,0.27953640689,-0.490121060538,0.573792132445,0.818982043492,0.00342754775279,0.0,0.818954279268,-0.57372397513,-0.0116376858406,0.0,-0.00756473505416,0.00948480008653,-0.999926403967,0.0,0.541366671459,0.103063991351,0.304533469951,1.0,-0.29998,-0.394259428571,1.664
0.30375691369,0.0181382196646,-0.129586718965,-2.10719786731,0.0152412595829,2.11933171563,-0.00811119107448,-0.565960355402,-1.0664896181,-0.0142498448563,-1.28165615308,-0.154912747904,0.236611228911,-0.494470518244,0.573766403275,0.819000022816,0.00343860453023,0.0,0.81897234888,-0.573698147532,-0.0116393380535,0.0,-0.00756004263653,0.00949456596026,-0.999926346774,0.0,0.536273982987,0.0963711344557,0.304559242224,1.0,-0.29998,-0.394259428571,1.681
0.293277554072,-0.000981591193025,-0.129888262394,-2.13035622222,0.0123485014874,2.12347118585,-0.0172780068131,-0.587666093001,-1.05060603768,-0.0128476304198,-1.279011871,-0.152870139578,0.215041572856,-0.513151078541,0.573894355637,0.818910146417,0.00349106912249,0.0,0.818882975078,-0.573825690426,-0.0116403193832,0.0,-0.00752925546242,0.00953927432166,-0.999926153552,0.0,0.530873462625,0.089185893306,0.304617372384,1.0,-0.29998,-0.394259428571,1.699
0.283255614482,-0.0187552146583,-0.13003649942,-2.15171390719,0.00961545901102,2.12724491756,-0.0261856352215,-0.598807273646,-1.0329487212,-0.0110470228465,-1.27412839575,-0.16893980486,0.205320819575,-0.539397026622,0.573748938633,0.819011564612,0.00359990976683,0.0,0.8189860457,-0.573680264938,-0.0115567067337,0.0,-0.00740002174829,0.00957910851488,-0.999926737495,0.0,0.52579087154,0.0825655806581,0.304641432909,1.0,-0.29998,-0.394259428571,1.716
0.274089139004,-0.0343896741508,-0.130262768983,-2.17006519251,0.00716503176139,2.13019721648,-0.0341580672699,-0.618305995324,-1.02334939167,-0.0148696155471,-1.22580502499,-0.167425252882,0.190197509666,-0.537794271771,0.573813150989,0.818966000956,0.00372879753857,0.0,0.818942756156,-0.573744889563,-0.0114153730771,0.0,-0.0072095627128,0.00960414783805,-0.999927888675,0.0,0.521336308536,0.0766242616742,0.304748162603,1.0,-0.29998,-0.394259428571,1.731
0.262784701964,-0.0529550122191,-0.130510313556,-2.19175444259,0.00438012129521,2.13345353823,-0.0440529048776,-0.625967659088,-1.03285293687,-0.00349798998122,-1.18229075841,-0.156947044021,0.187244035501,-0.555470036173,0.573873098975,0.818923312402,0.00387576813629,0.0,0.818901364522,-0.573803607137,-0.0114333950143,0.0,-0.00713928143336,0.00973537708022,-0.999927123891,0.0,0.51594277069,0.0695167658685,0.304800885251,1.0,-0.29998,-0.394259428571,1.749
0.253216043402,-0.0680720287356,-0.130689176149,-2.20955804812,0.00196723789981,2.13586210201,-0.052469358837,-0.640560938583,-1.00875213564,-0.0110610435631,-1.16863658099,-0.160221084945,0.144110983135,-0.558191662861,0.5738044715,0.818972386776,0.00366129579393,0.0,0.818946735353,-0.573734394938,-0.011654853934,0.0,-0.0074445355472,0.00968620002897,-0.999925375425,0.0,0.511383932211,0.0636408774578,0.304678017683,1.0,-0.29998,-0.394259428571,1.764
0.242598022068,-0.0842383577654,-0.130994020561,-2.22797648922,-0.000602201857575,2.13826382604,-0.0617410315501,-0.671673969707,-0.984736292952,-0.0152262066411,-1.15817265224,-0.155756722891,0.146747352623,-0.584995252888,0.573898804956,0.81890596448,0.00373227964926,0.0,0.818881385748,-0.573828692716,-0.0116040679501,0.0,-0.00736109302845,0.0097160421243,-0.999925703657,0.0,0.506323273514,0.0568508225563,0.304715076023,1.0,-0.29998,-0.394259428571,1.781
0.229905925863,-0.103251515595,-0.131171890378,-2.24944291903,-0.00362475235756,2.14073332678,-0.0729494334233,-0.674814957651,-0.992769499138,-0.0110642873,-1.12278846961,-0.16582616615,0.119973211793,-0.601119222835,0.573708100406,0.819039388382,0.00377395144854,0.0,0.819015196417,-0.573637684296,-0.0116043997982,0.0,-0.00733972105606,0.00974864944319,-0.999925543393,0.0,0.500901110313,0.0498770616282,0.304752366345,1.0,-0.29998,-0.394259428571,1.799
0.2187230937,-0.118991790996,-0.131487995875,-2.26710002802,-0.00620379585008,2.14252555001,-0.0826232719536,-0.714568740282,-1.00162388005,-0.0257483702168,-1.07763878575,-0.154101256846,0.119441256269,-0.615563217938,0.573854967401,0.818936942867,0.00367517309571,0.0,0.818911058908,-0.573784302289,-0.0117046548915,0.0,-0.00747676161445,0.00972660150988,-0.999924742798,0.0,0.496091387599,0.043482793066,0.304709876249,1.0,-0.29998,-0.394259428571,1.815
0.205968853791,-0.136548010323,-0.131700953762,-2.28661912862,-0.00897244041926,2.14423525038,-0.0938428295428,-0.707753730612,-0.965059804655,-0.00979583791764,-1.06990935257,-0.156666061852,0.0880945794884,-0.637645792114,0.573792455276,0.818981216673,0.00356817973425,0.0,0.818952367381,-0.573720150689,-0.011956402308,0.0,-0.00774508141124,0.00978285102738,-0.99992215174,0.0,0.490621932165,0.0364503800319,0.304625129438,1.0,-0.29998,-0.394259428571,1.833
0.195002905152,-0.151120285817,-0.131991593755,-2.30234979102,-0.0113341819433,2.14561982332,-0.103498939612,-0.743294073724,-0.967038412872,-0.0261126143298,-1.05729583829,-0.156571585124,0.089965140711,-0.641451573747,0.573807970287,0.818969586103,0.00373860601527,0.0,0.818943553291,-0.573735832903,-0.0118066704782,0.0,-0.00752447666825,0.00983665830363,-0.999923308261,0.0,0.486171309333,0.0305005959999,0.304689310536,1.0,-0.29998,-0.394259428571,1.848
0.182304581518,-0.167454528075,-0.132260146843,-2.319816517,-0.0139291407607,2.14671806126,-0.114581450405,-0.748631319118,-0.975383741999,-0.00957346338429,-1.00629663827,-0.141250091116,0.0652939683527,-0.656767876218,0.573891044919,0.818911156406,0.00378594457008,0.0,0.818885018879,-0.573817788513,-0.0118835324436,0.0,-0.00755926049412,0.00992029713857,-0.999922219618,0.0,0.481059725333,0.0238060923119,0.304716935144,1.0,-0.29998,-0.394259428571,1.865
0.168568271162,-0.184535729393,-0.132560465133,-2.33796905724,-0.016725921852,2.14765134855,-0.1267558503,-0.781249322395,-0.952175364259,-0.0210272811403,-0.998923711267,-0.150430208834,0.0441132961298,-0.675604619289,0.573816043793,0.818963936028,0.00373714768398,0.0,0.818936395759,-0.573741974262,-0.0120030651544,0.0,-0.00768606697353,0.00994822914926,-0.999920975433,0.0,0.475611563044,0.0167312011708,0.304686567268,1.0,-0.29998,-0.394259428571,1.883
0.156034694156,-0.199524047371,-0.132814291248,-2.35347459663,-0.0191904608419,2.14837950934,-0.137849653897,-0.781942177054,-0.930751520508,-0.0134819922296,-0.966581984684,-0.144250090271,0.0352963968895,-0.706636358604,0.573771134491,0.818994655166,0.00389704183399,0.0,0.818969973658,-0.573697526303,-0.0118354324878,0.0,-0.00745757627049,0.00998258196948,-0.999922363293,0.0,0.470876203056,0.0104426310575,0.304766261703,1.0,-0.29998,-0.394259428571,1.899
0.140779101831,-0.217100164985,-0.133206111836,-2.37150650639,-0.0220348725484,2.14883197223,-0.15138655946,-0.803145928581,-0.915647350396,-0.0305674367838,-0.920683675874,-0.150025039417,0.0260680725551,-0.714368394472,0.573805990184,0.818969798591,0.00398767167602,0.0,0.818945767088,-0.573731352954,-0.0118706405093,0.0,-0.00743398692848,0.0100773254909,-0.9999215886,0.0,0.465184431094,0.00294358827531,0.30480001275,1.0,-0.29998,-0.394259428571,1.918
0.129333095126,-0.229871320634,-0.133402182892,-2.38451467873,-0.024187523251,2.14901506428,-0.161541569711,-0.811144138136,-0.917458305523,-0.0168169477124,-0.925091109178,-0.149075533388,0.0119645238943,-0.735336351065,0.573734291236,0.819020166064,0.00395948751201,0.0,0.818995773216,-0.573659769942,-0.0118801812104,0.0,-0.00745885289865,0.0100590645511,-0.999921587293,0.0,0.460974492044,-0.00252091645904,0.304793272136,1.0,-0.29998,-0.394259428571,1.932
0.115025488624,-0.245250179834,-0.133765748614,-2.39982578039,-0.0267047877671,2.14915355372,-0.174270863917,-0.852179590545,-0.904672660369,-0.0323647114152,-0.901318992817,-0.148655964628,0.0117255301617,-0.759920155898,0.573784911883,0.81898370772,0.00416032272796,0.0,0.818962510854,-0.573710517334,-0.0117215620562,0.0,-0.00721308632279,0.0101329988904,-0.999922643868,0.0,0.455921467443,-0.00925080305086,0.304866314329,1.0,-0.29998,-0.394259428571,1.949
0.0987019780348,-0.262099410698,-0.134115227067,-2.41662631651,-0.0294932896588,2.14902040719,-0.188889453419,-0.864631010961,-0.884100653997,-0.0191076121572,-0.86858176798,-0.151835486335,-0.00835155824067,-0.779666492121,0.573734946386,0.819018585736,0.00418502265875,0.0,0.818997254316,-0.573659839285,-0.0117742564763,0.0,-0.00724269490581,0.0101830205296,-0.999921921684,0.0,0.450194979809,-0.0167130518085,0.30482350101,1.0,-0.29998,-0.394259428571,1.968
0.0845275092193,-0.276049003069,-0.134521216097,-2.43008513822,-0.0318288586193,2.14875543939,-0.201504720343,-0.891869288283,-0.869151620025,-0.0256262828708,-0.855980333296,-0.153195675519,-0.0262626570091,-0.801590392988,0.573880626495,0.818915504334,0.00437837828065,0.0,0.818897596152,-0.573806206357,-0.0115720120769,0.0,-0.00696429355909,0.0102265938832,-0.999923454767,0.0,0.445472687264,-0.0230977354474,0.304907152411,1.0,-0.29998,-0.394259428571,1.984
0.0711544502612,-0.28891004324,-0.134753904149,-2.44262311157,-0.0338768192594,2.14825745255,-0.21361730397,-0.909102345348,-0.87103485225,-0.0198747437089,-0.837191946852,-0.133065172484,-0.0460848054075,-0.810196763216,0.573782706479,0.818984007282,0.00439868880348,0.0,0.81896521879,-0.57370656493,-0.01172581214,0.0,-0.00707983228012,0.0103306402605,-0.999921573848,0.0,0.440938097989,-0.0289117456566,0.304850950074,1.0,-0.29998,-0.394259428571,1.999
0.055507348211,-0.303284371558,-0.135149267521,-2.45611730186,-0.0363345111623,2.14764911388,-0.227732372629,-0.92350967603,-0.820878510056,-0.0178674428739,-0.811964349131,-0.141414199796,-0.0363291435754,-0.833282699801,0.573796999703,0.818972970678,0.00458512071644,0.0,0.818958075607,-0.573722509102,-0.0114411472057,0.0,-0.00673953310991,0.0103201162723,-0.999924034061,0.0,0.435925725107,-0.0356641754829,0.304952770069,1.0,-0.29998,-0.394259428571,2.016
0.0386908464397,-0.318134234251,-0.13548557729,-2.47024148469,-0.0388248844394,2.14660479418,-0.242974464885,-0.953083723204,-0.795524077267,-0.0259327298486,-0.7714741165,-0.127583702995,-0.0686594431427,-0.855692215898,0.573740941069,0.819012768991,0.00449039788549,0.0,0.818995381929,-0.57366482777,-0.0116609030039,0.0,-0.00697457941082,0.0103681522135,-0.999921925283,0.0,0.430468722927,-0.0426991768032,0.304870859886,1.0,-0.29998,-0.394259428571,2.034
0.0243486594887,-0.330329774711,-0.135789190687,-2.48136656,-0.0408111347799,2.14579580676,-0.256018545579,-0.951370601985,-0.776760142933,-0.00892640223219,-0.745403404124,-0.12316032461,-0.0635948009092,-0.879089652224,0.573744522742,0.819008915082,0.00472932781271,0.0,0.818995691432,-0.573669348676,-0.011414145015,0.0,-0.00663534387024,0.0104223029477,-0.999923670993,0.0,0.426057517674,-0.0485951201359,0.304968978825,1.0,-0.29998,-0.394259428571,2.049
0.00772377656725,-0.343858046947,-0.136230037787,-2.49384775535,-0.0431378086428,2.14456075221,-0.271142677939,-0.994821325037,-0.798618047749,-0.0332680434239,-0.732572343668,-0.133201667589,-0.0795562001057,-0.902294601702,0.573800074262,0.818970155438,0.00470172097757,0.0,0.818955971511,-0.573724026137,-0.011515444467,0.0,-0.00673344469573,0.0104582667153,-0.999922639698,0.0,0.420910182636,-0.0553295129007,0.304927443101,1.0,-0.29998,-0.394259428571,2.066
-0.0111822392529,-0.358572350625,-0.136592280813,-2.50696167375,-0.0456250994186,2.14310373771,-0.288538846447,-1.01276087827,-0.770936103473,-0.0219665034452,-0.687323133194,-0.130227840914,-0.0723563732594,-0.92841302659,0.573683490913,0.819051004742,0.0048426011526,0.0,0.819039667907,-0.573608704777,-0.0113058878441,0.0,-0.00648246543083,0.0104524848888,-0.99992435874,0.0,0.415292325901,-0.062784517774,0.305017144484,1.0,-0.29998,-0.394259428571,2.085
-0.0264657527966,-0.369884027408,-0.13696893722,-2.51714387867,-0.0475276449904,2.14176630011,-0.302576995305,-1.0140959712,-0.753764406675,-0.0128457387182,-0.664834024624,-0.136166316096,-0.088911645287,-0.940208888953,0.57372440346,0.819022337475,0.00484422260065,0.0,0.819010123885,-0.573648165683,-0.0114431588304,0.0,-0.00659345022868,0.0105328896167,-0.999922789344,0.0,0.410753137311,-0.0687074024962,0.304972938115,1.0,-0.29998,-0.394259428571,2.1
-0.0461546881775,-0.383850434437,-0.137439376894,-2.52932165897,-0.0499192214561,2.13999176701,-0.32072454397,-1.04884099797,-0.735376781807,-0.0272239076299,-0.620137283032,-0.124913914995,-0.0808483579525,-0.972043409417,0.573759553465,0.818997114894,0.00494444171526,0.0,0.818986587698,-0.573683673237,-0.0113472081437,0.0,-0.006456909562,0.0105602038427,-0.999923392272,0.0,0.40508817971,-0.0762076050026,0.305029696767,1.0,-0.29998,-0.394259428571,2.119
-0.0640976811449,-0.395901825977,-0.13775455937,-2.53986371836,-0.05199092664,2.1383339846,-0.337404585108,-1.06657825454,-0.696741097962,-0.018588459831,-0.613968822092,-0.119386360954,-0.105917736119,-0.996340007374,0.573646271256,0.819076516364,0.00493586017803,0.0,0.819065674082,-0.573570098953,-0.0113802473076,0.0,-0.00649035646879,0.0105712336069,-0.999923059187,0.0,0.399989222118,-0.0828565416119,0.30500469834,1.0,-0.29998,-0.394259428571,2.136
-0.0823912984025,-0.407561114755,-0.138137114925,-2.54995750688,-0.0539062242873,2.13644431373,-0.35443293409,-1.08098762557,-0.673680697577,-0.017626124259,-0.573092181835,-0.112998957781,-0.108048375259,-1.01015001831,0.573661012573,0.81906608363,0.00495380674395,0.0,0.819053872944,-0.573582197239,-0.0116173631865,0.0,-0.00667410130753,0.0107220693615,-0.99992024362,0.0,0.394850077507,-0.0895169711477,0.304958297188,1.0,-0.29998,-0.394259428571,2.153
-0.0988349872424,-0.417598258204,-0.138521801617,-2.5582656668,-0.0556192562984,2.1349772166,-0.369799379561,-1.10681069101,-0.664286366384,-0.0209023874607,-0.548650780427,-0.106068043414,-0.114754924323,-1.02527659835,0.573682647456,0.819049642971,0.00516229192029,0.0,0.819041677974,-0.573605798444,-0.0113077245044,0.0,-0.00630058844527,0.0107153838713,-0.999922738582,0.0,0.390433299265,-0.0954624879555,0.305069111521,1.0,-0.29998,-0.394259428571,2.168
-0.117747446132,-0.428468038931,-0.138846488335,-2.5675597819,-0.0575961195465,2.13297358577,-0.387555077473,-1.12340550702,-0.630133557826,-0.0292470159994,-0.540127249766,-0.1133015322,-0.124393536372,-1.0551386816,0.57355218042,0.81914204581,0.00499520009146,0.0,0.819130645566,-0.573473700692,-0.0115605800193,0.0,-0.00660526845747,0.0107225237944,-0.999920695811,0.0,0.385265571162,-0.102118645015,0.304985335203,1.0,-0.29998,-0.394259428571,2.185
-0.135768182358,-0.43830602408,-0.139221197046,-2.57580745791,-0.0592629737515,2.13117503077,-0.404509516602,-1.12733986084,-0.606840310556,-0.0219379342533,-0.506637305549,-0.102149505163,-0.110324260149,-1.06025544491,0.573562174286,0.819134718222,0.00504901297886,0.0,0.819123125318,-0.573482080975,-0.0116771259501,0.0,-0.00666974921814,0.0108335296194,-0.999919071266,0.0,0.380454403535,-0.108375456043,0.30495156039,1.0,-0.29998,-0.394259428571,2.201
-0.155391275524,-0.448399102952,-0.139630311195,-2.58378880763,-0.0610239112312,2.1293648773,-0.422984016526,-1.15298058263,-0.579198426955,-0.0179930556652,-0.471860193885,-0.119239106202,-0.107280543237,-1.08895743709,0.573625340851,0.819089165528,0.00525872122727,0.0,0.819082321222,-0.573548041279,-0.0112934630651,0.0,-0.00623434400881,0.0107857498487,-0.999922397266,0.0,0.37545147927,-0.115146551815,0.305105475709,1.0,-0.29998,-0.394259428571,2.218
-0.176420086167,-0.458426239789,-0.140060375256,-2.59208210215,-0.0628247888447,2.12721623039,-0.442890727218,-1.1738006567,-0.54380670484,-0.0235949755145,-0.452700114552,-0.0950304129913,-0.113757877349,-1.12907307263,0.573641837881,0.819077919954,0.0052105448078,0.0,0.819068837054,-0.573561915188,-0.0115635857366,0.0,-0.00648303251164,0.0109013613355,-0.99991956207,0.0,0.369990093898,-0.122231760528,0.305031230449,1.0,-0.29998,-0.394259428571,2.236
-0.196454502259,-0.467368467996,-0.140390418209,-2.59937000239,-0.0644468776637,2.12534106925,-0.462072360017,-1.19684852154,-0.517438260596,-0.0248156992733,-0.417105936792,-0.0949511650451,-0.110833969416,-1.11792692191,0.573486849047,0.819186490049,0.00520340204651,0.0,0.819176788327,-0.573406094186,-0.0116442053236,0.0,-0.00655523945314,0.0109405154364,-0.999918663671,0.0,0.364898999212,-0.1288668735,0.304992543974,1.0,-0.299084,-0.393081828572,2.253
-0.216797430394,-0.475730521528,-0.140675088523,-2.60588755116,-0.0658492367669,2.12356814182,-0.481338312383,-1.19599543576,-0.483059659486,-0.0122991186927,-0.371166497623,-0.0713496487985,-0.10836634096,-1.13663236506,0.573616319759,0.819094752628,0.0053712963261,0.0,0.819087998944,-0.573536347572,-0.0114740969299,0.0,-0.00631786054824,0.010981505041,-0.999919742372,0.0,0.360206265292,-0.135142113356,0.305065029114,1.0,-0.291916,-0.383661028572,2.269
-0.234638988588,-0.482515325522,-0.140826820834,-2.61126062879,-0.0670091942893,2.12202104553,-0.498294759798,-1.17120918008,-0.443400484707,0.00130711797558,-0.362091948366,-0.078149689898,-0.100926680921,-1.14001771779,0.573646650297,0.819073244822,0.00541175773009,0.0,0.819066838329,-0.57356624643,-0.0114900917033,0.0,-0.00630734656284,0.0110240561582,-0.99991934053,0.0,0.355565079242,-0.141256351664,0.305067665399,1.0,-0.284748,-0.374240228572,2.285
-0.254717428732,-0.489487163542,-0.14095160491,-2.61691245006,-0.0681206888483,2.12024988551,-0.517367779481,-1.18103513182,-0.393745494135,-0.0152701781327,-0.322547874562,-0.0612392569192,-0.106531454338,-1.10903238835,0.573763694493,0.818991025953,0.00544694337571,0.0,0.818982936371,-0.57367945064,-0.0118145989247,0.0,-0.00655137714544,0.0112399580121,-0.999915367819,0.0,0.350676120561,-0.147584900494,0.304978624646,1.0,-0.277132,-0.364230628572,2.302
-0.275686724125,-0.496232246376,-0.14088741759,-2.62216261133,-0.0691592511876,2.11869627357,-0.53734962756,-1.16755010076,-0.363605671184,-0.00351261856966,-0.276464326985,-0.0521217200395,-0.0763555482784,-1.10180640474,0.573779643303,0.818979211072,0.00554253227078,0.0,0.818972732441,-0.573695703878,-0.0117324239279,0.0,-0.00642900811843,0.0112712258209,-0.999915810118,0.0,0.345731605848,-0.154097930996,0.304995803052,1.0,-0.269068,-0.353632228572,2.32
-0.295063147566,-0.501860294205,-0.140790128625,-2.62649687268,-0.0700214691678,2.11723684737,-0.555864246982,-1.12253425769,-0.310631094255,0.0104424701786,-0.244416364354,-0.0475771399375,-0.0874223119768,-1.09123269616,0.573795024827,0.818968081056,0.00559451486798,0.0,0.818962012595,-0.573710436682,-0.011760258029,0.0,-0.00642176802173,0.011329890839,-0.999915193638,0.0,0.341205394248,-0.160047917975,0.305007832223,1.0,-0.261452,-0.343622628572,2.337
-0.3120097512,-0.50632805761,-0.140682909013,-2.62987435196,-0.0707149389137,2.1161527437,-0.571984641374,-1.10654747553,-0.293861637161,0.0124378606426,-0.218165290905,-0.0438491869587,-0.0622200448695,-1.07521676763,0.573900759889,0.818893558197,0.00565730002813,0.0,0.81888901361,-0.573817202155,-0.0116339503756,0.0,-0.00628083187058,0.0113096515467,-0.999916317965,0.0,0.337321054322,-0.165226262848,0.305046475842,1.0,-0.254732,-0.334790628572,2.352
-0.332946743393,-0.511357155412,-0.140524380928,-2.63365054474,-0.0713344378924,2.11486646165,-0.592083207348,-1.09582602993,-0.251832363461,0.0054131868447,-0.191153350375,-0.0316819403812,-0.0664350980055,-1.04445538075,0.573987481508,0.818831408087,0.00585176075234,0.0,0.818829650644,-0.573903764449,-0.0115420656675,0.0,-0.00609277566318,0.0114168162255,-0.99991626369,0.0,0.332548003468,-0.17154155754,0.305089966005,1.0,-0.24622,-0.323603428572,2.371
-0.347912078759,-0.514542017772,-0.140236309532,-2.63616734865,-0.0717605655237,2.11389650502,-0.606575838711,-1.05501746476,-0.223930555602,0.0112006875501,-0.170430341119,-0.0258335124734,-0.0673002240554,-1.02422097355,0.573839617072,0.818935194887,0.00582986748497,0.0,0.818932081968,-0.573754013438,-0.0117185361561,0.0,-0.00625193219251,0.0114990472098,-0.99991433896,0.0,0.329125427425,-0.175953677491,0.305048164025,1.0,-0.239948,-0.315360228572,2.385
-0.365883493802,-0.517887041031,-0.139987641483,-2.63887052697,-0.072202883226,2.11294842899,-0.623867755243,-1.03830443372,-0.184381858861,0.0219687933881,-0.157832133413,-0.0172487444322,-0.0538124363961,-0.996823856187,0.573871935601,0.818912261378,0.00586997398499,0.0,0.818908526564,-0.573784082729,-0.0118911071309,0.0,-0.0063697984306,0.0116311683487,-0.999912066929,0.0,0.325049844117,-0.181262050655,0.304978486362,1.0,-0.232332,-0.305350628572,2.402
-0.385420179412,-0.521064129298,-0.139684833486,-2.64133708479,-0.072577687436,2.11205485846,-0.642619496208,-1.02146142325,-0.158299438714,0.0191424340165,-0.124990200293,-0.0208579545437,-0.0427288822655,-0.974420536083,0.573994275017,0.818825877081,0.00595836981001,0.0,0.81882291592,-0.573905359761,-0.011933872105,0.0,-0.00635234522624,0.0117290498295,-0.999911034593,0.0,0.320683949653,-0.187010853264,0.304957463515,1.0,-0.22382,-0.294163428572,2.421
-0.401280189127,-0.523315799715,-0.139307758948,-2.64306698662,-0.072830027241,2.1113735053,-0.658095802503,-0.983751511205,-0.131953762427,0.0262327622464,-0.100245815635,-0.0116312720361,-0.0416039001267,-0.966849653921,0.573831293689,0.818939979822,0.00597517637775,0.0,0.818936998164,-0.573741902611,-0.0119653302291,0.0,-0.00637080089065,0.0117596003398,-0.999910558348,0.0,0.317166715335,-0.191618417252,0.304949182593,1.0,-0.216652,-0.284742628572,2.437
-0.418814334564,-0.525451520403,-0.138989755857,-2.64463968903,-0.0730702565374,2.11072741471,-0.674986086323,-0.952341910754,-0.106216427314,0.0253503322024,-0.0824219482987,-0.00183805987863,-0.0288284051447,-0.939127577738,0.573937512534,0.81886505326,0.00604178423956,0.0,0.818863157421,-0.573848238481,-0.011919543291,0.0,-0.00629355137903,0.0117886945147,-0.99991070496,0.0,0.313293434842,-0.196735067353,0.30496987883,1.0,-0.208588,-0.274144228572,2.455
-0.433881047032,-0.526965000002,-0.138687511353,-2.64576390436,-0.0732122656117,2.11028476798,-0.689533227325,-0.935693484386,-0.0902588537915,0.0146517103663,-0.0613948702348,-0.0093767940653,-0.0195506202321,-0.902127867918,0.574022014265,0.818805347193,0.0061055261462,0.0,0.818804572056,-0.573933019955,-0.0118620524271,0.0,-0.00620866843259,0.0118085393018,-0.999911001458,0.0,0.309983763361,-0.201110954104,0.30498266085,1.0,-0.20142,-0.264723428572,2.471
-0.449310185877,-0.528228243874,-0.138289258247,-2.64670855321,-0.0732978488258,2.10986941045,-0.704522113098,-0.887549776935,-0.065273395251,0.0206549149362,-0.0543015730735,-0.00163618582533,-0.0235644809739,-0.87239704812,0.574008746948,0.818814370131,0.0061426863116,0.0,0.818814172504,-0.5739197896,-0.0118394642653,0.0,-0.00616903301252,0.0118259023419,-0.999911041576,0.0,0.306606519411,-0.205550346067,0.304989870595,1.0,-0.193804,-0.254713828572,2.488
-0.462600919913,-0.529058826266,-0.137976711638,-2.6473384922,-0.0733257323403,2.10957938331,-0.717327817255,-0.881590165107,-0.0524223934542,0.01195946937,-0.0394549248443,0.000448385633542,-0.016753621635,-0.839561061604,0.574136165994,0.818724605192,0.00619924611556,0.0,0.818725144658,-0.57404696329,-0.0118308217687,0.0,-0.00612764445046,0.0118682098234,-0.999910794806,0.0,0.303699542291,-0.209375646168,0.304990238392,1.0,-0.187084,-0.245881828572,2.503
-0.4769943131,-0.529698506848,-0.137492802947,-2.64781167472,-0.073330557979,2.10932438599,-0.731395873827,-0.834797323761,-0.0312857166652,0.0225259906489,-0.0263243735415,-0.000684106647724,-0.0110400907417,-0.827221865432,0.574031132235,0.818798369358,0.00618356392812,0.0,0.818798887234,-0.573942365722,-0.0118021182439,0.0,-0.00611466358983,0.0118381064821,-0.999911231122,0.0,0.300584960704,-0.213482454181,0.304999480981,1.0,-0.179468,-0.235872228572,2.52
-0.491788669559,-0.530064703415,-0.137077121392,-2.64811850375,-0.0733398398555,2.10910479864,-0.745704356464,-0.81161985659,-0.0178697883594,0.0262453228168,-0.0123631636284,-0.00169121639107,-0.0128619876139,-0.791968266969,0.574114045878,0.818740337439,0.00617001429931,0.0,0.818740416744,-0.574024808443,-0.0118488895451,0.0,-0.0061595411384,0.0118544822301,-0.99991076167,0.0,0.297358122088,-0.217716982555,0.304985669873,1.0,-0.171404,-0.225273828572,2.538
-0.505733712431,-0.530218986406,-0.136488768309,-2.64824923638,-0.0733134498091,2.10897417999,-0.759401704571,-0.769754590663,-0.00102690200086,0.0323166603707,-0.0047455459551,-0.00205092377741,-0.00903797907804,-0.741170341592,0.57390574699,0.818887086451,0.00607290013564,0.0,0.818886050426,-0.573817214243,-0.0118400995703,0.0,-0.00621108958497,0.0117683409721,-0.999911460339,0.0,0.294350643482,-0.221654575134,0.304986672251,1.0,-0.16334,-0.214675428572,2.556
-0.517842605406,-0.530211002256,-0.136094096725,-2.64827780674,-0.073279023748,2.10889200187,-0.771089742688,-0.744234196289,0.00302554872486,0.0317795378877,0.000713963390894,0.00680018804573,-0.00898301694163,-0.725049390035,0.573985364431,0.818831523265,0.00604026711342,0.0,0.818829933182,-0.573896697445,-0.0118687862667,0.0,-0.00625216736356,0.0117586875187,-0.999911317903,0.0,0.291699782437,-0.225087749621,0.304973998885,1.0,-0.156172,-0.205254628572,2.572
-0.528503191439,-0.530065475237,-0.135601468051,-2.64820803284,-0.0731711042957,2.1088898243,-0.78156534428,-0.702225677392,0.0129007462724,0.0286035770482,0.00644709942076,0.00934525632137,0.0013867883748,-0.684010642874,0.573839787725,0.818933893524,0.0059935767761,0.0,0.818931778559,-0.573751486416,-0.0118625799044,0.0,-0.00627596599592,0.0117157763884,-0.999911672516,0.0,0.289399323691,-0.228069422011,0.304965252307,1.0,-0.149452,-0.196422628572,2.587
-0.540259843321,-0.529812470574,-0.135178339485,-2.64804961985,-0.0730195849208,2.108885266,-0.792947472264,-0.683671266336,0.0141673039209,0.0250655057898,0.00918271320393,0.00333037022952,-0.000411475061346,-0.649896309577,0.573921999838,0.818876094719,0.00601884553509,0.0,0.818874195051,-0.573833371486,-0.0118769250808,0.0,-0.00627203635768,0.011745332021,-0.999911350438,0.0,0.286824404762,-0.231372470588,0.304955569813,1.0,-0.141836,-0.186413028572,2.604
-0.551277956194,-0.529383521879,-0.134613102013,-2.64774720886,-0.0727912240386,2.10892033499,-0.803720824307,-0.630037114642,0.0244115054511,0.0330473448983,0.0187334698977,0.0126305751041,0.00235822330689,-0.620318093622,0.573838551758,0.81893461992,0.00601262944201,0.0,0.818932598443,-0.573749888218,-0.0118832604035,0.0,-0.00628198881943,0.0117432372862,-0.999911312565,0.0,0.28445735379,-0.234431233187,0.304954149647,1.0,-0.13422,-0.176403428572,2.621
-0.561203922606,-0.528838436469,-0.134137957945,-2.64739939557,-0.072591437264,2.10898150094,-0.81339599462,-0.612012706623,0.034837702952,0.0284224921309,0.0190501144999,0.012423803697,7.58929384806e-05,-0.588417775951,0.573814161601,0.818951757709,0.00600611296722,0.0,0.818949265177,-0.573724809128,-0.0119453488334,0.0,-0.00633693041338,0.0117733388002,-0.999910611908,0.0,0.282309748366,-0.237193916634,0.304930737104,1.0,-0.127052,-0.166982628572,2.637
-0.571840379482,-0.528123384306,-0.133640833556,-2.64688913343,-0.0723161087943,2.10911503925,-0.823645557514,-0.558208656034,0.0443156747239,0.0329007512228,0.0328322967585,0.0194333494339,0.0106916956545,-0.560083569472,0.573926694577,0.818872647626,0.00604012606917,0.0,0.818870611554,-0.573837207374,-0.0119385036094,0.0,-0.00631018647427,0.0117981347935,-0.999910488775,0.0,0.280023404436,-0.2401684827,0.304925715721,1.0,-0.118988,-0.156384228572,2.655
-0.581593778286,-0.527279341844,-0.133076015109,-2.6463419179,-0.0719861584145,2.10923162127,-0.833273439292,-0.540945788162,0.0420452684127,0.0242360626803,0.0338192510096,0.0169171763811,0.00955203214191,-0.519756662008,0.573802874551,0.818959165133,0.00607403516707,0.0,0.818956859836,-0.573711945959,-0.0120420800612,0.0,-0.00637734808156,0.0118843817328,-0.999909041314,0.0,0.277941772475,-0.2428591466,0.304890413134,1.0,-0.110924,-0.145785828572,2.673
-0.589416846764,-0.52658898598,-0.13263340661,-2.64584884026,-0.0717448559244,2.10934266446,-0.840759552992,-0.516965122556,0.0482781721188,0.0321436045299,0.0391451174566,0.0159173640753,0.00732811229177,-0.494918830738,0.573897019732,0.818893151527,0.00607980477533,0.0,0.818890746015,-0.573805720022,-0.0120701558601,0.0,-0.00639566435135,0.0119059515704,-0.999908667727,0.0,0.276265140422,-0.245024447111,0.304882833828,1.0,-0.104204,-0.136953828572,2.688
-0.598551481881,-0.525616444259,-0.132060509872,-2.64515031908,-0.0713932300221,2.10951717124,-0.849670021965,-0.452091275935,0.0541701903027,0.0297913319691,0.0325521276314,0.0218830146039,0.00513950438583,-0.451504422196,0.573865046974,0.818915378033,0.00610396468477,0.0,0.818913075596,-0.573773254696,-0.0120985004794,0.0,-0.00640547973534,0.011941752955,-0.999908177967,0.0,0.274336640192,-0.247551680259,0.304873883749,1.0,-0.0956920000001,-0.125766628572,2.707
-0.606005330994,-0.524752002677,-0.131489534639,-2.64452238436,-0.0710540070178,2.10966567836,-0.857011255053,-0.431093574687,0.0445910145537,0.0327484363418,0.0376937887822,0.0158062228382,0.00128524879814,-0.425225353144,0.573733381013,0.81900757355,0.00611137305779,0.0,0.819005171106,-0.573641217848,-0.0121255840347,0.0,-0.00642533338215,0.0119623287738,-0.999907804641,0.0,0.272785178827,-0.249588022644,0.304869820029,1.0,-0.0880760000001,-0.115757028572,2.724
-0.612664327594,-0.523986627685,-0.13098736193,-2.64394181439,-0.0707691383366,2.10981655173,-0.863363317766,-0.409534533045,0.0452704199223,0.0330888764454,0.03876000762,0.0191386029861,0.0131444842099,-0.400052862947,0.573783199891,0.818972745188,0.00610156231872,0.0,0.81897034251,-0.573691307056,-0.0121082285259,0.0,-0.00641601942177,0.0119447266636,-0.999908074875,0.0,0.271391097116,-0.251410127018,0.304878702486,1.0,-0.0809080000001,-0.106336228572,2.74
-0.618422792448,-0.523249935531,-0.130548122588,-2.64337379055,-0.0704732720007,2.10995630502,-0.868871038783,-0.376682152351,0.0538396878668,0.0287055379707,0.0346102493903,0.0191483540743,0.0122853332085,-0.356236476333,0.57383517122,0.81893615485,0.00612514909187,0.0,0.81893415339,-0.573743339157,-0.0120904957272,0.0,-0.00638720356176,0.0119542756286,-0.999908145244,0.0,0.270196537223,-0.252989893692,0.304889667271,1.0,-0.0741880000001,-0.0975042285715,2.755
-0.624290496923,-0.522447097329,-0.130016322329,-2.64277977343,-0.0701212405425,2.11011433201,-0.874527659034,-0.322883886238,0.0426833375498,0.0286139081213,0.0288832737953,0.022911881817,0.00868384630672,-0.323133742063,0.573814398091,0.818950535792,0.00614844457035,0.0,0.818948809634,-0.573722415397,-0.0120906646499,0.0,-0.00637427854792,0.0119732893435,-0.999908000226,0.0,0.268997229491,-0.254575024988,0.30489182515,1.0,-0.0665720000001,-0.0874946285715,2.772
-0.629609472101,-0.521761483221,-0.129451494509,-2.64226104421,-0.0697808152803,2.11025919311,-0.87964455685,-0.310040850923,0.0367360036125,0.0347293058014,0.0309913009191,0.0214769031025,0.00868539041796,-0.282141941402,0.573753401028,0.818993269929,0.00614861947387,0.0,0.818991696618,-0.573661713639,-0.012065905568,0.0,-0.00635479022131,0.0119587528939,-0.999908298231,0.0,0.267918389593,-0.255982460319,0.304902241208,1.0,-0.0589560000001,-0.0774850285715,2.789
-0.634217565192,-0.521138690134,-0.128967595082,-2.64178812957,-0.0694735247116,2.11038884816,-0.88396157866,-0.270728633898,0.0491365810874,0.0274186292298,0.0321654717929,0.0122560626622,0.00405758722273,-0.253379771571,0.573798491049,0.818961628249,0.00615548755322,0.0,0.818960273293,-0.573707007256,-0.0120452270094,0.0,-0.00633325431667,0.0119528629808,-0.999908505293,0.0,0.266931395399,-0.257274041851,0.304911671151,1.0,-0.0513400000001,-0.0674754285715,2.806
-0.638895824318,-0.520410801168,-0.128423829017,-2.64124949174,-0.0690770522026,2.11053936937,-0.888371153437,-0.235924835102,0.0413060233321,0.0272702737931,0.0309328071951,0.0165719840798,0.00993597961793,-0.22261303905,0.573838708582,0.818933064142,0.00620643928975,0.0,0.81893237009,-0.573746990896,-0.0120378801168,0.0,-0.00629741342788,0.0119906864755,-0.999908278805,0.0,0.266061652009,-0.258436632813,0.304914924138,1.0,-0.0432760000001,-0.0568770285715,2.824
-0.642562752738,-0.519894247373,-0.127946483699,-2.64087463434,-0.0687691609705,2.11062987642,-0.891717531292,-0.205957619984,0.0293823616259,0.0266659311514,0.0232438688454,0.0133490102113,0.00871694174387,-0.180153099368,0.573914450731,0.818879855014,0.00622359986578,0.0,0.818879277598,-0.573822438449,-0.0120534125621,0.0,-0.00629917675904,0.0120142359234,-0.99990798502,0.0,0.265332141858,-0.259374484029,0.304914751226,1.0,-0.0356600000001,-0.0468674285715,2.841
-0.645475039109,-0.519468253212,-0.127450347778,-2.64057924434,-0.0684794127937,2.11070900736,-0.894329734965,-0.171846683478,0.027743890412,0.0336494768729,0.0129306730173,0.014090494748,0.00910733699904,-0.147591381639,0.573948015225,0.818856377582,0.00621736399647,0.0,0.81885559404,-0.573855785206,-0.0120748000377,0.0,-0.0063197783961,0.0120216622588,-0.999907765765,0.0,0.264780216931,-0.260087818953,0.304911134442,1.0,-0.0284920000001,-0.0374466285715,2.857
-0.647670003231,-0.519134062256,-0.126937377545,-2.64036263072,-0.0681947057927,2.11080738061,-0.896317920577,-0.13818797783,0.0204644515223,0.0302471728541,0.0143735033818,0.0177968697325,0.0120791956459,-0.128587880764,0.573869071315,0.818911886395,0.00619340051759,0.0,0.818910822165,-0.573777023421,-0.0120722672204,0.0,-0.00633261413111,0.011999974525,-0.999907945068,0.0,0.264383530371,-0.260620491182,0.304906953533,1.0,-0.0213240000001,-0.0280258285715,2.873
-0.649755390195,-0.518797935902,-0.126406763099,-2.64015869554,-0.0679086846193,2.11083631159,-0.898186267261,-0.109341570043,0.0229291870613,0.0256903395081,0.00716103817361,0.0182435732431,0.00143421181866,-0.100521447409,0.573821361867,0.818945430102,0.00617851777176,0.0,0.818943714982,-0.573728528206,-0.0121455553781,0.0,-0.00640187842126,0.0120294690293,-0.999907149603,0.0,0.264044918541,-0.2610481219,0.304891702584,1.0,-0.0197,-0.0258914285714,2.89
-0.651536539204,-0.518528574052,-0.126039145206,-2.63996231923,-0.0677133013171,2.11089833928,-0.899959022487,-0.0981248566945,0.0128290448788,0.0150992293134,0.0137422539533,0.00667293871439,0.00228578861252,-0.0941115174937,0.573661223509,0.819057770023,0.00615767069591,0.0,0.819055839963,-0.573568624569,-0.0121371674476,0.0,-0.00640931799164,0.012006329631,-0.999907380057,0.0,0.263726168738,-0.261472814536,0.304895903964,1.0,-0.01934,-0.0254182857143,2.908
-0.653127834687,-0.518270843756,-0.125846904098,-2.63974511873,-0.0675916111843,2.11097564939,-0.901451891045,-0.0908922541646,0.0181357650129,0.00810646902441,0.0140164100026,0.00111902288872,9.51281152595e-05,-0.09036895705,0.573668660146,0.819052599054,0.00615266205854,0.0,0.819050932274,-0.57357669831,-0.0120867033513,0.0,-0.00637074486113,0.011973337036,-0.999908022175,0.0,0.263418888423,-0.261900449676,0.304910894474,1.0,-0.019,-0.0249714285714,2.925
-0.654644003415,-0.517986633369,-0.125733981406,-2.63952876402,-0.0675229360364,2.11103115152,-0.902942096848,-0.0897938355557,0.0185390678073,0.00551901205711,0.0137278087545,0.00316264322556,0.00438770343581,-0.0872895468037,0.573650485837,0.819065379486,0.00614582197926,0.0,0.81906361614,-0.573558543898,-0.0120886863935,0.0,-0.00637655857145,0.0119687304324,-0.999908040268,0.0,0.263104255743,-0.262326817436,0.304911940681,1.0,-0.01866,-0.0245245714286,2.942
-0.656125339477,-0.517761505135,-0.125724165747,-2.63935982783,-0.0674879776838,2.11106564079,-0.904279216136,-0.0817516963022,0.0101881600654,0.000181835481564,0.0109051263097,0.000467829339318,0.000652889703872,-0.0732165047988,0.573785466715,0.818970668499,0.00616678405645,0.0,0.818969091195,-0.573693239939,-0.0121012816201,0.0,-0.00637287507036,0.0119941759816,-0.999907758849,0.0,0.262759602859,-0.262755261955,0.304908931911,1.0,-0.01832,-0.0240777142857,2.959
-0.657534337885,-0.517526693079,-0.125707415145,-2.6391527769,-0.0674562343278,2.11109724449,-0.905727570456,-0.0802412881634,0.013939722354,-0.000116563474862,0.0126925368888,0.00342627500757,-0.000184011952321,-0.0830478565336,0.573765617426,0.818984491238,0.00617788579421,0.0,0.818983125632,-0.573673472227,-0.0120885935818,0.0,-0.00635640385024,0.0119958345348,-0.999907843796,0.0,0.262442542356,-0.263172376005,0.304919569641,1.0,-0.01798,-0.0236308571429,2.976
-0.658800089789,-0.517289322603,-0.125700679727,-2.63894160552,-0.0674195602321,2.11116597587,-0.907011436446,-0.0810540399209,0.0179579864512,0.000362984884234,0.0111653965976,0.000110826919681,0.0017325224388,-0.0804865410735,0.573772546581,0.818979537211,0.00619106776958,0.0,0.818978651874,-0.573680926492,-0.012037826002,0.0,-0.0063071571064,0.0119775570211,-0.999908374751,0.0,0.262167533987,-0.263559529248,0.304934052384,1.0,-0.01766,-0.0232102857143,2.992
-0.659990251413,-0.517091414441,-0.125707082085,-2.63878446521,-0.0673965065977,2.11121173178,-0.908179574557,-0.0774187742547,0.0119637235053,-0.00240192172111,0.0112182884654,0.000479592177776,-0.000132078328386,-0.0792028626927,0.573813179635,0.818950947015,0.00620710574487,0.0,0.818950336203,-0.573721606576,-0.0120254680373,0.0,-0.00628723880614,0.0119839141152,-0.999908424022,0.0,0.261892795343,-0.263914243509,0.304936242419,1.0,-0.01736,-0.022816,3.007
-0.66132637628,-0.516869137696,-0.125684812062,-2.63860694589,-0.0673694519161,2.11122062352,-0.909532295347,-0.0789149575632,0.016622047836,0.00151180636828,0.0154313474405,0.00381586425873,0.00344133416167,-0.0801158658361,0.573804622263,0.818956866889,0.00621711719127,0.0,0.818956201411,-0.573712655002,-0.0120530726949,0.0,-0.00630422921631,0.0120078866925,-0.999908029446,0.0,0.261584022435,-0.264299881049,0.304936228664,1.0,-0.01702,-0.0223691428571,3.024
-0.662575180559,-0.516620329947,-0.125667484864,-2.63840862977,-0.06733398898,2.11126804618,-0.910753776281,-0.0749065498137,0.0182734193605,0.00132510975823,0.00993194524723,0.00659477226478,0.00579195439709,-0.0723342566291,0.573840186203,0.818931862061,0.00622839471933,0.0,0.818931366292,-0.573748205566,-0.0120482701548,0.0,-0.00629330318432,0.0120146407054,-0.999908017141,0.0,0.261307619398,-0.264673003066,0.304939037198,1.0,-0.01668,-0.0219222857143,3.041
-0.663725006298,-0.516392955913,-0.125610777188,-2.63823482172,-0.0673079243074,2.11137039068,-0.911950877076,-0.0686295790688,0.0162800806309,0.00523425144556,0.00434723126122,0.000395760434893,0.0114225529787,-0.0832037417984,0.573781388085,0.81897321531,0.00620791368804,0.0,0.818972808848,-0.573690188298,-0.0119938784262,0.0,-0.00626136655682,0.0119662071087,-0.999908798429,0.0,0.261068330939,-0.265014266466,0.304944212213,1.0,-0.01636,-0.0215017142857,3.057
-0.664947195347,-0.516162496307,-0.125547730112,-2.63806059355,-0.0672846179179,2.11137389163,-0.913205735536,-0.0729947749826,0.017061825219,0.00351717163471,0.00560402068302,0.000285853510862,-0.000216460445544,-0.0725596688591,0.573728968012,0.819010034675,0.00619526162949,0.0,0.819009178783,-0.573637291273,-0.0120403501506,0.0,-0.00630745593255,0.0119821044986,-0.999908318383,0.0,0.260795168516,-0.265359050424,0.304940137915,1.0,-0.01602,-0.0210548571429,3.074
-0.666137593682,-0.515928950322,-0.125493503657,-2.63788354233,-0.0672510107779,2.11139840155,-0.914398832368,-0.0695793533563,0.0146442318436,0.00241019671655,0.0104065970211,0.00316258543269,0.00536386005555,-0.0691935383671,0.57371187227,0.819022034484,0.00619205517843,0.0,0.819020980067,-0.573619915737,-0.0120653794691,0.0,-0.00633004734294,0.0119937054617,-0.999908036536,0.0,0.260532830473,-0.265699832051,0.3049377804,1.0,-0.01568,-0.020608,3.091
-0.667310704163,-0.515697296832,-0.125484028162,-2.63769261872,-0.0672233664154,2.11147631709,-0.915615410207,-0.0614897392799,0.0115614184488,0.00229295300489,0.011566562767,0.000622863259838,0.00671786754951,-0.0724758997414,0.573691215959,0.819036466896,0.00619689665857,0.0,0.819035747042,-0.573599758397,-0.0120211952364,0.0,-0.00629137997669,0.0119721644978,-0.999908538725,0.0,0.260275626804,-0.266057391474,0.304945900648,1.0,-0.01534,-0.0201611428571,3.108
-0.668469645469,-0.515471478915,-0.125486956709,-2.6375121769,-0.0671986332358,2.11154062083,-0.916728528191,-0.0693345136715,0.0127896148808,-0.00127160908193,0.004670301379,0.000757166366786,0.00064207615014,-0.0605320642479,0.573750757038,0.818994680065,0.00620723157569,0.0,0.818994251196,-0.57365954084,-0.0119956080196,0.0,-0.00626362213071,0.0119664065491,-0.999908781916,0.0,0.260014340088,-0.266409406353,0.304949941535,1.0,-0.015,-0.0197142857143,3.125
-0.669630310723,-0.515252030134,-0.12548056733,-2.63733560994,-0.0671689242799,2.11154853298,-0.917853432751,-0.069515684766,0.0112957652358,-0.000390796626935,0.0101564522806,0.000748120095471,0.000630992471064,-0.0725876424154,0.573797390132,0.818961874273,0.00622498721573,0.0,0.818961491565,-0.573705734258,-0.0120230077193,0.0,-0.00627519489181,0.011997026246,-0.999908342445,0.0,0.259745173286,-0.266750131772,0.304949970534,1.0,-0.01466,-0.0192674285714,3.142
-0.670687861919,-0.515059220118,-0.125465410497,-2.63716739243,-0.0671445956233,2.11159005909,-0.91896016844,-0.0668379128763,0.0150112969464,0.00353473507316,0.00863266828119,0.00143201443611,0.00586228422222,-0.0691351292254,0.57376537988,0.818984269865,0.00622908226606,0.0,0.818984078945,-0.573673978326,-0.0119996636322,0.0,-0.00625419376618,0.0119867415466,-0.999908597366,0.0,0.259508509243,-0.267065593078,0.304959100966,1.0,-0.01434,-0.0188468571429,3.158
-0.671773059682,-0.51485332422,-0.125435144183,-2.63700013403,-0.0671179058549,2.11164909642,-0.92002942223,-0.0613601217322,0.0172803164711,0.00504989339481,0.00965285603598,0.00042675053834,0.0027543105258,-0.0615865852224,0.573776974964,0.818976170971,0.00622585601882,0.0,0.81897610672,-0.573685908187,-0.0119733984614,0.0,-0.00623436219184,0.0119691181151,-0.999908932323,0.0,0.259269897525,-0.267386577555,0.304964803083,1.0,-0.014,-0.0184,3.175
-0.672878363657,-0.514640529145,-0.125387315096,-2.63681744513,-0.0670937847348,2.11168542446,-0.921137584564,-0.0596074486254,0.0104022777139,0.00126318662925,0.0117170857752,-0.000301533384113,0.000519331252427,-0.0650572140812,0.573760342739,0.8189879199,0.00621313603575,0.0,0.818987773071,-0.573669492285,-0.0119619430652,0.0,-0.0062325202691,0.0119520011117,-0.999909148553,0.0,0.25902901005,-0.267709700563,0.30497342754,1.0,-0.01364,-0.0179268571429,3.193
-0.673842822891,-0.514448108019,-0.125341783721,-2.63664373965,-0.0670685071976,2.11171107911,-0.922148057536,-0.0625990174122,0.0127662822319,0.00438516977119,0.0132888683984,-0.000351954829445,0.000565530137643,-0.0583289814825,0.573710399217,0.819022962518,0.0062057715016,0.0,0.819022760936,-0.573619668995,-0.0119557230004,0.0,-0.00623237906883,0.0119420206454,-0.999909268681,0.0,0.258808000329,-0.268008303813,0.304981706607,1.0,-0.0133,-0.01748,3.21
-0.674832669602,-0.514243537378,-0.125302693215,-2.63648535257,-0.0670457322502,2.11176289797,-0.923104846403,-0.0559188835538,0.0137799631117,0.00348897528224,0.00582847618546,-0.000217387951381,0.0076122414725,-0.0537183652158,0.573727210112,0.819011281672,0.00619320380647,0.0,0.819011031263,-0.573636748355,-0.0119397867286,0.0,-0.00622629061343,0.0119227123147,-0.999909537026,0.0,0.258606275867,-0.268283884261,0.304986232344,1.0,-0.01298,-0.0170594285714,3.226
-0.675841065638,-0.514019843212,-0.125303232798,-2.63631282741,-0.0670186400621,2.11181546254,-0.924117819328,-0.0583160732596,0.012050040493,-1.39084194044e-05,0.00962146986534,0.000969104332606,0.000254936624658,-0.058538436202,0.573744381579,0.818999157321,0.0062057889052,0.0,0.818999107739,-0.573653935194,-0.0119319344746,0.0,-0.00621238866122,0.0119286456058,-0.99990955273,0.0,0.258379720852,-0.268590940559,0.304986417652,1.0,-0.01262,-0.0165862857143,3.244
-0.676756522292,-0.513818522541,-0.125302340426,-2.63616528575,-0.0669986225759,2.11183814043,-0.925059390323,-0.056899895736,0.0151248910947,0.00114610998829,0.00842920398053,0.00293230378433,0.000439112478551,-0.0633563640296,0.573738641163,0.819003087019,0.0062178767827,0.0,0.819003023977,-0.573647817834,-0.0119572033349,0.0,-0.00622623486973,0.0119529996135,-0.999909175775,0.0,0.258167777174,-0.26886371869,0.304980989712,1.0,-0.0123,-0.0161657142857,3.26
-0.677650058703,-0.513640499136,-0.125293493683,-2.63601644199,-0.0669800715505,2.11188275902,-0.925916134272,-0.061869984708,0.0143297445731,0.00128783296349,0.00781344701638,0.00205963594407,0.00567586178823,-0.0582755347618,0.573778054394,0.818975464106,0.00621935603938,0.0,0.818975512127,-0.573687392893,-0.0119428922002,0.0,-0.00621308915194,0.0119462997512,-0.999909337613,0.0,0.257953147236,-0.269149537758,0.304983627082,1.0,-0.01196,-0.0157188571429,3.277
-0.678728138154,-0.513412971213,-0.125283161162,-2.63582795499,-0.0669534501647,2.11192328818,-0.926960221356,-0.0539918073277,0.0129563241341,0.0021839388551,0.0128541419576,0.0066131039925,0.00577082507588,-0.0533831719515,0.57381963615,0.818946284358,0.00622538407292,0.0,0.818946491649,-0.57372909636,-0.0119295727592,0.0,-0.0061981146394,0.0119439095031,-0.999909459102,0.0,0.257725014067,-0.269457662638,0.304992018367,1.0,-0.01158,-0.0152194285714,3.296
-0.679435610058,-0.513254130354,-0.125279065658,-2.63570335873,-0.0669389514279,2.11195386284,-0.927680659745,-0.0464066739991,0.0109374912623,0.000646485900421,0.0105163315578,0.000401851891224,0.000952239234035,-0.0522821934427,0.573818754061,0.818946877064,0.00622871872682,0.0,0.818947125746,-0.573728196793,-0.0119293058535,0.0,-0.00619599550292,0.0119464807269,-0.999909441519,0.0,0.257565529906,-0.269672084506,0.304992587124,1.0,-0.0113,-0.0148514285714,3.31
-0.680376020976,-0.513043653074,-0.125247305636,-2.63553914313,-0.0669173681765,2.11199370049,-0.928670004267,-0.0498627581931,0.0155885933865,0.00562986618191,0.0108296402917,0.00358037992574,-0.000628324254743,-0.0517157176684,0.573773812623,0.818978408892,0.00622291072437,0.0,0.818978573419,-0.573683272443,-0.011930888484,0.0,-0.00620127967264,0.0119422918471,-0.999909458799,0.0,0.257359022007,-0.269950644022,0.30499349052,1.0,-0.01092,-0.014352,3.329
-0.681210816559,-0.512859726872,-0.125224262526,-2.63540267342,-0.0668983340902,2.11202958275,-0.929481984521,-0.0480886730339,0.00688883753348,-0.0018807370678,0.0071356858369,8.54141178072e-05,0.00253580617267,-0.0481002157858,0.573791342003,0.818966143831,0.00622077179746,0.0,0.81896623889,-0.573700726823,-0.0119382789012,0.0,-0.0062083044632,0.0119449131305,-0.999909383897,0.0,0.257172363113,-0.270196574986,0.304991055894,1.0,-0.01058,-0.0139051428571,3.346
-0.681923820377,-0.512700630639,-0.125199328155,-2.63528048634,-0.0668810512164,2.11205297189,-0.930159885506,-0.0477426711071,0.00795840092736,-0.000496723926676,0.00610927110112,4.11634205474e-05,0.00137719614824,-0.041113770102,0.573816072016,0.81894884345,0.00621725096012,0.0,0.818948836231,-0.573725357676,-0.0119484097711,0.0,-0.00621826155301,0.0119480300366,-0.999909284786,0.0,0.257014133477,-0.270405700902,0.304990287749,1.0,-0.01028,-0.0135108571429,3.361
-0.682678115128,-0.512531564118,-0.125181247681,-2.63514587114,-0.0668661593716,2.11208940524,-0.930895124088,-0.0507029133547,0.00982120878468,0.00124420570867,0.00861646446307,0.00113845396971,0.00243728629705,-0.0486668613812,0.573832118246,0.818937637094,0.00621236845853,0.0,0.818937606469,-0.573741497929,-0.0119430802601,0.0,-0.00621646402893,0.011941095103,-0.999909378805,0.0,0.256847327071,-0.270632042396,0.304992417555,1.0,-0.00996000000001,-0.0130902857143,3.377
-0.683433320095,-0.512358768671,-0.125173477311,-2.63500051864,-0.066839653174,2.112136329,-0.931679006103,-0.0472270631945,0.00861169676871,0.000201647313091,0.0048597365607,0.00693604413456,0.000140368892255,-0.0482463613431,0.573821870865,0.818944761817,0.00621968729772,0.0,0.818944970044,-0.573731498761,-0.0119184844309,0.0,-0.00619226909873,0.011932898407,-0.999909626786,0.0,0.256682720573,-0.270863875806,0.3049986949,1.0,-0.00962000000001,-0.0126434285714,3.394
-0.684182459815,-0.512178629747,-0.125163202769,-2.63486323459,-0.0668178281121,2.11216257791,-0.932445241298,-0.0394015634972,0.00888459463034,-0.00160330219368,0.006165308595,0.00428211307312,0.0046286875894,-0.046913921804,0.573817007421,0.818948116839,0.00622662199912,0.0,0.818948333819,-0.573726450691,-0.0119303484454,0.0,-0.00619807798547,0.0119453485389,-0.999909442138,0.0,0.256514579402,-0.271088708581,0.3049968726,1.0,-0.00926000000001,-0.0121702857143,3.412
-0.684923111363,-0.512015436097,-0.12511852828,-2.63474171801,-0.0667913112418,2.11219693001,-0.933150072085,-0.0398873076551,0.0079735730544,0.00130212084625,0.00681785911477,0.000695184413146,0.000301357019988,-0.0409099576066,0.573832178652,0.818937533738,0.00622040830404,0.0,0.818937656656,-0.57374161901,-0.0119338186265,0.0,-0.00620426431409,0.0119423656696,-0.999909439403,0.0,0.256354948312,-0.271300793134,0.30499565399,1.0,-0.00890000000001,-0.0116971428571,3.43
-0.685570290393,-0.511879522604,-0.125081082399,-2.63465604207,-0.0667676891898,2.11222955408,-0.933782308138,-0.0395728317666,0.00507040032193,-0.000771107631544,0.0012720573901,0.00637241710839,0.000448540880299,-0.0362208922283,0.573832388322,0.818937396005,0.00621919916731,0.0,0.818937419384,-0.573741672458,-0.0119475235674,0.0,-0.0062161797881,0.0119492409598,-0.99990928326,0.0,0.256211019645,-0.271481401135,0.304987929348,1.0,-0.00858000000001,-0.0112765714286,3.446
-0.686122818416,-0.511738514288,-0.125059804951,-2.63457942032,-0.0667517177032,2.11225509453,-0.934363404962,-0.0382998128908,0.00973654501276,0.00219333067364,0.00575663998632,0.0054277074271,8.94218005749e-05,-0.0348799684012,0.57380482189,0.818956690305,0.00622195156232,0.0,0.81895652328,-0.57371366602,-0.0119828752907,0.0,-0.00624395746333,0.0119715699312,-0.999908843099,0.0,0.256085085859,-0.271638359365,0.304973212297,1.0,-0.00828000000001,-0.0108822857143,3.461
-0.68673962841,-0.511593665988,-0.125047039483,-2.63451130577,-0.0667285009462,2.11227143376,-0.934999538443,-0.0398291848088,0.00585745016802,-0.000751150925905,0.00419737392721,0.000524388458273,0.000453814264673,-0.0350389491857,0.573793621823,0.818964408755,0.00623888199791,0.0,0.818964098721,-0.573701699412,-0.012037940003,0.0,-0.00627950811253,0.0120169449295,-0.999908076181,0.0,0.255936949223,-0.271809146594,0.304952224223,1.0,-0.00794000000001,-0.0104354285714,3.478
-0.687310966903,-0.511465506337,-0.125039492251,-2.63444605591,-0.0667085773751,2.11228928079,-0.935552179548,-0.0366057641725,0.00900059575118,-0.000830262888234,0.00405062478453,0.000828134399648,-0.000363125307243,-0.0347246905093,0.573815655174,0.818948858114,0.0062536847413,0.0,0.818948474079,-0.573723152549,-0.0120784077748,0.0,-0.00630383589854,0.0120524570942,-0.999907495687,0.0,0.255799528659,-0.27196941012,0.304936113736,1.0,-0.00762000000001,-0.0100148571429,3.494
-0.687882081394,-0.511331514188,-0.125024642534,-2.63437307866,-0.0666821652323,2.11230063965,-0.936113124366,-0.0342890235166,0.00346598481477,0.000822476587377,0.00444564949268,0.00500100215101,0.00364367337973,-0.0300087810967,0.573828663712,0.818939614466,0.00627052330213,0.0,0.818939153973,-0.573735517286,-0.0121229203142,0.0,-0.00633043963848,0.0120918890185,-0.999906851539,0.0,0.255664928742,-0.272128360591,0.304920970056,1.0,-0.00728000000001,-0.00956800000001,3.511
-0.688480869464,-0.511190575036,-0.125001573123,-2.63428222013,-0.0666593119577,2.11232511123,-0.936712518189,-0.0330607512091,0.00780981202897,0.000252325362158,0.00683527299252,0.000344332250017,0.00271961702709,-0.032895245513,0.573826307094,0.818941222766,0.00627613275069,0.0,0.818940693982,-0.573732865642,-0.0121443618191,0.0,-0.00634481704703,0.0121087679363,-0.999906556152,0.0,0.255530035161,-0.272299461292,0.304912677172,1.0,-0.00690000000001,-0.00906857142858,3.53
-0.689002449564,-0.511084721229,-0.124973262576,-2.63420462993,-0.066636222844,2.11234488406,-0.937235833562,-0.0277462801067,0.00629459701489,0.0035492709752,0.00425220829121,0.00105451666125,0.00483662966697,-0.0277027172471,0.573818620233,0.818946587358,0.00627893532443,0.0,0.818946061393,-0.573725103272,-0.012149127736,0.0,-0.0063472260851,0.0121137382952,-0.99990648066,0.0,0.255414410969,-0.272446057046,0.304911070119,1.0,-0.00656000000001,-0.00862171428572,3.547
-0.689439408764,-0.510989511759,-0.124937685561,-2.63413362309,-0.0666163373663,2.11236209746,-0.937690425115,-0.0295396405186,0.00685347466734,-0.0025602362121,0.00537084594963,0.00260582647054,7.25736669385e-05,-0.0362756787527,0.573784722843,0.818970387556,0.00627240303358,0.0,0.818969755509,-0.573691203359,-0.012152763146,0.0,-0.0063544530422,0.0121102113715,-0.99990647748,0.0,0.255316718127,-0.272575167249,0.304911605452,1.0,-0.00624000000001,-0.00820114285715,3.563
-0.689877734275,-0.510888212001,-0.124900744734,-2.63405152722,-0.0665956730297,2.11238546302,-0.9381528761,-0.0267529236688,0.00462472096397,0.00273891235802,0.00107371682389,0.00253287558714,-0.000275009321524,-0.0228064882828,0.57375798146,0.818989144211,0.00626955151071,0.0,0.818988513316,-0.573664553923,-0.0121466674577,0.0,-0.00635149160142,0.0121041711157,-0.999906569433,0.0,0.255231848608,-0.272693310117,0.304912988491,1.0,-0.00594000000001,-0.00780685714286,3.578
