nelsonifechukwu/NELSON_IML_WORK/CNN-GradCAM/train2dof/data_sample_2022-02-21-15-28-40/robot_state.csv
position_joint1,position_joint2,position_joint3,position_joint4,position_joint5,position_joint6,position_joint7,velocity_joint1,velocity_joint2,velocity_joint3,velocity_joint4,velocity_joint5,velocity_joint6,velocity_joint7,ee_T_00,ee_T_10,ee_T_20,ee_T_30,ee_T_01,ee_T_11,ee_T_21,ee_T_31,ee_T_02,ee_T_12,ee_T_22,ee_T_32,ee_T_03,ee_T_13,ee_T_23,ee_T_33,v_x,v_y,time
0.465078301383,0.54787297599,-0.123904641527,-1.3558749474,0.0794622974354,1.89409473541,0.159179575493,0.000119258535264,-0.000115340361272,0.000532694325546,-0.00164206668645,6.99241365146e-05,4.91077126614e-05,0.0015227959491,0.573752466189,0.819014974211,0.00182385911991,0.0,0.818970037135,-0.57369429262,-0.0119868173894,0.0,-0.00877121424048,0.00837131318381,-0.999926490756,0.0,0.661645492457,0.260929348152,0.30312604114,1.0,0.0,0.0,0.0
0.465074137168,0.547872976001,-0.123906971373,-1.35586965772,0.079462310365,1.89409662962,0.159176672881,-0.000923618495997,-0.00101375150365,0.000252499740701,0.000812689609964,5.83942850475e-05,-0.000106034507657,0.000409755175118,0.573754856448,0.819013287791,0.00182921463627,0.0,0.818968440933,-0.573696678964,-0.0119816611301,0.0,-0.00876389404555,0.00837276652222,-0.999926542773,0.0,0.661648705341,0.260926004953,0.303128800122,1.0,-4e-05,-5.25714285714e-05,0.003
0.465076523125,0.547871927868,-0.123902933868,-1.355870278,0.0794652605471,1.89409787513,0.159176424767,0.000630274578976,-0.000423835017272,0.00135544956578,0.00119984420282,0.000148624018231,0.000329668330943,0.000741086900424,0.57375070092,0.819016189849,0.00183326494324,0.0,0.818971348214,-0.573692461022,-0.0119849018506,0.0,-0.0087642671117,0.00837789859996,-0.999926496517,0.0,0.66164712388,0.260930423478,0.30312922742,1.0,-0.0004,-0.000525714285714,0.021
0.465075569578,0.547861022434,-0.123908212487,-1.35588132644,0.0794633871168,1.89409875506,0.159173725278,-2.40479508752e-05,-0.00249852024822,-0.000539988000193,-0.000965593704271,0.000497123688531,0.00124629079472,-0.00654329846854,0.573753052575,0.819014544867,0.00183217312512,0.0,0.818969723412,-0.573694849987,-0.0119815747543,0.0,-0.00876214440643,0.00837512065447,-0.999926538391,0.0,0.661646621951,0.260925326023,0.303131942328,1.0,-0.0007,-0.00092,0.036
0.465075821164,0.547814581936,-0.123908618502,-1.3559232929,0.079461941774,1.89410290825,0.159176421823,-0.00076151339658,-0.0105140756489,0.000402366881261,-0.00600046955401,-0.000126220964976,-0.000140204853252,0.00116820991402,0.573757193282,0.81901162448,0.00184093036175,0.0,0.818966895138,-0.573698931411,-0.0119794686094,0.0,-0.00875535283256,0.00838112867158,-0.999926547542,0.0,0.661639169172,0.260920936656,0.303145239394,1.0,-0.00106,-0.00139314285714,0.054
0.465080073656,0.547674875907,-0.123901189317,-1.3560917313,0.0794635196836,1.89413257726,0.159170945899,0.000388099686758,-0.00709198330075,0.000646162074466,-0.0123538102765,0.00016440469954,0.00315410871669,-0.000822421514664,0.573753602101,0.819014115252,0.00185202475115,0.0,0.818969339583,-0.573695109951,-0.0119953550141,0.0,-0.00876203622712,0.00839929134755,-0.9999263366,0.0,0.661607260098,0.26091216326,0.303166374384,1.0,-0.00142,-0.00186628571429,0.072
0.46506627338,0.547556221695,-0.123906095385,-1.35626266543,0.079459797861,1.89417212965,0.159164592972,-0.00416289310543,-0.00788560716737,0.000475567737468,-0.015764211675,-0.000109172524606,-0.000378256552981,-0.00146140339156,0.573771531943,0.819001571156,0.00184458031299,0.0,0.818956631049,-0.57371300525,-0.0120071216273,0.0,-0.00877576072365,0.00840013757785,-0.999926209134,0.0,0.661584025671,0.26088354298,0.303172662129,1.0,-0.00172,-0.00226057142857,0.087
0.465041516965,0.547379094678,-0.123911135965,-1.35647548288,0.0794540962505,1.89428844579,0.159159188697,-0.00164007892824,-0.0126254380619,-0.00120100224755,-0.0117856810809,-0.000553656985321,0.00708386563411,0.000691217414477,0.573801505038,0.818980409917,0.00191517324129,0.0,0.818936406531,-0.57374268757,-0.0119681836583,0.0,-0.00870305887665,0.00843592930558,-0.999926543234,0.0,0.661571050739,0.260848306121,0.303207096176,1.0,-0.00206,-0.00270742857143,0.104
0.46502613237,0.547184688478,-0.12390083588,-1.35670507157,0.0794506279502,1.89442569948,0.159143947085,-0.00105843194207,-0.00958568373614,0.00667049220293,-0.0147588178586,-0.000113619007502,0.00109817456956,-0.00181160338529,0.573806639632,0.818976586999,0.00200926915878,0.0,0.818933737317,-0.573747356015,-0.0119269547994,0.0,-0.0086152497378,0.00848938760298,-0.99992685121,0.0,0.661552761412,0.260828171553,0.303247096105,1.0,-0.0024,-0.00315428571429,0.121
0.464990377973,0.546973681304,-0.123906125629,-1.35700694821,0.0794475944172,1.89455473822,0.159116463811,-7.56517775018e-05,-0.00868398221274,-0.000250809688467,-0.021149653956,0.00041989278453,0.00608971944745,-0.000388464873245,0.573833289948,0.818957817317,0.00204834165601,0.0,0.818915390878,-0.573773757014,-0.0119165954087,0.0,-0.00858406954807,0.00851572161025,-0.999926895446,0.0,0.661525537405,0.260776674184,0.303264243578,1.0,-0.00274,-0.00360114285714,0.138
0.464952749295,0.546722614245,-0.123906152014,-1.35738820983,0.0794330136965,1.89469125713,0.159016724145,-8.5457275969e-05,-0.0146274063038,-0.000596783756984,-0.0206643828254,-0.0020400767344,0.00888899280437,-0.0108394749206,0.573799863208,0.818981210846,0.00205916592079,0.0,0.818938836479,-0.573740201637,-0.0119209912947,0.0,-0.00858180684083,0.00852675828403,-0.999926820815,0.0,0.661482552726,0.260716718191,0.303272421836,1.0,-0.00308,-0.004048,0.155
0.464909082542,0.546444236832,-0.123909248917,-1.35782724612,0.0794217520974,1.89484395854,0.158954684406,-0.00137668983651,-0.0132174409702,0.000437916862292,-0.0259872091519,0.000262774991373,0.00953698826019,-0.00571003399576,0.573808487101,0.818975166049,0.00206020085183,0.0,0.8189326658,-0.573748681741,-0.0119367494959,0.0,-0.00859402933935,0.0085367383035,-0.999926630688,0.0,0.661432319553,0.260646126914,0.303273940675,1.0,-0.00342,-0.00449485714286,0.172
0.464859357808,0.546167388709,-0.123909320588,-1.35829714999,0.079399165228,1.89500679395,0.15893220984,-0.00570273444768,-0.0149836596222,0.000477832978657,-0.0335943676804,0.000231451645577,0.0139993885778,-0.00101876075038,0.573851094422,0.818945370658,0.00203671537015,0.0,0.818902494707,-0.573791312197,-0.0119574709495,0.0,-0.00862403193343,0.00852984331445,-0.999926431217,0.0,0.661378459783,0.260568447505,0.303260428302,1.0,-0.00374,-0.00491542857143,0.188
0.464812381875,0.545844627877,-0.123904749955,-1.35885661704,0.0793333764284,1.89520026884,0.158855810986,0.000502958545923,-0.0151600966685,0.0013927292329,-0.0315132288357,-0.0085695104099,0.0163079579722,-0.0110751268758,0.573837551328,0.818954993008,0.00198267849322,0.0,0.818911653701,-0.573778234089,-0.0119577765405,0.0,-0.00865542968233,0.00848562310749,-0.99992653617,0.0,0.661311945729,0.260480329875,0.30323920645,1.0,-0.00408,-0.00536228571429,0.205
0.464737695252,0.545444424618,-0.123911539166,-1.35955442722,0.0792656847198,1.89543472792,0.158731985228,-0.0018738429804,-0.0264247133859,0.00109427543326,-0.0438401738298,-0.00677450238468,0.0118037582842,-0.00631535034439,0.57382293785,0.818965398503,0.00191283922002,0.0,0.818921373274,-0.573764135965,-0.0119686079409,0.0,-0.00870452481864,0.0084344890816,-0.999926542623,0.0,0.661233725569,0.260354382224,0.303210873541,1.0,-0.00444,-0.00583542857143,0.223
0.464681784523,0.545061165671,-0.123914647762,-1.3602112458,0.079254938901,1.89563729424,0.158672237722,-0.00533946357053,-0.023897171239,-0.000418008036275,-0.0429730822138,-0.00239935208219,0.00966951122036,-0.00528577152936,0.573855540893,0.818942658087,0.00186757931823,0.0,0.818897728725,-0.573796626643,-0.0120286343024,0.0,-0.00877932006509,0.00843221725203,-0.999925907881,0.0,0.661149111415,0.260254684917,0.3031872371,1.0,-0.00476,-0.006256,0.239
0.464609869895,0.544616658442,-0.123920487271,-1.36092765973,0.0792279173103,1.8959041905,0.158603172611,-0.00650449398596,-0.026309993315,-0.00198983620781,-0.0419882860458,-0.00401192344288,0.0174924040331,-0.0060640439255,0.573894758457,0.818915170954,0.00186973193261,0.0,0.81887014759,-0.573835712697,-0.0120417241828,0.0,-0.00878840086557,0.00844191258788,-0.999925746304,0.0,0.661070873675,0.260138302075,0.303184194728,1.0,-0.0051,-0.00670285714286,0.256
0.464541636978,0.544101995033,-0.123912879138,-1.36176620758,0.0791876914137,1.89620579573,0.158470663763,-0.00371747366233,-0.0287500669822,0.00196771108819,-0.0453708376956,-0.00543631092773,0.0195722162862,-0.00901259638316,0.573872785916,0.818930595538,0.00185800351934,0.0,0.818885258339,-0.573813640055,-0.0120659464318,0.0,-0.00881519465429,0.00844597259661,-0.999925476168,0.0,0.660969899329,0.260018788338,0.303175171447,1.0,-0.00546,-0.007176,0.274
0.464478860791,0.543668624674,-0.123916134215,-1.36245098985,0.0791531141943,1.89643410232,0.158399729065,-0.00524653240423,-0.0333237949659,0.000420539547253,-0.0519756403937,-0.00229995892611,0.0102141325835,-0.0134480415262,0.573897128202,0.818913573886,0.00184164281615,0.0,0.818867936382,-0.573837968615,-0.0120845125396,0.0,-0.00883953696844,0.008443491858,-0.999925282224,0.0,0.660888208963,0.259909719127,0.303175759129,1.0,-0.00574,-0.007544,0.288
0.464404942837,0.543122848404,-0.123919284992,-1.36330601216,0.0790920021085,1.896748926,0.158283998984,-0.00284371204029,-0.0322000771879,0.00133652710894,-0.052088167246,-0.00607503238967,0.0185252089584,-0.00853662330534,0.573905658682,0.818907602624,0.00183853162727,0.0,0.818862035177,-0.573846617512,-0.0120736827913,0.0,-0.0088323655244,0.00843482102156,-0.999925418776,0.0,0.660786614508,0.259764363304,0.303181898854,1.0,-0.0061,-0.00801714285714,0.306
0.464327524067,0.542499195892,-0.123921567932,-1.36427156425,0.0790400022931,1.89710114282,0.158156905321,-0.00569540469742,-0.0357737961246,-5.6678330263e-05,-0.0551394941862,-0.00162284704554,0.0170324161624,-0.00957562558854,0.57389702303,0.818913624792,0.00185175303506,0.0,0.818868151286,-0.573837849315,-0.0120756119485,0.0,-0.00882644710966,0.00844666195737,-0.999925371082,0.0,0.660679475086,0.259632800128,0.30319439225,1.0,-0.00644,-0.008464,0.323
0.464254797139,0.541931817857,-0.123927098674,-1.36516164903,0.0789986518699,1.89743480776,0.158031886565,-0.00153400160275,-0.0369495729187,0.00233729566124,-0.0568970038952,-0.000352950491561,0.0208371811713,-0.00790848656053,0.573896501988,0.81891395747,0.00186605684344,0.0,0.818868580869,-0.573837179126,-0.0120783285384,0.0,-0.00882046884924,0.00845992869712,-0.999925311679,0.0,0.660578156523,0.25949930086,0.303201085064,1.0,-0.00676,-0.00888457142857,0.339
0.464171654649,0.541266501977,-0.123927513247,-1.36615929929,0.0789332777994,1.89780926713,0.157905062801,-0.00883877082188,-0.0394000560412,-0.000380098442583,-0.0589763878455,-0.00279928253424,0.0238204759515,-0.00520009718053,0.573898885139,0.818912211442,0.00189907576844,0.0,0.818867318046,-0.573839467254,-0.0120552129481,0.0,-0.00878256555907,0.0084737274978,-0.999925528469,0.0,0.66046546291,0.259349301369,0.303229073016,1.0,-0.0071,-0.00933142857143,0.356
0.464087107759,0.540588176993,-0.123922785357,-1.36723141211,0.078867013156,1.89819199838,0.157771190828,-0.00591003269255,-0.0375244117466,9.99309679123e-05,-0.0647742148037,-0.00294510921495,0.0204013258299,-0.0105487095876,0.573896772606,0.818913713282,0.00188983920936,0.0,0.818868657366,-0.573837354938,-0.0120647818943,0.0,-0.00879572435279,0.00847163259251,-0.999925430557,0.0,0.660336606603,0.259193107985,0.303231275196,1.0,-0.00744,-0.00977828571429,0.373
0.463992210666,0.539887574908,-0.123925706569,-1.36828422994,0.0788094317187,1.89859292265,0.157644438813,-0.00411534604796,-0.0463857492773,-0.000506803311554,-0.0658592484794,-0.00964360842441,0.0301879924627,-0.00610656770105,0.573919005625,0.818898022657,0.00193658772763,0.0,0.818853585257,-0.573859389722,-0.0120396694629,0.0,-0.00874810089318,0.00849574049949,-0.999925643798,0.0,0.660214138941,0.25902044424,0.303261249864,1.0,-0.00778,-0.0102251428571,0.39
0.463884066019,0.539135159498,-0.123927876084,-1.36946204683,0.0787412355705,1.89903906971,0.157496811684,-0.00638532490035,-0.0458865524499,0.000931404362698,-0.0724557245735,0.000235336377204,0.0355357783347,-0.0137958048835,0.573931745762,0.818889058511,0.00195139931097,0.0,0.818844765345,-0.573872016577,-0.0120376807091,0.0,-0.00873783979529,0.00850686399869,-0.999925638946,0.0,0.660088885811,0.258847545822,0.303269893451,1.0,-0.0081,-0.0106457142857,0.406
0.463770114769,0.538316570827,-0.123939450298,-1.37073013141,0.0786762309513,1.89952300002,0.157329671734,-0.00481791475311,-0.04964626319,-0.00194659023911,-0.0644373536241,-0.00276048349513,0.0243841198387,-0.00853897717322,0.573949005959,0.818876884235,0.00198341288016,0.0,0.818832971172,-0.573889100242,-0.012025508118,0.0,-0.0087093192672,0.00852627644945,-0.999925722425,0.0,0.659949189556,0.258648167843,0.303286893447,1.0,-0.00846,-0.0111188571429,0.424
0.463661209586,0.537617541315,-0.123940564517,-1.37184573269,0.0786069940052,1.89995101316,0.157203504892,-0.00302616141389,-0.0512771674254,-0.000878080762784,-0.0732280505738,-0.00746940061005,0.0370280163415,-0.00530779570757,0.573978720911,0.818856039925,0.00199015593163,0.0,0.818812248009,-0.57391881513,-0.0120184462886,0.0,-0.00869935688928,0.00852806067191,-0.999925793932,0.0,0.659826780035,0.258470254323,0.303286693022,1.0,-0.00876,-0.0115131428571,0.439
0.463539761128,0.536737280091,-0.123946287307,-1.37322083961,0.078522906205,1.90046728191,0.157027103687,-0.0096984644057,-0.0454647102862,-0.0014742319836,-0.0818905063309,-0.0106652773995,0.0279068287975,-0.012403547213,0.573990933066,0.818847441956,0.00200560737733,0.0,0.818803886255,-0.57393099397,-0.0120065363512,0.0,-0.00868060847096,0.00853400642406,-0.999925906141,0.0,0.659671448546,0.258256573232,0.303298601343,1.0,-0.00912,-0.0119862857143,0.457
0.463421137605,0.535885551928,-0.12395006446,-1.37457670707,0.0784511654279,1.90095903938,0.156860944079,-0.00507804223849,-0.0453139201184,-0.000346878323329,-0.0781158739461,-0.0024558695914,0.0310315677832,-0.00290276503584,0.574009901333,0.81883416116,0.00199914752229,0.0,0.818790416137,-0.57394988417,-0.0120221380606,0.0,-0.0086968942875,0.0085378734942,-0.999925731615,0.0,0.65951274371,0.258048142562,0.303297193534,1.0,-0.00946,-0.0124331428571,0.474
0.463302535278,0.534974000097,-0.123950768101,-1.37601355156,0.0783674491387,1.90147675883,0.156689541181,-0.00464426223537,-0.0500519255046,-5.50385421218e-05,-0.0911961593319,-0.0036578843644,0.0362185561424,-0.0166966709897,0.574023438397,0.818824684073,0.0019939470667,0.0,0.81878080916,-0.573963380916,-0.0120320746082,0.0,-0.0087078747436,0.00853946284146,-0.99992562248,0.0,0.659341604802,0.257832533812,0.303301421936,1.0,-0.0098,-0.01288,0.491
0.463192322592,0.534131481993,-0.123953615669,-1.37739566015,0.0782942989045,1.9019772921,0.15651069371,-0.0044122516845,-0.0510010837537,-0.0021067558111,-0.0880185553318,-0.00405480396691,0.0316809855888,-0.0123240856916,0.574025317528,0.818823437756,0.00196456602795,0.0,0.818779058155,-0.57396526796,-0.0120611775331,0.0,-0.00874855062106,0.00853213105519,-0.999925330013,0.0,0.659175331653,0.257627353472,0.303281437401,1.0,-0.01012,-0.0133005714286,0.507
0.463065239138,0.533220331678,-0.123948834681,-1.3788765927,0.0782128707182,1.90254268752,0.156332985854,-0.00730647070194,-0.0508050910324,0.000492131185505,-0.0900037398455,-0.00361867800459,0.0379540243169,-0.00796405797885,0.574039798217,0.818813287321,0.00196404450657,0.0,0.818768804985,-0.573979655555,-0.0120725264236,0.0,-0.00875799207626,0.00853837339588,-0.999925194079,0.0,0.659003527284,0.257407729274,0.303268026281,1.0,-0.01046,-0.0137474285714,0.524
0.46294345932,0.532310792387,-0.12394878064,-1.38034711979,0.0781241045875,1.90309171896,0.156135745626,-0.00930401599246,-0.0566200524043,0.000747562372122,-0.0893511409185,-0.0071782509821,0.0363833046135,-0.0146036974491,0.574034459094,0.81881705799,0.00195249026964,0.0,0.818772405241,-0.573974348462,-0.012080671511,0.0,-0.00877134945043,0.00853353118749,-0.999925118334,0.0,0.658830577427,0.257187803098,0.303256965,1.0,-0.01078,-0.014168,0.54
0.46280680032,0.531251409493,-0.123953409435,-1.38203401524,0.0780229160989,1.90369998476,0.155925156521,-0.0103312020836,-0.0548604637333,-0.00580043258693,-0.0918503597536,-0.00829385613204,0.0331907652634,-0.0163959865069,0.574041788267,0.818811961403,0.00193496460693,0.0,0.818767046354,-0.573981721045,-0.0120935773122,0.0,-0.00879190071551,0.00852666816766,-0.999924996393,0.0,0.658628092062,0.256933682019,0.303253610477,1.0,-0.01114,-0.0146411428571,0.558
0.462665455182,0.530201267219,-0.123953409471,-1.38367672196,0.0779231365752,1.90428157503,0.155712041799,-0.00874832261529,-0.0674631503116,8.22527907961e-05,-0.0890290376778,-0.00271704537851,0.0305846500986,-0.0128488913771,0.574045286761,0.818809529786,0.00192602722099,0.0,0.818764440206,-0.573985202461,-0.0121047805348,0.0,-0.0088061680795,0.00852581896113,-0.999924878086,0.0,0.658429943158,0.256682745498,0.303262049192,1.0,-0.01148,-0.015088,0.575
0.462537516177,0.529203790654,-0.123957178617,-1.38523957597,0.0778234545723,1.90486415636,0.155506483089,-0.00310839647043,-0.0600934496185,-0.000203205385356,-0.0992823308014,-0.00257010159485,0.0424934635453,-0.00634211677385,0.574042361312,0.818811556548,0.00193628121283,0.0,0.818766651321,-0.573982281081,-0.012093741828,0.0,-0.00879127372261,0.00852784678819,-0.999924991855,0.0,0.658246237663,0.256447331489,0.30327136396,1.0,-0.0118,-0.0155085714286,0.591
0.462389281195,0.528111247594,-0.123957232822,-1.38693445134,0.077712576666,1.90552701938,0.155255927277,-0.00667858761164,-0.0635400128932,0.00016500378656,-0.102686853639,-0.0107472565633,0.0327739837112,-0.0178911339713,0.574020721705,0.818826618049,0.00198179953954,0.0,0.818782412951,-0.573960548771,-0.0120580097062,0.0,-0.00873611275413,0.00854437454854,-0.999925334211,0.0,0.658054693972,0.256189949184,0.303291373508,1.0,-0.01214,-0.0159554285714,0.608
0.462235672414,0.526949856527,-0.123960432276,-1.38868617854,0.0776071569089,1.9061989038,0.155030734553,-0.0126772792194,-0.0725426633593,0.000389420501412,-0.0956376149969,-0.0132200395455,0.0427677203788,-0.0121715936668,0.574030693352,0.818819458631,0.00205040443704,0.0,0.818776178755,-0.573970254718,-0.0120192638799,0.0,-0.00866490281254,0.00857841384948,-0.999925662374,0.0,0.657854726445,0.255922884997,0.303333378682,1.0,-0.01248,-0.0164022857143,0.625
0.462103305273,0.525846724794,-0.123960873487,-1.39041218723,0.0774885162928,1.9068265307,0.154795314323,-0.0104452239016,-0.0669292451571,0.00149628006787,-0.10849943777,-0.00877994858273,0.0370393420888,-0.0102656675872,0.574007532364,0.818835704388,0.0020466828148,0.0,0.818792462601,-0.573947198171,-0.0120109866817,0.0,-0.00866050361434,0.0085703702947,-0.99992576946,0.0,0.657644536755,0.255668611996,0.303342410523,1.0,-0.0128,-0.0168228571429,0.641
0.461937652145,0.524676413043,-0.123963746815,-1.39226072885,0.0773765086729,1.90748538129,0.154528195392,-0.00788786318451,-0.0712307383078,0.000441188350853,-0.108767447446,-0.0104924077426,0.0404917315072,-0.0176376095021,0.573995536551,0.818844154624,0.00203011303948,0.0,0.818800641534,-0.573935219761,-0.0120257990052,0.0,-0.00868226900718,0.00856517771774,-0.999925625202,0.0,0.657421718888,0.255380592674,0.303342907803,1.0,-0.01314,-0.0172697142857,0.658
0.461780806307,0.523475243873,-0.123975027355,-1.39418231618,0.0772572513624,1.90819126335,0.154271078555,-0.0107198824354,-0.0716344025935,-0.00114055802162,-0.110615613932,-0.00649708678117,0.0433453882717,-0.012805475684,0.573992341943,0.818846437253,0.00201258285908,0.0,0.818802732879,-0.573932137262,-0.0120305174177,0.0,-0.00869622777336,0.00855349789385,-0.999925603881,0.0,0.657191373282,0.255087252223,0.303334381888,1.0,-0.01348,-0.0177165714286,0.675
0.461634379028,0.522328021868,-0.12397361618,-1.3960075672,0.0771461509796,1.90890972405,0.154029851353,-0.00944735181285,-0.0712741218329,-0.00125540475633,-0.109560751663,-0.00694572415277,0.047898477792,-0.0187404639139,0.573981757741,0.818853777944,0.00204426731966,0.0,0.818810515187,-0.573921447441,-0.0120107987819,0.0,-0.00866200587012,0.00856801193471,-0.999925776658,0.0,0.656978210737,0.254821045277,0.303334164754,1.0,-0.0138,-0.0181371428571,0.691
0.461462857762,0.520994239018,-0.123976081662,-1.39814285422,0.0770160356082,1.90971697328,0.153744642084,-0.005270168353,-0.0726352155378,-0.0043463701603,-0.117111292,-0.0105055048176,0.0455597855915,-0.017670632341,0.573969450282,0.818862399943,0.00204621701546,0.0,0.818819164147,-0.573909134789,-0.0120095100856,0.0,-0.00865996034499,0.00856873858304,-0.999925788149,0.0,0.656722244574,0.254504757754,0.303324956097,1.0,-0.01416,-0.0186102857143,0.709
0.461295189668,0.519684849961,-0.123983578928,-1.40018917385,0.0768869621006,1.91044963434,0.153463881375,-0.00595386608933,-0.0797761052372,-0.00134647508492,-0.119223029908,-0.0123409428797,0.0382880779569,-0.0135334597923,0.573956044133,0.818871814795,0.00203893075929,0.0,0.818828493148,-0.573895770276,-0.0120121009871,0.0,-0.0086664040513,0.00856411745135,-0.999925771912,0.0,0.656471086557,0.254193507915,0.30333421382,1.0,-0.0145,-0.0190571428571,0.726
0.461127494179,0.518418964824,-0.123982226364,-1.40216101916,0.0767646353677,1.91114805032,0.153195616646,-0.0174286417808,-0.0733207540979,-0.0034921747095,-0.129039910838,-0.0141258539244,0.0406105531107,-0.017782993238,0.573944137919,0.818880175511,0.00203263481943,0.0,0.818836708662,-0.573883830017,-0.0120225244484,0.0,-0.00867867776665,0.0085648183349,-0.999925659456,0.0,0.65622647342,0.2538944879,0.30334474638,1.0,-0.01482,-0.0194777142857,0.742
0.460930707514,0.516972214706,-0.123985333982,-1.40441880863,0.0766185754394,1.91196908729,0.152888730759,-0.00891781965027,-0.0824282317452,-0.00214130035041,-0.128205045011,-0.00696521775543,0.0472466736103,-0.0176308542216,0.573936087495,0.818885809784,0.00203590450576,0.0,0.818842420885,-0.573875801548,-0.0120166991227,0.0,-0.00867211502698,0.0085640671381,-0.999925722829,0.0,0.655952346624,0.253546756409,0.30335645774,1.0,-0.01518,-0.0199508571429,0.76
0.460752715461,0.515623570836,-0.123991123112,-1.40659861295,0.0764842494094,1.91280034327,0.152585144089,-0.00624653092283,-0.079456227635,-0.000649132333366,-0.126899794904,-0.0125828644009,0.0520219256044,-0.018421455118,0.573916365938,0.818899643729,0.00203108595343,0.0,0.818856224287,-0.573856134835,-0.0120152968939,0.0,-0.00867393821113,0.00855910769338,-0.999925749479,0.0,0.65569051459,0.253220351979,0.303337076853,1.0,-0.01552,-0.0203977142857,0.777
0.460588401675,0.514388915601,-0.123991352816,-1.40857105845,0.076367134216,1.91350309669,0.15232652993,-0.00783620942655,-0.0815906144647,-6.2728859783e-05,-0.13380785225,-0.00662842284153,0.046264735401,-0.0191649213081,0.573911369112,0.818903215028,0.00200292822183,0.0,0.818859321182,-0.57385115361,-0.0120421142402,0.0,-0.0087121111315,0.00855138735541,-0.999925483671,0.0,0.65544282353,0.252923433383,0.303324752015,1.0,-0.01582,-0.020792,0.792
0.46038731603,0.512890062951,-0.123992415002,-1.410970858,0.07622160418,1.91433448414,0.151985168706,-0.0110153619314,-0.0859413489863,0.000504709369123,-0.134236409789,-0.00434532969517,0.04844040443,-0.0138249316427,0.573883538,0.818922858198,0.00194525968201,0.0,0.818878070346,-0.573823438483,-0.0120877729863,0.0,-0.00878288710152,0.0085300686529,-0.999925046602,0.0,0.655136382762,0.252558925984,0.303304952648,1.0,-0.01618,-0.0212651428571,0.81
0.46018929201,0.511470896267,-0.12400059073,-1.41326342385,0.076081831661,1.91519666311,0.15165941912,-0.00939918456389,-0.0845042898396,-0.00095130744917,-0.136637849498,-0.00775656107822,0.0536293000646,-0.0277290293211,0.573867107485,0.818934404085,0.00193174885325,0.0,0.818889446894,-0.573807076269,-0.0120937955373,0.0,-0.00879574342524,0.00852228429388,-0.999924999972,0.0,0.654859115404,0.252206960184,0.303282810333,1.0,-0.01652,-0.021712,0.827
0.459998987122,0.510093588332,-0.123998810473,-1.41545570374,0.0759589000593,1.91603007093,0.151354279642,-0.00708098557543,-0.0856243462907,4.80583351807e-05,-0.137982726687,-0.00310162145857,0.0473746257295,-0.0190336453979,0.573853225166,0.818944084014,0.0019519543733,0.0,0.818899270076,-0.573792989795,-0.0120969927238,0.0,-0.00878691206499,0.00854051673228,-0.999924922057,0.0,0.654592939851,0.251878017394,0.303275827834,1.0,-0.01684,-0.0221325714286,0.843
0.459793794526,0.508583398426,-0.124006874898,-1.41782298132,0.0757994872765,1.91687047851,0.151027986419,-0.0156247749249,-0.0840643002359,-0.000389628941796,-0.137133957069,-0.00954685534447,0.0387879043074,-0.0196136531802,0.573839368368,0.81895384826,0.00192889409118,0.0,0.818908806821,-0.573779307731,-0.0121003731791,0.0,-0.00880305715025,0.00852342296313,-0.999924925905,0.0,0.654296896367,0.251509349291,0.303278917628,1.0,-0.01718,-0.0225794285714,0.86
0.459582412853,0.507041601516,-0.124010661027,-1.42022707479,0.075642733534,1.91774169673,0.150690830454,-0.0135791360746,-0.0897518943317,-0.00118540162963,-0.142518558434,-0.00635245646512,0.0517770978222,-0.0117252868306,0.573820999381,0.818966714312,0.00193091152964,0.0,0.818921732838,-0.573760964725,-0.0120953604098,0.0,-0.00879798529965,0.00852200128897,-0.999924982661,0.0,0.653998498626,0.251137752643,0.303288599341,1.0,-0.01752,-0.0230262857143,0.877
0.459384613436,0.505543755901,-0.12401725854,-1.42254733553,0.075500155334,1.9186226387,0.15037528978,-0.010396651058,-0.10391181229,-0.000103355671035,-0.148258831094,-0.0082873701624,0.0568094024374,-0.0154196908979,0.573810696469,0.818973821112,0.00197784044961,0.0,0.818929483211,-0.573750487854,-0.0120675646411,0.0,-0.00874840103659,0.00854437403433,-0.99992522678,0.0,0.653716482219,0.250785713674,0.303307860523,1.0,-0.01784,-0.0234468571429,0.893
0.459155329315,0.503879141731,-0.124017592928,-1.42502494549,0.0753407113205,1.9195702631,0.150016751728,-0.0131780844256,-0.0979418401397,-0.00174270239164,-0.1485885435,-0.00731066359274,0.051316799167,-0.0240883967204,0.573800046071,0.818981016227,0.00208544723575,0.0,0.818938225034,-0.573739519984,-0.0119955695291,0.0,-0.00862780633915,0.00859107621091,-0.999925874436,0.0,0.653405096893,0.250372445727,0.303373264048,1.0,-0.0182,-0.02392,0.911
0.458908148178,0.502087165843,-0.124027568955,-1.42767698337,0.0751677053973,1.92055608854,0.149654461049,-0.014300364638,-0.100381484863,8.75427685981e-05,-0.151288006151,-0.0149428539219,0.0634053023536,-0.0201862921737,0.573791231968,0.818986920092,0.00218946015038,0.0,0.818945551798,-0.573730344664,-0.0119340564514,0.0,-0.00851784040544,0.00864087196817,-0.999926388154,0.0,0.653100466521,0.249982835709,0.303448285333,1.0,-0.01854,-0.0243668571429,0.928
0.458685477221,0.500468788025,-0.124030774799,-1.43011524691,0.0750174249947,1.92141776742,0.14931816013,-0.0129401929573,-0.10065259464,-0.000551767285361,-0.156275959853,-0.00282513228662,0.0589152757202,-0.0139725590581,0.573784003074,0.818991883493,0.00222699127468,0.0,0.818950931062,-0.573722890273,-0.0119232793338,0.0,-0.00848755654008,0.00866535035866,-0.999926433838,0.0,0.652792158361,0.249601942897,0.3034918994,1.0,-0.01886,-0.0247874285714,0.944
0.458437780975,0.498773362196,-0.124043615449,-1.43273940317,0.0748524867307,1.92237775985,0.148946709857,-0.0176847329541,-0.0992611079197,-0.001242703232,-0.154284198812,-0.0051306352263,0.0627374398764,-0.0208234845331,0.573780689543,0.818994144124,0.00224924417366,0.0,0.818953510794,-0.573719517628,-0.01190836477,0.0,-0.00846260866185,0.00867498318204,-0.999926561764,0.0,0.652468780613,0.249182417745,0.303509060953,1.0,-0.0192,-0.0252342857143,0.961
0.458180027769,0.497114494757,-0.124039672078,-1.43538187662,0.0746920183297,1.92334522459,0.14854195927,-0.011747189994,-0.0969290385916,-0.000938559212879,-0.158626749294,-0.00726094217724,0.0551098714323,-0.0293294687892,0.573748106384,0.819017003417,0.00223728315494,0.0,0.818976100829,-0.573686870522,-0.0119276050482,0.0,-0.00848557474648,0.00867588928253,-0.999926359272,0.0,0.652138777675,0.248764849531,0.303491596416,1.0,-0.01954,-0.0256811428571,0.978
0.457932870894,0.495534571188,-0.124040355175,-1.43792525652,0.0745253501584,1.92422107566,0.148184613335,-0.0171093647822,-0.0998986756892,-0.00115688452283,-0.160689889522,-0.00772570586111,0.051705446878,-0.0212857468739,0.573741245847,0.819022020732,0.00215853467292,0.0,0.818980020907,-0.573680260672,-0.0119762586861,0.0,-0.00857067586813,0.00863923668277,-0.999925950811,0.0,0.651809888394,0.248355248365,0.303457885179,1.0,-0.01986,-0.0261017142857,0.994
0.457589162445,0.493373465092,-0.124064468123,-1.44143543634,0.0743118602576,1.92548333843,0.147687715337,-0.0178358891747,-0.109400463509,-0.00586883312954,-0.187060565809,-0.0063029170179,0.0674001529397,-0.0220014026212,0.573751946593,0.819014727917,0.00207993673912,0.0,0.818971638909,-0.573691225038,-0.0120241373033,0.0,-0.00865487071912,0.00860244700769,-0.999925542787,0.0,0.651369278725,0.247780772889,0.303402378062,1.0,-0.023852,-0.0313483428571,1.015
0.457286909282,0.491193466822,-0.12409377254,-1.44487022824,0.074110736237,1.92676623155,0.147192770011,-0.0185559613708,-0.140584219508,-0.000182396234427,-0.219003156917,-0.011294809589,0.0755125918533,-0.0310646380023,0.573733125455,0.819027856353,0.00210194524408,0.0,0.818985033911,-0.57367229279,-0.0120150579204,0.0,-0.00863500563565,0.0086150642969,-0.999925605905,0.0,0.650939771433,0.247242915496,0.303396648321,1.0,-0.0285537142857,-0.0375277387755,1.032
0.456922469642,0.488813548015,-0.124099579561,-1.44871101944,0.0738839215205,1.92813316917,0.14663018251,-0.0230091086471,-0.156560952648,-0.00129302940192,-0.246962542778,-0.0130127159279,0.0918002249016,-0.0340297936078,0.57370491496,0.819047806007,0.00202704881078,0.0,0.81900374575,-0.573644148414,-0.0120831427448,0.0,-0.00873403502315,0.00859248438162,-0.999924940105,0.0,0.650442586937,0.246634817144,0.303342241681,1.0,-0.0329788571429,-0.0433436408163,1.048
0.456445517888,0.485791094284,-0.124146788491,-1.45335498508,0.0736020493769,1.92991045814,0.145946524776,-0.0263090579852,-0.187244832427,-0.000721295461896,-0.287832167688,-0.0161540359534,0.108627177172,-0.0534536574362,0.573723782401,0.819034275417,0.00215037221094,0.0,0.818992001691,-0.573662664719,-0.0119997989408,0.0,-0.00859482385495,0.00864587413764,-0.99992568617,0.0,0.649885118685,0.245861607633,0.303386969132,1.0,-0.0376805714286,-0.0495230367347,1.065
0.455876242527,0.482218430321,-0.124205534836,-1.45892946302,0.0732651077585,1.93186318236,0.145077930516,-0.0333033278142,-0.21187707638,-0.00275249595668,-0.327360523225,-0.0241999700221,0.113060011562,-0.0461992639302,0.573703333003,0.819048714164,0.00210628316288,0.0,0.819005750712,-0.573642288614,-0.012035444134,0.0,-0.00864952847857,0.00862999859111,-0.999925351605,0.0,0.649172792693,0.244922609557,0.303383954771,1.0,-0.0426588571429,-0.0560659265306,1.083
0.45534028566,0.478878610999,-0.124277111738,-1.46415557595,0.0729419018499,1.93371719466,0.144306783583,-0.039613599231,-0.230419288097,-0.00429418668382,-0.350056952621,-0.0271208966898,0.12996795001,-0.0495537118897,0.573729450823,0.819030517939,0.00206756951752,0.0,0.818987108322,-0.573668626713,-0.0120486526202,0.0,-0.00868228159103,0.0086061453263,-0.999925273332,0.0,0.648508996137,0.244031993047,0.303374341299,1.0,-0.0468074285714,-0.0615183346939,1.098
0.454621480681,0.474444634913,-0.124330171522,-1.47093106072,0.0725404880749,1.93621238446,0.143350784649,-0.04180256981,-0.257609091065,-0.00583359565933,-0.388809550748,-0.0290964283272,0.149059371559,-0.0534815706329,0.573792781641,0.81898580455,0.00220058716068,0.0,0.818944041324,-0.573731300701,-0.0119916086626,0.0,-0.00855857631346,0.0086830234086,-0.999925675176,0.0,0.647658388049,0.2428961603,0.30343639796,1.0,-0.0517857142857,-0.0680612244898,1.116
0.4538562026,0.469896998685,-0.124363064581,-1.47790964112,0.0721201467736,1.9387000256,0.142289445381,-0.0452103592735,-0.277407440519,-0.00569226522741,-0.420430958824,-0.0263355671413,0.154973327653,-0.0705030456054,0.573793847125,0.818984903311,0.00225744347092,0.0,0.818943594804,-0.573731839106,-0.0119963422579,0.0,-0.00852982023537,0.00873231437083,-0.99992549165,0.0,0.646758300293,0.241717428539,0.303474436429,1.0,-0.0564874285714,-0.0742406204082,1.133
0.453086407212,0.46522976361,-0.124386658942,-1.48493057941,0.0716657129026,1.94130983882,0.141154771757,-0.0519612539524,-0.293498266295,0.00119366999419,-0.453730830494,-0.0356955681129,0.162446961587,-0.0729877203935,0.573720619087,0.819035599333,0.00246681199594,0.0,0.818997156467,-0.573657928609,-0.0118737333698,0.0,-0.00831006406149,0.00883268772663,-0.999926460527,0.0,0.645867424041,0.240541677986,0.303579871984,1.0,-0.0609125714286,-0.080056522449,1.149
0.452342500037,0.460910762333,-0.124404996437,-1.49163583669,0.0712293747217,1.94359608958,0.140150502678,-0.0504453582323,-0.315627962436,0.00142649932656,-0.481105506702,-0.0306454129542,0.160385202381,-0.0655235152401,0.573714561892,0.819040098453,0.0023802311524,0.0,0.819000260944,-0.573651931254,-0.0119491105609,0.0,-0.00842153863354,0.0088049581881,-0.999925772444,0.0,0.644964659998,0.239401450048,0.303562940322,1.0,-0.0647845714286,-0.0851454367347,1.163
0.451374055721,0.455380212475,-0.124454720614,-1.5002326376,0.0706416045942,1.94656106782,0.138850362628,-0.0613805556693,-0.322264654376,-0.00293212935177,-0.513308448067,-0.0391461355656,0.176674070271,-0.0769183977034,0.573714467717,0.819040476768,0.00227020922576,0.0,0.81899924324,-0.573652323522,-0.0119999246485,0.0,-0.00852627736532,0.00874399836932,-0.999925419762,0.0,0.643812821267,0.237914274084,0.303533811114,1.0,-0.0694862857143,-0.0913248326531,1.18
0.450455845971,0.45007529298,-0.12449027332,-1.50806280528,0.0701086116339,1.94954739746,0.137566936882,-0.0688552220167,-0.363896790418,-0.00487363203901,-0.532245500109,-0.039563940943,0.20060361552,-0.0741207680133,0.573652744983,0.819082608767,0.00263725057113,0.0,0.819046679168,-0.573589745646,-0.01175108227,0.0,-0.00811256342923,0.00890124329964,-0.999927474461,0.0,0.642823034653,0.236566249143,0.303707944876,1.0,-0.0736348571429,-0.0967772408163,1.195
0.449265825331,0.443501947487,-0.124521551809,-1.51811611811,0.0694564605316,1.95305378386,0.136059514459,-0.0660413372971,-0.375118019778,0.000113355164094,-0.573611118514,-0.0294835440233,0.193591003344,-0.0893012480643,0.573688492051,0.819057498285,0.00265997997839,0.0,0.819021559956,-0.573625071301,-0.0117774701893,0.0,-0.00812075041422,0.00893535209764,-0.999927103791,0.0,0.641461878041,0.234820721292,0.303731106849,1.0,-0.0786131428571,-0.103320130612,1.213
0.44806174866,0.436981668834,-0.124556702718,-1.52831034542,0.0687504736229,1.95644723191,0.134414050135,-0.0765930985973,-0.394061099515,-0.0029654256867,-0.597939843972,-0.0428093491339,0.206137879057,-0.0889911274319,0.573606965089,0.819115384102,0.00240500093247,0.0,0.819075814074,-0.573544191457,-0.0119422839308,0.0,-0.00840289595553,0.00882022515504,-0.999925794731,0.0,0.640029142446,0.233034896989,0.303631569821,1.0,-0.0833148571429,-0.109499526531,1.23
0.446912462344,0.430822407904,-0.124572006336,-1.53744993596,0.0681229697108,1.95982108743,0.132918443002,-0.0798126476279,-0.406639891286,0.000411517638632,-0.616376601039,-0.0375994746731,0.22374203685,-0.101680459905,0.57355865418,0.819148222749,0.00272144883416,0.0,0.819113059751,-0.573495001791,-0.0117484112289,0.0,-0.0080631081141,0.0089677498717,-0.999927280231,0.0,0.638816273157,0.231427705689,0.303774095688,1.0,-0.0874634285714,-0.114951934694,1.245
0.445142725314,0.421953293089,-0.124668719916,-1.55112906248,0.0671361994424,1.96440985342,0.130657360629,-0.0864292005949,-0.430435029791,-0.00813789215301,-0.66567709554,-0.0508167809317,0.214688849183,-0.108112264735,0.573534114689,0.819166153506,0.00248578749032,0.0,0.819128036394,-0.573471459031,-0.0118529562247,0.0,-0.00828417187529,0.00883442307062,-0.999926660043,0.0,0.636900494251,0.228912275601,0.30369679463,1.0,-0.0932714285714,-0.122585306122,1.266
0.443785544377,0.415215510807,-0.124773438549,-1.56120537157,0.0664070475227,1.96796380954,0.129072485394,-0.0922504556003,-0.455565266014,-0.00275291687776,-0.682234307361,-0.0511105880367,0.248208562766,-0.103129721565,0.573641773302,0.819090343049,0.00262159259838,0.0,0.819054566667,-0.573579222784,-0.011714901336,0.0,-0.00809202730562,0.00886755489398,-0.999927940186,0.0,0.635527392375,0.227023513227,0.303781133939,1.0,-0.09742,-0.128037714286,1.281
0.442343260777,0.408318643621,-0.124811699956,-1.57167200492,0.0657228560657,1.97156973082,0.127288925112,-0.0978027515317,-0.468757365054,-0.00204421399503,-0.714179742076,-0.0568021805831,0.239744652445,-0.111456182481,0.573630063715,0.819098404891,0.00266458395849,0.0,0.819062679442,-0.573566802278,-0.0117557377637,0.0,-0.00810094511837,0.0089260777337,-0.999927347273,0.0,0.634050397336,0.225091941974,0.303779476712,1.0,-0.101568571429,-0.133490122449,1.296
0.440470152711,0.399712214289,-0.124923403559,-1.58468619649,0.0648178862415,1.97593343759,0.125102327584,-0.103556578079,-0.499716350741,-0.00457357753702,-0.720961701719,-0.0502437089367,0.254992757971,-0.125808972546,0.573724547865,0.819032403831,0.00260989519048,0.0,0.818995768402,-0.573661256567,-0.0118085119418,0.0,-0.00817451555161,0.00891249788493,-0.999926869664,0.0,0.63219661347,0.222593573531,0.30377298753,1.0,-0.106546857143,-0.140033012245,1.314
0.438617915767,0.391257466428,-0.124992084844,-1.59731081082,0.0638523394693,1.98033592285,0.122945923099,-0.106296603988,-0.494988947021,-0.00188505719313,-0.758281705141,-0.0533760226321,0.248548327139,-0.121473345735,0.573745749873,0.819017110524,0.00274482662563,0.0,0.818982889718,-0.573682704193,-0.0116588232392,0.0,-0.00797426968974,0.0089373383951,-0.99992826493,0.0,0.630409042635,0.220177743927,0.303833161505,1.0,-0.111248571429,-0.146212408163,1.331
0.436763963582,0.383075414982,-0.125044338119,-1.60970890054,0.0629179963575,1.98431742977,0.120727979663,-0.121029672349,-0.524473743483,-0.00604312489605,-0.76231305997,-0.060113598001,0.255092322955,-0.136315356177,0.573691826337,0.819055612575,0.00251769836872,0.0,0.819018201592,-0.573629341176,-0.0118030210111,0.0,-0.00822326327127,0.00883350754266,-0.999927170891,0.0,0.628556600064,0.217780257481,0.303764823044,1.0,-0.115673714286,-0.152028310204,1.347
0.434709566975,0.374053217988,-0.125094673114,-1.62308241896,0.0619555725122,1.98889569813,0.118332712591,-0.127366069098,-0.536941080998,-0.00205913156814,-0.781846942004,-0.0566418297056,0.269855244423,-0.150986820339,0.573674235637,0.819067365618,0.00269607988611,0.0,0.819032161567,-0.57361097944,-0.0117264438889,0.0,-0.00805840162921,0.00893550690777,-0.999927606819,0.0,0.62659770476,0.215199395649,0.303826520618,1.0,-0.120375428571,-0.158207706122,1.364
0.432474695673,0.364757092319,-0.12520741706,-1.63691536568,0.0608707989367,1.99338392057,0.11593606992,-0.135257400993,-0.560654037376,-0.0118800184011,-0.773559785091,-0.05984314907,0.274687547567,-0.14392297721,0.573811927174,0.818971230001,0.00259683741883,0.0,0.818935027832,-0.573749330159,-0.011741943305,0.0,-0.0081265364825,0.00886447890914,-0.999927687595,0.0,0.624525667272,0.212407500425,0.303825045367,1.0,-0.125077142857,-0.164387102041,1.381
0.430022782234,0.354641145322,-0.12531181828,-1.65193485514,0.0597209686373,1.99828043073,0.113121589319,-0.144539708058,-0.566216565941,-0.00369843034552,-0.837098424068,-0.0631068864993,0.279409681965,-0.162173974438,0.573786747224,0.818989008984,0.00255318924922,0.0,0.818952214738,-0.573724285738,-0.0117669380248,0.0,-0.00817232357588,0.00884282333607,-0.999927506174,0.0,0.62224108898,0.209390493119,0.303815008059,1.0,-0.130055428571,-0.170929991837,1.399
0.42765799538,0.345333063138,-0.12538755533,-1.66560246918,0.0587158939357,2.00268573549,0.110558794036,-0.146998871038,-0.599038884045,-0.00367739426084,-0.824928908223,-0.0584566481045,0.293892953692,-0.166713140424,0.573855032561,0.818941036864,0.0025935778576,0.0,0.818904239682,-0.573791840052,-0.0118117492824,0.0,-0.00818510998203,0.00890229506937,-0.999926873885,0.0,0.620140147718,0.206590786613,0.303845251712,1.0,-0.134480571429,-0.176745893878,1.415
0.42509903167,0.335281417286,-0.125441126603,-1.6803924842,0.057522748336,2.00749502425,0.107747147972,-0.154516482182,-0.593213171605,0.000234713702679,-0.87695966133,-0.0713857379705,0.276913796451,-0.17364684068,0.573829226601,0.818959002356,0.00263022064004,0.0,0.818922945766,-0.573766191049,-0.0117606890978,0.0,-0.00812254691646,0.00890274656927,-0.999927380031,0.0,0.617980510897,0.20375959355,0.303859346295,1.0,-0.138905714286,-0.182561795918,1.431
0.422613293794,0.325455983137,-0.125444076758,-1.69458292506,0.05633918121,2.01200128172,0.104970443014,-0.155469647681,-0.632966672979,-0.000463415383644,-0.903962806465,-0.0775663094454,0.295184959638,-0.181076776029,0.573680895512,0.819062771468,0.00267458799235,0.0,0.819027367274,-0.573617802626,-0.0117275346105,0.0,-0.00807155111583,0.00891859503,-0.999927651746,0.0,0.615564401702,0.200704934813,0.303921356095,1.0,-0.143607428571,-0.188741191837,1.448
0.419789612798,0.314911794511,-0.125462901905,-1.71004232133,0.0550946177676,2.01682836671,0.101966989736,-0.171998812016,-0.6277089881,-0.0022236429003,-0.92136231568,-0.074425261452,0.274799950077,-0.180056312395,0.573647744385,0.819086297049,0.00257880768243,0.0,0.819049177435,-0.573584492398,-0.0118330860207,0.0,-0.00821331264754,0.00890036477553,-0.999926659812,0.0,0.613052446819,0.197510574788,0.303869825354,1.0,-0.148309142857,-0.194920587755,1.465
0.416813074668,0.304013758933,-0.125533748151,-1.72559751043,0.053766481769,2.02177976035,0.0987008870318,-0.182064462312,-0.637735295886,-0.00911046583091,-0.935677763432,-0.0797978375744,0.285450255214,-0.190354266483,0.573517889713,0.819176635437,0.00275989763846,0.0,0.819142428935,-0.573454617865,-0.0116717294387,0.0,-0.00797868562012,0.00895486730109,-0.999928072877,0.0,0.610546007025,0.194200020457,0.303981816874,1.0,-0.153010857143,-0.201099983673,1.482
0.413811056605,0.29363717214,-0.125590952722,-1.74064962012,0.052578037844,2.02627035647,0.0956763695907,-0.198051274818,-0.66635278754,-0.0065337585695,-0.92417697962,-0.0644341125724,0.278433370908,-0.190760250899,0.573608420386,0.819113711414,0.00261815524088,0.0,0.819076618425,-0.57354449745,-0.0118722152595,0.0,-0.00822322409458,0.00895464478736,-0.99992609373,0.0,0.608028544376,0.190944078269,0.303927087831,1.0,-0.157436,-0.206915885714,1.498
0.410525901175,0.28234509182,-0.125719797809,-1.75674799413,0.0512305339487,2.03125159003,0.0922438983827,-0.197232288865,-0.664590036174,-0.00681149071032,-0.956025474355,-0.0775494936653,0.283847573308,-0.209435011494,0.573608995796,0.819112958161,0.00272554880375,0.0,0.819077328313,-0.573544743932,-0.0118111749178,0.0,-0.00811161840932,0.00900760484043,-0.999926529652,0.0,0.605359148283,0.187400618885,0.303976214497,1.0,-0.162137714286,-0.213095281633,1.515
0.406620640128,0.269361339487,-0.125855385411,-1.77515092593,0.0496255230238,2.0367941298,0.0882469620016,-0.209862919378,-0.69244259964,-0.00592091921759,-0.964118996616,-0.0895544110089,0.292618712991,-0.21352474599,0.573611204031,0.819111264443,0.0027694716974,0.0,0.819076372086,-0.57354697787,-0.0117689323152,0.0,-0.00805179792956,0.00901937391687,-0.999926907051,0.0,0.602245467836,0.183279924666,0.304024123079,1.0,-0.167392571429,-0.220001665306,1.534
0.403320927023,0.259055895152,-0.126023611115,-1.78989321723,0.0483242570385,2.04112022826,0.0850291227374,-0.222693028136,-0.685134052771,-0.00924514353589,-0.986232784895,-0.0871398135486,0.279236363876,-0.220309913165,0.573759929999,0.819007566782,0.00262586813785,0.0,0.81897078144,-0.573696184211,-0.0118445882283,0.0,-0.00819451462328,0.00894663164394,-0.999926401148,0.0,0.599719899258,0.179856395847,0.303961403213,1.0,-0.171541142857,-0.225454073469,1.549
0.399657247612,0.247778474339,-0.12616407484,-1.805707818,0.0468457092075,2.04581075872,0.0814699076689,-0.227715163625,-0.704603199343,-0.00902682257053,-1.0000458768,-0.0958100178482,0.288640502447,-0.231866322999,0.573849004244,0.818945030738,0.0026653065421,0.0,0.818909465996,-0.573785878886,-0.011738764656,0.0,-0.00808424337198,0.0089190948862,-0.999927544753,0.0,0.596996651017,0.176152830284,0.304003277261,1.0,-0.175966285714,-0.23126997551,1.565
0.395423215905,0.234827728178,-0.126232529986,-1.82368215008,0.045300111031,2.05105310007,0.0772727707668,-0.23883033593,-0.731844659886,-0.00434471493235,-0.996274660896,-0.0816755799196,0.310665747484,-0.223963549192,0.573834323312,0.818954683967,0.00285340130879,0.0,0.818920915735,-0.573769808145,-0.0117255248936,0.0,-0.00796563137519,0.00906539319249,-0.99992718103,0.0,0.593818005819,0.172005491959,0.304081517011,1.0,-0.180944571429,-0.237812865306,1.583
0.391281065866,0.222493795261,-0.126267874739,-1.84099753534,0.0436567598202,2.05595180124,0.0731629816785,-0.249182425146,-0.741580842908,0.000911039417751,-1.0401837564,-0.103121166178,0.274171451214,-0.242852085479,0.573706151887,0.819044919679,0.00272355202346,0.0,0.819009381726,-0.573642025565,-0.0117985614064,0.0,-0.0081013638563,0.0089996951931,-0.999926684007,0.0,0.590672265706,0.167995086333,0.304012779196,1.0,-0.185646285714,-0.243992261224,1.6
0.386891758055,0.209781740339,-0.126393751339,-1.85834440029,0.0420370759606,2.06086035155,0.0689064622921,-0.261876621968,-0.732196960554,-0.0101164200122,-1.02609701574,-0.102579845018,0.288803023217,-0.256865817393,0.573714298033,0.819038580062,0.00290783472915,0.0,0.81900557449,-0.57364967373,-0.0116904954974,0.0,-0.00790704062385,0.00908871225672,-0.999927434376,0.0,0.587524929781,0.163828257393,0.304119027703,1.0,-0.190348,-0.250171657143,1.617
0.382301635165,0.196951331382,-0.126526203728,-1.87589200528,0.0403689273155,2.06562968767,0.0644574837445,-0.272274200582,-0.770947456625,-0.00521500756838,-1.02379261444,-0.0993479106768,0.287726422055,-0.271865107334,0.5736918974,0.819054246332,0.00291467398802,0.0,0.819021107767,-0.5736269975,-0.0117149337506,0.0,-0.00792338309518,0.00910811744924,-0.999927128443,0.0,0.584264516277,0.159548285604,0.304146187719,1.0,-0.195049714286,-0.256351053061,1.634
0.378021479322,0.185452380704,-0.12666503216,-1.89162869339,0.0388979621868,2.06982941815,0.0604248371621,-0.290015816729,-0.782223703003,-0.0095552375237,-1.06142022655,-0.0955280626858,0.273070706464,-0.266937288167,0.573782442172,0.81899100818,0.00286085241148,0.0,0.818956452131,-0.573716901954,-0.0118318563945,0.0,-0.00804901958325,0.00913200081773,-0.999925907178,0.0,0.581098442546,0.155372231332,0.304114945572,1.0,-0.199474857143,-0.262166955102,1.65
0.372947860324,0.172162543494,-0.126814624096,-1.90945708619,0.0371610655242,2.07457217121,0.0557160478579,-0.298386436692,-0.791830182328,-0.000778577172254,-1.05995719828,-0.119095375611,0.273832916469,-0.279404235005,0.573871323609,0.81892818138,0.0030140640899,0.0,0.818895614681,-0.573805221141,-0.0117595641298,0.0,-0.00790090487187,0.00921685795088,-0.999926309901,0.0,0.577917549281,0.151120028659,0.3042002203,1.0,-0.2039,-0.267982857143,1.666
0.367751974329,0.158728691794,-0.12689061335,-1.92740944981,0.0353308348429,2.07919481022,0.0507533974004,-0.308837092676,-0.797306581991,-0.00495831662652,-1.0400500358,-0.112724570009,0.287002211709,-0.299399081981,0.573728009217,0.81902836459,0.00307511599378,0.0,0.818996625633,-0.573661755327,-0.0117245288956,0.0,-0.00783879620922,0.00924537824677,-0.999926535429,0.0,0.574214907798,0.146329837004,0.304253648797,1.0,-0.208878285714,-0.274525746939,1.684
0.362349730473,0.14519016835,-0.126965788574,-1.94564367796,0.033409471334,2.08374458365,0.0457121295711,-0.327390250318,-0.826848374597,-0.00179562367197,-1.08863673764,-0.117635164565,0.259826511639,-0.304983967469,0.573643677618,0.819088182406,0.00286835729597,0.0,0.819053485696,-0.573577858005,-0.0118564445085,0.0,-0.00806640265171,0.00915088865579,-0.999925594424,0.0,0.570785964083,0.14196208962,0.304164316229,1.0,-0.213303428571,-0.28034164898,1.7
0.356986745207,0.132121631835,-0.127094046203,-1.96269229491,0.0316827153694,2.08807201189,0.0407124241159,-0.343536036625,-0.818255601468,-0.0151063230849,-1.07320608349,-0.117173294169,0.25914939186,-0.320135741517,0.573622574015,0.819102038839,0.00312080940177,0.0,0.819070630526,-0.573555866694,-0.011735284067,0.0,-0.00782258717348,0.0092879659999,-0.999926267691,0.0,0.567189687684,0.137199678609,0.304274310277,1.0,-0.218005142857,-0.286521044898,1.717
0.350608455225,0.117324108668,-0.127316519762,-1.98201576441,0.0295304360151,2.09277464246,0.0349418480589,-0.35963670063,-0.842818185483,-0.00792322487174,-1.06936367979,-0.130483496776,0.267381997912,-0.3244367853,0.573709132604,0.81904121004,0.00317400756088,0.0,0.819011316568,-0.573643222933,-0.0116044395421,0.0,-0.00768391421671,0.00925729928698,-0.999927627317,0.0,0.563504714316,0.132230972234,0.304336755291,1.0,-0.222706857143,-0.292700440816,1.734
0.344705244501,0.104025953933,-0.127456207872,-1.99942746081,0.0276545257726,2.0967818552,0.0295501425002,-0.376360247064,-0.854546842087,-0.010916088604,-1.07732266808,-0.113746814392,0.237377146892,-0.34427731953,0.573701388468,0.819047055636,0.00306340077487,0.0,0.819015176085,-0.573635191957,-0.0117283755535,0.0,-0.00784896808991,0.00923773491959,-0.999926526278,0.0,0.559885110759,0.127499369044,0.304287399386,1.0,-0.227132,-0.298516342857,1.75
0.338291623108,0.0897209416382,-0.127574969639,-2.0178936071,0.0256502286175,2.1010366299,0.023653762078,-0.38725182259,-0.811326152171,-0.0101452012909,-1.09379890015,-0.110823078095,0.247832386091,-0.346195309794,0.573609834631,0.819110961854,0.00312036629178,0.0,0.819079482485,-0.573543053039,-0.0117437039712,0.0,-0.00782988299549,0.00929231100608,-0.999926170219,0.0,0.555996338816,0.122477394841,0.304292357228,1.0,-0.231833714286,-0.304695738775,1.767
0.330738709593,0.0733944091117,-0.127758131047,-2.03858203685,0.0232852535499,2.10561142006,0.0167457472993,-0.407283492265,-0.843624372702,-0.00803194816726,-1.09505558308,-0.124847102792,0.242054975799,-0.364110839086,0.573510038423,0.819180406614,0.00323174092905,0.0,0.819150675898,-0.573443259787,-0.0116509605591,0.0,-0.00769116663385,0.00932940522421,-0.999926901405,0.0,0.551572414792,0.116681681393,0.304377203447,1.0,-0.237088571429,-0.311602122449,1.786
0.324810161467,0.0613292060073,-0.127966899882,-2.0539800109,0.0215493463923,2.10874944489,0.0115144572077,-0.4308670333,-0.874592573282,-0.014311147671,-1.07495931677,-0.12641754707,0.226695853722,-0.374351493514,0.573654595139,0.819079785266,0.00307534483188,0.0,0.819047143093,-0.573587284227,-0.0118385668687,0.0,-0.00793290485148,0.0093102799344,-0.999925191056,0.0,0.548202326086,0.112211980375,0.304317798665,1.0,-0.23998,-0.315402285714,1.8
0.317444938314,0.0466378083204,-0.128175804446,-2.0724117687,0.0194068546469,2.11262732409,0.00498627119779,-0.429023788676,-0.872857917705,-0.0108262043121,-1.08906842641,-0.125898680612,0.219876717969,-0.385678155576,0.573737810969,0.819021198796,0.00315390050568,0.0,0.818989574686,-0.573670205218,-0.011803351289,0.0,-0.00785804746396,0.00935522068139,-0.999925362683,0.0,0.544154090118,0.106808280186,0.304336526073,1.0,-0.23998,-0.315402285714,1.817
0.309076290114,0.0302264317,-0.128334166217,-2.09270647692,0.0170019156621,2.1166218087,-0.00241971360847,-0.446623019626,-0.880449025953,-0.00985347530589,-1.06069451763,-0.138566406336,0.205693131059,-0.397421426123,0.573743244826,0.819017124267,0.00322274353558,0.0,0.818986155474,-0.573675109926,-0.0118022156644,0.0,-0.00781755949365,0.00941100504073,-0.999925156573,0.0,0.539574425428,0.100838101242,0.304385522601,1.0,-0.23998,-0.315402285714,1.836
0.301814009292,0.0165954348925,-0.128504467664,-2.10943020863,0.0149555982941,2.11974264142,-0.00881928642053,-0.457617382021,-0.842045231908,-0.0129578006321,-1.02752808571,-0.12524375507,0.198875523513,-0.406441120539,0.573776873963,0.818993581869,0.0032184877252,0.0,0.818962399887,-0.573708559493,-0.0118246876167,0.0,-0.0078380202153,0.00942073410606,-0.999924904784,0.0,0.535736494537,0.0957650156693,0.304407397538,1.0,-0.23998,-0.315402285714,1.852
0.294318751378,0.00304541803101,-0.128692918029,-2.12593849661,0.0129369088874,2.12270203985,-0.0153502795996,-0.469173538011,-0.868518989964,-0.00726012363176,-1.03547930134,-0.123776620421,0.17264536824,-0.406555334111,0.573904266878,0.818904327512,0.0032158579688,0.0,0.818872567839,-0.573835291956,-0.0118963123515,0.0,-0.00789672090599,0.00946090444307,-0.99992406366,0.0,0.531645300971,0.0903174697728,0.304412253491,1.0,-0.23998,-0.315402285714,1.869
0.286342042222,-0.0112982294256,-0.128771906387,-2.14304705581,0.0107840352142,2.12581090534,-0.0224303316261,-0.472917860782,-0.817266972263,-0.00410269132819,-1.01512934656,-0.129403322499,0.177677449334,-0.420338908727,0.573772727721,0.818995517458,0.00345632864424,0.0,0.818967579355,-0.573703793095,-0.0116965231781,0.0,-0.00759663745815,0.00954195082411,-0.999925618371,0.0,0.527860436401,0.0853627324083,0.304523172901,1.0,-0.23998,-0.315402285714,1.885
0.278630191315,-0.0245961140984,-0.12888430554,-2.1590229866,0.00869959896796,2.12829750481,-0.0292311305167,-0.485181748832,-0.843027593153,-0.00531955050888,-0.968353442911,-0.128028989447,0.156388739297,-0.429146153994,0.573692343386,0.819052342257,0.00333206916828,0.0,0.819022441675,-0.573623406535,-0.0117972204448,0.0,-0.00775133740757,0.00949719731892,-0.999924857183,0.0,0.523745187927,0.0800126477629,0.30451018649,1.0,-0.23998,-0.315402285714,1.902
0.270172116416,-0.0386909417881,-0.12911188191,-2.17561631822,0.00654530486926,2.13097366979,-0.0365316197306,-0.506265456484,-0.846740973499,-0.0135972120384,-0.985413448133,-0.124090287642,0.140767905428,-0.43732629964,0.573865519287,0.818930821401,0.00337970928113,0.0,0.818901382983,-0.573796200321,-0.0117979806404,0.0,-0.00772261431724,0.00953828653268,-0.999924688323,0.0,0.519679377105,0.0745696554194,0.304518863707,1.0,-0.23998,-0.315402285714,1.919
0.261101125764,-0.0535268057035,-0.129222332361,-2.1928386785,0.00434430758378,2.13361971551,-0.0444593023454,-0.50357415502,-0.851842055148,-0.00529346216638,-0.947332673717,-0.136732183947,0.149354544606,-0.439193362921,0.573846541706,0.818943044679,0.00363084623036,0.0,0.818917011495,-0.573776573251,-0.0116670121694,0.0,-0.00747146780914,0.00966862248054,-0.999925344667,0.0,0.515647168118,0.069267412923,0.304621928327,1.0,-0.23998,-0.315402285714,1.936
0.252887938408,-0.0664318244632,-0.129351827207,-2.20809255905,0.00226658697127,2.13565253834,-0.0517119063768,-0.515613532635,-0.829114566377,-0.00411718715219,-0.9363161943,-0.12664148222,0.115421113351,-0.443280650523,0.57374317484,0.819016562732,0.00337434384885,0.0,0.818986333136,-0.573673003485,-0.0118919346722,0.0,-0.00780407174144,0.00958664242187,-0.999923593457,0.0,0.511735043892,0.0642322750171,0.304493338333,1.0,-0.23998,-0.315402285714,1.952
0.243303280787,-0.0810134543338,-0.129608284898,-2.22468725089,1.19453492606e-05,2.13785616284,-0.0600244127964,-0.538909707718,-0.780113799451,-0.0122604065489,-0.926985512169,-0.123907890259,0.114537962556,-0.471052012513,0.573883859427,0.818917354778,0.00352545508702,0.0,0.818889267981,-0.573813358616,-0.0118043703939,0.0,-0.00764399772427,0.00966148098869,-0.999924109662,0.0,0.507467727241,0.0584634604306,0.304567794354,1.0,-0.23998,-0.315402285714,1.97
0.234760834115,-0.0938017629799,-0.129693331114,-2.23929989976,-0.00191727941539,2.13953738444,-0.0675057954332,-0.534211849494,-0.786921103898,-0.00785503373874,-0.897678631515,-0.126128004921,0.107146187544,-0.475009796175,0.573844101016,0.818945391481,0.00348430785858,0.0,0.818915540754,-0.573772211557,-0.011980536602,0.0,-0.00781235662401,0.00972850141405,-0.999922158642,0.0,0.503586733882,0.0534896602547,0.304530213832,1.0,-0.23998,-0.315402285714,1.986
0.226030727363,-0.106532888655,-0.129836778582,-2.25358508332,-0.00399857821862,2.14115986273,-0.0751388468966,-0.552525004922,-0.798222538433,-0.0058642443022,-0.903389193825,-0.11981510866,0.0958028363838,-0.473512319746,0.573793452129,0.818980843564,0.00349271689719,0.0,0.818951590909,-0.573722149008,-0.0119136218761,0.0,-0.00775332832541,0.00969651097105,-0.999922928817,0.0,0.499762063035,0.0484629621532,0.304555403394,1.0,-0.23998,-0.315402285714,2.002
0.216434745428,-0.120009943811,-0.130058529535,-2.26854542918,-0.00616278491459,2.14269250749,-0.0834506018042,-0.568874918629,-0.793190843215,-0.00868092381737,-0.848600527619,-0.12413489001,0.0948753650112,-0.498591517734,0.573891440864,0.818912046729,0.00352430501362,0.0,0.818883297293,-0.573820126073,-0.0118892905708,0.0,-0.00771411464888,0.0097093435417,-0.999923107585,0.0,0.495685274344,0.04302726048,0.304582941651,1.0,-0.23998,-0.315402285714,2.019
0.206208709161,-0.134099784336,-0.130187318201,-2.28415709685,-0.00835027538513,2.14410049135,-0.0924569457149,-0.575458722643,-0.759725220559,-0.00901316732347,-0.845714864017,-0.134306249038,0.0841844046561,-0.509620427354,0.573816715612,0.818964509459,0.00350086149758,0.0,0.818934480614,-0.573744277756,-0.0120236061948,0.0,-0.00783845841239,0.00976651044431,-0.999921583847,0.0,0.491323000753,0.0374090178263,0.304547177776,1.0,-0.23998,-0.315402285714,2.037
0.196882553706,-0.146564322197,-0.130364095727,-2.29758363945,-0.0103227222309,2.14529642581,-0.100644748789,-0.587277290194,-0.763131600286,-0.0102289555925,-0.848668019708,-0.125593524871,0.0778633308575,-0.51786564311,0.573816036862,0.818964193326,0.00368141151903,0.0,0.81893712384,-0.573743714717,-0.0118694532789,0.0,-0.00760861699888,0.0098259163806,-0.999922777176,0.0,0.487540463819,0.0323622739868,0.304631956494,1.0,-0.23998,-0.315402285714,2.053
0.186771381226,-0.159655119089,-0.130552115857,-2.31179712777,-0.0124669204975,2.14622663809,-0.109494057367,-0.593130466318,-0.754931906932,-0.00372949855018,-0.817160396715,-0.124468527248,0.0420906436893,-0.517023581704,0.573814611801,0.818965747342,0.00355568085085,0.0,0.818936366294,-0.573741885158,-0.0120093329377,0.0,-0.00779533937444,0.00980319581522,-0.999921561942,0.0,0.483407176146,0.0269842913559,0.304588396097,1.0,-0.23998,-0.315402285714,2.07
0.176573916391,-0.172647373277,-0.130695741078,-2.32551724179,-0.0144089872336,2.14713221599,-0.118549530516,-0.613593189991,-0.736822766516,-0.0156912400201,-0.813242950208,-0.125197181392,0.051684012561,-0.534851144699,0.573755856371,0.819005891657,0.00378333344882,0.0,0.818979203243,-0.573681952584,-0.0119511018743,0.0,-0.00761773939178,0.00995567778166,-0.999921424176,0.0,0.479375515451,0.0217132391841,0.304664957567,1.0,-0.23998,-0.315402285714,2.087
0.166628158517,-0.184742662751,-0.13091919827,-2.33840276114,-0.016421396859,2.14773551539,-0.127230814326,-0.628506710549,-0.758753300236,-0.0136793085587,-0.821631614786,-0.120266253282,0.0264434298842,-0.549793992191,0.573824748367,0.818958172112,0.00366297603171,0.0,0.818929315924,-0.573750508157,-0.0120779473337,0.0,-0.00778984929043,0.00993053473899,-0.999920348192,0.0,0.475486500421,0.0166070609411,0.304614717671,1.0,-0.23998,-0.315402285714,2.103
0.155982536346,-0.197552901333,-0.131045585446,-2.35156863193,-0.0184875949538,2.1484113903,-0.136681814569,-0.622357503397,-0.744050848347,-0.00623521405533,-0.777605586912,-0.116431003641,0.0357219934764,-0.574281965305,0.573708569452,0.819038552509,0.00388249184816,0.0,0.819013852544,-0.573635248499,-0.0118176952897,0.0,-0.00745215734511,0.00995991942424,-0.999922629685,0.0,0.471483332169,0.0113025801485,0.304732511163,1.0,-0.23998,-0.315402285714,2.12
0.144415183166,-0.210837040478,-0.13128918387,-2.36549200207,-0.0205645794455,2.14873128663,-0.146902652718,-0.650231936354,-0.733527507825,-0.0113613319314,-0.765604489744,-0.121717263343,0.0127378073471,-0.571978710741,0.573769444312,0.818996355871,0.00378691751943,0.0,0.818968448604,-0.573693877271,-0.0121145480081,0.0,-0.00774938847678,0.0100525169867,-0.999919443696,0.0,0.467094174374,0.00561533213316,0.304642574043,1.0,-0.23998,-0.315402285714,2.138
0.134537054328,-0.221923527869,-0.131478863012,-2.37659239873,-0.0223891658021,2.14905597399,-0.155513350496,-0.652676566155,-0.724005139924,-0.00839074491598,-0.740354262868,-0.12178112279,0.0157650039916,-0.568986529238,0.573879780652,0.818918092894,0.00398765495371,0.0,0.818894243506,-0.573805379558,-0.0118469930221,0.0,-0.00741372180506,0.0100644112147,-0.999921869126,0.0,0.463574052735,0.000842139993285,0.304763925979,1.0,-0.23998,-0.315402285714,2.153
0.122722494871,-0.234963856754,-0.131639073926,-2.38996009961,-0.024505586659,2.14916425263,-0.166167556872,-0.667226333339,-0.71312625937,-0.00997641996299,-0.747650760997,-0.120185402252,0.00248058222155,-0.602917610003,0.573676894543,0.819060656446,0.0038998243178,0.0,0.819034691091,-0.573601531545,-0.0120085261242,0.0,-0.00759891239138,0.0100832995152,-0.999920288624,0.0,0.459201793324,-0.00472620353421,0.304692849319,1.0,-0.23998,-0.315402285714,2.171
0.11035524043,-0.247953134262,-0.131920051502,-2.40269271776,-0.0265487765979,2.14923185824,-0.177063964749,-0.68843862714,-0.712744947485,-0.0134371493373,-0.701554180553,-0.118685095537,0.00200647382961,-0.607953048269,0.573852022978,0.818936531275,0.00419050933123,0.0,0.81891529511,-0.573776913407,-0.0117703006723,0.0,-0.00723485098829,0.010186279155,-0.999921945278,0.0,0.45497074069,-0.0104884849647,0.304825847461,1.0,-0.23998,-0.315402285714,2.189
0.100128431641,-0.25857457012,-0.132030867751,-2.41334897017,-0.0282545109935,2.14916212869,-0.186320154083,-0.694605942229,-0.719228455287,-0.0110437614223,-0.696604417091,-0.110740983678,-0.0120168998936,-0.624702325827,0.573675093838,0.819060544518,0.00417828020221,0.0,0.819038659233,-0.573599364735,-0.0118402009545,0.0,-0.0073013231444,0.0102147980749,-0.999921171183,0.0,0.451344769214,-0.0151134643307,0.304774688418,1.0,-0.23998,-0.315402285714,2.204
0.0881210705388,-0.270506415645,-0.132319440404,-2.42490401683,-0.0302149710622,2.14899704446,-0.196999094075,-0.718270100065,-0.702668319377,-0.0199011072412,-0.672438746211,-0.117965636416,-0.00705212422676,-0.63458452507,0.573775887348,0.818989046982,0.00434958880235,0.0,0.818970313827,-0.573700910152,-0.0116463583507,0.0,-0.00704301247159,0.0102447809473,-0.999922717233,0.0,0.44733141875,-0.0205335192925,0.304851771034,1.0,-0.23998,-0.315402285714,2.221
0.0760248755055,-0.282201886683,-0.132445314084,-2.43637158371,-0.0321519100757,2.14862217241,-0.207906087382,-0.708496596996,-0.699781445387,-0.00900424200009,-0.664950839799,-0.106394832629,-0.0283067714262,-0.650174751403,0.573632323673,0.819089947425,0.00428510985226,0.0,0.819070058415,-0.573557110268,-0.0117144172112,0.0,-0.00713754357344,0.0102297704971,-0.999922200607,0.0,0.443236909239,-0.0258205415091,0.304803148475,1.0,-0.23998,-0.315402285714,2.238
0.0643809416358,-0.293121479042,-0.132703545325,-2.44684545392,-0.0338155680393,2.14814313902,-0.218426093811,-0.740282036289,-0.682532338481,-0.0264827687723,-0.633270042875,-0.0989409945862,-0.0309363673575,-0.663671149646,0.573678092561,0.819057201923,0.00441508719763,0.0,0.81903820948,-0.573601306194,-0.0117770898306,0.0,-0.00711374742163,0.0103725832474,-0.999920898929,0.0,0.439400646619,-0.0308650141857,0.304810065043,1.0,-0.23998,-0.315402285714,2.254
0.0517437913931,-0.304571212664,-0.132896142794,-2.45760454081,-0.0357707748843,2.14763825166,-0.229745819146,-0.735315617646,-0.660635683841,0.00112025854569,-0.638108787249,-0.103842873391,-0.0341398413045,-0.671566182279,0.573677059092,0.819057532974,0.00448736567275,0.0,0.81904070419,-0.573601855558,-0.0115751061087,0.0,-0.00690684955507,0.0103159065848,-0.999922935781,0.0,0.435135171341,-0.0365561892935,0.304862831402,1.0,-0.23998,-0.315402285714,2.272
0.0389895988999,-0.315800054479,-0.133156971561,-2.46830098863,-0.0376085592615,2.14682595205,-0.241288382492,-0.767128092529,-0.659281516901,-0.0223930950764,-0.622990402984,-0.118531331061,-0.042552475136,-0.686195143134,0.573682456826,0.819054079766,0.00442719438838,0.0,0.819035418349,-0.57360588398,-0.0117482021974,0.0,-0.00708308456032,0.0103659660849,-0.999921185224,0.0,0.431247803871,-0.0415849284918,0.304809680906,1.0,-0.23998,-0.315402285714,2.288
0.0267118529488,-0.326301762781,-0.133365564006,-2.4778403481,-0.0392972710788,2.14615187124,-0.252421818834,-0.756798244307,-0.653965684114,-0.00776092547083,-0.583901478235,-0.107357677333,-0.0495276254656,-0.699177483636,0.573686079736,0.819050316199,0.00464847855896,0.0,0.819035874305,-0.573610868178,-0.0114697607129,0.0,-0.00672802285201,0.0103875127514,-0.999923413711,0.0,0.427490849275,-0.0466399486552,0.304927217261,1.0,-0.23998,-0.315402285714,2.304
0.0135329947839,-0.33712865364,-0.133586677837,-2.48793925171,-0.0409890071187,2.1452056359,-0.264481738851,-0.785266854951,-0.639816057763,-0.0222967021516,-0.576913642523,-0.100833469575,-0.0625837270059,-0.715539277965,0.573646821634,0.819077734568,0.00466215242826,0.0,0.819062240294,-0.573569686905,-0.0116450714394,0.0,-0.00686428158359,0.0104989533688,-0.999921323713,0.0,0.423387714972,-0.0519518365562,0.304870408132,1.0,-0.23998,-0.315402285714,2.321
-0.000760239347919,-0.348433388438,-0.133820472886,-2.49828874937,-0.0429401843475,2.14405844802,-0.277449000859,-0.792875497421,-0.622459480523,-0.00814329116388,-0.561319543526,-0.0963247039217,-0.0670165412416,-0.731356944299,0.573647516512,0.819077794327,0.00456514413833,0.0,0.819060791719,-0.573570308611,-0.0117161192674,0.0,-0.00697811634575,0.0104602546855,-0.999920941357,0.0,0.419039408251,-0.0576423442085,0.304845332999,1.0,-0.23998,-0.315402285714,2.339
-0.0127707789636,-0.357747215022,-0.134038268717,-2.50647422891,-0.0444388956769,2.14318641269,-0.288499474397,-0.817611299677,-0.609531608541,-0.0191987507677,-0.550395689174,-0.104574619277,-0.0653100489418,-0.752752616269,0.573610497592,0.819102566425,0.00476756000521,0.0,0.819089459014,-0.573534645541,-0.0114549290075,0.0,-0.00664852891538,0.0104759273674,-0.999923023042,0.0,0.415522802965,-0.0623594947201,0.304954338271,1.0,-0.23998,-0.315402285714,2.354
-0.0282963501008,-0.369243009009,-0.134279217233,-2.51684713095,-0.0463106712183,2.14178313925,-0.302764457122,-0.815389098683,-0.603370784268,-0.0115593295793,-0.540446967724,-0.0932685183676,-0.0768327470001,-0.760114781658,0.573574428484,0.819128097791,0.00472030714874,0.0,0.819113247104,-0.573496956237,-0.0116394375326,0.0,-0.00682723998867,0.0105427528272,-0.999921116467,0.0,0.410906828514,-0.0683225481102,0.304901235811,1.0,-0.23998,-0.315402285714,2.373
-0.042420231688,-0.379261854783,-0.134586117091,-2.52567559746,-0.0479760375478,2.14048824658,-0.315719151044,-0.84784268308,-0.58360428472,-0.0230372555383,-0.499776173558,-0.0932282592716,-0.0768763870555,-0.762499509905,0.573656688907,0.819070308155,0.00475189146708,0.0,0.819055541054,-0.573578600397,-0.0116771887152,0.0,-0.00683898697415,0.0105909643596,-0.999920526708,0.0,0.406826762658,-0.0737065337547,0.304908265068,1.0,-0.23998,-0.315402285714,2.39
-0.0550521975653,-0.387902049846,-0.134759287252,-2.53315551163,-0.0494228837167,2.13943697128,-0.327389186171,-0.83414764664,-0.570308914183,-0.0118107451593,-0.501530159184,-0.0855410314869,-0.0751655289318,-0.785070679231,0.573613124586,0.819100340932,0.00483339308,0.0,0.819087597248,-0.573536314511,-0.0115043849051,0.0,-0.0066512472014,0.0105582417752,-0.999922139189,0.0,0.403286371603,-0.0784281547408,0.304956821577,1.0,-0.23998,-0.315402285714,2.405
-0.0696188363709,-0.39746731837,-0.135073688158,-2.54153846454,-0.051043421838,2.13799178808,-0.340879156864,-0.867487700831,-0.556695059525,-0.0239768516769,-0.481205135029,-0.0970533373608,-0.0841539381384,-0.799219821709,0.573646828345,0.81907700311,0.00478813187518,0.0,0.819062654011,-0.573568546394,-0.0116721160946,0.0,-0.00681417122503,0.010617656802,-0.99992041305,0.0,0.399156363608,-0.0838209550231,0.304909947641,1.0,-0.23998,-0.315402285714,2.422
-0.0859874014769,-0.407873716303,-0.13529949514,-2.55050397614,-0.0526956797917,2.13637220478,-0.356191253882,-0.86688916882,-0.546789684462,-0.0166539024813,-0.461588827762,-0.0736915521057,-0.084481159011,-0.810211331904,0.573547441504,0.819146313061,0.00483704906566,0.0,0.819131805392,-0.573467780955,-0.0117701531029,0.0,-0.00686771794923,0.0107131281931,-0.999919028389,0.0,0.394596116364,-0.0897292265268,0.304894705717,1.0,-0.23998,-0.315402285714,2.441
-0.0993210713292,-0.415851035964,-0.135589062356,-2.55714680988,-0.0540397910184,2.13521493236,-0.368489919347,-0.890683562956,-0.526744684902,-0.0121473057164,-0.440685179053,-0.0970744250685,-0.0772804809579,-0.826926474482,0.573711720124,0.819030379496,0.00498463208428,0.0,0.819018965183,-0.573633444127,-0.0115478721274,0.0,-0.00659883346868,0.0107078639531,-0.999920895394,0.0,0.391054830866,-0.0945546933067,0.30496863373,1.0,-0.23998,-0.315402285714,2.456
-0.114393417842,-0.424639533828,-0.135755665645,-2.56465359971,-0.0555328999609,2.13362234849,-0.382686746095,-0.884439980386,-0.502484353122,-0.00574580869943,-0.438539004165,-0.0834966484691,-0.105369392708,-0.843696531517,0.573541774942,0.819149962193,0.00489067861564,0.0,0.819136307461,-0.573462184588,-0.0117294308447,0.0,-0.00680367458174,0.0107336576641,-0.999919246042,0.0,0.386936982067,-0.0998403535626,0.304917686575,1.0,-0.23998,-0.315402285714,2.473
-0.129739262434,-0.433104299521,-0.136055927751,-2.57184021821,-0.0570008585719,2.13208558376,-0.397024060877,-0.893582164116,-0.485426572391,-0.00653106772975,-0.410730738597,-0.0876303291657,-0.0884494010486,-0.854003590275,0.573600241781,0.81910923887,0.00485431021761,0.0,0.819094144919,-0.573519251563,-0.0118826237617,0.0,-0.00694926033713,0.0107922207232,-0.999917614483,0.0,0.382821859933,-0.10520537314,0.304862081408,1.0,-0.23998,-0.315402285714,2.49
-0.14434825831,-0.440842679262,-0.136286647709,-2.57818009499,-0.0582502469415,2.130684194,-0.410798486584,-0.92414768478,-0.477743545383,-0.0161535657291,-0.385851691789,-0.0753966974238,-0.0829660265674,-0.863207544109,0.573594778871,0.819112386303,0.00496740964839,0.0,0.819098933049,-0.573513664484,-0.0118220738206,0.0,-0.00683486138006,0.0108500886598,-0.999917776743,0.0,0.379019828993,-0.110238545775,0.304897255139,1.0,-0.23998,-0.315402285714,2.506
-0.160142852015,-0.448856119235,-0.136496868187,-2.5845591839,-0.0595691995158,2.12920993876,-0.425633567596,-0.921342422769,-0.462436217738,-0.00881942716347,-0.379550421867,-0.0702971751311,-0.0856711502011,-0.870831676797,0.573637880684,0.819081327635,0.00510954654668,0.0,0.81907099742,-0.573558367786,-0.0115864934361,0.0,-0.00655978354497,0.0108317414702,-0.999919818094,0.0,0.374999517787,-0.115620815144,0.304997060839,1.0,-0.23998,-0.315402285714,2.523
-0.176057878893,-0.45647825451,-0.136819256278,-2.59090102648,-0.0608917713496,2.12754331972,-0.440713574049,-0.944514456033,-0.449004108305,-0.0201221111219,-0.361619657953,-0.0737626161408,-0.0964852966077,-0.896408166947,0.573658374667,0.819067221639,0.00506976455662,0.0,0.819054588635,-0.573576077697,-0.0118663739318,0.0,-0.00681159340228,0.0109598697178,-0.999916738259,0.0,0.370843672239,-0.120975355386,0.304923489182,1.0,-0.23998,-0.315402285714,2.54
-0.192060724021,-0.463749983549,-0.137010731168,-2.59680992423,-0.0621596493529,2.12607219186,-0.456058676315,-0.943128398502,-0.429556154849,-0.00956417399444,-0.340657772924,-0.077842094666,-0.0906117032934,-0.91120330596,0.573478326849,0.819193234745,0.00507933887475,0.0,0.819180727101,-0.573396029445,-0.0118607194273,0.0,-0.0068038793668,0.0109629731162,-0.999916756758,0.0,0.366791807793,-0.126276610821,0.304913585397,1.0,-0.23998,-0.315402285714,2.557
-0.208471260471,-0.47071020809,-0.137288301957,-2.60237220125,-0.063372056707,2.12461026323,-0.47151174662,-0.953450998314,-0.408725942532,-0.0091587971691,-0.317705209546,-0.0701000544636,-0.0870541541009,-0.90673389121,0.573644464025,0.819076488226,0.00514608874259,0.0,0.819064933072,-0.573562040912,-0.0118307877367,0.0,-0.00673884865411,0.0110018585416,-0.99991677005,0.0,0.362711856609,-0.131692938872,0.304924289186,1.0,-0.23998,-0.315402285714,2.574
-0.224903843967,-0.477377091191,-0.137538541507,-2.60748292064,-0.0645125952094,2.12317388538,-0.487230266108,-0.972470602668,-0.377375718147,-0.0225942618686,-0.300477857062,-0.0696700632042,-0.0845614988089,-0.936496430272,0.573641379639,0.819077820203,0.00527625994246,0.0,0.819069059135,-0.573560360082,-0.0116248274075,0.0,-0.00649550979934,0.0109903148965,-0.999918507345,0.0,0.35869989291,-0.137063837136,0.305016336796,1.0,-0.23998,-0.315402285714,2.591
-0.240412928276,-0.48325458561,-0.137697700464,-2.61221562968,-0.0654723001904,2.12179334167,-0.502176803303,-0.963406246447,-0.362918792236,-0.00740985918707,-0.284247984304,-0.0503965997919,-0.0854786514527,-0.927723883482,0.573545543636,0.819144641096,0.00532101877174,0.0,0.819135444245,-0.573462677096,-0.0117655794793,0.0,-0.0065864325194,0.0111069445972,-0.999916623868,0.0,0.354871136077,-0.14201497591,0.304974872051,1.0,-0.235806285714,-0.309916832653,2.607
-0.257090496815,-0.489011717966,-0.137844577092,-2.61687777093,-0.0664643847979,2.12034725586,-0.517963982238,-0.978582058489,-0.327335203288,-0.00565786008519,-0.267804444199,-0.0535405345764,-0.0805540772778,-0.932695368962,0.573696664342,0.819038912349,0.00530511854098,0.0,0.819027984596,-0.573611281691,-0.0120002027279,0.0,-0.00678568778996,0.0112297330303,-0.999913920064,0.0,0.350811831963,-0.147295804987,0.304904138784,1.0,-0.231104571429,-0.303737436735,2.624
-0.273456812074,-0.494330960513,-0.137858865006,-2.62104379469,-0.0673029055152,2.11913407733,-0.53369817023,-0.965967621067,-0.305396083911,-0.00230972462149,-0.235385189182,-0.0489960100495,-0.0649315865047,-0.923038219021,0.573650597756,0.819070652854,0.00538555740495,0.0,0.819060940852,-0.573565199744,-0.0119533975794,0.0,-0.00670183788165,0.0112683903332,-0.999914050681,0.0,0.3467061501,-0.152715881172,0.3049071498,1.0,-0.226126285714,-0.297194546939,2.642
-0.288806377634,-0.498973237202,-0.137859529154,-2.62459750215,-0.0680431381881,2.11796765916,-0.548317585911,-0.945148018045,-0.285327959701,0.0047361385947,-0.212534426594,-0.0445906624269,-0.0704049490944,-0.906120486214,0.57371140655,0.819027731898,0.00543537279596,0.0,0.819018752362,-0.573625952462,-0.0119288239861,0.0,-0.00665229483373,0.0112955921087,-0.999914074595,0.0,0.343333861367,-0.157168150577,0.304932122715,1.0,-0.221977714286,-0.291742138776,2.657
-0.305848272275,-0.503738118706,-0.137885021372,-2.6282184643,-0.0687271906753,2.11674385056,-0.564643253361,-0.951765364159,-0.252770677206,-0.00287594618775,-0.193893241912,-0.0416200269436,-0.0601813830284,-0.912503581335,0.573816847156,0.818952904714,0.00557787427765,0.0,0.818945652267,-0.57373062022,-0.0119138976105,0.0,-0.0065568500254,0.0114045906265,-0.999913467771,0.0,0.339365269927,-0.162413376809,0.304959668118,1.0,-0.216999428571,-0.28519924898,2.675
-0.321663054594,-0.507781541561,-0.137799649802,-2.63127208807,-0.0693318153907,2.11575782071,-0.579875673546,-0.924483350701,-0.232126158602,0.00531603676012,-0.172976267215,-0.0336472478852,-0.0613398439956,-0.885433887769,0.573798704668,0.818965063575,0.00565845086054,0.0,0.818959452462,-0.573713228103,-0.0118022889246,0.0,-0.00641945778465,0.0114063995241,-0.999914338637,0.0,0.335740616919,-0.167229675235,0.304993544898,1.0,-0.212297714286,-0.279019853061,2.692
-0.336465222889,-0.511271047372,-0.13777256093,-2.63393940757,-0.0699130555504,2.11485162263,-0.594024609696,-0.911791849533,-0.207817489689,0.00308833226043,-0.167484551833,-0.03581450468,-0.0507965615796,-0.873086785149,0.573912085331,0.8188853717,0.00569326161427,0.0,0.818880299487,-0.573826616496,-0.0117820292488,0.0,-0.0063813092118,0.011424168702,-0.999914379966,0.0,0.332331091434,-0.171720559152,0.304998293943,1.0,-0.207872571429,-0.27320395102,2.708
-0.351753797645,-0.514494496415,-0.13762597561,-2.63649481426,-0.0703436363007,2.11389755438,-0.608897185765,-0.895821999426,-0.181320225609,0.00193712084039,-0.145512141756,-0.0301360451048,-0.0554658007972,-0.871544585218,0.573817283709,0.818951451646,0.00574383710713,0.0,0.818945803026,-0.57372944103,-0.0119602300622,0.0,-0.00649956445535,0.0115671007215,-0.999911975047,0.0,0.328820203895,-0.176270157921,0.304951075322,1.0,-0.203170857143,-0.267024555102,2.725
-0.366971166605,-0.51733715285,-0.137504776971,-2.63876164337,-0.0707736405177,2.11310020269,-0.623531479212,-0.882436846436,-0.15911779504,0.0161190114115,-0.132122478848,-0.0203384431851,-0.0407077466027,-0.852849676533,0.57389418474,0.818897323624,0.00577797403202,0.0,0.81889134505,-0.573804812717,-0.0120726470308,0.0,-0.00657095554651,0.0116601793467,-0.999910427369,0.0,0.325360794057,-0.180801754174,0.304904325983,1.0,-0.198469142857,-0.260845159184,2.742
-0.380942817148,-0.519719636622,-0.13738883097,-2.64063543742,-0.0710946624868,2.11244860704,-0.63701140703,-0.877825044078,-0.147765545452,-0.00060436275681,-0.113555304682,-0.0245117325539,-0.0444712666925,-0.843607281668,0.573969015718,0.818844326405,0.00585534044326,0.0,0.818838938635,-0.573878559109,-0.012121834479,0.0,-0.00656576746346,0.0117523644279,-0.999909382208,0.0,0.322204450888,-0.184941067158,0.304876970735,1.0,-0.194044,-0.255029257143,2.758
-0.39551304344,-0.521919899275,-0.137167873784,-2.64229641878,-0.0713975578341,2.11179169872,-0.651193121472,-0.841154226689,-0.127938646671,0.0162090036309,-0.0916780005448,-0.0164235625032,-0.0367343730584,-0.825609478343,0.573904363708,0.818889409549,0.00588754163508,0.0,0.818884342845,-0.573813605271,-0.0121295651164,0.0,-0.00655454711977,0.0117826528656,-0.99990909937,0.0,0.318955443,-0.189228161842,0.304879992989,1.0,-0.189342285714,-0.248849861225,2.775
-0.410740622102,-0.524037401183,-0.137040076537,-2.64379458773,-0.0716657478466,2.11116741859,-0.665868517767,-0.848058108923,-0.114508875746,0.00738715856898,-0.0760457086273,-0.0150317237309,-0.0244766147709,-0.807604711792,0.574063415933,0.818777089877,0.0060015399126,0.0,0.818773996639,-0.573973028979,-0.0120354199623,0.0,-0.0064097274971,0.0118232267497,-0.999909559262,0.0,0.31555948481,-0.193722903371,0.304925664303,1.0,-0.184364,-0.242306971429,2.793
-0.423029931245,-0.525475912207,-0.136804612429,-2.6448498596,-0.0718290371395,2.1107504426,-0.67791511268,-0.816577067493,-0.0912963861849,0.0116089208761,-0.0676833516419,-0.00219155536313,-0.0298941093437,-0.802340803186,0.573964108839,0.818846399627,0.00604338338977,0.0,0.8188441666,-0.57387415364,-0.0119763729696,0.0,-0.00633879040015,0.0118228250999,-0.999910016223,0.0,0.312850124719,-0.19730392363,0.304943359555,1.0,-0.180215428571,-0.236854563265,2.808
-0.437648619571,-0.526926807105,-0.136658574307,-2.64592174465,-0.0720312257586,2.11028984438,-0.692052546358,-0.804947315448,-0.0750665662665,0.0100971287145,-0.0553087389106,-0.00608758328704,-0.025256313249,-0.777683426032,0.574105958561,0.818746404089,0.00611727375382,0.0,0.818745180974,-0.574015759988,-0.0119575423181,0.0,-0.00627890412017,0.011873613305,-0.999909792266,0.0,0.309601810021,-0.201589223262,0.304951340733,1.0,-0.175237142857,-0.230311673469,2.826
-0.450911924412,-0.52803557804,-0.136356398636,-2.64675783098,-0.0721534819406,2.10992211402,-0.705065102554,-0.769224040166,-0.0588846370618,0.0122816463405,-0.0415319544875,-0.00467670121551,-0.0195452258247,-0.748604137294,0.573996931143,0.818822742173,0.00613081071943,0.0,0.818821720154,-0.573906746886,-0.0119492001235,0.0,-0.00626588381378,0.0118790738887,-0.999909809085,0.0,0.306678347706,-0.205413465511,0.304952920194,1.0,-0.170535428571,-0.224132277551,2.843
-0.463328654079,-0.528801655295,-0.136178680051,-2.64736947367,-0.07226022424,2.10963410453,-0.717059400563,-0.769837897804,-0.0421903704264,0.00709513001843,-0.0350669496791,-0.00899785413899,-0.0141522220672,-0.740180657216,0.574136454397,0.81872462907,0.00616931018484,0.0,0.818723796492,-0.574045488391,-0.0119945494608,0.0,-0.00627888926811,0.0119376989935,-0.999909029308,0.0,0.303930401175,-0.209020513626,0.30493462743,1.0,-0.166110285714,-0.21831637551,2.859
-0.475957636517,-0.529376178859,-0.135846905338,-2.64782886925,-0.0723067881616,2.1094031128,-0.72950822797,-0.736613421212,-0.0328366614412,0.0192190415877,-0.0259751372274,-0.0019049269055,-0.017378748851,-0.721298458847,0.57400348367,0.81881786102,0.00616912564014,0.0,0.818816905378,-0.573912317487,-0.0120114197422,0.0,-0.00629474902152,0.011946211143,-0.999908827931,0.0,0.301172567875,-0.212647033782,0.304924346988,1.0,-0.161408571429,-0.212136979592,2.876
-0.488444062371,-0.529750678805,-0.135655923511,-2.64814849741,-0.0723271043318,2.10918198552,-0.741626349011,-0.734721387747,-0.0203275125749,0.0116460235211,-0.0171797950445,-0.000322712246146,-0.00696354275618,-0.708759151537,0.57416237587,0.818705934435,0.00623746399747,0.0,0.818705280669,-0.574069758916,-0.0120963715541,0.0,-0.00632275345579,0.012052158185,-0.999907379847,0.0,0.29825199133,-0.216465630077,0.304899492266,1.0,-0.156430285714,-0.205594089796,2.894
-0.499712803488,-0.529930319366,-0.135331504626,-2.64831729974,-0.072335618993,2.10904828734,-0.752794114442,-0.6880674568,-0.0137890718163,0.0170755092016,-0.00572848334336,0.00112372647193,-0.0105938552163,-0.699806136992,0.573984099593,0.818831089417,0.0062166968634,0.0,0.818829978696,-0.573891260189,-0.0121257729511,0.0,-0.00636137435456,0.0120506506418,-0.999907153057,0.0,0.295952075903,-0.219475946604,0.304887469924,1.0,-0.152281714286,-0.200141681633,2.909
-0.5122067431,-0.530019627069,-0.135074549422,-2.6484205965,-0.0723416117379,2.10892593767,-0.764948355768,-0.694394152731,-0.00283891360911,0.0165307742699,-0.0026886956503,0.000613754922132,-0.00801467646245,-0.678242219305,0.574072820446,0.818768733143,0.00623741555278,0.0,0.818767582887,-0.57397928104,-0.0121727996768,0.0,-0.00638668343909,0.0120952999708,-0.999906452621,0.0,0.293188201467,-0.223058548898,0.304869235577,1.0,-0.147303428571,-0.193598791837,2.927
-0.523577398804,-0.529963932701,-0.134754656118,-2.64838507516,-0.0723320986897,2.10889754699,-0.776122462178,-0.650750466518,0.00330643776658,0.0200780081257,0.00787875791998,0.000544788878124,-0.00095438762372,-0.645269843476,0.574014415178,0.818809859217,0.0062138971429,0.0,0.818808648653,-0.57392146191,-0.0121366943665,0.0,-0.00637147874388,0.0120548623349,-0.999907037955,0.0,0.290696706277,-0.226304397717,0.304870840013,1.0,-0.142601714286,-0.187419395918,2.944
-0.533252037308,-0.529812397991,-0.134506014323,-2.6482839746,-0.0723297128641,2.10889921792,-0.785672320445,-0.644020725863,0.00481536655776,0.00615079817844,0.0104645389107,0.0031115538858,-8.5280849605e-05,-0.624903526191,0.573948261153,0.818856408132,0.0061905800147,0.0,0.818855043704,-0.573855710455,-0.0121156047842,0.0,-0.00636856353803,0.0120231494501,-0.999907438354,0.0,0.2885635419,-0.229068480204,0.304868003916,1.0,-0.138453142857,-0.181966987755,2.959
-0.545316629396,-0.529521983608,-0.134225082651,-2.64804937389,-0.0723017922939,2.10890311362,-0.797396415888,-0.617343289296,0.0230167543414,0.016821388808,0.0135394875825,0.00153273197851,0.000399214062292,-0.604228024916,0.574054285039,0.818782138276,0.00618342696438,0.0,0.818780896249,-0.573962150682,-0.0120847185883,0.0,-0.00634582086383,0.0120003874055,-0.999907856385,0.0,0.285888102264,-0.232515446139,0.30487617719,1.0,-0.133198285714,-0.175060604082,2.978
-0.554841724706,-0.529084280059,-0.133867116862,-2.64773328285,-0.0722347103912,2.10892827932,-0.806946509794,-0.594355688129,0.0343822138433,0.019114102323,0.0159535217685,0.000785380851202,0.00406079288177,-0.598759091199,0.573828153876,0.818941025924,0.00613129506006,0.0,0.818938966548,-0.573736038086,-0.0121109278168,0.0,-0.00640051394481,0.0119709782694,-0.999907860305,0.0,0.283808349008,-0.235208821611,0.30487138063,1.0,-0.128773142857,-0.169244702041,2.994
-0.564328211672,-0.528592954311,-0.133620111124,-2.64737615134,-0.0721594347351,2.10898211949,-0.816147130483,-0.592105363183,0.0286195050363,0.0110649846822,0.0255855316548,0.00770231489802,0.00747156188376,-0.570726514707,0.573940557386,0.818862241607,0.00613292410912,0.0,0.818860105787,-0.573848227806,-0.0121278808939,0.0,-0.00641181955083,0.0119829203133,-0.999907644831,0.0,0.281704885203,-0.237910102171,0.304865206267,1.0,-0.124348,-0.1634288,3.01
-0.57447311939,-0.527881553066,-0.133276224361,-2.64683053889,-0.0719965602722,2.10912603372,-0.82618278987,-0.53712742167,0.0471832544773,0.0262579024682,0.0329100237481,0.0116276917644,0.0191466070118,-0.545572348478,0.573887677321,0.818899212051,0.00614501606187,0.0,0.818897530026,-0.573795860897,-0.0120785858337,0.0,-0.00636528219184,0.0119641203908,-0.999908167286,0.0,0.279499941689,-0.240798650459,0.304874397114,1.0,-0.119369714286,-0.156885910204,3.028
-0.584209451067,-0.527051999007,-0.132948851397,-2.64621830692,-0.0718257844675,2.10925219889,-0.835795176307,-0.535500783789,0.049602261527,0.0210544239976,0.0363096161193,0.0101520591273,0.00299331871709,-0.527345147552,0.57386557843,0.818914594273,0.0061589025296,0.0,0.818912924249,-0.573773388154,-0.0121024148432,0.0,-0.00637715254929,0.0119889950004,-0.999907793711,0.0,0.27737278363,-0.243568475926,0.304868545792,1.0,-0.114391428571,-0.150343020408,3.046
-0.592151785257,-0.526306946611,-0.13272438386,-2.64564610249,-0.0716690416924,2.10937961058,-0.843495864945,-0.519747859899,0.0527078713128,0.0103656675625,0.0438864722308,0.00400448133018,0.0115955735685,-0.51665359507,0.574003923559,0.818817348789,0.00619612479815,0.0,0.818816191186,-0.573911590642,-0.0120945475338,0.0,-0.00634731971328,0.0120160363913,-0.999907658938,0.0,0.275630083866,-0.245841867971,0.304872694358,1.0,-0.110242857143,-0.144890612245,3.061
-0.600567995665,-0.525330613374,-0.132356290093,-2.64495651731,-0.0714523154774,2.10953839278,-0.851901113898,-0.484463296851,0.0615007012002,0.0206116813961,0.0393468504764,0.00919141924244,0.00639769634817,-0.481952672504,0.573884245228,0.818901168223,0.00620456791455,0.0,0.818899669435,-0.573791047855,-0.0121618954441,0.0,-0.00639938806985,0.012060671007,-0.99990678968,0.0,0.273813898713,-0.248223459842,0.304851644002,1.0,-0.105541142857,-0.138711216327,3.078
-0.608699228752,-0.524371645327,-0.132008265492,-2.64425695029,-0.0712569035737,2.10970104855,-0.859943317645,-0.479495745268,0.0512603353,0.01949723426,0.0434838835342,0.0117349459869,0.00535996783067,-0.459800058256,0.573833723823,0.81893659649,0.00620122833195,0.0,0.818934791679,-0.573740059035,-0.0122023988404,0.0,-0.00643522176408,0.0120807821908,-0.999906316923,0.0,0.27204613018,-0.250524174089,0.304840982704,1.0,-0.100839428571,-0.132531820408,3.095
-0.61614896767,-0.523475564421,-0.131702994557,-2.64355484991,-0.0710396124603,2.10987778933,-0.867159048694,-0.457008756476,0.0590064877556,0.0195571892622,0.0428107134746,0.0104012068275,0.0151595913536,-0.438980858692,0.573941010063,0.818861210649,0.00622748450042,0.0,0.818859956874,-0.573847594086,-0.0121678548255,0.0,-0.00639028036833,0.0120833012193,-0.99990657471,0.0,0.27042868966,-0.252638918621,0.304854372927,1.0,-0.0964142857143,-0.126715918367,3.111
-0.623587746783,-0.522441684398,-0.131386352921,-2.64273498903,-0.0708179128113,2.11007441951,-0.874521033467,-0.429213956147,0.0550961662284,0.025394721211,0.0453588964924,0.023182775768,0.0147956648802,-0.420152602957,0.573919593109,0.818876134452,0.00623890789761,0.0,0.818875233323,-0.573826515796,-0.0121337925308,0.0,-0.00635614471809,0.012072940874,-0.999906917429,0.0,0.268828205319,-0.254767577612,0.304872405999,1.0,-0.0917125714286,-0.120536522449,3.128
-0.6309537263,-0.521366655902,-0.130998320796,-2.64192192778,-0.0705563376741,2.1102800801,-0.881909454529,-0.413560658227,0.0590994709851,0.0185034154045,0.0454422549754,0.00983580204518,0.0179961269126,-0.402219665891,0.573782904919,0.818971832192,0.00625003999349,0.0,0.818971033126,-0.57368972498,-0.0121364431948,0.0,-0.0063539437277,0.0120825179682,-0.999906815738,0.0,0.267247706847,-0.256845746548,0.304874446322,1.0,-0.0867342857144,-0.113993632653,3.146
-0.637386031451,-0.520432923627,-0.130699390206,-2.64117065447,-0.0703492128565,2.11045227935,-0.888115295766,-0.387002588436,0.0584495029407,0.024617624507,0.0507881520776,0.0158132576943,0.00840648980391,-0.383692503513,0.573885956656,0.818899590853,0.00625425896753,0.0,0.818899063187,-0.573793147571,-0.0121035124375,0.0,-0.00632303218225,0.0120678749675,-0.999907188522,0.0,0.265852592566,-0.258673097691,0.304894872504,1.0,-0.0823091428572,-0.108177730612,3.162
-0.643777552715,-0.519391463585,-0.130419136574,-2.64037509893,-0.0701013376192,2.11066608694,-0.894402226971,-0.373338140499,0.058245614277,0.013836653175,0.0447756255879,0.00914751276117,0.0172006160488,-0.353065080787,0.573922210512,0.818873863123,0.00629598885843,0.0,0.818873934727,-0.573829312667,-0.0120890797835,0.0,-0.00628672954378,0.0120940454098,-0.999907101234,0.0,0.264469755619,-0.260497490012,0.304898607996,1.0,-0.0776074285715,-0.101998334694,3.179
-0.649776277264,-0.518375495435,-0.130113300233,-2.63962925297,-0.0698374454401,2.11087055188,-0.900315086426,-0.342844221846,0.0591392389393,0.0232144181355,0.0449582420999,0.00907285327407,0.00499291144944,-0.353772460963,0.573929046399,0.818868716131,0.00634210868934,0.0,0.818869223898,-0.573835620486,-0.0121087454294,0.0,-0.00627626578637,0.012143152131,-0.999906571808,0.0,0.263172504494,-0.262190347036,0.304888635759,1.0,-0.0729057142858,-0.0958189387756,3.196
-0.655024091971,-0.517456792715,-0.129744879666,-2.63895333396,-0.0696161800445,2.11104664698,-0.905543043021,-0.326428898444,0.0601199907078,0.020287599347,0.0462799992347,0.00726355476622,0.0156918833462,-0.315302563283,0.573815161004,0.818948665464,0.00632386263883,0.0,0.818948753547,-0.573721492812,-0.0121381485526,0.0,-0.00631250618015,0.0121442069053,-0.999906330865,0.0,0.26205456047,-0.263650361797,0.304881481283,1.0,-0.0684805714286,-0.0900030367348,3.212
-0.660411583822,-0.516529433723,-0.129412245483,-2.63823977079,-0.0693885321413,2.11124217733,-0.910761718513,-0.311408117448,0.0580663776814,0.0185333204235,0.0454865785995,0.0150166653869,0.00170795945527,-0.2935288312,0.573847677257,0.818925904579,0.00632083988983,0.0,0.81892609206,-0.573754282965,-0.0121171541089,0.0,-0.00629656365924,0.0121299349887,-0.99990660462,0.0,0.260833622004,-0.265245866496,0.30488865064,1.0,-0.0635022857144,-0.0834601469389,3.23
-0.665615252765,-0.51548845731,-0.129080256411,-2.63747912547,-0.0691185651095,2.111466292,-0.915861727355,-0.283092020834,0.0596067123561,0.0189410510891,0.0436828191747,0.0108826973695,0.0139610384944,-0.270170578938,0.573858415388,0.818918164505,0.0063486874442,0.0,0.818918580198,-0.573764631075,-0.0121348273591,0.0,-0.00629489943459,0.012162965082,-0.999906213863,0.0,0.259793589018,-0.266630462872,0.304877588479,1.0,-0.0588005714286,-0.0772807510205,3.247
-0.669747201553,-0.514707040208,-0.128860598296,-2.63690149665,-0.0689142808392,2.11162469787,-0.919817767655,-0.270929131975,0.0541682445239,0.022142850542,0.0351805994807,0.0140818442782,0.0120614984533,-0.265737373509,0.573964694713,0.818843378597,0.00638728829203,0.0,0.818844192882,-0.573870505179,-0.012148167342,0.0,-0.0062820909809,0.0122030480324,-0.99990580604,0.0,0.258894057648,-0.267795089719,0.304870452814,1.0,-0.0546520000001,-0.0718283428572,3.262
-0.674051064411,-0.513899659902,-0.128538958506,-2.63628287452,-0.0686891531692,2.11180316435,-0.92399977562,-0.245638722421,0.0461835512885,0.0201906415144,0.0358370392627,0.0142656356817,0.0096914610497,-0.229137759538,0.573964994958,0.81884316001,0.00638833064443,0.0,0.818844123479,-0.573871064175,-0.0121264193814,0.0,-0.00626367805589,0.0121914219688,-0.999906063372,0.0,0.25797979351,-0.268990466866,0.304876327741,1.0,-0.0499502857144,-0.0656489469389,3.279
-0.677892307838,-0.513108926438,-0.128114446538,-2.63569130598,-0.0684614806575,2.11197208333,-0.927768668146,-0.222333842074,0.048158140481,0.0257118424213,0.0341249306332,0.0142823901704,0.0118420205937,-0.22114342838,0.573851100605,0.818923346247,0.00634146727163,0.0,0.818923703942,-0.573757420905,-0.0121299620153,0.0,-0.00629516637836,0.0121542039254,-0.999906318716,0.0,0.257201616844,-0.270033392718,0.304877507389,1.0,-0.0452485714286,-0.0594695510205,3.296
-0.681433913006,-0.512387425114,-0.127755815342,-2.63514715487,-0.0682468721856,2.11213050678,-0.93122835422,-0.201099769734,0.0406311253475,0.0236736686813,0.0327240987316,0.0172667494139,0.00312466713026,-0.190187832717,0.573783538537,0.818970867514,0.0063179086367,0.0,0.818970974414,-0.573690090106,-0.0121231382917,0.0,-0.00630409688204,0.0121304745288,-0.999906550609,0.0,0.256473867821,-0.270999689615,0.304880045885,1.0,-0.0405468571429,-0.0532901551021,3.313
-0.684890065517,-0.511685261879,-0.127441520718,-2.63460521362,-0.0680158080542,2.11229582033,-0.934503688217,-0.181493118267,0.0350423676784,0.0130347828444,0.0317020907422,0.0123364075535,0.0116964904351,-0.172559057231,0.573835170168,0.818934628912,0.00632597411309,0.0,0.818935046668,-0.573742070526,-0.0120901922961,0.0,-0.00627172040577,0.0121185727792,-0.999906898525,0.0,0.255758290302,-0.271950766248,0.304888082549,1.0,-0.0355685714286,-0.0467472653062,3.331
-0.687620817237,-0.511121758209,-0.12718608353,-2.63420169188,-0.0678204754265,2.11241571866,-0.937039758184,-0.163163916504,0.0412796816996,0.0125238499513,0.027012514522,0.0103027248638,0.0042556258478,-0.149078688193,0.573917573715,0.81887672702,0.00634597723607,0.0,0.818877293558,-0.57382414887,-0.0121066580755,0.0,-0.006272506319,0.0121450343221,-0.999906572539,0.0,0.255186095452,-0.272689876957,0.304879139593,1.0,-0.0311434285715,-0.0409313632654,3.347
-0.690277950925,-0.510604793674,-0.126877576752,-2.63380460502,-0.067588270981,2.11254610036,-0.939563851456,-0.136996291125,0.0270540961678,0.0181919410311,0.0230696123146,0.0121410338264,0.0064996461372,-0.128702206634,0.573920962079,0.81887420385,0.00636509672775,0.0,0.818875228825,-0.573827856383,-0.012070532591,0.0,-0.00623189793789,0.0121399854492,-0.999906887766,0.0,0.254620640812,-0.273429388441,0.304886728898,1.0,-0.0258885714286,-0.0340249795919,3.366
-0.692220069592,-0.510255074989,-0.126588303809,-2.63352990654,-0.0674087700117,2.11260280423,-0.941329274628,-0.121943598422,0.0229273786269,0.0177345412258,0.0165454051371,0.0138353257141,0.00304793289326,-0.119103553994,0.573956473669,0.818849309219,0.00636569135134,0.0,0.818850346863,-0.573863367064,-0.0120703059118,0.0,-0.00623084454842,0.0121406125327,-0.999906886717,0.0,0.254261894637,-0.273885808238,0.304893547806,1.0,-0.0220165714286,-0.0289360653062,3.38
-0.694068965975,-0.509882945384,-0.126286368848,-2.63324155967,-0.0672121517133,2.11270252452,-0.943020029107,-0.105431979561,0.0244065937898,0.0180687308022,0.0193170799687,0.00661008711407,0.00650108449913,-0.0919532943627,0.573969854792,0.818839941891,0.00636413820231,0.0,0.818841176504,-0.573877175966,-0.0120358409958,0.0,-0.00620331311564,0.0121196616627,-0.999907312058,0.0,0.25391320237,-0.274357747789,0.304902327559,1.0,-0.0197872727273,-0.0260061298701,3.397
-0.695600481255,-0.509562253432,-0.126085086412,-2.63299789352,-0.0670504497588,2.11276595906,-0.9444762825,-0.0941240524765,0.0181446040483,0.013682058818,0.0170422649199,0.00774665643687,0.000451603357625,-0.0926657529421,0.573969844243,0.818839751909,0.00638948314045,0.0,0.818841319471,-0.573877058405,-0.0120317191483,0.0,-0.00618539122098,0.0121380504661,-0.999907200027,0.0,0.253610234363,-0.274756985283,0.304904337606,1.0,-0.0194672727273,-0.0255855584416,3.413
-0.697503572178,-0.509158032794,-0.125865247597,-2.63268749461,-0.0669392433287,2.11280853076,-0.946381392688,-0.0889297232565,0.0208952352642,0.0127138112098,0.0147459886355,0.00139876490794,0.00179776768579,-0.0869801063636,0.573875158366,0.818906293464,0.0063664775924,0.0,0.818907329012,-0.573782042091,-0.0120706903482,0.0,-0.00623191376238,0.0121408582447,-0.99990687707,0.0,0.253213533299,-0.275264247607,0.304904254164,1.0,-0.0190472727273,-0.0250335584416,3.434
-0.698721683271,-0.508864750097,-0.125750124919,-2.63246905349,-0.066893187666,2.11290712146,-0.947556872424,-0.0879322109065,0.0277486979911,0.00493707996191,0.0162660452515,0.00180709228581,0.0100093217303,-0.0853908913212,0.573858983331,0.818917908454,0.00633035262459,0.0,0.818918677208,-0.573766428248,-0.0120429579677,0.0,-0.00623017008562,0.012095236484,-0.999907440834,0.0,0.252965147524,-0.275611673036,0.304905790087,1.0,-0.0187672727273,-0.0246655584416,3.448
-0.69995225612,-0.508558439417,-0.125681112509,-2.63224516646,-0.0668469429972,2.11297457975,-0.94883991055,-0.0858616423764,0.0195788921257,0.00351516140686,0.0159991049957,0.00129186154338,0.00265621743694,-0.0917441355471,0.573796419414,0.81896182199,0.00632060853652,0.0,0.81896238272,-0.573703763996,-0.012056275037,0.0,-0.00624759234804,0.0120944209301,-0.999907341993,0.0,0.252679899424,-0.275991137853,0.304900213896,1.0,-0.0184472727273,-0.024244987013,3.464
-0.701473439824,-0.508181175679,-0.125624866689,-2.63199210081,-0.0667865036428,2.11299809621,-0.950327449383,-0.0826113590363,0.0238816371538,0.00042415607234,0.0130916621478,0.00263833385314,0.00216494059538,-0.0854049558133,0.57382484482,0.81894172096,0.00634444951142,0.0,0.818942044191,-0.57373101561,-0.0121407118833,0.0,-0.00630264936725,0.0121626127326,-0.999906169329,0.0,0.252347391726,-0.276399407054,0.304879446316,1.0,-0.0180872727273,-0.0237718441559,3.482
-0.702720527886,-0.507864471097,-0.125597019188,-2.63176313381,-0.0667468219826,2.11307794593,-0.951648688208,-0.0791010242779,0.0167795095653,0.000453914082221,0.0142665832243,0.00269102714441,0.00704567336123,-0.0858902121918,0.573773110981,0.818977922714,0.00635028533588,0.0,0.818978310604,-0.573679244184,-0.0121407764844,0.0,-0.00630012231034,0.0121670313024,-0.999906131498,0.0,0.252067532819,-0.27677192217,0.304873319615,1.0,-0.0177672727273,-0.0233512727273,3.498
-0.704038822935,-0.507539579325,-0.125593070106,-2.63150238183,-0.0666849384161,2.1131618642,-0.952953613669,-0.0809667098084,0.0146858964979,0.000189220941285,0.0134719460004,0.0051188647111,0.00369878403909,-0.0858167283055,0.573821082913,0.818944082207,0.00637980602772,0.0,0.818945029141,-0.573727407338,-0.0121098396387,0.0,-0.0062571324062,0.0121738261125,-0.999906318738,0.0,0.251771243972,-0.2771739882,0.304878349831,1.0,-0.0174272727273,-0.0229044155844,3.515
-0.705436600217,-0.507196550393,-0.125595265871,-2.63125184775,-0.0666540005956,2.11318369075,-0.954359107945,-0.0725379021279,0.0211354539568,-0.000156929586835,0.0134439226359,-0.000235860988199,0.00256000389324,-0.0773188786738,0.573842608884,0.818928827878,0.00640171859373,0.0,0.818929657519,-0.573748043223,-0.0121715173466,0.0,-0.00629475411126,0.0122273278977,-0.99990542979,0.0,0.25143599265,-0.27758765656,0.304866517822,1.0,-0.0170672727273,-0.0224312727273,3.533
-0.706617815802,-0.506921641897,-0.125592666202,-2.6310271107,-0.0666258326684,2.11324561101,-0.955565977134,-0.0714677991683,0.0157658668383,-1.23830480548e-05,0.014713766721,4.87470913979e-05,0.00674862994841,-0.068821009514,0.573843285587,0.818928299007,0.00640871069599,0.0,0.818929330989,-0.573748903123,-0.0121529384151,0.0,-0.00627551527504,0.0122223985915,-0.999905610986,0.0,0.251163048498,-0.277946076595,0.304871775689,1.0,-0.0167472727273,-0.0220107012987,3.549
-0.707799119545,-0.50664671955,-0.125599099924,-2.63078739738,-0.0665820969226,2.11332573065,-0.956695015836,-0.0732128267747,0.0178314973786,-0.00248971620846,0.0193318792659,-0.000118026654626,0.0052069538026,-0.071216126119,0.573921538848,0.818873324302,0.00642595469172,0.0,0.81887490878,-0.573827699477,-0.0120996687984,0.0,-0.00622082498439,0.0122065486122,-0.999906146349,0.0,0.25089489829,-0.278311427515,0.304885152115,1.0,-0.0164272727273,-0.0215901298701,3.565
-0.709022857803,-0.506356181668,-0.125577701865,-2.63055690702,-0.0665478222894,2.1133502007,-0.95797020296,-0.0691391052158,0.0219182797128,-0.00122868300541,0.0144062440102,0.003669735484,0.00604643115495,-0.0799219348179,0.57389064953,0.818894890249,0.00643645915327,0.0,0.818896426293,-0.573796404853,-0.0121274763658,0.0,-0.00623803140684,0.0122308741695,-0.999905741898,0.0,0.250609410933,-0.27867115949,0.304884418349,1.0,-0.0160872727273,-0.0211432727273,3.582
