nelsonifechukwu/NELSON_IML_WORK/CNN-GradCAM/train2dof/data_sample_2022-02-21-15-57-57/robot_state.csv
position_joint1,position_joint2,position_joint3,position_joint4,position_joint5,position_joint6,position_joint7,velocity_joint1,velocity_joint2,velocity_joint3,velocity_joint4,velocity_joint5,velocity_joint6,velocity_joint7,ee_T_00,ee_T_10,ee_T_20,ee_T_30,ee_T_01,ee_T_11,ee_T_21,ee_T_31,ee_T_02,ee_T_12,ee_T_22,ee_T_32,ee_T_03,ee_T_13,ee_T_23,ee_T_33,v_x,v_y,time
0.465081836032,0.547869382361,-0.123905430742,-1.35585427746,0.0795110805953,1.8940923322,0.159159755173,0.00122537177148,-0.000441804201234,0.000649954963049,0.0002894260396,7.80363486494e-05,1.93875328905e-05,0.0019045099943,0.573745672217,0.819019631718,0.00186905733661,0.0,0.818974853118,-0.573686891467,-0.0120119698725,0.0,-0.00876595421951,0.0084226888497,-0.999926105449,0.0,0.661646371779,0.260941480009,0.303138331757,1.0,0.0,0.0,0.0
0.465081960408,0.547869382365,-0.12390544229,-1.35585678311,0.0795096736715,1.8940923322,0.159162753485,0.00115942623046,-0.000589063924638,0.00111696664916,-0.000232060948942,1.54145873875e-05,2.2667638946e-05,0.00145347286169,0.573747797526,0.819018149439,0.00186617910247,0.0,0.818973343846,-0.573689039101,-0.0120123014782,0.0,-0.00876785523949,0.00842054457769,-0.999926106842,0.0,0.661645846026,0.26094102955,0.303137137051,1.0,-6e-05,-7.88571428571e-05,0.004
0.465076578345,0.547864061117,-0.123913246514,-1.35586205191,0.0795096565897,1.89408962894,0.159160413628,-0.000888729249382,-0.000260260366084,-0.00257209508031,-0.00210446307732,1.71200234331e-05,-0.00029399125619,-0.00356730272164,0.573755996479,0.819012414304,0.00186242362665,0.0,0.81896759141,-0.573697283716,-0.0120107359418,0.0,-0.00876864328904,0.00841665840718,-0.99992613265,0.0,0.661647437706,0.260932209784,0.303138422593,1.0,-0.00036,-0.000473142857143,0.019
0.465075699545,0.547857372143,-0.123905806307,-1.35586929964,0.0795070851782,1.89409162013,0.159165233592,0.000630441528476,0.000341257257301,0.00184744427777,-0.000448885910239,0.00016639691462,0.000422624025254,0.00463079702981,0.573755181288,0.819012981069,0.00186431957071,0.0,0.818968163663,-0.573696441947,-0.0120119234395,0.0,-0.00876853654169,0.00841888377556,-0.999926114852,0.0,0.661645015078,0.260934880461,0.303139633712,1.0,-0.0007,-0.00092,0.036
0.46507507931,0.547812045406,-0.12390877479,-1.35590748522,0.0795102664384,1.89409635145,0.159153793785,0.000301430169815,-0.00410656280088,2.86358819466e-05,-0.000906915969596,0.000483822767427,2.76973128422e-06,0.00101756745836,0.573756614484,0.819011940989,0.00188009440879,0.0,0.818967273547,-0.573697753129,-0.0120099881528,0.0,-0.00875788638675,0.00843070825178,-0.999926108562,0.0,0.661640330948,0.260931766285,0.303154668228,1.0,-0.00102,-0.00134057142857,0.052
0.46507435358,0.547691393283,-0.123906122713,-1.35605520671,0.0795115873842,1.89413015291,0.159154089644,-0.000261040371489,-0.00775935716311,0.00122364145783,-0.0103610788253,0.000320352485862,0.00167197074032,-0.00550445066674,0.573758692801,0.819010459678,0.00189110379129,0.0,0.818965809135,-0.573699661551,-0.0120186814786,0.0,-0.00875866886905,0.00844473490829,-0.999925983347,0.0,0.661614644503,0.26091727235,0.303172098654,1.0,-0.0014,-0.00184,0.071
0.465065114986,0.547562538797,-0.123906125738,-1.35624665956,0.0795052709934,1.89416657879,0.159152404728,-0.000160999030541,-0.00463016620785,0.000358272877034,-0.0112706324162,-0.00229606694625,0.0070406169211,0.000610499061127,0.573773675691,0.819000004946,0.00187293461971,0.0,0.818955021461,-0.573714629167,-0.0120392692983,0.0,-0.0087858007779,0.00844182754091,-0.999925769871,0.0,0.661584179344,0.26089157003,0.303175408411,1.0,-0.00172,-0.00226057142857,0.087
0.465046064217,0.54738749843,-0.123911216054,-1.35646439487,0.0795013875659,1.89429376211,0.159144235923,0.000789691016891,-0.00550434517508,-0.00105451386256,-0.0127246835687,-5.86360580625e-05,0.0083171575473,-0.00110379028944,0.573797579318,0.818983084216,0.00194746974368,0.0,0.818939084567,-0.573738219405,-0.0119990943049,0.0,-0.0087098851308,0.00848007362295,-0.999926110396,0.0,0.661570610924,0.260860500571,0.303206973147,1.0,-0.00206,-0.00270742857143,0.104
0.465021474331,0.547216200767,-0.123906134563,-1.35665795144,0.0794991840901,1.89440213566,0.159126457433,-0.00317834443798,-0.0174883772386,0.000287760453437,-0.0119039360308,0.000468322895257,0.00707620529499,-0.00300244914074,0.573810034552,0.818974164849,0.00202693330097,0.0,0.818931145992,-0.573750283076,-0.0119640166945,0.0,-0.00863543328427,0.00852515577954,-0.999926372795,0.0,0.661557743477,0.260833468894,0.303245421977,1.0,-0.00236,-0.00310171428571,0.119
0.464987914019,0.547000121351,-0.123903578884,-1.35697748225,0.0794936246747,1.89454446767,0.159108624297,-0.00210901962471,-0.00970320425349,-0.000710299837565,-0.0170681808746,-0.00341446896014,0.0107266080112,-0.00338885494472,0.573835945975,0.818955902086,0.00206989060556,0.0,0.818913401055,-0.573775970838,-0.0119467051239,0.0,-0.00859633668611,0.00855067461866,-0.999926491778,0.0,0.661529944743,0.260788050433,0.303264852943,1.0,-0.0027,-0.00354857142857,0.136
0.464952740369,0.546761322078,-0.123906216598,-1.35733881208,0.0794841921253,1.89467543134,0.159064869337,-0.00116644951112,-0.0222135840914,-2.51044570146e-05,-0.0285108698504,-0.00046042324998,0.00905050433963,-0.00212853848386,0.573850191992,0.818945892697,0.00208059787076,0.0,0.818903368385,-0.573790008611,-0.0119601909575,0.0,-0.00860108858798,0.00856733142954,-0.999926308338,0.0,0.661486855711,0.260729245935,0.303267243545,1.0,-0.00304,-0.00399542857143,0.153
0.464904494785,0.546476644713,-0.123911826097,-1.35777037826,0.0794755724438,1.89483014434,0.158942319374,-0.010450051272,-0.0122634611926,-0.000486021776989,-0.0303566721833,0.000201016987073,0.0101480320069,0.000306852779069,0.573815073182,0.818970459357,0.00209651866196,0.0,0.81892799911,-0.57375468501,-0.0119683166528,0.0,-0.00859897593929,0.0085846636103,-0.999926177857,0.0,0.661440534085,0.260655707555,0.303277043918,1.0,-0.00338,-0.00444228571429,0.17
0.464872467864,0.546184045924,-0.123909326449,-1.35826586604,0.0794594085084,1.89500200994,0.158924760784,-0.00118053275722,-0.0158459901502,0.00010221888354,-0.0301110691528,-0.000561497212203,0.0140471190924,-0.0010037114094,0.573848558825,0.818947045536,0.00207726826524,0.0,0.818904176925,-0.573788090086,-0.0119968158549,0.0,-0.00863301132189,0.0085856044473,-0.999925876509,0.0,0.661377459677,0.260590044228,0.30326322074,1.0,-0.00372,-0.00488914285714,0.187
0.464818189623,0.545851150268,-0.123905833374,-1.35883460947,0.0794189109362,1.89518816885,0.158841409491,-0.000345680599029,-0.0226978267596,0.00511436452788,-0.0347353832439,0.000326937468849,0.00411629368297,-0.00815824567391,0.573843226491,0.818950894622,0.00203236555661,0.0,0.818907433422,-0.573782941464,-0.0120207517446,0.0,-0.00867843579487,0.0085625110826,-0.999925681316,0.0,0.661308360497,0.260499101758,0.303244206991,1.0,-0.00406,-0.005336,0.204
0.464747608299,0.545408917129,-0.123914293275,-1.35958710097,0.0793311380138,1.89544170466,0.158731812189,-0.00304786734691,-0.020977004505,-0.00110079718175,-0.040138103167,-0.00184809431821,0.00452561451033,-0.00216919377404,0.57383578128,0.818956291941,0.00195829364165,0.0,0.818912247348,-0.57377618898,-0.0120151156589,0.0,-0.00871640012233,0.00849853755151,-0.999925896869,0.0,0.661222933888,0.260367004617,0.30322127515,1.0,-0.00446,-0.00586171428571,0.224
0.464699603605,0.545065887199,-0.123912516867,-1.36015544939,0.079320992333,1.89562773945,0.158689894015,-0.00357847740407,-0.0315043532308,0.000115815873612,-0.0415566695992,0.000151291983811,0.0131359284417,-0.00476195972718,0.573868413576,0.818933473175,0.00193837927216,0.0,0.818888897856,-0.573808639609,-0.0120567399933,0.0,-0.00876157787224,0.00850646329447,-0.999925434638,0.0,0.661151095603,0.260284314709,0.303209669667,1.0,-0.00474,-0.00622971428571,0.238
0.464634981232,0.544634480232,-0.123909978381,-1.36086833832,0.0792957068245,1.89587854564,0.158577913613,-0.00514789873767,-0.0230597718269,-0.00231433664352,-0.0352207415252,-0.00258529717554,0.0171331066177,-0.0144032635813,0.573860846948,0.818938813086,0.00192241056085,0.0,0.818893821965,-0.573800942817,-0.0120885595114,0.0,-0.00879687895305,0.00851156500514,-0.999925081285,0.0,0.661066202776,0.26017703315,0.303197365207,1.0,-0.00508,-0.00667657142857,0.255
0.464569955961,0.544216348698,-0.123910431275,-1.36155941908,0.0792662201104,1.89613489781,0.158485840253,-0.00719332178676,-0.0311365055293,0.00166929629232,-0.0443232430367,-0.000324737661702,0.0150387798484,-0.00392351931872,0.573869736137,0.818932603935,0.00191391197491,0.0,0.818887382357,-0.573809752894,-0.0121065850342,0.0,-0.00881642559299,0.00851504506732,-0.999924879502,0.0,0.660988023931,0.26006986952,0.303186577872,1.0,-0.00538,-0.00707085714286,0.27
0.464506809422,0.543698814327,-0.123910432251,-1.36239892339,0.0792273812983,1.89641874139,0.158388510724,-0.0041042064645,-0.0302365456159,0.00176228456043,-0.0479655978889,-0.00298656605875,0.0200545134316,-0.0108648883673,0.573881388664,0.818924491703,0.00189090892896,0.0,0.818878797711,-0.573821340707,-0.0121379779922,0.0,-0.00885521405113,0.00851434882368,-0.999924542677,0.0,0.66087852663,0.259942347299,0.303179426492,1.0,-0.00574,-0.007544,0.288
0.464413056221,0.543082852287,-0.123919210738,-1.36335107792,0.0791662725087,1.89676458172,0.158279684641,-0.00335990129869,-0.0328479051044,-0.000945667094221,-0.0443272461581,-0.0024099328982,0.0173180183532,-0.006777901336,0.573908447809,0.818905526316,0.00189193120117,0.0,0.818859923139,-0.573848466359,-0.0121289255535,0.0,-0.00884693267663,0.00851028332528,-0.999924650591,0.0,0.660779315733,0.259789862682,0.303190592484,1.0,-0.0061,-0.00801714285714,0.306
0.464343919647,0.542499827676,-0.123923558937,-1.36427898715,0.0791135973346,1.89709179261,0.158149872917,-0.0044261863772,-0.0321983681238,-0.000599203818508,-0.0562171970204,-0.00905555049464,0.0201226089301,-0.00816174398442,0.573899247474,0.81891200671,0.00187774231026,0.0,0.818866173831,-0.573839288145,-0.0121411547206,0.0,-0.00886518574769,0.0085055829775,-0.999924528922,0.0,0.660667970556,0.25965285485,0.303189804945,1.0,-0.00644,-0.008464,0.323
0.464261714306,0.541881486565,-0.123919944822,-1.36522227977,0.0790646516963,1.89745267987,0.158028423961,-0.003195565776,-0.0418308678185,-0.000474339536672,-0.057586814823,-0.00638488227516,0.0282550922731,-0.00742933955195,0.57390396668,0.818908617474,0.00191315365062,0.0,0.818863167218,-0.573843771266,-0.0121320424358,0.0,-0.00883735293879,0.008529402553,-0.999924572398,0.0,0.660561947214,0.259513366782,0.303209255378,1.0,-0.00678,-0.00891085714286,0.34
0.464187254372,0.541311217779,-0.123922107016,-1.36610447597,0.0790070944766,1.89778453834,0.157915009297,-0.00643355903352,-0.0387364434705,0.000166588570236,-0.0632786397133,-0.00392546547332,0.0262330024563,-0.00348739427801,0.573907182915,0.818906331535,0.00192677737652,0.0,0.818861111876,-0.573846977342,-0.0121191152213,0.0,-0.00881891460527,0.00853317463103,-0.999924703003,0.0,0.660462605872,0.25937891121,0.303221368084,1.0,-0.00708,-0.00930514285714,0.355
0.464098181428,0.540620062017,-0.123919410769,-1.36716582347,0.0789486592154,1.89817144472,0.157765713184,-0.0057189158101,-0.04898973344,0.00013678928953,-0.06075577848,-0.00373135270512,0.0229414162121,-0.0130756521058,0.573899123555,0.818911936389,0.00194507667897,0.0,0.818866872639,-0.573838757348,-0.0121190907796,0.0,-0.00880847730366,0.00854805901046,-0.99992466787,0.0,0.660338632288,0.259221544846,0.303238207947,1.0,-0.00742,-0.009752,0.372
0.464003956964,0.539938470416,-0.123927805022,-1.36821738774,0.0788852556247,1.89856682638,0.157630034607,-0.0066064551588,-0.0421149462845,-0.0010443293733,-0.0641518833323,-0.00398107296104,0.0226419123187,-0.0141997029095,0.573912355289,0.81890261755,0.00196426007253,0.0,0.818857848645,-0.5738519458,-0.0121043345118,0.0,-0.00878524589393,0.0085554416248,-0.99992480911,0.0,0.660222315372,0.259055162486,0.303253929827,1.0,-0.00774,-0.0101725714286,0.388
0.463895902404,0.539191391596,-0.123925632357,-1.36939306311,0.0788183061307,1.89900920596,0.157492663727,-0.00948853809439,-0.0441733977163,0.00016563109751,-0.0725434583167,-0.000995922812488,0.0256506879714,-0.0176495416799,0.573933975686,0.818887432631,0.0019776583111,0.0,0.818842791183,-0.57387345825,-0.012103063472,0.0,-0.00877628993012,0.00856591550836,-0.999924798086,0.0,0.660089542157,0.258874529463,0.303260478686,1.0,-0.00808,-0.0106194285714,0.405
0.463789242146,0.538417001428,-0.12393062182,-1.37058478645,0.0787504236937,1.89947024578,0.157339253006,-0.0117169759507,-0.0486392869533,-0.00395132691215,-0.066989386295,-0.0019876468247,0.0268280913343,-0.0115428510743,0.573946948654,0.818878249258,0.00201492548201,0.0,0.818834104357,-0.573886276498,-0.0120829669531,0.0,-0.00873830898167,0.00858503700442,-0.999924966733,0.0,0.659958588051,0.258690246165,0.303280403507,1.0,-0.00842,-0.0110662857143,0.422
0.463670041743,0.53752914279,-0.123937052378,-1.37198802586,0.0786633289181,1.90000410921,0.157178502241,-0.00830925649692,-0.0519640793948,0.000355378044013,-0.0758477542685,-0.00878367507975,0.032796875214,-0.0096014385622,0.573971590252,0.818860949935,0.00202611855549,0.0,0.81881701313,-0.573910927408,-0.0120703484521,0.0,-0.00872129333221,0.00858722277044,-0.999925096519,0.0,0.65980050666,0.25847508054,0.303285994169,1.0,-0.0088,-0.0115657142857,0.441
0.463564832086,0.53674594757,-0.123938008749,-1.37320847389,0.0785996765663,1.90045957052,0.157031185561,-0.00717272224046,-0.049443910701,-0.000926740986586,-0.0805939758148,-0.00108554901702,0.0247080172542,-0.00505023530048,0.57398794295,0.818849437329,0.00204627342518,0.0,0.818805671591,-0.57392710022,-0.0120707375702,0.0,-0.00870987258638,0.00860412377003,-0.999925050778,0.0,0.659659924716,0.258291132823,0.303297570919,1.0,-0.00912,-0.0119862857143,0.457
0.463461625613,0.535944164954,-0.123935228782,-1.37448392559,0.0785314157109,1.90093154553,0.156870236915,-0.00533519124088,-0.051754584863,0.00338865997601,-0.0799614717705,-0.0104072895139,0.0280069629012,-0.00853943340343,0.573990550237,0.818847601744,0.00204945325463,0.0,0.818803766785,-0.573929584036,-0.0120818446124,0.0,-0.00871711546306,0.00861313051115,-0.999924910121,0.0,0.659508974323,0.258104778378,0.30329726162,1.0,-0.00944,-0.0124068571429,0.473
0.463345829151,0.535037792321,-0.123941605096,-1.37591256855,0.0784409503025,1.90144390904,0.15669523757,-0.0086561443547,-0.0534694781617,0.000282549855935,-0.0856759342814,-0.00391635138718,0.0311704397849,-0.0153895938782,0.574000578572,0.818840603021,0.00203704301643,0.0,0.818796634405,-0.573939692869,-0.0120850046854,0.0,-0.00872672069734,0.00860488931827,-0.999924897293,0.0,0.659339518547,0.257887170583,0.303301458797,1.0,-0.00978,-0.0128537142857,0.49
0.463228962647,0.534195107543,-0.123941995533,-1.37729714737,0.0783689077884,1.90194280845,0.156531409558,-0.00782170743669,-0.0572093544398,-0.00100109817844,-0.0883466840205,-0.00384793170601,0.025582079913,-0.00799792815951,0.574018927895,0.818827817904,0.00200547907508,0.0,0.818783287481,-0.573958030624,-0.0121183383716,0.0,-0.00877194063209,0.00859837389535,-0.999924557666,0.0,0.659173475637,0.257678798383,0.30328020917,1.0,-0.0101,-0.0132742857143,0.506
0.463109236684,0.533273677525,-0.123941688498,-1.37879227339,0.0782862676486,1.90250080609,0.156336470702,-0.00505267410627,-0.0604254930266,0.000798688981953,-0.0867380952947,-0.00825279242324,0.0301856096943,-0.0129411925416,0.574016821804,0.818829320403,0.00199480235315,0.0,0.818784558816,-0.573955882104,-0.0121341890933,0.0,-0.00879107052002,0.00859870757491,-0.999924386795,0.0,0.658996388914,0.257459170855,0.303266805663,1.0,-0.01044,-0.0137211428571,0.523
0.462990314667,0.53237535798,-0.123942050882,-1.38025730144,0.0781996154089,1.90305250796,0.156167900005,-0.00640797044443,-0.053838555114,0.000819255684352,-0.0938416337732,-0.00602350933724,0.0260755398723,-0.0100692775251,0.574033266934,0.818817825812,0.00198077952309,0.0,0.818772854565,-0.573972361469,-0.0121444554599,0.0,-0.00880735348374,0.0085932953947,-0.999924290033,0.0,0.658824234925,0.257241898696,0.303250717009,1.0,-0.01076,-0.0141417142857,0.539
0.462852883394,0.531382777103,-0.123942378926,-1.38184751899,0.0781035406709,1.9036352646,0.155955630624,-0.00683211917103,-0.0578746138575,0.000192800399149,-0.0949851621052,-0.00600010674001,0.0330710791317,-0.0133083112451,0.574033052133,0.818818009076,0.00196722464317,0.0,0.818772826338,-0.573972173574,-0.0121552340598,0.0,-0.00882396223693,0.0085883815408,-0.999924185823,0.0,0.658636441,0.256999446115,0.303243969738,1.0,-0.0111,-0.0145885714286,0.556
0.462690693928,0.530153903785,-0.123942387798,-1.38377817977,0.077989951731,1.90431361937,0.155704250965,-0.00930080011843,-0.0644261516677,0.000238461443166,-0.0907827660804,-0.00522714819882,0.0415702489402,-0.0124704836351,0.574034221784,0.818817230607,0.00194986747069,0.0,0.818771708499,-0.573973311551,-0.0121767766962,0.0,-0.0088515531027,0.00858654817264,-0.999923957708,0.0,0.658401199445,0.256707266299,0.303249691023,1.0,-0.0115,-0.0151142857143,0.576
0.462562538643,0.529220397112,-0.123947027245,-1.3852411555,0.0778945771947,1.90486554926,0.155499127189,-0.00474966652044,-0.0657933958707,0.000146859973434,-0.0995542039986,-0.00725792465206,0.0364603089991,-0.0148387191259,0.574028244373,0.818821388873,0.00196333551243,0.0,0.81877612537,-0.573967354676,-0.0121605588986,0.0,-0.00883060525291,0.00858820186831,-0.999924128722,0.0,0.658233062069,0.256480826773,0.30325885428,1.0,-0.0118,-0.0155085714286,0.591
0.462418377538,0.528126933183,-0.123948092657,-1.38694038662,0.0777905882487,1.90552573261,0.155264972191,-0.0109645630133,-0.0594375564401,0.000766682164593,-0.0998680058809,-0.00331443338451,0.0466026994374,-0.0188296433376,0.57401953897,0.818827385093,0.00200728739156,0.0,0.818782739338,-0.573958497455,-0.0121332544308,0.0,-0.00878311044508,0.00860842312247,-0.999924373151,0.0,0.658038806696,0.256225950213,0.303277258416,1.0,-0.01214,-0.0159554285714,0.608
0.462272376672,0.526961888564,-0.123956637514,-1.38869913659,0.0776849569227,1.90619855503,0.155017306808,-0.00874727746515,-0.0668389725744,-0.00211053882038,-0.103834659049,-0.0060200525761,0.0335801923904,-0.0107876905138,0.574009008545,0.818834603452,0.00207296882532,0.0,0.818790870271,-0.573947735006,-0.0120935992544,0.0,-0.00871304954099,0.00863932920017,-0.999924719546,0.0,0.657836770944,0.255960014308,0.303318751979,1.0,-0.01248,-0.0164022857143,0.625
0.462126206281,0.525795576903,-0.123957633746,-1.3905213426,0.0775647603917,1.90686197112,0.154772183155,-0.00475926702951,-0.0684776729033,0.00485466172651,-0.106944542278,-0.00358638556374,0.0287594827239,-0.0128518451611,0.573994413864,0.818844832085,0.00207381798246,0.0,0.818801161025,-0.573933189119,-0.0120871846721,0.0,-0.00870746338052,0.00863618732628,-0.999924795347,0.0,0.657616557042,0.255687910795,0.303329573096,1.0,-0.01282,-0.0168491428571,0.642
0.46197177493,0.524692704401,-0.123960436303,-1.39227289183,0.077457716405,1.90748701108,0.154541619188,-0.0101732189856,-0.0678373293121,0.000228350757137,-0.114476549917,-0.00799219897267,0.032283190964,-0.013908102638,0.573999284002,0.818841471556,0.00205263898065,0.0,0.818797480613,-0.573938107639,-0.0121029435986,0.0,-0.00873247254136,0.00862794270051,-0.999924648425,0.0,0.657404840037,0.255416433952,0.303325869561,1.0,-0.01314,-0.0172697142857,0.658
0.461825142611,0.523557729118,-0.123965785506,-1.39407311901,0.0773462858653,1.90814551784,0.154291092396,-0.00738620401893,-0.0720571492961,-0.000324351488787,-0.115648825262,-0.00314586843723,0.0406332528388,-0.0155097022988,0.573984530998,0.81885183471,0.00204398329566,0.0,0.818807733719,-0.573923397201,-0.0121068678563,0.0,-0.00874080940756,0.00862295021698,-0.999924618649,0.0,0.657187488752,0.255144834788,0.303324273616,1.0,-0.01346,-0.0176902857143,0.674
0.461662050172,0.522343663591,-0.123964781419,-1.3960050388,0.077225268833,1.90890452555,0.154034728965,-0.0087790531487,-0.0725174027911,0.00117587944228,-0.111414958278,-0.00723315408798,0.0497772450135,-0.0168339037649,0.573978558341,0.818855945344,0.0020741841898,0.0,0.818812303288,-0.573917358061,-0.0120840804757,0.0,-0.00870487842709,0.00863453686581,-0.999924832107,0.0,0.656963975819,0.25485679561,0.303323801426,1.0,-0.0138,-0.0181371428571,0.691
0.461503635737,0.521085907677,-0.123970399929,-1.3980088681,0.0771089465052,1.9096719035,0.15376208969,-0.00427014723115,-0.0773943739573,-0.00128510816124,-0.115925656968,-0.00801265187032,0.038420941098,-0.00944434416116,0.573964894442,0.818865478194,0.00209176259805,0.0,0.818822047923,-0.573903602538,-0.0120770745605,0.0,-0.0086891966385,0.00864476459812,-0.999924880132,0.0,0.656725721367,0.254561378021,0.303320415955,1.0,-0.01414,-0.018584,0.708
0.461342746529,0.51987011404,-0.123975744979,-1.39994017087,0.0769890612037,1.91036576251,0.153505792628,-0.00791170702138,-0.0765345047861,-0.00067163869768,-0.121124005673,-0.00258031301596,0.0409426497418,-0.00998914708653,0.573960948415,0.818868297821,0.00207060831162,0.0,0.818824573155,-0.573899730225,-0.0120898695611,0.0,-0.00871185708715,0.00863474421201,-0.999924769539,0.0,0.656488878262,0.254267081495,0.303315324109,1.0,-0.01446,-0.0190045714286,0.724
0.461172449027,0.518519585012,-0.123978942085,-1.40202603443,0.0768534639407,1.91110247578,0.153225897923,-0.00139845885806,-0.0763162250099,-0.00343403048586,-0.122678386209,-0.00697081342996,0.0496974672618,-0.0148505708541,0.573947327604,0.818877851978,0.00206774680111,0.0,0.818834101435,-0.573886134921,-0.0120898872432,0.0,-0.00871365744162,0.00863226626604,-0.999924775247,0.0,0.656229679605,0.25395172946,0.303334488276,1.0,-0.0148,-0.0194514285714,0.741
0.460996561423,0.517158453159,-0.12397682123,-1.40416034367,0.0767117984683,1.91186627318,0.152922344492,-0.014895953727,-0.0840132083928,0.00315587294237,-0.12327164548,-0.00538496661123,0.048263776716,-0.0233779144877,0.573915804319,0.818899978789,0.00205455432181,0.0,0.818856074739,-0.573854691419,-0.0120941680295,0.0,-0.00872506629103,0.00862358449023,-0.999924750673,0.0,0.655964472367,0.253631109305,0.303339815591,1.0,-0.01514,-0.0198982857143,0.758
0.46082564145,0.515905092449,-0.123980452904,-1.40618819192,0.0765831426022,1.91263558928,0.152644274315,-0.0100777648774,-0.0788621340426,-0.000718054047656,-0.12859193853,-0.00561574944293,0.0434485587847,-0.0175687802337,0.573898973391,0.818911798194,0.00204499896634,0.0,0.818867815849,-0.573837950047,-0.0120935583828,0.0,-0.00873022771105,0.00861523044739,-0.999924777635,0.0,0.655705613278,0.253304074372,0.303319255698,1.0,-0.01548,-0.0203451428571,0.775
0.460600550514,0.514268087042,-0.123977539629,-1.40881364117,0.0764314754479,1.91358633162,0.152289569598,-0.00889472957877,-0.0769374511078,-4.67185253087e-05,-0.129167903677,-0.0137043360806,0.042262121979,-0.0202207474681,0.573892244422,0.818916584446,0.00201653498829,0.0,0.818872055335,-0.57383117427,-0.0121279565251,0.0,-0.00877480303574,0.00861159014078,-0.999924418817,0.0,0.655395273652,0.25292815748,0.303300943035,1.0,-0.01586,-0.0208445714286,0.794
0.460398037813,0.512848329712,-0.123988535704,-1.41109525622,0.0762907371175,1.91437743444,0.151961465531,-0.00958243783865,-0.0867272923107,-0.000731141806604,-0.136638742631,-0.00987998859224,0.0472262361294,-0.0154176598754,0.573878631228,0.818926275941,0.00195399439814,0.0,0.818880860977,-0.573817773932,-0.0121673639897,0.0,-0.00884310762148,0.00858284405347,-0.999924064235,0.0,0.655109114832,0.252567934247,0.303278773989,1.0,-0.0162,-0.0212914285714,0.811
0.460224458411,0.511596392618,-0.12399251536,-1.41311443134,0.076166342922,1.91514011131,0.151688028092,-0.00695548366207,-0.0883032315452,-0.00357691476795,-0.139756479537,-0.00403763380724,0.0509149979649,-0.0195775216815,0.573871240931,0.818931480414,0.00194322416091,0.0,0.818885966721,-0.573810473714,-0.0121680181298,0.0,-0.00884990111246,0.0085743197416,-0.999924077264,0.0,0.654847483711,0.252241806215,0.303259152283,1.0,-0.01652,-0.021712,0.827
0.4600291118,0.510122238759,-0.123995669279,-1.41545086673,0.0760250448392,1.91602178973,0.151349616737,-0.0081026744303,-0.0870167525307,-0.00108533737014,-0.130550554221,-0.00853571184485,0.0513326544392,-0.0176335904306,0.573840891291,0.818952703733,0.0019614872278,0.0,0.818907376612,-0.573779995413,-0.0121643863452,0.0,-0.0088367650892,0.00858686398606,-0.999924085793,0.0,0.654579818969,0.251909756002,0.303257419521,1.0,-0.01684,-0.0221325714286,0.843
0.459835983234,0.508689423235,-0.124001277044,-1.41768748713,0.0758838364013,1.91681674093,0.151056029201,-0.00764370087313,-0.0917366202226,0.000222240234591,-0.136610231935,-0.0119871197097,0.0453978643095,-0.0218344027108,0.573840496554,0.818953004916,0.00195119313652,0.0,0.818907520665,-0.573779625006,-0.0121721579106,0.0,-0.0088490408025,0.00858288912054,-0.999924011358,0.0,0.65429935787,0.25156471725,0.303264569789,1.0,-0.01716,-0.0225531428571,0.859
0.459617223362,0.507155345805,-0.124002716311,-1.42009040383,0.0757338701942,1.9176877475,0.15070632403,-0.0152296704291,-0.0872606598773,0.000181666646034,-0.144742656717,-0.00649586409378,0.0600343252971,-0.019362930532,0.573818160869,0.818968653905,0.00195168650918,0.0,0.818923134889,-0.573757249981,-0.0121763762677,0.0,-0.00885244663412,0.00858547236737,-0.999923959035,0.0,0.654002029329,0.25119074998,0.30326938417,1.0,-0.0175,-0.023,0.876
0.459409780545,0.505668718996,-0.124010206186,-1.42239803801,0.0755895436398,1.91856430042,0.150396968664,-0.013845730295,-0.0979509056354,-0.00162033250631,-0.143698576749,-0.00983520939331,0.0533300360369,-0.0264844252915,0.573820382633,0.818966994472,0.00199432743569,0.0,0.818922096003,-0.573759342337,-0.0121476195617,0.0,-0.00880440499663,0.00860391616078,-0.999924224669,0.0,0.653724654744,0.250832642786,0.303286503413,1.0,-0.01782,-0.0234205714286,0.892
0.45918555527,0.504015477073,-0.124013726547,-1.42486690944,0.0754278834452,1.91950940874,0.150046097178,-0.00890628466706,-0.097369693484,-7.95329810141e-05,-0.145562688595,-0.0118768571188,0.057307455167,-0.0269747811879,0.573802559576,0.81897922259,0.00209821124384,0.0,0.818935819633,-0.573741204032,-0.0120789494407,0.0,-0.00868874566255,0.00864939897852,-0.999924843974,0.0,0.653429950747,0.250450891974,0.303348455345,1.0,-0.01816,-0.0238674285714,0.909
0.458946518211,0.50232319528,-0.124015195655,-1.42735542606,0.0752689442943,1.9204404348,0.149708156177,-0.015493887239,-0.0995897964045,0.000706745307829,-0.146710591982,-0.00563281660044,0.0627418711734,-0.0229409425786,0.573807118378,0.818975732342,0.00221079952968,0.0,0.818933865392,-0.573745352734,-0.0120142095478,0.0,-0.00857107512667,0.00870450515333,-0.999925381347,0.0,0.653130758722,0.250058450061,0.303426351728,1.0,-0.0185,-0.0243142857143,0.926
0.458696563303,0.500501892521,-0.124021588416,-1.43009701203,0.0750990890713,1.92140732292,0.149306469121,-0.0147859203109,-0.105383774194,0.000725061638051,-0.150432550482,-0.0183557427733,0.0501690036129,-0.019443704563,0.573781182144,0.818993791567,0.00225195340484,0.0,0.818952398258,-0.573719184871,-0.0120005499587,0.0,-0.00853655139487,0.00873010046485,-0.999925453539,0.0,0.652784409691,0.249628545726,0.303476475388,1.0,-0.01886,-0.0247874285714,0.944
0.458440256628,0.498713516934,-0.124023835608,-1.43286171974,0.0749191759741,1.92242892682,0.148919436943,-0.014462621214,-0.0984484551544,0.000977086414945,-0.150098995429,-0.00634949855315,0.0557899200896,-0.0218738682473,0.573767650917,0.819003180809,0.0022846197793,0.0,0.818962265605,-0.573705574776,-0.0119778081025,0.0,-0.0084993274698,0.00874366455123,-0.999925652118,0.0,0.652442425961,0.249195914459,0.303496564483,1.0,-0.01922,-0.0252605714286,0.962
0.458229067072,0.497343387561,-0.124022280054,-1.43505224202,0.0747855299016,1.92323395098,0.148596608762,-0.0151960281762,-0.0990282843986,0.000603651738597,-0.15707509994,-0.0108785608155,0.0588321460491,-0.0203246434874,0.573750144843,0.819015480268,0.0022718440236,0.0,0.818974321453,-0.573688044125,-0.0119931534415,0.0,-0.00851941259645,0.00874182374906,-0.999925497288,0.0,0.652169193886,0.248850400144,0.303478943977,1.0,-0.0195,-0.0256285714286,0.976
0.457966914101,0.495657987868,-0.124027182892,-1.43775545981,0.0746232556713,1.92416745365,0.148202884924,-0.0144128724917,-0.0999647434334,-2.60015570227e-05,-0.163495194122,-0.0129185787764,0.0547663922296,-0.0257569521836,0.573738404986,0.819023892138,0.00220310070407,0.0,0.818981648043,-0.573676399738,-0.0120497076713,0.0,-0.00860529727455,0.00871784695087,-0.999924971187,0.0,0.651820477684,0.2484155414,0.303447865665,1.0,-0.01984,-0.0260754285714,0.993
0.45766325102,0.493845215825,-0.124041149819,-1.4407121597,0.0744318537977,1.9252186812,0.147791095834,-0.0221554455526,-0.110722026927,-0.00285249056343,-0.171809434876,-0.0150075638183,0.0594055858277,-0.0271261402156,0.573756713589,0.81901129724,0.00211553926472,0.0,0.818967904628,-0.573695074063,-0.0120946304367,0.0,-0.00869213185895,0.00867210113506,-0.999924617912,0.0,0.651449686442,0.247923387198,0.303394717889,1.0,-0.0230028571429,-0.0302323265306,1.011
0.457371071876,0.491717027296,-0.124091356994,-1.44404946933,0.074243353022,1.92646994718,0.147305576815,-0.019443721664,-0.135445943141,-0.000198329684143,-0.20960477167,-0.00960147836977,0.0850217944689,-0.0347876160124,0.573751352801,0.819014966947,0.00214848267659,0.0,0.818972037433,-0.573689605462,-0.0120741620369,0.0,-0.00865652390736,0.00868728129471,-0.999924795041,0.0,0.651038200101,0.247390508258,0.30339747405,1.0,-0.0281417142857,-0.0369862530612,1.028
0.457043502218,0.48952601514,-0.124097633085,-1.44760031963,0.0740387091302,1.92773494749,0.146795203346,-0.0224568624378,-0.155677395561,-0.00137371990121,-0.253354084164,-0.00722694032809,0.0856181160084,-0.0333714428896,0.573728068747,0.819031468377,0.0020745700451,0.0,0.818987286848,-0.573666359323,-0.0121440958496,0.0,-0.00875645419978,0.00866662201043,-0.999924104206,0.0,0.65057679456,0.246834546462,0.303341222698,1.0,-0.032676,-0.0429456,1.043
0.456575989271,0.486547095089,-0.124132908641,-1.4522402865,0.0737617710624,1.92948171534,0.146118399226,-0.0258290525868,-0.187233251099,-0.0033962221431,-0.281359924022,-0.0157740604835,0.114005374158,-0.0468468898174,0.573737775529,0.819024490413,0.00214381356462,0.0,0.818981242878,-0.573675792244,-0.0121060360342,0.0,-0.00868545327063,0.00870160081518,-0.999924419666,0.0,0.650008717342,0.246073027948,0.303355215957,1.0,-0.0378148571429,-0.0496995265306,1.06
0.455982691038,0.482706400619,-0.124198039323,-1.45816990428,0.0733952484545,1.93160423423,0.145201868147,-0.0361943551087,-0.216141399252,-0.00146320194551,-0.331423522293,-0.0205621529414,0.111042324848,-0.055719243205,0.573712345121,0.819042252482,0.00216347110882,0.0,0.818999314213,-0.573650333257,-0.0120898872207,0.0,-0.00866121929425,0.00870816656327,-0.999924572713,0.0,0.649260223137,0.245082673506,0.303384517496,1.0,-0.0435582857143,-0.0572480326531,1.079
0.455388310112,0.47906041601,-0.124266335048,-1.46390313217,0.0730551858644,1.93362230036,0.144356872578,-0.0396023322261,-0.233356245086,-0.00458862207221,-0.367147682491,-0.0198399453466,0.129703694647,-0.0541240073358,0.573744167529,0.819020118812,0.00210288091708,0.0,0.818976243531,-0.57368226857,-0.012137304568,0.0,-0.00873447930006,0.0086860844535,-0.999924127526,0.0,0.648527461097,0.244108390101,0.303360230839,1.0,-0.0483948571429,-0.0636046693878,1.095
0.454647740204,0.474476729656,-0.124325851975,-1.47092832931,0.0726260149814,1.93621027166,0.143353795802,-0.0448494808251,-0.25865912906,-0.00166686384282,-0.406633365902,-0.0279619830508,0.143542160519,-0.0617959002269,0.573795952471,0.818983526784,0.002221415338,0.0,0.818941249922,-0.573733586696,-0.0120725960351,0.0,-0.00861292251426,0.00874658379307,-0.99992465458,0.0,0.647646042642,0.242928885372,0.303415434594,1.0,-0.053836,-0.0707558857143,1.113
0.453993849469,0.470610711478,-0.124360755069,-1.4768734963,0.0722772340181,1.93830410608,0.142450718979,-0.0486354320206,-0.282184767126,-0.00405370884861,-0.420208098638,-0.0233832988293,0.15651268441,-0.0646845309958,0.573807342581,0.81897547959,0.00224595880297,0.0,0.818933183495,-0.57374452548,-0.0120998906369,0.0,-0.00862107315205,0.00878246537406,-0.999924269832,0.0,0.646876037149,0.241918985606,0.303440568569,1.0,-0.058068,-0.0763179428571,1.127
0.453093482656,0.465178004241,-0.124397254489,-1.48504724513,0.0717532694172,1.94134782922,0.141129849611,-0.0550816660001,-0.304877748826,-0.00142500933449,-0.470869755889,-0.0293080656757,0.165077908272,-0.0690865266203,0.57373426701,0.819025956305,0.00249412488574,0.0,0.818987084287,-0.573670632927,-0.0119543962235,0.0,-0.00836031555918,0.00890147420382,-0.99992543166,0.0,0.64584341224,0.240543142654,0.303563894564,1.0,-0.0635091428571,-0.0834691591837,1.145
0.452202639412,0.460006548843,-0.124425638814,-1.49308262515,0.0712341209558,1.94407799849,0.13994686602,-0.0563317386213,-0.334116272448,0.000904113319969,-0.50610471784,-0.0245182050265,0.169252601167,-0.0774555886283,0.573748816287,0.819016105112,0.00237955401659,0.0,0.818975384049,-0.573685270951,-0.0120530956964,0.0,-0.00850672818194,0.00886441622049,-0.999924526002,0.0,0.644759525502,0.239173394511,0.303539439732,1.0,-0.0683457142857,-0.0898257959184,1.161
0.451179954773,0.454171935334,-0.124485887799,-1.50212545949,0.0706244223377,1.94723560983,0.138543969858,-0.0633320486931,-0.35271130796,-0.00385530950583,-0.537646677239,-0.0360932038734,0.190752402261,-0.0886024278014,0.57373091365,0.819028835198,0.00231359834879,0.0,0.818987311775,-0.573667706752,-0.0120785877307,0.0,-0.00856563989593,0.008824836772,-0.999924373175,0.0,0.643555798501,0.237606224184,0.303522674841,1.0,-0.0734845714286,-0.096579722449,1.178
0.450075262972,0.447807426105,-0.124527932914,-1.51149495149,0.0699834943237,1.95080047048,0.137046457132,-0.0692290554274,-0.375089077335,0.000554700869896,-0.557784749891,-0.0396929038245,0.204976251515,-0.0845641744245,0.573690242909,0.819055944927,0.00275883531693,0.0,0.819020902835,-0.573626031911,-0.0117763803629,0.0,-0.00806312983064,0.00901571188343,-0.999926848763,0.0,0.642367219901,0.235989502834,0.303739020497,1.0,-0.0786234285714,-0.10333364898,1.195
0.448879630539,0.441226729131,-0.124561034638,-1.52168401748,0.0693023892631,1.95425953783,0.135471560114,-0.0680497935891,-0.389607265703,-0.00459646575196,-0.617831849279,-0.045463359067,0.205757572368,-0.0925225195459,0.573671335867,0.819069626958,0.00262516672265,0.0,0.819032490968,-0.573607231748,-0.0118856773376,0.0,-0.00822954113053,0.00896874191206,-0.999925915416,0.0,0.640959052298,0.234217218874,0.303695291536,1.0,-0.0837622857143,-0.11008757551,1.212
0.447662511489,0.434631045534,-0.124584854477,-1.53174095294,0.0686182608931,1.95770297814,0.133846819912,-0.0774111910607,-0.41881669928,-0.000342648248981,-0.627416921294,-0.0406553298651,0.215737482974,-0.0979958250094,0.573607368832,0.819114499411,0.00260195653816,0.0,0.819076827886,-0.57354310883,-0.0119247321255,0.0,-0.00827554607354,0.00897148925506,-0.999925511085,0.0,0.639566822756,0.232454321005,0.303712245612,1.0,-0.0885988571428,-0.116444212245,1.228
0.446166280803,0.426885041252,-0.124622350953,-1.5435418164,0.0677786466425,1.96190620951,0.13194070617,-0.0922715421584,-0.434559771841,-0.00189435702596,-0.672760654464,-0.0427542448074,0.22647487618,-0.117243997536,0.57357253341,0.819138609925,0.00268952593658,0.0,0.819102404074,-0.573508300784,-0.0118417681434,0.0,-0.00815774110802,0.00899528330161,-0.999926265351,0.0,0.638056375867,0.230473760035,0.303733200258,1.0,-0.0937377142857,-0.123198138775,1.245
0.444537132721,0.41874538537,-0.124740283995,-1.55599432913,0.066887401997,1.96607273931,0.12988840998,-0.0925027196067,-0.462050833392,-0.00715441849629,-0.68557750035,-0.0508416807179,0.242614639608,-0.110676302674,0.57359182227,0.819125633103,0.00252299811663,0.0,0.819087387333,-0.573528360397,-0.0119087629288,0.0,-0.00830792195366,0.00889749626929,-0.999925903751,0.0,0.636216116002,0.228030869221,0.303704537407,1.0,-0.0994811428571,-0.130746644898,1.264
0.442890926203,0.410643445878,-0.124827232733,-1.56814007024,0.0660495125789,1.97041074626,0.12784959542,-0.101818436057,-0.478827377743,-0.00444679204018,-0.723048842259,-0.0536571662793,0.244507721441,-0.126528010522,0.573603926878,0.819116438942,0.00274616573188,0.0,0.81908136825,-0.573539924799,-0.0117649372754,0.0,-0.00806197305602,0.0089979206436,-0.999927018344,0.0,0.634550465101,0.225783235053,0.303788989967,1.0,-0.10462,-0.137500571429,1.281
0.441191684535,0.402805193242,-0.124898712951,-1.58019918599,0.065227518464,1.97433478774,0.125866089851,-0.108218954359,-0.490651000051,-0.00942828933084,-0.762329249737,-0.0527183497742,0.245496667689,-0.122722253003,0.573681415954,0.819062968993,0.00249654058698,0.0,0.819023934613,-0.573617572806,-0.0119758757771,0.0,-0.00837709810344,0.00891523551344,-0.999925168602,0.0,0.632798376153,0.223501214543,0.3036857389,1.0,-0.109456571429,-0.143857208163,1.297
0.439166295217,0.393474067063,-0.125023073753,-1.59393115599,0.0642184683861,1.97919700549,0.123512967233,-0.112932701488,-0.521934370178,-0.0054649208337,-0.802811552124,-0.0685694304901,0.272032589325,-0.132700526406,0.573762886935,0.819004811185,0.00283120693041,0.0,0.818970941462,-0.573698670882,-0.0117123426782,0.0,-0.00796835876634,0.00903895778104,-0.999927398615,0.0,0.630893405272,0.220846813714,0.303854812004,1.0,-0.114897714286,-0.15100842449,1.315
0.437264689744,0.385046761649,-0.125057285061,-1.60679424633,0.0632572522395,1.98337324018,0.121265871304,-0.124100344039,-0.525670204661,-0.00378211851302,-0.78238175616,-0.0570029480564,0.254411077901,-0.145913298769,0.573725006528,0.819032161776,0.00258491030422,0.0,0.818994751996,-0.573661320984,-0.011875685726,0.0,-0.00824386421292,0.00893057778551,-0.999926139014,0.0,0.628977287939,0.218385893749,0.303750837258,1.0,-0.119734285714,-0.157365061224,1.331
0.434883499473,0.374537038905,-0.125137144424,-1.62231307258,0.0621054010151,1.9886494139,0.118467253012,-0.128210841127,-0.547374223914,-0.00238408941089,-0.800686727223,-0.0638288593074,0.283550240627,-0.155610393006,0.573693715284,0.819053460533,0.00277429893909,0.0,0.81901872177,-0.573629562911,-0.0117560557079,0.0,-0.00803757297017,0.00901675164748,-0.999927045144,0.0,0.626708693804,0.215371250075,0.303849515468,1.0,-0.125477714286,-0.164913567347,1.35
0.432844580018,0.366031861193,-0.125219234435,-1.63506666053,0.06112918419,1.99276922871,0.11627171483,-0.142372739923,-0.569770361179,-0.01478860517,-0.854050193219,-0.0615488047676,0.26962032981,-0.145930845824,0.573807765854,0.81897404366,0.00262879408679,0.0,0.818937343052,-0.573744053847,-0.0118378939169,0.0,-0.00818683049531,0.0089456653375,-0.999926472736,0.0,0.624786044441,0.212824140472,0.303804807131,1.0,-0.130012,-0.170872914286,1.365
0.430597233099,0.356640763021,-0.12533189747,-1.64891422821,0.0600248296229,1.99732728882,0.113685059003,-0.146374988629,-0.587611505798,-0.00293329464114,-0.892811297546,-0.0613998403715,0.27668715288,-0.170746959257,0.573781120291,0.818992643849,0.00264994712558,0.0,0.81895673752,-0.573717902751,-0.0117633768169,0.0,-0.00811395319131,0.00891996731797,-0.99992729633,0.0,0.622699231642,0.210035479441,0.303845737137,1.0,-0.134848571429,-0.17722955102,1.381
0.428005203855,0.34640109374,-0.125426000461,-1.66405073602,0.0589214567165,2.00218575986,0.110821459929,-0.160958351644,-0.617195313933,-0.0104833399968,-0.870955987807,-0.070916406686,0.296576524569,-0.169361382187,0.573828372149,0.818959624575,0.00262288658347,0.0,0.818922666334,-0.573764482365,-0.0118630620683,0.0,-0.00821060777457,0.00895547529046,-0.999926189967,0.0,0.620369274599,0.206942379337,0.303836890299,1.0,-0.139987428571,-0.183983477551,1.398
0.425336963695,0.33590786208,-0.125494530126,-1.67945342149,0.0576909007838,2.00721253997,0.107917966261,-0.160483856568,-0.619892172615,-0.00235099059431,-0.924756355544,-0.0795180915286,0.289721373533,-0.179199576564,0.573832993154,0.818956226067,0.00267257480943,0.0,0.818920103481,-0.573769124297,-0.0118153721647,0.0,-0.00814298846727,0.00896884829209,-0.999926623057,0.0,0.617978486748,0.203798142226,0.303854357197,1.0,-0.145126285714,-0.190737404082,1.415
0.422737020517,0.325671995379,-0.125497058481,-1.69426873228,0.0564460529515,2.01192482166,0.105023253988,-0.163207506652,-0.654947786806,0.0011392121176,-0.920543067638,-0.0818865827458,0.305937034879,-0.183881390692,0.573690714925,0.819055713279,0.0027292957179,0.0,0.819020573979,-0.573626930169,-0.0117554789444,0.0,-0.00806294990433,0.00897953134914,-0.999927175776,0.0,0.615612936598,0.200792502627,0.303924202569,1.0,-0.149962857143,-0.197094040816,1.431
0.419436377665,0.313344085784,-0.125532336206,-1.71230374756,0.055019407659,2.01754822364,0.101482040714,-0.179013780563,-0.654000644319,-0.00791328018373,-0.937605637838,-0.0700943635466,0.293472681216,-0.196359989169,0.573645120981,0.819087913963,0.00264788116484,0.0,0.819050988863,-0.573580841117,-0.0118845802425,0.0,-0.00821590031501,0.00898645417457,-0.999925868564,0.0,0.612681251749,0.197058797098,0.303878854048,1.0,-0.155706285714,-0.204642546939,1.45
0.417071961924,0.304579081032,-0.125597205537,-1.72476550572,0.0539258950018,2.02153632753,0.0988721718027,-0.188960300461,-0.666811405879,-0.00118789762308,-0.976121030322,-0.0831868356084,0.30189443766,-0.202947026476,0.573525468721,0.819171120064,0.00282129097048,0.0,0.819137225654,-0.573461436081,-0.0117018706696,0.0,-0.00796808634208,0.00902251903046,-0.999927549251,0.0,0.610675778196,0.194411999343,0.303991229499,1.0,-0.159636,-0.209807314286,1.463
0.412949843392,0.290244459756,-0.12569928604,-1.7453345187,0.0522850262826,2.02780517946,0.09467078951,-0.197616236452,-0.705242099061,-0.00514478273762,-0.979665963725,-0.0783400987561,0.309788428763,-0.207588877178,0.573619835323,0.819104939958,0.00285109836745,0.0,0.819070577093,-0.57355471504,-0.0117951471776,0.0,-0.00802635694125,0.00910135639611,-0.999926368742,0.0,0.607268218266,0.189946487029,0.304021238175,1.0,-0.165984,-0.2181504,1.484
0.410302358173,0.281240030768,-0.125794500893,-1.75831872086,0.0511901119139,2.03174073025,0.0918986159604,-0.200535788251,-0.6979870999,-0.00667939725264,-1.01305494303,-0.0885953555084,0.291127133657,-0.221737974695,0.573602415349,0.819117368591,0.00278432760302,0.0,0.819081953995,-0.573537334975,-0.0118501025473,0.0,-0.00810986512301,0.00907801471685,-0.999925907123,0.0,0.605086380769,0.187091613605,0.303982876141,1.0,-0.169913714286,-0.223315167347,1.497
0.40597738387,0.266938294552,-0.125966857685,-1.77856070171,0.0493765102785,2.03783634197,0.0874863444376,-0.21984344762,-0.71444458749,-0.00939940478872,-1.01104473321,-0.0922334698006,0.317567201843,-0.218495895813,0.573612489888,0.819110188949,0.00282076319553,0.0,0.819075853737,-0.573547956887,-0.0117572904057,0.0,-0.00801282766986,0.00905472197798,-0.99992690063,0.0,0.601663837967,0.182525692654,0.304041862667,1.0,-0.175959428571,-0.231260963265,1.517
0.402954860055,0.25758355811,-0.1261086677,-1.79192892434,0.0482206577569,2.04172942151,0.0845836881114,-0.238711435767,-0.740528368758,-0.011648020174,-1.02265354234,-0.0877381226373,0.297028366799,-0.228520700742,0.573784814132,0.818989820678,0.00272169030304,0.0,0.81895395209,-0.573720344252,-0.0118379832978,0.0,-0.00813385532257,0.00902156776941,-0.999926223135,0.0,0.599194269452,0.179169085835,0.304000214857,1.0,-0.180191428571,-0.236823020408,1.531
0.397898791281,0.242053101892,-0.126272544308,-1.813819803,0.0462355627295,2.04810715369,0.0795952785475,-0.242117824685,-0.766376756805,-0.00348348575179,-1.05901768167,-0.0965928444854,0.295154470109,-0.237686983487,0.573831918581,0.81895710071,0.00263501741035,0.0,0.818920080514,-0.573767742341,-0.0118838748242,0.0,-0.0082206539537,0.00897738820291,-0.99992591093,0.0,0.595536152034,0.174329350734,0.303966052,1.0,-0.186237142857,-0.244768816327,1.551
0.394185024587,0.230678146461,-0.126340678791,-1.82945695024,0.0448750692253,2.05272644498,0.0759243804758,-0.248660961073,-0.758604487866,-0.00432807996634,-1.04461881895,-0.0956000179393,0.305819590752,-0.247883527838,0.573819756533,0.818964627172,0.00292802912318,0.0,0.818931200359,-0.573754262101,-0.0117678673077,0.0,-0.00795765108276,0.00915066533664,-0.999926467853,0.0,0.592771869976,0.170712507913,0.304090537306,1.0,-0.190771428571,-0.250728163265,1.566
0.388937522072,0.215272195445,-0.126444245007,-1.8507675993,0.0428060548725,2.05874535797,0.0707544607055,-0.265736923569,-0.779132570095,-0.00705183818245,-1.06893440734,-0.0989847034595,0.309209151438,-0.259721854937,0.573707882269,0.819043017793,0.00292364981929,0.0,0.819010031443,-0.57364299026,-0.0117061959481,0.0,-0.00791089914068,0.00911061082469,-0.999927204573,0.0,0.588908558078,0.165668711472,0.304120005879,1.0,-0.196817142857,-0.258673959184,1.586
0.385343802663,0.205155775905,-0.126551760885,-1.86480001183,0.0415179234819,2.06257475258,0.0673192517767,-0.281745380981,-0.803363448978,-0.0126422399946,-1.10053939461,-0.0915882873085,0.286966248979,-0.270626381536,0.573759235428,0.819007333455,0.00284155049401,0.0,0.818972693772,-0.573693958378,-0.0118201470865,0.0,-0.00805076179766,0.0091092461988,-0.999926100704,0.0,0.586313507145,0.162278206401,0.304075653218,1.0,-0.200746857143,-0.263838726531,1.599
0.379854660696,0.190038277023,-0.126728278495,-1.8853978871,0.0395229675786,2.06822265631,0.0620276299271,-0.296511517087,-0.786429789303,-0.00889812978431,-1.09251295587,-0.104778989767,0.295049762339,-0.290034394145,0.573747269085,0.819015448089,0.00291786062099,0.0,0.818981947877,-0.573681887723,-0.0117646781062,0.0,-0.0079616826087,0.00913980307966,-0.999926535106,0.0,0.582485356242,0.157203250753,0.304121784114,1.0,-0.206490285714,-0.271387232653,1.618
0.375839453664,0.179527107743,-0.126889679373,-1.89958194322,0.0381940787352,2.07196361221,0.0582841544462,-0.315625766912,-0.835973780253,-0.0146619930807,-1.07561930075,-0.107119831618,0.30235259653,-0.293816219706,0.573876461836,0.818924726618,0.0029741528302,0.0,0.818891459908,-0.57381028907,-0.011801523125,0.0,-0.00795811282195,0.00920830197674,-0.999925935065,0.0,0.579811963878,0.153584049275,0.304163916639,1.0,-0.21042,-0.276552,1.631
0.370508307748,0.165669192885,-0.126999612013,-1.91843422136,0.0362703302576,2.0768306051,0.0532778789963,-0.321739141864,-0.839518956765,-0.0047462639275,-1.11990907668,-0.114314117052,0.272963589807,-0.30326832135,0.573842463987,0.818949142832,0.00280622203185,0.0,0.818913486459,-0.573776679541,-0.0119067464461,0.0,-0.00814103177656,0.00913082558327,-0.999925173013,0.0,0.57615732122,0.14885614856,0.304094018863,1.0,-0.215558857143,-0.283305926531,1.648
0.364981936532,0.151467794576,-0.127085773383,-1.93719745401,0.0343325351465,2.0817672171,0.0480277479988,-0.32992860819,-0.826724571396,-0.00480545855114,-1.12022299645,-0.116904067966,0.296322520189,-0.30954077292,0.573708067398,0.819042429364,0.0030494597197,0.0,0.819010478971,-0.573642047435,-0.0117210772672,0.0,-0.00785091243694,0.00922219360825,-0.99992665447,0.0,0.572506934321,0.144097268282,0.304217740494,1.0,-0.220697714286,-0.290059853061,1.665
0.359153442745,0.137073651727,-0.127219689303,-1.9561922289,0.0324228017562,2.08644485763,0.0426287321698,-0.350601008375,-0.852714318611,-0.00463818802361,-1.11251197766,-0.11435071058,0.287226083952,-0.32474305816,0.573717814398,0.819035373465,0.00311020188945,0.0,0.819003554583,-0.573650807564,-0.0117760546552,0.0,-0.00786098684524,0.00930357786464,-0.999925821411,0.0,0.56870969653,0.139170778003,0.304266668363,1.0,-0.225836571429,-0.296813779592,1.682
0.353004865935,0.122580081631,-0.127397917542,-1.97533521634,0.0303651784849,2.09105863047,0.0369548669909,-0.368756136467,-0.846226314625,-0.0116175143793,-1.12788193681,-0.12171677952,0.26691347011,-0.329686730827,0.573707582332,0.819042875654,0.00302071460749,0.0,0.81900980952,-0.573640795595,-0.0118286280202,0.0,-0.00795550154604,0.00926034676942,-0.999925475209,0.0,0.564831881224,0.13406637825,0.304239156362,1.0,-0.230975428571,-0.303567706122,1.699
0.346486524593,0.107803097895,-0.12760130213,-1.99452927038,0.0282270167017,2.09569437087,0.0310673971276,-0.385049755291,-0.854368747082,-0.00844732868812,-1.14221705552,-0.132827841595,0.260195487738,-0.358446280655,0.573777165503,0.818993805514,0.00310769658881,0.0,0.81896257943,-0.5737109005,-0.0116979931139,0.0,-0.00779781462087,0.00925730677727,-0.999926745496,0.0,0.560924344885,0.128796164152,0.304290767152,1.0,-0.236114285714,-0.310321632653,1.716
0.340287403194,0.0936854868547,-0.127694588395,-2.0126066053,0.0262536163877,2.09988476834,0.025301325564,-0.389056449616,-0.868422393745,-0.00432777707183,-1.1423969475,-0.125490829406,0.25578072954,-0.373536705699,0.573613852087,0.81910767827,0.00324144947497,0.0,0.819078015449,-0.573546957149,-0.0116550184125,0.0,-0.00768773960178,0.00934065984754,-0.999926822689,0.0,0.556882271474,0.123604742677,0.304363547083,1.0,-0.241253142857,-0.317075559184,1.733
0.333309012207,0.0785481812785,-0.127882920967,-2.03198504406,0.0241470790374,2.10411490473,0.0189228795493,-0.425370257144,-0.925196114276,-0.00807346474246,-1.11783735663,-0.129889002075,0.259215858946,-0.380442942701,0.573587403063,0.81912610371,0.00326560402583,0.0,0.819096087363,-0.5735196207,-0.0117299292629,0.0,-0.00773555220498,0.00940316418448,-0.99992586812,0.0,0.552986892325,0.118521400502,0.304386049371,1.0,-0.246089714286,-0.323432195918,1.749
0.325981809738,0.0632910913966,-0.128076751836,-2.05150061528,0.0218934765151,2.10827399281,0.0123650879015,-0.443961088837,-0.896426970508,-0.0113168479632,-1.14774379466,-0.13220362726,0.222007269129,-0.404002233011,0.573606804196,0.819113014208,0.00313863611082,0.0,0.8190810211,-0.57353906785,-0.0118306984025,0.0,-0.00789070051978,0.00935714652664,-0.999925087521,0.0,0.548744500853,0.112977860851,0.304322979386,1.0,-0.24998,-0.328545142857,1.766
0.318299152101,0.0479623921884,-0.128305237633,-2.07069512048,0.0196280008862,2.1122972472,0.00557130365486,-0.45470320826,-0.871661774825,-0.00561486435143,-1.13149952649,-0.129949859637,0.22496269558,-0.404165719594,0.573705932231,0.819043303239,0.00321210885999,0.0,0.819012517342,-0.573638225911,-0.0117655902028,0.0,-0.00779408949674,0.00938092687085,-0.999925622424,0.0,0.544539586769,0.107322977782,0.304364825201,1.0,-0.24998,-0.328545142857,1.783
0.311002208739,0.033576795672,-0.128449027535,-2.08853148137,0.0175825870418,2.11582567036,-0.0009025052859,-0.462300306563,-0.905524484753,-0.012119813871,-1.1011596452,-0.137956390324,0.223377745626,-0.405990530109,0.573730602808,0.819025693853,0.00329470962365,0.0,0.818995295878,-0.573661776347,-0.0118160309924,0.0,-0.00778773394494,0.00947775274326,-0.999924758871,0.0,0.540522695783,0.102101067413,0.304398870835,1.0,-0.24998,-0.328545142857,1.799
0.302044381799,0.0166534630413,-0.128647518435,-2.10929872825,0.0150117510144,2.1197451372,-0.00879733889997,-0.4792361369,-0.897808016844,-0.0143999872567,-1.07057069647,-0.131376469631,0.20254641264,-0.420244511436,0.573747118165,0.819014106029,0.00329930647428,0.0,0.818983899605,-0.573678433908,-0.011797184289,0.0,-0.00776946895935,0.00947086171403,-0.99992496625,0.0,0.535770270486,0.0958266424616,0.304436546366,1.0,-0.24998,-0.328545142857,1.818
0.294231022261,0.00253956815375,-0.128861087769,-2.12650065456,0.0129117470046,2.12282245562,-0.0155858706442,-0.489810152993,-0.873237735281,-0.0135797781191,-1.07228372827,-0.118436133317,0.189797318849,-0.423689806171,0.573897446197,0.81890880471,0.00329206899033,0.0,0.818877978487,-0.573828126927,-0.0118694565108,0.0,-0.00783107143379,0.00950783663445,-0.999924134804,0.0,0.531762537235,0.0904797535798,0.304438128288,1.0,-0.24998,-0.328545142857,1.834
0.285421558406,-0.013237684751,-0.128959213342,-2.14536290108,0.0105406815449,2.12621860198,-0.0233967268099,-0.489295010711,-0.882862151742,-0.00384284369295,-1.05848438344,-0.128272945068,0.185304329883,-0.428660448898,0.573782989041,0.818988103725,0.00350918013431,0.0,0.81896055264,-0.573713502277,-0.0117122767287,0.0,-0.00757909720444,0.0095943699733,-0.999925249881,0.0,0.527307055147,0.0846512014308,0.304530806,1.0,-0.24998,-0.328545142857,1.852
0.276852051176,-0.0280160069613,-0.129131626335,-2.16286758892,0.00823776262464,2.12902043754,-0.0309328334074,-0.50573242778,-0.880680333432,-0.0125650301706,-1.00677046461,-0.127335198658,0.185651275063,-0.445256191348,0.573750675349,0.819010672079,0.00352540196947,0.0,0.818983526957,-0.573681388088,-0.0116788027967,0.0,-0.00754275185353,0.00958815173241,-0.999925584352,0.0,0.523065002293,0.0790628679475,0.304589083225,1.0,-0.24998,-0.328545142857,1.869
0.268487382824,-0.0417221341768,-0.12933640484,-2.17923711628,0.00611094418765,2.1315277837,-0.0381506473912,-0.527032228033,-0.844145828784,-0.00950576714709,-1.02955023444,-0.137850916807,0.158203175603,-0.452313236787,0.573886472662,0.818916036792,0.00340412715137,0.0,0.818886623827,-0.573816704952,-0.0118251146679,0.0,-0.00773057985086,0.00957405186582,-0.999924284967,0.0,0.519029632476,0.0737176494432,0.304513080131,1.0,-0.24998,-0.328545142857,1.885
0.259566969271,-0.0562930548659,-0.129450760215,-2.19605985269,0.00390623363473,2.13409091454,-0.046003728539,-0.525716527113,-0.828577760573,-0.00648041543607,-0.994289646066,-0.14427778826,0.144211236746,-0.471271329727,0.573817030464,0.818963667316,0.0036433593226,0.0,0.818937764902,-0.573746985369,-0.0116653717766,0.0,-0.00746329291432,0.00967765985743,-0.999925318291,0.0,0.514836074817,0.0681989213577,0.30462315238,1.0,-0.24998,-0.328545142857,1.902
0.252053545459,-0.0680598580678,-0.129582372228,-2.20990651184,0.0020810554664,2.13589763312,-0.0526021890367,-0.541224187335,-0.848271157475,-0.00291160847836,-0.974095178464,-0.133614013961,0.123712017284,-0.462345287933,0.573792726813,0.81898146604,0.00346581020179,0.0,0.818952043751,-0.573721745947,-0.0119018974828,0.0,-0.00775917215712,0.00966774069286,-0.999923162067,0.0,0.511272523535,0.0636110404625,0.304521726796,1.0,-0.24998,-0.328545142857,1.916
0.242069740567,-0.0831966068598,-0.129835281051,-2.22718284551,-0.000291037014778,2.13814371581,-0.0612910089296,-0.560255826951,-0.815464841782,-0.00956583852604,-0.96564860899,-0.128827917743,0.110159465947,-0.481303290779,0.573888389632,0.81891409322,0.0035455707632,0.0,0.818885754602,-0.573817169347,-0.0118627136249,0.0,-0.00768018185953,0.00971147798483,-0.999923348063,0.0,0.506807901648,0.0576190892457,0.304563494471,1.0,-0.24998,-0.328545142857,1.934
0.23204937879,-0.0982593774032,-0.129944669534,-2.24418980095,-0.00261672627376,2.14018563253,-0.0701269603718,-0.557987866941,-0.818657590096,-0.00771869750542,-0.935747588826,-0.137065284979,0.116833982032,-0.497073504484,0.573752448024,0.819008927159,0.00364040125446,0.0,0.818981598271,-0.573680631088,-0.0118499835249,0.0,-0.00761696125465,0.00978056700042,-0.999923158253,0.0,0.502047574482,0.0514787595896,0.304600843901,1.0,-0.24998,-0.328545142857,1.953
0.222259154878,-0.112250155594,-0.130132257889,-2.26006546304,-0.00491364127078,2.14179968883,-0.0786214623168,-0.577022589319,-0.814246132709,-0.0117115512032,-0.939491384464,-0.13765135526,0.0948982864969,-0.497395100716,0.573792561637,0.818981738679,0.00342853052251,0.0,0.818950942733,-0.57372061842,-0.0120313049178,0.0,-0.00788655220904,0.00971145854787,-0.999921741871,0.0,0.497987108704,0.0461920111724,0.304511119626,1.0,-0.24998,-0.328545142857,1.969
0.212208383138,-0.126242205793,-0.130328563301,-2.27544059066,-0.00707230377085,2.1433489888,-0.087362992504,-0.590280857347,-0.808639473603,-0.0013064341685,-0.918120924453,-0.123207355185,0.0827097190842,-0.522050794297,0.573876338569,0.818922320325,0.00359558148749,0.0,0.818893671396,-0.573803723331,-0.0119661581636,0.0,-0.0077363449123,0.00981168286408,-0.999921936876,0.0,0.493771189783,0.0405802469043,0.304580806576,1.0,-0.24998,-0.328545142857,1.986
0.202057644,-0.140029730857,-0.130507786094,-2.29057249358,-0.00926053875412,2.14463093883,-0.0963220236801,-0.59888933485,-0.79037365021,-0.0134165409551,-0.85442717588,-0.11951719801,0.0770915164462,-0.539106954747,0.573813374849,0.818966486937,0.00358483173054,0.0,0.818937146601,-0.573740111573,-0.0120408135444,0.0,-0.00780441127037,0.00984512127339,-0.999921079262,0.0,0.489510564219,0.035026327282,0.304575720712,1.0,-0.24998,-0.328545142857,2.003
0.192194837016,-0.152933347942,-0.130734151026,-2.30448556873,-0.0113552434353,2.14581024553,-0.104898890819,-0.623997480776,-0.787880517162,-0.0161120408113,-0.856479523706,-0.121624104888,0.0633027832359,-0.541935322425,0.573901181019,0.81890443724,0.00370189069308,0.0,0.818877226937,-0.573828247644,-0.0119153812844,0.0,-0.00763345612351,0.0098698354015,-0.999922155318,0.0,0.485556293865,0.0297157849355,0.304626243443,1.0,-0.24998,-0.328545142857,2.019
0.181682053215,-0.166580693021,-0.13084078681,-2.31902787267,-0.0135127613015,2.14672447339,-0.114191667721,-0.617958803163,-0.842621066942,-0.00729718850843,-0.840424092292,-0.122689310381,0.0577509433858,-0.551419444616,0.573775858258,0.818992016655,0.00375340330493,0.0,0.81896525661,-0.57370247391,-0.0119216943884,0.0,-0.00761058229474,0.00991447821478,-0.999921888029,0.0,0.481294948261,0.0242292483693,0.304672468233,1.0,-0.24998,-0.328545142857,2.036
0.171515002218,-0.179181257866,-0.13102811207,-2.33248233855,-0.0155369833459,2.14747917805,-0.123169023609,-0.64625487637,-0.776784163192,-0.00782034712316,-0.812622765536,-0.133859979573,0.0382932986962,-0.565856374912,0.573747976029,0.819011670754,0.00372693861367,0.0,0.818983956555,-0.573673901704,-0.0120116739393,0.0,-0.00769980197069,0.00994416799909,-0.999920910159,0.0,0.477282908817,0.0189900976131,0.304641087582,1.0,-0.24998,-0.328545142857,2.052
0.161012677329,-0.191740436983,-0.131270155164,-2.34560341835,-0.0176026386919,2.14811349684,-0.132357812624,-0.649956931911,-0.78696784738,-0.00983891480261,-0.830070646193,-0.129660220971,0.0485325921198,-0.572799024061,0.573827566577,0.81895550219,0.00381525505776,0.0,0.818929430562,-0.57375380167,-0.0119125870339,0.0,-0.00756700729134,0.00996038724953,-0.999921762483,0.0,0.473062186184,0.0133361049205,0.304694403035,1.0,-0.24998,-0.328545142857,2.069
0.148536193604,-0.206523023363,-0.13145914208,-2.36101156803,-0.0199254254255,2.14864588064,-0.143499054042,-0.666458816477,-0.773304495418,-0.00915121906143,-0.77880310729,-0.125431296586,0.0170040315882,-0.592691788173,0.573705627206,0.819040925392,0.00381611666231,0.0,0.819013773513,-0.573630446177,-0.0120539170232,0.0,-0.00768375858578,0.0100410454551,-0.999920065435,0.0,0.468515731702,0.00750345380191,0.304657777176,1.0,-0.24998,-0.328545142857,2.087
0.137565011576,-0.218837230095,-0.131740974548,-2.37347631947,-0.0218983258053,2.14896848471,-0.153033679695,-0.687496316365,-0.774048205732,-0.0132184111268,-0.783860570324,-0.136478374967,0.023673951391,-0.584366179667,0.573934945643,0.818879437528,0.00398646010032,0.0,0.818854912137,-0.573859645834,-0.0119367773774,0.0,-0.00748725711631,0.0101154608644,-0.99992080608,0.0,0.46456868001,0.00214896240811,0.304741843242,1.0,-0.24998,-0.328545142857,2.103
0.126016681173,-0.231738297504,-0.131872524325,-2.38667031373,-0.0240019976427,2.14913355702,-0.163413091897,-0.685547183986,-0.757877978323,-0.0155082742165,-0.794880335897,-0.11953190057,0.00579407239684,-0.607881002192,0.573730261472,0.819023079161,0.00394078345116,0.0,0.818997458755,-0.573654487648,-0.0120182467347,0.0,-0.00758271932605,0.0101229183711,-0.999920011247,0.0,0.460283016189,-0.00331115830949,0.304703745675,1.0,-0.24998,-0.328545142857,2.12
0.11469032646,-0.243770097101,-0.132148083108,-2.39859920134,-0.0259746540175,2.14922238241,-0.173432672209,-0.725031286485,-0.769226467345,-0.0166201811622,-0.734343309744,-0.120556605103,0.0113686613061,-0.628238948679,0.573824298369,0.818956418801,0.00409946421813,0.0,0.818933641077,-0.573748999304,-0.0118542908166,0.0,-0.00735622569189,0.0101596648741,-0.999921330482,0.0,0.456341538539,-0.00863401406411,0.304782129258,1.0,-0.24998,-0.328545142857,2.136
0.103276451353,-0.255607145574,-0.132298010139,-2.41042023076,-0.027864186801,2.14917684645,-0.18365586358,-0.707251194823,-0.731790675977,-0.00988147234398,-0.758348092291,-0.116006855367,-0.00748829209919,-0.650315395857,0.573747756955,0.819009794244,0.00414912317103,0.0,0.818987373058,-0.573671897941,-0.0118736340832,0.0,-0.007344528648,0.010210746997,-0.999920896144,0.0,0.45234406103,-0.0138359613831,0.304765683724,1.0,-0.24998,-0.328545142857,2.152
0.0909295090203,-0.268057880236,-0.132559792477,-2.42259601465,-0.0298906195363,2.14902941196,-0.194697838975,-0.733029629208,-0.736931737446,-0.0223387761036,-0.70239433271,-0.116964266166,-0.00279686449343,-0.655935526984,0.573764134846,0.818997621021,0.00428500026713,0.0,0.81897744645,-0.573688494384,-0.0117558717038,0.0,-0.00716991364985,0.0102546135674,-0.999921714555,0.0,0.448138218643,-0.0194107030736,0.304806148918,1.0,-0.24998,-0.328545142857,2.169
0.0768136580737,-0.281748015512,-0.132779984865,-2.43591432526,-0.0321705222384,2.14863219912,-0.207368705419,-0.732553309849,-0.716211584947,-0.00849586819057,-0.703641506214,-0.108799902543,-0.0315840892707,-0.673334404011,0.57369510439,0.819045908941,0.00429803999483,0.0,0.819026100463,-0.573619714529,-0.0117224897306,0.0,-0.0071359541708,0.0102455391647,-0.999922050505,0.0,0.443399532927,-0.0256300491818,0.304805248451,1.0,-0.24998,-0.328545142857,2.188
0.0654873625832,-0.292395593577,-0.13301204724,-2.44618700823,-0.0338031904144,2.14816806516,-0.217616147517,-0.765595733768,-0.70277717228,-0.0195312457703,-0.674047772873,-0.113260269745,-0.0186277071813,-0.685950603136,0.573703808349,0.819039345544,0.00438607313015,0.0,0.819019706396,-0.573626722925,-0.0118258268787,0.0,-0.00716998679551,0.0103770020339,-0.999920451395,0.0,0.439642501195,-0.0305319237906,0.304787437988,1.0,-0.24998,-0.328545142857,2.203
0.0515785483263,-0.305026213642,-0.133255454072,-2.45806055513,-0.0359294264799,2.14758795588,-0.230124832976,-0.769114835008,-0.686966951621,-0.0100556892281,-0.670257245457,-0.114903676565,-0.040893887708,-0.695976719016,0.573695118458,0.819044806028,0.0045015194261,0.0,0.819027880061,-0.573619450568,-0.0116105346572,0.0,-0.00692752238253,0.0103479761987,-0.999922461405,0.0,0.435205159223,-0.0364626413671,0.304857990767,1.0,-0.24998,-0.328545142857,2.221
0.038256804924,-0.316754949321,-0.133525383417,-2.46917824673,-0.0378604945823,2.14673665891,-0.242151011868,-0.805404631938,-0.687486315416,-0.0225758308645,-0.643310942701,-0.118055181983,-0.0391918189755,-0.721042315625,0.573718864106,0.819028491783,0.00444314275467,0.0,0.8190097794,-0.573641855314,-0.0117792181695,0.0,-0.00709887931395,0.0103971372127,-0.999920749585,0.0,0.430900377806,-0.0420347570018,0.304808465359,1.0,-0.24998,-0.328545142857,2.238
0.026305674681,-0.326984636848,-0.133716667891,-2.47845932211,-0.0394820525746,2.14608481696,-0.253022051184,-0.789955300494,-0.668356716225,-0.00180965845169,-0.609240343734,-0.102571490094,-0.0407428507043,-0.72841952044,0.573694081278,0.819044512145,0.00468349571041,0.0,0.819030210145,-0.573618285181,-0.0115032463599,0.0,-0.00673526169955,0.0104354697432,-0.999922865636,0.0,0.427242753455,-0.0469407476985,0.304925839734,1.0,-0.24998,-0.328545142857,2.253
0.0125522057544,-0.338250119129,-0.133972595822,-2.48897332109,-0.0412836010799,2.14508687798,-0.265597010503,-0.833935490303,-0.658133835028,-0.0198932270175,-0.604278291178,-0.113143790991,-0.0675959012339,-0.744328241718,0.573664094673,0.819065596558,0.00466925256114,0.0,0.819049859095,-0.573586422546,-0.011691496452,0.0,-0.00689801545177,0.0105315451447,-0.999920748829,0.0,0.422959741687,-0.0524905360597,0.304858908146,1.0,-0.24998,-0.328545142857,2.27
-0.00232731314099,-0.350001412383,-0.134206134409,-2.49966002268,-0.043269433585,2.14389232445,-0.279141297443,-0.815477619169,-0.65054699796,-0.0106136849311,-0.578112077784,-0.0930617507488,-0.0714907589247,-0.769061425122,0.573640994108,0.819081977776,0.00463362293405,0.0,0.81906565871,-0.573563258163,-0.0117210284816,0.0,-0.00694294099625,0.0105191063762,-0.999920568831,0.0,0.418455591858,-0.0583954016519,0.304860054957,1.0,-0.24998,-0.328545142857,2.288
-0.016604779529,-0.360905952609,-0.134533216077,-2.50934044483,-0.0451017568218,2.14284330456,-0.292241499615,-0.853691196518,-0.631565016247,-0.0261463900941,-0.574999045637,-0.10380039727,-0.0719566378326,-0.776980805763,0.573654959912,0.819071347769,0.00478133167912,0.0,0.819058031507,-0.573578452307,-0.0115085609392,0.0,-0.00668399238244,0.0105183336878,-0.999922341436,0.0,0.414265614596,-0.0640132355385,0.304931531236,1.0,-0.24998,-0.328545142857,2.305
-0.0310732965722,-0.371553563575,-0.134733721947,-2.51892974148,-0.0468109118473,2.14149622089,-0.305615365805,-0.844306582213,-0.62540983138,-0.0151225630094,-0.553506795047,-0.0888190216459,-0.0740529258886,-0.798482511829,0.573552025943,0.81914366212,0.00474143929444,0.0,0.819128541325,-0.573473651026,-0.0117111599289,0.0,-0.00687416427747,0.0106010118587,-0.999920179021,0.0,0.409964853228,-0.0695310342968,0.304877590866,1.0,-0.24998,-0.328545142857,2.322
-0.0458919256347,-0.381970737154,-0.135052202933,-2.52795725084,-0.0485605384434,2.1401846568,-0.319128322256,-0.883209869698,-0.603508917216,-0.0211559958674,-0.518810942171,-0.102092714019,-0.0739688954606,-0.809444490374,0.573704762895,0.819036086163,0.00484577095186,0.0,0.819023002657,-0.573627108616,-0.0115761945895,0.0,-0.0067017845592,0.0106103201289,-0.999921250494,0.0,0.405755253034,-0.0751707785689,0.304948148943,1.0,-0.24998,-0.328545142857,2.339
-0.0607763898166,-0.392073874197,-0.135270191902,-2.53679722238,-0.0502570335418,2.13885411966,-0.333015423805,-0.879723739339,-0.585094945119,-0.0127623011816,-0.516212921746,-0.0990277457774,-0.0866401795263,-0.825919259362,0.573551270846,0.81914347969,0.00486274552181,0.0,0.819130735997,-0.573473781925,-0.0115501381172,0.0,-0.00667269173328,0.0106080249512,-0.999921469412,0.0,0.401528716284,-0.0806947997223,0.30494240158,1.0,-0.24998,-0.328545142857,2.356
-0.0742869491199,-0.400790422144,-0.135567046201,-2.54441766496,-0.0517832832061,2.13748079484,-0.345475274731,-0.89159840693,-0.575429463848,-0.0146558219327,-0.502165880109,-0.10066379723,-0.0886967738523,-0.835484248532,0.5736213271,0.819094928102,0.00477689812085,0.0,0.819080119547,-0.573542597689,-0.011721488804,0.0,-0.00686138957507,0.010636563034,-0.999919889221,0.0,0.397715084003,-0.0856750968167,0.304892543055,1.0,-0.24998,-0.328545142857,2.371
-0.0886618722967,-0.40986759154,-0.135735351783,-2.55212305918,-0.0531397987004,2.13608791249,-0.35894888038,-0.903603521192,-0.555187060253,-0.00566679445237,-0.471835836031,-0.0852016413844,-0.0824667642932,-0.846590764617,0.573557316212,0.81913868508,0.00495646297937,0.0,0.819126012887,-0.573477715338,-0.0116889658951,0.0,-0.00673259271093,0.0107644669157,-0.999919395975,0.0,0.393515880394,-0.0911671651243,0.304935369811,1.0,-0.24998,-0.328545142857,2.388
-0.106243442417,-0.420294168657,-0.136084289429,-2.56084080448,-0.0549778295451,2.13445857417,-0.375296632976,-0.92627527996,-0.550726739778,-0.0136322864511,-0.458778088122,-0.0855921273427,-0.101967495529,-0.872196099254,0.573589119143,0.819116180119,0.00499527462373,0.0,0.819105041683,-0.573511056991,-0.0115215059621,0.0,-0.00657273326899,0.0107004711021,-0.999921146439,0.0,0.38905235379,-0.0971459863722,0.304986411549,1.0,-0.24998,-0.328545142857,2.406
-0.122116648831,-0.429284452084,-0.136410225162,-2.56853117653,-0.0564889705015,2.13275103746,-0.390146746606,-0.941944323828,-0.532184436065,-0.0212616793002,-0.445576785731,-0.0874147545992,-0.0988829409467,-0.868064536052,0.5736377623,0.819082442082,0.0049414206722,0.0,0.819068685698,-0.573556784454,-0.0118258199504,0.0,-0.00685226806059,0.0108313083654,-0.999917861217,0.0,0.384726041796,-0.102719877316,0.304906023444,1.0,-0.24998,-0.328545142857,2.423
-0.137166188846,-0.437419681628,-0.136615217208,-2.57538232817,-0.057868934027,2.13131042313,-0.404351733546,-0.942455358879,-0.508914688807,-0.0124659699538,-0.41806309167,-0.0754514794115,-0.0892494675515,-0.891031668792,0.573541461053,0.819149872328,0.00494226862185,0.0,0.819135743188,-0.573459891462,-0.0118799839137,0.0,-0.00689742727557,0.0108622613439,-0.999917214961,0.0,0.380739581002,-0.107914085139,0.304871354394,1.0,-0.24998,-0.328545142857,2.439
-0.152633067111,-0.445380400575,-0.136919697148,-2.58168266953,-0.059200034501,2.1298860848,-0.418823616013,-0.973638921672,-0.495388826571,-0.0126296672464,-0.397682542226,-0.0873322886956,-0.0804022930355,-0.917132628417,0.573682798413,0.819049721958,0.00513290047291,0.0,0.819039632369,-0.57360310384,-0.0115890800289,0.0,-0.00654791120006,0.0108527137267,-0.999919668505,0.0,0.376812218277,-0.113260050618,0.304996750957,1.0,-0.24998,-0.328545142857,2.455
-0.170028449907,-0.453909632016,-0.137164490493,-2.58876187589,-0.0606111936773,2.12812046633,-0.4353198179,-0.97086213498,-0.472358323264,-0.0289312946542,-0.391758174394,-0.0729517656171,-0.105864702679,-0.922518940312,0.573623514294,0.819091237189,0.00513380073709,0.0,0.819079797283,-0.573541586249,-0.011793278934,0.0,-0.00671545250761,0.0109701057827,-0.999917276317,0.0,0.372282080802,-0.119103121534,0.304941532198,1.0,-0.24998,-0.328545142857,2.473
-0.187662356874,-0.462073895361,-0.137457484992,-2.59540534006,-0.0620722596656,2.12640026342,-0.452141969653,-0.975298664415,-0.450351776949,-0.0178926643851,-0.368550220193,-0.0717430277604,-0.0915809970612,-0.939042017189,0.573521808501,0.819162552514,0.00511806928161,0.0,0.819150438796,-0.573439189511,-0.0118659788547,0.0,-0.00678539466586,0.0109980780973,-0.999916496862,0.0,0.367771106748,-0.124989106015,0.304923620026,1.0,-0.24998,-0.328545142857,2.491
-0.202698803939,-0.468540231617,-0.137744822219,-2.60064984662,-0.063189914878,2.12503652879,-0.466339741126,-1.00459346061,-0.4401046645,-0.0194308941802,-0.343559162943,-0.0720547799585,-0.0984863356702,-0.941586976061,0.57365628139,0.819068018284,0.00517678927531,0.0,0.819056159968,-0.573572600815,-0.0119258254719,0.0,-0.00679892864761,0.011081619193,-0.999915482571,0.0,0.363998498198,-0.1299673078,0.304901227162,1.0,-0.24998,-0.328545142857,2.506
-0.221782674224,-0.476399518447,-0.137981297368,-2.60667874926,-0.064555808979,2.12337062008,-0.484516101584,-1.01644586843,-0.400573226255,-0.0151998902335,-0.310673700444,-0.0708167056469,-0.0873084804853,-0.956150713612,0.573654079635,0.819068793429,0.0052967395001,0.0,0.819060111315,-0.573572676731,-0.0116475517433,0.0,-0.00650220628737,0.0110202257933,-0.999918134617,0.0,0.359339188252,-0.136207351491,0.305015299883,1.0,-0.249296571429,-0.327646922449,2.525
-0.235921556152,-0.481818270466,-0.13814895351,-2.61099339786,-0.0654704096893,2.12214469534,-0.498103755083,-0.997997860333,-0.384761301197,-0.000987558418679,-0.30952677619,-0.0547126904132,-0.0857147925863,-0.975528262569,0.573596710065,0.819108638368,0.00534786456191,0.0,0.819100285887,-0.573514585019,-0.0116828648923,0.0,-0.00650258242407,0.0110819036189,-0.99991745051,0.0,0.355865435077,-0.140751840512,0.305004556829,1.0,-0.245064571429,-0.322084865306,2.539
-0.253105930674,-0.487881796722,-0.138309797526,-2.61591867893,-0.0664496679173,2.12059151205,-0.514470016848,-1.01395696522,-0.344472434733,-0.0133502980194,-0.277494179966,-0.0517942000292,-0.0934251080232,-0.973399663218,0.573689629457,0.81904339863,0.00537281257448,0.0,0.819033294906,-0.573603893707,-0.0119909073937,0.0,-0.00673933708465,0.0112797887762,-0.999913670124,0.0,0.351654125266,-0.146190543831,0.304922864733,1.0,-0.239925714286,-0.315330938776,2.556
-0.269119602459,-0.493168679949,-0.138324445008,-2.62009694271,-0.067330617095,2.11937183057,-0.529764851954,-0.991021610066,-0.327940778161,0.00160503432658,-0.252996013319,-0.0492880377105,-0.0660141987385,-0.949354639805,0.573676503159,0.81905243762,0.00539639252504,0.0,0.819042633553,-0.573590667311,-0.0119857288825,0.0,-0.00672174948288,0.011296024062,-0.99991360523,0.0,0.347839817933,-0.151201696955,0.304909868834,1.0,-0.235089142857,-0.308974302041,2.572
-0.286066560628,-0.498347558427,-0.138337169924,-2.62407652478,-0.0681338211156,2.1181208267,-0.545892190032,-0.985800973415,-0.299190340197,0.00694265982833,-0.223229732705,-0.037986220444,-0.0780585544653,-0.94080680939,0.573786929975,0.81897446056,0.00548988531701,0.0,0.818966089673,-0.573701085476,-0.011931277809,0.0,-0.00662198613569,0.0113422595492,-0.999913747504,0.0,0.343867016484,-0.156468691656,0.304935633263,1.0,-0.229950285714,-0.30222037551,2.589
-0.302649328265,-0.503042827499,-0.138318443674,-2.62766298314,-0.0688075395406,2.11693178326,-0.561819105793,-0.984564880509,-0.270348315375,-0.00422660071868,-0.200893469572,-0.0413373491432,-0.0670506399439,-0.937519408063,0.573817215683,0.818952421726,0.00561077859982,0.0,0.818945555683,-0.573730791915,-0.011912268286,0.0,-0.00653663036216,0.0114306068932,-0.999913303087,0.0,0.340005058063,-0.161563669136,0.304957868074,1.0,-0.224811428571,-0.29546644898,2.606
-0.319045768627,-0.507275922836,-0.138256888382,-2.63086398691,-0.0694398892248,2.11589256718,-0.577594169154,-0.952976498862,-0.240624034602,0.00551553728385,-0.180941161917,-0.0312131890569,-0.0573923351707,-0.926146113317,0.573827257475,0.818944726407,0.00570618695882,0.0,0.818939608807,-0.573741376602,-0.0118108764704,0.0,-0.0063987026336,0.0114506458296,-0.999913965956,0.0,0.336241347561,-0.16657000535,0.304990873941,1.0,-0.219672571429,-0.288712522449,2.623
-0.336240223958,-0.511366652677,-0.138209185096,-2.63395250552,-0.0700766047931,2.11481678897,-0.594027666679,-0.9379692054,-0.21496592189,0.00510925964946,-0.166210280585,-0.0442236959747,-0.0607052011848,-0.909319010158,0.573965335996,0.818847441892,0.00577986877282,0.0,0.818843456515,-0.573879477538,-0.0117680025763,0.0,-0.00631937240172,0.011487454446,-0.999914048268,0.0,0.332289294771,-0.171782276895,0.305013385181,1.0,-0.214231428571,-0.281561306123,2.641
-0.352003950641,-0.51468433022,-0.138044671993,-2.63659758626,-0.0705334265393,2.11383606739,-0.609338348556,-0.933621352046,-0.197462747101,0.00778363185471,-0.149953182885,-0.0356367798667,-0.0573174378939,-0.893749900918,0.573871312192,0.818913103329,0.00581318669385,0.0,0.818908265926,-0.573783022002,-0.0119600402276,0.0,-0.00645885018298,0.0116242144164,-0.999911576537,0.0,0.328666256655,-0.176467414563,0.304958262059,1.0,-0.209092571429,-0.274807379592,2.658
-0.366762753837,-0.517409825219,-0.137914260249,-2.63880047884,-0.07095197937,2.11306224128,-0.623522022839,-0.907265114446,-0.160020057834,0.0260696883852,-0.131113411322,-0.0230948126813,-0.043844815091,-0.876599183279,0.573963117354,0.818848603357,0.00583537468987,0.0,0.818843030722,-0.573872881731,-0.0121141880787,0.0,-0.00657104921288,0.0117315789196,-0.999909591597,0.0,0.325101458664,-0.181127891791,0.304893849694,1.0,-0.203953714286,-0.268053453061,2.675
-0.381168974704,-0.519844976101,-0.137793964265,-2.64070853298,-0.071256447813,2.11239564202,-0.637433288535,-0.898751826266,-0.141167807575,0.00361277026434,-0.108701859639,-0.0215067278508,-0.0393166120563,-0.872018679967,0.574022603721,0.8188062021,0.00593301963383,0.0,0.818801570364,-0.573931339162,-0.0121471477409,0.0,-0.00654113994156,0.0118309309493,-0.999908617105,0.0,0.322062252277,-0.185123713325,0.304874701601,1.0,-0.199419428571,-0.262094106123,2.69
-0.396131598343,-0.522086369123,-0.137558633975,-2.64242531082,-0.0715620653075,2.11171761219,-0.651991943707,-0.86317371171,-0.1309072374,0.00926125022462,-0.0979704245809,-0.0115206863276,-0.0364996719299,-0.852742557611,0.573955870304,0.818852769258,0.00596222460545,0.0,0.818848222051,-0.573863954728,-0.0121859595402,0.0,-0.00655712716948,0.0118765886921,-0.999907971128,0.0,0.318720006874,-0.189517354137,0.304865942934,1.0,-0.194280571429,-0.255340179592,2.707
-0.411780464522,-0.524219058973,-0.13741928044,-2.64394888963,-0.0718282968799,2.11108618234,-0.667068863842,-0.865245336625,-0.115650753113,0.00768722944955,-0.0804551744354,-0.0198399666775,-0.0370225004992,-0.838920146352,0.574118585877,0.81873783635,0.00607878125759,0.0,0.818735190414,-0.574026821707,-0.0121096176379,0.0,-0.00642534236649,0.011929498364,-0.999908196808,0.0,0.315041531714,-0.194380926379,0.304903582762,1.0,-0.188537142857,-0.247791673469,2.726
-0.424392854296,-0.525660170659,-0.13717002644,-2.64501194,-0.0719806038351,2.11066336311,-0.679409941979,-0.840412388905,-0.0916777069053,0.0168028486557,-0.0701252309436,-0.00711791301957,-0.026154277406,-0.8202118519,0.574040523704,0.81879220982,0.00612708617943,0.0,0.818790486897,-0.573949114667,-0.0120540134977,0.0,-0.00635321897993,0.0119365219121,-0.999908573847,0.0,0.312454320785,-0.197802308305,0.304920108874,1.0,-0.184305142857,-0.242229616327,2.74
-0.438545763513,-0.527045487289,-0.137010146167,-2.64602301377,-0.0721718837012,2.11022725141,-0.693071868101,-0.823868477819,-0.073391986236,0.0111038856141,-0.0515532608057,-0.0109643712544,-0.0298443974222,-0.790941557547,0.574188487937,0.818687955133,0.00619349186467,0.0,0.818687279938,-0.574097108301,-0.012016439096,0.0,-0.00628216913294,0.0119704644715,-0.99990861699,0.0,0.309315923971,-0.201946737209,0.304934129234,1.0,-0.179166285714,-0.235475689796,2.757
-0.452101470347,-0.528132305408,-0.136687580143,-2.646846931,-0.0722751503694,2.10987803253,-0.706395564351,-0.799478456456,-0.0571089897198,0.0185851436351,-0.0435892768393,-0.00361509067289,-0.0244061560498,-0.773714780111,0.574058437099,0.818778978017,0.0062163377103,0.0,0.818778689313,-0.573967157767,-0.0119961090477,0.0,-0.00625430863381,0.0119765030388,-0.999908719333,0.0,0.306338843184,-0.205853378899,0.304935319363,1.0,-0.174027428571,-0.228721763265,2.774
-0.466361974695,-0.528995550833,-0.13644693918,-2.64750882347,-0.0723813298342,2.1095495676,-0.72014266474,-0.78097483879,-0.0465730441242,0.0168124387707,-0.0319702116561,-0.00670399212718,-0.0183667491961,-0.751489104935,0.574225067257,0.818661823897,0.0062559675169,0.0,0.818661884095,-0.574133261214,-0.0120193510145,0.0,-0.00624814508718,0.0120235662898,-0.999908193054,0.0,0.303191770681,-0.209985502141,0.304927822183,1.0,-0.168586285714,-0.221570546939,2.792
-0.479187314436,-0.529521957053,-0.136086150589,-2.64793549858,-0.0723970674961,2.10932741715,-0.732802941852,-0.748641960461,-0.0224658943664,0.0220564490309,-0.0226945205907,-0.00168010783887,-0.0218020238666,-0.736448278584,0.57407430065,0.818767482487,0.00626528979393,0.0,0.818767508539,-0.573982187379,-0.0120400346272,0.0,-0.00626194466216,0.0120419220176,-0.999907885839,0.0,0.300396953841,-0.213658118022,0.304916366571,1.0,-0.163447428571,-0.214816620408,2.809
-0.491146510036,-0.529833478091,-0.135892185606,-2.64819456043,-0.0724162075362,2.10912974309,-0.744382237128,-0.737391843247,-0.015432467312,0.0161746097838,-0.0129714791461,-0.000832452442595,-0.0103256343474,-0.718130716728,0.574225455954,0.818661064995,0.00631927971803,0.0,0.818661379158,-0.57413226938,-0.0121008443236,0.0,-0.00627850857671,0.0121221964883,-0.999906811999,0.0,0.297758507589,-0.217114147714,0.304900385643,1.0,-0.158610857143,-0.208459983674,2.825
-0.503222626675,-0.529998793523,-0.135517405185,-2.64835029924,-0.0724153002175,2.1090062189,-0.756394585302,-0.710603332872,-0.0114123406899,0.0124416978214,-0.0110434471821,-0.000970767911187,-0.00975092697811,-0.700478540547,0.57400499481,0.818815864294,0.00629231405098,0.0,0.818815718015,-0.573911768895,-0.0121181003858,0.0,-0.00631138126719,0.0121083289195,-0.999906773073,0.0,0.295125571118,-0.220555997503,0.304889008964,1.0,-0.153472,-0.201706057143,2.842
-0.515227233016,-0.530033156847,-0.135273647449,-2.64840563839,-0.0724201036816,2.10889224053,-0.76798919526,-0.705182089209,0.000712956511663,0.0176789552206,-0.00157027799741,-5.3645145201e-05,-0.00474502298086,-0.670597055573,0.574163809893,0.818704387516,0.00630810370403,0.0,0.818704139504,-0.574069886928,-0.0121673243949,0.0,-0.00634027155622,0.0121507418851,-0.999906075803,0.0,0.292468377172,-0.223999281969,0.304872912149,1.0,-0.148333142857,-0.194952130612,2.859
-0.525924168104,-0.529950371059,-0.134902664115,-2.64834966515,-0.0723962564799,2.10887089222,-0.778587365272,-0.653210925438,0.00947923545513,0.0234842941271,0.00366871111366,0.0020926587561,0.000941489548244,-0.651274217074,0.573996613283,0.818821978236,0.0062612138525,0.0,0.818821366805,-0.573903416034,-0.0121319920228,0.0,-0.00634073176835,0.0120907708029,-0.999906799848,0.0,0.290136031253,-0.227033093559,0.304875863775,1.0,-0.143496571429,-0.188595493878,2.875
-0.537068892964,-0.529762507298,-0.134611665531,-2.64821821685,-0.0723826034752,2.10886979638,-0.789439129841,-0.650346163484,0.00515224808314,0.0142949703237,0.00964605237439,-0.000906303478967,-0.000145604161216,-0.630526637383,0.574044834884,0.818788349868,0.00623799366428,0.0,0.81878760418,-0.573952052765,-0.0121098005946,0.0,-0.00633517634915,0.0120593925508,-0.999907213991,0.0,0.287673122839,-0.23020997611,0.304874427798,1.0,-0.138357714286,-0.181841567347,2.892
-0.548397549319,-0.529394015771,-0.134243847522,-2.64794510395,-0.0723378970482,2.10889210874,-0.800549036207,-0.607416452657,0.0337659734751,0.0321332072853,0.0212815043021,0.0010247411666,0.00792646138404,-0.611912116477,0.57397815804,0.818835530543,0.0061802034481,0.0,0.818834065772,-0.573885712997,-0.0121123098814,0.0,-0.0063713818944,0.0120129937194,-0.999907542463,0.0,0.285053925721,-0.233592727071,0.304870119525,1.0,-0.132614285714,-0.174293061225,2.911
-0.558620395842,-0.528887791638,-0.133872450391,-2.64760295968,-0.0722868432207,2.10894701278,-0.810671459252,-0.599240272134,0.0344088221848,0.0151193789383,0.0227222965139,0.00152701504442,0.00667878998982,-0.584341740078,0.573861334051,0.818917892933,0.0061156206584,0.0,0.818915483432,-0.573769008581,-0.012136831907,0.0,-0.00643023901213,0.0119732655197,-0.999907642205,0.0,0.282943142145,-0.236316892034,0.304860288779,1.0,-0.127777714286,-0.16793642449,2.927
-0.567510325422,-0.528383563273,-0.133637769769,-2.64722681238,-0.0721901170557,2.10902779375,-0.819267776863,-0.586481261423,0.0373258504099,0.0119711115645,0.0288916972885,0.0121451161478,0.00178688732394,-0.557936939284,0.573998886234,0.818821362027,0.00613209525183,0.0,0.818819242653,-0.573906598831,-0.0121247919777,0.0,-0.0064089121432,0.0119809253509,-0.999907687376,0.0,0.280979902601,-0.238851185605,0.304860020011,1.0,-0.123243428571,-0.161977077551,2.942
-0.576932277805,-0.527640295636,-0.133245859567,-2.64669069263,-0.0720389097468,2.1091618811,-0.828675365722,-0.539433549662,0.0442618231861,0.0279677107563,0.0267139874239,0.00411991925596,0.00658113388668,-0.54016225112,0.573829104609,0.818940573705,0.00610265064861,0.0,0.818938046924,-0.573736939973,-0.012130371477,0.0,-0.00643286112029,0.0119586832482,-0.999907799846,0.0,0.278944001316,-0.241517625048,0.304853572061,1.0,-0.118104571429,-0.15522315102,2.959
-0.586150668273,-0.526861648783,-0.132926534728,-2.64610392353,-0.0718637164219,2.10928357533,-0.837681001756,-0.534572309631,0.0470803090245,0.0210674513028,0.033631320179,0.0152031792632,0.00776275466025,-0.527223654516,0.573885718998,0.818900760268,0.00612154105,0.0,0.818898420984,-0.573793348992,-0.0121373664298,0.0,-0.00642692279514,0.0119786121856,-0.999907599488,0.0,0.276929259678,-0.244134492578,0.304854125875,1.0,-0.112965714286,-0.14846922449,2.976
-0.595019197087,-0.525989196453,-0.132632732092,-2.64542702092,-0.0716749180654,2.10942924662,-0.846313499667,-0.514196033977,0.0565066495885,0.0196171699559,0.0395058065327,0.00994709499187,0.00753688290366,-0.500121073645,0.573989949333,0.818827496777,0.00614942982778,0.0,0.818825568782,-0.573897522016,-0.0121272022153,0.0,-0.00640106733324,0.01199643353,-0.999907551686,0.0,0.27499574325,-0.246666593546,0.304862511042,1.0,-0.107826857143,-0.141715297959,2.993
-0.602731959892,-0.525073071633,-0.13222822567,-2.64476918469,-0.0714548426027,2.10958112317,-0.854064166938,-0.477085195919,0.0528536210002,0.0255434686621,0.0398512541824,0.0092892242894,0.0053241974578,-0.490499390829,0.573803971187,0.818957907968,0.00613958696109,0.0,0.818955520217,-0.573711008727,-0.0121770797948,0.0,-0.00645029135338,0.0120155367137,-0.999907005986,0.0,0.273348149363,-0.248834912119,0.304849310831,1.0,-0.102990285714,-0.135358661225,3.009
-0.610754844886,-0.524147094721,-0.131883422037,-2.64408462991,-0.0712446254098,2.10974447971,-0.861879491375,-0.467500899768,0.0493988017996,0.0219189652385,0.0410850975582,0.00956784082138,0.00913925110629,-0.44900108928,0.573858098861,0.818919903973,0.00614980882205,0.0,0.818917497381,-0.573764794679,-0.0121999906058,0.0,-0.0064623957604,0.0120374812239,-0.999906663888,0.0,0.271600440196,-0.251098935895,0.304843824259,1.0,-0.0978514285715,-0.128604734694,3.026
-0.618444812983,-0.523189608493,-0.131566529447,-2.64331802654,-0.0709997964363,2.1099245858,-0.869342472336,-0.447075306625,0.0570318024426,0.0170385934774,0.0426237240397,0.0140142219419,0.00880151510476,-0.434773417687,0.573966533644,0.818843611178,0.00618915108592,0.0,0.818841969069,-0.573873497228,-0.012156717127,0.0,-0.00640278364721,0.0120457173693,-0.999906948198,0.0,0.269936892167,-0.253285889648,0.304864523527,1.0,-0.0927125714286,-0.121850808163,3.043
-0.625127098256,-0.522208897004,-0.131197308877,-2.64257959503,-0.0707501789513,2.1101163589,-0.876000300123,-0.400865147066,0.0609358397639,0.0248628810661,0.0446980854988,0.0137476406331,0.0113209954386,-0.410479597004,0.573872577494,0.818909381938,0.00619966736751,0.0,0.818907847549,-0.573779458265,-0.0121580178322,0.0,-0.00639919628936,0.0120543413735,-0.999906867234,0.0,0.268519606012,-0.255173478786,0.304865886729,1.0,-0.0878760000001,-0.115494171429,3.059
-0.631906706934,-0.521246651869,-0.130818504104,-2.64184683248,-0.070499648158,2.11029671893,-0.882712312671,-0.393040240067,0.0573575204179,0.0249699505922,0.0382191705494,0.0106069713074,0.0168599194354,-0.393314376022,0.573806883752,0.818955342973,0.00620912851705,0.0,0.818953916003,-0.573713705634,-0.0121578917398,0.0,-0.00639463138581,0.0120615043076,-0.999906810059,0.0,0.267063767753,-0.257074289082,0.304870391013,1.0,-0.0827371428572,-0.108740244898,3.076
-0.638431683395,-0.520289529754,-0.130457102362,-2.64107106613,-0.0702576382951,2.11049406761,-0.888982786882,-0.369284181715,0.054793437768,0.025738105338,0.044134782728,0.0119949434476,0.0133228777889,-0.357562406798,0.573904699095,0.818886811269,0.006207542807,0.0,0.818885764795,-0.573812265552,-0.012096901228,0.0,-0.00634415081577,0.0120259684354,-0.999907559644,0.0,0.265668876556,-0.258917354526,0.304897006929,1.0,-0.0775982857144,-0.101986318367,3.093
-0.645183675799,-0.519178914967,-0.130127338031,-2.64022457313,-0.0699624470107,2.11072091891,-0.895599991407,-0.347793528826,0.0562057386962,0.0138919270274,0.0437942418154,0.0116389033716,0.00915139783386,-0.336326624754,0.573953429309,0.818852239401,0.00626242076304,0.0,0.818851946629,-0.573860814833,-0.0120831123238,0.0,-0.00630064701039,0.0120633714447,-0.999907384169,0.0,0.264217621123,-0.260834158157,0.304900732565,1.0,-0.0718548571429,-0.094437812245,3.112
-0.650722053701,-0.518246626253,-0.129751978342,-2.63954254894,-0.0696850810421,2.11091348038,-0.901077330946,-0.314557219639,0.0500611687978,0.0276310244808,0.0372691748249,0.0100223654399,0.0124617188457,-0.310140013154,0.57391179599,0.818881150556,0.00629750660587,0.0,0.818881195412,-0.573818804113,-0.0120960632939,0.0,-0.00629173165313,0.0120992160943,-0.999907007218,0.0,0.263105880749,-0.26228922201,0.304894654591,1.0,-0.0670182857144,-0.0880811755103,3.128
-0.655902497637,-0.517357708148,-0.129348904525,-2.63888603234,-0.0694376031847,2.11109256235,-0.906141770044,-0.297323669241,0.051778436221,0.0260226898212,0.0362793564062,0.0188318873361,0.0131213773746,-0.285977358902,0.573842981146,0.818929549881,0.00627472885004,0.0,0.81892920899,-0.573749936429,-0.0121123082762,0.0,-0.0063191235485,0.0120893545811,-0.999906953763,0.0,0.261946693919,-0.263799010477,0.304889244836,1.0,-0.0615771428572,-0.0809299591838,3.146
-0.660781837163,-0.516483857992,-0.128994089098,-2.63822859597,-0.069191642292,2.11127548132,-0.910872647829,-0.276905974458,0.0552474709382,0.0252774302531,0.0411173165316,0.00697989051168,0.00739532450455,-0.262172194712,0.573853096492,0.8189224283,0.00627909026188,0.0,0.818922159879,-0.573760059797,-0.012109365922,0.0,-0.00631406170717,0.0120913160855,-0.999906962022,0.0,0.26091495786,-0.26515509271,0.30489014363,1.0,-0.0564382857144,-0.0741760326532,3.163
-0.664943511512,-0.515663109952,-0.128675163331,-2.63763942391,-0.0689410772709,2.11144478436,-0.914904876338,-0.255257636617,0.0497601067556,0.0196408679791,0.0380077892156,0.0154445262886,0.00631738079932,-0.24474914336,0.573871376069,0.818909402338,0.00630724921074,0.0,0.818909300964,-0.573777823906,-0.0121372356557,0.0,-0.00632045835827,0.0121305107195,-0.999906446882,0.0,0.260043742952,-0.266309025604,0.304877336888,1.0,-0.0516017142858,-0.0678193959185,3.179
-0.669311082556,-0.514873660689,-0.128357921967,-2.63705219874,-0.0687013926019,2.1116131035,-0.919026762421,-0.235123039819,0.041093116715,0.0157932910564,0.0323105088766,0.0100599739952,0.00902213368105,-0.224056843766,0.57398095351,0.818832446167,0.00632748081473,0.0,0.818832602584,-0.573887272943,-0.0121372897341,0.0,-0.00630726736789,0.0121479546037,-0.999906318401,0.0,0.259111253628,-0.267514839199,0.304874836558,1.0,-0.0461605714286,-0.0606681795919,3.197
-0.672404087171,-0.51432103954,-0.128060612112,-2.63663320701,-0.0685113279207,2.11173605737,-0.922019400808,-0.213741285623,0.03354703137,0.0203919491463,0.0263389751555,0.00960913585043,0.0164434779833,-0.203827428298,0.57395529154,0.818850468591,0.00632299790192,0.0,0.818850654487,-0.573861806524,-0.0121235127595,0.0,-0.00629893837951,0.0121361789297,-0.999906513898,0.0,0.258467248572,-0.268350727379,0.304878820609,1.0,-0.0419285714286,-0.0551061224491,3.211
-0.675685245486,-0.513666094194,-0.127646329225,-2.63614114656,-0.0682688838763,2.11188195661,-0.925189905834,-0.182032325913,0.0382651206825,0.0241840744544,0.0256504683354,0.0134833254566,0.00757151665325,-0.185587070292,0.5738810064,0.818902722532,0.00629828737347,0.0,0.81890266069,-0.573787793135,-0.0121139450359,0.0,-0.0063063835754,0.0121098804094,-0.999906785817,0.0,0.257818787089,-0.269224187973,0.304882854007,1.0,-0.0367897142858,-0.0483521959185,3.228
-0.678624052034,-0.513097666934,-0.127256471762,-2.63570731476,-0.0680467183112,2.11202662589,-0.927998367903,-0.167365277144,0.0334821256211,0.0219628226112,0.023648959746,0.00891075419698,0.0116788345193,-0.160892459744,0.573828220367,0.818939935629,0.00626915018426,0.0,0.818939725683,-0.573735593795,-0.0120806047514,0.0,-0.00629657630256,0.0120664803748,-0.999907372299,0.0,0.257241355645,-0.270001219921,0.304891559221,1.0,-0.0316508571429,-0.0415982693879,3.245
-0.681224381899,-0.512592893904,-0.126919219122,-2.63533523699,-0.0678176648334,2.11212576052,-0.93044747047,-0.144423496512,0.0306616446216,0.0160652167059,0.0172293501016,0.0165210000702,0.00570691009898,-0.141755259845,0.573829616982,0.818938869128,0.00628062156892,0.0,0.818938743046,-0.573736813096,-0.0120893067445,0.0,-0.00629710062934,0.0120808791863,-0.999907195135,0.0,0.256722753843,-0.270678836871,0.304890497733,1.0,-0.0265120000001,-0.0348443428572,3.262
-0.683357415526,-0.512169817215,-0.126616998772,-2.63502823497,-0.067603469392,2.11221134305,-0.932388261706,-0.125252477874,0.0212266920229,0.0194773963232,0.0165270504857,0.0115808197721,0.00625628827753,-0.111862401858,0.573879676004,0.818903651016,0.00629878749695,0.0,0.818903698126,-0.57378665761,-0.0120975884055,0.0,-0.00629272024321,0.0121008934692,-0.999906980698,0.0,0.256305198086,-0.271226860618,0.304888011781,1.0,-0.0216754285715,-0.0284877061225,3.278
-0.685273497645,-0.511809644396,-0.126329079007,-2.63475102549,-0.067403415718,2.11229327148,-0.9340522172,-0.110630307876,0.019700952579,0.015928914994,0.01582168339,0.0104501901265,0.010755252277,-0.0963178150797,0.573981143591,0.818832445689,0.00631027656125,0.0,0.818832760491,-0.573888278732,-0.0120789396321,0.0,-0.00626935463075,0.0121003777293,-0.999907133714,0.0,0.255935150306,-0.271715830001,0.304894543634,1.0,-0.019752173913,-0.02596,3.295
-0.686925894372,-0.511507511947,-0.126103146388,-2.63451857469,-0.0672331802809,2.11235598167,-0.935638541359,-0.0912933292613,0.0179645259596,0.0103683869964,0.0139393189641,0.00574044969236,0.000823547927784,-0.0852060787778,0.573959257517,0.818847612505,0.00633285931889,0.0,0.818848271437,-0.573866392927,-0.0120672422459,0.0,-0.00624713764507,0.0121119894996,-0.999907132179,0.0,0.255607509135,-0.272139311579,0.304899056698,1.0,-0.019412173913,-0.0255131428571,3.312
-0.688347051978,-0.511226310082,-0.125930642802,-2.63428393887,-0.0671277336507,2.11240287169,-0.937010242271,-0.0814821946995,0.0219422580946,0.0124952238681,0.0123490946124,0.00179729887855,0.0035900291756,-0.0785995519931,0.573934089817,0.818865314385,0.0063248986561,0.0,0.818865946478,-0.573841415233,-0.0120556527985,0.0,-0.00624258731208,0.0120986271765,-0.999907322367,0.0,0.255322469932,-0.27251965082,0.304909622735,1.0,-0.019092173913,-0.0250925714286,3.328
-0.689950273442,-0.510869757386,-0.125780691939,-2.63400485932,-0.0670836966778,2.11250016664,-0.938687058332,-0.0874833840259,0.0179451375362,0.00568587593857,0.0129265366525,0.0027114097145,0.00146185049112,-0.091426258441,0.573800281451,0.818959505398,0.00626996220761,0.0,0.818959614232,-0.573708249207,-0.0120308748311,0.0,-0.00625579070384,0.0120383969714,-0.999907966805,0.0,0.254992110196,-0.272974750297,0.304916158507,1.0,-0.018712173913,-0.0245931428571,3.347
-0.691437274079,-0.510553372919,-0.125711890688,-2.63377336286,-0.067011466568,2.11254806583,-0.940168861075,-0.0817903477503,0.0198066333341,0.00238748231479,0.0092413021463,0.00242630817303,0.00196100498649,-0.0771122500801,0.573798497703,0.818960607043,0.00628928021721,0.0,0.818960790566,-0.573706040368,-0.0120561047409,0.0,-0.0062653974353,0.0120686810468,-0.999907541592,0.0,0.25465967004,-0.273395080147,0.304909818135,1.0,-0.018352173913,-0.02412,3.365
-0.692734236338,-0.51028598682,-0.125684825392,-2.63356531088,-0.0669837562895,2.1125888901,-0.941489012643,-0.0775803690274,0.0154700406712,-0.00344417975065,0.0149435317492,0.00362864643171,0.00546889573155,-0.0762715147437,0.57378285106,0.818971554522,0.00629123316069,0.0,0.818971687968,-0.573690243051,-0.012067569616,0.0,-0.00627389795862,0.0120767388553,-0.999907391003,0.0,0.254359668517,-0.273773410969,0.304909346324,1.0,-0.018032173913,-0.0236994285714,3.381
-0.694078014509,-0.50997990638,-0.125671634329,-2.63332415145,-0.066934805014,2.11268275947,-0.942824141695,-0.072895082827,0.0175239379897,0.00175647100387,0.0104738655634,0.000818026910815,0.00467917059005,-0.0760648096713,0.573813892402,0.818949687735,0.00630656380012,0.0,0.818950248779,-0.573721649925,-0.0120293530318,0.0,-0.00623334273147,0.0120676042181,-0.999907754929,0.0,0.254059535599,-0.274180141904,0.304913752152,1.0,-0.017692173913,-0.0232525714286,3.398
-0.69531832943,-0.509681387411,-0.125671244745,-2.63310817986,-0.0668991737522,2.11273833272,-0.944027666096,-0.081705755946,0.0236034280884,-0.000226200861557,0.0183015158304,0.00862364704735,0.00177473291357,-0.0761114509833,0.573870249585,0.818910050815,0.00632552099841,0.0,0.818910730181,-0.573777662115,-0.0120481265196,0.0,-0.00623700933199,0.0120943312457,-0.999907409147,0.0,0.253771837027,-0.274552053187,0.304905921163,1.0,-0.017372173913,-0.022832,3.414
-0.696552404997,-0.509407548554,-0.12565953147,-2.63290075576,-0.0668605889493,2.11275606761,-0.945317368516,-0.0796216462058,0.0162618029819,0.000229587365417,0.0164382660939,0.00081838865797,0.00428993532217,-0.0772343521309,0.573843636947,0.818928524742,0.00634811778523,0.0,0.818929228651,-0.573750430812,-0.0120875351006,0.0,-0.00625671243471,0.0121352479463,-0.999906790309,0.0,0.253481160845,-0.274911991232,0.304900376231,1.0,-0.017052173913,-0.0224114285714,3.43
-0.697988157301,-0.509081175818,-0.125622269647,-2.63264499219,-0.0668197554024,2.11283260909,-0.946744751045,-0.0800243676714,0.0185864516927,0.0025206608862,0.0090977131755,0.0020276290442,0.00691646471452,-0.0721474573946,0.573854573625,0.818920864594,0.00634765815881,0.0,0.818921650134,-0.573761537197,-0.0120737846878,0.0,-0.00624555233885,0.0121270647415,-0.99990695936,0.0,0.253158879688,-0.275337787284,0.304902887558,1.0,-0.016672173913,-0.021912,3.449
-0.699018316832,-0.508833380588,-0.12559826336,-2.63246509926,-0.0667934023688,2.11290831374,-0.947775259593,-0.0729090850883,0.016657083139,-0.0014714185367,0.0151654179153,0.000105466382193,0.00346622057618,-0.0758927669938,0.573857774319,0.818918643921,0.00634479264188,0.0,0.818919476302,-0.573764913526,-0.0120607727747,0.0,-0.00623649235557,0.0121172757837,-0.999907134583,0.0,0.252928368235,-0.275645794167,0.304899679511,1.0,-0.016392173913,-0.021544,3.463
-0.700235207071,-0.508530450704,-0.125564513162,-2.63223900989,-0.06675848317,2.11293507425,-0.949024005397,-0.0663782963931,0.0178238468086,0.00388259210559,0.0142724435564,0.00147319930397,0.000654859931048,-0.0741046730869,0.573834302855,0.818935044755,0.00635076694658,0.0,0.818935678843,-0.573740884469,-0.0121036485127,0.0,-0.00626852798003,0.0121465922064,-0.999906578564,0.0,0.252650495427,-0.276002066854,0.304893028731,1.0,-0.016052173913,-0.0210971428572,3.48
-0.70148988389,-0.508228319761,-0.125539270862,-2.63202084669,-0.0667237170858,2.11298599599,-0.95022693347,-0.0748814320177,0.0176448489097,0.00391983527245,0.0122506450668,0.000330391338994,0.000843580915091,-0.0688103551434,0.573884899717,0.818899533901,0.00635784204566,0.0,0.818900096939,-0.573791121543,-0.0121295907851,0.0,-0.00628496392741,0.012167660724,-0.999906219233,0.0,0.252361644225,-0.276370877455,0.304884908248,1.0,-0.015692173913,-0.020624,3.498
-0.702706145472,-0.507913393074,-0.125510539453,-2.63178624945,-0.0666891855988,2.11306346125,-0.95151464326,-0.0682762526531,0.0192851704943,5.70793777714e-05,0.0162174574059,0.00210474311424,0.00909002918805,-0.0712515289749,0.573832791058,0.818936050764,0.00635763848169,0.0,0.81893662997,-0.573739061775,-0.0121256747599,0.0,-0.00628264762355,0.0121648470347,-0.999906268025,0.0,0.252090975035,-0.276737133923,0.304881815298,1.0,-0.015332173913,-0.0201508571429,3.516
-0.703632572202,-0.507679705056,-0.125481083978,-2.63161068073,-0.0666528182345,2.11311036634,-0.952459499183,-0.070026932336,0.0214658165782,-0.000354172369079,0.0106770069007,0.00536778932589,0.00751453572519,-0.0663228729822,0.57382131202,0.818944045504,0.00636389074751,0.0,0.818944667948,-0.573727482368,-0.0121306931813,0.0,-0.00628334090585,0.0121727590354,-0.99990616738,0.0,0.251884821411,-0.27701086103,0.304879471439,1.0,-0.015052173913,-0.0197828571429,3.53
-0.704893872574,-0.507381351362,-0.125449340445,-2.63136451138,-0.0666154429347,2.11316512834,-0.953716280671,-0.0661012508745,0.0188860239371,-0.000125422423424,0.01484845133,0.00576946406441,0.000325551318913,-0.0708464126875,0.573830929627,0.818937304253,0.00636418162164,0.0,0.818937990287,-0.573737212409,-0.0121213061293,0.0,-0.00627534276248,0.0121676847372,-0.999906279369,0.0,0.251601190712,-0.277387139051,0.304885870035,1.0,-0.014672173913,-0.0192834285714,3.549
-0.705841991496,-0.507133845843,-0.125439296547,-2.63118964538,-0.066595341856,2.11321183125,-0.95471967854,-0.064497600739,0.0196964144851,0.000876253396649,0.0159763956062,0.00068000499525,0.000343433239694,-0.0652027489146,0.57379618504,0.818961615824,0.00636841748259,0.0,0.818962219449,-0.573702189255,-0.0121419957293,0.0,-0.00629037449917,0.0121827587,-0.999906001372,0.0,0.251381780147,-0.277671120662,0.304877554643,1.0,-0.014372173913,-0.0188891428572,3.564
-0.706903996162,-0.506883135537,-0.125426629696,-2.63097756894,-0.0665571525193,2.11326820533,-0.9557776787,-0.0639063154622,0.0132978595961,0.000431386318476,0.0112326057483,-0.000204856731718,0.00400840268275,-0.054948765507,0.573817550228,0.818946568937,0.00637833656957,0.0,0.818947451499,-0.573723794244,-0.012117198593,0.0,-0.00626405535771,0.0121768181322,-0.99990623896,0.0,0.25114213701,-0.277992683206,0.304885817821,1.0,-0.014032173913,-0.0184422857143,3.581
