nelsonifechukwu/NELSON_IML_WORK/CNN-GradCAM/train2dof/data_sample_2022-02-21-09-42-46/robot_state.csv
position_joint1,position_joint2,position_joint3,position_joint4,position_joint5,position_joint6,position_joint7,velocity_joint1,velocity_joint2,velocity_joint3,velocity_joint4,velocity_joint5,velocity_joint6,velocity_joint7,ee_T_00,ee_T_10,ee_T_20,ee_T_30,ee_T_01,ee_T_11,ee_T_21,ee_T_31,ee_T_02,ee_T_12,ee_T_22,ee_T_32,ee_T_03,ee_T_13,ee_T_23,ee_T_33,v_x,v_y,time
0.465069457596,0.54763948297,-0.123969716896,-1.35575460921,0.0794708185924,1.89409698283,0.159180899944,-0.00143955965887,0.0005924842906,-0.00155939903409,-0.00100922820146,-0.000302220146853,-0.000363734533234,0.000110365875996,0.573801558449,0.818979870841,0.0021188630123,0.0,0.818939174308,-0.573742558905,-0.011783538808,0.0,-0.0084349616035,0.00849679644747,-0.999928325368,0.0,0.661696533241,0.260904796594,0.30335109037,1.0,0.0,0.0,0.0
0.465064082416,0.547636626972,-0.12396689878,-1.35575468867,0.0794704660641,1.89409791,0.159180759481,-0.000411556569033,0.000220560735277,0.000305848310726,-0.000556727339959,-0.00030605462264,0.000215011200157,-6.55465456359e-05,0.57380378842,0.818978298864,0.00212256605023,0.0,0.818937640995,-0.573744764624,-0.0117827046882,0.0,-0.0084321306273,0.00849937346123,-0.999928327343,0.0,0.661697550669,0.260902905316,0.30335306247,1.0,-0.00014,-0.000184,0.008
0.465063695159,0.547636194091,-0.123966122674,-1.35575768187,0.0794721410206,1.89409872813,0.159182424196,-0.00179877645438,-0.000435766276437,0.000854437736783,-0.000923497584252,0.000216647611202,0.000205175883837,-0.000682971325528,0.573805538754,0.818977073357,0.00212224225117,0.0,0.818936390512,-0.573746495075,-0.0117853546913,0.0,-0.00843446862986,0.00850064687078,-0.9999282968,0.0,0.661696867769,0.260903075379,0.303351992887,1.0,-0.00042,-0.000552,0.022
0.465065874809,0.547623876805,-0.123969462578,-1.35576738861,0.079472140532,1.8941006663,0.159176539166,0.000652804847157,-0.00235384625487,-0.000539109231334,-0.000875222321545,0.00026763332296,-0.000137616776181,-0.00197289130709,0.573801788629,0.818979691318,0.00212590582822,0.0,0.818939065083,-0.573742740189,-0.0117823029318,0.0,-0.00842990608469,0.00850185751498,-0.999928324982,0.0,0.661695553423,0.260901726578,0.303356377368,1.0,-0.00078,-0.00102514285714,0.04
0.465068106832,0.547529240874,-0.123967109471,-1.35584997739,0.0794695013943,1.89410611542,0.159176023074,-0.000288618559349,-0.00922767106619,0.00013521339592,-0.00583709178744,0.000126579538771,0.0013019008701,-0.000599324047465,0.573801570369,0.818979795102,0.00214475134358,0.0,0.818939350189,-0.573742384389,-0.0117798119356,0.0,-0.00841705526993,0.00851585981559,-0.999928314087,0.0,0.66167923367,0.260895948857,0.303384497601,1.0,-0.00112,-0.001472,0.057
0.465065890422,0.547394386047,-0.123965429083,-1.35600163431,0.0794699951552,1.89414264749,0.159175355635,-0.00041051167299,-0.00802570319518,-0.000341034152704,-0.0125009625131,-0.00930532870379,0.00401942088619,0.00291757834468,0.573818227268,0.818968071326,0.0021649723565,0.0,0.818927772903,-0.573758842889,-0.0117830333783,0.0,-0.00840791796453,0.00853443962971,-0.999928232553,0.0,0.661654463668,0.260879843371,0.303408896782,1.0,-0.00146,-0.00191885714286,0.074
0.465050609991,0.547247703839,-0.12396507821,-1.35620636012,0.0794616483175,1.89420097301,0.159174676134,-0.0037129706793,-0.0098850268293,0.00422770115234,-0.0181170446213,-5.26680031033e-05,0.00233951578288,0.00129838109289,0.573830901916,0.818959171481,0.00217217719855,0.0,0.818918906743,-0.573771427137,-0.0117864532854,0.0,-0.00840645265638,0.00854243256415,-0.999928176621,0.0,0.661628419701,0.26085211253,0.303422454436,1.0,-0.00178,-0.00233942857143,0.09
0.465030113014,0.547027829398,-0.123964802293,-1.356445286,0.0794611989852,1.89435239838,0.159152409761,-0.000564877328421,-0.012633498862,-0.00183749868779,-0.0114639305252,-0.000113656658384,0.00958465986083,-0.00106201476631,0.573842812532,0.818950499871,0.00229176060449,0.0,0.818911750909,-0.573782841673,-0.0117278184608,0.0,-0.00828968948097,0.00860683972801,-0.99992859913,0.0,0.661614954081,0.260823468672,0.303477618254,1.0,-0.00218,-0.00286514285714,0.11
0.465001268351,0.546808822512,-0.123964773002,-1.35670281795,0.0794555120557,1.89448160531,0.159129751085,-0.00238372034522,-0.0124277618691,0.000860406803103,-0.0175410732217,-4.13586449723e-05,0.00644008331421,-0.000764774084478,0.573860882162,0.81893760291,0.00237431358473,0.0,0.818899888222,-0.573800564676,-0.0116889669535,0.0,-0.0082103101757,0.00865233260087,-0.999928861443,0.0,0.661595278688,0.260784572695,0.303521368729,1.0,-0.00254,-0.00333828571429,0.128
0.464963261349,0.546558949608,-0.123962279049,-1.35706405762,0.0794480089319,1.8946192904,0.159086088485,-0.00424612000331,-0.0140853396364,0.00280998769953,-0.0232187165632,0.000204453421868,0.00793742948458,-0.0035713123559,0.573872723352,0.818929214567,0.00240537365747,0.0,0.818891772374,-0.573812153212,-0.0116886639601,0.0,-0.00819211348209,0.0086777131896,-0.99992879075,0.0,0.661556227612,0.260729409755,0.303538251759,1.0,-0.0029,-0.00381142857143,0.146
0.464936784996,0.546320234307,-0.123972227949,-1.35742096551,0.0794371692322,1.89475496458,0.158958980099,-0.00191182759987,-0.016297300594,-0.00256359334374,-0.0208842806744,-0.000151056482428,0.00734422148413,-0.00903643660343,0.573814367365,0.818970048259,0.00242461572906,0.0,0.818932807543,-0.573753683444,-0.0116839362491,0.0,-0.00817781907668,0.00869017516614,-0.999928799531,0.0,0.661517490168,0.260674362349,0.303549511467,1.0,-0.0032,-0.00420571428571,0.161
0.464894539255,0.546039545955,-0.123970522497,-1.35788471984,0.0794238791501,1.89491530176,0.158943009151,-0.000722491744196,-0.0151464749235,-0.000277368396525,-0.026854297838,-0.00172170369353,0.00891314119064,-0.00551438219168,0.573857066599,0.818940163393,0.00241304735952,0.0,0.818902621506,-0.573796259232,-0.0117088122265,0.0,-0.00820437700936,0.00869540285965,-0.99992853653,0.0,0.661461803446,0.260604772391,0.303541371299,1.0,-0.00354,-0.00465257142857,0.178
0.464842679649,0.545740978504,-0.123970732976,-1.35837192696,0.0793952099296,1.89508528869,0.158898989979,-0.00237616498711,-0.0217041243142,-0.000184200809814,-0.0287726216728,-0.000784967021935,0.0125458206983,-0.00205093273193,0.573883225096,0.818921879541,0.00239709471676,0.0,0.818884108917,-0.573822450175,-0.0117200145072,0.0,-0.008222427852,0.00868902978541,-0.999928443661,0.0,0.661406896119,0.260523331935,0.303535582315,1.0,-0.00386,-0.00507314285714,0.194
0.464791182822,0.545431446775,-0.123967979673,-1.35893432816,0.0792906774891,1.89526333527,0.15879185051,-0.00443020621017,-0.0238493286651,0.000587405552034,-0.0342905179888,-0.00918962146418,0.00582109190498,-0.00342326126979,0.573839299346,0.818952952433,0.00229502259438,0.0,0.818914406771,-0.573779483963,-0.011706624945,0.0,-0.00827049741451,0.00859731404746,-0.99992884,0.0,0.661340042258,0.260423325343,0.303502204527,1.0,-0.00418,-0.00549371428571,0.21
0.464729767147,0.545014485882,-0.123973841676,-1.35965630173,0.0792578000157,1.89549223327,0.158734919801,-0.00529183046212,-0.0225227394529,0.000616606971728,-0.0433834151001,-0.000217077076829,0.0158996759358,-0.00741795892522,0.573878477656,0.818925667067,0.00223418971976,0.0,0.818886210746,-0.573818761417,-0.0117537141829,0.0,-0.00834355888932,0.00857491584947,-0.99992842536,0.0,0.661249977437,0.260309301455,0.303473732509,1.0,-0.00454,-0.00596685714286,0.228
0.464672583868,0.544674319324,-0.123973924483,-1.36023167959,0.079248112013,1.89570092321,0.15865463689,-0.00810232036234,-0.0280848990002,3.50056338049e-05,-0.0419645031596,-0.0004679688033,0.0160146672127,-0.00815509619534,0.573889177345,0.818918195122,0.00222457302956,0.0,0.81887838032,-0.57382925693,-0.0117868162097,0.0,-0.00837607443351,0.00858614632736,-0.999928057146,0.0,0.661183751099,0.260220207775,0.303458747196,1.0,-0.00482,-0.00633485714286,0.242
0.464612673272,0.54426538394,-0.123979546528,-1.36092579539,0.0792221001103,1.89593341735,0.158552660198,-0.00387548208577,-0.0279471479123,-0.000547805307225,-0.0449860546942,-3.11085752467e-05,0.0143131798576,-0.00828392206382,0.573890359607,0.818917468029,0.00218691757725,0.0,0.818877007568,-0.573830426071,-0.0118252058381,0.0,-0.00842911006525,0.00857735329296,-0.999927686942,0.0,0.661099604989,0.260111884911,0.303438106284,1.0,-0.00514,-0.00675542857143,0.258
0.464540887026,0.54373855758,-0.123976585019,-1.36176543005,0.0791818900487,1.8962394049,0.158459659634,-0.00306223263921,-0.028683622019,0.000790713304514,-0.0479052625126,-0.00290809196263,0.0197815310322,-0.00348065727212,0.573906989103,0.818905813915,0.00218693768558,0.0,0.818865232836,-0.573846930445,-0.0118396694485,0.0,-0.00844076917923,0.00858584158631,-0.999927515743,0.0,0.661001566913,0.259987657949,0.303437653772,1.0,-0.0055,-0.00722857142857,0.276
0.464472058446,0.543290133952,-0.123984931508,-1.36250321713,0.0791404412867,1.89649266137,0.158343834333,-0.00280638632112,-0.036986553549,-0.000229144691432,-0.0488964831645,-0.00245023736661,0.0161348884372,-0.00946815940264,0.573906403798,0.818906279215,0.0021662046893,0.0,0.81886535773,-0.573846355583,-0.0118588783387,0.0,-0.00846840431261,0.00857988138755,-0.999927333242,0.0,0.660909039237,0.25986272138,0.303432171747,1.0,-0.00582,-0.00764914285714,0.292
0.464381115711,0.542626372145,-0.123984663994,-1.36353974834,0.0790809130931,1.89686616898,0.158245246875,-0.00466051641086,-0.0360309594615,0.00145610309775,-0.050802090076,-0.00499525677656,0.0138353171456,-0.00808126336374,0.573939580991,0.81888304909,0.00215782002631,0.0,0.818842017939,-0.573879561483,-0.0118636195905,0.0,-0.0084767513768,0.00857607967762,-0.999927295129,0.0,0.660796272896,0.259707568132,0.303434431637,1.0,-0.0062,-0.00814857142857,0.311
0.464321396682,0.542109416734,-0.123994943925,-1.36434539805,0.0790339569877,1.89716644863,0.158121468848,0.000680780626602,-0.0314032162276,-0.00215981143695,-0.0510290983546,-0.000747155029212,0.0219569657087,-0.0060175459054,0.573926593677,0.818892130118,0.002165918237,0.0,0.818851234269,-0.573866573844,-0.0118557353697,0.0,-0.00846578330571,0.00857805179206,-0.999927371133,0.0,0.660704567814,0.259586087512,0.303442909106,1.0,-0.0065,-0.00854285714286,0.326
0.464231010654,0.541482397939,-0.123986775558,-1.36531206964,0.0789678776013,1.8975143925,0.157990187444,-0.00621951336745,-0.0416863486635,0.00258388904525,-0.0546420136176,-0.00564349532672,0.0139287833847,-0.0109891448078,0.573923327665,0.818894405601,0.00217102243543,0.0,0.81885358309,-0.573863294995,-0.0118522157833,0.0,-0.00846000599193,0.00858017781778,-0.999927401788,0.0,0.660592802093,0.259437519,0.303456001518,1.0,-0.00684,-0.00898971428571,0.343
0.464157444254,0.540867976728,-0.123993505125,-1.36627612297,0.0789205318318,1.89786794541,0.157857296173,-0.00747687426231,-0.0392830738393,-0.0015039529588,-0.0630088288731,-0.00247111179132,0.0185240631856,-0.0114687196545,0.573920282593,0.818896519981,0.00217846109816,0.0,0.818855715946,-0.573860141317,-0.011857553378,0.0,-0.00846014008701,0.00858930107843,-0.999927322327,0.0,0.6604802699,0.259294987513,0.303462361495,1.0,-0.00716,-0.00941028571429,0.359
0.464051516787,0.540029072848,-0.123999093875,-1.3675343579,0.0788481243759,1.89833001642,0.157703077549,-0.00867191636835,-0.0386600792534,-0.000841238935502,-0.0608880731357,-0.003695636394,0.0242418363141,-0.0105849606477,0.573934924499,0.818886157513,0.00221593656818,0.0,0.818845825425,-0.573874617485,-0.011839953203,0.0,-0.00842406622246,0.00861003882581,-0.999927448538,0.0,0.660336686913,0.259103093258,0.303496599079,1.0,-0.00756,-0.009936,0.379
0.463972116387,0.539431861109,-0.123996579098,-1.36847618084,0.0787824675579,1.89869599761,0.157589509582,-0.00172697001144,-0.0427932823832,-0.000372777899914,-0.0688256339633,-0.00523319418769,0.0209300221936,-0.00947973182158,0.573939854316,0.818882668156,0.00222852463024,0.0,0.818842580297,-0.573879579787,-0.0118238528896,0.0,-0.0084036052192,0.00861115705484,-0.999927611077,0.0,0.660231365597,0.25896238137,0.303501923914,1.0,-0.00784,-0.010304,0.393
0.463877309035,0.538675933081,-0.124002028629,-1.36964715542,0.0787227145522,1.89914605309,0.157449999567,-0.00741664921792,-0.0403672576064,0.000609403750878,-0.0708676679831,-0.00340587762276,0.0280126481765,-0.00802134695309,0.573955908358,0.818871324349,0.00226192859638,0.0,0.818831614083,-0.573895443645,-0.0118133163055,0.0,-0.00837563670971,0.00863262753921,-0.999927660609,0.0,0.660099298025,0.258788425324,0.303517793398,1.0,-0.00818,-0.0107508571429,0.41
0.463761458262,0.537915532061,-0.124005224819,-1.37085936639,0.0786595391377,1.89960926246,0.157297922822,-0.00619112550188,-0.0451164119841,0.00039098380621,-0.0803746328692,-0.000620652004688,0.0286498387633,-0.00552807830208,0.573978618477,0.818855370395,0.00227482042428,0.0,0.818815762119,-0.573918033321,-0.0118146364836,0.0,-0.00836907920048,0.00864417397317,-0.999927615765,0.0,0.659965298911,0.258597399343,0.303518135524,1.0,-0.00852,-0.0111977142857,0.427
0.46366254694,0.537099914746,-0.124007353623,-1.37212804453,0.0785756252994,1.90007630694,0.157129165137,-0.00941163438672,-0.0525021580951,0.00211611387677,-0.0758469635905,-0.000761192304553,0.0289872330294,-0.016189271433,0.573970324279,0.818861164277,0.00228197013424,0.0,0.818821706486,-0.573909772031,-0.0118039593041,0.0,-0.00835631978436,0.00864381544925,-0.999927725575,0.0,0.659816694133,0.258409124026,0.30353071099,1.0,-0.00886,-0.0116445714286,0.444
0.46354744531,0.536308574723,-0.124017999304,-1.37336065061,0.078507149171,1.90054824566,0.156981247192,-0.00981700883828,-0.0527894891685,-0.000134486213041,-0.0773269903615,-0.0030710933778,0.0299131411696,-0.00824187548221,0.574000525169,0.818839922653,0.00230761249029,0.0,0.818800808321,-0.573939881343,-0.0117896479428,0.0,-0.00832956394062,0.00865690575531,-0.99992783557,0.0,0.659681792572,0.258212020032,0.30354390378,1.0,-0.00918,-0.0120651428571,0.46
0.463448961784,0.535552686792,-0.124026405381,-1.37456811813,0.0784427878033,1.90098266224,0.156831144112,-0.00830323259168,-0.0509913988482,-0.000807861047168,-0.0861774002776,0.00057394960412,0.0273921940103,-0.0145045233015,0.574013232129,0.818831049757,0.00229525534961,0.0,0.818791707674,-0.573952564387,-0.0118042440756,0.0,-0.00834847460816,0.00865529498317,-0.999927691806,0.0,0.659539004443,0.258027834172,0.303540583235,1.0,-0.00948,-0.0124594285714,0.475
0.463328035256,0.534649395424,-0.124022297129,-1.37600256593,0.0783537956749,1.90150077099,0.156662602323,-0.00498054083764,-0.0505538294337,0.0018387436353,-0.0873571170586,-0.0116431626469,0.0288805221454,-0.0143122809588,0.574026118873,0.818822049223,0.00228329984839,0.0,0.818782517491,-0.573965460166,-0.0118146725801,0.0,-0.00836374019271,0.00865162321554,-0.999927596012,0.0,0.659368075417,0.257812821702,0.303539911164,1.0,-0.00982,-0.0129062857143,0.492
0.463204478354,0.533746127751,-0.124030080973,-1.377476994,0.0782709989362,1.90204777849,0.156477706654,-0.00518747861846,-0.0535242800829,-0.000186680614124,-0.0912258418395,-0.00374636078395,0.037194397748,-0.0104728619061,0.574040012037,0.818812366894,0.00226258781583,0.0,0.818772527136,-0.573979391985,-0.0118301853162,0.0,-0.00838818475923,0.00864371088335,-0.999927459678,0.0,0.65919630445,0.257587395902,0.303522934183,1.0,-0.01016,-0.0133531428571,0.509
0.463068036011,0.532826007036,-0.124031206177,-1.3789657767,0.0781906951638,1.90260615975,0.156290708544,-0.0110719756884,-0.0533793378431,0.000447002706472,-0.0864871113041,-0.00087906008995,0.0325718599089,-0.00933073029259,0.574059384297,0.818798800393,0.00225713892372,0.0,0.818758798468,-0.57399868908,-0.0118440603896,0.0,-0.00840246942906,0.00864741285747,-0.999927307737,0.0,0.659025182807,0.257357054348,0.303511599849,1.0,-0.0105,-0.0138,0.526
0.462948909489,0.53190736647,-0.124033984169,-1.38042823181,0.0781051412187,1.90314866055,0.156099359951,-0.00598761377472,-0.0558534696178,-0.00016354870056,-0.0901017510972,-0.000806572600562,0.0329150334157,-0.017726793735,0.574059090787,0.818799009408,0.00225596521122,0.0,0.818758961042,-0.57399836813,-0.0118483753245,0.0,-0.00840667948366,0.00864892581722,-0.999927259266,0.0,0.658852814802,0.257138373009,0.303510221665,1.0,-0.01082,-0.0142205714286,0.542
0.462811431719,0.530839143541,-0.12402869446,-1.38213184071,0.0780066823827,1.90375292809,0.155878601072,-0.00283171515533,-0.0612206979459,0.000177237914537,-0.091694862691,-0.00639735066745,0.0321101474328,-0.0145374868224,0.574053382684,0.818803073517,0.00223327760045,0.0,0.818762600805,-0.573992617675,-0.011875406504,0.0,-0.00844189702156,0.00864580790945,-0.999926989525,0.0,0.658643629462,0.256887767417,0.303504361211,1.0,-0.01118,-0.0146937142857,0.56
0.462678232424,0.529881732938,-0.124033846157,-1.38367942165,0.0778984665678,1.90431066533,0.155679710488,-0.0104795532824,-0.061028832334,0.000568496937127,-0.0938075451625,-0.00518994961358,0.0301498608458,-0.0169647073088,0.574058166927,0.818799821159,0.00219562168616,0.0,0.818758965817,-0.573997660951,-0.0118822564579,0.0,-0.00846907080639,0.00861895724391,-0.999926991543,0.0,0.658460023384,0.256646281044,0.303490738845,1.0,-0.0115,-0.0151142857143,0.576
0.462533409597,0.528820085004,-0.124034977442,-1.38533646898,0.0778001187806,1.90493238326,0.15544733578,-0.00715751960291,-0.0605337942697,0.00178162413974,-0.0949132347188,-0.0111275564243,0.0386809570723,-0.0184752722269,0.574050779189,0.818804939693,0.00221823072783,0.0,0.81876435602,-0.57399016105,-0.0118731305682,0.0,-0.00844869800974,0.00863215430316,-0.999927050046,0.0,0.658267430132,0.256393795325,0.303503638479,1.0,-0.01184,-0.0155611428571,0.593
0.46240164921,0.52772197358,-0.12403507816,-1.38704249304,0.0776962121357,1.90559448493,0.155211466248,-0.0086843830187,-0.0646419755487,0.00145070828578,-0.0961162376086,-0.00267294458996,0.0388951134848,-0.0144552388566,0.574030190855,0.818819252229,0.0022625357738,0.0,0.818779271215,-0.573969427413,-0.011846869796,0.0,-0.0084019804692,0.00865314492187,-0.999927262258,0.0,0.658068635276,0.256147031916,0.303522103702,1.0,-0.01218,-0.016008,0.61
0.462254644368,0.526565989788,-0.124048042879,-1.38881397828,0.0775848239832,1.90627352318,0.154962932114,-0.00900562034602,-0.0628560886205,-0.00176099725393,-0.105157735093,-0.00688688416965,0.0376001580494,-0.0104217903097,0.574022019497,0.818824846491,0.00231058492016,0.0,0.818785599828,-0.573961183916,-0.0118088006729,0.0,-0.00834331397654,0.00867055220488,-0.999927602697,0.0,0.657866134101,0.255875715201,0.303551726116,1.0,-0.01252,-0.0164548571429,0.627
0.462100516757,0.525393777957,-0.12404641422,-1.39066182919,0.077473872372,1.906935645,0.15472810017,-0.0072489994283,-0.064851966444,0.000195427307247,-0.109334495598,-0.00620405280917,0.0317878354937,-0.0231617876807,0.574024367069,0.818823230172,0.00230013963723,0.0,0.818783772938,-0.573963493858,-0.0118231887637,0.0,-0.00836106640834,0.0086702823871,-0.999927456755,0.0,0.657640666328,0.255598334486,0.303554196515,1.0,-0.01286,-0.0169017142857,0.644
0.461958522964,0.524277711185,-0.124047466322,-1.39242828306,0.0773542948867,1.90756083608,0.154481983981,-0.0103107075799,-0.0728776218658,0.00123997848683,-0.115714223057,-0.0135750093785,0.0446374869008,-0.0121273302404,0.574002379509,0.818838722011,0.00227212550429,0.0,0.818798944528,-0.573941663334,-0.0118322622724,0.0,-0.00838480845992,0.00865232724818,-0.999927413476,0.0,0.657422873021,0.255332456647,0.303552487168,1.0,-0.01318,-0.0173222857143,0.66
0.461777787265,0.522949289712,-0.124058828498,-1.3945572407,0.0772260664888,1.90835905157,0.154184907701,-0.0115448825687,-0.073558830363,-0.000711498055173,-0.113946027019,-0.00399219029944,0.0346148038406,-0.0122032157876,0.573994930367,0.818843960054,0.00226625177684,0.0,0.818804128413,-0.573934260931,-0.0118325958485,0.0,-0.00838853160892,0.00864763283476,-0.999927422858,0.0,0.657172044129,0.255005204463,0.303542589182,1.0,-0.01356,-0.0178217142857,0.679
0.461629513601,0.521778941721,-0.12405728273,-1.39638766572,0.0771128747037,1.90908271728,0.153943417018,-0.00374147187056,-0.077702747264,-0.0032976772363,-0.114144553262,-0.0112064389814,0.0399177954376,-0.017272898954,0.573985204024,0.818850635647,0.00231710245137,0.0,0.81881151435,-0.573924390304,-0.0118002153607,0.0,-0.00833293267198,0.00867058612411,-0.99992768897,0.0,0.656959746798,0.254737552833,0.303556432089,1.0,-0.01388,-0.0182422857143,0.695
0.461463921475,0.520529875467,-0.124062749509,-1.39840624021,0.0769828633994,1.90983683151,0.153682914084,-0.00844526583785,-0.0734893962546,0.000552360793435,-0.120073290728,-0.00244642764523,0.0405546372085,-0.0135912518456,0.573984094868,0.818851470938,0.0022965805729,0.0,0.818812145848,-0.573923425426,-0.0118033240805,0.0,-0.00834726860688,0.00865555500202,-0.999927699624,0.0,0.656717518237,0.254432566735,0.303538579957,1.0,-0.01422,-0.0186891428571,0.712
0.461316829235,0.519365118016,-0.124070578659,-1.40020778147,0.0768839530318,1.91048701474,0.153425725305,-0.00953428141953,-0.0797988168659,-0.00130078845099,-0.120250064681,-0.00386050828206,0.0452910729473,-0.0179161601303,0.573968652579,0.818862249397,0.00231284893098,0.0,0.818823029063,-0.573907811749,-0.0118075226457,0.0,-0.0083415330849,0.00867112877675,-0.999927612556,0.0,0.65649704894,0.254161015049,0.303555535637,1.0,-0.01452,-0.0190834285714,0.727
0.46114219849,0.518023823457,-0.124077621534,-1.40231528598,0.0767303841874,1.91124077748,0.15314861873,-0.00820450486039,-0.0818380349917,-0.0022411212003,-0.12556009821,-0.0132464097269,0.0468318510363,-0.0146986738887,0.573959827908,0.818868507416,0.00228700909973,0.0,0.818829134406,-0.573899277539,-0.0117989316946,0.0,-0.00834942146806,0.00864494892852,-0.999927773401,0.0,0.656238719084,0.253836152339,0.303559338648,1.0,-0.01486,-0.0195302857143,0.744
0.460959343519,0.516667373323,-0.124079009767,-1.40444409112,0.0765988625098,1.91200784138,0.1528488775,-0.0113286720485,-0.0833313464429,-3.05788564699e-05,-0.126708476052,-0.00627161398845,0.0429972649395,-0.0162078802525,0.573942149619,0.818880913258,0.00228159903326,0.0,0.818841427344,-0.573881578218,-0.0118066908529,0.0,-0.00835906707201,0.00864479177603,-0.999927694172,0.0,0.655977229667,0.253511343209,0.30356424118,1.0,-0.0152,-0.0199771428571,0.761
0.460770551079,0.515290758701,-0.124087208572,-1.40662558557,0.0764609501206,1.91284371775,0.152540245649,-0.0114880413827,-0.0835558935435,2.35909768e-05,-0.127647688816,-0.00984702414627,0.0491605992272,-0.0165920287706,0.573927953989,0.81889080774,0.00230120185263,0.0,0.818851659538,-0.573867395053,-0.011786410339,0.0,-0.00833135877466,0.00864905984789,-0.999927888512,0.0,0.65572012616,0.253176328683,0.303563990089,1.0,-0.01554,-0.020424,0.778
0.460595739709,0.513985805134,-0.124090815073,-1.40873934325,0.0763356601418,1.91359332937,0.152256792379,-0.0128928692161,-0.0885653666219,-0.00193017367134,-0.131611635053,-0.0053886573034,0.0505708928633,-0.0197272964981,0.573918889464,0.818897298267,0.00225169014722,0.0,0.818857401804,-0.573858414481,-0.011824658203,0.0,-0.00839119087403,0.00863037400923,-0.999927549656,0.0,0.655453902392,0.252856557132,0.303537745787,1.0,-0.01586,-0.0208445714286,0.794
0.460400875953,0.512592477381,-0.124091158867,-1.41100689604,0.0762086460993,1.91437318214,0.151938903731,-0.0106212724047,-0.0806204867181,0.000476819990578,-0.135802505415,-0.0114224365401,0.0448790788684,-0.0186500919809,0.573902912178,0.818908693897,0.00217838369775,0.0,0.81886760878,-0.573842489174,-0.0118904924114,0.0,-0.00848734189454,0.00860796180164,-0.999926931341,0.0,0.655163068441,0.252510312199,0.30350236411,1.0,-0.0162,-0.0212914285714,0.811
0.46017865096,0.510982451498,-0.124096939729,-1.41357223753,0.0760526081016,1.91533497,0.151575419532,-0.0117324136527,-0.0849450763584,-0.000136342876357,-0.136625721964,-0.00410708284172,0.0427819096601,-0.0128204531795,0.573883552491,0.818922253643,0.00218118525333,0.0,0.818881193176,-0.573823108671,-0.0118902614889,0.0,-0.00848574860919,0.00860992285378,-0.99992692798,0.0,0.654852097081,0.252118145908,0.303492431073,1.0,-0.01658,-0.0217908571429,0.83
0.459961285378,0.50932285891,-0.124097290976,-1.41620504478,0.0758810194885,1.91631623307,0.151211676225,-0.0057018760307,-0.0835175630635,-0.00272233030504,-0.135547638429,-0.0120849092255,0.0478881862198,-0.0219090241683,0.573854772465,0.81894242273,0.00218065900697,0.0,0.818901409244,-0.573794388971,-0.011883939782,0.0,-0.0084811758231,0.00860556597728,-0.999927004281,0.0,0.654527445083,0.251723910088,0.303485969866,1.0,-0.01696,-0.0222902857143,0.849
0.459775592879,0.507992219362,-0.124100170795,-1.41829641113,0.0757489957518,1.91706898202,0.150917905913,-0.0103886349632,-0.0920290243177,0.000148725841506,-0.139926027886,-0.0130274590204,0.054661867004,-0.0239298185363,0.573841114621,0.818952017481,0.00217143632071,0.0,0.818910862836,-0.573780748445,-0.0118911035809,0.0,-0.00849247841689,0.00860198253876,-0.999926939184,0.0,0.654267321004,0.2513998398,0.303486778066,1.0,-0.01726,-0.0226845714286,0.864
0.459538794501,0.506352749841,-0.124103605956,-1.42086544371,0.0755882256914,1.91799988313,0.150564031635,-0.0154040795413,-0.0969517910444,-0.000988711117356,-0.145955062339,-0.0132634095353,0.0435267021448,-0.0169516655329,0.573837102867,0.818954831699,0.00217023290156,0.0,0.818913631849,-0.57377671212,-0.0118951713567,0.0,-0.00849654254242,0.00860328961679,-0.999926893414,0.0,0.653950201055,0.250996921888,0.303491187002,1.0,-0.01762,-0.0231577142857,0.882
0.459376843094,0.505138270825,-0.1241067716,-1.42273841025,0.0754703422154,1.91871790258,0.150310012556,-0.0103740365823,-0.0862137694065,-1.95784627331e-05,-0.146943186059,-0.00977017560813,0.0556440769516,-0.0247233379086,0.573828889045,0.81896046076,0.0022173656339,0.0,0.818919922495,-0.573768359978,-0.0118649285649,0.0,-0.00844481571002,0.00862444971742,-0.999927149324,0.0,0.653724162998,0.250712595177,0.303510848502,1.0,-0.01788,-0.0234994285714,0.895
0.459105893393,0.503196425844,-0.124109729809,-1.42564454111,0.0752924634693,1.91983785681,0.149897446825,-0.0138975843903,-0.0927222944892,0.000485700956179,-0.144257156087,-0.0106860139463,0.0534108808161,-0.0186533621946,0.573816597448,0.818968705759,0.00234912378533,0.0,0.818929920519,-0.573755598975,-0.0117917269606,0.0,-0.00830939242459,0.00869022371108,-0.999927714392,0.0,0.653379137274,0.250261759132,0.303581155707,1.0,-0.01828,-0.0240251428571,0.915
0.458916979997,0.501789647447,-0.124118703307,-1.42772024842,0.0751560634769,1.92059768089,0.149609000737,-0.012860776226,-0.0987462136597,-0.00160438012762,-0.152034036396,-0.00747826333099,0.0564731652225,-0.0192077255992,0.573810702574,0.818972625077,0.00242154640387,0.0,0.818934865523,-0.573749522008,-0.0117438889741,0.0,-0.00822872091836,0.0087220258878,-0.999928104624,0.0,0.653125181142,0.249934944286,0.303641347284,1.0,-0.01856,-0.0243931428571,0.929
0.45867632833,0.50007900354,-0.124113884251,-1.43030519244,0.0749855647259,1.92150479787,0.14924950533,-0.0144044703769,-0.0975078768772,5.07254398736e-05,-0.148766784041,-0.0138676696125,0.0524097006609,-0.0205076946861,0.573795260791,0.818983367007,0.00244748070345,0.0,0.818945915798,-0.573733956106,-0.0117337764292,0.0,-0.00820572292677,0.00873730785257,-0.999928160201,0.0,0.652796724547,0.249530668339,0.303683048207,1.0,-0.0189,-0.02484,0.946
0.458421849181,0.498400540589,-0.1241223613,-1.4329231297,0.0748289752595,1.9224862645,0.148862498408,-0.0154543309788,-0.0882362029198,-0.00098525985817,-0.148257851877,-0.00971317849044,0.064499767523,-0.0220939323907,0.57378388035,0.818991233204,0.00248303984453,0.0,0.81895421434,-0.57372241543,-0.0117188629299,0.0,-0.00817322774545,0.00875775920426,-0.999928247427,0.0,0.652478863763,0.249112515451,0.303692937037,1.0,-0.01924,-0.0252868571429,0.963
0.458145924952,0.496622539236,-0.124111780303,-1.43575279205,0.0746511008134,1.9235010597,0.148456604709,-0.0154960877833,-0.0968557808955,0.00129488689237,-0.15516125809,-0.00745438103069,0.0558842392298,-0.0162232888025,0.573764998936,0.819004553468,0.00245240606902,0.0,0.818967013811,-0.573703517562,-0.0117495160462,0.0,-0.0082161113402,0.00875006920269,-0.999927963307,0.0,0.652120001563,0.248666811747,0.303673105607,1.0,-0.0196,-0.02576,0.981
0.457889199993,0.495067009675,-0.124115280493,-1.43831356863,0.0744935137862,1.92438098307,0.148079887486,-0.0138331098817,-0.106052596061,-0.00461353586632,-0.154183422001,-0.0137868337814,0.067049642915,-0.0193487213079,0.57376061903,0.819007908402,0.00235476660459,0.0,0.818968993982,-0.573699394207,-0.0118126577574,0.0,-0.00832389220875,0.0087062862875,-0.999927454067,0.0,0.65177031429,0.248223134528,0.303621232996,1.0,-0.01994,-0.0262068571429,0.998
0.457560682602,0.492994083773,-0.124125915732,-1.4416257305,0.0742796582283,1.92559749817,0.147618237141,-0.0136872207633,-0.113082246121,0.0014492434112,-0.172165985503,-0.0134830348938,0.0721701465213,-0.0241467272035,0.573762916157,0.819006405019,0.0023176456693,0.0,0.818967000579,-0.573701826463,-0.0118327164026,0.0,-0.00836159395557,0.00868741645112,-0.999927303629,0.0,0.651378454815,0.247711128264,0.303587067967,1.0,-0.021772,-0.0286146285714,1.017
0.457319544902,0.49143735957,-0.124131500182,-1.44412188499,0.0741281484622,1.92650633435,0.147267766561,-0.0172584484026,-0.112127431566,-0.00140122809819,-0.180568089939,-0.0141327724965,0.0641383545546,-0.0260670168473,0.573760027481,0.819008523004,0.00228407790847,0.0,0.818968616715,-0.573699001538,-0.0118577979486,0.0,-0.00840142612196,0.00867428560892,-0.999927083746,0.0,0.651040643662,0.247282137515,0.303558309843,1.0,-0.023452,-0.0308226285714,1.032
0.456983802265,0.489288658836,-0.124151873258,-1.44762189629,0.0739186895927,1.92772693493,0.146762910857,-0.0174918523902,-0.128821856144,-0.00283708751508,-0.194934440602,-0.00994301993308,0.0674000534644,-0.0281610628862,0.573755342186,0.819012088714,0.00218008129116,0.0,0.818970636256,-0.573694536113,-0.0119341143524,0.0,-0.0085236473043,0.00863285063517,-0.999926407955,0.0,0.650609402991,0.246744964941,0.303496170084,1.0,-0.025356,-0.0333250285714,1.049
0.456679690305,0.487430190921,-0.124179535657,-1.45050799675,0.073741015576,1.9288115578,0.146344754495,-0.019061601736,-0.135957756333,-0.00350891697676,-0.209038392015,-0.00776385456154,0.0800354583893,-0.0373867727906,0.573777232772,0.818996639881,0.00222214248852,0.0,0.818955821338,-0.573716341478,-0.0119024837268,0.0,-0.00847337785854,0.00864937723004,-0.999926692384,0.0,0.650261046434,0.246258348805,0.303508838954,1.0,-0.026924,-0.0353858285714,1.063
0.456266171428,0.484881661422,-0.124203211008,-1.45438507938,0.0734948740348,1.93029573188,0.145759970883,-0.0258217021411,-0.146847550097,-0.00210570568986,-0.224709534837,-0.0190427226304,0.0839581627616,-0.040540560504,0.573779067282,0.818995011334,0.00234526347448,0.0,0.818955962415,-0.573717865183,-0.0118190395153,0.0,-0.00833437531044,0.00870235252235,-0.999927400989,0.0,0.649796149709,0.245610869158,0.303562439198,1.0,-0.02894,-0.0380354285714,1.081
0.455844309495,0.482314480993,-0.124242324097,-1.45835316272,0.0732469683144,1.93164144253,0.145149478205,-0.0246877081458,-0.152884437747,-0.00370651431155,-0.240029177134,-0.018067763711,0.0825166649972,-0.0382820792644,0.573779787521,0.818994647858,0.00229545479603,0.0,0.818954870406,-0.57371869468,-0.0118543879571,0.0,-0.00839189653126,0.00868184924074,-0.999927098126,0.0,0.649284510084,0.244929447143,0.30357268982,1.0,-0.030844,-0.0405378285714,1.098
0.455443216384,0.479905289596,-0.124259936964,-1.46209474345,0.0730122556021,1.93300172272,0.144603796024,-0.0320550029409,-0.167578974176,-0.000196261325444,-0.247177321798,-0.0118029511456,0.0949818142346,-0.0421717614689,0.57379308356,0.81898527639,0.00231542992415,0.0,0.818945740619,-0.573731892215,-0.011846378292,0.0,-0.00837373462834,0.00869374878486,-0.999927146996,0.0,0.648814080331,0.244302101602,0.303580395867,1.0,-0.032524,-0.0427458285714,1.113
0.454960022736,0.477041626999,-0.124278606449,-1.46645354271,0.0727510402607,1.93459685773,0.143983965257,-0.0264871345639,-0.171920740927,-0.00114636238078,-0.255658837912,-0.0211554963914,0.0903042898508,-0.0393379361065,0.573835566663,0.81895525444,0.00240427924061,0.0,0.81891676898,-0.57377391764,-0.0118137132731,0.0,-0.0082955495555,0.0087482018679,-0.99992732377,0.0,0.648269348537,0.243565780881,0.303627870982,1.0,-0.034428,-0.0452482285714,1.13
0.454387753884,0.473674703553,-0.124295201038,-1.47165773903,0.0724313081078,1.9364974808,0.143224638916,-0.0282974526381,-0.176531931194,7.67373555182e-05,-0.277636471817,-0.0155812255003,0.102335554165,-0.0419720689753,0.573858536314,0.818938996636,0.00245906297417,0.0,0.818901112265,-0.573796559117,-0.0117993210891,0.0,-0.00825208117856,0.00878503967357,-0.999927360479,0.0,0.647610378366,0.242691466262,0.303645607635,1.0,-0.036556,-0.0480450285714,1.149
0.453884669198,0.470686371448,-0.1242948751,-1.47626317845,0.0721401875688,1.93809226752,0.142534562196,-0.0337625102841,-0.187898119141,0.000243408096664,-0.288249310089,-0.0158108270661,0.111525248559,-0.0388711482303,0.573845674342,0.818948052156,0.00244475169622,0.0,0.818909745636,-0.573783502209,-0.0118350325656,0.0,-0.00828967827851,0.0087936825388,-0.999926973524,0.0,0.647002233814,0.241922505878,0.303657091363,1.0,-0.038348,-0.0504002285714,1.165
0.45329729855,0.467142793597,-0.124301782645,-1.48158120878,0.071798115832,1.94014072066,0.141666937413,-0.0312402925776,-0.200110372207,-0.00137771081315,-0.303283131235,-0.0174089556029,0.116607771564,-0.0532485635989,0.573781592548,0.818992237207,0.00267326548846,0.0,0.818957066773,-0.573718768891,-0.0116980299852,0.0,-0.00804704809412,0.00890157532061,-0.999928000895,0.0,0.646382419255,0.241097053556,0.303747297602,1.0,-0.040252,-0.0529026285714,1.182
0.45281699158,0.46428456776,-0.124305368171,-1.48597766108,0.0714950031402,1.94164513419,0.141003244921,-0.0375447184162,-0.204872656516,0.000704903059332,-0.320963504879,-0.0217047722248,0.112848752158,-0.0464964636608,0.573756487692,0.819009952727,0.00263383112907,0.0,0.818974224371,-0.573693757041,-0.011723474243,0.0,-0.00809078538242,0.00888363024869,-0.999927807547,0.0,0.645753244185,0.240300219986,0.303758617439,1.0,-0.041932,-0.0551106285714,1.197
0.452152746939,0.460515205884,-0.124311757189,-1.49190532996,0.0711027563929,1.94370556136,0.140127142889,-0.0377895657562,-0.217331818915,0.000273781341656,-0.332783169454,-0.0218168054612,0.116742647545,-0.0499612488218,0.573756767427,0.819010039822,0.00254428844648,0.0,0.818972983796,-0.573694184773,-0.0117890233753,0.0,-0.00819584281332,0.0088479057932,-0.999927268717,0.0,0.644960706018,0.239294928835,0.303712700823,1.0,-0.043948,-0.0577602285714,1.215
0.451413882981,0.456398153315,-0.124313855399,-1.49836415013,0.070666208785,1.94600209358,0.139129325516,-0.0343226960125,-0.220452715749,-0.000910281444203,-0.35175747952,-0.0140636232422,0.12596808403,-0.0539963983362,0.573724956471,0.819032479772,0.00249365220973,0.0,0.818994711314,-0.573662509564,-0.0118209500864,0.0,-0.00825138614265,0.00882443194304,-0.999927019351,0.0,0.64410363814,0.238195899571,0.30367000562,1.0,-0.046076,-0.0605570285714,1.234
0.450775653872,0.4530003529,-0.124354455696,-1.50365241517,0.0702979567405,1.94784163394,0.138285759478,-0.0468786637596,-0.226626507412,-0.00450976544793,-0.350120730686,-0.0218678892867,0.130209407815,-0.060498807616,0.573726962113,0.819031267265,0.00242962728941,0.0,0.81899280579,-0.573664907186,-0.0118366054537,0.0,-0.00830091786973,0.00878099602081,-0.999926991771,0.0,0.643405842004,0.237248713474,0.303648026449,1.0,-0.047756,-0.0627650285714,1.249
0.450052786626,0.448938241344,-0.124419563532,-1.50974262268,0.0698805137081,1.95011948252,0.137358985426,-0.0426510802442,-0.242591042758,-0.000911286229997,-0.371590326961,-0.0307589509806,0.127228805471,-0.0483107813641,0.573778167448,0.818994837508,0.00261105272403,0.0,0.818959113221,-0.573715844178,-0.0116982012721,0.0,-0.00808291975351,0.008850688315,-0.999928163282,0.0,0.642578419277,0.236107256006,0.303735325059,1.0,-0.049772,-0.0654146285714,1.267
0.449366100998,0.445241221575,-0.124440908629,-1.51542595406,0.0695101463831,1.95196466553,0.136520092505,-0.0424925530451,-0.242244650199,-0.00265702296489,-0.388501072191,-0.0245796369545,0.127446795594,-0.0580932357516,0.573813409134,0.818970499017,0.00249802712658,0.0,0.818933035151,-0.573751199698,-0.011789473441,0.0,-0.00822214318813,0.00881084451982,-0.999927380053,0.0,0.64183965569,0.235162100526,0.303723897061,1.0,-0.05134,-0.0674754285714,1.281
0.448525041419,0.440728768759,-0.124452260813,-1.52239411473,0.0690142046396,1.95440019815,0.13540239109,-0.0473612227202,-0.250079203683,0.000410492999671,-0.392334308836,-0.030517580418,0.136442313202,-0.0608414959329,0.573767251376,0.819002955728,0.00245899520927,0.0,0.818965070804,-0.573705286359,-0.0117984790885,0.0,-0.00825240958035,0.00878358121385,-0.999927370581,0.0,0.640892334484,0.2339425906,0.303706233803,1.0,-0.053356,-0.0701250285714,1.299
0.447725132358,0.436609319225,-0.124458919131,-1.52872379914,0.0686045098729,1.95666711528,0.134370864706,-0.049131136567,-0.263983407459,-0.000624608540364,-0.386640386429,-0.0246352436803,0.145519832704,-0.0595426393941,0.573748493731,0.819015944372,0.00250912479044,0.0,0.818978516284,-0.573686134747,-0.0117964217128,0.0,-0.00822216566884,0.00882326836243,-0.999927270319,0.0,0.640041364359,0.232825490197,0.303704569096,1.0,-0.055148,-0.0724802285714,1.315
0.446826558036,0.432040075275,-0.124489738026,-1.53554534739,0.0681179386967,1.95917794706,0.133262815934,-0.0535022316006,-0.267466056205,-0.00266909475782,-0.410939188311,-0.0355620425947,0.146509982208,-0.0646488865665,0.57376129334,0.819006368517,0.00270064694035,0.0,0.818971834174,-0.573698688157,-0.011648902855,0.0,-0.0079913218753,0.0088956146144,-0.999928500852,0.0,0.639149023263,0.231584891571,0.303792441172,1.0,-0.057052,-0.0749826285714,1.332
0.445896484736,0.427403355563,-0.124531771672,-1.54279265709,0.0675896781337,1.9615098655,0.132105084996,-0.0579904989845,-0.279181287915,-0.00375671479182,-0.433847090255,-0.0232215757766,0.136970866493,-0.07246600787,0.573768433715,0.819002183668,0.00244018864786,0.0,0.818964179805,-0.57370667278,-0.0117929091344,0.0,-0.00825862482688,0.00876499485086,-0.999927482361,0.0,0.638115282883,0.23025349492,0.3037043431,1.0,-0.058956,-0.0774850285714,1.349
0.444924280253,0.422585189097,-0.124570517865,-1.55015165809,0.0670533595703,1.96398480993,0.130892889277,-0.0549464852228,-0.285283577904,0.00138517470937,-0.429519893042,-0.0258521622807,0.145694934252,-0.0647620757705,0.573761787102,0.819007077849,0.00235902455039,0.0,0.81896810837,-0.573700430275,-0.0118237335914,0.0,-0.00833050848651,0.00871614020197,-0.999927313122,0.0,0.637085832201,0.228896526478,0.303692932264,1.0,-0.06086,-0.0799874285714,1.366
0.443852504387,0.417327576208,-0.12459606284,-1.55800743394,0.0665200588715,1.96681097184,0.129644587815,-0.0595849867581,-0.300667477335,0.00037110726774,-0.440784185612,-0.0235855375225,0.163975927804,-0.0746028401577,0.57381695384,0.818967875822,0.00254337543312,0.0,0.818931340848,-0.573754942849,-0.0117248212682,0.0,-0.00814313452272,0.00881092071571,-0.999928025928,0.0,0.636018600672,0.227457164231,0.303766931774,1.0,-0.062876,-0.0826370285714,1.384
0.44285186381,0.412585028901,-0.124606303051,-1.56513012136,0.0660266010038,1.96937770029,0.128400429504,-0.068623736914,-0.297060989447,-0.00111624920163,-0.45278061625,-0.0400114384706,0.150160186997,-0.0831507463126,0.573781706909,0.818992096631,0.00269172311826,0.0,0.818957532225,-0.573719225263,-0.011642932471,0.0,-0.00799133023116,0.0088850796543,-0.999928594451,0.0,0.635045752161,0.226142155037,0.303811806637,1.0,-0.064668,-0.0849922285714,1.4
0.441696477139,0.407081794323,-0.124657383078,-1.57355206996,0.065418774631,1.97205128767,0.127047216893,-0.0687717391698,-0.307588778276,-0.00549665092481,-0.475428210786,-0.0372560012375,0.155165828952,-0.0720851675971,0.573828029931,0.818960343276,0.00246882726151,0.0,0.818922622268,-0.573766058747,-0.0117896339743,0.0,-0.00823887202294,0.00878717011225,-0.999927450683,0.0,0.633811047418,0.22455744214,0.303757521204,1.0,-0.066684,-0.0876418285714,1.418
0.440698599691,0.40245364266,-0.12469617221,-1.58068422383,0.0649318274208,1.97445194512,0.125855844306,-0.068744194929,-0.322363378997,-0.00411482921904,-0.4707459436,-0.0364067327851,0.16166367123,-0.0878107294548,0.573848325605,0.818946390203,0.00237825057429,0.0,0.818907206165,-0.573786396781,-0.011870360635,0.0,-0.00835674205793,0.00875952175599,-0.999926715135,0.0,0.632784077439,0.223220630014,0.303696027958,1.0,-0.068364,-0.0898498285714,1.433
0.439582811459,0.397265156477,-0.124704382374,-1.58817577913,0.0643850412769,1.97720469843,0.12454565892,-0.0708052901614,-0.323461596918,-0.000335034692129,-0.474854317463,-0.0343690895708,0.167755303041,-0.0874709688346,0.573837332672,0.818952969714,0.00273786959567,0.0,0.818918859234,-0.573774523977,-0.011638063687,0.0,-0.00796026025392,0.00892062021923,-0.999928525842,0.0,0.63176050942,0.2218085047,0.30386286716,1.0,-0.070156,-0.0922050285714,1.449
0.438063858692,0.390434809869,-0.124724267428,-1.59851903503,0.0636003912034,1.98058546186,0.122821964649,-0.069647967747,-0.324444054635,-0.00167382635553,-0.492287584218,-0.0371906310668,0.159309696462,-0.0794969153353,0.573861585576,0.818936437449,0.00259594304473,0.0,0.818900417602,-0.573799197101,-0.0117189743157,0.0,-0.00810770114026,0.00885105843586,-0.999927959378,0.0,0.63023523788,0.219837808673,0.303824614501,1.0,-0.072508,-0.0952962285714,1.47
0.437035670676,0.385799430175,-0.124733769741,-1.60561016829,0.0630729476423,1.98287283842,0.121536436579,-0.0779607437819,-0.327989253234,-0.00113510150676,-0.50806728045,-0.0351387322617,0.169441770452,-0.0990482754538,0.573777636999,0.818995728264,0.00244279910236,0.0,0.818957459241,-0.573715547682,-0.0118278148182,0.0,-0.0082856175097,0.00878725336538,-0.999927063701,0.0,0.629166601123,0.218499926822,0.303757640484,1.0,-0.074076,-0.0973570285714,1.484
0.435676310755,0.379613937527,-0.124736577853,-1.61460702397,0.0624330500198,1.98603195402,0.119952287303,-0.0708912520795,-0.346805119367,0.00140969242704,-0.505955776118,-0.0351418654682,0.172612518364,-0.0948711865199,0.573752279807,0.819012574259,0.00273340883004,0.0,0.818978066864,-0.573689117965,-0.011681987213,0.0,-0.00799972153843,0.00894134082421,-0.99992802585,0.0,0.627866271684,0.216801086953,0.303888315266,1.0,-0.076092,-0.100006628571,1.502
0.434452673722,0.374468939831,-0.12474628801,-1.62237205389,0.061830522051,1.98859683106,0.118556192863,-0.0827344479624,-0.34223188186,-0.000289733673355,-0.532443070395,-0.0411110854871,0.169162134396,-0.0980396834171,0.57373089692,0.819027791069,0.00266125482423,0.0,0.818992365425,-0.573668012714,-0.0117159492478,0.0,-0.00806916662283,0.00890152083558,-0.999927823134,0.0,0.626708948726,0.215282863551,0.303851803056,1.0,-0.077772,-0.102214628571,1.517
0.433116330604,0.368834987854,-0.124815210261,-1.63085441859,0.0611749857884,1.99126818513,0.117113272912,-0.0884810014658,-0.361138508179,-0.00698711784447,-0.53372912189,-0.0428823436368,0.15534638452,-0.0842599741463,0.573813380496,0.818970564239,0.00248317843757,0.0,0.818932772329,-0.573751082383,-0.0118134148485,0.0,-0.00825027155102,0.00881242137788,-0.99992713447,0.0,0.625417627425,0.213586889044,0.303803491201,1.0,-0.079564,-0.104569828571,1.533
0.431654176265,0.362687103706,-0.124864154275,-1.63977143904,0.0604708691192,1.99435401355,0.115479010047,-0.0845939010251,-0.365650238058,-0.00217629490244,-0.53264375658,-0.0451576471213,0.184306126395,-0.102021949395,0.573822827785,0.81896323441,0.00270737840487,0.0,0.818928916436,-0.573760335439,-0.0116298840961,0.0,-0.00797121462401,0.00889081461806,-0.999928704035,0.0,0.624115862283,0.211803923159,0.303915280002,1.0,-0.081468,-0.107072228571,1.55
0.4301215516,0.356536141703,-0.124877860507,-1.64898399535,0.0598051596797,1.99730866393,0.113750512059,-0.0919083230331,-0.374261625441,-0.00175306921347,-0.549863314282,-0.0382722773121,0.173215089411,-0.0999491435296,0.573802875635,0.818977479133,0.00262592584023,0.0,0.818941515151,-0.573740021693,-0.0117443250676,0.0,-0.00811189516861,0.00888957833441,-0.999927583655,0.0,0.622697281848,0.209968180667,0.303868425209,1.0,-0.083372,-0.109574628571,1.567
0.428531290415,0.350302826208,-0.1249289432,-1.65839914442,0.0590708782068,2.00027736984,0.11203193092,-0.0927839964802,-0.367854535688,-0.00193858845278,-0.550504207839,-0.0401484472421,0.17384588895,-0.0962954091474,0.573843931731,0.818949341072,0.00242191535675,0.0,0.818910512843,-0.57378161013,-0.0118736149762,0.0,-0.0083343991309,0.00879710322013,-0.999926571687,0.0,0.621234238008,0.208049343019,0.303772598285,1.0,-0.085276,-0.112077028571,1.584
0.426899984681,0.343790748373,-0.124961476826,-1.66766915959,0.0583825405215,2.00346215124,0.110274554378,-0.0909493766533,-0.381245249953,0.00010988832941,-0.552274810571,-0.034346570265,0.176724170825,-0.0955581313755,0.573876660848,0.818925289806,0.00277394152127,0.0,0.818891168337,-0.57381318488,-0.0116803330054,0.0,-0.0079737493919,0.0089747995087,-0.99992793355,0.0,0.619849017958,0.20616081712,0.30393456273,1.0,-0.08718,-0.114579428571,1.601
0.425214207696,0.337295153545,-0.124961481465,-1.67727150971,0.0576075057215,2.0064725345,0.10842478253,-0.0989340921016,-0.380898512473,-0.0011853204134,-0.566634173132,-0.0453331166336,0.172176223316,-0.110597438947,0.573826914837,0.818960490804,0.00267080735461,0.0,0.818924837375,-0.573763595787,-0.0117555851159,0.0,-0.00809510358064,0.0089330336063,-0.999927332464,0.0,0.618327193217,0.20420441861,0.303902962866,1.0,-0.089084,-0.117081828571,1.618
0.423621364562,0.331073784571,-0.124956881003,-1.68649383675,0.056832080048,2.00931924233,0.106688146074,-0.100218168299,-0.396061539436,0.00162380062389,-0.571959450718,-0.0434533597112,0.179777708926,-0.108377983125,0.573768202928,0.819002143439,0.00250704050337,0.0,0.818964280754,-0.573705412455,-0.0118470869494,0.0,-0.00826464601907,0.00885082881741,-0.99992667654,0.0,0.616835004733,0.202343344428,0.303847384288,1.0,-0.090876,-0.119437028571,1.634
0.421745299139,0.323906985095,-0.12494658981,-1.69672057887,0.0560287293371,2.01276560907,0.10462759932,-0.107296545339,-0.394143123225,0.00142600023674,-0.577376812125,-0.0504025278662,0.18324371236,-0.112581094936,0.57369117019,0.819055097083,0.0028171066424,0.0,0.819021402611,-0.573627418582,-0.0116736290913,0.0,-0.00794552877355,0.00900450193185,-0.999927891159,0.0,0.615246414873,0.200250529406,0.303971635154,1.0,-0.092892,-0.122086628571,1.652
0.420000740251,0.317491556141,-0.124983083754,-1.70610520711,0.0552582245468,2.01564948924,0.102856167486,-0.105330465475,-0.402159484059,-0.00245380567384,-0.597214360578,-0.0536286183691,0.186238672018,-0.11461984842,0.573751819492,0.819012939362,0.00272060420588,0.0,0.818977856735,-0.573688246779,-0.0117393605754,0.0,-0.00805406461971,0.00896376667163,-0.999927388829,0.0,0.613725341254,0.198273129114,0.303947217631,1.0,-0.094684,-0.124441828571,1.668
0.417873825998,0.30969183802,-0.12504545878,-1.71729333389,0.0543164230226,2.01918276978,0.100526972205,-0.115275251574,-0.419571771939,-0.00103678993572,-0.58536680605,-0.0450855156346,0.199463699255,-0.111241212155,0.573681534523,0.819061910526,0.00279831637341,0.0,0.819028137438,-0.57361803576,-0.0116621626172,0.0,-0.0079470214573,0.00898244013315,-0.999928077723,0.0,0.611927306069,0.195888831929,0.304009490816,1.0,-0.096812,-0.127238628571,1.687
0.416111769774,0.303511363555,-0.125049562069,-1.72622673937,0.053571605608,2.02197308815,0.0986738285829,-0.121611595757,-0.408173969008,-0.00205694827994,-0.59806058376,-0.0486956332447,0.176133669021,-0.125664662925,0.573633653653,0.819095426113,0.002803786518,0.0,0.819061612371,-0.573570016041,-0.0116729919051,0.0,-0.00795327952567,0.00899266803848,-0.999927936037,0.0,0.610368278202,0.193853888093,0.304006799792,1.0,-0.098604,-0.129593828571,1.703
0.413914070226,0.296038872624,-0.125124685405,-1.73721102759,0.0526877531846,2.02520638635,0.0965268490993,-0.125080578398,-0.417350133162,-0.00626790552997,-0.609845212241,-0.0476397640374,0.185169443044,-0.123379729993,0.57378341467,0.818991294182,0.00256904757089,0.0,0.818953817983,-0.573719933613,-0.0118671263379,0.0,-0.00824531810376,0.00891326319716,-0.999926281517,0.0,0.608632463351,0.191572818938,0.303909522016,1.0,-0.100508,-0.132096228571,1.72
0.412051562151,0.289595876333,-0.125205616727,-1.74615393649,0.0519396144778,2.02817780211,0.0945851260137,-0.132026504033,-0.421416049056,-0.00494383530827,-0.6047510523,-0.0492356041982,0.20520624078,-0.126865216814,0.57379849554,0.818979524471,0.00292778318338,0.0,0.818947354451,-0.573734458246,-0.0116081419528,0.0,-0.00782721117598,0.00905860908725,-0.999928335615,0.0,0.607216118887,0.189584270364,0.304070656204,1.0,-0.102188,-0.134304228571,1.735
0.409869128861,0.282348011168,-0.125233967447,-1.75667876336,0.0510432124994,2.03124104855,0.0923696622683,-0.129022739769,-0.434872890169,0.000667583636897,-0.627390607129,-0.0571212211291,0.176880148981,-0.134427484167,0.573796655276,0.818981489763,0.00273216421354,0.0,0.818946324546,-0.573732776068,-0.0117629111347,0.0,-0.00806622962608,0.00898718793737,-0.999927080538,0.0,0.605418578369,0.187268688288,0.303996043396,1.0,-0.104092,-0.136806628571,1.752
0.407615693914,0.27494915807,-0.125282938083,-1.7672570589,0.0500962634795,2.03437151897,0.0901161464751,-0.132372555662,-0.445709846796,-0.00397358224437,-0.617976666498,-0.0566511191366,0.195561994666,-0.129792913293,0.573811339921,0.818971481095,0.00264692887629,0.0,0.818935304246,-0.573747875448,-0.0117936330234,0.0,-0.00814013600826,0.00893515590175,-0.999926947919,0.0,0.603620565788,0.184901400244,0.303983520034,1.0,-0.105996,-0.139309028571,1.769
0.405289612928,0.267463321106,-0.125361303173,-1.77778428452,0.0491833651104,2.03768128769,0.0877786426846,-0.135854283333,-0.43590926328,-0.00575987571943,-0.622345421616,-0.0547848009446,0.180643547525,-0.133737438248,0.573842171581,0.818949258774,0.00283206113831,0.0,0.818915878881,-0.573778486093,-0.0116524295279,0.0,-0.00791792521692,0.00900604869496,-0.999928096189,0.0,0.60187196235,0.182505036205,0.304050710755,1.0,-0.1079,-0.141811428571,1.786
0.403022902954,0.260372510045,-0.125458759083,-1.7879625534,0.0482825268119,2.04054952753,0.0855768481165,-0.136937140162,-0.437372692122,-0.00344830700131,-0.636398858714,-0.065586081019,0.179601886067,-0.134554471395,0.573933764792,0.818885774923,0.00262071780074,0.0,0.818849375364,-0.573870510358,-0.0117934179971,0.0,-0.00815366655706,0.00891478556222,-0.999927019497,0.0,0.600096673181,0.180153608026,0.303981341575,1.0,-0.109692,-0.144166628571,1.802
0.400569513188,0.252637068298,-0.12547844438,-1.79864879697,0.047329808248,2.04376309368,0.0831976053638,-0.146793798079,-0.454471529179,0.00286551293163,-0.629652428227,-0.0560254153684,0.19609467556,-0.135661513769,0.573957618385,0.818868423876,0.00281133009562,0.0,0.818834687891,-0.573893890109,-0.0116749176956,0.0,-0.00794696929112,0.00900309589433,-0.999927892372,0.0,0.598258611776,0.177714285653,0.304090371719,1.0,-0.111596,-0.146669028571,1.819
0.397777931637,0.244039613741,-0.125472009529,-1.81087820826,0.0462676372563,2.04730519347,0.0803773499413,-0.152808152627,-0.457700106767,0.00217155060171,-0.646500715032,-0.0480612406774,0.183210284585,-0.144268675681,0.573866984681,0.818932205315,0.00273384194435,0.0,0.818896833856,-0.573802836239,-0.0117909934148,0.0,-0.00808749368787,0.00900536973113,-0.999926745198,0.0,0.596084302188,0.174958599223,0.304025448645,1.0,-0.113724,-0.149465828571,1.838
0.395358619077,0.23659650674,-0.125483059618,-1.82111895782,0.0453510096384,2.05025851751,0.0779776611809,-0.150624494382,-0.472622090179,-1.17426073008e-05,-0.633341453068,-0.0582724623376,0.195436096859,-0.142522723197,0.573818601833,0.818965708141,0.00285096153758,0.0,0.818931736977,-0.573753902558,-0.0117480370155,0.0,-0.00798564289383,0.00907615980276,-0.999926923745,0.0,0.594263142869,0.172603866678,0.304104702009,1.0,-0.115516,-0.151821028571,1.854
0.392748266266,0.228676847137,-0.125452617747,-1.83213975539,0.0443234204998,2.05346620869,0.0754062810709,-0.154272009155,-0.470105506554,0.00237436064879,-0.664323783544,-0.0642308175235,0.186416135945,-0.162692960622,0.573721499216,0.819033538874,0.00290696367332,0.0,0.819000335797,-0.573656663069,-0.0117145116238,0.0,-0.00792713145274,0.00910184663471,-0.999927155834,0.0,0.592279443071,0.170098713303,0.304119443902,1.0,-0.11742,-0.154323428571,1.871
0.38996614577,0.220701098353,-0.125497179984,-1.84336413327,0.0432578375007,2.05647967039,0.0727128179523,-0.164582387096,-0.469206956485,-0.00450956679813,-0.656686414743,-0.0560383641623,0.182532219058,-0.16176531879,0.573702924971,0.819047324551,0.00267972511307,0.0,0.819010803376,-0.573638505229,-0.0118708117975,0.0,-0.00818572073523,0.00900521664604,-0.999925947283,0.0,0.59021459834,0.167428490738,0.304040923991,1.0,-0.119324,-0.156825828571,1.888
0.387299045512,0.213016706933,-0.125568355678,-1.85372924198,0.0423417371292,2.05957071278,0.0701721373156,-0.16870449084,-0.47577517991,-0.00478557564191,-0.657113620928,-0.0533937157638,0.188501250718,-0.158962583209,0.573763578304,0.81900368657,0.00301073033906,0.0,0.818971668615,-0.573698193099,-0.0116848681069,0.0,-0.00784285050042,0.00917023114194,-0.999927195628,0.0,0.588375843453,0.16493021584,0.304174001443,1.0,-0.121116,-0.159181028571,1.904
0.384358730948,0.204855639811,-0.12560229882,-1.8650832414,0.0412582318392,2.06255358301,0.0673718656319,-0.17675319857,-0.482609392386,-0.00221103629411,-0.678503037348,-0.0694659839833,0.160338797611,-0.172238790315,0.573752134585,0.81901239631,0.00281596363157,0.0,0.818977342394,-0.573686860321,-0.0118425437364,0.0,-0.00808386442879,0.00910107038273,-0.999925908082,0.0,0.586245937828,0.162189989162,0.304110030432,1.0,-0.12302,-0.161683428571,1.921
0.381543716384,0.197058747631,-0.125678705211,-1.87563211945,0.040234492765,2.06550563267,0.0646496902903,-0.174885184709,-0.493037958374,-0.00245176974455,-0.652875124776,-0.0600365943159,0.199685832731,-0.169740216166,0.573730232937,0.819027299509,0.00294098197206,0.0,0.818994219301,-0.573664910222,-0.0117382466138,0.0,-0.00792695888461,0.00914341023717,-0.999926778005,0.0,0.584307613379,0.159593807167,0.30417940308,1.0,-0.124812,-0.164038628571,1.937
0.378590665273,0.189251564552,-0.125766519708,-1.88634892972,0.0392249132968,2.06843280019,0.0619023372199,-0.187547054218,-0.492919318878,-0.00578115482531,-0.664949890167,-0.0578218468299,0.177410036282,-0.180127446173,0.573808927151,0.818972179224,0.00293797188798,0.0,0.818938870263,-0.573743385963,-0.0117643842764,0.0,-0.00794921453621,0.00915670439397,-0.999926479674,0.0,0.582312522435,0.156911390223,0.304158065876,1.0,-0.126604,-0.166393828571,1.953
0.374971786776,0.179835868277,-0.125934441412,-1.89909537292,0.0380047930929,2.07177093757,0.0585547014066,-0.191949957479,-0.502573406337,-0.00993278378422,-0.664050628125,-0.0610984613187,0.191332593502,-0.167172422051,0.573953065659,0.818871221439,0.00292369973533,0.0,0.818837491887,-0.573887285739,-0.0118022052154,0.0,-0.00798676586494,0.00916812333799,-0.99992607581,0.0,0.579909367232,0.153636035912,0.304176080185,1.0,-0.128732,-0.169190628571,1.972
0.371891749335,0.171848847838,-0.125948214327,-1.90987825244,0.036875186148,2.0746925894,0.0557202967536,-0.193918743906,-0.494716420803,0.00223473740371,-0.683100403761,-0.0666849363905,0.176141665931,-0.183656807579,0.573934939421,0.818883784893,0.00296294657115,0.0,0.818851090329,-0.573869629443,-0.0117169608389,0.0,-0.00789463618456,0.00915116142785,-0.999926962815,0.0,0.57785686601,0.150938726548,0.30419134684,1.0,-0.130524,-0.171545828571,1.988
0.36854733652,0.163325327955,-0.125968683304,-1.92152219659,0.0357389182548,2.07757602452,0.0525280599314,-0.204818521695,-0.507231000063,-0.00396020958567,-0.672495605986,-0.0630039834745,0.170079745019,-0.188401425034,0.573847057787,0.818946041702,0.00277163326439,0.0,0.818909963515,-0.573781435933,-0.0119198295242,0.0,-0.00817154281978,0.00911005259393,-0.999925113611,0.0,0.575555963751,0.148029737309,0.304104339811,1.0,-0.132428,-0.174048228571,2.005
0.36489633625,0.154091231782,-0.12598720606,-1.93359256256,0.0344705738653,2.08087728898,0.0491603391125,-0.208819202798,-0.510686147203,0.00104645931624,-0.685686449834,-0.0732708839816,0.182810500668,-0.194564773878,0.573807468832,0.818972648675,0.0030880959347,0.0,0.818941662759,-0.573741852098,-0.0116441852311,0.0,-0.00776464883291,0.00921066820751,-0.999927434277,0.0,0.573245729158,0.144938500484,0.304253322998,1.0,-0.134444,-0.176697828571,2.023
0.361546601328,0.145905625644,-0.126007315489,-1.94467200366,0.0333535178072,2.08343784758,0.0460758470833,-0.209127636095,-0.506780619142,-0.00532878268482,-0.685985396115,-0.072169605988,0.150201471549,-0.192312949706,0.573782843466,0.818990867853,0.0028202514007,0.0,0.818955366126,-0.573716982587,-0.011902902399,0.0,-0.0081304987793,0.00913951716648,-0.999925179309,0.0,0.570992544067,0.14210301904,0.304158046703,1.0,-0.136236,-0.179053028571,2.039
0.357900158938,0.137030319616,-0.126093084163,-1.95620407329,0.0322065059758,2.08644053503,0.0427304571796,-0.215020412511,-0.518374167936,-0.00464401168325,-0.684820767955,-0.0729845504083,0.177596813443,-0.204611680193,0.573825398771,0.818960064494,0.00309376649778,0.0,0.818928301321,-0.573758752958,-0.0117506426051,0.0,-0.0078483825237,0.00927656872411,-0.999926171357,0.0,0.568730226404,0.139066618899,0.304275037023,1.0,-0.13814,-0.181555428571,2.056
0.354583391628,0.1291928012,-0.126154257739,-1.96654909309,0.0310856748447,2.08893343961,0.0396457613063,-0.219091125726,-0.529435817211,-0.00601508830045,-0.689092956592,-0.0836872943594,0.15742926911,-0.208737156717,0.573770629892,0.818998636457,0.00304050260173,0.0,0.818966257491,-0.573704266394,-0.0117656582073,0.0,-0.00789186065695,0.00924103607589,-0.999926158167,0.0,0.5666386188,0.136322820882,0.30427085007,1.0,-0.13982,-0.183763428571,2.071
0.350699282197,0.120194739296,-0.126276788762,-1.97827854099,0.0298343952668,2.09173753545,0.0362224939811,-0.230762209715,-0.543407548392,-0.002703897856,-0.679503900482,-0.0770563563737,0.173572766209,-0.210441625934,0.573908828578,0.818901704589,0.00306620335265,0.0,0.818869728358,-0.573842437907,-0.0117461200739,0.0,-0.00785955146457,0.00925220125199,-0.999926309396,0.0,0.564260729976,0.133138208213,0.304307312092,1.0,-0.141724,-0.186265828571,2.088
0.346220426102,0.110144764582,-0.126355636359,-1.99142695023,0.0284172447154,2.09492423225,0.0321051149625,-0.237141751048,-0.537819251219,-0.00154555548188,-0.701959551698,-0.0756577319218,0.151909301312,-0.223600301626,0.573867910568,0.818930250487,0.00310047702583,0.0,0.818898819307,-0.573801525768,-0.011716640536,0.0,-0.0078162034071,0.00926295933967,-0.999926549577,0.0,0.561576309699,0.12956120548,0.304302272918,1.0,-0.143852,-0.189062628571,2.107
0.342419029837,0.101569932611,-0.126358261404,-2.00255226151,0.0271632789307,2.09744237595,0.0286682841232,-0.243102544388,-0.532183568832,-0.00106613611859,-0.679291461759,-0.0798603846016,0.166634161693,-0.221776893926,0.573792104383,0.818983620167,0.00303277870158,0.0,0.818951313356,-0.573725966879,-0.0117476883883,0.0,-0.00788133221205,0.00922460654502,-0.999926392909,0.0,0.559235318733,0.12657564261,0.304299427903,1.0,-0.145644,-0.191417828571,2.123
0.338289494448,0.0923802592296,-0.126363612814,-2.01433968975,0.0259464518479,2.10021062442,0.0248751708311,-0.2486664291,-0.534852638202,-0.00023275008277,-0.705747375147,-0.074445372278,0.151681865263,-0.222330741171,0.573706764321,0.81904280775,0.00318975644039,0.0,0.819012138316,-0.57363962351,-0.0117237592602,0.0,-0.00777263966567,0.00933862903132,-0.999926185316,0.0,0.556759518746,0.123400605513,0.304340901432,1.0,-0.147548,-0.193920228571,2.14
0.334486677205,0.0842564997608,-0.126430355799,-2.02491451412,0.0248023770086,2.10240352267,0.0214344903033,-0.256292774199,-0.541261490205,-0.00712742659886,-0.699800613424,-0.0829977563711,0.146285813149,-0.228802725901,0.573695550036,0.819051408691,0.00299210482913,0.0,0.819017197754,-0.573627975184,-0.011938290098,0.0,-0.00806187350348,0.00929970826498,-0.999924257942,0.0,0.554470299067,0.120467053117,0.304264034938,1.0,-0.149228,-0.196128228571,2.155
0.33007628068,0.074875720278,-0.126550318331,-2.03660640408,0.0234398653005,2.10515208732,0.0174868497592,-0.260926550852,-0.545870103835,-0.0057921582361,-0.689479008892,-0.0851441549113,0.15651959882,-0.224993930168,0.573718901474,0.81903396317,0.00327660895785,0.0,0.819004621123,-0.573651712333,-0.0116572045611,0.0,-0.00766816174769,0.00937169690733,-0.999926682609,0.0,0.552020539831,0.117115324917,0.304407962942,1.0,-0.151132,-0.198630628571,2.172
0.325499071683,0.0655296820906,-0.126687553154,-2.04866105169,0.0220968052034,2.10758926341,0.0134529835775,-0.279098860521,-0.548979832651,-0.0140888469998,-0.712435350061,-0.0807941913438,0.134071408578,-0.236191920694,0.573819034729,0.818964645089,0.00306143394476,0.0,0.818931581123,-0.573751469635,-0.011877012775,0.0,-0.00797050478395,0.0093225404347,-0.999924777817,0.0,0.549374180259,0.113656938271,0.304312929494,1.0,-0.153036,-0.201133028571,2.189
0.320761157789,0.0560037616626,-0.126826443763,-2.06046136407,0.020707606806,2.11013773052,0.00926162530961,-0.277734021123,-0.557642611389,-0.00884426307315,-0.690738938107,-0.0756768178321,0.156610966421,-0.255076195778,0.573887227949,0.81891619413,0.00323473191675,0.0,0.81888604106,-0.573819829138,-0.0117133405135,0.0,-0.00773623986464,0.009371193755,-0.999926162934,0.0,0.546826193556,0.110159954776,0.30441741189,1.0,-0.15494,-0.203635428571,2.206
0.316287792559,0.047101271808,-0.126855839938,-2.07174232055,0.0194442695482,2.11244540896,0.00530022777908,-0.282169225187,-0.554938757339,-0.0013985675087,-0.720122730669,-0.0770121425226,0.135997377573,-0.24830487148,0.573873833105,0.818925756967,0.00318985182887,0.0,0.818894378869,-0.573805817715,-0.0118163748303,0.0,-0.00784652923545,0.0093934409022,-0.999925094818,0.0,0.544308485229,0.106936656107,0.304367772308,1.0,-0.156732,-0.205990628571,2.222
0.31140473019,0.037470371163,-0.126881226896,-2.08364170837,0.0180676931627,2.114814363,0.000959174445111,-0.292349535839,-0.578253680499,-0.0029357966567,-0.682571128086,-0.0784548856728,0.151700162957,-0.2622402718,0.573823229475,0.818960906969,0.00326819084193,0.0,0.818930372641,-0.573754735942,-0.0118023154547,0.0,-0.00779064498962,0.00944904543693,-0.999925007884,0.0,0.541632098531,0.103477001517,0.304415436604,1.0,-0.158636,-0.208493028571,2.239
0.305749549149,0.0267019142599,-0.12701477665,-2.09695606547,0.0164325617689,2.11746107085,-0.00403349125848,-0.302627532132,-0.575961332548,-0.00563297283362,-0.714171767016,-0.0889701377802,0.132158510596,-0.26915047776,0.573841084204,0.818948293143,0.00329395507991,0.0,0.818918513723,-0.573773011163,-0.0117365430792,0.0,-0.00772178806562,0.00943257300994,-0.999925697517,0.0,0.538629600705,0.0994743977573,0.304430992226,1.0,-0.15998,-0.210259428571,2.258
0.300864185383,0.0176392644518,-0.127101030198,-2.10812171203,0.0150894264661,2.11948769566,-0.0083415322286,-0.305683600434,-0.573747087749,-0.00693659853139,-0.674238999318,-0.0841913964496,0.137147353204,-0.266614480602,0.573849954256,0.81894233912,0.0032283273361,0.0,0.818911292606,-0.573781604021,-0.0118200097192,0.0,-0.00782770227821,0.0094268072437,-0.999924928373,0.0,0.536050296306,0.0960876077239,0.304417369036,1.0,-0.15998,-0.210259428571,2.274
0.295567312537,0.00804490869048,-0.127226333074,-2.11984473312,0.0136502286468,2.12165177013,-0.0129484623993,-0.313215027459,-0.559406904063,-7.69787563531e-06,-0.697183460103,-0.0751350430165,0.109249201624,-0.275516292513,0.573930237607,0.818886049107,0.00323540403114,0.0,0.81885508387,-0.573861838406,-0.0118190077299,0.0,-0.00782189623473,0.00943279456448,-0.999924917344,0.0,0.533338955088,0.0924577343088,0.304421797446,1.0,-0.15998,-0.210259428571,2.291
0.29056586696,-0.000956789799167,-0.127250452411,-2.13080864057,0.0123606953699,2.12354239338,-0.0173545135787,-0.316659505415,-0.569898476285,0.00391506773052,-0.672856635143,-0.0834709840791,0.11965098791,-0.275594542184,0.573899414856,0.818907745647,0.00321133134459,0.0,0.818875654314,-0.57383013083,-0.0119327542857,0.0,-0.00792921888792,0.00947806424033,-0.999923643978,0.0,0.530740168754,0.0891249598018,0.304404168955,1.0,-0.15998,-0.210259428571,2.307
0.285539363975,-0.00994877087006,-0.127235898371,-2.14143906243,0.0110094385643,2.1255528573,-0.0218004247454,-0.315543424305,-0.553235008598,0.000853494021276,-0.667382763526,-0.0821406702186,0.118832904786,-0.277222359893,0.573785785443,0.818986348975,0.00346114394285,0.0,0.818958494131,-0.573716859312,-0.0116917548762,0.0,-0.00758981713417,0.00954327972397,-0.999925657481,0.0,0.528251102615,0.0858464962574,0.304518855438,1.0,-0.15998,-0.210259428571,2.323
0.280072917867,-0.0193868026,-0.127261056181,-2.15293193065,0.00956932393532,2.12729376423,-0.0266354402039,-0.326031307705,-0.553665208822,-0.00453883061537,-0.679774849274,-0.080975858129,0.0986046881819,-0.287159136518,0.573694143324,0.819051503722,0.00322661858313,0.0,0.819019524672,-0.573624727818,-0.0119346865308,0.0,-0.00792440731242,0.00948970608965,-0.999923571703,0.0,0.525436582531,0.0822873527797,0.304427663848,1.0,-0.15998,-0.210259428571,2.34
0.274457511845,-0.0288929779279,-0.127401598241,-2.16394366048,0.00813951185577,2.12918953034,-0.0314407242239,-0.337373847424,-0.560239501604,-0.00726956892724,-0.646916097404,-0.0776992149405,0.118609223506,-0.291607155879,0.573834842435,0.818951831871,0.00349536597053,0.0,0.818924357371,-0.573765717373,-0.0116852631198,0.0,-0.00756429211034,0.00956803566668,-0.999925614323,0.0,0.522809787594,0.0786595221338,0.30457705903,1.0,-0.15998,-0.210259428571,2.357
0.269097118482,-0.0376642653821,-0.127518018667,-2.17443705572,0.00680876944013,2.13078375239,-0.0360396611298,-0.33241391586,-0.551466881361,0.000848059216297,-0.644362677537,-0.0812915753476,0.0872226572411,-0.290572279464,0.573928167208,0.818886831759,0.0034003762123,0.0,0.8188573933,-0.573858435494,-0.0118242272679,0.0,-0.00773151828785,0.00957086455478,-0.999924308224,0.0,0.520056570494,0.0750304578521,0.304522251609,1.0,-0.15998,-0.210259428571,2.374
0.26341004348,-0.0469640043937,-0.127536432863,-2.18543350226,0.00548307797795,2.13238333467,-0.0410550600767,-0.333384452701,-0.555453917452,-0.00294912426863,-0.626587188587,-0.0783199733597,0.0965614235764,-0.291861249438,0.573896088114,0.81890934109,0.00339382140578,0.0,0.818878850717,-0.573825191996,-0.0119508903919,0.0,-0.00783938648902,0.00963788337685,-0.999922824634,0.0,0.517465766538,0.0717171869359,0.304494818528,1.0,-0.15998,-0.210259428571,2.39
0.257627787709,-0.0562363111994,-0.127558430062,-2.19611261647,0.00398478508311,2.13409507708,-0.0461334475635,-0.342281228409,-0.535450760511,-0.000656299105148,-0.638631118133,-0.091875524059,0.083936176794,-0.2986252758,0.573767996739,0.818998443715,0.00354711303178,0.0,0.818971363511,-0.573698360495,-0.0116980261348,0.0,-0.0075458375489,0.00961712217676,-0.999925282857,0.0,0.514660019275,0.067972354155,0.304579274087,1.0,-0.15998,-0.210259428571,2.408
0.251775552928,-0.0654144745571,-0.127585246421,-2.20699130366,0.00258313269406,2.13542098563,-0.0512681404899,-0.346796943369,-0.534060405144,-2.08056635243e-05,-0.637829488494,-0.0889414294467,0.0753327078539,-0.309361619262,0.573720204568,0.819032955472,0.00330024576999,0.0,0.819001155612,-0.573649572194,-0.0120009303531,0.0,-0.0079361256764,0.00958826592042,-0.999922538533,0.0,0.511994459927,0.0646334049727,0.304460911437,1.0,-0.15998,-0.210259428571,2.424
0.245752762748,-0.0746356148943,-0.127761809141,-2.21737238032,0.00118274349558,2.13693238339,-0.0564580435357,-0.358469621573,-0.5422565145,-0.0109253499192,-0.614265846677,-0.0761622228836,0.0862109818824,-0.307344948697,0.573862274529,0.818932357174,0.00355403249558,0.0,0.818904759106,-0.573791828318,-0.0117762544822,0.0,-0.00760482745474,0.00966854845675,-0.999924340023,0.0,0.509370922301,0.0609905778151,0.304581322705,1.0,-0.15998,-0.210259428571,2.441
0.239681379395,-0.0837305890746,-0.127849294804,-2.22788139718,-0.000174734395423,2.13820766483,-0.061747171401,-0.347373318669,-0.537507844665,0.000362499752079,-0.62613544952,-0.0831517056319,0.0750494691002,-0.306404990915,0.573896446061,0.818908658463,0.00349645453411,0.0,0.818879358031,-0.573824993919,-0.0119256130525,0.0,-0.0077597841843,0.00970742829029,-0.999922772811,0.0,0.506615567411,0.0574031624079,0.304533011031,1.0,-0.15998,-0.210259428571,2.458
0.23361499611,-0.0928321419222,-0.127849545903,-2.23822058643,-0.0015321851221,2.13938374865,-0.0670937901788,-0.357344005005,-0.541846059614,-0.00085230933831,-0.579116360584,-0.0834457217028,0.0841568526275,-0.314064799437,0.573797415398,0.818978078457,0.00348998430392,0.0,0.818948022964,-0.573725164623,-0.0120132453016,0.0,-0.00783644360965,0.00975147259654,-0.999921746405,0.0,0.503863442818,0.0539066597704,0.304530955913,1.0,-0.15998,-0.210259428571,2.475
0.227368123195,-0.101865611494,-0.127918162609,-2.24831600612,-0.00299145239002,2.14061540298,-0.072504540739,-0.372121066287,-0.527805290173,-0.00524938457703,-0.602158059026,-0.0775308931352,0.0597922010524,-0.317964101366,0.573795165129,0.818979300984,0.00357210525028,0.0,0.818951167188,-0.573723687291,-0.011868584777,0.0,-0.00767087155681,0.00973570376847,-0.99992318395,0.0,0.501191242324,0.0503210702247,0.30458358824,1.0,-0.15998,-0.210259428571,2.492
0.221422113698,-0.110334586603,-0.128050685074,-2.2579347421,-0.00429287602567,2.14152966728,-0.0776471525381,-0.3819352762,-0.522200634614,-0.0125610007213,-0.603193236488,-0.0843956881041,0.0587533099107,-0.329999109405,0.573882134394,0.818918920547,0.00344155410879,0.0,0.818887915036,-0.573809661018,-0.0120748677488,0.0,-0.00791369302919,0.00974798562379,-0.999921172013,0.0,0.498560814229,0.046918300818,0.304518387993,1.0,-0.15998,-0.210259428571,2.508
0.214971659937,-0.119345854708,-0.128175807653,-2.26772962567,-0.00571052704406,2.14265275272,-0.0832279587124,-0.384954913922,-0.529842616638,-0.00407481505092,-0.571445228713,-0.0864316852476,0.0693722009184,-0.334134990818,0.573953108746,0.818868198789,0.00366727065946,0.0,0.818841327875,-0.57388130951,-0.011826633502,0.0,-0.00758002192404,0.00979103434868,-0.999923336518,0.0,0.495923539467,0.0432953066786,0.304636382679,1.0,-0.15998,-0.210259428571,2.525
0.208584818699,-0.128173772884,-0.128172016375,-2.27756530428,-0.007035796524,2.14353091936,-0.0888986950765,-0.374503497196,-0.52194158198,-0.000185029090433,-0.573497975767,-0.0836845375622,0.0465902216236,-0.336549337663,0.573823853541,0.818958971303,0.00362426982099,0.0,0.81893065498,-0.573751089056,-0.0119589732644,0.0,-0.0077146282161,0.00983055905001,-0.999921919262,0.0,0.493176768222,0.0398136510318,0.304599999385,1.0,-0.15998,-0.210259428571,2.542
0.2020027182,-0.13700166661,-0.128229818894,-2.28735117157,-0.00847504210372,2.14435482501,-0.0946167152938,-0.387463203339,-0.517619922372,-0.000678374955798,-0.57163897552,-0.0808125895628,0.0493212673742,-0.339167910608,0.573804821845,0.818972786062,0.0035141168857,0.0,0.818942761538,-0.573732125609,-0.0120394464006,0.0,-0.00784396823154,0.00978634140113,-0.999921346749,0.0,0.490418612826,0.0362334166285,0.304556124852,1.0,-0.15998,-0.210259428571,2.559
0.195746198354,-0.145382662862,-0.128341242599,-2.29618854158,-0.0097415462977,2.14524355312,-0.100116003298,-0.397785316717,-0.519874462939,-0.0120592368626,-0.5564677248,-0.0803596871805,0.057046886934,-0.347421167187,0.573822216357,0.818959158322,0.00383509035484,0.0,0.818934564556,-0.573749999989,-0.0117415241545,0.0,-0.00741558842103,0.00987842565384,-0.999923709967,0.0,0.487956396195,0.0328651264148,0.304705511164,1.0,-0.15998,-0.210259428571,2.575
0.188955332231,-0.154076120622,-0.128493118811,-2.30573539595,-0.0111200447808,2.14586238167,-0.106029249461,-0.393110243655,-0.508433690809,-0.00627438351911,-0.562693527806,-0.0839235881508,0.0394880981337,-0.347549762718,0.573900956606,0.818904587589,0.00370342196816,0.0,0.818877274131,-0.573827858678,-0.0119308599524,0.0,-0.00764525644598,0.00987997024607,-0.999921965076,0.0,0.485187795279,0.029229465327,0.304638052436,1.0,-0.15998,-0.210259428571,2.592
0.18260081271,-0.162253627625,-0.128507840754,-2.31456971693,-0.0124267127625,2.14640368707,-0.111593847337,-0.404109769734,-0.511914971712,0.00170438494337,-0.543872632889,-0.0771649774826,0.0343065582062,-0.343607916986,0.573833939888,0.81895178467,0.00365112585875,0.0,0.818923511217,-0.573760683742,-0.0119878050417,0.0,-0.00772271055015,0.00986919221836,-0.99992147631,0.0,0.482441865872,0.0257148044718,0.304628683815,1.0,-0.15998,-0.210259428571,2.609
0.175278470007,-0.171441852458,-0.128546106113,-2.3241700622,-0.0137630301113,2.14713279846,-0.118061768793,-0.410962389535,-0.503068769461,0.000142578809814,-0.539840146036,-0.0787429116669,0.0364761161244,-0.362581595366,0.573796788409,0.818976617285,0.00391060782392,0.0,0.818952227092,-0.57372328438,-0.0118148044041,0.0,-0.00743258488034,0.00998208999557,-0.999922554282,0.0,0.479797756302,0.0221837827893,0.304724320094,1.0,-0.15998,-0.210259428571,2.626
0.167828194184,-0.180512389673,-0.128714284655,-2.3339053975,-0.0152454288938,2.14755298317,-0.124556727944,-0.422856785633,-0.504490952869,-0.0130083786079,-0.532027083762,-0.0900699307113,0.0200526584122,-0.370801674581,0.573871692475,0.818924845191,0.00375837812616,0.0,0.81889760564,-0.573797567526,-0.0119920756813,0.0,-0.00766420805395,0.00995983137374,-0.999921027719,0.0,0.476858232143,0.018344005825,0.304660217029,1.0,-0.15998,-0.210259428571,2.644
0.161096407374,-0.18855082707,-0.128824140813,-2.34232164081,-0.0164701805325,2.14797081949,-0.130442412285,-0.412024181633,-0.500232186843,-0.00303068616647,-0.512049330837,-0.0727262104336,0.0246415623916,-0.366850715609,0.573941266101,0.818875720068,0.00383732332856,0.0,0.818849314968,-0.573866587287,-0.0119869209413,0.0,-0.00761383346423,0.0100221711185,-0.999920789676,0.0,0.474311233858,0.0149525297027,0.304681411853,1.0,-0.15998,-0.210259428571,2.66
0.153995529462,-0.197071214568,-0.128840154443,-2.35106364906,-0.0178288897063,2.1484370478,-0.136790675179,-0.426020732689,-0.498897738683,-0.00253596974217,-0.518507581908,-0.079549423335,0.0231984298806,-0.377475944265,0.573783641355,0.818985444609,0.00399015453996,0.0,0.818962153011,-0.573709961011,-0.0117736771412,0.0,-0.00735342037872,0.0100235218789,-0.999922725123,0.0,0.471650976217,0.0114549324119,0.304765228713,1.0,-0.15998,-0.210259428571,2.677
0.146293369571,-0.205936502786,-0.128943444279,-2.36048251081,-0.0192183689564,2.14863672142,-0.143581957554,-0.430665636483,-0.486681257851,-0.0105956067097,-0.525340656194,-0.0732284055679,0.0133537779228,-0.38618917829,0.573789233658,0.818982356575,0.00381600012464,0.0,0.818955153767,-0.573713975699,-0.012061389108,0.0,-0.00768892030798,0.010046021599,-0.999919975775,0.0,0.468682664232,0.00767736660722,0.304656070382,1.0,-0.15998,-0.210259428571,2.695
0.139263228079,-0.213823881214,-0.129125188305,-2.36849263065,-0.0204064863117,2.1488675461,-0.149717429945,-0.444759057279,-0.482215310977,-0.0137196444364,-0.482684788254,-0.0739695479507,0.0179105353562,-0.388571667757,0.573955989006,0.818864814771,0.00396039343375,0.0,0.818839451122,-0.57388010938,-0.012013336159,0.0,-0.00756465291467,0.0101382478146,-0.999919992778,0.0,0.466158708508,0.00424009573811,0.304708386618,1.0,-0.15998,-0.210259428571,2.711
0.131859324963,-0.222147130899,-0.129157648902,-2.37687837778,-0.0217300209106,2.14909782879,-0.156268818185,-0.436081094524,-0.482141494146,0.000502763732463,-0.502732824693,-0.083742425052,0.00873312987939,-0.395020574112,0.573891548015,0.818909425374,0.00407321147836,0.0,0.818886353715,-0.573816394086,-0.0118588565228,0.0,-0.00737419583392,0.0101413900762,-0.999921383631,0.0,0.463488426932,0.000724628022709,0.304773009143,1.0,-0.15998,-0.210259428571,2.728
0.124306283381,-0.230335692568,-0.129209852276,-2.3853732813,-0.0230610504548,2.14914865347,-0.162976962768,-0.448259713786,-0.480421521641,-0.00188481161505,-0.486969104629,-0.0832208109065,0.000230601990946,-0.391440569345,0.573823382874,0.818957907818,0.00392649844596,0.0,0.818932020019,-0.573747539417,-0.0120355515574,0.0,-0.00760393770037,0.0101220110935,-0.9999198593,0.0,0.460710369454,-0.00282514265162,0.304688794901,1.0,-0.15998,-0.210259428571,2.745
0.117084069677,-0.238071363735,-0.129334379975,-2.39313058027,-0.0242842853991,2.1491741156,-0.169367330479,-0.455619382223,-0.48740343144,-0.00990805321177,-0.480593689437,-0.0797274927976,0.00892700692882,-0.400635924505,0.573860413117,0.818931769675,0.00396607798017,0.0,0.818906330782,-0.573784327189,-0.0120297206282,0.0,-0.00757599287867,0.0101514222621,-0.999919773261,0.0,0.458149888739,-0.00620950196933,0.304707510351,1.0,-0.15998,-0.210259428571,2.761
0.109290039583,-0.246256267507,-0.129479252927,-2.40109515652,-0.0255530556961,2.14925343861,-0.176291794264,-0.4559155714,-0.484893090482,-0.00490065216762,-0.475700213432,-0.0747081958675,-0.000296022800225,-0.415241715815,0.573898575789,0.818903846523,0.00420258935923,0.0,0.818882573796,-0.573823146504,-0.0117929542517,0.0,-0.00724589205493,0.0102095834066,-0.999921627656,0.0,0.455350298851,-0.0100284596884,0.304820503414,1.0,-0.15998,-0.210259428571,2.779
0.101961555534,-0.253787740646,-0.129506409034,-2.40877127771,-0.0267155054996,2.1491963474,-0.182831542158,-0.463960770579,-0.471559082327,0.0044031198679,-0.482327478353,-0.0797336173908,-0.00841626353213,-0.415293302521,0.573852193787,0.818936741436,0.00412554392919,0.0,0.818913517173,-0.573775714172,-0.0119510718825,0.0,-0.00742017781119,0.0102368095975,-0.999920071151,0.0,0.452903292813,-0.0131249161879,0.304739028124,1.0,-0.15998,-0.210259428571,2.794
0.0940196982749,-0.261767816524,-0.129604380132,-2.41671809722,-0.0279977489878,2.1490711541,-0.189903678066,-0.467390341657,-0.474500729411,-0.00630416761168,-0.458388530856,-0.0749787600759,-0.00631023256056,-0.410658047869,0.573846725248,0.818940708028,0.00409872644934,0.0,0.818916813929,-0.573769903008,-0.012004047968,0.0,-0.00747902165917,0.010245196873,-0.999919546852,0.0,0.450164514434,-0.0166994611625,0.304710333449,1.0,-0.15998,-0.210259428571,2.811
0.0854567359151,-0.270237631851,-0.129779622487,-2.42472802836,-0.0293034709975,2.1489890054,-0.19752502776,-0.478020825378,-0.469737498558,-0.00424936367609,-0.447913149331,-0.0790701876421,-0.00158576003236,-0.427050001141,0.57394028813,0.818873665583,0.00438319258965,0.0,0.818854925128,-0.573864534568,-0.0116984811098,0.0,-0.00706435534345,0.0103036268354,-0.999921962034,0.0,0.447384331969,-0.0205386415232,0.304852625772,1.0,-0.15998,-0.210259428571,2.829
0.0778896804455,-0.277608059252,-0.129816278536,-2.4320025025,-0.0304793952147,2.14876860882,-0.204369342816,-0.472429487796,-0.459873437674,-0.00185865631613,-0.46528734109,-0.0731745075494,-0.0168579185183,-0.428048766571,0.573819362959,0.818958671659,0.00433355608506,0.0,0.818938895117,-0.573743220962,-0.011770699427,0.0,-0.00715350566789,0.0103033712508,-0.999921330854,0.0,0.444799897144,-0.0238351910896,0.304809186199,1.0,-0.15998,-0.210259428571,2.845
0.069153244298,-0.285812390307,-0.129892168192,-2.44002429552,-0.0318305389752,2.14843983351,-0.21216753526,-0.481797625903,-0.455851518548,-0.00678755159247,-0.445514483105,-0.0753475248564,-0.021629439529,-0.433343834384,0.573797879986,0.818974141055,0.00425395202215,0.0,0.818953024799,-0.573721571711,-0.0118426444059,0.0,-0.00725837523624,0.0102792690372,-0.999920823174,0.0,0.441894829102,-0.0276175497178,0.304766757579,1.0,-0.15998,-0.210259428571,2.863
0.0617722540624,-0.292649653521,-0.130058252931,-2.44648746024,-0.0328111158456,2.14817237284,-0.218799074892,-0.492064292485,-0.458779507143,-0.0123648046279,-0.427349350035,-0.0656717661836,-0.0164723420196,-0.44135842596,0.573900448441,0.818901313839,0.00443400191196,0.0,0.818882435209,-0.573823371245,-0.0117916419524,0.0,-0.00711199408981,0.0103983550883,-0.999920643727,0.0,0.439524514244,-0.0308064221577,0.30481422481,1.0,-0.15998,-0.210259428571,2.878
0.0538844308466,-0.299887657072,-0.130153969017,-2.45320132441,-0.0339014402387,2.14790233546,-0.225924594385,-0.482920450647,-0.441306471007,-0.000990441149043,-0.415795572139,-0.076095722987,-0.0279733735974,-0.4485327343,0.57388134296,0.818913522427,0.00464692267176,0.0,0.818898476983,-0.57380520638,-0.0115592572319,0.0,-0.00679973454969,0.0104392009494,-0.999922390335,0.0,0.436882385825,-0.0343605704914,0.304915578199,1.0,-0.15998,-0.210259428571,2.895
0.045370118995,-0.307374087861,-0.130206597247,-2.46050143886,-0.035193621623,2.1473694276,-0.23352478086,-0.503963539112,-0.438858921546,-0.00577398310312,-0.433247112269,-0.0739150660877,-0.0341358284511,-0.446551141496,0.573866942316,0.818924882841,0.00441765557752,0.0,0.818905855225,-0.573790017282,-0.0117882673145,0.0,-0.00711903582276,0.0103827408377,-0.999920755871,0.0,0.434250762364,-0.0377131121924,0.30480613261,1.0,-0.15998,-0.210259428571,2.911
0.0367603480266,-0.31489317461,-0.130359350792,-2.46758900905,-0.0363180455676,2.14688536218,-0.241300282889,-0.514938494388,-0.444984637517,-0.0129776050786,-0.408287920963,-0.0708303616008,-0.0262791882243,-0.461206697955,0.573927200581,0.818882248349,0.00449206781776,0.0,0.818863614801,-0.573849176431,-0.0118427178493,0.0,-0.00712015908641,0.0104754504786,-0.999919780918,0.0,0.431514625293,-0.0412951842522,0.304798666653,1.0,-0.15998,-0.210259428571,2.928
0.0280952760547,-0.322305609112,-0.130472834987,-2.47434612873,-0.0374913815169,2.14643351032,-0.249189660019,-0.507706683683,-0.432379986557,-0.00388878839749,-0.385056293725,-0.0756175660691,-0.0304838147966,-0.459186262698,0.573891524838,0.818906428698,0.00463957516659,0.0,0.818890774126,-0.5738146222,-0.0116372806872,0.0,-0.00686772012086,0.0104780437932,-0.99992151943,0.0,0.428868935084,-0.0448622462449,0.304880229503,1.0,-0.15998,-0.210259428571,2.945
0.0193018645035,-0.329648313979,-0.130521895818,-2.48108863226,-0.0386249162782,2.14590731139,-0.257186661792,-0.523772868623,-0.427580252831,-0.00636563634874,-0.404930906991,-0.065920180167,-0.0402320635828,-0.477500482505,0.573836323456,0.818944623852,0.00472481184065,0.0,0.818930515376,-0.573759855102,-0.0115406482247,0.0,-0.00674037423538,0.0104919377456,-0.999922240275,0.0,0.426180131331,-0.0484077923902,0.304916026882,1.0,-0.15998,-0.210259428571,2.962
0.0103672990579,-0.336840401624,-0.13067919253,-2.48787672375,-0.0397426490102,2.14517858413,-0.26528352107,-0.532641438499,-0.424573109276,-0.0117220148076,-0.396121870227,-0.0643707623579,-0.0416392144456,-0.475010420421,0.573899607611,0.818900768463,0.00463882482144,0.0,0.818883931984,-0.573820927443,-0.0118066112154,0.0,-0.00700672313712,0.0105746722485,-0.999919537832,0.0,0.423388674194,-0.0520008329166,0.304830882707,1.0,-0.15998,-0.210259428571,2.979
0.00193003603222,-0.343622101306,-0.130798052917,-2.49404491539,-0.0407640312725,2.14457424409,-0.272949555981,-0.521167120754,-0.417570429473,-0.0091594694217,-0.383307474341,-0.0525821955548,-0.0490787847356,-0.480403265824,0.573938708829,0.818872855593,0.00472776713487,0.0,0.81885708959,-0.573859595196,-0.0117889240818,0.0,-0.00694068902283,0.0106376903108,-0.999919329937,0.0,0.420830277089,-0.0553503157453,0.304848303265,1.0,-0.15998,-0.210259428571,2.995
-0.00715593152383,-0.350688244122,-0.130881200786,-2.50032304672,-0.0419179716863,2.14390255072,-0.281246486819,-0.544677928559,-0.4126593949,-0.0111388635033,-0.366356502889,-0.071758239691,-0.0359897311362,-0.498394701362,0.573896075578,0.818902344374,0.00479496779917,0.0,0.818888394989,-0.573818216809,-0.0116274464929,0.0,-0.00677043367179,0.0105996934733,-0.999920900735,0.0,0.41816487695,-0.0589241805827,0.304915152829,1.0,-0.15998,-0.210259428571,3.012
-0.0158305079217,-0.357260442618,-0.131017841758,-2.50616113808,-0.0429452075456,2.14324626148,-0.289176784467,-0.545009011131,-0.401520256582,-0.00489894265813,-0.377234180771,-0.0603723008712,-0.0405884313222,-0.495861441051,0.573927315041,0.818879870797,0.00489296998067,0.0,0.818867609074,-0.573849819506,-0.0115312776554,0.0,-0.00663502896122,0.0106250144176,-0.999921539652,0.0,0.415637472696,-0.0623161694939,0.30495982027,1.0,-0.15998,-0.210259428571,3.028
-0.0266304495959,-0.365323657119,-0.131124692667,-2.51355506942,-0.0442644187241,2.14225735507,-0.299198446123,-0.537793424125,-0.407600893769,-0.00754811771632,-0.365168131993,-0.0704071651452,-0.0492223903881,-0.502591206342,0.573768769758,0.818991729892,0.00476362467731,0.0,0.818976645086,-0.573689897917,-0.0117431994412,0.0,-0.00688487242512,0.0106393832942,-0.999919697803,0.0,0.412375727425,-0.0664490307508,0.304876531317,1.0,-0.15998,-0.210259428571,3.048
-0.0355186072723,-0.371691119409,-0.131206457372,-2.51923128633,-0.0452697177588,2.1415069224,-0.307297226605,-0.562414630434,-0.39582515958,-0.00600364979225,-0.35399495458,-0.0506270113531,-0.0452271831043,-0.509002425562,0.573802603328,0.818967945577,0.0047773876326,0.0,0.818952954317,-0.573723549099,-0.0117513712646,0.0,-0.00688322911779,0.0106556282938,-0.999919536134,0.0,0.409811387638,-0.0698214637682,0.304872487799,1.0,-0.15998,-0.210259428571,3.064
-0.0450960936312,-0.378354509745,-0.13137339765,-2.52502241378,-0.0462581752995,2.14067672059,-0.315956050249,-0.56491621204,-0.400656293401,-0.00898050373057,-0.332473602363,-0.0694210208948,-0.0429233132607,-0.5127526902,0.574005566857,0.818824922275,0.00490945819238,0.0,0.818811684048,-0.573926110215,-0.0117044000712,0.0,-0.00676631850755,0.0107385192776,-0.999919447324,0.0,0.407117725573,-0.0734508058983,0.304916399398,1.0,-0.15998,-0.210259428571,3.081
-0.0533944120461,-0.384163557807,-0.131440573061,-2.52999497578,-0.047160680309,2.13999536108,-0.323779291866,-0.555088129485,-0.385560403959,-0.00571308065021,-0.334844519726,-0.0608825206064,-0.0463380724712,-0.523884650711,0.573837629305,0.818941937121,0.00502252112655,0.0,0.818931109134,-0.573759376551,-0.0115222920161,0.0,-0.00655449574778,0.0107252300254,-0.999921000893,0.0,0.404788642769,-0.0765400689763,0.304982832703,1.0,-0.15998,-0.210259428571,3.096
-0.0637106402934,-0.390996637892,-0.131557715382,-2.53610814746,-0.0483119515927,2.13898722543,-0.333247749246,-0.581696131307,-0.379406515319,-0.00963159620459,-0.334426755527,-0.0661950616867,-0.0590816530552,-0.531216637381,0.573852183273,0.818932484744,0.00489939641217,0.0,0.81891912571,-0.573772800528,-0.0117040942138,0.0,-0.00677385297356,0.0107288360075,-0.999919500257,0.0,0.401838926506,-0.0803480288692,0.304909188103,1.0,-0.15998,-0.210259428571,3.114
-0.0729546985791,-0.397028378529,-0.131693956422,-2.54130555128,-0.0492640953419,2.13809925695,-0.34174828277,-0.573412216058,-0.365310561319,-0.00750502358492,-0.319250069537,-0.0547823885586,-0.0475285746748,-0.534348541702,0.573918430954,0.818885843794,0.00493521503599,0.0,0.818872822516,-0.573838719648,-0.0117120142631,0.0,-0.00675891533498,0.0107632615416,-0.99991923137,0.0,0.39926316745,-0.0837408762007,0.304921456715,1.0,-0.15998,-0.210259428571,3.13
-0.082614927195,-0.403235126351,-0.131750958499,-2.54669347458,-0.0502385318623,2.13716333409,-0.350852242611,-0.57306697206,-0.362141595591,-0.00798332725929,-0.313746804984,-0.0560482105919,-0.0506040360251,-0.543742899032,0.573750593921,0.819003498114,0.00492675901177,0.0,0.818990046804,-0.573670430319,-0.0117595712132,0.0,-0.00680492501348,0.0107822351529,-0.999918714897,0.0,0.396560840692,-0.0872122827619,0.304904000586,1.0,-0.15998,-0.210259428571,3.147
-0.094488819043,-0.410414895713,-0.131930922716,-2.5527157316,-0.0514180565589,2.13608228743,-0.361746469945,-0.600516139773,-0.358821952591,-0.0114117259435,-0.297337199476,-0.0511101957614,-0.0465725056652,-0.543630543567,0.573898521199,0.818899392042,0.00500199754007,0.0,0.818887696206,-0.573819339751,-0.011621240518,0.0,-0.00664651183505,0.0107656942628,-0.99991995865,0.0,0.393397093659,-0.0915138059051,0.304961534421,1.0,-0.15998,-0.210259428571,3.167
-0.103889432548,-0.416079855652,-0.132001627346,-2.55748459285,-0.0522323215183,2.13521615388,-0.370579218929,-0.576926905304,-0.357355558061,-0.00375044165118,-0.300031469862,-0.055407994031,-0.0660820055535,-0.566398936577,0.573841892892,0.818938384574,0.0051138179688,0.0,0.818928270133,-0.573762597099,-0.0115636261007,0.0,-0.00653590563626,0.010823751584,-0.999920060974,0.0,0.390867805604,-0.0948328428681,0.304988280949,1.0,-0.15998,-0.210259428571,3.183
-0.113994784048,-0.422007364854,-0.132112022562,-2.56257338023,-0.053158177277,2.1341084691,-0.380063180492,-0.602288999026,-0.343174382604,-0.00877478024952,-0.29089695699,-0.0544109315871,-0.0764317189717,-0.556368010468,0.573792439469,0.818973295452,0.00507194695098,0.0,0.818961427086,-0.573711300845,-0.0117588745153,0.0,-0.00672050032,0.0109010920864,-0.999917997171,0.0,0.388087312454,-0.0983698350482,0.304942491092,1.0,-0.15998,-0.210259428571,3.2
-0.123764900927,-0.427406837422,-0.132275743514,-2.56714974834,-0.0540726421591,2.13316171548,-0.389011758378,-0.613351875419,-0.331641507122,-0.006729242473,-0.280400337614,-0.0541510607472,-0.0520353280776,-0.558144798052,0.573972347597,0.818847332289,0.00505346395329,0.0,0.818834920848,-0.573890749979,-0.0118121289226,0.0,-0.00677232442698,0.0109179983293,-0.999917463061,0.0,0.385496272496,-0.101808112508,0.304921849922,1.0,-0.15998,-0.210259428571,3.216
-0.133288593024,-0.432667581095,-0.132294097753,-2.57153081114,-0.0548772212735,2.13228370146,-0.398111656209,-0.59586055718,-0.323902767586,0.00154392511686,-0.268791631589,-0.0480096255548,-0.057388716576,-0.575823613838,0.573773359884,0.818986492638,0.00509933964363,0.0,0.818974984462,-0.573692140569,-0.011749450048,0.0,-0.00669731875376,0.0109179632409,-0.999917968636,0.0,0.382994878692,-0.105071546132,0.304935237511,1.0,-0.15998,-0.210259428571,3.232
-0.143727611249,-0.438126066977,-0.132428790993,-2.57610580485,-0.0557418561453,2.13122893873,-0.407895777725,-0.620221891948,-0.321746072151,-0.0140082642155,-0.261681429722,-0.0453969633084,-0.062979118589,-0.581502797906,0.573812245986,0.818959206999,0.00510593085193,0.0,0.818947061487,-0.573729822296,-0.0118553106781,0.0,-0.00677972156198,0.0109844209986,-0.999916685465,0.0,0.380260711751,-0.10866052668,0.304911771048,1.0,-0.15998,-0.210259428571,3.249
-0.154309061127,-0.443584381679,-0.132559287384,-2.58041729607,-0.0566447583619,2.13025008692,-0.417738387825,-0.614948851586,-0.320114638313,-0.00266165226634,-0.248921535108,-0.0515844242784,-0.0551056460172,-0.583762243296,0.573902411,0.818895408699,0.00520376424474,0.0,0.818885922603,-0.573821934342,-0.011618103642,0.0,-0.00652810335163,0.0109291573961,-0.999918965409,0.0,0.37742421625,-0.112501498787,0.30500946708,1.0,-0.15998,-0.210259428571,3.267
-0.164142921284,-0.448613257548,-0.132626105873,-2.5845213057,-0.0574529360988,2.12928517198,-0.427111649994,-0.624870588687,-0.306962670791,-0.000920239806196,-0.254148949621,-0.0530416633132,-0.0664500969564,-0.583496291068,0.573780890511,0.818980493338,0.00521422264511,0.0,0.818971233083,-0.573700554089,-0.0115991604104,0.0,-0.00650820899774,0.0109258852958,-0.999919130853,0.0,0.37502328253,-0.115596863877,0.305018704204,1.0,-0.15998,-0.210259428571,3.282
-0.175537837781,-0.454009694638,-0.132822849475,-2.58903520652,-0.058295104366,2.12814918914,-0.437775715087,-0.636018368533,-0.296427976482,-0.00855714230452,-0.244558336186,-0.0473555357861,-0.0650078772592,-0.58579888742,0.573933718465,0.818873243868,0.00523871990892,0.0,0.818862996385,-0.573851094399,-0.0117924344649,0.0,-0.00665039195103,0.0110580825464,-0.999916742083,0.0,0.372080163458,-0.119426191019,0.304963437537,1.0,-0.15998,-0.210259428571,3.3
-0.186767816874,-0.459213711022,-0.132866944095,-2.59322449157,-0.0590718780033,2.12711707469,-0.448561655549,-0.627587817597,-0.282843230131,-0.00592447478038,-0.232800421045,-0.0377848948418,-0.0631933790509,-0.608030724052,0.57378098056,0.81897980301,0.00531182742239,0.0,0.818970668927,-0.573698409716,-0.0117441486892,0.0,-0.00657096014643,0.0110890135059,-0.99991692468,0.0,0.369260675294,-0.123131985507,0.3049846369,1.0,-0.15998,-0.210259428571,3.318
-0.196377411724,-0.463371566325,-0.132978134844,-2.59667337722,-0.0597765472202,2.1262454999,-0.457626962734,-0.645474611989,-0.272102689567,-0.00759418092586,-0.232218756897,-0.0518973643527,-0.0563339486566,-0.605728228905,0.573827280077,0.818947483914,0.00529321557851,0.0,0.818937551419,-0.573743830082,-0.0118343238466,0.0,-0.00665486808535,0.0111258850772,-0.999915960175,0.0,0.366848974507,-0.126310157271,0.304943515357,1.0,-0.15998,-0.210259428571,3.333
-0.207955269828,-0.468330590192,-0.133100838409,-2.60069928599,-0.0605998960588,2.12515703267,-0.468565488871,-0.629000073032,-0.269673937596,-0.00398934438217,-0.21750449928,-0.045393986692,-0.0612570958304,-0.612692636935,0.573876725148,0.818912835164,0.00529335788383,0.0,0.818902418608,-0.573792455274,-0.011907727354,0.0,-0.00671423122074,0.0111685261802,-0.999915087956,0.0,0.363943790013,-0.130100701407,0.304923215376,1.0,-0.15998,-0.210259428571,3.351
-0.217549776839,-0.472421988792,-0.133176901285,-2.60382355726,-0.061258785675,2.12430717583,-0.477784784174,-0.646157003586,-0.267843763514,-0.00916103339366,-0.205637075999,-0.0407296049274,-0.0586208773956,-0.622502921795,0.573790938582,0.818972442783,0.00537062971618,0.0,0.81896403426,-0.573708103324,-0.0117332719307,0.0,-0.00652817827443,0.0111310119991,-0.999916738264,0.0,0.361589786305,-0.133225599369,0.30499499824,1.0,-0.15998,-0.210259428571,3.366
-0.228099248522,-0.476613909917,-0.133334918938,-2.60703284403,-0.0619444376147,2.1234105452,-0.487706090481,-0.663791963685,-0.257690762401,-0.016814304884,-0.201854316934,-0.0450761459931,-0.0554636789139,-0.627930806914,0.573954848471,0.818856940062,0.00546722331529,0.0,0.818850516095,-0.573872931964,-0.0115947035754,0.0,-0.00635703440962,0.0111318892904,-0.999917831201,0.0,0.359035716117,-0.136673992849,0.305055346476,1.0,-0.15998,-0.210259428571,3.382
-0.23904450165,-0.480818315783,-0.133352970609,-2.61042996091,-0.0626162593208,2.12244558791,-0.498352157473,-0.641532600034,-0.248648605092,-0.0101645705553,-0.201956535472,-0.030333451548,-0.0564768281893,-0.639694838815,0.573743867751,0.819004838729,0.00545850317182,0.0,0.818997839763,-0.57366121217,-0.0116661483114,0.0,-0.00642342404102,0.0111640983035,-0.999917047826,0.0,0.356340135382,-0.140147575226,0.305027285759,1.0,-0.15998,-0.210259428571,3.399
-0.249621603359,-0.48462989223,-0.133473344413,-2.61352509594,-0.0632850340398,2.12152850298,-0.508397461488,-0.669521509274,-0.234935730102,-0.0148564869982,-0.194853839875,-0.0330255624754,-0.0552052890156,-0.624505090336,0.573834693442,0.818941355575,0.00543577351797,0.0,0.818933293413,-0.573750771744,-0.0117923604103,0.0,-0.00653859825713,0.0112186174234,-0.999915691124,0.0,0.353582524722,-0.143741413469,0.304984120666,1.0,-0.15998,-0.210259428571,3.416
-0.260921381859,-0.488518186366,-0.133554104945,-2.61663381217,-0.0639621645978,2.12055557346,-0.519209712318,-0.650489631209,-0.221686964247,-0.000108896761693,-0.180943152975,-0.0303751877201,-0.0506857508015,-0.646630276005,0.573812968714,0.818956734001,0.00541217805637,0.0,0.81894773586,-0.573728062058,-0.0118938487161,0.0,-0.0066355568265,0.0112573523455,-0.999914617057,0.0,0.351007460336,-0.147100377159,0.30495510311,1.0,-0.15998,-0.210259428571,3.432
-0.272841243652,-0.492429672229,-0.133665582005,-2.61973161142,-0.0645921630365,2.11964691406,-0.530744513343,-0.670354437845,-0.218931633538,-0.00604342465031,-0.170367228673,-0.0342126304952,-0.0502269710767,-0.644678268377,0.573770382148,0.818986144688,0.00547633815445,0.0,0.818977709667,-0.573684783505,-0.0119175142075,0.0,-0.00661871457732,0.0113231335656,-0.999913985933,0.0,0.348155559477,-0.15085793938,0.304940112269,1.0,-0.15998,-0.210259428571,3.45
-0.283682727354,-0.495861352004,-0.133788237569,-2.6223540821,-0.0651628562606,2.11879988248,-0.541066983074,-0.670888344199,-0.208123436386,0.00315959228769,-0.15781818314,-0.0368097195222,-0.0507539310024,-0.65012177928,0.573895024369,0.818898381279,0.00553976937404,0.0,0.818890845348,-0.573809293241,-0.0118922367816,0.0,-0.00655988859918,0.011361580689,-0.99991393747,0.0,0.345577894559,-0.15426941092,0.304961485368,1.0,-0.15998,-0.210259428571,3.466
-0.294963666519,-0.499354947311,-0.13380874718,-2.62501105977,-0.065698424311,2.11792249491,-0.552064669218,-0.674251121471,-0.200001813488,-0.003381757848,-0.152105393947,-0.036058266973,-0.0515289860623,-0.646514252173,0.573765581548,0.818988679863,0.00559880246148,0.0,0.818982018143,-0.573679842628,-0.0118591324327,0.0,-0.00650070025896,0.0113898998468,-0.999914001841,0.0,0.342899524362,-0.157751921318,0.30498669015,1.0,-0.15998,-0.210259428571,3.483
-0.306644700512,-0.502647869608,-0.133950630054,-2.62751417482,-0.0662773393348,2.11711057935,-0.563213230198,-0.688775347153,-0.191300438229,-0.00932942991175,-0.141703465818,-0.0334121158821,-0.0427934881858,-0.659326928559,0.573916461685,0.818882526175,0.00566129255364,0.0,0.818876904884,-0.573830868501,-0.0118108383895,0.0,-0.00642318842,0.0114145560676,-0.999914221601,0.0,0.34015790919,-0.161399415545,0.3050058229,1.0,-0.15998,-0.210259428571,3.5
-0.318061885097,-0.505706128281,-0.133965787276,-2.62984648755,-0.0667864462651,2.1163815837,-0.574392146668,-0.667469782694,-0.175820106699,-0.00223358379207,-0.134489596252,-0.0251559937362,-0.0350169812591,-0.658858447427,0.573774563116,0.818981675617,0.00570198428404,0.0,0.818977000749,-0.573689599717,-0.0117329587583,0.0,-0.00633803116903,0.0114020867984,-0.999914907268,0.0,0.33750478459,-0.164905010677,0.305022259672,1.0,-0.158188,-0.207904228571,3.517
-0.329663179741,-0.508592999822,-0.134032667321,-2.63202392094,-0.0673183220105,2.11566463245,-0.585486764481,-0.68243023604,-0.164800414173,-0.00351676753868,-0.122825291078,-0.0228141152913,-0.0410277903302,-0.660645902093,0.573887630809,0.818902287685,0.00572514891808,0.0,0.818898352867,-0.573803360644,-0.0116592403644,0.0,-0.00626278949577,0.0113796279418,-0.999915637209,0.0,0.334820885644,-0.168476779325,0.305042333919,1.0,-0.156284,-0.205401828571,3.534
-0.341083339825,-0.511291251058,-0.133996028157,-2.63409134242,-0.0677482778652,2.114938492,-0.596619107424,-0.664667856327,-0.156629268326,0.00411561469584,-0.120488171323,-0.0262970565629,-0.0402725635752,-0.652344785225,0.573797301244,0.818965421977,0.00574818166812,0.0,0.818961663651,-0.573712747907,-0.0116714720787,0.0,-0.00626084749648,0.0114048191803,-0.999915362362,0.0,0.332177755973,-0.171924329989,0.305041891655,1.0,-0.15438,-0.202899428571,3.551
-0.353133793988,-0.513859115977,-0.134007645536,-2.63611337122,-0.0681764106651,2.11419026487,-0.608289808808,-0.676543371448,-0.139711707171,-0.00233385788435,-0.109001083905,-0.0246379147099,-0.0406532845722,-0.646641590089,0.573820086652,0.81894929462,0.0057712994923,0.0,0.81894505286,-0.573734024301,-0.0117905324978,0.0,-0.00634477954578,0.0114922428086,-0.999913832351,0.0,0.32938806713,-0.175559450255,0.305008578447,1.0,-0.152364,-0.200249828571,3.569
-0.36255095707,-0.51569327329,-0.13400343966,-2.6375645086,-0.0685066278734,2.1136627879,-0.617321683507,-0.658901775179,-0.124378583228,0.00421248631584,-0.100923448527,-0.0250825839783,-0.0417698766137,-0.653235890357,0.573909891058,0.818886360181,0.00577173781956,0.0,0.81888164619,-0.573822946255,-0.0118668776925,0.0,-0.00640579201104,0.0115371107759,-0.999912926661,0.0,0.327227096552,-0.178394185817,0.304981335243,1.0,-0.150796,-0.198189028571,3.583
-0.373634063235,-0.51775505265,-0.133960135613,-2.63918103396,-0.0687947045056,2.11308023348,-0.628174514939,-0.653754338413,-0.125222407426,0.00494052978351,-0.0932623997894,-0.0277286882013,-0.0371403370712,-0.632297558415,0.573853508023,0.818925410004,0.00583704391554,0.0,0.818921030359,-0.573765393352,-0.011931736183,0.0,-0.00642223179536,0.0116273705459,-0.999911775705,0.0,0.324696110905,-0.18169560199,0.30495812601,1.0,-0.148892,-0.195686628571,3.6
