nelsonifechukwu/NELSON_IML_WORK/CNN-GradCAM/train2dof/data_sample_2022-02-22-15-23-08/robot_state.csv
position_joint1,position_joint2,position_joint3,position_joint4,position_joint5,position_joint6,position_joint7,velocity_joint1,velocity_joint2,velocity_joint3,velocity_joint4,velocity_joint5,velocity_joint6,velocity_joint7,ee_T_00,ee_T_10,ee_T_20,ee_T_30,ee_T_01,ee_T_11,ee_T_21,ee_T_31,ee_T_02,ee_T_12,ee_T_22,ee_T_32,ee_T_03,ee_T_13,ee_T_23,ee_T_33,v_x,v_y,time
0.465057791482,0.547789835846,-0.123983153996,-1.35585046502,0.0796093115757,1.89410431035,0.159163277893,-0.0011143263326,0.000135246961728,0.00140586295487,-0.000827394961845,0.000312479325643,0.000219947817607,0.00143414691544,0.573848326542,0.818947432612,0.00198686787821,0.0,0.818903720558,-0.57378857139,-0.0120049448299,0.0,-0.0086915440049,0.00851623496253,-0.999925962662,0.0,0.661670370837,0.260898846557,0.303200292355,1.0,0.0,0.0,0.0
0.465060575218,0.547789835846,-0.123983203506,-1.3558500963,0.0796117928276,1.89410429727,0.159160808359,-0.000172986218492,-0.0003094943312,0.000969804994408,-0.00529140919683,2.5796442465e-06,0.000106694724771,0.00116147810606,0.57384469639,0.818949972223,0.00198854759767,0.0,0.818906259609,-0.573784912523,-0.0120066246383,0.0,-0.00869199365245,0.00851853595371,-0.999925939153,0.0,0.661669598653,0.260901104959,0.303200472981,1.0,-0.00014,-0.000184,0.008
0.465060566145,0.547780850821,-0.123988144738,-1.3558479527,0.0796111815025,1.89410602061,0.159161267927,-0.000788744791469,-0.00278271332089,-0.000432048797004,0.000750148052442,-0.000203209866164,-0.000217815875742,0.00114214863248,0.57384824944,0.818947459427,0.00199805285341,0.0,0.818903908114,-0.573788461356,-0.0119974076874,0.0,-0.00867895396961,0.00852106874648,-0.999926030837,0.0,0.661671845258,0.260898632603,0.303208170329,1.0,-0.0004,-0.000525714285714,0.021
0.4650569512,0.547772707388,-0.123987489838,-1.35586607474,0.0796111824758,1.89410465958,0.159165941672,0.000657430274531,-0.001910387805,-0.000114457532702,-0.000576464546893,-0.00017235856427,0.00148639109566,0.00112718903149,0.573855545444,0.818942368261,0.00198930399739,0.0,0.81889867814,-0.573795769379,-0.0120048692324,0.0,-0.00869000913171,0.00851826319817,-0.999925958726,0.0,0.661668425588,0.260894480929,0.303205174281,1.0,-0.00082,-0.00107771428571,0.042
0.465050983244,0.547727913129,-0.123983123988,-1.35590880813,0.0796081112506,1.89411011167,0.159162027579,-0.00101612081531,-0.00265900035394,0.000632458796195,-0.00160765389945,-0.000220403623569,-6.87103127178e-05,0.000752991714174,0.573855655465,0.81894227147,0.00199739618574,0.0,0.818898656623,-0.573795815282,-0.0120041429196,0.0,-0.00868476970551,0.00852447447921,-0.999925951313,0.0,0.661661628977,0.260888448976,0.303216891198,1.0,-0.00108,-0.00141942857143,0.055
0.465050166466,0.547583312558,-0.123986337947,-1.35610849562,0.0796058383318,1.89414488927,0.159154128654,-0.00436919627098,-0.00607630362588,0.00161427353743,-0.00646698482378,0.000435098845717,0.00164258107393,0.00122630131694,0.573868473769,0.81893328646,0.00199851019529,0.0,0.818889493772,-0.573808438443,-0.0120257998846,0.0,-0.00870173334274,0.00853795080974,-0.999925688855,0.0,0.661626317241,0.260865991113,0.303234900569,1.0,-0.0015,-0.00197142857143,0.076
0.465032187671,0.547450788388,-0.123987735278,-1.356278103,0.0796044972415,1.89418085979,0.159149275127,-0.0028132435637,-0.0156259588594,-5.77822554334e-05,-0.0125239870032,-0.00337372762732,0.00464483313174,-0.00499794340642,0.573883033801,0.818923100123,0.00199160784476,0.0,0.818879173994,-0.573822983689,-0.0120344792486,0.0,-0.00871265044434,0.00853743402031,-0.999925598203,0.0,0.661604554667,0.260837363133,0.303243723961,1.0,-0.00176,-0.00231314285714,0.089
0.465011544564,0.547242399204,-0.123985801846,-1.356525161,0.0796054499918,1.89433266897,0.159145118464,-0.00075645040534,-0.0102882780019,0.00275718513078,-0.0107687934522,0.00080085550092,0.00967554915509,0.00114092230209,0.573909614457,0.818904212662,0.0020956667301,0.0,0.818861586679,-0.57384906362,-0.0119875328761,0.0,-0.00861421063119,0.00859598685436,-0.999925949451,0.0,0.661588584311,0.260808718851,0.303286866009,1.0,-0.00216,-0.00283885714286,0.109
0.464997347728,0.547081742368,-0.123983185384,-1.35672846753,0.0796014901983,1.89443679776,0.159128503464,-0.00131677648521,-0.00921407826825,0.000157360366132,-0.0126461353315,-0.000272333337049,0.00831997792159,0.000297159707499,0.573916291275,0.818899385361,0.00215271119901,0.0,0.818857461666,-0.573855461307,-0.0119630223255,0.0,-0.00856133138341,0.00862870316289,-0.999926121814,0.0,0.661570297866,0.260785256843,0.303312843056,1.0,-0.00244,-0.00320685714286,0.123
0.464957323286,0.546832656226,-0.123985959649,-1.35708004916,0.0795944864493,1.89458452129,0.159114072117,-0.00148446005465,-0.0147541792808,0.00162864208692,-0.0189460479791,-5.32710323192e-05,0.00934596500773,0.00075519655174,0.573957101383,0.818870662783,0.00219779598885,0.0,0.818829244748,-0.573895998441,-0.0119498042151,0.0,-0.00852420189165,0.00865846132127,-0.99992618179,0.0,0.661537158381,0.260727611712,0.303334828734,1.0,-0.00282,-0.00370628571429,0.142
0.46493037869,0.546614412627,-0.123986047134,-1.35740484965,0.0795895321045,1.89470236032,0.159052994379,-9.63649238884e-05,-0.0176490558629,-6.351102266e-05,-0.0198288908683,-0.000253845562449,0.00834081990291,-0.00747400972351,0.573946053101,0.8188783577,0.00221592443313,0.0,0.818837040266,-0.573884739567,-0.0119563406724,0.0,-0.00851926741999,0.00867694260076,-0.999926063642,0.0,0.661499221539,0.260681246551,0.303345024342,1.0,-0.0031,-0.00407428571429,0.156
0.464883412046,0.546289979843,-0.123986055939,-1.35790041322,0.0795795974774,1.89487897317,0.158942414509,-0.00376230269109,-0.0149493332022,0.000781286171141,-0.0292527099779,0.000136568260845,0.00838912789968,-8.96546316629e-05,0.57391901854,0.818897260587,0.00223241190356,0.0,0.818855964302,-0.573857443473,-0.0119704301992,0.0,-0.00852163037823,0.0086982488217,-0.999925858393,0.0,0.66144207374,0.260605989772,0.303354219375,1.0,-0.00348,-0.00457371428571,0.175
0.464852126141,0.546032201651,-0.123993467838,-1.35832051282,0.0795650200876,1.89502112787,0.158917934167,-0.00520721913485,-0.0211535452596,0.000769348986287,-0.0284297754242,0.000426127886625,0.00379879589238,-0.00147765071088,0.573947045982,0.8188776534,0.00221902517821,0.0,0.818836057042,-0.573885394426,-0.0119921914065,0.0,-0.00854683597154,0.0087000681633,-0.999925627439,0.0,0.661386303606,0.260542790876,0.30334605476,1.0,-0.00378,-0.004968,0.19
0.464781352429,0.545616385444,-0.123986737762,-1.35902833992,0.079531676137,1.89526917467,0.158811579521,-0.00595598602332,-0.0215290336095,-0.000319782217064,-0.0344266905079,-0.000782691512371,0.0111890910976,-0.00688722865396,0.573946219017,0.818878317099,0.00218777576153,0.0,0.818836204563,-0.5738845872,-0.0120207143194,0.0,-0.00858813687064,0.00869084086011,-0.999925353809,0.0,0.661308081071,0.260431764432,0.30332811792,1.0,-0.00418,-0.00549371428571,0.21
0.464736495149,0.545318644668,-0.123986737763,-1.35953510345,0.0794780095561,1.89543528887,0.158750248029,-0.00578474393965,-0.0232721780349,0.000102347204455,-0.038253840845,-0.00580869248257,0.0193543452325,-0.00436411261545,0.573946693452,0.818878115159,0.00213833828394,0.0,0.81883552429,-0.573885436992,-0.0120264820376,0.0,-0.00862122772781,0.00865367355924,-0.9999253914,0.0,0.661247309203,0.26034843338,0.303312023316,1.0,-0.00444,-0.00583542857143,0.223
0.464654504682,0.544792460399,-0.123981763749,-1.36040148726,0.0794286392799,1.89572713146,0.158671823289,-0.00496711728671,-0.0256555360981,-0.00101031599069,-0.0421922219748,-3.81241182735e-05,0.0195055444495,-0.00508956302083,0.573981249429,0.8188539943,0.00209957707085,0.0,0.818810793942,-0.573920049309,-0.0120585084824,0.0,-0.00866933537169,0.0086406804932,-0.999925087826,0.0,0.661143191799,0.260212975444,0.303297200907,1.0,-0.00486,-0.00638742857143,0.244
0.46460761992,0.544471571448,-0.123989243433,-1.36095748581,0.079410821434,1.89592038457,0.158571522652,-0.00621868971599,-0.0303158201035,-0.00029276747559,-0.0421933761249,-0.000434421627975,0.0153956283687,-0.013524824127,0.573969020553,0.818862640381,0.00207039492588,0.0,0.818818920062,-0.573907809328,-0.0120892283766,0.0,-0.00871136937312,0.00863428734465,-0.999924777734,0.0,0.661077230487,0.260126085285,0.303276674941,1.0,-0.00512,-0.00672914285714,0.257
0.464523136217,0.543888576037,-0.123987413089,-1.36189517604,0.0793719793974,1.89626807218,0.158480914014,-0.00169457905133,-0.0331095453147,0.00125466430497,-0.0479016694282,-0.000216029961723,0.0170416667892,-0.00449844208833,0.57400472711,0.818837603737,0.00207337010845,0.0,0.818793744397,-0.573943322112,-0.012108428489,0.0,-0.00872500762434,0.00864812416834,-0.999924539248,0.0,0.660969905867,0.259984951886,0.303272987835,1.0,-0.00552,-0.00725485714286,0.277
0.464461016234,0.543499205903,-0.123992074736,-1.36253514231,0.0793371444078,1.89648472906,0.158379311365,-0.00427034234877,-0.0322211549023,-8.12906538692e-05,-0.0460977150891,-0.00132854026032,0.017535397641,-0.0176028252668,0.574001947335,0.818839622113,0.00204563322118,0.0,0.818795347099,-0.57394061118,-0.01212853282,0.0,-0.00875741985735,0.00863692270789,-0.999924352721,0.0,0.660895202125,0.259879399324,0.303262789252,1.0,-0.00578,-0.00759657142857,0.29
0.464364267848,0.542820085477,-0.12399883652,-1.36363518958,0.0792736880717,1.89686973316,0.158254482843,-0.00270853953365,-0.0278058312515,0.000936974036379,-0.0515220265876,-0.0082881264416,0.0170341831953,-0.0022929869351,0.574027921571,0.818821490785,0.00201454366922,0.0,0.818776769795,-0.573966680152,-0.0121490008133,0.0,-0.00879175128407,0.00862349327307,-0.999924167361,0.0,0.660766702609,0.259705734171,0.30325317533,1.0,-0.0062,-0.00814857142857,0.311
0.464305409672,0.542358348437,-0.124001949842,-1.36433734214,0.0792385286604,1.89712323748,0.158152183029,-0.00699969916999,-0.0396271668139,-0.000805262320292,-0.0532574487343,-0.00590067878764,0.0182213634328,-0.0106044857603,0.574024154046,0.818824095333,0.00202937792601,0.0,0.818779504592,-0.57396278495,-0.0121487140651,0.0,-0.00878304149843,0.00863543462571,-0.999924140848,0.0,0.660685545222,0.259599268236,0.303267608995,1.0,-0.00646,-0.00849028571429,0.324
0.464200083532,0.54162820606,-0.124003081017,-1.36546143083,0.0791745924808,1.8975389814,0.157995458591,-0.00532214087571,-0.038095699481,0.000105699544108,-0.0583910350928,-0.00441276300876,0.0122192271528,-0.0112209699963,0.574028254512,0.818821169828,0.00204982054506,0.0,0.818776809124,-0.573966758072,-0.0121426673962,0.0,-0.00876631304802,0.00864874621089,-0.999924172597,0.0,0.660559598486,0.259423049067,0.303284931105,1.0,-0.00686,-0.009016,0.344
0.46412757531,0.541098523687,-0.124007967236,-1.36629962121,0.0791265202992,1.8978612438,0.157898304994,-0.00567611980281,-0.0396145579347,-0.000235811127636,-0.0625676113522,-0.00068900145138,0.0318782523995,-0.0100163156291,0.574045298574,0.818809193995,0.0020605619176,0.0,0.818764986788,-0.573983765664,-0.0121358998385,0.0,-0.00875442582614,0.00865383881071,-0.999924232681,0.0,0.660466978846,0.259293866624,0.303288538097,1.0,-0.00714,-0.009384,0.358
0.464005878731,0.540214569399,-0.124010923957,-1.36762998947,0.0790446346851,1.89833818533,0.157722904334,-0.00458421349108,-0.0415938872793,-0.00117237638904,-0.0621143722518,-0.00133722064295,0.0243784493817,-0.00419200986866,0.574055119592,0.818802244088,0.00208606028726,0.0,0.818758373163,-0.573993476899,-0.0121227783179,0.0,-0.00872894115315,0.00866728915637,-0.99992433898,0.0,0.660314893545,0.259084588207,0.303321518137,1.0,-0.00756,-0.009936,0.379
0.463929946721,0.539647006053,-0.124013984825,-1.36850981259,0.078995541665,1.89868556442,0.157618536937,-0.0112296746872,-0.0417938673429,0.000685603831375,-0.0717691703971,-0.00477696799115,0.0301627308375,-0.015584071385,0.574069734391,0.818791920244,0.00211619951416,0.0,0.818748450605,-0.574007966398,-0.0121068593603,0.0,-0.00869845071627,0.00868298378502,-0.999924468521,0.0,0.660218864087,0.258951314188,0.303334026127,1.0,-0.00782,-0.0102777142857,0.392
0.463808448549,0.538715667384,-0.124019550397,-1.36994696351,0.0789100935885,1.89923410296,0.157442561258,-0.00601429086443,-0.0443094571725,-0.000260693735302,-0.0704361130396,-0.00845188231227,0.0290402570773,-0.00908716908144,0.574085761211,0.818780592832,0.0021509248536,0.0,0.818737610097,-0.57402387509,-0.0120856750034,0.0,-0.00866100067568,0.0086994244991,-0.999924650702,0.0,0.660057818518,0.258732902112,0.303355671055,1.0,-0.00824,-0.0108297142857,0.413
0.46373637546,0.538196601625,-0.124023665125,-1.37073168333,0.0788662761457,1.89953076061,0.157349498573,-0.00847704098532,-0.0474626278449,0.000121603277027,-0.0655467683244,-0.00782634984475,0.0310059052106,-0.00795831075789,0.574103099926,0.818768363682,0.00217811617827,0.0,0.818725732946,-0.574041092465,-0.012072500782,0.0,-0.00863441975968,0.00871430766473,-0.999924750987,0.0,0.659971009964,0.258609647983,0.3033746349,1.0,-0.00846,-0.0111188571429,0.424
0.463620608768,0.537217979166,-0.124027145102,-1.3722883688,0.0787697055092,1.90011643154,0.157158344326,-0.00893562667235,-0.0456089873147,-0.00122973002672,-0.0736182785454,-0.00118475247066,0.0310310787542,-0.0111765814649,0.574103927674,0.81876777625,0.00218075797693,0.0,0.81872521552,-0.574041944739,-0.0120670647953,0.0,-0.00862844338248,0.00871335859827,-0.999924810847,0.0,0.659788997069,0.258383405121,0.303375616498,1.0,-0.00888,-0.0116708571429,0.445
0.463526276997,0.536570769833,-0.124030814947,-1.37328516114,0.0787191710921,1.90050061412,0.157033050249,-0.00839461517692,-0.0422175746944,-0.00235411676945,-0.0789134460599,-0.00331739064867,0.0328040656235,-0.0110047209415,0.574122626761,0.818754575576,0.00221389155371,0.0,0.818712396689,-0.574060449953,-0.0120564591627,0.0,-0.00860053911029,0.00873459463192,-0.999924865969,0.0,0.659679524468,0.258227094502,0.303391508735,1.0,-0.00914,-0.0120125714286,0.458
0.463388020002,0.535491235939,-0.124033217706,-1.37498271852,0.0786210981942,1.90111317612,0.15682064473,-0.00981404691272,-0.0507244440455,-0.000246825758892,-0.0817301529928,-0.00267063951553,0.0296528877561,-0.014200231927,0.574130586366,0.818749002073,0.002210950843,0.0,0.818706713478,-0.574068348544,-0.0120662922247,0.0,-0.00861019359144,0.00873791596051,-0.999924753865,0.0,0.659477761521,0.25797286332,0.303398592406,1.0,-0.00956,-0.0125645714286,0.479
0.463291851722,0.534809255181,-0.124031477394,-1.37608337053,0.0785635514144,1.90150952043,0.156695171382,-0.0120111394864,-0.0448592031509,0.00167711128105,-0.080525553168,-0.00506412297689,0.0301831686625,-0.00938038051679,0.574150350456,0.818735181222,0.00219658851822,0.0,0.818692582494,-0.574088046838,-0.0120878761167,0.0,-0.00863590049872,0.00873875728349,-0.999924524824,0.0,0.659346629808,0.257806333866,0.303390214853,1.0,-0.00982,-0.0129062857143,0.492
0.463146979335,0.533752399056,-0.124038659663,-1.37783183552,0.0784692897941,1.90213719262,0.156472784257,-0.007079421815,-0.0539281867488,-0.000277542025646,-0.0877173709132,3.39868418689e-05,0.0381103663239,-0.00710245204166,0.574162500212,0.818726797133,0.00214520607084,0.0,0.818683391503,-0.574100279477,-0.0121293232276,0.0,-0.00869920603937,0.00872061503063,-0.999924134466,0.0,0.659137184566,0.257540303652,0.303358155221,1.0,-0.01022,-0.013432,0.512
0.463047943765,0.533033383474,-0.12403788783,-1.37895276424,0.0784050551057,1.90257308158,0.156330465176,-0.00997395373483,-0.0557042229327,-0.00232620864263,-0.0914486238479,-0.0102469680198,0.0392526765687,-0.0131380278146,0.574163138841,0.818726286747,0.00216893678564,0.0,0.818683144582,-0.574100768388,-0.0121228467754,0.0,-0.00868027217212,0.00873633194576,-0.999924161814,0.0,0.658997659425,0.25736079325,0.30336300202,1.0,-0.0105,-0.0138,0.526
0.462882486513,0.531830938634,-0.124039627019,-1.38089421667,0.0782956464113,1.90329719715,0.156086482228,-0.0112397454242,-0.0606676924588,3.40611438115e-06,-0.0975280759114,-0.00827371288947,0.0384146447595,-0.0181793422279,0.574184492674,0.818711323335,0.00216432833693,0.0,0.818668066463,-0.574122084595,-0.012131604791,0.0,-0.00868986082284,0.00873781406704,-0.999924065579,0.0,0.658783634674,0.257077737821,0.30335587539,1.0,-0.0109,-0.0143257142857,0.546
0.462783733843,0.531077551885,-0.124039923873,-1.38212780348,0.078227868599,1.90373189771,0.155933789821,-0.00584830354702,-0.0572423734512,-0.00130930076718,-0.0954509034379,-0.00404915436035,0.0313769091931,-0.0120363880968,0.574189512803,0.818707895734,0.00212879087475,0.0,0.818664052819,-0.574127137389,-0.0121632905333,0.0,-0.00873615358472,0.00872696645166,-0.999923756932,0.0,0.65863155739,0.256894501267,0.303337383075,1.0,-0.01116,-0.0146674285714,0.559
0.462608404275,0.529800581425,-0.124039665451,-1.38417332093,0.0780994456046,1.90446530207,0.155662802971,-0.00757315987451,-0.0589885382583,-0.00024403014917,-0.103136956389,-0.00243238576766,0.0303298006163,-0.0160526062149,0.574187645196,0.818709290165,0.00209599714165,0.0,0.818664985405,-0.574125381887,-0.0121833676104,0.0,-0.00877143996618,0.00871162635398,-0.999923581784,0.0,0.658385737172,0.25658214327,0.303326985923,1.0,-0.01158,-0.0152194285714,0.58
0.462510509418,0.529052109613,-0.124037868178,-1.38534191008,0.0780233907958,1.90490282247,0.15549671439,-0.00691737849235,-0.0614095985379,0.00183560142846,-0.0963380159198,-0.0089737446835,0.0414970289477,-0.0221650231611,0.57417354627,0.818719147283,0.0021079696609,0.0,0.818675031304,-0.574111263829,-0.0121736093491,0.0,-0.00875672653365,0.00871567438275,-0.999923675468,0.0,0.658248369467,0.256407237147,0.303335764042,1.0,-0.01182,-0.0155348571429,0.592
0.462333830985,0.527695808786,-0.12404915956,-1.38745954531,0.0778937426038,1.90571648001,0.155210235149,-0.00848231681801,-0.0684763308594,-0.000394784156757,-0.101952981376,-0.00877161061067,0.0366160118755,-0.00916919464179,0.57417167975,0.818720353984,0.00214733453496,0.0,0.818676843371,-0.574109315443,-0.0121435970899,0.0,-0.00870957303445,0.00873065069013,-0.999923956647,0.0,0.658005677814,0.256085044542,0.303353625684,1.0,-0.01224,-0.0160868571429,0.613
0.462219220676,0.526788842855,-0.124048895295,-1.38881277509,0.07780412402,1.90622815861,0.15502681536,-0.0115508003437,-0.0666864671687,0.000745631905623,-0.102303278236,-0.00758027790335,0.03658853961,-0.0153733633412,0.574164148706,0.818725497617,0.00219927127999,0.0,0.818682746778,-0.574101642462,-0.0121083092338,0.0,-0.00865094280613,0.00875283103503,-0.999924271701,0.0,0.657848699025,0.255881294276,0.303392142886,1.0,-0.0125,-0.0164285714286,0.626
0.462031396433,0.525346169644,-0.124058176098,-1.39107902059,0.0776666662908,1.90705624665,0.154710584616,-0.0150037551329,-0.070443214465,-0.000889850258442,-0.10628621671,-0.00437497480814,0.0441659344541,-0.0157659140511,0.574150742636,0.81873489495,0.00220077769683,0.0,0.818692159169,-0.57408822699,-0.0121079745684,0.0,-0.00864994725861,0.00875373057115,-0.999924272439,0.0,0.657577782715,0.255536250975,0.303400516967,1.0,-0.01292,-0.0169805714286,0.647
0.461915625518,0.524451598763,-0.124055903913,-1.39251540766,0.0775791373481,1.90756412916,0.154525956094,-0.0102639272557,-0.0739927859196,-0.000602810232531,-0.113641849669,-0.00459082585826,0.0401431881069,-0.0131703990882,0.574146348853,0.818738052527,0.00217217507109,0.0,0.818694869803,-0.574083883142,-0.0121306296898,0.0,-0.00868496464094,0.0087432736678,-0.999924060394,0.0,0.657399019322,0.255323021137,0.3033899234,1.0,-0.01318,-0.0173222857143,0.66
0.461730261464,0.523050761844,-0.124059554508,-1.39477807498,0.0774440671384,1.90841267462,0.154218757407,-0.011544781556,-0.0683985003223,0.000363221813446,-0.122016860165,-0.00805792913425,0.0511107480454,-0.0190325117556,0.574134432642,0.818746443482,0.00215903715096,0.0,0.818703057115,-0.574071993388,-0.0121407404717,0.0,-0.0087009128409,0.00873819569581,-0.999923966135,0.0,0.657128430903,0.254984592597,0.303371475187,1.0,-0.01358,-0.017848,0.68
0.461597503839,0.522098801106,-0.124059636406,-1.3962561043,0.0773513194215,1.9089952899,0.154022522504,-0.0145892946434,-0.0743237333065,-0.000115341204213,-0.11659650451,-0.0145697950836,0.0401540722841,-0.0177023333544,0.57413688517,0.818744604482,0.00220377419251,0.0,0.818701870527,-0.57407432069,-0.01211067388,0.0,-0.00865058527395,0.00875758724309,-0.99992423315,0.0,0.656960536151,0.254758885793,0.303387457525,1.0,-0.01384,-0.0181897142857,0.693
0.46139576081,0.520556474004,-0.1240704082,-1.39874441821,0.07719252697,1.90992302018,0.153678377768,-0.00584436755456,-0.0774615607451,-0.000338929163246,-0.124199984653,-0.00830633662019,0.0357882242354,-0.0160831487808,0.574118116575,0.818757830634,0.00217942582591,0.0,0.81871485649,-0.574055737898,-0.0121136473042,0.0,-0.00866719855757,0.00873916093335,-0.999924250499,0.0,0.656661818131,0.254382275867,0.303367316398,1.0,-0.01426,-0.0187417142857,0.714
0.461266523161,0.519537589578,-0.124065948132,-1.40031935947,0.0770966389956,1.91049049634,0.153472402079,-0.0102599341195,-0.082843066179,0.00045800912641,-0.122187685599,-0.00325609491868,0.045517737559,-0.0121415677304,0.574110022128,0.818763476254,0.00219074114779,0.0,0.818720585638,-0.574047530895,-0.0121153550017,0.0,-0.00866218740444,0.00874932005511,-0.999924205082,0.0,0.656466964537,0.254149483572,0.303382153909,1.0,-0.01452,-0.0190834285714,0.727
0.461057770141,0.517952256624,-0.124072702711,-1.40277803808,0.0769452300765,1.91137628321,0.153137010547,-0.0126354913262,-0.0819502557093,0.000109328521015,-0.120439806029,-0.0062674973281,0.0450686778977,-0.0137380978872,0.57410070071,0.818769988229,0.00219970921981,0.0,0.818727192067,-0.574038149163,-0.0121134296028,0.0,-0.00865556225044,0.00875545874556,-0.99992420872,0.0,0.656166738107,0.25377318614,0.303401579757,1.0,-0.01492,-0.0196091428571,0.747
0.460912670598,0.516825285642,-0.124077787267,-1.40454043709,0.0768309535353,1.91201597743,0.152891803067,-0.0105946228584,-0.0796229416815,0.00373714298001,-0.118701198838,-0.00157617849939,0.0457816141401,-0.0150041165083,0.574084734037,0.818781186447,0.00219858329418,0.0,0.818738414394,-0.574022228657,-0.0121093643566,0.0,-0.00865305063063,0.00875203431998,-0.999924260437,0.0,0.655950804476,0.253505609819,0.303408975756,1.0,-0.0152,-0.0199771428571,0.761
0.460691768651,0.515222780375,-0.124078732357,-1.40710758941,0.0766724117391,1.91297892443,0.152548948263,-0.0130844169048,-0.0854800403939,0.000918615049524,-0.128864996133,-0.0102506711607,0.0430933741548,-0.0145265466253,0.574078515927,0.818785559705,0.00219355194337,0.0,0.818742714031,-0.574016024987,-0.0121127280256,0.0,-0.00865875953678,0.0087497800606,-0.999924230746,0.0,0.655641026639,0.253116261977,0.303394408735,1.0,-0.0156,-0.0205028571429,0.781
0.46055355516,0.514149015142,-0.124082942985,-1.40883718116,0.0765614254166,1.91359148737,0.152309805859,-0.00694227908432,-0.0843008397537,-0.00198056916992,-0.131003177341,-0.0085873715922,0.0485897196586,-0.0157400817234,0.574059827651,0.818798770592,0.00215277886119,0.0,0.818755377152,-0.573997500273,-0.0121346184949,0.0,-0.00870028852776,0.00872876432596,-0.999924053943,0.0,0.655422621174,0.252855706431,0.303377099362,1.0,-0.01586,-0.0208445714286,0.794
0.460306586691,0.512421353126,-0.124087541355,-1.41163710524,0.0763875340286,1.91457980556,0.151905971809,-0.0140728744618,-0.0803213471519,-0.000248148292745,-0.130673688611,-0.0104120666216,0.0584550655789,-0.0164619006033,0.574034483138,0.818816730138,0.00207882559979,0.0,0.818772270775,-0.573972385275,-0.0121826291765,0.0,-0.0087823211856,0.00869550141483,-0.999923626628,0.0,0.655072067223,0.252420634262,0.303340782821,1.0,-0.01628,-0.0213965714286,0.815
0.460158299656,0.511298987131,-0.124090780321,-1.41340537972,0.0762838054209,1.91524949363,0.151660140663,-0.0134987475959,-0.0873314362663,0.000367965604025,-0.138366442536,-0.00728723904472,0.0534397727068,-0.0209958802513,0.574021645325,0.818825677229,0.00209950228626,0.0,0.818781457859,-0.573959427288,-0.0121756722318,0.0,-0.00876489268242,0.00870830061191,-0.999923668165,0.0,0.654857721766,0.252155177477,0.303343328808,1.0,-0.01654,-0.0217382857143,0.828
0.459916689324,0.509556461394,-0.124093603521,-1.41616779704,0.0761020589811,1.9162833405,0.151280396748,-0.00937071104225,-0.0852865673267,-0.00149595525922,-0.140128406672,-0.00803629149486,0.0473489284492,-0.0164032166301,0.57400559316,0.818836923701,0.00210197678756,0.0,0.818792831274,-0.573943460279,-0.0121635010587,0.0,-0.00875367649289,0.00870316872824,-0.999923811099,0.0,0.654522089357,0.251731245114,0.303337981937,1.0,-0.01694,-0.022264,0.848
0.459762948636,0.508416959256,-0.124093977707,-1.41797294974,0.0759955148733,1.91692196088,0.151026519823,-0.0152912303223,-0.091613810755,-0.000917168514058,-0.140258255018,-0.00667118415098,0.0490419975393,-0.0184191858155,0.573988695976,0.818848823845,0.00208025964108,0.0,0.8188043646,-0.573926579212,-0.0121836401831,0.0,-0.0087828122308,0.00869676485425,-0.999923611328,0.0,0.654277711283,0.251432814272,0.303329859749,1.0,-0.01722,-0.022632,0.862
0.459492349016,0.506517862998,-0.124100408191,-1.42096952074,0.0758045759954,1.91800908992,0.15060869104,-0.0132297220672,-0.0948827869894,3.95205199181e-05,-0.146503146993,-0.00772208329751,0.0562178936619,-0.0215086917746,0.573976447227,0.81885744211,0.00206746973006,0.0,0.818812782549,-0.573914356342,-0.0121936713281,0.0,-0.0087984973526,0.00869191813641,-0.999923515577,0.0,0.653922042908,0.2509889841,0.303327708779,1.0,-0.01762,-0.0231577142857,0.882
0.459324760456,0.505283282832,-0.12410678485,-1.42284320344,0.075689779866,1.91872948037,0.150347864508,-0.0123013012768,-0.0949095692305,0.000871058061983,-0.140384823701,-0.00612714427933,0.0608544504874,-0.0171595347886,0.573970579744,0.818861382513,0.00213464689485,0.0,0.818817657536,-0.573908248357,-0.0121537268243,0.0,-0.00872729411717,0.00872393616429,-0.999923860739,0.0,0.653698790353,0.25069991785,0.30336141024,1.0,-0.01788,-0.0234994285714,0.895
0.459054543803,0.503349478736,-0.124110686794,-1.42575585607,0.0755104864093,1.91984064095,0.14994006086,-0.0178639208933,-0.0972777256234,0.000986789150531,-0.146886342708,-0.0104265828263,0.0519821632321,-0.0275668442299,0.573962334063,0.818866864472,0.00224594020143,0.0,0.81882464953,-0.57389957988,-0.0120918334497,0.0,-0.00861282342819,0.00877945717996,-0.999924367342,0.0,0.653350292703,0.250247323261,0.30342235661,1.0,-0.01828,-0.0240251428571,0.915
0.458882964952,0.502033457912,-0.12412167659,-1.42768826733,0.0753886813046,1.92054223483,0.14967725919,-0.0111860785832,-0.103412793069,-0.00158151757559,-0.148885915792,-0.00630800327529,0.0556400282551,-0.0269962734917,0.573961464278,0.818867277475,0.00231652880247,0.0,0.818826038111,-0.573898468629,-0.0120504737632,0.0,-0.0085384507021,0.00881351135525,-0.999924705604,0.0,0.65311212708,0.249944853981,0.303482478562,1.0,-0.01854,-0.0243668571429,0.928
0.458591884502,0.499937210793,-0.124121973657,-1.43087679952,0.0751838069974,1.92167133202,0.149227389309,-0.0125973158604,-0.101654104438,-2.81091974779e-05,-0.150161381484,-0.0138112426846,0.0473803035825,-0.0282624523723,0.573938708531,0.818883142247,0.00234629368024,0.0,0.818842252547,-0.573875552153,-0.0120400575707,0.0,-0.00851308349833,0.00883166953206,-0.999924761681,0.0,0.652708190918,0.249447648814,0.303525418742,1.0,-0.01896,-0.0249188571429,0.949
0.458396918136,0.498651445701,-0.124125477213,-1.43288426317,0.0750608440235,1.92242812536,0.148939512907,-0.0134514931623,-0.0942581505116,-0.00120235982482,-0.155966950363,-0.00886682031483,0.0642267761369,-0.0246304978008,0.573934270801,0.81888617028,0.0023748316695,0.0,0.818845653344,-0.57387099778,-0.0120258392071,0.0,-0.00848510975764,0.00884683217503,-0.999924865414,0.0,0.652464608613,0.249128671039,0.303532390794,1.0,-0.01922,-0.0252605714286,0.962
0.45809418506,0.496693069641,-0.124119210574,-1.43601731536,0.0748662677661,1.92355566218,0.148481180753,-0.0200798812057,-0.0945779975798,0.00565195398313,-0.150429773091,-0.00793854192008,0.0538186083042,-0.0255583490546,0.573908612976,0.818904266141,0.00233532649212,0.0,0.818863091674,-0.573845359336,-0.0120618225791,0.0,-0.00853752607128,0.00883486663631,-0.999924525042,0.0,0.652068141342,0.248634286834,0.303503915757,1.0,-0.01962,-0.0257862857143,0.982
0.457876297965,0.495301920422,-0.124122404107,-1.43826595874,0.0747223348502,1.92432377463,0.148161040523,-0.0118565671064,-0.0945054224452,-2.10020814705e-05,-0.158543400053,-0.0119351569219,0.057309626845,-0.0165098464342,0.573901509108,0.818909463944,0.0022571235126,0.0,0.818867161783,-0.573838477238,-0.0121128153639,0.0,-0.00862424086049,0.00880001676907,-0.999924088206,0.0,0.651776012789,0.248271096557,0.303469595499,1.0,-0.0199,-0.0261542857143,0.996
0.457516881109,0.492930742546,-0.124187160199,-1.44193222001,0.0745082293828,1.9256488341,0.147630885496,-0.0173783381409,-0.159188315864,-0.00588849326892,-0.2251844382,-0.0118249995662,0.0842270097419,-0.0353684164527,0.573935002343,0.818885936938,0.00227646028701,0.0,0.818843966822,-0.573871965036,-0.0120943228763,0.0,-0.00859763971319,0.008805590535,-0.999924268216,0.0,0.651328409087,0.247650913886,0.303492358494,1.0,-0.0336942857143,-0.0442839183673,1.016
0.457246754857,0.490496923773,-0.124245109215,-1.44563485509,0.0743217122321,1.92709294879,0.147080301376,-0.0178643232138,-0.193336124956,-0.00445601672622,-0.316350329076,-0.0165908428892,0.122960726894,-0.0495747548239,0.573883396954,0.818921650412,0.00243394501676,0.0,0.818881705381,-0.573819679997,-0.0120197479701,0.0,-0.00844674892064,0.00889121802524,-0.99992479651,0.0,0.650870021158,0.247101776458,0.303550156271,1.0,-0.04558,-0.0599051428571,1.029
0.456488743285,0.485023639452,-0.124314444108,-1.45425051388,0.0738592443033,1.93040863817,0.145756875191,-0.0402675601029,-0.296611452533,-0.00787054078457,-0.463037986297,-0.0290570596907,0.173597504741,-0.0820600066915,0.573782602864,0.818991790031,0.0025921831568,0.0,0.818953629669,-0.57371796678,-0.0119747211517,0.0,-0.00832017645006,0.00899393763717,-0.999924939058,0.0,0.649860825377,0.245844603253,0.303539693705,1.0,-0.0638657142857,-0.0839377959184,1.049
0.4558188067,0.480645306092,-0.124444645687,-1.46127273359,0.0734316647981,1.93284316648,0.144691662254,-0.0551543206472,-0.354141419352,-0.0101087183982,-0.569903031386,-0.0366716069007,0.195213898335,-0.0924071317999,0.57377526217,0.818997514755,0.00240130152687,0.0,0.81895688178,-0.573711418843,-0.0120656776101,0.0,-0.00850426960403,0.00888972089935,-0.999924322267,0.0,0.648892825461,0.244579876795,0.303451967446,1.0,-0.0766657142857,-0.100760653061,1.063
0.454527879216,0.472328312352,-0.124646215792,-1.4743851941,0.0726324385726,1.93738826656,0.142787279132,-0.0706652123863,-0.446707398014,-0.00961592599759,-0.703934052195,-0.0473082469513,0.244533927868,-0.0983960274917,0.573836810573,0.81895504376,0.00216749474182,0.0,0.818911216739,-0.573773819607,-0.012197128103,0.0,-0.00874541621869,0.00877431577783,-0.999923261595,0.0,0.647181200316,0.242362403551,0.303368027519,1.0,-0.0949514285714,-0.124793306122,1.083
0.453516626688,0.465930295157,-0.124747310715,-1.48406166115,0.0720781585386,1.94099631999,0.14125506091,-0.0806191820003,-0.513819869535,-0.0047965527307,-0.770032485957,-0.0516972946041,0.285543294807,-0.124038224401,0.57379609794,0.818982742714,0.00246008681791,0.0,0.818942635342,-0.573731754609,-0.0120656816058,0.0,-0.0084703181676,0.00893808309204,-0.999924179316,0.0,0.645958308666,0.240743991422,0.303495102477,1.0,-0.106837142857,-0.140414530612,1.096
0.45155099961,0.454317235521,-0.124916493077,-1.50223589486,0.0709432843102,1.94734496326,0.138426152952,-0.102501015096,-0.580587596983,-0.00665904779899,-0.914066623549,-0.0557155683862,0.307556787851,-0.140678592862,0.57375103561,0.819014858692,0.00227096417303,0.0,0.818971746338,-0.573686952709,-0.0122190790619,0.0,-0.00870495239244,0.0088707355498,-0.999922763945,0.0,0.643536163654,0.237632754789,0.3033939241,1.0,-0.126037142857,-0.165648816327,1.117
0.450102012994,0.446005830158,-0.12507283362,-1.51470892539,0.0700448582867,1.95185998452,0.136466561907,-0.113153061796,-0.643063268348,-0.0139220460796,-0.994524528667,-0.0724446601479,0.348410872653,-0.146136957868,0.573766782481,0.819003177786,0.00249419326066,0.0,0.8189642076,-0.573703038435,-0.0119665058024,0.0,-0.00836984117248,0.00890881006132,-0.99992528664,0.0,0.641919082645,0.235410957216,0.303553008667,1.0,-0.137922857143,-0.181270040816,1.13
0.447571725986,0.432041525139,-0.125243253253,-1.53598094928,0.0686627039313,1.959217344,0.133027970526,-0.134521579331,-0.73534555742,-0.015731920783,-1.10045229865,-0.074236242281,0.392425866274,-0.187312716901,0.573710138496,0.819042748573,0.0025298018969,0.0,0.819003759508,-0.57364574411,-0.0120062099621,0.0,-0.00838255050576,0.00896017415565,-0.99992472123,0.0,0.639007741271,0.231651365776,0.303611308212,1.0,-0.156208571429,-0.205302693878,1.15
0.445544659581,0.421379541874,-0.125377612636,-1.55215978096,0.0675441154954,1.9647563612,0.13034734075,-0.15195094699,-0.760504360393,-0.0116057736763,-1.18260903563,-0.0841060368705,0.399283175592,-0.198605883257,0.573660793684,0.819077367152,0.00251143601622,0.0,0.819038174396,-0.573596517993,-0.0120104258856,0.0,-0.00839707872848,0.0089470446742,-0.999924716896,0.0,0.636590689108,0.228499869489,0.303655171881,1.0,-0.169922857143,-0.223327183673,1.165
0.442068764894,0.404041644448,-0.125577380376,-1.57812181195,0.0657042670366,1.97385204257,0.126026365966,-0.177931888192,-0.826192646823,-0.00741298867211,-1.28116020857,-0.0855365797711,0.431831162245,-0.218099540901,0.573675104996,0.819066366982,0.00281198996622,0.0,0.819031504921,-0.573610129701,-0.0118135495829,0.0,-0.00806325045136,0.00908042249749,-0.999926262241,0.0,0.632948350694,0.223673911175,0.303796840705,1.0,-0.189122857143,-0.248561469388,1.186
0.439839348166,0.393338563024,-0.125715674386,-1.59385333035,0.0646777682274,1.9792628546,0.123311255439,-0.187220490583,-0.882090140815,-0.0111275143805,-1.32872931967,-0.0802102432084,0.455712711533,-0.232968557716,0.57371821815,0.819034781446,0.00319058699606,0.0,0.819004611677,-0.573651661263,-0.0116603809404,0.0,-0.00772012066065,0.0093030575525,-0.999926923759,0.0,0.630905662614,0.220944830233,0.304006316232,1.0,-0.19918,-0.261779428571,1.197
0.435298570831,0.372695339269,-0.125949696361,-1.62462786377,0.0623354020007,1.98955456345,0.11778479542,-0.21988171263,-0.960022587713,-0.00436282922045,-1.4411633876,-0.101104245995,0.472910766379,-0.261853892959,0.573585364818,0.819127730694,0.00321511679849,0.0,0.819098517411,-0.573519519133,-0.0115640326118,0.0,-0.00762863442557,0.00926663567879,-0.999927964105,0.0,0.626377764793,0.215001105844,0.304073444582,1.0,-0.219294285714,-0.288215346939,1.219
0.432513325723,0.360731105496,-0.126111971393,-1.64226086595,0.0609697223357,1.99542524179,0.114653928699,-0.236768761125,-1.02697404499,-0.0175078200709,-1.49010609915,-0.116455557063,0.508898616345,-0.267145007803,0.573667594113,0.819069739067,0.00331676200659,0.0,0.819042352823,-0.573602055994,-0.0114478182753,0.0,-0.00747420392302,0.00928398967105,-0.999928969383,0.0,0.623749154069,0.211484814535,0.304151268319,1.0,-0.230265714286,-0.302634938775,1.231
0.427366498598,0.339880282231,-0.126406007072,-1.67302399792,0.058620870005,2.00538249445,0.108865186823,-0.264663154432,-1.07665536902,-0.017749793527,-1.57360190135,-0.125714241538,0.50986359593,-0.294940140251,0.573737981394,0.819020545039,0.0032897433248,0.0,0.818992646758,-0.573672312973,-0.011483413556,0.0,-0.00751806171328,0.00928292483093,-0.999928650482,0.0,0.619026810823,0.205200495491,0.304160679885,1.0,-0.248551428571,-0.326667591837,1.251
0.423472418954,0.324640201259,-0.126558969455,-1.69533878307,0.0568919709062,2.01258167737,0.104507830831,-0.286731423036,-1.12690946247,-0.0211017789122,-1.58816780289,-0.137752311469,0.542759324102,-0.317542264906,0.573687418493,0.81905566397,0.00336334407667,0.0,0.81902841492,-0.573621159798,-0.0114877102896,0.0,-0.00747993286058,0.00934520915262,-0.999928356269,0.0,0.615510621048,0.200616165616,0.304168486819,1.0,-0.261351428571,-0.34349044898,1.265
0.417418965007,0.301812482213,-0.126775950217,-1.72846092255,0.0541000576146,2.02292116127,0.0977902806291,-0.315007273499,-1.16755153143,-0.00670904810889,-1.67112293493,-0.145369247381,0.515819744836,-0.342228827038,0.573464214187,0.819212293721,0.00328020792938,0.0,0.819184273644,-0.573398612803,-0.0114849271034,0.0,-0.00752787173402,0.00927346798936,-0.999928664425,0.0,0.610116146398,0.193670208382,0.304169698786,1.0,-0.279637142857,-0.367523102041,1.285
0.413072406433,0.286317548939,-0.126960186704,-1.75064142734,0.0522537070511,2.02973081223,0.0932039445903,-0.340917171413,-1.21901933617,-0.0141795852293,-1.73584794294,-0.136378335089,0.555861250046,-0.355121815274,0.573468043374,0.819209379529,0.00333805640945,0.0,0.819181948353,-0.57340207047,-0.0114781520886,0.0,-0.00748910558262,0.0093170083543,-0.999928550774,0.0,0.606432848531,0.1888685977,0.304216284784,1.0,-0.291522857143,-0.383144326531,1.298
0.405767763074,0.261671748592,-0.127265701755,-1.78567338133,0.0492518726458,2.0401980256,0.0855933922343,-0.380071178543,-1.24553176898,-0.0164315676173,-1.76959197726,-0.154173023023,0.523837283074,-0.385156152016,0.57342597141,0.819238837656,0.0033360289143,0.0,0.819210941805,-0.573359465737,-0.0115370176887,0.0,-0.00753897435391,0.00934871695583,-0.999927880078,0.0,0.600456948556,0.18107883043,0.304242241424,1.0,-0.309808571429,-0.407176979592,1.318
0.400087497535,0.243842597313,-0.127572534781,-1.81066714556,0.0469677234426,2.04761746654,0.07996348691,-0.420605623466,-1.28943084811,-0.0205125875747,-1.80886393037,-0.16404774799,0.518804232881,-0.40381961354,0.573566845622,0.819139799756,0.00343641678942,0.0,0.819113917165,-0.57350092154,-0.0113943231314,0.0,-0.00736289713128,0.00935040281811,-0.999929176348,0.0,0.596148970513,0.175245647961,0.3043091256,1.0,-0.322608571429,-0.423999836735,1.332
0.391438115959,0.217526758532,-0.127885953256,-1.84716589234,0.0436725008605,2.05805951141,0.0712232902665,-0.45152168131,-1.32960204478,-0.0191179834602,-1.82716100436,-0.165216608781,0.515039233306,-0.450201343845,0.573444119708,0.819225020704,0.00359915640966,0.0,0.81920069642,-0.573377055309,-0.0113893956046,0.0,-0.00726694405741,0.00947979588926,-0.999928659952,0.0,0.589598751091,0.16671327448,0.304383978914,1.0,-0.340894285714,-0.448032489796,1.352
0.385316369163,0.199870604087,-0.128132617748,-1.87145180897,0.041300225385,2.0647224179,0.0652133557045,-0.48802981791,-1.36308170657,-0.0170848646288,-1.85333531919,-0.18567089016,0.492958039856,-0.466826876045,0.573395960431,0.819259023417,0.00353157365162,0.0,0.819234012968,-0.573329333917,-0.0113953397854,0.0,-0.0073111209365,0.00942740856224,-0.999928833207,0.0,0.585112175529,0.160851860043,0.304390697782,1.0,-0.35278,-0.463653714286,1.365
0.374495209431,0.170473610742,-0.128730009144,-1.91130812015,0.0374541101807,2.07539801178,0.0547931019079,-0.537160342569,-1.41782148763,-0.0336883043075,-1.90702096018,-0.186903226241,0.504506882159,-0.511229137834,0.573549071485,0.819151388054,0.00363496190094,0.0,0.819127333665,-0.573481640918,-0.0114002488422,0.0,-0.00725408541123,0.00951628200594,-0.999928406748,0.0,0.577597126529,0.150845806332,0.304441253411,1.0,-0.37198,-0.488888,1.386
0.367258673637,0.15176333575,-0.129045181564,-1.93631537687,0.0348646539601,2.08181615356,0.0478994400513,-0.561978279552,-1.42663952888,-0.0193200530208,-1.94343187594,-0.201927584891,0.516219216267,-0.545826976045,0.573524172835,0.819168760709,0.00364850023556,0.0,0.819145048512,-0.573456928159,-0.0113704857486,0.0,-0.00722222803217,0.00951008243474,-0.999928696335,0.0,0.572726370533,0.144432436742,0.304477395977,1.0,-0.383865714286,-0.50450922449,1.399
0.355255788053,0.122335343779,-0.129600996077,-1.97522451547,0.0306904392036,2.09136611964,0.0366191238871,-0.624749478615,-1.46968558752,-0.0320223999025,-1.94411981741,-0.213268692865,0.469802848201,-0.574216819414,0.573512692402,0.819177143145,0.00357025251702,0.0,0.819152539935,-0.573445822136,-0.0113908864171,0.0,-0.00728394764176,0.0094575814432,-0.999928746591,0.0,0.564922157763,0.134164417318,0.304477215768,1.0,-0.402151428571,-0.528541877551,1.419
0.34608432532,0.101142416126,-0.13009956645,-2.00263537132,0.0276694115634,2.09777174389,0.0281920762168,-0.666078601582,-1.49536835797,-0.0385627668124,-1.93592625727,-0.212170114574,0.437000667243,-0.614341241262,0.573660483071,0.81907332694,0.00364446979468,0.0,0.819049813674,-0.573593561393,-0.0113391335495,0.0,-0.00719727600199,0.00948999784777,-0.999929067064,0.0,0.559284671675,0.126613266056,0.304560248513,1.0,-0.414951428571,-0.545364734694,1.433
0.33222633901,0.0704528218184,-0.130632551334,-2.04195077261,0.0232094121855,2.10658121806,0.0152731599241,-0.711210957825,-1.52292958041,-0.0222997242949,-1.95842767311,-0.238463726971,0.446737663284,-0.664787334576,0.573433962907,0.819231633003,0.00371060275282,0.0,0.819208710461,-0.573366546121,-0.0113419308332,0.0,-0.00716427096787,0.0095437901884,-0.99992879211,0.0,0.550905046185,0.115727787284,0.304575531653,1.0,-0.41998,-0.551973714286,1.453
0.322547112497,0.0506196449621,-0.131091997497,-2.06694757239,0.0202368481317,2.11173069735,0.00668918745825,-0.751530673674,-1.52705937374,-0.0360286319506,-1.90521169835,-0.230701259866,0.384352252736,-0.66173707512,0.573654885515,0.819077275782,0.00363806592092,0.0,0.819053192959,-0.573587341795,-0.0114094406912,0.0,-0.00725860478936,0.00952503428867,-0.999928290618,0.0,0.545427835005,0.1084060192,0.304576566734,1.0,-0.41998,-0.551973714286,1.466
0.306342822945,0.0190266491937,-0.131621462284,-2.10599980074,0.0154496932985,2.11922909157,-0.00767026343643,-0.791575491499,-1.487164459,-0.02914508624,-1.803871557,-0.218634847164,0.333926727086,-0.695533367763,0.573761644133,0.819002634664,0.00360652698741,0.0,0.818977575375,-0.573693433867,-0.0115031244341,0.0,-0.00735218991911,0.00955390025785,-0.999927331506,0.0,0.536575269948,0.0967549584716,0.304620100674,1.0,-0.41998,-0.551973714286,1.487
0.296686501658,0.00107331429479,-0.132016247917,-2.12765161317,0.0126986914105,2.12323748353,-0.0161677572584,-0.814973063348,-1.48919287975,-0.037641881704,-1.79771869542,-0.229499827907,0.316159184948,-0.71649106028,0.573918718133,0.818891713875,0.00379642253466,0.0,0.818869481711,-0.573850443037,-0.01136608335,0.0,-0.00712914997933,0.00963216798884,-0.999928195702,0.0,0.531145037723,0.0894664316139,0.304735303887,1.0,-0.41998,-0.551973714286,1.5
0.279270011358,-0.0296466240169,-0.132464815735,-2.1641057426,0.00796705579055,2.12941786034,-0.0315994567956,-0.846437158382,-1.4644030654,-0.0244766304238,-1.6834154766,-0.221828854751,0.284251766412,-0.738958854701,0.573831420266,0.81895135256,0.00411462727957,0.0,0.818933532638,-0.573762788282,-0.0111749186007,0.0,-0.00679102543043,0.00978231400542,-0.999929091639,0.0,0.522843987804,0.0785156163359,0.304908056505,1.0,-0.41998,-0.551973714286,1.52
0.267040454503,-0.0498847159904,-0.132954671374,-2.18791854056,0.0047753984773,2.13300460355,-0.0422167867645,-0.875411715501,-1.45654977457,-0.0306821263801,-1.6367537281,-0.214062127811,0.247474846259,-0.764675348796,0.574080837961,0.818776521322,0.00411661511901,0.0,0.818758300931,-0.574011552704,-0.0112396138859,0.0,-0.00683987901098,0.00982314888443,-0.999928358334,0.0,0.516954986738,0.0706399098012,0.304912177257,1.0,-0.41998,-0.551973714286,1.534
0.249198539223,-0.0784202341125,-0.133415555195,-2.22088129411,0.000174300997955,2.13754752141,-0.0579883903255,-0.909092161142,-1.42234456642,-0.0319546326534,-1.62405999278,-0.238324897972,0.209755266691,-0.808128113225,0.573929973365,0.818882041371,0.00416351948844,0.0,0.818864435356,-0.573860610885,-0.011215287961,0.0,-0.00679484888489,0.00984633752825,-0.999928437272,0.0,0.508527913853,0.059669579717,0.304934416958,1.0,-0.41998,-0.551973714286,1.554
0.237098288419,-0.09651491154,-0.133801205733,-2.24156543366,-0.00272553835469,2.1399604759,-0.0686045298114,-0.922731137303,-1.38226663253,-0.0167540531393,-1.56408972656,-0.209187103375,0.183005695277,-0.816582932581,0.573996362322,0.818835967519,0.00407200676056,0.0,0.818816096127,-0.573925674194,-0.0114135063013,0.0,-0.00700889519257,0.00988572610821,-0.999926571208,0.0,0.503060089492,0.0524709930806,0.304873439312,1.0,-0.41998,-0.551973714286,1.567
0.217908714729,-0.124170570838,-0.134352245142,-2.27253508848,-0.00736128174458,2.14325264951,-0.0854564333075,-0.983597268828,-1.37865028301,-0.0398635672839,-1.54068761226,-0.240993046399,0.152356246163,-0.858151436321,0.573945042539,0.818872272705,0.00400450263294,0.0,0.818851599031,-0.573874645588,-0.0114322708472,0.0,-0.00706362307818,0.00984077802747,-0.999926629467,0.0,0.494644999783,0.0414508728861,0.304837337181,1.0,-0.41998,-0.551973714286,1.587
0.205043162595,-0.141755722266,-0.134655638603,-2.29198521267,-0.0102616413584,2.1448813849,-0.0968519530425,-0.995128803879,-1.36830178272,-0.0198799250342,-1.45723591172,-0.215757746349,0.138146800074,-0.880167241698,0.573821565622,0.818959269541,0.00390801244208,0.0,0.818936301484,-0.573750031389,-0.011618196673,0.0,-0.00727274762229,0.00986737503761,-0.999924868204,0.0,0.488741815534,0.0338092647129,0.304773955729,1.0,-0.41998,-0.551973714286,1.601
0.183451231483,-0.170017916273,-0.135313404304,-2.322509258,-0.0149927323809,2.14703982523,-0.115931319116,-1.04090122048,-1.35418582132,-0.0205744887827,-1.42972691744,-0.22019335461,0.104029595093,-0.919849158304,0.573784891241,0.81898527687,0.00384210297085,0.0,0.818960596753,-0.573712420951,-0.0117620539511,0.0,-0.00742882984273,0.00989561031005,-0.999923441761,0.0,0.480295389477,0.0227839520694,0.304714610688,1.0,-0.41998,-0.551973714286,1.621
0.169628788905,-0.187074624987,-0.135709251094,-2.34082265334,-0.0179060176065,2.14785008069,-0.128197318751,-1.07869209013,-1.30040011908,-0.0426116248943,-1.38910343117,-0.23036780649,0.0519266915335,-0.954738154524,0.573712993622,0.819036840595,0.00357793226228,0.0,0.8190068666,-0.573639087539,-0.0121118376767,0.0,-0.00786775094489,0.00987925994917,-0.999920246179,0.0,0.474750782875,0.0156377797523,0.304571037863,1.0,-0.41998,-0.551973714286,1.634
0.147590354201,-0.213143516759,-0.136419337439,-2.36784979911,-0.0222646921453,2.14873016093,-0.147768142692,-1.10595552617,-1.28034961869,-0.0262604568288,-1.31229162737,-0.216885005409,0.0283875832599,-0.989325894907,0.573744743581,0.819014274045,0.00365171532193,0.0,0.818984062879,-0.573669027225,-0.0122351482873,0.0,-0.00792603771669,0.0100107414054,-0.999918478168,0.0,0.46633313844,0.0045958554724,0.304573889077,1.0,-0.41998,-0.551973714286,1.654
0.13159852287,-0.231178515187,-0.137021799533,-2.38614266642,-0.0254535962172,2.14904470655,-0.161898083867,-1.13689967063,-1.26871415334,-0.0339897551259,-1.30632263455,-0.240705158355,0.0193955543567,-1.02387041725,0.57386042884,0.818933051154,0.00368955830014,0.0,0.818903810734,-0.573785147785,-0.0121614081424,0.0,-0.00784251631459,0.0100005367851,-0.99991923884,0.0,0.460435402398,-0.00321141340549,0.304603509317,1.0,-0.41998,-0.551973714286,1.668
0.108018029919,-0.256343505704,-0.137821025835,-2.41111321971,-0.0296958878369,2.14903821993,-0.182962247392,-1.20559400524,-1.23867221912,-0.0375265926942,-1.2468092824,-0.222523098501,-0.00207075358894,-1.06566912252,0.57395948172,0.818862343659,0.0039651460069,0.0,0.818836686353,-0.573883107642,-0.0120584719872,0.0,-0.00759884462095,0.0101680771163,-0.999919430638,0.0,0.45207524053,-0.0142838098755,0.304682167295,1.0,-0.41998,-0.551973714286,1.688
0.0922619844243,-0.272450614184,-0.138297599846,-2.42663379856,-0.0324934396069,2.14890075248,-0.197099344207,-1.22618788601,-1.24878112627,-0.0408077525725,-1.19532453177,-0.217990316565,-0.00237960955782,-1.0952090634,0.573936287164,0.818877070182,0.00426955592611,0.0,0.818857400367,-0.573861679397,-0.0116652340438,0.0,-0.00710239488588,0.0101914547995,-0.999922842141,0.0,0.446709181616,-0.0214453805732,0.304823008323,1.0,-0.41998,-0.551973714286,1.701
0.0660022260083,-0.297646596067,-0.139107154316,-2.45069460306,-0.0368172716663,2.1478936445,-0.22083550308,-1.27310125275,-1.19029874815,-0.0417955007726,-1.10134102001,-0.215054616724,-0.0414493943653,-1.14708293751,0.573910283731,0.818894096857,0.00449346868601,0.0,0.818877556505,-0.573835338789,-0.0115454887578,0.0,-0.00687615385055,0.0103058738066,-0.999923250791,0.0,0.437953751758,-0.0330057383396,0.30490474366,1.0,-0.41998,-0.551973714286,1.722
0.0492123711003,-0.312849621829,-0.139687211133,-2.46505883502,-0.0394987239646,2.14698014177,-0.235993284708,-1.29759368552,-1.16066716233,-0.0448406134177,-1.1035141423,-0.207581088311,-0.0832892810126,-1.16669745748,0.573991403273,0.818837030154,0.00453143676375,0.0,0.818820660169,-0.573915851039,-0.011578830109,0.0,-0.0068806439461,0.0103567823851,-0.999922693911,0.0,0.432481607529,-0.0402032397837,0.304896626863,1.0,-0.41998,-0.551973714286,1.735
0.021342659207,-0.336635334954,-0.140569358838,-2.48707841361,-0.0436615427048,2.1451419891,-0.261422342984,-1.34156348543,-1.11290124277,-0.0512168217714,-1.03160666096,-0.188025608649,-0.0947578778762,-1.24151582647,0.573981297144,0.818843415844,0.00465593805413,0.0,0.818828269986,-0.573904784244,-0.0115892102551,0.0,-0.00681781465184,0.0104646051132,-0.99992200168,0.0,0.423692485898,-0.0517638743098,0.304905318997,1.0,-0.41998,-0.551973714286,1.756
0.00491755095842,-0.349816063207,-0.141113389784,-2.49912930588,-0.0460489635781,2.14378854297,-0.276433171621,-1.3782302691,-1.07837361899,-0.0461803337965,-0.969528028276,-0.188701266327,-0.124048761962,-1.28059834665,0.573998261475,0.818831708346,0.00462343288366,0.0,0.818815434659,-0.573920768885,-0.0117039270435,0.0,-0.00693019584769,0.0105039742157,-0.999920816321,0.0,0.418209150332,-0.0589509113476,0.30488735543,1.0,-0.41998,-0.551973714286,1.769
-0.0245754268084,-0.372223384984,-0.142027360325,-2.51918604441,-0.0501079486454,2.14124265145,-0.303617701539,-1.41691623471,-1.03432566895,-0.0322957031245,-0.947854319791,-0.200907822226,-0.133381566922,-1.31540552772,0.57394237206,0.818870844775,0.00463033830279,0.0,0.818854079361,-0.573863986822,-0.0117842370614,0.0,-0.00699271839024,0.0105552476012,-0.999919841106,0.0,0.409768190296,-0.0699752831075,0.304856908599,1.0,-0.41998,-0.551973714286,1.789
-0.0433503979776,-0.385602176852,-0.14263518707,-2.53080377473,-0.0524828545605,2.13951207458,-0.320943419999,-1.45575728924,-1.01878645908,-0.0563464620898,-0.887522482236,-0.17722120714,-0.118325665004,-1.33415599869,0.574027991214,0.818809902701,0.00479118381754,0.0,0.818795501297,-0.573949492849,-0.0116898937095,0.0,-0.00682203455393,0.0106335306877,-0.99992019075,0.0,0.403912653162,-0.0777138400719,0.304917108476,1.0,-0.41998,-0.551973714286,1.803
-0.0744791437161,-0.406212333826,-0.143586883061,-2.54869455389,-0.0562292682385,2.13647952578,-0.349863888027,-1.50143635296,-0.971828459447,-0.0458413085936,-0.839675873556,-0.186961103671,-0.158885500808,-1.38989045584,0.574047304708,0.81879620944,0.00481728818181,0.0,0.818780808987,-0.573966638594,-0.0118756690839,0.0,-0.00695892410647,0.01076170614,-0.999917876156,0.0,0.395456706281,-0.0887269444287,0.304864339909,1.0,-0.41998,-0.551973714286,1.823
-0.0942145109324,-0.418392689092,-0.144154331053,-2.5587758441,-0.0584228274674,2.13459712126,-0.368382540389,-1.53859737645,-0.929635140773,-0.0585204006914,-0.760630508237,-0.165564052822,-0.147410971207,-1.43558673315,0.573964504581,0.818853113211,0.00500733125392,0.0,0.818841558997,-0.573885412959,-0.0116095199409,0.0,-0.00663298488754,0.0107638705295,-0.999920068107,0.0,0.39050564732,-0.0953312695636,0.304981706641,1.0,-0.41998,-0.551973714286,1.835
-0.125288309903,-0.435971127476,-0.14506312955,-2.57366045737,-0.0616885051723,2.13136975203,-0.397578552211,-1.5775552959,-0.843793894398,-0.0449246588433,-0.708594685405,-0.164542912559,-0.169224245418,-1.45911130288,0.574026777768,0.818809488281,0.00500271995012,0.0,0.818795539929,-0.573943949045,-0.0119563392321,0.0,-0.00691881637288,0.0109596746737,-0.999916004228,0.0,0.381634541314,-0.106890232643,0.304881644356,1.0,-0.41998,-0.551973714286,1.856
-0.14752609987,-0.447738106085,-0.145688742392,-2.58302724244,-0.0638897709662,2.12922534035,-0.418655971448,-1.60231168877,-0.808787630479,-0.0577396948194,-0.659211510093,-0.150200777882,-0.150637500659,-1.52846803903,0.573977810225,0.818842508125,0.00521221245153,0.0,0.818833175779,-0.573897368097,-0.0116098249782,0.0,-0.00651546863909,0.010931924866,-0.999919017564,0.0,0.375848815509,-0.114620721674,0.305028955078,1.0,-0.41998,-0.551973714286,1.87
-0.179857104929,-0.463004609249,-0.146393474401,-2.59560738039,-0.0667521244299,2.12605949919,-0.449378344015,-1.60323202208,-0.718266923294,-0.0146403036916,-0.601179090944,-0.144915662176,-0.142688433811,-1.5399052638,0.573877108529,0.818913150939,0.00520215587558,0.0,0.818901898889,-0.573793748284,-0.0118811332679,0.0,-0.00674478162008,0.0110785790276,-0.999915882966,0.0,0.367489944259,-0.125503374505,0.304931850692,1.0,-0.40718,-0.535150857143,1.89
-0.200972762309,-0.472020366193,-0.146691958939,-2.60283498873,-0.068369386634,2.12410225896,-0.469345719556,-1.62646713838,-0.689958177944,-0.0276221767384,-0.534058973845,-0.11666623035,-0.150963281436,-1.52457141803,0.573925649894,0.818878727881,0.00526538883966,0.0,0.81886790294,-0.573841399637,-0.0119227722736,0.0,-0.00674193629398,0.0111546575047,-0.999915056348,0.0,0.362212578984,-0.132439527684,0.304927664548,1.0,-0.395294285714,-0.519529632653,1.903
-0.232962864257,-0.484397502712,-0.146879105518,-2.61243693883,-0.0704262851665,2.1213957508,-0.499596436678,-1.56143003062,-0.574149830755,0.00538527801975,-0.449209956748,-0.105739124285,-0.137587232044,-1.50966099945,0.573972062031,0.818844784834,0.0054806258081,0.0,0.818837974909,-0.573889120908,-0.0116788121127,0.0,-0.00641798643063,0.011191271875,-0.999916778979,0.0,0.354100638229,-0.143191579629,0.305031677432,1.0,-0.376094285714,-0.494295346939,1.924
-0.255003010881,-0.491968231689,-0.146837978594,-2.61844534592,-0.0715721518639,2.11948830633,-0.520471726338,-1.57720986813,-0.517691662719,-0.00305359381994,-0.410341478006,-0.0658733983925,-0.130434584646,-1.48223101872,0.574118192139,0.81874164834,0.00558226016614,0.0,0.818734705471,-0.57403233117,-0.0118790458255,0.0,-0.00652159730445,0.0113905857507,-0.999913857952,0.0,0.349168391356,-0.149581662037,0.30499256768,1.0,-0.364208571429,-0.478674122449,1.937
-0.285661870323,-0.501293740691,-0.146510839804,-2.62564406293,-0.0728895917173,2.11727535593,-0.549621675109,-1.51248812014,-0.438598463623,0.0285920556338,-0.337983657013,-0.0629633704384,-0.114251537723,-1.43580500885,0.574122563201,0.818737356991,0.00575930484686,0.0,0.81873323195,-0.574036978978,-0.0117553633348,0.0,-0.00631862280495,0.0114645743288,-0.9999143156,0.0,0.342035007681,-0.158975045338,0.305032544209,1.0,-0.345922857143,-0.454641469388,1.957
-0.30504241241,-0.506435452927,-0.146268922056,-2.62952391026,-0.0735660649237,2.11599776172,-0.568073662915,-1.49130016815,-0.394770308203,0.00774277738633,-0.280289649842,-0.0448430004409,-0.0908681040582,-1.41307752799,0.574184957762,0.818692639701,0.00589430911428,0.0,0.818690791764,-0.574099858537,-0.0116398801924,0.0,-0.00614568053521,0.0115092823016,-0.999914879893,0.0,0.33761745277,-0.164853467926,0.305080752886,1.0,-0.334037142857,-0.439020244898,1.97
-0.335406408361,-0.513464286864,-0.145717941178,-2.63483954078,-0.0744752216561,2.11421210001,-0.597042906922,-1.42186492883,-0.304835892391,0.027610179598,-0.23586697204,-0.0449833374673,-0.0845094542267,-1.35017770661,0.574221157862,0.818666405277,0.00601046048838,0.0,0.818666874379,-0.574137214999,-0.0114784166569,0.0,-0.0059462795414,0.0115119362452,-0.999916055018,0.0,0.330772148469,-0.173924652081,0.3051312,1.0,-0.314837142857,-0.413785959184,1.991
-0.353506224914,-0.516991646534,-0.145201256192,-2.63768661301,-0.0748308318688,2.11313503513,-0.614412885028,-1.38397522515,-0.259127855854,0.0366351527426,-0.211444983037,-0.0341437923441,-0.0815384961058,-1.3217926536,0.574126505914,0.818732787524,0.00601038610508,0.0,0.818731781455,-0.574039758452,-0.0117206080849,0.0,-0.00614596386973,0.0116502301931,-0.999913245869,0.0,0.326690885669,-0.179188212267,0.305060552205,1.0,-0.302951428572,-0.398164734694,2.004
-0.380302941977,-0.521376691207,-0.144385036553,-2.64121768916,-0.0752219102206,2.11186361877,-0.640061231452,-1.31429549491,-0.202263287526,0.0426176066445,-0.157522494678,-0.0157185686025,-0.062332991071,-1.24913071895,0.57410609805,0.818746903856,0.00603676319013,0.0,0.818745012895,-0.574016940783,-0.0119122817035,0.0,-0.00628806048862,0.011781710158,-0.999910821824,0.0,0.320748332922,-0.186942918142,0.304981912716,1.0,-0.284665714286,-0.374132081633,2.024
-0.398196542349,-0.523796652196,-0.143770941804,-2.64310668802,-0.0753794540204,2.11114065666,-0.657315601734,-1.2563132829,-0.164839386348,0.0466007706545,-0.12862809868,-0.0062956060643,-0.0463399692441,-1.20309252899,0.574012200546,0.81881254367,0.00606290801919,0.0,0.818810698157,-0.573922404818,-0.0119524363204,0.0,-0.00630728747081,0.0118254458987,-0.999910184444,0.0,0.316838676917,-0.192087900093,0.30496586496,1.0,-0.271865714286,-0.35730922449,2.038
-0.423865186473,-0.526600351374,-0.142752455809,-2.64522451326,-0.075488689053,2.1102976242,-0.681958870454,-1.19332035539,-0.116830386943,0.0437158511991,-0.0834841765878,0.00214754584344,-0.0319491159639,-1.14750792641,0.573955638114,0.818852187292,0.00606364122429,0.0,0.818850759963,-0.573866619377,-0.011886251499,0.0,-0.00625348214706,0.0117876252369,-0.999910968963,0.0,0.311300236875,-0.199416143302,0.304985135756,1.0,-0.252665714286,-0.332074938776,2.059
-0.437841021753,-0.527806025067,-0.142198494621,-2.6461312377,-0.0755032644841,2.10993374905,-0.695358382145,-1.15992439514,-0.0927126377033,0.0431963301571,-0.0694261010346,-0.00141676016216,-0.0233487333724,-1.10295760264,0.573974816953,0.818838729093,0.00606565258813,0.0,0.81883766112,-0.573886415984,-0.0118327165668,0.0,-0.0062082104982,0.0117586924952,-0.999911591729,0.0,0.308293009231,-0.203393963781,0.304997549338,1.0,-0.241694285714,-0.317655346939,2.071
-0.459869837271,-0.529285405884,-0.141137005071,-2.64717391573,-0.0754746004715,2.10945944508,-0.716493777485,-1.09238794329,-0.0558788706962,0.0414253978536,-0.0378222872066,-0.00067174921201,-0.0259128058619,-1.03422167344,0.573905640386,0.8188879156,0.00597030303959,0.0,0.818886712183,-0.573819691383,-0.0116731012208,0.0,-0.00613320216277,0.0115884835724,-0.999914041745,0.0,0.303597816808,-0.209608967186,0.30505183695,1.0,-0.223408571429,-0.293622693878,2.091
-0.474420037706,-0.5299845223,-0.140394687895,-2.64757145977,-0.0753817473948,2.10923318488,-0.730442350752,-1.01640379362,-0.0429479012781,0.0463037861026,-0.0244467142029,0.0129139644043,-0.012787160338,-0.983387017931,0.573889301414,0.818899752464,0.00591709704267,0.0,0.818899155219,-0.57380599024,-0.0114719678875,0.0,-0.00599924143943,0.0114293654571,-0.999916685883,0.0,0.300526312884,-0.213706717384,0.305126834443,1.0,-0.210608571429,-0.276799836735,2.105
-0.493873922311,-0.530597764418,-0.139282177093,-2.64773365358,-0.075176895299,2.10906838544,-0.749080953333,-0.941913812708,-0.0242803689932,0.0558400771863,0.000108276212761,0.0103427268084,-0.0051958048362,-0.905599294975,0.573847781755,0.81892959903,0.00581223783396,0.0,0.818930469701,-0.57377019222,-0.011018131245,0.0,-0.00568829450058,0.0110827622109,-0.999922404833,0.0,0.296474025027,-0.21917115408,0.305292539656,1.0,-0.192322857143,-0.252767183674,2.125
-0.505513060433,-0.530787016318,-0.138437128114,-2.64761039586,-0.074852151757,2.10908233496,-0.760373304468,-0.880190328122,-0.0108920995093,0.0613031272483,0.00960692563543,0.0181498273421,0.000712562695506,-0.851206612043,0.573679482537,0.819047546208,0.00580648496332,0.0,0.819050702357,-0.573606620436,-0.0105895638053,0.0,-0.00534282089957,0.0108310296024,-0.999927068872,0.0,0.294122689065,-0.222398345481,0.30544152564,1.0,-0.180437142857,-0.237145959184,2.138
-0.523146321934,-0.530917673551,-0.137174890235,-2.64730728089,-0.0743028786173,2.10909961726,-0.777186003685,-0.789089663446,0.00615243360285,0.0676766191978,0.0177086558912,0.0378055932489,0.000266969205911,-0.773634961128,0.573709989617,0.819026094377,0.00581819938931,0.0,0.819032432084,-0.573643461797,-0.00999003671915,0.0,-0.00484462199165,0.0104968799561,-0.999933170341,0.0,0.290519793817,-0.227261258301,0.305662304909,1.0,-0.161237142857,-0.21191167347,2.159
-0.533056240548,-0.530800236032,-0.136322374003,-2.64706372237,-0.0739051439204,2.10909988281,-0.7866916707,-0.754248175071,0.0122685640221,0.0609349521649,0.0157210498698,0.0292398793343,0.000765930605576,-0.720279505012,0.573622006401,0.819087824129,0.00580319197096,0.0,0.819095020341,-0.573557787818,-0.00977540729486,0.0,-0.00467854121839,0.0103609538718,-0.999935378856,0.0,0.288506298566,-0.229937996378,0.305752889029,1.0,-0.149351428572,-0.19629044898,2.172
-0.54781714062,-0.530406063896,-0.13508985939,-2.64661624311,-0.0732221125159,2.10915144664,-0.800654726772,-0.663960699836,0.0246149190711,0.0621631453754,0.0239445012782,0.0340431888288,0.00444906778682,-0.63174735044,0.57372105936,0.819018114669,0.00584985396409,0.0,0.819026861838,-0.573659025719,-0.00954299224061,0.0,-0.00446014785924,0.0102664008122,-0.999937352085,0.0,0.28548632812,-0.233913694142,0.305849503644,1.0,-0.130151428572,-0.171056163265,2.193
-0.55534849381,-0.529996953186,-0.134282764762,-2.64627678584,-0.0727784895329,2.10917455152,-0.807861856821,-0.618730897359,0.0418133115678,0.0668665809612,0.0305989331009,0.0395794754668,0.00189368734742,-0.584809100898,0.573624869403,0.819085516703,0.0058457191129,0.0,0.819094325702,-0.57356311008,-0.00951794406937,0.0,-0.00444320684646,0.0102481220869,-0.999937615007,0.0,0.283989232249,-0.235897822921,0.305877592162,1.0,-0.11918,-0.156636571429,2.205
-0.567437522062,-0.529133184121,-0.133095754601,-2.64589494322,-0.0721301216521,2.10933072403,-0.819020765732,-0.558789883988,0.0549217821598,0.0570659480738,0.0258029286052,0.0351031712667,0.0024521113097,-0.505997147306,0.573847817968,0.818929411185,0.00583508447627,0.0,0.818937139865,-0.573783863615,-0.00973579514299,0.0,-0.004624940713,0.0103656317614,-0.999935579726,0.0,0.281506089162,-0.239067654704,0.305779702082,1.0,-0.0999800000001,-0.131402285714,2.226
-0.573836097274,-0.528752451344,-0.132266138967,-2.64558221401,-0.0716503318383,2.1093506176,-0.825104865545,-0.477818337813,0.022778710736,0.0687813467782,0.0235470300197,0.0415516165971,0.00406095101267,-0.451157070761,0.573741044246,0.819004143327,0.00584587563014,0.0,0.819012052884,-0.573677212767,-0.00971903721481,0.0,-0.00460637479739,0.0103642527054,-0.99993567972,0.0,0.280247334066,-0.240693346598,0.305805817921,1.0,-0.0880942857144,-0.115781061225,2.239
-0.582383973344,-0.528028970522,-0.13111310268,-2.64520979298,-0.0709881780059,2.10950814819,-0.832988034681,-0.408395421666,0.0358412157886,0.0617770225072,0.0249060818045,0.0317311563452,0.00426822644114,-0.36353877768,0.573774541825,0.818980677492,0.00584567793194,0.0,0.818988088758,-0.573709596397,-0.00982631039551,0.0,-0.0046939271906,0.0104258280715,-0.999934632442,0.0,0.278568040655,-0.242844941197,0.305753457592,1.0,-0.0698085714287,-0.0917484081634,2.259
-0.587206113742,-0.527715675215,-0.130303453836,-2.64495763463,-0.0705258043002,2.10956793537,-0.837254139783,-0.345271665591,0.0143793501753,0.0633189863529,0.0168540527056,0.037699383076,0.00699542892647,-0.314546999934,0.573868455597,0.818914908392,0.00584083774969,0.0,0.818922515984,-0.573804066617,-0.00977511377159,0.0,-0.00465357954139,0.0103930230867,-0.999935162532,0.0,0.277660733674,-0.244015537559,0.30577913854,1.0,-0.057922857143,-0.0761271836736,2.272
-0.593363782304,-0.527005034947,-0.129003087082,-2.64455438559,-0.0697343987075,2.10972472187,-0.842724174032,-0.261510495952,0.033162633163,0.0599571615828,0.0130933065941,0.0390411935803,0.0125140375641,-0.233432930212,0.573872294907,0.818912121354,0.00585436067264,0.0,0.818919529188,-0.573807083471,-0.00984797307656,0.0,-0.00470544149433,0.0104459303119,-0.999934368526,0.0,0.276592363104,-0.24544898913,0.305748450957,1.0,-0.038722857143,-0.0508928979594,2.293
-0.596238364044,-0.526824080166,-0.128168045944,-2.64441254486,-0.069248280536,2.1098027377,-0.845209550651,-0.209823202971,0.0164485912355,0.0654655470601,0.0127178305713,0.0336949021182,0.0106017684566,-0.168817743785,0.573815285869,0.818952086059,0.0058519521113,0.0,0.818959848546,-0.573750942131,-0.00976574501253,0.0,-0.00464020355107,0.0103964477447,-0.999935189092,0.0,0.276140754464,-0.246043938863,0.305774173898,1.0,-0.0268371428573,-0.0352716734696,2.306
-0.599446917092,-0.526549129957,-0.126937833955,-2.64425261702,-0.0685924732882,2.10983533993,-0.847746013959,-0.144223173824,-3.80737430899e-05,0.0476137660151,0.00977806925991,0.0301302785496,0.00238501982307,-0.111285670187,0.573784042416,0.818974376183,0.00579575062852,0.0,0.818981421234,-0.573719668294,-0.00979391585363,0.0,-0.00469592040954,0.0103664043018,-0.9999352409,0.0,0.275695831841,-0.246619414276,0.30577929064,1.0,-0.01973,-0.0259308571429,2.326
-0.601100543408,-0.526420848308,-0.126351005336,-2.64411801448,-0.0683005753658,2.1098537423,-0.849219626724,-0.111035836357,0.0145796007175,0.0402029723988,0.0132408490582,0.0161881781611,0.00416326657968,-0.101924183508,0.573647797694,0.819070150488,0.00574801543851,0.0,0.819076927865,-0.573584166648,-0.00974355740202,0.0,-0.0046837765596,0.0102976353335,-0.999936008424,0.0,0.27546558014,-0.246944437827,0.305809449977,1.0,-0.01945,-0.0255628571429,2.34
-0.603178789258,-0.526182318041,-0.125868254071,-2.6438887669,-0.0680535446057,2.1099648129,-0.851165507135,-0.0960311023299,0.0133643896357,0.015011013222,0.00909527893166,0.0153936183802,0.0012051776544,-0.0949306166227,0.573531905658,0.819151623425,0.00570244983292,0.0,0.819158511513,-0.573469777981,-0.00961736235065,0.0,-0.00460798406094,0.01018727061,-0.999937491047,0.0,0.275140162515,-0.247448180547,0.305847613688,1.0,-0.01905,-0.0250371428571,2.36
-0.604518451628,-0.525975734103,-0.125742457389,-2.64375624389,-0.0679367185024,2.11000090757,-0.852364524916,-0.0979261528589,0.014397363721,0.00938067835418,0.0121464923363,0.00665052992146,0.00197526003986,-0.0863038562604,0.57361502131,0.819093210329,0.0057329766526,0.0,0.819100299324,-0.573552494472,-0.00964275034065,0.0,-0.00461023703442,0.0102273062416,-0.999937071981,0.0,0.274877372703,-0.247809863927,0.30583833595,1.0,-0.01877,-0.0246691428571,2.374
-0.606287517756,-0.525779875561,-0.125628721384,-2.6436438945,-0.0678648863728,2.10999117172,-0.854042546001,-0.091489906656,0.0159142862005,0.00521214418803,0.0111861738197,-0.000605754117449,-6.6610321203e-05,-0.0793413569203,0.573645924295,0.819071509763,0.00574128335487,0.0,0.819078314444,-0.573582537479,-0.00972288063435,0.0,-0.00467072457128,0.010280249468,-0.999936248369,0.0,0.274489097813,-0.248285742009,0.305819538265,1.0,-0.01839,-0.0241697142857,2.393
-0.607597976643,-0.525667207293,-0.125547259127,-2.64350612009,-0.0678423993452,2.10999525674,-0.85525922764,-0.0867181992675,0.00994092443865,0.0130857199223,0.0116834991805,0.000901314937384,0.000985906308076,-0.076828998186,0.573681720893,0.819046613239,0.00571623624386,0.0,0.819053334161,-0.573618826245,-0.00968632431654,0.0,-0.00465470001885,0.0102389666893,-0.999936746664,0.0,0.274213360816,-0.248657150163,0.305843223936,1.0,-0.01809,-0.0237754285714,2.408
-0.609300000278,-0.525412300848,-0.125490001999,-2.6433587378,-0.0678027091269,2.110050679,-0.856979816011,-0.0782387203409,0.0144407906604,0.00404665496743,0.0084188456753,0.00625773550661,0.00601239086256,-0.0821369986367,0.573651005733,0.819068114931,0.00571783403146,0.0,0.819074657585,-0.573587681404,-0.00972748395508,0.0,-0.00468788303762,0.0102637115138,-0.999936337963,0.0,0.273843564679,-0.249146168663,0.305822899657,1.0,-0.01767,-0.0232234285714,2.429
-0.610182371795,-0.525355777872,-0.125506048429,-2.64327244566,-0.0677808492828,2.11005148086,-0.857830000644,-0.0742716674224,0.00300229811143,0.0062065618549,0.00868735461756,0.00171918656813,-0.000597579971204,-0.072640853262,0.5737023184,0.819031995993,0.00574337043923,0.0,0.819038972907,-0.573639245359,-0.00969143665627,0.0,-0.0046430634174,0.0102642415224,-0.999936541641,0.0,0.273641584395,-0.249409533868,0.305841135811,1.0,-0.01745,-0.0229342857143,2.44
-0.611856210754,-0.525206073118,-0.125536874649,-2.64310718923,-0.0677644439736,2.1100815636,-0.859470415038,-0.080478659479,0.00740774950461,-0.0015150416591,0.016190624635,0.00111718056227,-0.000965285742598,-0.0820367575758,0.573766916748,0.818986566503,0.00576853829909,0.0,0.818994058812,-0.573704289112,-0.00963676219506,0.0,-0.00458303185581,0.0102538513455,-0.999936925187,0.0,0.273259604002,-0.249914953152,0.305863264835,1.0,-0.01703,-0.0223822857143,2.461
-0.612926454802,-0.525142636944,-0.125529199079,-2.64299230187,-0.0677503862199,2.11010766947,-0.860497658599,-0.0797067844827,0.00692081612088,0.000688064886939,0.0101372427631,0.00181035794597,0.000949729794363,-0.0793839691462,0.57380836589,0.818957501679,0.005772051647,0.0,0.818965412104,-0.573746575402,-0.00955342311776,0.0,-0.00451223953808,0.0102091413212,-0.999937704624,0.0,0.273024931101,-0.250234981547,0.305894713925,1.0,-0.01677,-0.0220405714286,2.474
-0.614477308715,-0.524946803284,-0.125491286962,-2.64280228004,-0.0677370065821,2.11014936077,-0.862042434186,-0.0711309400906,0.00489553353568,0.00467472480906,0.00479484287293,-0.000695941507514,-0.000457499038906,-0.077146211653,0.573802060447,0.818962036577,0.00575542994976,0.0,0.818969974646,-0.573740791979,-0.00950952930434,0.0,-0.00448590491598,0.0101703076387,-0.999938218841,0.0,0.272693130145,-0.250697769473,0.305913802562,1.0,-0.01635,-0.0214885714286,2.495
-0.615405706078,-0.524861650802,-0.125493745332,-2.64270997546,-0.0677249243296,2.11019191901,-0.863010598994,-0.0696570020727,0.00230955225684,0.000447545865073,0.0072229072709,-0.00112201893089,0.00881885799925,-0.0754781270585,0.573781080588,0.818976683668,0.00576281771464,0.0,0.818984941318,-0.573720339267,-0.00945436974173,0.0,-0.00443674806403,0.0101445947294,-0.999938699353,0.0,0.272487709638,-0.250977387533,0.305928157494,1.0,-0.01609,-0.0211468571429,2.508
-0.616827734294,-0.524580428293,-0.125393656042,-2.64258286161,-0.0676990353093,2.11020292709,-0.864415493149,-0.0666848228908,0.00709456385536,0.00312441986824,0.00170071540291,0.000813746706873,-0.0020060810766,-0.0672529652818,0.573742609645,0.819003836047,0.00573422344177,0.0,0.819011193683,-0.573680626378,-0.00958907928158,0.0,-0.00456396769043,0.010198252905,-0.99993758097,0.0,0.272179413441,-0.251368065792,0.305886065199,1.0,-0.01569,-0.0206211428571,2.528
-0.617778405169,-0.524458290807,-0.125324066441,-2.64251229637,-0.0676913271668,2.11023461151,-0.865364347544,-0.0655584457895,0.0125501964364,0.00105547478043,0.00550267273805,0.000213382482825,-0.00106554637667,-0.0674778874694,0.573702021515,0.819032470672,0.00570520786721,0.0,0.819039461419,-0.573640019131,-0.00960395707718,0.0,-0.00459330557842,0.0101827960189,-0.999937604158,0.0,0.271974733651,-0.251630172194,0.305877701006,1.0,-0.01541,-0.0202531428571,2.542
-0.619128381726,-0.524235268208,-0.125272860405,-2.64241082315,-0.0676752125782,2.11025102583,-0.866799467094,-0.0681979102568,0.00911369327715,0.00585081118143,0.000816280996665,0.000955754095427,0.00012173418557,-0.069161625635,0.573608694787,0.819097900563,0.00569574042149,0.0,0.819104337795,-0.573545745419,-0.00970095961205,0.0,-0.00467935805806,0.0102301574297,-0.999936721741,0.0,0.271668653812,-0.252007886313,0.305844585823,1.0,-0.01501,-0.0197274285714,2.562
-0.620084789321,-0.524103926075,-0.125282013951,-2.64233904654,-0.0676597857702,2.11027937854,-0.867746280284,-0.0674661103264,0.00964144294339,-0.000963025765116,0.00688590923007,0.00192146080518,0.00243336793635,-0.0643464055142,0.573633546504,0.819080375817,0.00571307083351,0.0,0.819086873252,-0.573570255333,-0.00972641583581,0.0,-0.00468995913768,0.0102590972558,-0.999936375579,0.0,0.27144555067,-0.252287669487,0.30583122103,1.0,-0.01473,-0.0193594285714,2.576
-0.621480898901,-0.523970798482,-0.125297719656,-2.64224771056,-0.0676441423766,2.11029259555,-0.869038365229,-0.0692209690553,0.00840018638201,-0.000404842498921,0.00299204579708,-0.000362866303472,-0.000584404434613,-0.0619950376145,0.57374139782,0.819004670823,0.00573624430394,0.0,0.819011316724,-0.573677784148,-0.00974730494219,0.0,-0.00469242269765,0.0102906794904,-0.999936039497,0.0,0.271111834531,-0.252690727191,0.305824644373,1.0,-0.01433,-0.0188337142857,2.596
-0.622292838147,-0.523921830612,-0.125307900038,-2.64218110733,-0.0676335713883,2.11030584083,-0.869843519255,-0.0711738238244,0.003925350019,-0.00332041393419,0.00944875456519,-3.96894392414e-05,0.00312512108628,-0.0690241789199,0.573761991026,0.818990150159,0.00574965194844,0.0,0.818997102157,-0.573698681471,-0.00971166505842,0.0,-0.00465527991132,0.0102813305118,-0.999936309278,0.0,0.270922090353,-0.252929582319,0.305837868649,1.0,-0.01409,-0.0185182857143,2.608
-0.623680155207,-0.523825289817,-0.125298390717,-2.64201788916,-0.0676137785594,2.11034085101,-0.871170805404,-0.0654561943404,0.00184660157269,-0.0004678352175,0.00872047516519,0.00235152963682,0.000700764714855,-0.0635420519877,0.573820919813,0.818948838736,0.00575312260308,0.0,0.818956333375,-0.573758712508,-0.00960264271565,0.0,-0.00456325673996,0.0102219502724,-0.999937342247,0.0,0.270616575094,-0.253345007313,0.305879934138,1.0,-0.01365,-0.01794,2.63
-0.624453814389,-0.523720090412,-0.12528390447,-2.64189150328,-0.0675995222119,2.11040195465,-0.871944471832,-0.0545114524378,0.00717392480153,0.00310564331772,0.00969726181819,0.000541843996554,0.009399013387,-0.0688116988151,0.573823109827,0.818947352864,0.00574619583503,0.0,0.818955167798,-0.573761813278,-0.00951638916899,0.0,-0.00449656054974,0.0101667965439,-0.999938206686,0.0,0.270462047312,-0.25358781513,0.30590440202,1.0,-0.01339,-0.0175982857143,2.643
-0.625634413904,-0.523507359768,-0.125265300295,-2.64170839002,-0.0675769794477,2.110454137,-0.873192140959,-0.0613271394001,0.0112088152112,0.00141101979704,0.00696252793662,0.00023219816587,0.00714378907023,-0.0595551564035,0.573774141261,0.818981677696,0.00574398118947,0.0,0.818989597964,-0.573713151926,-0.00948707727996,0.0,-0.00447443106102,0.0101478958429,-0.999938497947,0.0,0.270215093578,-0.25395000498,0.305914490078,1.0,-0.01299,-0.0170725714286,2.663
-0.626435905899,-0.523355997879,-0.125237807746,-2.64160960109,-0.0675627261422,2.11046086828,-0.873973048817,-0.0572445928233,0.0125787046633,0.00374289995976,0.0024220145883,0.000166030141143,0.000375564147322,-0.0551509770857,0.573782924807,0.818975556809,0.00573929014675,0.0,0.81898324371,-0.573721535253,-0.00952855757408,0.0,-0.00451098824106,0.0101679018586,-0.999938130465,0.0,0.270039467511,-0.254182141016,0.305905044633,1.0,-0.01271,-0.0167045714286,2.677
-0.627590837958,-0.523137287494,-0.125194423545,-2.64152269004,-0.0675402246695,2.11046965076,-0.875163097668,-0.0491950072959,0.00490130309646,-0.00117579696962,-4.11964776508e-05,-0.000390579190123,-0.000233435934806,-0.0519149495237,0.573738094542,0.819006958128,0.00574006190111,0.0,0.819014121967,-0.573675520481,-0.00964427917081,0.0,-0.00460588742592,0.010234679162,-0.999937016588,0.0,0.269773875593,-0.254501359958,0.305865972927,1.0,-0.01229,-0.0161525714286,2.698
-0.628262617056,-0.52303420606,-0.125166399023,-2.64150321301,-0.0675306165685,2.1104819571,-0.875853436285,-0.0554594155548,0.0158736689851,0.00265776632632,0.00111226590595,-0.000113503244382,0.00086628425734,-0.0592620952867,0.573708520651,0.819027681405,0.00573910490021,0.0,0.819034522297,-0.573645262912,-0.00971136063959,0.0,-0.00466175260176,0.0102722131583,-0.999936372826,0.0,0.269613922315,-0.25468022229,0.305838654069,1.0,-0.01205,-0.0158371428571,2.71
-0.629347800432,-0.522908630099,-0.125132529861,-2.64145643193,-0.0675138329408,2.1104909468,-0.876937453704,-0.0508809166813,0.00507925646879,0.00540306466035,0.000962247308242,0.000453074835316,-0.000488461741047,-0.0512281365081,0.573695393846,0.819036852183,0.00574253847576,0.0,0.819043431637,-0.573631470443,-0.00977446218819,0.0,-0.00471163466604,0.0103111508758,-0.999935738268,0.0,0.269355695067,-0.25497435503,0.305815347111,1.0,-0.01165,-0.0153114285714,2.73
-0.630195260849,-0.522833760742,-0.125127606413,-2.64138984316,-0.0674963599234,2.11050237168,-0.877717032383,-0.0564458481341,0.00636745527721,0.00027413478853,0.00240206725222,0.00031029224095,0.000228242871759,-0.0536391616044,0.573758383003,0.81899264412,0.0057544516216,0.0,0.818999389948,-0.573694488654,-0.00976626102102,0.0,-0.0046972891936,0.0103165651248,-0.999935749915,0.0,0.26915784831,-0.255216731896,0.305819227285,1.0,-0.01133,-0.0148908571429,2.746
-0.631157560787,-0.522719071563,-0.12513011206,-2.64123348801,-0.0674842009384,2.11053714903,-0.878625670077,-0.0541628261418,0.00450937744409,0.00164957975785,0.00735333912143,0.000305941251979,0.000663842245202,-0.0544417327968,0.573817097654,0.818951511028,0.00575394873876,0.0,0.818958633617,-0.573754039042,-0.00968535023693,0.0,-0.00463057003489,0.0102700632902,-0.999936539797,0.0,0.268952228295,-0.255517177985,0.305851143795,1.0,-0.01097,-0.0144177142857,2.764
-0.631808471834,-0.522593361436,-0.125132351101,-2.64109820622,-0.0674678264375,2.11058971685,-0.879319027705,-0.0492950312073,0.00906324362112,0.000566428828454,0.00900066386472,0.000553012174543,0.00460042736067,-0.0572195516728,0.573797761876,0.818965044674,0.00575595077445,0.0,0.818972489327,-0.573735368749,-0.00961952557466,0.0,-0.00457575074929,0.0102338246121,-0.999937163695,0.0,0.268824053105,-0.255730236973,0.305870945617,1.0,-0.01071,-0.014076,2.777
-0.632753080989,-0.522418818397,-0.125120227485,-2.64092753691,-0.0674472154498,2.11066079165,-0.880260279546,-0.0520538806983,0.0100061220976,-0.000139597432645,0.00409163723575,-0.000341718507132,0.000630631088709,-0.0430380136504,0.57380943859,0.81895689552,0.00575137957472,0.0,0.818964622039,-0.573747802119,-0.00954747678609,0.0,-0.00451921756758,0.0101888048603,-0.999937880535,0.0,0.268634124859,-0.256029190964,0.305890815215,1.0,-0.01031,-0.0135502857143,2.797
-0.633399361594,-0.52227888911,-0.125102087931,-2.64083746773,-0.0674282745835,2.11065593105,-0.880882750361,-0.0488969838009,0.00966801628009,0.00275729444645,0.00502258944436,-0.000154163951497,6.4622630482e-05,-0.0430084322702,0.573828998027,0.818943156804,0.00575620083941,0.0,0.818950703753,-0.5737668221,-0.00959820719522,0.0,-0.00455775678805,0.0102219711507,-0.999937367118,0.0,0.268491282362,-0.256216560675,0.305880343889,1.0,-0.01003,-0.0131822857143,2.811
-0.634276032575,-0.522121572739,-0.125052498873,-2.64076194123,-0.0674081668354,2.11066503775,-0.881780484367,-0.0389722278652,0.00623311711616,0.00468606960859,0.00188904504331,0.00242139992254,0.00481596898311,-0.0441922540803,0.573789425062,0.818970927364,0.00575001923098,0.0,0.818978099344,-0.573726588239,-0.00966548729731,0.0,-0.00461690306929,0.0102552916664,-0.999936754599,0.0,0.268294547944,-0.256456554539,0.305858793612,1.0,-0.00963,-0.0126565714286,2.831
-0.63482830666,-0.522022914248,-0.125008825557,-2.64074266011,-0.0673938937935,2.11066301306,-0.882358266405,-0.041756035023,0.0066057631079,0.00380502419074,6.83775324401e-05,0.000642768832444,0.000288860037876,-0.039669933694,0.57374502494,0.819002061899,0.00574594313768,0.0,0.819008827615,-0.573681409075,-0.00974310377589,0.0,-0.00468337149547,0.010296233706,-0.999936024755,0.0,0.268165493858,-0.256596543391,0.305832126936,1.0,-0.00937,-0.0123148571429,2.844
-0.635686964605,-0.521959024051,-0.124973874639,-2.64073395726,-0.0673763758673,2.11067586872,-0.883243018321,-0.0374741686809,-0.000686561115462,0.00155593951702,-0.00126182497704,0.000161144553823,0.00118064887976,-0.0462842377509,0.573707035189,0.819028637296,0.00575117071757,0.0,0.819035282999,-0.57364301928,-0.00977949565564,0.0,-0.00471065876024,0.0103211759091,-0.99993563944,0.0,0.267956792087,-0.256820114976,0.305814514343,1.0,-0.00895,-0.0117628571429,2.865
-0.636196769859,-0.521909112886,-0.124962188608,-2.64070695749,-0.0673614091839,2.11068352734,-0.883728486642,-0.0377459519528,0.00115262259589,0.000539338751013,0.00290127856574,0.00256909814988,-0.000443423252333,-0.03636526476,0.573726536567,0.81901491679,0.00575970612806,0.0,0.819021597016,-0.573662359707,-0.0097911989588,0.0,-0.00471510217221,0.0103349933595,-0.99993547578,0.0,0.267836062304,-0.256959637153,0.30580937547,1.0,-0.00869,-0.0114211428571,2.878
-0.637037330298,-0.521828707261,-0.124954437651,-2.64059482237,-0.0673425839815,2.11070044721,-0.884511913992,-0.0418194307175,0.00290063627013,7.44540347124e-05,0.00980619225038,0.00014124742189,0.00135505738773,-0.0311222833522,0.573781430691,0.818976423723,0.00576490074924,0.0,0.818983412021,-0.573717780331,-0.00973787798684,0.0,-0.00466775629541,0.0103089701284,-0.999935966543,0.0,0.267650276436,-0.257210421298,0.305832465196,1.0,-0.00827,-0.0108691428571,2.899
-0.637543311365,-0.52173849701,-0.124953756245,-2.64049641255,-0.0673332478094,2.11072524979,-0.885019547965,-0.043271637056,0.00869913929024,0.000734547712382,0.00982795176011,-0.000125674892894,0.0015324037961,-0.047580410936,0.573788555517,0.818971437368,0.00576413343142,0.0,0.818978583583,-0.573725274545,-0.00970236477424,0.0,-0.00463901990508,0.0102880057782,-0.999936316188,0.0,0.267545890343,-0.257371565927,0.305846198964,1.0,-0.00801,-0.0105274285714,2.912
-0.638283830863,-0.521617497971,-0.124944829449,-2.64033850688,-0.0673143082125,2.11076767342,-0.885755922017,-0.0373162838539,0.0037091473757,0.00122110608916,0.00962199434277,0.00181863413919,0.00149442068867,-0.0356404735817,0.573801575897,0.818962339546,0.0057606253938,0.0,0.818969833538,-0.573739164104,-0.00961926342436,0.0,-0.00457280612125,0.0102375240358,-0.999937139297,0.0,0.267399556877,-0.257609580014,0.305877390447,1.0,-0.00761,-0.0100017142857,2.932
-0.638739924171,-0.521551826346,-0.124927454699,-2.64027133892,-0.0672996979927,2.1108056061,-0.886205951961,-0.0281855027921,0.00513582234087,0.00337322263914,0.00552554016354,0.000306759262389,0.000611905241555,-0.029493669047,0.57380385758,0.818960762188,0.00575759702543,0.0,0.818968417143,-0.573741889882,-0.00957718215438,0.0,-0.00454004920823,0.0102109107791,-0.999937560678,0.0,0.267307254203,-0.257747370192,0.305887460682,1.0,-0.00735,-0.00966000000001,2.945
-0.639404459376,-0.521454542587,-0.124886656,-2.64022366019,-0.0672804009303,2.11082376448,-0.886847179082,-0.027869830356,0.00579914577318,0.00379018165242,0.000855354218128,1.8447553936e-05,0.000121863531133,-0.0247193127823,0.573804903988,0.818960052802,0.00575421364772,0.0,0.818967548994,-0.573742672776,-0.00960447977083,0.0,-0.00456433521989,0.0102238086802,-0.999937318326,0.0,0.267158231937,-0.257926983999,0.305875875293,1.0,-0.00695,-0.00913428571429,2.965
-0.639802566213,-0.521394546573,-0.124841418599,-2.64021312341,-0.067269333438,2.11082566901,-0.887250125043,-0.0274592424632,0.00728285677133,0.00164598641103,0.00468900616064,0.00285799247159,0.000363212838643,-0.032416681328,0.573773055717,0.81898241278,0.00574760749926,0.0,0.818989612388,-0.573710348999,-0.00965386731655,0.0,-0.0046089743803,0.0102465570657,-0.99993688072,0.0,0.26706179533,-0.258029955649,0.305858318639,1.0,-0.00667,-0.00876628571429,2.979
-0.64039397566,-0.521256133169,-0.124799340097,-2.6401923876,-0.0672472005592,2.11082456064,-0.887879797729,-0.0225733421563,0.00697412851342,0.00275960377291,0.00196080781918,0.000264274890769,-0.0002319440138,-0.028450472699,0.573724219152,0.819016606485,0.0057502661873,0.0,0.819023318978,-0.57366037163,-0.00976360038596,0.0,-0.00469794146714,0.010311414632,-0.999935799976,0.0,0.266927699518,-0.258173379282,0.305819193836,1.0,-0.00627,-0.00824057142858,2.999
-0.640759790062,-0.521202872455,-0.124780862415,-2.64017388572,-0.067234622546,2.1108285186,-0.88824593933,-0.0317932251656,9.09530182685e-05,0.000413176162809,0.000783579235782,0.00306639577156,-0.000430225116724,-0.0352099765194,0.573717308779,0.819021421346,0.00575394509729,0.0,0.81902803893,-0.573653153785,-0.00979170568083,0.0,-0.00471893880655,0.0103305122951,-0.999935503986,0.0,0.266842089636,-0.258270023564,0.305808783871,1.0,-0.00601,-0.00789885714286,3.012
-0.641332804456,-0.521078179454,-0.124761364755,-2.64012522324,-0.0672158106001,2.11084819154,-0.888823858721,-0.0265589927074,0.0048651587711,0.0039978696376,-0.000421177066318,-7.94973933406e-06,-0.000237803360439,-0.0316046536242,0.573710300586,0.819026281688,0.0057608859336,0.0,0.819032722619,-0.573645571187,-0.009844025455,0.0,-0.00475790046765,0.0103661724746,-0.99993495031,0.0,0.266711596577,-0.258429716307,0.305787167031,1.0,-0.00559,-0.00734685714286,3.033
-0.641677350199,-0.521034691205,-0.124762254483,-2.64008768918,-0.067204790518,2.11085340888,-0.88916474005,-0.0264788234861,0.00897517426572,-0.000512299596061,0.000819521137523,0.00277374598878,0.000261647756432,-0.0188235098417,0.573720560207,0.819019033394,0.00576963033844,0.0,0.819025574116,-0.573655807418,-0.00984227924995,0.0,-0.00475132356509,0.0103723924661,-0.999934917082,0.0,0.266631880283,-0.258530211029,0.305788665348,1.0,-0.00533,-0.00700514285715,3.046
-0.642167022318,-0.52097864733,-0.124748490286,-2.64001916857,-0.0671901482316,2.11086566904,-0.889627263751,-0.0241302815277,0.00507219846109,0.00381656832927,0.00622520467146,0.00015331138797,0.000312420165665,-0.0259711868554,0.573742704025,0.819003513646,0.0057707118398,0.0,0.819010198238,-0.573678232584,-0.00981465962179,0.0,-0.00472779997128,0.0103575606135,-0.999935182322,0.0,0.266526083749,-0.25867440811,0.305800594264,1.0,-0.00493,-0.00647942857143,3.066
-0.642460511039,-0.520974865532,-0.124735304365,-2.63998643868,-0.0671817236363,2.11087396925,-0.889923610215,-0.0231349107964,-0.000436658640282,0.0026244838218,0.00184427831907,0.000150459713151,0.000649991092766,-0.0255533571224,0.573736134892,0.819008128243,0.00576890737677,0.0,0.819014977701,-0.573672075968,-0.00977560527683,0.0,-0.00469692953977,0.0103336384889,-0.999935575309,0.0,0.266462549176,-0.258758261502,0.305815127328,1.0,-0.00467,-0.00613771428572,3.079
-0.642944104124,-0.520965641068,-0.12470593361,-2.63992830685,-0.0671635027967,2.11089251633,-0.890354991618,-0.0181571578164,-0.000261334291446,-0.000127722496249,0.00471430364426,0.00333355796893,-0.000312606636216,-0.0179537609036,0.573768563032,0.818985443627,0.0057642088973,0.0,0.818992575329,-0.573705251062,-0.00970532639862,0.0,-0.00464165349974,0.0102896535787,-0.999936287011,0.0,0.266361522304,-0.258895966046,0.305840486187,1.0,-0.00423,-0.00555942857143,3.101
-0.64319209381,-0.520966100805,-0.124692401645,-2.63989702088,-0.0671494151284,2.1109020435,-0.890594713721,-0.0213647626529,3.12676852672e-05,0.00129753253593,0.000248514541264,0.00038466801855,-0.000372498225418,-0.0227199977884,0.573773179692,0.818982194069,0.00576636492073,0.0,0.818989548225,-0.573710302278,-0.00966208363523,0.0,-0.00460494015252,0.0102666347157,-0.999936693365,0.0,0.266310233244,-0.258966881255,0.305856042834,1.0,-0.00399,-0.00524400000001,3.113
-0.643566378754,-0.520921106213,-0.124676389626,-2.6398193249,-0.0671340358086,2.11091784323,-0.89093329521,-0.018793960503,0.00498126700913,0.00368307177365,0.00709449409118,0.00489396179998,-0.000156857280756,-0.0151524916673,0.573801419774,0.818962427789,0.0057636304752,0.0,0.818969987879,-0.573739073444,-0.00961152740573,0.0,-0.00456474769598,0.010235545518,-0.999937196371,0.0,0.266237571376,-0.259082665265,0.305876576543,1.0,-0.00359,-0.00471828571429,3.133
-0.643794377207,-0.520861452357,-0.124657169809,-2.63977765752,-0.0671201766441,2.1109332773,-0.891160870846,-0.0161115683779,0.00892991879691,-0.000244481715391,0.000911644148038,0.000255620260384,-0.000316976686976,-0.017719101876,0.57379623954,0.818966065324,0.0057624855049,0.0,0.818973609253,-0.573733889317,-0.0096124137507,0.0,-0.00456619536023,0.0102350874724,-0.99993719445,0.0,0.266194654305,-0.259149489095,0.30587535199,1.0,-0.00333,-0.00437657142858,3.146
-0.644112507731,-0.520785520168,-0.124614307522,-2.6397325881,-0.067101004669,2.11094792806,-0.891462966703,-0.013476549672,0.00441464844888,0.00408948255923,-0.000245882278805,-0.000115613061642,0.000487034956513,-0.0184025878359,0.57378958038,0.818970783926,0.00575494777854,0.0,0.818978185848,-0.573727120593,-0.00962647925944,0.0,-0.0045821238675,0.0102369472791,-0.999937102548,0.0,0.266134259844,-0.259235041083,0.305870171379,1.0,-0.00291,-0.00382457142858,3.167
-0.644294205049,-0.520736279106,-0.124585898059,-2.63973612577,-0.0670896196953,2.11095026768,-0.891648587561,-0.0188983801281,0.00102761428718,0.000837362942266,0.00043857324803,0.0046776522431,-0.000958330963759,-0.0199531268041,0.57377113298,0.818983713948,0.00575414178095,0.0,0.818990881675,-0.57370817669,-0.00967525889109,0.0,-0.00462277027312,0.0102641715234,-0.999936636381,0.0,0.266092812343,-0.259274605315,0.305851296065,1.0,-0.00265,-0.00348285714286,3.18
-0.64454946222,-0.520687316757,-0.124528765472,-2.63975248447,-0.0670756693411,2.11095000981,-0.891914617763,-0.0119242306494,0.00372785025387,0.00125523265736,-0.00108729621343,0.00152570107003,0.00116583967665,-0.0163034906664,0.573727212832,0.819014552627,0.00574410505426,0.0,0.819021318186,-0.573663649724,-0.00973880087808,0.0,-0.00468112550062,0.0102921577334,-0.999936077234,0.0,0.266035377844,-0.259323533321,0.30582714457,1.0,-0.00223,-0.00293085714286,3.201
-0.644699582295,-0.520673848537,-0.124508159492,-2.63974150078,-0.0670641707036,2.11094950287,-0.892067784882,-0.0147223184256,0.00135245404951,0.000527989369921,0.000986698995232,-0.000488196744407,-2.85463105289e-05,-0.00619577094768,0.573715572446,0.81902270704,0.00574405678383,0.0,0.819029463888,-0.573651993397,-0.00974036224837,0.0,-0.00468257838612,0.0102929474225,-0.999936062302,0.0,0.266004093765,-0.25936026897,0.305827631243,1.0,-0.00197,-0.00258914285715,3.214
-0.644928288456,-0.520677414612,-0.124485449426,-2.63972980315,-0.0670459691052,2.11096329775,-0.892281948692,-0.0134595244215,-0.000738075016271,-0.00123540330141,-0.00130942493229,0.00255200465668,0.00103630236317,-0.00927078376925,0.573719643971,0.819019834068,0.00574703631167,0.0,0.819026767998,-0.573656372936,-0.00970906760603,0.0,-0.00465518456069,0.010277457259,-0.999936349539,0.0,0.265956277898,-0.259419208687,0.305836000987,1.0,-0.00155,-0.00203714285715,3.235
-0.645049686182,-0.520679951584,-0.124462593321,-2.63972108978,-0.0670340890314,2.11096481432,-0.892379615892,-0.00729168162703,-0.00195445431998,0.00126936842207,0.00140911612836,0.000389407304292,3.41026538592e-05,-0.00193739383208,0.573728322396,0.819013767603,0.00574521191059,0.0,0.819020748001,-0.573665202503,-0.00969518868172,0.0,-0.00464475428163,0.0102680497859,-0.999936494689,0.0,0.265933100911,-0.259447728448,0.305841578812,1.0,-0.00129,-0.00169542857144,3.248
-0.645245420248,-0.520669175985,-0.124462186822,-2.63971124078,-0.067017580868,2.11096991983,-0.892502556249,-0.010258219509,0.00128735718151,0.000285276919051,0.00045146735068,0.00554982812336,-0.000117789742489,-0.00179537045094,0.573795173115,0.818966839663,0.00575862345516,0.0,0.818973991744,-0.573732055298,-0.00968898716324,0.0,-0.00463114148982,0.0102758547467,-0.999936477651,0.0,0.265886714785,-0.259501048608,0.305842549295,1.0,-0.000890000000005,-0.00116971428572,3.268
-0.64535135683,-0.520665305067,-0.124462150943,-2.63970787228,-0.0670082323574,2.11097090989,-0.892538629436,-0.00440519614861,0.000467153092581,-0.00244713363451,0.000235119433287,-0.000184531888859,0.000210989280552,-0.00749765991654,0.573856509538,0.818923806991,0.00576642908504,0.0,0.818931050887,-0.573793371353,-0.0096875066748,0.0,-0.00462468010043,0.0102817445525,-0.999936447012,0.0,0.265860910977,-0.25952918726,0.305842747868,1.0,-0.000630000000005,-0.000828000000007,3.281
-0.645458773639,-0.520653581341,-0.124457125172,-2.63970672457,-0.0669922723321,2.11097490386,-0.892590162612,-0.000376837431519,0.00156410331532,5.60476522131e-05,-0.000928582327522,0.000100441688871,0.0013957123632,0.000628041137875,0.573905600934,0.81888932433,0.0057777691305,0.0,0.818896665644,-0.573842359486,-0.00969248972016,0.0,-0.00462163666843,0.0102941682079,-0.999936333261,0.0,0.265836186684,-0.259555672099,0.305839421664,1.0,-0.000210000000005,-0.000276000000007,3.302
-0.645462471029,-0.520655122597,-0.124449449497,-2.63969935865,-0.0669800702634,2.11097804372,-0.892610514535,0.000538287144337,0.000423696987835,0.00429187924457,0.000348915000585,-0.000104906176672,-0.000270269353576,-0.00312546312458,0.573892042837,0.818898788777,0.00578306231147,0.0,0.818906243567,-0.573828910745,-0.00967948047532,0.0,-0.00460811521076,0.0102909607903,-0.999936428679,0.0,0.265840206438,-0.259556064266,0.305843800662,1.0,0.0,0.0,3.314
-0.64544916379,-0.520644391152,-0.124429239792,-2.63970362372,-0.0669695206319,2.11097857267,-0.892624844719,0.000568757606146,0.000592327142655,0.000472920534822,-0.00119106051965,-0.000186812854601,3.2614697368e-05,-0.00012396963508,0.573859424371,0.818921647504,0.00578301051168,0.0,0.818929035857,-0.573796150794,-0.00969321749583,0.0,-0.00461980541527,0.0102986177155,-0.999936295906,0.0,0.265847854497,-0.25954582284,0.30583843362,1.0,0.0,0.0,3.335
-0.645452477328,-0.52064916845,-0.124412318897,-2.63970114578,-0.0669628894391,2.11097962698,-0.892631380124,-0.000721476795594,-0.00286583888177,0.00485574283837,0.000612824189706,-9.02426029748e-06,0.000167689888389,-0.000622862171603,0.573847705484,0.818929883074,0.00577965565989,0.0,0.818937275736,-0.573784535921,-0.00968460887566,0.0,-0.0046148274233,0.0102908641736,-0.999936398719,0.0,0.265852098385,-0.259543165036,0.305841815676,1.0,0.0,0.0,3.348
-0.645451890995,-0.520653942025,-0.124392986062,-2.63969750231,-0.0669549443545,2.11097963301,-0.892635712859,0.00091580353825,-0.000809710004595,-0.000560765455992,-0.00198814618181,0.000167358549258,-0.000653943810021,0.000463550324935,0.57383350035,0.818939861632,0.00577614127928,0.0,0.81894725753,-0.573770437162,-0.00967583199456,0.0,-0.00460983416147,0.0102828695791,-0.999936503995,0.0,0.265858096556,-0.259538956942,0.305845694563,1.0,0.0,0.0,3.368
-0.645449084048,-0.520647537809,-0.124389759016,-2.6397025761,-0.0669497984615,2.11097998623,-0.89264326965,-0.00155069071693,0.001137960792,0.00021484225622,-0.000213443873004,0.00145904329711,-0.000331699991253,0.00185014209231,0.573824707843,0.818945996176,0.00577987178618,0.0,0.818953380798,-0.573761518148,-0.00968644788831,0.0,-0.00461649858646,0.0102919668217,-0.999936379656,0.0,0.265858732255,-0.259535630428,0.305841134859,1.0,0.0,0.0,3.382
-0.645449163948,-0.52065712656,-0.124384083377,-2.63969749917,-0.0669446847594,2.11097975075,-0.892642851868,0.00072060195212,-0.000705421623729,0.000217735255381,0.00139487408753,-8.11710614445e-05,-0.0003948063917,0.00216098270208,0.57382345807,0.818946868436,0.00578035885108,0.0,0.818954325838,-0.573760417556,-0.00967172881827,0.0,-0.00460417956479,0.0102839127592,-0.99993651932,0.0,0.265861737766,-0.259535299846,0.305847096037,1.0,0.0,0.0,3.403
-0.645451903657,-0.520644118291,-0.124380895975,-2.63969476067,-0.0669403542033,2.11098279088,-0.892644328262,0.000283430815977,0.00146944396368,0.000551777000661,-0.000586502429031,-0.000108959230397,0.000590972870067,6.93444777698e-05,0.573824260152,0.818946293489,0.00578219194007,0.0,0.818953737869,-0.573761139877,-0.00967866200958,0.0,-0.00460879607376,0.0102893968721,-0.999936441636,0.0,0.265862934881,-0.259535795188,0.305843887779,1.0,0.0,0.0,3.416
-0.645449787992,-0.520646108989,-0.124368863487,-2.63968965348,-0.0669403482874,2.1109841163,-0.892644699504,-0.000174667099537,4.47959068785e-06,0.00143183692563,0.000818808404352,0.00291641267989,-0.000104525149612,0.00100753106063,0.573813925261,0.818953583637,0.00577528578588,0.0,0.818960993749,-0.573750920537,-0.00967051201511,0.0,-0.00460621361825,0.0102790061478,-0.999936560402,0.0,0.265867525348,-0.259534104247,0.305847343425,1.0,0.0,0.0,3.436
-0.645454427569,-0.520637666825,-0.124359224672,-2.63969139338,-0.0669377835704,2.11098040848,-0.892650092398,-0.0015159026894,-0.000633951374776,-0.000582269949219,0.00154411861121,0.000189384113287,-0.00022177416916,-0.000967682041907,0.573807527585,0.818958077757,0.00577365269545,0.0,0.818965407171,-0.573744388971,-0.0096842595312,0.0,-0.00461849065254,0.0102855208768,-0.999936436782,0.0,0.265867468683,-0.259531860034,0.305843351044,1.0,0.0,0.0,3.449
-0.645449370916,-0.520637469258,-0.124356125476,-2.63969213501,-0.0669342276932,2.11098297351,-0.892643887157,0.000406990311452,-0.000894854550309,0.000159335101882,0.000800271254511,-3.94517293677e-06,-0.000119549210306,0.00126778303197,0.573807748799,0.818957913945,0.00577490322903,0.0,0.818965264768,-0.573744623411,-0.00968241247237,0.0,-0.00461625751921,0.0102854864832,-0.999936447448,0.0,0.265870002295,-0.259529637842,0.305843236162,1.0,0.0,0.0,3.469
-0.645451877538,-0.520634452775,-0.124358785924,-2.63968740419,-0.0669348380367,2.11098438814,-0.892647752772,0.000460609965136,0.000837676453277,-0.000985332366235,0.00106636711464,-0.00017875405309,-0.000450424977761,-0.000465265581259,0.573808494228,0.818957390773,0.00577502821715,0.0,0.818964757151,-0.573745399941,-0.0096793332821,0.0,-0.00461365448216,0.0102838262327,-0.999936476538,0.0,0.26586996857,-0.259532303546,0.305844336208,1.0,0.0,0.0,3.482
-0.645454452749,-0.52063973646,-0.124355979653,-2.63969378461,-0.0669314813841,2.11098404672,-0.892649763542,0.000879461323714,-0.000944184649944,0.00101670593314,-6.45862715163e-05,0.000170330809412,-0.000267496094045,0.00075970149215,0.573808074821,0.818957668918,0.00577725642966,0.0,0.818965053102,-0.573744958927,-0.00968043408211,0.0,-0.00461328279704,0.0102862804056,-0.99993645301,0.0,0.265868799199,-0.259530444052,0.305843418109,1.0,0.0,0.0,3.503
-0.64545719337,-0.520636616142,-0.124355764907,-2.63968629513,-0.0669298441808,2.11098496934,-0.892647525453,-0.000533490719041,0.00121965948797,0.00106797696099,0.00137533913293,-2.16190111685e-05,0.000260628976033,-0.000114367203066,0.573813056885,0.818954176716,0.00577746385683,0.0,0.818961587982,-0.57374999487,-0.00967510712643,0.0,-0.00460873826564,0.0102834217583,-0.999936503368,0.0,0.265870083476,-0.259532943142,0.305845762513,1.0,0.0,0.0,3.516
-0.645454687717,-0.520642955924,-0.124358630716,-2.63969130303,-0.0669275209163,2.1109844009,-0.892652824202,0.000532405187382,-0.00143114525354,-0.000831215516459,0.000176762256388,0.00045406503665,-9.39179665216e-05,-0.000999428229679,0.573809423125,0.818956694543,0.00578146150064,0.0,0.818964151755,-0.573746354064,-0.00967399816284,0.0,-0.00460558177303,0.010286039057,-0.999936490992,0.0,0.265869212743,-0.25953142001,0.305845704475,1.0,0.0,0.0,3.537
-0.645451903657,-0.520642266022,-0.124350073397,-2.63968879726,-0.066929436962,2.1109835745,-0.892654104656,0.000469242408647,-0.00131168927942,0.00280671393103,0.0014778149393,-0.000240541567926,-0.000439150789769,-0.000356478241775,0.573812122137,0.81895479812,0.00578221635632,0.0,0.818962233087,-0.573748982152,-0.00968055566418,0.0,-0.00461048552676,0.0102904351313,-0.999936423163,0.0,0.265868472847,-0.259531711911,0.305843479383,1.0,0.0,0.0,3.55
-0.645451201647,-0.520629512001,-0.124357797456,-2.63968879726,-0.0669238494902,2.11098521519,-0.892652982002,0.000822393031177,0.00198562974023,0.00012378488081,-0.000844158050992,0.00707880284831,-1.29508957638e-05,-0.000832080219373,0.573807586977,0.818957961859,0.00578417983188,0.0,0.81896540156,-0.573744404138,-0.00968383550048,0.0,-0.00461210217065,0.0102938996294,-0.999936380048,0.0,0.265871039611,-0.259530468113,0.305841982701,1.0,0.0,0.0,3.57
-0.645451903656,-0.520636989476,-0.124358892163,-2.63968629161,-0.0669249157481,2.11098521519,-0.892654860824,0.000332630818187,0.00311425686205,-0.000650760113998,0.000730736053909,0.000139088437953,-4.11884023348e-05,-0.000596738194537,0.573807027267,0.818958360749,0.00578322742209,0.0,0.818965836152,-0.57374395052,-0.00967395256438,0.0,-0.00460456123826,0.0102874457095,-0.999936481221,0.0,0.265871264113,-0.259531763986,0.305845852224,1.0,0.0,0.0,3.583
