nelsonifechukwu/NELSON_IML_WORK/CNN-GradCAM/train2dof/data_sample_2022-02-21-10-59-41/robot_state.csv
position_joint1,position_joint2,position_joint3,position_joint4,position_joint5,position_joint6,position_joint7,velocity_joint1,velocity_joint2,velocity_joint3,velocity_joint4,velocity_joint5,velocity_joint6,velocity_joint7,ee_T_00,ee_T_10,ee_T_20,ee_T_30,ee_T_01,ee_T_11,ee_T_21,ee_T_31,ee_T_02,ee_T_12,ee_T_22,ee_T_32,ee_T_03,ee_T_13,ee_T_23,ee_T_33,v_x,v_y,time
0.465092078543,0.547696851107,-0.123961548214,-1.35576732487,0.07947897372,1.89409395986,0.159183622758,-0.00141859763148,0.00130594100362,-0.000167865058118,-0.000638891991256,8.33254697263e-05,0.000354610660757,-0.00106425744012,0.573782496371,0.818993371257,0.00206193979584,0.0,0.818951798986,-0.573723587919,-0.0118297296841,0.0,-0.00850565045742,0.00847648433332,-0.999927898963,0.0,0.661683256319,0.260923332752,0.303303878748,1.0,0.0,0.0,0.0
0.46509712983,0.547696801068,-0.123963680347,-1.35576525606,0.0794808450871,1.89409314601,0.159180471819,0.00103122415359,0.00216872431483,7.8003984768e-05,0.000261550944972,-0.000175172346144,3.62111319237e-05,-0.00124316909917,0.573777645629,0.818996765533,0.00206357083578,0.0,0.818955208935,-0.573718725739,-0.0118294714906,0.0,-0.00850455339736,0.00847762160634,-0.999927898652,0.0,0.661682636374,0.260925935716,0.303304902227,1.0,-0.00018,-0.000236571428571,0.01
0.465093940628,0.547690875844,-0.123966422356,-1.35576807729,0.0794782660044,1.89409233237,0.159191490597,0.00137858531297,0.00186000886942,-0.00105256743505,-0.00212352758583,-3.82263728761e-05,0.000569374298338,0.00142275091815,0.573790651749,0.818987653469,0.00206357258708,0.0,0.818946131508,-0.573731764767,-0.0118255100095,0.0,-0.00850117322555,0.00847548506223,-0.999927945507,0.0,0.661683590989,0.260921508643,0.303307772235,1.0,-0.00048,-0.000630857142857,0.025
0.465090016984,0.547673078158,-0.123962234722,-1.35578613192,0.0794802961283,1.8940962119,0.15918658217,0.000363043095273,-0.00230673532484,0.000849358637855,-0.000699087148642,0.000778862709382,-0.000133212612389,-0.000519774702416,0.573788437966,0.818989188925,0.00206972964893,0.0,0.818947694102,-0.573729473913,-0.011828439863,0.0,-0.00850006311955,0.00848218566431,-0.999927898127,0.0,0.661680644698,0.260920019652,0.303311989096,1.0,-0.00082,-0.00107771428571,0.042
0.465092494314,0.547591087559,-0.123963955709,-1.3558713155,0.0794784866424,1.89411085242,0.15918599208,0.00168653126977,-0.0137765169982,-0.000735244552521,-0.00913450175198,0.000109312786269,0.00154060090719,-0.000445399075044,0.57379125416,0.818987184249,0.00208220737713,0.0,0.818945809473,-0.573732197886,-0.0118267982536,0.0,-0.00849153027373,0.00849149189612,-0.99992789164,0.0,0.661666055392,0.260912330755,0.303330852043,1.0,-0.00116,-0.00152457142857,0.059
0.465089611106,0.547472477563,-0.123969112537,-1.35602273945,0.0794747990436,1.89414933804,0.159177152186,-0.000615288313942,-0.00894303841818,-0.00234933948172,-0.0106805752329,-8.25585270094e-05,0.00433929198181,-0.00108712937836,0.573797324041,0.818982911967,0.00208991185673,0.0,0.818941591853,-0.573738190816,-0.0118281204668,0.0,-0.00848812971812,0.00849862323987,-0.999927859926,0.0,0.661644294137,0.260893038198,0.303346306668,1.0,-0.00148,-0.00194514285714,0.075
0.465072367038,0.547322664145,-0.12396686934,-1.35623541599,0.0794714200381,1.89421293422,0.159170511193,-0.00166142924538,-0.00649748146102,0.000681803677325,-0.0127419448367,0.000125417278742,0.000708221857489,0.0012899709659,0.573820672957,0.81896650211,0.00210964700653,0.0,0.818925319489,-0.573761338931,-0.0118319038581,0.0,-0.0084796622846,0.00851719836551,-0.999927773721,0.0,0.661617594975,0.260862402983,0.303361223467,1.0,-0.00184,-0.00241828571429,0.093
0.465050320057,0.547100965576,-0.123960100274,-1.35648436125,0.0794663314641,1.89436395313,0.159160297071,-0.00265948837808,-0.0108511531899,0.000158929652936,-0.00930890215262,0.000173745726026,0.00826589948201,0.000377503408927,0.57383316229,0.818957490576,0.00220848059391,0.0,0.818917557974,-0.573773404375,-0.0117839116822,0.0,-0.00838351672023,0.0085707278526,-0.999928127053,0.0,0.661599726354,0.26083556433,0.30340807242,1.0,-0.00222,-0.00291771428571,0.112
0.465028694575,0.546938964372,-0.123961580921,-1.35669046512,0.0794661412088,1.89447045492,0.15914042537,-0.000686755414188,-0.0112386729192,0.000174204160332,-0.0147018292353,4.37708726444e-05,0.00892115709931,-0.000389543966325,0.573847267045,0.818947446272,0.00226743289521,0.0,0.81890822113,-0.573787221471,-0.0117599635912,0.0,-0.00832992850739,0.00860540808688,-0.999928277049,0.0,0.661583971244,0.260805273422,0.303434015925,1.0,-0.0025,-0.00328571428571,0.126
0.464992400719,0.546687850828,-0.123959161662,-1.35704847989,0.0794557996171,1.89460640561,0.159115221083,-0.000313385703549,-0.0167713000349,0.000609312546218,-0.0238239610694,-0.00145100448311,0.00620330977899,0.00142311806904,0.573871933891,0.818930073227,0.00229903408629,0.0,0.81889115438,-0.573811657557,-0.0117560975795,0.0,-0.00830836925369,0.008629319271,-0.999928250351,0.0,0.66154508073,0.260751022331,0.303453166598,1.0,-0.00286,-0.00375885714286,0.144
0.464952339,0.54642121965,-0.123965313997,-1.35744568586,0.0794458167026,1.89475128112,0.158977609017,-0.00118692503898,-0.0197890786539,-0.00162096407049,-0.0229303243947,0.00035396607458,0.0085873558908,-0.00816686084743,0.573815889588,0.818969288527,0.00231866478417,0.0,0.818930520687,-0.573755437896,-0.0117578344973,0.0,-0.00829911860802,0.00864582407958,-0.999928184599,0.0,0.661502292904,0.260685531522,0.303465696309,1.0,-0.0032,-0.00420571428571,0.161
0.464916761628,0.546145263455,-0.123964448102,-1.35788044063,0.0794279237519,1.89490735489,0.158935548092,-0.00196306111691,-0.0196738490129,0.000446187777751,-0.0303233573765,0.000187529408403,0.0139807209248,-0.00208294304922,0.573829519269,0.818959732284,0.00232090798889,0.0,0.818920907813,-0.573768968043,-0.0117671134946,0.0,-0.00830528703811,0.00865312375645,-0.999928070241,0.0,0.661451000066,0.260622213132,0.3034676662,1.0,-0.00352,-0.00462628571429,0.177
0.464869700979,0.545849997361,-0.12396469699,-1.3583597281,0.0793966922126,1.89507537891,0.158912748636,-0.00853940467687,-0.0200219054588,-0.000654029460103,-0.0365447490196,-0.00918596767704,0.0149183266275,-0.00202059316751,0.573868030099,0.818932791196,0.00230530591919,0.0,0.81889377215,-0.573807541735,-0.0117746288225,0.0,-0.00831998791002,0.00864505015165,-0.999928017864,0.0,0.661396336634,0.260544272231,0.303463144149,1.0,-0.00384,-0.00504685714286,0.193
0.464809976254,0.545539110923,-0.123964854681,-1.35891474224,0.0792963116899,1.89525741273,0.158817584321,-0.00397816038856,-0.0218813833968,-0.00336897190348,-0.0331812361556,-0.0091287100488,0.00772487668312,-0.00337318597359,0.573843399823,0.818950299091,0.00221517473749,0.0,0.818910658345,-0.573783824607,-0.0117559844255,0.0,-0.00835669642063,0.00856028908571,-0.999928440978,0.0,0.66133459117,0.260438975179,0.303434702694,1.0,-0.00416,-0.00546742857143,0.209
0.464751908776,0.545171121907,-0.12396284971,-1.35953700564,0.0792791283195,1.89545928644,0.158743323506,-0.00358558315761,-0.023081209246,0.00233481981729,-0.0366307412137,-0.000426448465143,0.0105735760204,-0.000887540985718,0.573858782231,0.818939608781,0.00218222984153,0.0,0.818899305306,-0.573799092683,-0.011801521341,0.0,-0.00841273373808,0.00855959796522,-0.999927977003,0.0,0.661257208569,0.260343620897,0.303416459816,1.0,-0.00448,-0.005888,0.225
0.464681214457,0.544707397533,-0.123970754821,-1.3603191004,0.0792608095335,1.89572622188,0.158654408433,-0.00436435425809,-0.0223489860499,-0.000437238168069,-0.039703998398,-0.00320590281362,0.0207051613524,-0.00459865063338,0.57388808578,0.81891915455,0.00215179299921,0.0,0.818878198466,-0.573828251881,-0.0118482202157,0.0,-0.00846813790469,0.00856177363481,-0.999927490708,0.0,0.661164134136,0.260220700087,0.303395848867,1.0,-0.00486,-0.00638742857143,0.244
0.464617947265,0.544292637833,-0.123971886136,-1.36101146867,0.0792284903492,1.89597507278,0.15854433981,-0.00226721581154,-0.0296090172367,-0.0063317898972,-0.0417632431634,-0.000112705018265,0.0193462879331,-0.00793979220398,0.573880569396,0.818924474514,0.00213166931703,0.0,0.818883157022,-0.573820716279,-0.0118704513687,0.0,-0.00849797074726,0.00855797425804,-0.99992727014,0.0,0.661083995001,0.260113133709,0.303381427832,1.0,-0.00518,-0.006808,0.26
0.46454802534,0.543765129666,-0.123971953984,-1.36186442135,0.0791940041967,1.8962761309,0.158466553081,-0.00886887372315,-0.0370684129619,-0.000203455097172,-0.0488632996231,-0.00251836088696,0.0189397300575,-0.010570180179,0.573912462845,0.818902154902,0.00211957277264,0.0,0.818860501239,-0.573852474802,-0.0118980492395,0.0,-0.00852718025491,0.00856423805324,-0.999926967845,0.0,0.66098180358,0.25998740144,0.303374806992,1.0,-0.00554,-0.00728114285714,0.278
0.464468546662,0.543240814929,-0.12397969301,-1.36271215074,0.0791421703139,1.89656925224,0.158340436751,-0.00714910961494,-0.0284304342495,0.000594245272592,-0.0521309494158,-0.00462790754685,0.0235776982385,-0.000275845809835,0.573912974706,0.818901867936,0.00209166353707,0.0,0.818859856497,-0.573853105792,-0.0119119810405,0.0,-0.00855460061041,0.00854938437953,-0.999926860743,0.0,0.660884232043,0.259848146295,0.30336788296,1.0,-0.00588,-0.007728,0.295
0.464402356841,0.542722792118,-0.123977924073,-1.36355141611,0.0790879540982,1.89686022413,0.158241381781,-0.0023381108641,-0.0329928229777,-0.000838595476079,-0.0512337749973,-0.00139877804644,0.0130533784824,-0.00517620847585,0.573916953204,0.81889914947,0.00206415204708,0.0,0.818856766323,-0.573857183281,-0.0119279648701,0.0,-0.0085834370652,0.00853607047246,-0.99992672737,0.0,0.660782388952,0.259723580745,0.3033599727,1.0,-0.0062,-0.00814857142857,0.311
0.464327307957,0.542125020949,-0.123983690163,-1.36447263282,0.0790396648939,1.89719946488,0.158105432668,-0.00481856257664,-0.0370581268337,3.21593538431e-05,-0.0516618364555,-0.00592349116981,0.0183604445538,-0.0116971828375,0.573909416614,0.818904390415,0.00208033243735,0.0,0.818862169659,-0.573849532915,-0.0119250817761,0.0,-0.00857186906002,0.00854758682596,-0.999926728226,0.0,0.660676959527,0.259584358809,0.303373840839,1.0,-0.00654,-0.00859542857143,0.328
0.464246333419,0.54145676111,-0.123986766035,-1.3654905788,0.0789755159993,1.89757532273,0.157989538579,-0.0038724593102,-0.0393928958114,0.000106150121093,-0.0598878739158,-0.00112027253574,0.0226881131396,-0.00610957997784,0.573922329814,0.818895289475,0.00210026628798,0.0,0.818853361046,-0.5738623956,-0.0119109580751,0.0,-0.00854872820693,0.00855593964613,-0.999926854896,0.0,0.660560029911,0.259432152004,0.303394487831,1.0,-0.0069,-0.00906857142857,0.346
0.464154676303,0.540868330734,-0.123989855145,-1.36639078598,0.0789242254491,1.89791279417,0.157858532137,-0.00780808746069,-0.044669065964,-0.00151478697532,-0.0613301411555,-0.00792441114332,0.0272725425978,-0.00640637810238,0.573928508696,0.818890900244,0.00212304148647,0.0,0.818849255227,-0.573868467912,-0.0119006576152,0.0,-0.00852715783709,0.00856874259248,-0.999926929445,0.0,0.66046240217,0.259285291652,0.303411334897,1.0,-0.0072,-0.00946285714286,0.361
0.464065184366,0.540112109,-0.123985354659,-1.36753278238,0.0788612808375,1.89833193591,0.157715780051,-0.00204090468717,-0.0422662164009,0.00163216437769,-0.0654566535403,-0.00492791453679,0.0261946332449,-0.0135004829653,0.573928108972,0.818891093737,0.00215620740978,0.0,0.818849792137,-0.573867845124,-0.011893744185,0.0,-0.0085024667832,0.00859192951926,-0.999926940734,0.0,0.660327820992,0.259121431522,0.303438426334,1.0,-0.00756,-0.009936,0.379
0.46396459789,0.539414094867,-0.123989635014,-1.36861856169,0.0787927220621,1.89875316778,0.15759278613,-0.00780909160381,-0.044191744926,0.00489809424549,-0.0698110768411,-0.00546325737324,0.0291881530297,-0.00114434123985,0.573954626507,0.818872443346,0.0021806286895,0.0,0.818831527121,-0.573894329786,-0.0118733033669,0.0,-0.00847143359972,0.00860047050496,-0.999927130705,0.0,0.660210096626,0.258950304592,0.303451485354,1.0,-0.00788,-0.0103565714286,0.395
0.463872117038,0.538707518689,-0.123993549905,-1.36970612685,0.078738250451,1.89917104761,0.157443778142,-0.00820103343483,-0.0437114473031,0.00132967404067,-0.068010722924,-0.00367762529656,0.027247502405,-0.0051421149244,0.573956706228,0.818870889096,0.00221658915905,0.0,0.818830372309,-0.573896196521,-0.0118627106401,0.0,-0.00844209885787,0.00862385888828,-0.999927177361,0.0,0.660088341392,0.258786700293,0.303469354541,1.0,-0.0082,-0.0107771428571,0.411
0.463755571313,0.537934940678,-0.124006902019,-1.37091994777,0.0786647774142,1.89964842398,0.15729035446,-0.00665826860207,-0.0446121009139,-0.00153936592704,-0.0739006137142,-0.00765470182763,0.0279617263277,-0.00791133927343,0.573983406744,0.818852104036,0.00224218622523,0.0,0.818812015296,-0.573922890248,-0.0118383511182,0.0,-0.00840717858686,0.00863111230248,-0.99992740899,0.0,0.659960184231,0.258588589726,0.303479078997,1.0,-0.00854,-0.011224,0.428
0.463649358267,0.537125681323,-0.124006862573,-1.37219758304,0.0785813086043,1.90011307591,0.157129059349,-0.00424723206431,-0.0416310815527,-0.00167548061126,-0.077167787464,-0.00909389336459,0.0208800566775,-0.0106233877181,0.573986275401,0.818850112501,0.00223513101017,0.0,0.818809961777,-0.57392581674,-0.0118385081057,0.0,-0.00841132624772,0.00862545477761,-0.999927422927,0.0,0.659810209852,0.258395517956,0.303482633203,1.0,-0.00888,-0.0116708571429,0.445
0.46353964267,0.536335810494,-0.124014833311,-1.37343751739,0.0785194650797,1.90058462978,0.156980401064,-0.00692095394079,-0.0492001533487,-0.0013630236799,-0.0728906653745,-0.00427974794354,0.0331412836906,-0.015026119243,0.574011761644,0.818832185631,0.00225746964386,0.0,0.818792254503,-0.573951139531,-0.01183555231,0.0,-0.00839581553708,0.00864231128194,-0.999927407734,0.0,0.659671106295,0.258203676034,0.303491200814,1.0,-0.0092,-0.0120914285714,0.461
0.463413234703,0.535410183485,-0.124016444018,-1.37489946585,0.0784346089936,1.90111297784,0.156806471417,-0.00490877187289,-0.0534273091168,4.17761723077e-05,-0.0834115313116,-0.0023021547003,0.0284183787261,-0.0114400259354,0.574031488631,0.818818372103,0.00225177017147,0.0,0.818778310202,-0.57397082808,-0.0118454277013,0.0,-0.00840696529739,0.00864351548725,-0.999927303645,0.0,0.659499197705,0.257980101588,0.303494443525,1.0,-0.00956,-0.0125645714286,0.479
0.463300029106,0.534516197939,-0.124015909151,-1.37633876905,0.0783543892906,1.90163302735,0.156628243775,-0.00980445126432,-0.0500697787382,0.000949941551073,-0.0808271751028,-0.00130018937776,0.0242519317419,-0.00825653114727,0.574035271062,0.818815770986,0.00223330755002,0.0,0.818775368188,-0.573974579416,-0.0118669934676,0.0,-0.00843518204714,0.00864081638593,-0.99992708934,0.0,0.65932553913,0.257768957267,0.303485176943,1.0,-0.0099,-0.0130114285714,0.496
0.463178905727,0.533645505436,-0.124024025003,-1.37774720837,0.0782770278849,1.90214614644,0.15645519157,-0.0103447586993,-0.0573816193711,0.000603641965813,-0.09018050767,-0.00146648797473,0.0396250506573,-0.0133769509252,0.574054842895,0.818802103278,0.00221357584399,0.0,0.818761382359,-0.573994164492,-0.0118846450833,0.0,-0.00846075566959,0.00863499473455,-0.99992692357,0.0,0.659160567533,0.257550934464,0.303473682933,1.0,-0.01022,-0.013432,0.512
0.463053927025,0.532711026701,-0.124019013142,-1.37925583246,0.0781880791216,1.90271735982,0.156263768999,-0.00740060068765,-0.0577327978565,0.00115290289339,-0.0940167506979,-0.00673394354964,0.0373331041611,-0.0169470670999,0.574055633382,0.818801554444,0.00221158861921,0.0,0.81876075846,-0.573994912621,-0.0118914923964,0.0,-0.00846749486812,0.00863730646966,-0.999926846558,0.0,0.658983819163,0.257329026543,0.303463908899,1.0,-0.01056,-0.0138788571429,0.529
0.462925632273,0.531737351095,-0.124022309188,-1.38080594601,0.0780994099943,1.90329084682,0.156062292856,-0.00873645092165,-0.0597787916433,-0.000967950764046,-0.0939210376214,-0.0133587714081,0.0329137453915,-0.0212758007593,0.57405883111,0.818799316551,0.00221010011076,0.0,0.818758449645,-0.573998063342,-0.0118983745117,0.0,-0.00847395088473,0.00864007145271,-0.999926767979,0.0,0.658801217746,0.257095921682,0.303462283154,1.0,-0.0109,-0.0143257142857,0.546
0.462801829786,0.530805164586,-0.124020178441,-1.38233517558,0.0780125678124,1.90382703487,0.155866754759,-0.00546293185805,-0.0612407918185,-0.00110951771338,-0.0977057811802,-0.00124996132223,0.0347175914362,-0.0111002979012,0.574058425486,0.818799730872,0.00216142415478,0.0,0.818758097865,-0.573997720632,-0.0119390447784,0.0,-0.00853519844226,0.00862355880716,-0.999926389601,0.0,0.658612034915,0.25686866401,0.303437755217,1.0,-0.01122,-0.0147462857143,0.562
0.462657338051,0.529787810258,-0.124015900806,-1.38397528084,0.0779057676506,1.90441728235,0.15564717958,-0.00671296341074,-0.0553208495166,0.00597413763309,-0.0991093002749,-0.0026187856566,0.0350408235604,-0.0123546744059,0.57405425829,0.818802734723,0.00213003505899,0.0,0.818760687226,-0.573993677236,-0.0119558541134,0.0,-0.00856702432963,0.00860746365437,-0.999926256113,0.0,0.658415486448,0.256617461447,0.30342483818,1.0,-0.01156,-0.0151931428571,0.579
0.462511628317,0.528646428396,-0.124028525553,-1.38574744212,0.0777894365648,1.90508505857,0.15541022282,-0.0050204580317,-0.0637356703117,9.70172771713e-05,-0.10135529211,-0.0125574217858,0.037121956268,-0.0171264761562,0.57405329765,0.818803348797,0.00215275558683,0.0,0.818761734918,-0.573992762155,-0.0119280060553,0.0,-0.00853118942887,0.00861007088011,-0.999926540045,0.0,0.658211005085,0.256345321591,0.303443411605,1.0,-0.01192,-0.0156662857143,0.597
0.462370338487,0.527603245855,-0.124031440589,-1.38736540225,0.0776989211229,1.90572001211,0.155179477914,-0.0123593122513,-0.0696064951044,-0.00091245446453,-0.100797289429,-0.00855627971588,0.0442790415285,-0.0114757664239,0.574045571513,0.818808624136,0.00220584865565,0.0,0.81876768024,-0.57398480042,-0.0119030073062,0.0,-0.00848032470763,0.00863911254825,-0.999926722229,0.0,0.658028210504,0.256100699174,0.303462843642,1.0,-0.01224,-0.0160868571429,0.613
0.46222965243,0.526451179192,-0.12402926672,-1.38916020145,0.0775847745582,1.90639212341,0.15493343092,-0.00994577410369,-0.0683777511794,0.00209552271463,-0.105779583857,-0.00150971109355,0.0429304728166,-0.0165933028552,0.574023964476,0.818823712414,0.00222780116591,0.0,0.81878307769,-0.573963132086,-0.0118887171536,0.0,-0.0084562505897,0.00864866096164,-0.999926843569,0.0,0.65781373866,0.255838632697,0.303477502948,1.0,-0.01258,-0.0165337142857,0.63
0.462071127427,0.525268391794,-0.124038127523,-1.39098738719,0.0774642701103,1.907055423,0.154690046472,-0.0079945556584,-0.0712510627618,-0.00211132811078,-0.107908274566,-0.00111625715546,0.0448656897698,-0.0160427394509,0.574026558705,0.818821868983,0.00223689032595,0.0,0.818781439764,-0.573965779121,-0.0118737187343,0.0,-0.00843872453865,0.00864752067732,-0.999927001493,0.0,0.657597570598,0.255553396894,0.303497627936,1.0,-0.01292,-0.0169805714286,0.647
0.461929364616,0.524176503699,-0.124042859693,-1.39275302074,0.0773591845394,1.90768438996,0.154431119454,-0.00958431011407,-0.0661187741699,-0.000724765111934,-0.111811999595,-0.00649270965091,0.0368095773776,-0.0235232174558,0.574000476915,0.818840256313,0.00219864602839,0.0,0.818799263364,-0.573939785958,-0.0119010634106,0.0,-0.00848334271324,0.00863163200759,-0.999926761231,0.0,0.657379973527,0.255287893192,0.303479775761,1.0,-0.01324,-0.0174011428571,0.663
0.461767880513,0.522968709766,-0.124047163203,-1.39468096801,0.077232678968,1.9084112242,0.154177317521,-0.0131313413693,-0.0737543506099,0.000609088607565,-0.117083086495,-0.00942132627135,0.0408945363378,-0.0166946682906,0.573997295812,0.818842492588,0.00219627729007,0.0,0.81880156022,-0.573936707772,-0.0118914824593,0.0,-0.00847689018676,0.00862416008845,-0.999926880425,0.0,0.657152323743,0.254995132665,0.303474310148,1.0,-0.01358,-0.017848,0.68
0.461613009778,0.5217342949,-0.12404747621,-1.39664521566,0.0771150374755,1.90918166509,0.153918042116,-0.00874232290482,-0.0727999780676,-0.00240155403152,-0.117521508604,-0.00876235250902,0.050650044553,-0.0151339163999,0.573985715099,0.818850522885,0.00222866186011,0.0,0.818810028304,-0.573925015993,-0.0118726773509,0.0,-0.00844302581755,0.00863976422241,-0.999927032232,0.0,0.656921809231,0.254709476235,0.303473617707,1.0,-0.01392,-0.0182948571429,0.697
0.461453838622,0.520559914104,-0.124056386311,-1.3985406965,0.0770023561745,1.9098811742,0.153661110937,-0.00614534830902,-0.0744258431267,-0.00132397188027,-0.117045947003,-0.00315565940125,0.0456556372661,-0.0103842932114,0.573982802121,0.818852620218,0.00220819653238,0.0,0.818811840516,-0.57392216568,-0.0118854732311,0.0,-0.00846528094456,0.00863032085702,-0.99992692562,0.0,0.656693887324,0.254419423063,0.303457289592,1.0,-0.01424,-0.0187154285714,0.713
0.461265551632,0.519150837221,-0.124057038714,-1.40072851038,0.0768625264298,1.91066242279,0.153368638554,-0.0144035780344,-0.0777872531003,-0.000178736124402,-0.123844715,-0.0107383685354,0.0461624759495,-0.0131409408137,0.573976373439,0.818857128451,0.00220744642356,0.0,0.818816328786,-0.573915730404,-0.0118870101165,0.0,-0.00846703776008,0.00863052229853,-0.999926909007,0.0,0.656425730304,0.2540846958,0.303473013644,1.0,-0.0146,-0.0191885714286,0.731
0.461083987678,0.51778082142,-0.124060241261,-1.40283640841,0.0767224536038,1.91141544471,0.153073695848,-0.0161894605342,-0.0813691442417,-0.000321239145284,-0.128383625724,-0.00717308268464,0.0437574661693,-0.0155377965347,0.573959518546,0.8188689235,0.00221451952812,0.0,0.818828265852,-0.573898900368,-0.011877293433,0.0,-0.0084551989543,0.0086305629704,-0.999927008833,0.0,0.656167882574,0.25375998238,0.303496530706,1.0,-0.01494,-0.0196354285714,0.748
0.460917168145,0.516522475255,-0.124061191285,-1.40484377192,0.0765936031,1.91216149096,0.152801954629,-0.00834063802189,-0.0760151957541,0.000197131180357,-0.124270007892,-0.00577846446898,0.0518243664024,-0.0113232561004,0.57394571569,0.818878618679,0.00220685584835,0.0,0.818837891314,-0.573885160387,-0.0118775981227,0.0,-0.00845999220252,0.00862431978939,-0.999927022157,0.0,0.655923909891,0.253458080699,0.303488545946,1.0,-0.01526,-0.020056,0.764
0.460734591575,0.51513663656,-0.124065657807,-1.40701899399,0.0764621026164,1.91298615649,0.152494861301,-0.0104083318082,-0.0766332430188,0.000629165451008,-0.129412907043,-0.00958993480281,0.0506751912704,-0.0251684174624,0.573926343763,0.818892119414,0.0022350835807,0.0,0.818851761999,-0.573865681551,-0.0118624748936,0.0,-0.00843161177942,0.0086385552909,-0.999927138988,0.0,0.655663381346,0.253130474087,0.303496611071,1.0,-0.0156,-0.0205028571429,0.781
0.460571627125,0.513900437323,-0.124068867784,-1.40900779963,0.0763410901628,1.91368588707,0.152232923073,-0.0106750700613,-0.0800054552134,0.000703047914458,-0.138451852029,-0.00821469110369,0.0413187072965,-0.0163309633669,0.573919363721,0.818897134158,0.00218963806521,0.0,0.818856105037,-0.573858801584,-0.0118954608992,0.0,-0.0084847791221,0.0086201998135,-0.999926847664,0.0,0.655411635316,0.252829953378,0.303477264784,1.0,-0.0159,-0.0208971428571,0.796
0.460374664745,0.512503448503,-0.12407549889,-1.41127520295,0.0762099678767,1.91447218932,0.151905051612,-0.0102829456154,-0.077624030952,-0.000714624134113,-0.133457391725,-0.00477243733472,0.0450724220551,-0.0253688366716,0.573900243629,0.818910714048,0.00212124533812,0.0,0.818868631488,-0.573839797923,-0.0119497943599,0.0,-0.00856872461031,0.00859517664532,-0.999926347236,0.0,0.655124295608,0.252478512472,0.303445248412,1.0,-0.01624,-0.021344,0.813
0.460156198876,0.510893681282,-0.12407967937,-1.41384281319,0.0760519591277,1.91545643992,0.15153878739,-0.00715630225654,-0.080608260368,-0.000709989588876,-0.133640299727,-0.0049731490111,0.0502356373582,-0.0203581463682,0.573874057623,0.818929017629,0.00213938641099,0.0,0.81888719973,-0.573813569122,-0.0119368719205,0.0,-0.00854800641882,0.00860234289335,-0.999926462938,0.0,0.654815949268,0.252090663664,0.303435928477,1.0,-0.01662,-0.0218434285714,0.832
0.459980329519,0.509575085456,-0.124081925359,-1.41593050118,0.0759122671332,1.91623147935,0.151249990263,-0.00730589163501,-0.0889877645057,-0.000345230164459,-0.144948357893,-0.00935421115735,0.0522393502355,-0.0212655795265,0.573854166813,0.818942963936,0.00213634081871,0.0,0.818901187357,-0.573793774757,-0.0119288011212,0.0,-0.00854335316987,0.00859500974208,-0.999926565766,0.0,0.65455950197,0.251773860373,0.303432455305,1.0,-0.01692,-0.0222377142857,0.847
0.459782252766,0.508170276163,-0.124082362877,-1.41816375871,0.0757747066141,1.91702262224,0.150942728052,-0.00883757401907,-0.0878140859739,-0.000373400791471,-0.146043943289,-0.010180289444,0.0546887204894,-0.0218706814536,0.573841611328,0.81895186209,0.00209751957956,0.0,0.818909539369,-0.573781339994,-0.0119535395361,0.0,-0.00858602117416,0.00857728232047,-0.999926352522,0.0,0.654260569251,0.251402596672,0.303418863877,1.0,-0.01726,-0.0226845714286,0.864
0.459558631031,0.506639010581,-0.124088274343,-1.42057399841,0.0756228210584,1.91789651866,0.150614017357,-0.0122218272818,-0.0947417747954,-0.000325310849658,-0.141205135759,-0.00551532804024,0.0539398037742,-0.0149601466503,0.573845544077,0.818949108769,0.00209659027036,0.0,0.818906720962,-0.573785223186,-0.0119602223211,0.0,-0.00859198631666,0.00858039734786,-0.999926274559,0.0,0.65398154146,0.251048204144,0.303420533557,1.0,-0.01758,-0.0231051428571,0.88
0.459308428529,0.504826407261,-0.124100324562,-1.42333163193,0.0754548144762,1.91896501161,0.150233973634,-0.0136954304377,-0.0986839247959,-0.000344909396953,-0.144888957136,-0.00632111273454,0.0586663097014,-0.0239495261843,0.573845008545,0.818949218052,0.00219802645406,0.0,0.818908231752,-0.573784354548,-0.0118982917313,0.0,-0.00848306684462,0.00862792339133,-0.999926795578,0.0,0.653655903027,0.250619539187,0.303467781259,1.0,-0.01796,-0.0236045714286,0.899
0.459087419661,0.503168336454,-0.124109549366,-1.42580311837,0.0753007293105,1.91989683791,0.149894115272,-0.0114417266737,-0.10089609132,-0.00234099979101,-0.148240562776,-0.0107409173679,0.0547834876447,-0.0190702246823,0.573839658033,0.818952698118,0.00229608684729,0.0,0.818913049905,-0.573778680445,-0.0118401631366,0.0,-0.00837924919196,0.00867481766544,-0.999927265216,0.0,0.653357672863,0.250236650293,0.303530559901,1.0,-0.0183,-0.0240514285714,0.916
0.458878682586,0.501682845827,-0.124107411324,-1.42801261533,0.0751539563412,1.92070415697,0.149567920355,-0.0153991469987,-0.0973701402079,0.000563067066529,-0.148090770262,-0.00661808406682,0.0538347357239,-0.020352190435,0.573815112691,0.818969704532,0.00236355815901,0.0,0.818930979542,-0.573753926103,-0.0117995732468,0.0,-0.00830755218836,0.0087065320784,-0.999927587816,0.0,0.653086014266,0.249890123251,0.303585782287,1.0,-0.0186,-0.0244457142857,0.931
0.458612765319,0.499751683982,-0.12411068786,-1.43093929055,0.0749657555205,1.92173437889,0.149172314202,-0.0166351546912,-0.100351877954,-0.0010740250685,-0.156802531044,-0.00885947586665,0.0553789935344,-0.0156951931291,0.573809208026,0.818973761687,0.00239109906149,0.0,0.818935364117,-0.573747885539,-0.0117889838491,0.0,-0.00828313989484,0.00872295101029,-0.999927647242,0.0,0.652714465182,0.249432499561,0.303629546629,1.0,-0.01898,-0.0249451428571,0.95
0.45841222101,0.498401013769,-0.12410531915,-1.43310256252,0.07482903386,1.92254551162,0.148851746154,-0.0104750150299,-0.091918815357,0.000694138778832,-0.155994883449,-0.0076233108986,0.0660812406422,-0.0176875571254,0.573780225629,0.818994077574,0.00238756697479,0.0,0.818955607918,-0.573718892605,-0.0117937029147,0.0,-0.00828934015454,0.00872247281734,-0.999927600033,0.0,0.652445902717,0.249098960129,0.303612043373,1.0,-0.01926,-0.0253131428571,0.964
0.458141670416,0.496712919916,-0.124105401106,-1.43578533452,0.0746693914789,1.92349782479,0.148455735516,-0.0218080646222,-0.0955558131875,-0.00301446074464,-0.161713953718,-0.00473567715971,0.0608138591204,-0.0230406122655,0.573770259248,0.819001152556,0.00235555010702,0.0,0.818962101213,-0.573708876364,-0.0118299982552,0.0,-0.00833754272412,0.00871697525971,-0.999927247215,0.0,0.652107747087,0.24866544665,0.30359441135,1.0,-0.0196,-0.02576,0.981
0.457825211832,0.494732714037,-0.124111661584,-1.43899536652,0.0744729537631,1.92460444634,0.148000448378,-0.0139309403795,-0.100521230789,-0.00149504366185,-0.164056267299,-0.0111121029268,0.0636781317732,-0.0194780866503,0.573769628254,0.819001887027,0.00225158627453,0.0,0.81896129541,-0.573708459856,-0.0119057385823,0.0,-0.00845923113795,0.00867528023859,-0.999926587766,0.0,0.651693699602,0.248144510111,0.303542256342,1.0,-0.01998,-0.0262594285714,1.001
0.45759701549,0.493290897233,-0.124120026129,-1.44130884185,0.0743238270615,1.92545788474,0.147664790752,-0.016036014198,-0.109950324864,-0.0032591028397,-0.173453726365,-0.0132869109386,0.0674767313987,-0.0230374375484,0.573763584847,0.819006181041,0.00222957861717,0.0,0.818965337417,-0.573702540903,-0.0119129161754,0.0,-0.00847780028798,0.00866131185237,-0.999926551592,0.0,0.651407044896,0.247769537517,0.303519267698,1.0,-0.022292,-0.0292980571429,1.015
0.457284762506,0.491171796615,-0.124148291551,-1.44466947791,0.0741221991605,1.92669263384,0.147183714103,-0.0206645678965,-0.12671259057,-0.000250530793557,-0.199647976925,-0.014133300983,0.0641837696053,-0.0245571097336,0.57375958558,0.819009008936,0.00221994095033,0.0,0.818968026396,-0.573698567289,-0.0119194182678,0.0,-0.00848869743369,0.00865710782066,-0.999926495549,0.0,0.650986679794,0.24723045858,0.303502224628,1.0,-0.0252645714286,-0.0332048653061,1.033
0.456979638981,0.489235259951,-0.124157149701,-1.44782184142,0.0739286553778,1.92780350081,0.146741905349,-0.0212219833651,-0.132094832774,0.00109064491234,-0.217481761814,-0.0105665799992,0.0788440157302,-0.0310873032055,0.57375861873,0.819009926161,0.00212959711385,0.0,0.818967621984,-0.573697824753,-0.0119827758636,0.0,-0.00859243257435,0.00861945796342,-0.999925934781,0.0,0.650579018199,0.246722902431,0.303445145089,1.0,-0.0277417142857,-0.0364605387755,1.048
0.456576430112,0.486732832146,-0.124189710737,-1.45168463663,0.0736945666704,1.92927848349,0.146173618419,-0.0226222062378,-0.154173589052,-0.00373412168805,-0.234167689769,-0.00742933682048,0.0928270167236,-0.0405851178177,0.573775562322,0.818997813295,0.00222099100691,0.0,0.818956802142,-0.573714494646,-0.0119239993151,0.0,-0.00849167812277,0.00866076185125,-0.999926438598,0.0,0.650115251146,0.246079062167,0.303474191339,1.0,-0.0305491428571,-0.0401503020408,1.065
0.456113442012,0.483834677314,-0.124227392047,-1.4561223278,0.0734147227092,1.93089597338,0.145482745388,-0.0215011114363,-0.161288488813,-0.00262026134244,-0.254359366639,-0.0157709053774,0.0859100185117,-0.0445759461318,0.573758861496,0.819009353453,0.00227919096914,0.0,0.818969189458,-0.573697654712,-0.0118833748237,0.0,-0.00842519082858,0.00868494600231,-0.999926791256,0.0,0.649564939076,0.24533330698,0.303515162842,1.0,-0.0335217142857,-0.0440571102041,1.083
0.455623569945,0.480824915932,-0.124281937139,-1.4607878884,0.0731307796736,1.93252142448,0.144790555273,-0.0277365601402,-0.18297621478,-0.00414271958383,-0.289171846608,-0.0135455539696,0.0992915762218,-0.0406544026434,0.573784225175,0.818991678492,0.00224508394945,0.0,0.818950997566,-0.573723076231,-0.0119097559602,0.0,-0.00846609755304,0.00867241080647,-0.999926554544,0.0,0.649005606974,0.244582872641,0.303521255905,1.0,-0.036164,-0.0475298285714,1.099
0.455155437871,0.478011290297,-0.124310468929,-1.46514350741,0.0728609609972,1.93411144746,0.144157184119,-0.0327908101731,-0.192242082233,-0.00104118847443,-0.296049372242,-0.0163048317535,0.110606352789,-0.0428933026737,0.573807840994,0.818975017948,0.00228658956129,0.0,0.818934881453,-0.573746527749,-0.0118881763537,0.0,-0.00842435881646,0.00869426414969,-0.99992671729,0.0,0.64842381452,0.243800681136,0.303539320218,1.0,-0.0388062857143,-0.0510025469388,1.115
0.454579303741,0.474570807597,-0.124337891041,-1.47036798623,0.0725469466585,1.93605072577,0.143412526891,-0.0334548168207,-0.210689524436,-0.000437044894765,-0.313111060832,-0.020020216034,0.115817477139,-0.0489511762552,0.57385724402,0.818940016275,0.00242077055708,0.0,0.818901569421,-0.573795343695,-0.0118266670952,0.0,-0.00829646380222,0.00876936023093,-0.99992713085,0.0,0.647773814894,0.242919251023,0.303602572079,1.0,-0.0416137142857,-0.0546923102041,1.132
0.453895014206,0.470512919115,-0.124363153424,-1.47665708702,0.0721604913398,1.93824209437,0.142471362064,-0.0368540453816,-0.219341209792,-0.000805016745486,-0.342381478291,-0.0206686520222,0.115202196806,-0.0535232638528,0.573860974,0.818937485416,0.00239257217588,0.0,0.818898376042,-0.573798870498,-0.0118765665128,0.0,-0.00835347113351,0.00877494044103,-0.999926607277,0.0,0.646950465647,0.241857974191,0.303604804142,1.0,-0.0447514285714,-0.0588161632653,1.151
0.453248793665,0.46658745571,-0.124365196056,-1.48252691683,0.0717831052672,1.94048691231,0.14150307271,-0.0372195143126,-0.229065455115,-0.00266965795291,-0.352043047431,-0.0281831295334,0.123107605184,-0.063235916073,0.573774725958,0.818997143797,0.00264371053077,0.0,0.818961424422,-0.573711826393,-0.0117333911314,0.0,-0.00809304164274,0.00889759152922,-0.999927665155,0.0,0.646217273012,0.240888253637,0.303714878975,1.0,-0.0475588571429,-0.0625059265306,1.168
0.452596382001,0.462717888256,-0.124366761316,-1.48852410724,0.0713909130359,1.94253335213,0.140614481158,-0.0412441698388,-0.24670177278,0.000336114937163,-0.384340381753,-0.0270320831261,0.126364623049,-0.0569460896242,0.573756307332,0.819010266118,0.00257501286601,0.0,0.818973390186,-0.573693373241,-0.0118002782637,0.0,-0.00818743885737,0.00887952205706,-0.999927057306,0.0,0.645406902849,0.239885029459,0.30370538294,1.0,-0.0502011428571,-0.065978644898,1.184
0.451946616357,0.45894982973,-0.124376218453,-1.4943571107,0.0709911085373,1.94455415562,0.139739782429,-0.0431967548738,-0.251332639528,0.00116193952606,-0.386926266158,-0.0298703829524,0.137267970235,-0.0596141679806,0.573740124145,0.819021758276,0.00252513699692,0.0,0.818984200611,-0.573677343285,-0.0118292794965,0.0,-0.00823998205369,0.00885515008078,-0.99992684183,0.0,0.644625150409,0.23889493618,0.303698655259,1.0,-0.0526782857143,-0.0692343183673,1.199
0.451149497892,0.454536445884,-0.124386133686,-1.50127569173,0.0705328647491,1.94701209325,0.138668221877,-0.044748910551,-0.261930182538,-0.00106514759647,-0.411360424752,-0.0318656290776,0.143289769582,-0.06568001863,0.57371571642,0.819039005466,0.00247611773369,0.0,0.819000692629,-0.573653000149,-0.0118679313473,0.0,-0.00830002612217,0.00883693101254,-0.999926506408,0.0,0.643706056652,0.237711340625,0.303653433971,1.0,-0.0554857142857,-0.0729240816326,1.216
0.450306466113,0.449785959208,-0.124441502887,-1.50836207691,0.0700412976098,1.949692565,0.137546634769,-0.0477991796345,-0.275837716395,-0.00397658295885,-0.42229607755,-0.0295553722019,0.153160104046,-0.0649293757248,0.573716053057,0.819037943455,0.00273578981741,0.0,0.819003590835,-0.573653026108,-0.011664936238,0.0,-0.00798478501122,0.00893315485278,-0.9999282184,0.0,0.642811923371,0.236466695694,0.303774638428,1.0,-0.0582931428571,-0.076613844898,1.233
0.449407663071,0.44487078322,-0.124475658965,-1.51591884381,0.0695329354154,1.95222996872,0.136428565733,-0.051811661106,-0.288754687759,-0.000931409790271,-0.456647736972,-0.0342006933587,0.154357052084,-0.0675226468563,0.573760768881,0.819006935965,0.0026392870028,0.0,0.818971131789,-0.573697856983,-0.0117388708915,0.0,-0.00810021933739,0.00889697474663,-0.999927612524,0.0,0.641773742201,0.235136104088,0.303766836007,1.0,-0.0611005714286,-0.0803036081633,1.25
0.448464656067,0.439803098938,-0.124485899252,-1.52383349739,0.0689757366565,1.95488799851,0.135158155696,-0.0609189051931,-0.305808903848,0.000262015060613,-0.472361742268,-0.0355634494493,0.163002257198,-0.0792556762528,0.573696487239,0.819052515753,0.00246249269886,0.0,0.819014241796,-0.573634055757,-0.0118485743271,0.0,-0.00829219458703,0.00881447176684,-0.999926769617,0.0,0.640669457159,0.233753850217,0.303697284451,1.0,-0.063908,-0.0839933714286,1.267
0.447515072813,0.434809037303,-0.124504212825,-1.53137556607,0.0684868800974,1.95761704482,0.133929035763,-0.0608814775521,-0.316361784975,-0.00114052228917,-0.470085376098,-0.0327261073316,0.17800217615,-0.0793005725469,0.573673847115,0.81906783459,0.00263559793829,0.0,0.819031778984,-0.57361073642,-0.011764989514,0.0,-0.00812467363606,0.00890807677193,-0.999927315282,0.0,0.639600467786,0.232334741527,0.303766487236,1.0,-0.0667154285714,-0.0876831346939,1.284
0.446357874993,0.429042145538,-0.124540495179,-1.54018347662,0.0678528025458,1.96076880928,0.132521877267,-0.0663843546069,-0.326931741832,-0.00807385852166,-0.508038306577,-0.0396741604944,0.172724128752,-0.0694475668149,0.57370404499,0.819046557441,0.00267439867467,0.0,0.819011286878,-0.573641100232,-0.0117109773908,0.0,-0.00805784585654,0.0089091693292,-0.999927846308,0.0,0.638481559086,0.23081703265,0.303766627719,1.0,-0.0695228571429,-0.0913728979592,1.301
0.445289532579,0.423680205873,-0.124639635701,-1.54842373513,0.0672491877121,1.96344648365,0.131147898921,-0.0669696854307,-0.340154317553,-0.00965960036887,-0.519806239134,-0.0420578335397,0.170698702575,-0.0895587064827,0.573708078087,0.81904438321,0.00246705720474,0.0,0.819006588116,-0.573646074302,-0.0117956331487,0.0,-0.00824608815899,0.00878795532286,-0.999927384299,0.0,0.63731998878,0.229269796146,0.303726597573,1.0,-0.0721651428571,-0.0948456163265,1.317
0.443868415258,0.41671742062,-0.124714590601,-1.55889994522,0.0665052460376,1.96710122003,0.12947877358,-0.0714862043161,-0.352597909228,-0.000923958003371,-0.529856706033,-0.0357865868016,0.204279152197,-0.0891869408254,0.57379150939,0.818985670563,0.00255383360412,0.0,0.818949273989,-0.573729466574,-0.011718904309,0.0,-0.00813256168936,0.00881583770002,-0.999928068636,0.0,0.635881898782,0.227318118549,0.303784100384,1.0,-0.075468,-0.0991865142857,1.337
0.442821691187,0.411718290159,-0.124721384654,-1.566385423,0.0660112273768,1.96981220175,0.128169100031,-0.0750099118739,-0.354695421169,-0.00140821642498,-0.547279154657,-0.0328531052406,0.186052622178,-0.0940300960875,0.573753363369,0.819011765077,0.00274837955345,0.0,0.818977749447,-0.573690482943,-0.0116371213179,0.0,-0.00795437322402,0.00892787108659,-0.999928507977,0.0,0.634858142588,0.225946530394,0.303841519061,1.0,-0.07778,-0.102225142857,1.351
0.441247893847,0.404452620494,-0.124789060331,-1.57761435087,0.0651971509234,1.97346615121,0.126354908028,-0.0798112382092,-0.357899626729,-0.0048512608314,-0.574306683889,-0.0420281284995,0.184871534944,-0.0900298920418,0.573831650086,0.818957837462,0.00245860153443,0.0,0.81891983575,-0.573769559547,-0.0118127919872,0.0,-0.00826366696191,0.00879212075846,-0.999927202561,0.0,0.633230305782,0.223817952702,0.303725684109,1.0,-0.0810828571429,-0.106566040816,1.371
0.439924867127,0.398320397429,-0.124855220138,-1.58665740198,0.0645646170748,1.97666579043,0.124790078176,-0.0882331429795,-0.393330005702,-0.000954142015484,-0.57713797808,-0.0464954105278,0.207170230833,-0.103954045964,0.573865427464,0.818933454482,0.00268611117244,0.0,0.818898599684,-0.573802712951,-0.011673771759,0.0,-0.00801889874402,0.00889899803157,-0.999928249974,0.0,0.631975540508,0.222088885137,0.303832966467,1.0,-0.0837251428571,-0.110038759184,1.387
0.438358976506,0.391318511564,-0.124872307196,-1.59719926358,0.063763176941,1.98021436695,0.122997732792,-0.0868665242157,-0.396452855989,-0.000970267713609,-0.601363104292,-0.0439653186477,0.192083771391,-0.099627640346,0.57387489644,0.818926911134,0.00265788605465,0.0,0.818891813256,-0.573812415876,-0.0116728946661,0.0,-0.00803427423943,0.00887547322874,-0.999928335638,0.0,0.630448950625,0.220076526337,0.303831319863,1.0,-0.0866977142857,-0.113945567347,1.405
0.437032876511,0.385381121028,-0.124915941447,-1.60631674281,0.0630757137193,1.9831126353,0.121398236817,-0.0898873235574,-0.40247668782,-0.00133912871791,-0.614028088829,-0.0522358436778,0.195978352966,-0.109740705473,0.573835206084,0.818955530511,0.00239629010365,0.0,0.818916805599,-0.573773444853,-0.011834119748,0.0,-0.00831685031387,0.00875336531079,-0.999927101641,0.0,0.629074076512,0.2183305224,0.303727605091,1.0,-0.0891748571428,-0.117201240816,1.42
0.435268293162,0.377521998369,-0.124922122854,-1.61778223595,0.0622625154567,1.98708765287,0.119364201402,-0.098733680228,-0.408645453533,0.00120090663568,-0.621762174021,-0.044274603653,0.21716522686,-0.110612922768,0.573818115559,0.818966533875,0.00270805290282,0.0,0.818931709019,-0.573755047029,-0.0116939674092,0.0,-0.00802336341032,0.0089280926274,-0.999927954806,0.0,0.627409361183,0.216141762656,0.303871630751,1.0,-0.0923125714286,-0.121325093878,1.439
0.433989513401,0.372092337086,-0.124943593003,-1.62594227061,0.0616261405731,1.98974751414,0.11789266724,-0.0931651118685,-0.422484971923,-0.00136445198553,-0.637941289414,-0.0601082382974,0.198066229854,-0.107708230195,0.573791610811,0.818985386156,0.002621359773,0.0,0.818949448615,-0.57372886876,-0.0117359561534,0.0,-0.00810778290495,0.0088809253117,-0.999927693897,0.0,0.626182390928,0.214543240639,0.30384251694,1.0,-0.0944594285714,-0.124146677551,1.452
0.432178244958,0.364359122822,-0.125043512554,-1.63738537783,0.0607451968675,1.9934725695,0.115923853667,-0.0974014315095,-0.443201176059,-0.00387869583515,-0.632922548668,-0.0529728848889,0.220253909818,-0.110974704907,0.5738945028,0.818913376491,0.00259390863463,0.0,0.818877258157,-0.573832038814,-0.0117292030806,0.0,-0.00811688969328,0.00885558845836,-0.999927844724,0.0,0.624460654285,0.212258557328,0.303868657583,1.0,-0.097432,-0.128053485714,1.47
0.430379752282,0.356936166124,-0.125049195277,-1.64835867831,0.0599093575397,1.99711507828,0.113834046501,-0.110094432737,-0.439000471658,0.000549601156759,-0.64822594352,-0.0446743735898,0.208681782947,-0.121854252729,0.573802889775,0.81897737523,0.00265507994457,0.0,0.818941920822,-0.573740075065,-0.0117133891428,0.0,-0.00806983029773,0.0088957040788,-0.999927869543,0.0,0.622795592227,0.210095913428,0.303888182463,1.0,-0.100239428571,-0.13174324898,1.487
0.428578854948,0.349842890715,-0.125079526738,-1.65900919433,0.0591076109332,2.00048166708,0.111872658097,-0.116791314458,-0.443679400909,-0.00218530245135,-0.663762428857,-0.0552834061655,0.2148973681,-0.12221949879,0.573826125777,0.81896161694,0.00248882620719,0.0,0.818923468795,-0.573763345722,-0.011862641552,0.0,-0.00828721040956,0.0088454221359,-0.999926537627,0.0,0.621137160798,0.207945376107,0.303807221415,1.0,-0.102881714286,-0.135215967347,1.503
0.426634620551,0.342037918931,-0.125133604493,-1.67018307011,0.0582505077898,2.00430449628,0.109770877795,-0.115612055895,-0.454040034992,-0.00119765603572,-0.666753777462,-0.0481812082951,0.223504181696,-0.125776344505,0.573862023453,0.818935303829,0.00284483438791,0.0,0.818902140878,-0.573798350412,-0.0116397436082,0.0,-0.00789998778856,0.00900942124947,-0.999928207684,0.0,0.619459437701,0.205669275619,0.303970073327,1.0,-0.105689142857,-0.138905730612,1.52
0.424499163417,0.333729936525,-0.125137023915,-1.68259610424,0.0572488495537,2.00815259418,0.10738784679,-0.118739764913,-0.468189249745,-0.000897518562932,-0.697951716339,-0.0625895324983,0.21541601286,-0.129602007118,0.57376771453,0.819002188766,0.00260220289195,0.0,0.818965464447,-0.573704458401,-0.0118114078153,0.0,-0.00818083095869,0.00890829027973,-0.99992685551,0.0,0.617463824158,0.203164869718,0.303862142299,1.0,-0.108661714286,-0.142812538775,1.538
0.422649962034,0.326529108728,-0.125138875154,-1.69288607197,0.0563745987794,2.01148578178,0.105355792693,-0.125086196707,-0.484656674625,0.000874605290376,-0.690568719792,-0.0558512944059,0.222600510214,-0.137379785878,0.573681737753,0.819061894851,0.00276099128292,0.0,0.819027670491,-0.573618405076,-0.011676781678,0.0,-0.00798040515838,0.00896025717584,-0.999928010871,0.0,0.615842849237,0.201054768526,0.303973850396,1.0,-0.111138857143,-0.146068212245,1.553
0.420319191399,0.31787215475,-0.125161430573,-1.7055237187,0.0553763319346,2.0155217299,0.102929381344,-0.127122205909,-0.489188483187,-0.00511252032888,-0.698872503865,-0.0526778513078,0.22537761359,-0.134857523254,0.573711894362,0.819040667892,0.00279168546072,0.0,0.819006574266,-0.57364814989,-0.0116952271148,0.0,-0.00797757502072,0.00899627285479,-0.999927710073,0.0,0.613820907994,0.198431149143,0.303968338838,1.0,-0.114111428571,-0.149975020408,1.571
0.418026648319,0.309513465234,-0.125247653595,-1.71759594727,0.0543664377504,2.0192832271,0.10042604983,-0.133738100855,-0.505335100644,-0.00739587521259,-0.713581531319,-0.0672173565534,0.230260242108,-0.144301145564,0.573659755115,0.819077200148,0.00278791333321,0.0,0.819043236209,-0.573596231933,-0.0116741952474,0.0,-0.00796308388839,0.00898061045008,-0.999927966371,0.0,0.611872294832,0.195845613051,0.303994920991,1.0,-0.116918857143,-0.153664783673,1.588
0.415775703397,0.301537991678,-0.125282926768,-1.72915247852,0.0534129403457,2.02289133224,0.0980519203018,-0.140545640407,-0.507573645682,0.00128793659002,-0.730489111159,-0.0609721613841,0.217143312131,-0.149001504145,0.573630671886,0.81909757715,0.00278536875992,0.0,0.819063465286,-0.573567031771,-0.0116896022055,0.0,-0.0079774827436,0.00898708118497,-0.999927793464,0.0,0.609983124084,0.1933775259,0.303986227489,1.0,-0.119561142857,-0.157137502041,1.604
0.413236605181,0.292905994585,-0.125356027424,-1.7415834516,0.0524283812942,2.02658563749,0.0955490591619,-0.153065319568,-0.517621883824,-0.000216488128547,-0.708080007659,-0.0646035188858,0.230985483092,-0.151017555012,0.573766150827,0.819002952427,0.00270462249412,0.0,0.818967054557,-0.573701960131,-0.0118224951666,0.0,-0.00813116777041,0.00899851751196,-0.999926452692,0.0,0.607913449287,0.190639445794,0.303976388413,1.0,-0.122368571429,-0.160827265306,1.621
0.41067908096,0.284137288107,-0.125439976268,-1.75405803539,0.0513553945499,2.03053698832,0.0928832386897,-0.149021762884,-0.507711870199,-0.00312589836269,-0.740025288345,-0.0631458482275,0.215726923138,-0.157044423562,0.573749043291,0.819014413952,0.0028586643879,0.0,0.81898097849,-0.573684822225,-0.0116888203611,0.0,-0.00793349273097,0.00904781545544,-0.999927595743,0.0,0.605866070892,0.187896482,0.304035070276,1.0,-0.125176,-0.164517028571,1.638
0.408141491328,0.275776291884,-0.12546497376,-1.76609072827,0.0502965268916,2.03403188484,0.0903071333591,-0.159387199475,-0.523236123613,-0.00204379673864,-0.729349277665,-0.0625211491391,0.221880479215,-0.162940109872,0.573719231202,0.819035904663,0.0026790900175,0.0,0.818999836302,-0.573655319442,-0.0118148006486,0.0,-0.00814002841858,0.00897272538345,-0.999926612375,0.0,0.603799595199,0.185233012073,0.303982671537,1.0,-0.127818285714,-0.167989746939,1.654
0.405173068687,0.266186890774,-0.125584599077,-1.77955930121,0.0491021323132,2.03823641881,0.0873377202961,-0.164431770257,-0.527680329993,-0.00509171122616,-0.766797666889,-0.0609532407619,0.228718588965,-0.163144233409,0.573775376078,0.818995869989,0.00288611306898,0.0,0.818963180691,-0.573711504696,-0.0116260462873,0.0,-0.00786603906766,0.00903453336235,-0.999928248744,0.0,0.601559304678,0.182154935559,0.30407314712,1.0,-0.130790857143,-0.171896555102,1.672
0.402587457429,0.258127262042,-0.125691872083,-1.79110948338,0.0480804735922,2.04152455226,0.0848253416282,-0.17833699631,-0.541545455509,-0.00573059347238,-0.775754066711,-0.06951651332,0.223384940212,-0.169991167841,0.573874847409,0.818926855749,0.0026853947233,0.0,0.818891290629,-0.573811357589,-0.0117612472072,0.0,-0.00809084697715,0.00894870258746,-0.999927226811,0.0,0.599548335239,0.179485109744,0.304001452986,1.0,-0.133268,-0.175152228571,1.687
0.399775224933,0.249348306886,-0.125746527491,-1.80331381648,0.0469516723932,2.04517526442,0.0820771138336,-0.175852721229,-0.538927242195,-0.00155033930011,-0.784194395698,-0.0714172569206,0.234323593479,-0.182474971886,0.573891644305,0.818914645752,0.00281610935374,0.0,0.818881256245,-0.57382823084,-0.0116360028625,0.0,-0.00791308246515,0.00898403695176,-0.999928332535,0.0,0.59744358509,0.176671562038,0.304083638251,1.0,-0.135910285714,-0.178624946939,1.703
0.396704994582,0.239972039325,-0.125748753201,-1.81660436631,0.0458218739798,2.0489442276,0.0789882694147,-0.180498143419,-0.547865911204,0.00100946034471,-0.780037044998,-0.0761658086774,0.218455242026,-0.187472673676,0.573813997736,0.818969398297,0.00271432441617,0.0,0.818933647073,-0.573749787672,-0.0118156564845,0.0,-0.0081194743492,0.00900301401266,-0.999926507237,0.0,0.595058813546,0.173656626273,0.304017086784,1.0,-0.138717714286,-0.182314710204,1.72
0.393547973422,0.230372450861,-0.125762086744,-1.82973257222,0.0446309961561,2.05284546447,0.0759367209726,-0.185850108072,-0.560061347269,0.00173346528995,-0.77746676099,-0.0730350866018,0.229299432439,-0.180594012138,0.573803805929,0.818975561467,0.00299481594297,0.0,0.818943683994,-0.573738874491,-0.0116487443586,0.0,-0.00782194521972,0.00913685536125,-0.999927664907,0.0,0.592740891771,0.170620362898,0.304150547136,1.0,-0.141525142857,-0.186004473469,1.737
0.390268568896,0.220717435186,-0.125777468492,-1.84330147792,0.0433291209751,2.05652522533,0.072662647451,-0.196057408405,-0.57567428126,-0.000234055203333,-0.799564601085,-0.074860526543,0.218211833734,-0.195404163222,0.573664412194,0.819074043186,0.00275696623121,0.0,0.819038744267,-0.573599951553,-0.0118058404825,0.0,-0.00808861753151,0.00903082657224,-0.999926506518,0.0,0.590235874258,0.16746213243,0.304068381479,1.0,-0.144332571429,-0.189694236735,1.754
0.386827726995,0.210848745512,-0.125885235781,-1.85668848159,0.0421128674491,2.06038335124,0.069381714927,-0.204534262249,-0.578427034061,0.000399660364254,-0.804282052218,-0.0766626441408,0.223730330936,-0.198607673628,0.573738070474,0.8190215329,0.00301695815045,0.0,0.81898975273,-0.573672851355,-0.011661536905,0.0,-0.00782045341525,0.0091617018834,-0.999927449232,0.0,0.58783138657,0.164218709123,0.304191536651,1.0,-0.14714,-0.193384,1.771
0.382857651662,0.199781666838,-0.125964514242,-1.87200228779,0.0406299960034,2.06444209072,0.0655307119516,-0.215167889848,-0.592416962182,-0.00576527831525,-0.821896357976,-0.0786768744373,0.222509225577,-0.214228398487,0.573677782367,0.819064464417,0.00281993767988,0.0,0.819029754121,-0.57361283239,-0.0118036978891,0.0,-0.00805059204878,0.00908130693662,-0.999926356204,0.0,0.584959167888,0.160510063492,0.304133567877,1.0,-0.150277714286,-0.197507853061,1.79
0.379118687856,0.189723064491,-0.126086894857,-1.88567345329,0.0393378977839,2.06825036228,0.0620272611918,-0.226845885662,-0.591576791836,-0.00935523588074,-0.787256919853,-0.0740493018534,0.21712468619,-0.212949417359,0.573766288373,0.819002001478,0.00295208439361,0.0,0.81896908306,-0.57370094251,-0.0117310040503,0.0,-0.00791425457146,0.00914869664253,-0.999926830285,0.0,0.582435526964,0.157098220658,0.304176779422,1.0,-0.153085142857,-0.201197616327,1.807
0.375900988845,0.181359786484,-0.126239247545,-1.89707897815,0.0382735223033,2.07122417336,0.0590348179051,-0.230238936934,-0.60562189988,-0.0151010027182,-0.768774558485,-0.0860624287199,0.21801848211,-0.222526544182,0.573895545587,0.818911639434,0.0028942108653,0.0,0.818877437331,-0.57382977783,-0.0118269018116,0.0,-0.00802455767177,0.00915758655619,-0.999925869794,0.0,0.580280462673,0.154178031116,0.304157028561,1.0,-0.155397142857,-0.204236244898,1.821
0.371953640281,0.171089938878,-0.126306678899,-1.9109331079,0.0368316116851,2.07492596036,0.0553969696421,-0.231630411553,-0.595898960851,-0.0023226768874,-0.807651299858,-0.0867049654325,0.212654670684,-0.214107975162,0.57391208393,0.818899976404,0.00291469834865,0.0,0.818866583264,-0.57384686202,-0.0117492410111,0.0,-0.00794901572881,0.0091299562512,-0.999926725839,0.0,0.577640182093,0.150687221725,0.304178337767,1.0,-0.158204571429,-0.207926008163,1.838
0.367900377707,0.1606971936,-0.126325498999,-1.92490143752,0.0354459481843,2.07849556492,0.0515104420386,-0.243969787478,-0.620754347983,-0.00565671854522,-0.769025648821,-0.081125027119,0.225122445581,-0.230824435459,0.573777972199,0.818994010325,0.00289768403581,0.0,0.818959925004,-0.573712289282,-0.011815128693,0.0,-0.00801423698785,0.00915252389782,-0.999925998918,0.0,0.574906960007,0.14718536753,0.304177419721,1.0,-0.161012,-0.211615771429,1.855
0.363706388946,0.150185232562,-0.126393125295,-1.93886416835,0.0339730521334,2.08214372747,0.0476621683789,-0.244404554881,-0.614522934295,-0.0112079761944,-0.796017705759,-0.0792960207361,0.205529332067,-0.223587891205,0.573776327341,0.818994824284,0.00299180206915,0.0,0.818962509009,-0.573710944643,-0.0117007578921,0.0,-0.00786658201861,0.00916396805421,-0.999927066629,0.0,0.57218491025,0.143599039824,0.304225314719,1.0,-0.163819428571,-0.215305534694,1.872
0.358805897142,0.138231645002,-0.126485835731,-1.95462006974,0.0324298121502,2.08602163952,0.0431677598125,-0.263877280182,-0.636341118067,-0.00313086648374,-0.838320405683,-0.0773168635708,0.217564846836,-0.243348722334,0.573825350153,0.818960176958,0.00307294338552,0.0,0.81892813182,-0.573758763116,-0.0117619539966,0.0,-0.00786959524451,0.00926600555579,-0.999926102575,0.0,0.569039804175,0.139492086481,0.304274047233,1.0,-0.166957142857,-0.219429387755,1.891
0.355084309831,0.129411607594,-0.126596416613,-1.96624764489,0.0311711313118,2.08889943795,0.0396813038838,-0.264439432319,-0.637980257925,-0.00775485165579,-0.860080239585,-0.0876404564002,0.194924637554,-0.256660013094,0.573779108212,0.818992559848,0.00307714053286,0.0,0.81896087932,-0.573712878456,-0.0117199888479,0.0,-0.00783333933151,0.00924492045938,-0.999926582425,0.0,0.566712037548,0.136389554421,0.304284152864,1.0,-0.169269142857,-0.222468016327,1.905
0.34981214105,0.11719487463,-0.126785212829,-1.98211463876,0.0294481989388,2.09274122884,0.034983922352,-0.279750048508,-0.655564099034,-0.00290036442737,-0.800456076025,-0.0896261679122,0.20601907637,-0.259112457266,0.573930657068,0.818886014033,0.00316919540246,0.0,0.818855986286,-0.573864646777,-0.0116184251751,0.0,-0.00769562484538,0.00926346337222,-0.999927480173,0.0,0.563506607605,0.132061982378,0.304358200734,1.0,-0.172406857143,-0.226591869388,1.924
0.34553109129,0.107578577605,-0.126850890945,-1.99476437773,0.0280916698269,2.09569658194,0.0310567511407,-0.286136194289,-0.650490072607,-0.0034431310408,-0.855344694492,-0.0922780915663,0.198769661624,-0.257393058692,0.573886520659,0.81891726211,0.00308644214462,0.0,0.818885785143,-0.573820342634,-0.0117060741304,0.0,-0.00781539335849,0.00924557975821,-0.999926716756,0.0,0.560884502442,0.128646362052,0.304305375286,1.0,-0.174884,-0.229847542857,1.939
0.340318166042,0.0958164882482,-0.126863515463,-2.00981666531,0.0264323446303,2.09920077319,0.026274968208,-0.292621120192,-0.658041567729,0.00150510386011,-0.841073680226,-0.0866682624738,0.191602782644,-0.276100938071,0.573748870866,0.819013176806,0.00322432927017,0.0,0.818983656777,-0.573682456427,-0.0116170573404,0.0,-0.0076649294751,0.00930612567993,-0.999927319799,0.0,0.557733196328,0.124588963979,0.304386860836,1.0,-0.177856571429,-0.23375435102,1.957
0.334259235694,0.0827155324238,-0.126940279571,-2.02683298576,0.0246295101534,2.10285053871,0.020766915655,-0.30885006457,-0.67092997903,-0.00514139253012,-0.858118390249,-0.101602292787,0.17835004143,-0.276344837028,0.573699030125,0.819048781375,0.0030435938049,0.0,0.819015417793,-0.573631468183,-0.0118924777987,0.0,-0.00799477218985,0.00931563258542,-0.999924648465,0.0,0.554067843258,0.119924860209,0.304292926428,1.0,-0.181159428571,-0.23809524898,1.977
0.330179489226,0.0740110753655,-0.127059061996,-2.03766820804,0.0233353009992,2.10538731334,0.0170888667266,-0.315269208882,-0.660573568218,-0.0119264877676,-0.834708504043,-0.0973424978989,0.18609959513,-0.27739933836,0.573690004553,0.819054139963,0.00329262603819,0.0,0.819025258315,-0.573623077015,-0.0116163100731,0.0,-0.00762580739738,0.00936108510007,-0.999927105917,0.0,0.551792859101,0.116817534178,0.304428140627,1.0,-0.183306285714,-0.240916832653,1.99
0.323266866898,0.0599996904903,-0.127290401989,-2.05556100267,0.0213059284358,2.10904235886,0.0109856958726,-0.332425474801,-0.685315659361,-0.00781962282113,-0.840170619335,-0.10752553258,0.171686512578,-0.292037523673,0.573841746309,0.818948594,0.00309797985423,0.0,0.818916335928,-0.573774434517,-0.0118186270958,0.0,-0.00790145853167,0.00931918734586,-0.999925357064,0.0,0.547877380387,0.111617982376,0.304354069516,1.0,-0.186774285714,-0.24547477551,2.011
0.319567241466,0.0524914679568,-0.127358841321,-2.06481970807,0.0202532599329,2.11108144743,0.00768860586693,-0.330988835109,-0.676129835475,-0.000892633214168,-0.829516001354,-0.0963561813632,0.181672321414,-0.300008026163,0.573851602837,0.818940830614,0.00331674180732,0.0,0.818911768816,-0.573783969516,-0.011671251922,0.0,-0.00765511884802,0.00941386676881,-0.999926386424,0.0,0.545867621233,0.10892511412,0.304447735553,1.0,-0.188590857143,-0.247862269388,2.022
0.312733449783,0.0389981105453,-0.127438466671,-2.08185334231,0.0182910126819,2.1144513649,0.00161648621576,-0.344689770309,-0.675138595309,-0.00916272815557,-0.818975949415,-0.101260135377,0.17348566916,-0.316144375093,0.573814946553,0.818967042966,0.00318379476244,0.0,0.818935337043,-0.573746663043,-0.0118502021441,0.0,-0.00787838507109,0.00940732626701,-0.999924713797,0.0,0.542029038537,0.104013925292,0.304366975568,1.0,-0.18998,-0.249688,2.042
0.307416221314,0.0288021152119,-0.127496037733,-2.09440069384,0.0167447481882,2.11698663298,-0.00308135133232,-0.357705663511,-0.667610941219,-0.0028415454784,-0.816427596387,-0.107824333625,0.161262944178,-0.30963517803,0.573772527564,0.818996399308,0.00327588675985,0.0,0.818966473603,-0.573704632821,-0.0117327019442,0.0,-0.00772979805829,0.00941492474378,-0.999925801954,0.0,0.539207916225,0.100279579455,0.304416428221,1.0,-0.18998,-0.249688,2.057
0.300542159355,0.0159153342499,-0.127673258564,-2.11014707384,0.0148423348745,2.11988873255,-0.00912255158945,-0.372554316197,-0.684208034915,-0.0110986079143,-0.821610031855,-0.101736802899,0.158907593853,-0.325680736683,0.573842752048,0.818947116016,0.00329605707734,0.0,0.818917224817,-0.573774501786,-0.0117535909447,0.0,-0.00773452481318,0.00944409271683,-0.999925490343,0.0,0.535587758095,0.095482026123,0.304458909657,1.0,-0.18998,-0.249688,2.076
0.295336481208,0.00656551994134,-0.127808496651,-2.12157669124,0.0134291997608,2.12195871062,-0.0136353987657,-0.366540747414,-0.670463972322,-0.00576724875299,-0.843278542007,-0.0911046684163,0.140459387284,-0.323788787035,0.573941598069,0.818877951877,0.00326937882637,0.0,0.81884759509,-0.573873280756,-0.0117822132969,0.0,-0.00777213517774,0.00943960705954,-0.999925241072,0.0,0.532935817814,0.0919172250627,0.304452413693,1.0,-0.18998,-0.249688,2.09
0.288668794751,-0.00550113362532,-0.127823548384,-2.13604388986,0.0117075867091,2.12453864075,-0.0195812692785,-0.368488773872,-0.679400607108,-0.00318605248404,-0.791832012551,-0.0958782034901,0.147365947987,-0.333523683469,0.57382099651,0.818961770685,0.00343933468497,0.0,0.818933287315,-0.573751704811,-0.0117472999205,0.0,-0.00764741264111,0.00955761702014,-0.999925081712,0.0,0.529522176381,0.0875082248204,0.304525869995,1.0,-0.18998,-0.249688,2.108
0.282223055458,-0.0167098253684,-0.127867434076,-2.14959614009,0.00993086617626,2.12688006407,-0.0251946388254,-0.378537418495,-0.656589115071,-0.00552070457427,-0.816069430848,-0.101849130924,0.132928785448,-0.334455450002,0.573769450664,0.81899814253,0.0033774129035,0.0,0.81896917291,-0.573700769543,-0.0117331900754,0.0,-0.00767198420536,0.00949832594845,-0.999925458453,0.0,0.526282873895,0.0832861777328,0.304497117956,1.0,-0.18998,-0.249688,2.125
0.276038894807,-0.0273122821898,-0.127983244008,-2.16206697869,0.00835436567645,2.12884580662,-0.0306028874515,-0.390127682774,-0.676216746271,-0.00962405432967,-0.752725921036,-0.0972041960707,0.140001297959,-0.334289610986,0.57379880964,0.81897723541,0.00345844422983,0.0,0.818949187241,-0.573729691688,-0.0117139444299,0.0,-0.00760938818757,0.00955392140381,-0.999925407117,0.0,0.523255449564,0.0792814143927,0.304571359426,1.0,-0.18998,-0.249688,2.141
0.269667556254,-0.037741805317,-0.128160390531,-2.17448522291,0.00673682070482,2.13082273695,-0.0360573795719,-0.401107335211,-0.65909837301,-0.00463916016046,-0.754942974188,-0.0948003703184,0.119648950129,-0.351181764207,0.573960408619,0.818864106623,0.00343090701196,0.0,0.818835622214,-0.57389126107,-0.0117384480212,0.0,-0.00764337335893,0.00954693710882,-0.999925214621,0.0,0.52022319867,0.0751921155661,0.304545120945,1.0,-0.18998,-0.249688,2.157
0.262914055221,-0.0488130447979,-0.128219197918,-2.18748179182,0.00512621473184,2.13274781488,-0.0420117137575,-0.39876225898,-0.656119740821,0.000443318589231,-0.740023995951,-0.0972848070471,0.122651483046,-0.343881321569,0.573912507871,0.818897470818,0.0034803015867,0.0,0.818868857422,-0.573842234345,-0.0118165700482,0.0,-0.00767956314291,0.00963177337608,-0.999924123747,0.0,0.516975738742,0.0709953248341,0.30455014405,1.0,-0.18998,-0.249688,2.174
0.256432509965,-0.0591170414838,-0.128254834649,-2.19949946749,0.00347269113813,2.13453538315,-0.0476837033195,-0.40466139515,-0.64559400222,-0.00592434120768,-0.761016575966,-0.106081251369,0.106342364185,-0.347645111425,0.573822505908,0.818960516643,0.00348579907788,0.0,0.818932484783,-0.573752867496,-0.0117464593626,0.0,-0.00762004592134,0.00959520158464,-0.999924930686,0.0,0.513955034901,0.0670313417696,0.30455554711,1.0,-0.18998,-0.249688,2.19
0.249437501534,-0.0700227559417,-0.128381193039,-2.21222884024,0.00181970283802,2.13615831589,-0.0538267557324,-0.415596662478,-0.65155815352,-0.0133006700428,-0.737994098747,-0.106397011776,0.106399988258,-0.364588580112,0.573820830283,0.818962158691,0.00337405779538,0.0,0.818931552624,-0.57375019147,-0.0119405530189,0.0,-0.00784314577507,0.00961504555579,-0.999923015018,0.0,0.510669103158,0.0627812374411,0.304497070119,1.0,-0.18998,-0.249688,2.207
0.241794779356,-0.0815479652274,-0.12855867421,-2.22535070874,3.33158731174e-05,2.13791191665,-0.060431430357,-0.423874051981,-0.631596171937,0.000216672154675,-0.735597491371,-0.0931061826723,0.0843491973038,-0.37170094614,0.573933717259,0.818882575502,0.00348749670559,0.0,0.818853743492,-0.573863024217,-0.011854244267,0.0,-0.0077060370347,0.00965948618531,-0.999923652745,0.0,0.507290311791,0.0582109536292,0.304547812755,1.0,-0.18998,-0.249688,2.225
0.234188366845,-0.0929612103977,-0.128595592336,-2.23839719177,-0.00166544911085,2.13939479922,-0.0671229227963,-0.430751191158,-0.636536628655,-0.00207690573777,-0.712308452762,-0.0901961976604,0.0901987296833,-0.371817950906,0.57385148127,0.81894040605,0.00344030286272,0.0,0.818909741171,-0.573779457229,-0.0120298452993,0.0,-0.00787790295888,0.00972082922739,-0.999921718998,0.0,0.503818165301,0.0538014529545,0.304512035683,1.0,-0.18998,-0.249688,2.243
0.22724470654,-0.103064381925,-0.128680465886,-2.24967757182,-0.00333004376501,2.14073951851,-0.0731763715548,-0.439083287326,-0.616292964782,-0.00448443541095,-0.700824587762,-0.105910476825,0.0718606200961,-0.379846844078,0.573802567835,0.818974413146,0.00350295005964,0.0,0.818945570949,-0.573731574264,-0.0118734753731,0.0,-0.00771446800082,0.00968194250219,-0.99992337055,0.0,0.500822031431,0.0498084843163,0.304570145268,1.0,-0.18998,-0.249688,2.259
0.219711660874,-0.113693037683,-0.128876018982,-2.26176894555,-0.00499892959478,2.14190545571,-0.0796648506778,-0.450527496063,-0.620317583422,-0.0198786682553,-0.696648627394,-0.108736561974,0.062598883214,-0.382444576192,0.573945057729,0.818875301399,0.00332541247366,0.0,0.818842786929,-0.573873036208,-0.0121233456056,0.0,-0.00801929813016,0.00968131070631,-0.999920978418,0.0,0.497513289513,0.0454973779564,0.304472559689,1.0,-0.18998,-0.249688,2.276
0.212077000016,-0.124358620607,-0.128978458921,-2.27334346594,-0.0065986427334,2.143168826,-0.0863540945232,-0.448797612269,-0.613961848917,-0.00643048519126,-0.686030633349,-0.0836832199478,0.0636541061209,-0.394632990736,0.573951445243,0.81886959421,0.00361567181501,0.0,0.818841578,-0.573879218408,-0.0119104877792,0.0,-0.00767832521094,0.00979689270951,-0.999922529107,0.0,0.494364520997,0.0412652970836,0.30460066812,1.0,-0.18998,-0.249688,2.293
0.203442462302,-0.136086292261,-0.129040159722,-2.28635919798,-0.00848887830097,2.14425748536,-0.0939121644726,-0.463516071788,-0.611349498002,-0.00367377651428,-0.681885471447,-0.102597814098,0.0553718035432,-0.403133659146,0.573867400019,0.818929110479,0.00347363019724,0.0,0.818898604642,-0.573794906349,-0.0120510441717,0.0,-0.00787595120659,0.00976044022658,-0.999921348507,0.0,0.490698399483,0.0365588621745,0.30454329061,1.0,-0.18998,-0.249688,2.312
0.196990424796,-0.144805478717,-0.12913818354,-2.29556306059,-0.00983191293457,2.14515173365,-0.0995994025837,-0.466542265213,-0.609358184639,-0.00616150531184,-0.654140801594,-0.096453995631,0.0664644519464,-0.396715116134,0.573840407203,0.818946720707,0.003768634562,0.0,0.818921318206,-0.573768479325,-0.0117623816167,0.0,-0.00747058396285,0.00983613441603,-0.999923717508,0.0,0.48812679025,0.0330845174208,0.304693389788,1.0,-0.18998,-0.249688,2.326
0.189419916267,-0.154530016542,-0.129308399425,-2.30618289711,-0.011382519272,2.14592031346,-0.106190480746,-0.474366414385,-0.604075200735,-0.00285249886171,-0.656892496009,-0.0891983357231,0.0446048063612,-0.421670804759,0.573923098411,0.818889057372,0.00370617435089,0.0,0.818862236993,-0.573850579402,-0.0118699724961,0.0,-0.00759354648904,0.00984748720732,-0.999922679534,0.0,0.485066185587,0.0290312542002,0.304651107546,1.0,-0.18998,-0.249688,2.342
0.181893816048,-0.164231504016,-0.129341997437,-2.31659997251,-0.0129037424439,2.14654440915,-0.112822605092,-0.469814226565,-0.609396539074,0.000975524326315,-0.622183084861,-0.089284015235,0.0413736229846,-0.415708878275,0.5738285781,0.818955452513,0.00367105651228,0.0,0.818927674593,-0.573755552176,-0.0119489344694,0.0,-0.0076795038334,0.00986315974567,-0.999921868598,0.0,0.48200473116,0.0251227921672,0.304648227586,1.0,-0.18998,-0.249688,2.358
0.173689909875,-0.174462916472,-0.129412561059,-2.32746430482,-0.0144510942183,2.1472928206,-0.120076029594,-0.481802208033,-0.596933600064,-0.00152208510553,-0.643788656759,-0.096306208896,0.0278748698265,-0.422336094076,0.573779042585,0.818989519688,0.00381101473156,0.0,0.818963514527,-0.573705460081,-0.0118976404618,0.0,-0.00755778839816,0.0099478902994,-0.999921956611,0.0,0.478806986571,0.020923497075,0.304675252809,1.0,-0.18998,-0.249688,2.375
0.165258586895,-0.184654808441,-0.129638892936,-2.33831014186,-0.0161307819257,2.14776217046,-0.127404285021,-0.508894810387,-0.605048887211,-0.011104674306,-0.637576451672,-0.0939893730305,0.0265620923457,-0.434264279029,0.573906709667,0.818900576226,0.00369888593562,0.0,0.818872458012,-0.573832666544,-0.0120297637863,0.0,-0.0077287877199,0.00993306921303,-0.999920796852,0.0,0.475523669181,0.0165850046775,0.304632456722,1.0,-0.18998,-0.249688,2.392
0.156308595395,-0.195416874763,-0.129719589545,-2.34930607214,-0.0177976533028,2.1483581885,-0.13532721852,-0.496145152709,-0.594125760397,-0.00363784362468,-0.608236890085,-0.0945941146398,0.0302812101382,-0.441286116718,0.573843782786,0.818943400376,0.00397074804539,0.0,0.818920026409,-0.573770388474,-0.0117591903944,0.0,-0.00735195526663,0.00999985592082,-0.999922972851,0.0,0.472192992802,0.0121381213191,0.304768188103,1.0,-0.18998,-0.249688,2.41
0.14720506653,-0.205957784853,-0.129833446347,-2.36044240733,-0.0194618167064,2.14863436906,-0.143386039929,-0.504142013128,-0.593269425741,-0.00661826795609,-0.622208044042,-0.0946691239604,0.0170713212408,-0.446738475251,0.573807081113,0.818969828897,0.00382098439332,0.0,0.818943005192,-0.573732212789,-0.0120187002704,0.0,-0.00765087837609,0.01002577679,-0.999920470767,0.0,0.468696880218,0.0076701462521,0.304672469693,1.0,-0.18998,-0.249688,2.428
0.138902559568,-0.215338194521,-0.130026587898,-2.36995584861,-0.0209023335524,2.14889269658,-0.150669254704,-0.523094687932,-0.585798705889,-0.00709673659023,-0.583607733464,-0.0871948426803,0.0207965771621,-0.451436836904,0.57393585874,0.818878856059,0.00397442478014,0.0,0.818854092215,-0.573860491553,-0.0119523553235,0.0,-0.00750691022787,0.0101145540485,-0.999920667901,0.0,0.465693151192,0.00362134502764,0.304736628046,1.0,-0.18998,-0.249688,2.444
0.130116627636,-0.225167313092,-0.130069057034,-2.3799595483,-0.0225015128103,2.14913609021,-0.158472418854,-0.514612224361,-0.563808653619,-0.000977692635135,-0.592491378695,-0.0964544122895,0.00617690929943,-0.462214072767,0.57382101642,0.818959134299,0.00401551538178,0.0,0.818935444008,-0.573746252232,-0.0118626935569,0.0,-0.00741131703555,0.01009570512,-0.999921571483,0.0,0.462489527686,-0.000540644418442,0.30475724349,1.0,-0.18998,-0.249688,2.461
0.12111837108,-0.234884759735,-0.13017849986,-2.38994449791,-0.0240737137444,2.1491544164,-0.166504577034,-0.533329387675,-0.573983785407,-0.00646575742528,-0.587875527071,-0.0887195632248,-0.00134855451324,-0.473973115532,0.573747330683,0.819011349779,0.00389311810821,0.0,0.818985049341,-0.573671653547,-0.0120444914243,0.0,-0.00763135060337,0.0100990947689,-0.999919882177,0.0,0.459202884139,-0.00476531572868,0.304684190322,1.0,-0.18998,-0.249688,2.478
0.112431331821,-0.244054509902,-0.130376751642,-2.39889042569,-0.0255391571329,2.14924716238,-0.174155399543,-0.542067489488,-0.566309090892,-0.0141846833892,-0.562938879613,-0.0909434649584,0.00593952994421,-0.487873558985,0.573864314409,0.818928263238,0.00412252581132,0.0,0.818906226557,-0.573789543151,-0.0117855495524,0.0,-0.0072861977062,0.0101394635859,-0.999922048262,0.0,0.456248144786,-0.00883019584632,0.304807767751,1.0,-0.18998,-0.249688,2.494
0.103787636391,-0.253041141323,-0.130445181383,-2.40793521171,-0.0269135663356,2.14921466346,-0.181923773436,-0.537497339909,-0.557022307692,-0.00908094285521,-0.57179301927,-0.0868280710607,-0.00044433793371,-0.492125908859,0.573776735254,0.81898952716,0.00414238875424,0.0,0.818967078428,-0.573700978426,-0.0118683909968,0.0,-0.00734373683894,0.010202483084,-0.999920986312,0.0,0.453193382832,-0.0127493955695,0.304768541597,1.0,-0.18998,-0.249688,2.51
0.0949237328404,-0.261972545587,-0.130596359911,-2.41686712391,-0.0283761922795,2.14908516176,-0.189797831567,-0.560126894923,-0.553661277185,-0.0042911732809,-0.55125017557,-0.0935765075658,-0.00564756753847,-0.48767876441,0.573830042678,0.818952433668,0.00409150472107,0.0,0.818928824919,-0.573753769371,-0.0119556994551,0.0,-0.00744377622459,0.0102113872828,-0.999920155695,0.0,0.449924546808,-0.0170172240355,0.304716919928,1.0,-0.18998,-0.249688,2.527
0.0841702708551,-0.272559080959,-0.130810520211,-2.42692323579,-0.0300497706877,2.14894276888,-0.199315349746,-0.572038468817,-0.559036963413,-0.00896818873611,-0.532310503352,-0.0837706567922,-0.00598287858754,-0.501696777698,0.573940153674,0.818873784087,0.00437865686118,0.0,0.818855524863,-0.57386520341,-0.0116234512007,0.0,-0.00700551553642,0.0102568502067,-0.999922856912,0.0,0.446612348469,-0.0215733957121,0.304869574832,1.0,-0.18998,-0.249688,2.545
0.0752056765319,-0.281238436164,-0.130906187619,-2.43552191996,-0.0314358635554,2.14862191546,-0.20748615511,-0.568423625984,-0.542176928905,-0.00916946629134,-0.527548022316,-0.0886764864526,-0.0285168489412,-0.509681722127,0.573785974254,0.818982308692,0.00428727181728,0.0,0.818961841101,-0.573709862074,-0.0118001644513,0.0,-0.00720461451347,0.0102820788387,-0.999921183086,0.0,0.443530803935,-0.0254799339295,0.304788990646,1.0,-0.18998,-0.249688,2.561
0.0658825239865,-0.289916184362,-0.131063302961,-2.44390400317,-0.0328105402115,2.14825330956,-0.215799059874,-0.583043642629,-0.538785395878,-0.00923172158,-0.51275092204,-0.074092015368,-0.0219070776591,-0.523259984335,0.573859977855,0.818930343113,0.0043088102727,0.0,0.818909743853,-0.573783193596,-0.0118501084803,0.0,-0.00723222972762,0.0103290285726,-0.999920499851,0.0,0.440470438671,-0.0295187002762,0.304776268851,1.0,-0.18998,-0.249688,2.577
0.0547508337209,-0.30015375702,-0.131228638498,-2.45341890498,-0.0344200430283,2.14787109214,-0.22581564979,-0.580502558318,-0.533840611331,-0.00115831817881,-0.498671736058,-0.0793398145748,-0.0158550262915,-0.543442424151,0.573874623417,0.818918705745,0.00456255187266,0.0,0.818902886843,-0.573799221858,-0.011543908236,0.0,-0.00683566528541,0.0103612423776,-0.9999229562,0.0,0.43695371402,-0.0342722072501,0.304903979779,1.0,-0.18998,-0.249688,2.596
0.045329341191,-0.308554695471,-0.131380108379,-2.46153478516,-0.0357806202533,2.14729594828,-0.234318067466,-0.603064272931,-0.530050490887,-0.0135458121193,-0.500346442276,-0.0847484716827,-0.035010520548,-0.537972588432,0.573867177284,0.818924532762,0.00445189597588,0.0,0.818906061898,-0.573790303426,-0.0117599482464,0.0,-0.00707619161878,0.0103945330337,-0.999920937472,0.0,0.433856151416,-0.0382315194549,0.304821662063,1.0,-0.18998,-0.249688,2.612
0.0349842313631,-0.317409149934,-0.131568384201,-2.46989436112,-0.0372097962501,2.14667584492,-0.243568232874,-0.609087135298,-0.515206516566,-0.0128439457889,-0.477529676637,-0.0921730160841,-0.0310224525759,-0.546183006707,0.573984842675,0.818842112462,0.00444321262161,0.0,0.818823001805,-0.573907206967,-0.0118387671668,0.0,-0.00714422691868,0.0104336784868,-0.999920045991,0.0,0.43060128925,-0.0425396920671,0.304796567703,1.0,-0.18998,-0.249688,2.629
0.0247904392497,-0.326221390377,-0.131645787794,-2.4778275937,-0.0385493808248,2.14618255351,-0.252964107264,-0.592630046088,-0.508795318841,-0.00486141985017,-0.464028051708,-0.078066943784,-0.0300117502566,-0.55357990669,0.573819118928,0.818956698527,0.00472139713055,0.0,0.818942912407,-0.573743234593,-0.0114871179571,0.0,-0.00669871150725,0.0104582839763,-0.999922872806,0.0,0.42749380288,-0.046685773668,0.304934109423,1.0,-0.18998,-0.249688,2.646
0.0148880779848,-0.334276863328,-0.131798217507,-2.48544715607,-0.0398474556417,2.14544481062,-0.261950127607,-0.629639968119,-0.503839090695,-0.0108633573621,-0.473083749785,-0.0772464731616,-0.0456187945891,-0.571963370687,0.573832670823,0.818947771837,0.00462166647874,0.0,0.818931402896,-0.573755101358,-0.0117127246194,0.0,-0.00694053863711,0.0105061741405,-0.999920721472,0.0,0.42439741966,-0.0506841512536,0.304845703809,1.0,-0.18998,-0.249688,2.662
0.00413872382253,-0.342836501749,-0.131972848744,-2.49329462953,-0.041217062745,2.14462326312,-0.271558234539,-0.62857195219,-0.502571917178,-0.00485204426377,-0.466203159882,-0.0800181615181,-0.0470705857521,-0.571340075701,0.573999037246,0.818831126163,0.00463022339637,0.0,0.818814440162,-0.573920765221,-0.011773475767,0.0,-0.00698324151543,0.0105494606433,-0.999919968407,0.0,0.421134892384,-0.0549811305932,0.304838098405,1.0,-0.18998,-0.249688,2.679
-0.00645964837234,-0.351247971561,-0.132108817292,-2.50079794105,-0.0425511511013,2.14380955052,-0.281430180092,-0.63405101468,-0.504594116216,-0.014776059998,-0.43883682507,-0.076684648882,-0.0410788218156,-0.578284494304,0.573831228975,0.818948020888,0.00475464391595,0.0,0.818933714873,-0.573753763502,-0.0116162133548,0.0,-0.00678521073256,0.0105596874971,-0.999921223855,0.0,0.417776463283,-0.0594068484967,0.304914212775,1.0,-0.18998,-0.249688,2.697
-0.0168665076405,-0.359013824192,-0.132310110826,-2.50775038186,-0.043810839715,2.14303598307,-0.290823148853,-0.656479359019,-0.481880306876,-0.0190101236061,-0.440955599415,-0.0921677851113,-0.0543164621029,-0.577115896566,0.57396893607,0.81885116658,0.00481397111293,0.0,0.818837771421,-0.573891491459,-0.0115761403688,0.0,-0.00671656829843,0.0105864101703,-0.999921404726,0.0,0.414938257705,-0.0632320248532,0.304926608573,1.0,-0.18998,-0.249688,2.712
-0.0284238112864,-0.367643015487,-0.132373963499,-2.5155549992,-0.0452125870436,2.1419687864,-0.301574935219,-0.637474950276,-0.480530298876,-0.00682080096545,-0.433187904774,-0.0650459755997,-0.0568141332885,-0.595462778343,0.573741953191,0.819010761772,0.00472124466706,0.0,0.818995427835,-0.573663686966,-0.0117136818492,0.0,-0.00688535743615,0.0105875123417,-0.999920245037,0.0,0.411476308486,-0.0676232964072,0.304880701004,1.0,-0.18998,-0.249688,2.73
-0.0396038983636,-0.375594149884,-0.132565121703,-2.52266404648,-0.0464420329498,2.14096505999,-0.311812021114,-0.667647836115,-0.467874129672,-0.0124856680443,-0.409306132927,-0.0816776591592,-0.0697330920219,-0.611466054679,0.573823131906,0.818953699234,0.00475380930304,0.0,0.818937889094,-0.573743363225,-0.0118335904598,0.0,-0.00696383021995,0.0106836681889,-0.999918678845,0.0,0.408226892782,-0.0718677677253,0.304850385424,1.0,-0.18998,-0.249688,2.747
-0.0503245311969,-0.38300756933,-0.13270381767,-2.52893435576,-0.0476817514221,2.14012370761,-0.321613960082,-0.660409251676,-0.454239255047,-0.00171617346798,-0.398700912898,-0.0816881802732,-0.0507127763537,-0.620486761768,0.573867198586,0.818921954259,0.00490082867029,0.0,0.818910032341,-0.573790072379,-0.0114916783988,0.0,-0.00659886794326,0.0106082392961,-0.999921957055,0.0,0.405281810636,-0.0759152888278,0.304974808937,1.0,-0.18998,-0.249688,2.763
-0.0616419229221,-0.39068298382,-0.132860870483,-2.53572092938,-0.0489106690711,2.13905979021,-0.332192544634,-0.669491881676,-0.454491448305,-0.00986667195,-0.406436286605,-0.073603739857,-0.0607230381256,-0.614908532562,0.573757638142,0.818998790883,0.00488877350662,0.0,0.818986036701,-0.573679483839,-0.0115960516095,0.0,-0.00669269204038,0.0106573656091,-0.99992081108,0.0,0.402035322196,-0.0800993767434,0.304935225812,1.0,-0.18998,-0.249688,2.78
-0.073339657357,-0.398244988272,-0.133063657336,-2.54231342462,-0.0501609337503,2.13790033729,-0.342924913492,-0.687014995235,-0.439323197374,-0.00576667270978,-0.382907174517,-0.0737027780534,-0.0639899157993,-0.638962922871,0.57386100894,0.818926545014,0.00485831155203,0.0,0.818912725678,-0.573781871742,-0.011707189437,0.0,-0.00679984801981,0.0106970386486,-0.999919664489,0.0,0.398756143165,-0.0844023106445,0.304909812823,1.0,-0.18998,-0.249688,2.797
-0.0841857794265,-0.405184360403,-0.133164366708,-2.54830104674,-0.0512784588932,2.1368483423,-0.3531280578,-0.682450812909,-0.427614408903,-0.011307205843,-0.364732946865,-0.0707604577039,-0.0575422412373,-0.646520172544,0.573703922531,0.819036594143,0.00485938557891,0.0,0.819022589981,-0.573624496054,-0.0117337773101,0.0,-0.00682306176579,0.0107118668681,-0.999919347616,0.0,0.395730862781,-0.0883077370657,0.304901617465,1.0,-0.18998,-0.249688,2.813
-0.0968697511849,-0.412834374143,-0.133389837876,-2.55465892578,-0.0524372922549,2.13573990524,-0.364772495665,-0.711803594044,-0.435166918783,-0.00511131959804,-0.34722357604,-0.0656785325085,-0.0576341668859,-0.648629441284,0.573925057918,0.818880351364,0.00507394768409,0.0,0.818869984516,-0.573846302917,-0.0115375902606,0.0,-0.00653636569211,0.0107768231073,-0.999920564849,0.0,0.392372404275,-0.0928891739859,0.30498702694,1.0,-0.18998,-0.249688,2.831
-0.108722724242,-0.41990281947,-0.133482181576,-2.5606573524,-0.0535548586392,2.13454799784,-0.375976206268,-0.697778458709,-0.415220564047,-0.0133728733903,-0.347628314098,-0.0690878897187,-0.0737615342685,-0.662694522376,0.573757328378,0.818997827108,0.00508273795657,0.0,0.818987262666,-0.573678062878,-0.0115797523469,0.0,-0.00656806320112,0.0108068734816,-0.999920032818,0.0,0.389145386057,-0.0970551813655,0.304981583909,1.0,-0.18998,-0.249688,2.848
-0.120120110392,-0.426373142247,-0.133688431677,-2.56621881959,-0.0546454158432,2.13332325293,-0.386623225893,-0.716396928598,-0.406282331236,-0.0205831927701,-0.350573158619,-0.074705388007,-0.0748721448056,-0.678943327633,0.573785989008,0.818978198306,0.00500963259834,0.0,0.818965331445,-0.573704757122,-0.0118061190882,0.0,-0.00679503491218,0.0108771105567,-0.999917754601,0.0,0.38603652919,-0.101059885446,0.304916615394,1.0,-0.18998,-0.249688,2.864
-0.132321211636,-0.433069603299,-0.133781877987,-2.57183146724,-0.0557115319468,2.13219411871,-0.398000151336,-0.705514086315,-0.37811998732,-0.00753895531087,-0.329301231255,-0.0620085236173,-0.0629326001523,-0.677501390653,0.57379542049,0.818971344868,0.00504961500333,0.0,0.818959121568,-0.573714251163,-0.0117754878335,0.0,-0.00674688091551,0.0108923589719,-0.999917914688,0.0,0.382825581643,-0.105271185961,0.304915113956,1.0,-0.18998,-0.249688,2.881
-0.144651773729,-0.439538837208,-0.133955115724,-2.57714310462,-0.0567770236632,2.13098176225,-0.409633217031,-0.733845825762,-0.37609587949,-0.0162163488151,-0.299816228225,-0.0589687206525,-0.0775058018914,-0.683963986171,0.57377069864,0.818988413524,0.00509026494193,0.0,0.818976765183,-0.573689473677,-0.0117555426929,0.0,-0.00670755098593,0.0109140047883,-0.999917943263,0.0,0.379626224995,-0.109523929808,0.30493808808,1.0,-0.18998,-0.249688,2.898
-0.156428785598,-0.445578492414,-0.134072658415,-2.58192875537,-0.0577891542906,2.12989020973,-0.42066434921,-0.728403677927,-0.375977602325,-0.00586979065792,-0.3037643785,-0.0508345540937,-0.0653612043143,-0.697646147852,0.573771161041,0.818987520475,0.00518101960086,0.0,0.818978398045,-0.573691880203,-0.0115220234712,0.0,-0.0064642090134,0.0108543568976,-0.999920195285,0.0,0.376447494513,-0.11378926695,0.30503116883,1.0,-0.18998,-0.249688,2.915
-0.16969938998,-0.452112700148,-0.134255783691,-2.58741371346,-0.0588243189193,2.12853070798,-0.433238661232,-0.747747575472,-0.351849462349,-0.0174252233858,-0.305644229859,-0.0517246633149,-0.0784746843545,-0.706950369678,0.573770247954,0.818988251601,0.00516654657539,0.0,0.818977483991,-0.573688588488,-0.0117486619089,0.0,-0.00665815545338,0.010972529227,-0.999917632892,0.0,0.373158671893,-0.117996856363,0.304962376619,1.0,-0.18998,-0.249688,2.932
-0.181693518866,-0.457730709845,-0.134396692608,-2.59199936064,-0.0597359446385,2.12734045573,-0.444549302101,-0.733657601489,-0.339050402725,0.000194642208257,-0.274926726963,-0.0613260597395,-0.0732955958836,-0.715063599961,0.573767750166,0.818989913938,0.00518040906643,0.0,0.818978748647,-0.573685093336,-0.0118308854745,0.0,-0.00671758175203,0.0110310378575,-0.999916591671,0.0,0.369910887546,-0.122231457819,0.304947763931,1.0,-0.18998,-0.249688,2.949
-0.19366338504,-0.463074546965,-0.134521965698,-2.59633442209,-0.0606009366932,2.12631064743,-0.456004439731,-0.762097135193,-0.329971268225,-0.0157048508809,-0.271381263682,-0.0549070786428,-0.0602248158384,-0.723534478602,0.573732710992,0.819013994338,0.00525360049458,0.0,0.819003986675,-0.573650149629,-0.0117780534273,0.0,-0.006632789575,0.0110603872193,-0.99991683351,0.0,0.366912798312,-0.126210479762,0.304951787317,1.0,-0.18998,-0.249688,2.965
-0.207467097148,-0.46893791245,-0.134696783265,-2.6010655932,-0.0616319234309,2.12504116216,-0.468971482554,-0.76079089516,-0.320956697043,-0.00101714513753,-0.255248470953,-0.0499704682578,-0.0746077744355,-0.718789854985,0.57383968469,0.818939174422,0.00523371503304,0.0,0.818928711237,-0.573756844687,-0.0118150746202,0.0,-0.00667307610925,0.0110662112605,-0.999916501026,0.0,0.363662438182,-0.130498189055,0.304940626344,1.0,-0.18998,-0.249688,2.982
-0.22039240493,-0.474371271639,-0.134844159973,-2.60521489819,-0.0624919423049,2.12388990843,-0.481388114074,-0.769621581193,-0.317856094616,-0.0125668791498,-0.241758245101,-0.0518461416804,-0.0617391928146,-0.73230137279,0.573771761248,0.818985898695,0.00536755377566,0.0,0.81897819459,-0.573690213704,-0.0116190527854,0.0,-0.00643665124032,0.0110628068746,-0.999918088558,0.0,0.360492682666,-0.134711639723,0.305030394071,1.0,-0.18998,-0.249688,2.999
-0.232857779156,-0.479206385597,-0.135002146212,-2.60903906439,-0.0633329868863,2.12279919792,-0.49318670623,-0.779900511422,-0.293807080835,-0.000888156769574,-0.233735254698,-0.0635142514482,-0.0730926182364,-0.736624940089,0.573865448808,0.818920118083,0.00538829890833,0.0,0.818912680233,-0.573783813974,-0.0116148128222,0.0,-0.0064200087945,0.0110780993617,-0.999918026241,0.0,0.357438520274,-0.138748756648,0.305036473024,1.0,-0.18998,-0.249688,3.015
-0.245958101431,-0.484110195826,-0.135089011002,-2.61298174251,-0.0641623443358,2.12164961974,-0.50583989264,-0.784763186584,-0.278107491811,-0.00539128004255,-0.232553672858,-0.0506824698637,-0.068868984962,-0.739624894165,0.573725215672,0.819018444212,0.00537697352877,0.0,0.819010286703,-0.573642659193,-0.0117045601755,0.0,-0.00650191445365,0.0111192120217,-0.999917040675,0.0,0.354213223076,-0.142910957008,0.305004259297,1.0,-0.18998,-0.249688,3.032
-0.25939417786,-0.488726400008,-0.135259719389,-2.61668827469,-0.0649528679635,2.12049465128,-0.518645912755,-0.783782943262,-0.260803289655,0.00173009948107,-0.213452502886,-0.0462363142918,-0.0659664281526,-0.757755118456,0.573807839858,0.818960467067,0.00539102969415,0.0,0.818951398121,-0.573723357405,-0.0118685965484,0.0,-0.00662707930855,0.0112255011786,-0.999915031362,0.0,0.350759010405,-0.147430699077,0.304956527624,1.0,-0.18998,-0.249688,3.05
-0.271956953734,-0.492864118402,-0.135380448913,-2.61995774798,-0.0656222349406,2.11954220514,-0.530819332072,-0.799239224443,-0.248537616087,-0.00234041890678,-0.19782139205,-0.0526444535154,-0.0566860618328,-0.761951872808,0.573762369112,0.818991821419,0.00546691332866,0.0,0.818983565894,-0.573677324019,-0.0118740726851,0.0,-0.00658865105891,0.0112904256228,-0.999914554333,0.0,0.347940364306,-0.151142776997,0.304948594344,1.0,-0.189125142857,-0.248564473469,3.065
-0.286261212047,-0.497319968947,-0.13550091062,-2.6234224017,-0.0663764524006,2.11844138664,-0.544539449778,-0.776713063066,-0.247156721781,0.00137357483543,-0.185970022838,-0.0437296600166,-0.0562856106169,-0.769612169834,0.573811757489,0.818956880331,0.00551742933164,0.0,0.818949085898,-0.573726180447,-0.0118916557624,0.0,-0.0065733862069,0.0113422839743,-0.999914067902,0.0,0.344534948013,-0.155618871915,0.304948657225,1.0,-0.186152571429,-0.244657665306,3.083
-0.299569358501,-0.501250212207,-0.13550836953,-2.6264153794,-0.0669985364859,2.1174248617,-0.55735977204,-0.789557044195,-0.216459672923,-0.00144297621923,-0.167762580082,-0.0361704539115,-0.0549045060063,-0.754053186057,0.573782515009,0.818977058931,0.00556321093682,0.0,0.818969857888,-0.57369677056,-0.0118799924627,0.0,-0.00653797101504,0.0113728529865,-0.999913952873,0.0,0.341400819904,-0.159720999689,0.304970897378,1.0,-0.183345142857,-0.240967902041,3.1
-0.312220836989,-0.504634840021,-0.135533218827,-2.62897406611,-0.0675509312932,2.11659388706,-0.569418509224,-0.776349076398,-0.203863910027,0.00798345807605,-0.148949777625,-0.0303811342772,-0.0451875283911,-0.758793707842,0.57390516298,0.818890717807,0.00562166316019,0.0,0.81888470008,-0.573819924628,-0.0118020750943,0.0,-0.0064389113837,0.0113769848236,-0.999914548667,0.0,0.338480329057,-0.163626482675,0.304998179628,1.0,-0.180702857143,-0.237495183674,3.116
-0.325341659572,-0.507988844922,-0.135499243205,-2.63149440935,-0.068052428687,2.11579937719,-0.582140800114,-0.774322471934,-0.19229813278,0.00245858620241,-0.148644335757,-0.0257002392571,-0.0439716651703,-0.745163314331,0.573850159997,0.818928680928,0.00570581515451,0.0,0.818924410037,-0.573765807877,-0.0116771254271,0.0,-0.00628905236509,0.0113737705842,-0.999915539015,0.0,0.335466618407,-0.167628041657,0.305032710822,1.0,-0.177895428571,-0.233805420408,3.133
-0.338458449415,-0.511084421302,-0.13546336353,-2.63387521511,-0.0685628169831,2.11497123073,-0.594745003103,-0.752669780172,-0.176096635211,0.0116078182607,-0.135710990175,-0.0248304907929,-0.0427307432338,-0.742543176641,0.573884959667,0.818904168807,0.00572383435381,0.0,0.818900092459,-0.573800468502,-0.011679375814,0.0,-0.00628007162013,0.0113900858939,-0.999915409744,0.0,0.332263084506,-0.171823021857,0.305035873384,1.0,-0.174922857143,-0.229898612245,3.151
-0.350548286189,-0.513717637464,-0.135370068652,-2.63593377616,-0.0689389627371,2.11421026786,-0.60650862548,-0.762378447863,-0.159044580179,0.00417935142821,-0.126674341623,-0.0251513983318,-0.0475894896509,-0.728883427338,0.573814347365,0.818953448927,0.0057524038778,0.0,0.8189489657,-0.573728361983,-0.0117942840437,0.0,-0.00635877476705,0.0114788756111,-0.999913896992,0.0,0.329649500607,-0.175207150059,0.305004597537,1.0,-0.172445714286,-0.226642938776,3.166
-0.362739922705,-0.51609349249,-0.135353869067,-2.63781320981,-0.0693345268999,2.11353231905,-0.618187165276,-0.754411473435,-0.143803497377,0.0101189826793,-0.11310607847,-0.0184644654877,-0.0450407958271,-0.728731446306,0.573947275579,0.818860113339,0.00577810860665,0.0,0.818855317178,-0.573860002161,-0.0118917765804,0.0,-0.00642199974429,0.0115569102322,-0.999912594053,0.0,0.326855597806,-0.178869395917,0.304970031907,1.0,-0.169803428571,-0.223170220408,3.182
-0.376026682781,-0.518468571767,-0.135210789107,-2.63966687585,-0.0696941041394,2.11289596923,-0.631131049855,-0.740655074139,-0.124133408508,0.00643716407699,-0.0962449492235,-0.0207915362406,-0.0448437542028,-0.711092137117,0.573867218276,0.818916067361,0.00579976783348,0.0,0.818911415325,-0.573779629791,-0.0119070226335,0.0,-0.00642318717488,0.0115827690459,-0.999912287217,0.0,0.323858719624,-0.182814899694,0.304952010361,1.0,-0.166830857143,-0.219263412245,3.2
-0.387162631671,-0.520309605886,-0.135182868925,-2.64103440213,-0.0699975852035,2.11234638739,-0.64184730001,-0.727983066737,-0.115372871458,0.00602947738245,-0.0835208608939,-0.0246666637164,-0.0386392862998,-0.709550194961,0.57396512149,0.818847158467,0.00584100040124,0.0,0.818842924742,-0.573877140194,-0.011918031041,0.0,-0.00640715260386,0.011623619777,-0.99991191605,0.0,0.321181811704,-0.186352274356,0.304959963462,1.0,-0.164188571429,-0.215790693878,3.216
-0.399316780593,-0.522172351978,-0.135018706408,-2.64243827351,-0.0702660319651,2.1118121961,-0.65383832952,-0.718204113951,-0.105984254547,0.00717916004654,-0.0884092894609,-0.0135445791588,-0.0381953142944,-0.697624649611,0.573804927128,0.818959221291,0.0058691027278,0.0,0.818955460259,-0.573717063874,-0.011892503243,0.0,-0.00637239349887,0.0116307346102,-0.99991205544,0.0,0.318616607596,-0.189715943642,0.304966128767,1.0,-0.161546285714,-0.21231797551,3.232
-0.413095373345,-0.524062200072,-0.134942639478,-2.64378605871,-0.0705802569778,2.11120969507,-0.667084788523,-0.720683727171,-0.0969020386848,0.00278176704253,-0.0686521458468,-0.0225874378854,-0.0275231902225,-0.699579157142,0.573974670224,0.818839930584,0.00591548168833,0.0,0.818836938648,-0.573886899139,-0.0118592496527,0.0,-0.00631613132449,0.0116509481417,-0.99991217709,0.0,0.31552355743,-0.193796851017,0.304997089911,1.0,-0.158408571429,-0.208194122449,3.251
-0.423544396058,-0.525282185454,-0.134798868916,-2.64469613415,-0.0707487613003,2.11085558815,-0.677399510638,-0.698098284801,-0.0762310315377,0.00330958164946,-0.0515587258662,-0.0166377885348,-0.0238657905615,-0.682151957652,0.573858650281,0.818920998046,0.00594939983254,0.0,0.818918590224,-0.573771038654,-0.0118272858176,0.0,-0.00627214014275,0.0116594888806,-0.999912354448,0.0,0.313206793544,-0.196859300863,0.305003749281,1.0,-0.155931428571,-0.20493844898,3.266
-0.435466783033,-0.526528372693,-0.13473434887,-2.64561749821,-0.0709377448555,2.11047736822,-0.688944390546,-0.703145833352,-0.0716174976589,0.00159728167548,-0.0548817478233,-0.0168957172974,-0.024912278662,-0.674764348272,0.573988427488,0.818829519497,0.00602079821228,0.0,0.818828110611,-0.573900652438,-0.0118031057245,0.0,-0.00620951091904,0.0117050702777,-0.999912212799,0.0,0.310544159954,-0.200370628435,0.305010325869,1.0,-0.153124,-0.201248685714,3.283
-0.447664346644,-0.527580400954,-0.134546027388,-2.64644684648,-0.0710923713787,2.11012148404,-0.701010035227,-0.661826110522,-0.0538507320608,0.0101042639153,-0.0474913317861,0.000540430914632,-0.0125903574486,-0.667786198585,0.573850004998,0.818926389108,0.00604052046665,0.0,0.8189249317,-0.573761608342,-0.0118456715393,0.0,-0.00623503432577,0.0117445976025,-0.999911590479,0.0,0.307833977753,-0.203915189599,0.304992367595,1.0,-0.150151428571,-0.197341877551,3.301
-0.458466743099,-0.528351369251,-0.134433713351,-2.64707358571,-0.0712396000721,2.10985132093,-0.711482876225,-0.675808376394,-0.0408127448011,0.00429208176049,-0.04395753625,-0.00432739132936,-0.0119350277846,-0.655528491214,0.573967047932,0.818844208437,0.00606111364595,0.0,0.818842642757,-0.573877838243,-0.0119037841861,0.0,-0.00626912664293,0.0117957052883,-0.999910775713,0.0,0.305268701662,-0.207266533309,0.304966190606,1.0,-0.147344,-0.193652114286,3.318
-0.471055547441,-0.529026297133,-0.13424928625,-2.64761322695,-0.0713777294315,2.10958145296,-0.723803786514,-0.64787570221,-0.0296090110261,0.0174424400963,-0.0275468476238,0.000157638135918,-0.0097401912985,-0.636377877428,0.573941644884,0.818862028295,0.00605919028657,0.0,0.81886021772,-0.573852035162,-0.0119386965996,0.0,-0.00629918791428,0.011813972497,-0.999910371126,0.0,0.302638842965,-0.210725764066,0.304951630808,1.0,-0.144371428571,-0.189745306123,3.336
-0.481393446918,-0.52943449107,-0.134122436499,-2.64793475218,-0.0714387004197,2.10937877704,-0.734021268485,-0.642355216226,-0.0187474439516,0.010208362819,-0.0237023025298,0.000245472041183,-0.0123243239918,-0.647229624206,0.573906398297,0.818886402625,0.00610348181454,0.0,0.818884830996,-0.573815979927,-0.0119833904317,0.0,-0.00631088158756,0.0118756217588,-0.999909567102,0.0,0.300350937277,-0.213731162121,0.304940365563,1.0,-0.141729142857,-0.186272587755,3.352
-0.491717512025,-0.529755474229,-0.134012893793,-2.64815910024,-0.0714960845468,2.10921562169,-0.744031460595,-0.630369881101,-0.0186978352979,0.00934761023539,-0.00976699397462,0.00037249707571,-0.00369610937207,-0.623639185491,0.574048701736,0.818786304028,0.00615006278364,0.0,0.818785317128,-0.573958018046,-0.0119810215553,0.0,-0.00628013942371,0.0119135003477,-0.999909310067,0.0,0.298063821357,-0.216736350357,0.304944341204,1.0,-0.139086857143,-0.182799869388,3.368
-0.502181776919,-0.529935859821,-0.133812505714,-2.64831056797,-0.0715219917001,2.10909909623,-0.754530816277,-0.618917112315,-0.0126013938287,0.00741270194196,-0.005916790691,-0.00182568802642,-0.00384513072754,-0.606932227275,0.573859057707,0.818919081537,0.00616982037832,0.0,0.81891823859,-0.573768116063,-0.0119922640015,0.0,-0.00628076853097,0.0119346775358,-0.999909053574,0.0,0.295758594329,-0.219752778783,0.304936429431,1.0,-0.136279428571,-0.179110106123,3.385
-0.512758953062,-0.530036462608,-0.133684973726,-2.64842361398,-0.0715380532167,2.10900542763,-0.76478794532,-0.622840464619,-0.00295230804773,0.0092087415861,-0.00512079765351,-0.00155406959577,-0.0112195766309,-0.593030832888,0.57401816677,0.818807148341,0.00622454380992,0.0,0.818806753937,-0.573926454123,-0.0120279618199,0.0,-0.00627627159844,0.0120011981658,-0.999908285623,0.0,0.293396939931,-0.222804581033,0.304916968519,1.0,-0.133472,-0.175420342857,3.402
-0.522371989413,-0.530000636896,-0.133507537563,-2.64838769925,-0.07155279983,2.10897117032,-0.774299571506,-0.580962453276,0.00793481881221,0.0179448255677,0.00468070376357,0.000641858250557,-0.000999174399646,-0.585322049893,0.573971849833,0.81883955796,0.00623224046833,0.0,0.818839462288,-0.573880494391,-0.0119941676651,0.0,-0.00624485794071,0.0119877498372,-0.999908643629,0.0,0.291276118226,-0.225577515149,0.304921782167,1.0,-0.130829714286,-0.17194762449,3.418
-0.532352602457,-0.529872149003,-0.133360024015,-2.64828078351,-0.0715608310302,2.10895706579,-0.784186164382,-0.590489886512,0.0053650699644,0.0124148321637,0.0106534616043,3.32418778905e-05,-0.00249259316573,-0.569934665433,0.573947480815,0.818856463166,0.00625530963118,0.0,0.818856843868,-0.573856371765,-0.0119616360166,0.0,-0.00620533314494,0.0119877847622,-0.999908889278,0.0,0.289059291593,-0.228460392794,0.304926018924,1.0,-0.128022285714,-0.168257861225,3.435
-0.542895005497,-0.529659333998,-0.133212291217,-2.64807487268,-0.0715637244837,2.10896861456,-0.794452836453,-0.578802900172,0.0134214820429,0.00681585841639,0.0118800586794,-0.000127139289435,0.00288177105254,-0.574466778362,0.574079315296,0.818763879989,0.00627658147992,0.0,0.818764989035,-0.573988966333,-0.0118872267528,0.0,-0.0061302614092,0.0119634864958,-0.999909643361,0.0,0.286711714921,-0.231507005811,0.304946671289,1.0,-0.125049714286,-0.164351053061,3.453
-0.551734041759,-0.529288535255,-0.132987221684,-2.64780136627,-0.0715569412741,2.10897942593,-0.803388660503,-0.551132000638,0.0269228406853,0.0144369998628,0.016517241599,-0.000677958454683,0.000288919590535,-0.537387200304,0.573859891653,0.81891798476,0.00623745857961,0.0,0.818918457617,-0.573769502854,-0.0119106788283,0.0,-0.00617512448515,0.0119432607661,-0.999909609095,0.0,0.284759942176,-0.234039199045,0.304942246299,1.0,-0.122407428571,-0.160878334694,3.469
-0.561184751843,-0.528839163794,-0.132825471848,-2.6474832888,-0.0715542671,2.10899247364,-0.812682829454,-0.54849225272,0.0297470743093,0.00622329238521,0.0278373387659,0.00107920662681,-0.000777881653295,-0.542431962567,0.573893388286,0.818894604021,0.00622521394485,0.0,0.818894584205,-0.573802400754,-0.0119671111833,0.0,-0.00622787997292,0.01196587035,-0.999909011589,0.0,0.282637859331,-0.236752700379,0.304927921757,1.0,-0.1196,-0.157188571429,3.486
-0.571002690505,-0.528211283658,-0.132663745267,-2.64699235777,-0.0715408409924,2.10912541722,-0.822281875443,-0.533348057307,0.0410739220315,0.0117891015264,0.0325766141205,0.00155164133549,0.0178295104637,-0.536405366806,0.573991980226,0.818825668502,0.00620307506429,0.0,0.818825755068,-0.573901822103,-0.0119091698008,0.0,-0.00619169705079,0.0119152349853,-0.999909840967,0.0,0.280461308845,-0.239602963224,0.304937124756,1.0,-0.116627428571,-0.153281763265,3.504
-0.578744605661,-0.52755070836,-0.13248200214,-2.64653626577,-0.0714869608713,2.10923688036,-0.830119653861,-0.527221734318,0.0416446754847,0.010412253215,0.0291697902686,-0.00120260782914,0.0119090518749,-0.52296914795,0.573834230853,0.818936350348,0.00618679901255,0.0,0.818935967675,-0.573743679399,-0.0119506526902,0.0,-0.00623730715668,0.0119245154147,-0.999909446866,0.0,0.278753312191,-0.24183440456,0.304917110947,1.0,-0.114150285714,-0.150026089796,3.519
-0.587578895958,-0.526801247159,-0.132313701755,-2.64595985089,-0.0714575493895,2.10935987097,-0.838815723368,-0.5126114928,0.0437555128416,0.00768336843157,0.0388659689104,0.0001211887201,0.010582487631,-0.507249423202,0.573873565955,0.818909031129,0.00615434271745,0.0,0.818908290192,-0.573783262888,-0.0119468148464,0.0,-0.0062522161001,0.0118960325452,-0.999909693024,0.0,0.276785052639,-0.244391341006,0.304919759215,1.0,-0.111342857143,-0.146336326531,3.536
-0.595677456168,-0.525959030988,-0.132166585296,-2.64530770007,-0.071384380735,2.10949310071,-0.846785694523,-0.500184062037,0.0576752691684,0.00887194723529,0.0390739959267,0.00115534228042,0.0163265187894,-0.495990247669,0.573942673445,0.818860614476,0.00615211832373,0.0,0.818859808453,-0.573852296274,-0.0119542069136,0.0,-0.00625854248814,0.0118989809993,-0.999909618364,0.0,0.274992124221,-0.246748744356,0.304923072963,1.0,-0.108700571429,-0.142863608163,3.552
-0.603314999194,-0.525038973066,-0.131943529904,-2.64464883035,-0.0712583781135,2.10962967189,-0.854583720605,-0.474378319124,0.0569179510572,0.0156501717283,0.0441309498145,0.0071394969885,0.0198852480278,-0.491951206823,0.573744447305,0.818999503555,0.00615380078667,0.0,0.818998231352,-0.573653179965,-0.0120280114652,0.0,-0.00632090972568,0.0119411866555,-0.999908722915,0.0,0.273314679418,-0.248945328963,0.304902929149,1.0,-0.106058285714,-0.139390889796,3.568
-0.611970247922,-0.524041972412,-0.131754844949,-2.64387820166,-0.0711481495026,2.10979581812,-0.863060038073,-0.473910483001,0.0550034773161,0.0178958159113,0.0481352422488,0.00551670233057,0.00961029911774,-0.470904155606,0.57384746488,0.818927322184,0.00615426126437,0.0,0.818926016518,-0.573756099171,-0.0120359892145,0.0,-0.00632567726981,0.0119469365754,-0.999908624082,0.0,0.271385047601,-0.251446875165,0.304906751746,1.0,-0.103085714286,-0.135484081633,3.586
-0.619493687717,-0.523057201885,-0.131619090394,-2.64308399491,-0.0710015654196,2.10997012464,-0.87043936598,-0.465886869034,0.0660211886623,0.00488696322676,0.0501881248262,0.0109432595299,0.0113486032362,-0.4632676451,0.573975781558,0.818837077312,0.0061959587687,0.0,0.818836479193,-0.573884522461,-0.0120050874122,0.0,-0.0062745666552,0.0119643368441,-0.999908738064,0.0,0.269719063506,-0.253643683732,0.304924864384,1.0,-0.100443428571,-0.132011363265,3.602
