nelsonifechukwu/NELSON_IML_WORK/CNN-GradCAM/train2dof/data_sample_2022-07-06-11-14-47/robot_state.csv
position_joint1,position_joint2,position_joint3,position_joint4,position_joint5,position_joint6,position_joint7,velocity_joint1,velocity_joint2,velocity_joint3,velocity_joint4,velocity_joint5,velocity_joint6,velocity_joint7,ee_T_00,ee_T_10,ee_T_20,ee_T_30,ee_T_01,ee_T_11,ee_T_21,ee_T_31,ee_T_02,ee_T_12,ee_T_22,ee_T_32,ee_T_03,ee_T_13,ee_T_23,ee_T_33,v_x,v_y,w_z,time
0.4651175668458029,0.5472651417228817,-0.12399354663600866,-1.3555493330704476,0.0794708185735229,1.8941856574625082,0.15911531479012817,0.0015231633681668817,0.0005074657449183224,-0.0009311156145724484,-0.0006179339618201247,6.56569927351124e-05,0.00047524521174001946,-0.0018685569209986764,0.5737135931077424,0.8190398377780768,0.0026840486347620126,0.0,0.8190069074362174,-0.5736530791864116,-0.011427038676758431,0.0,-0.007819637692335901,0.008754270336420636,-0.9999311056354021,0.0,0.6617640491377085,0.2609582198531528,0.3037225293026624,1.0,5e-324,6.91112809159475e-310,6.91091589201575e-310,0.0
0.4651126995260514,0.5472651497471521,-0.12399370556315348,-1.3555468980551753,0.07947076601934598,1.894181686796957,0.15911749749114937,3.192636854168471e-05,0.0011352119340474782,-0.0009649138356352893,-0.0006663535061519248,0.00019596422006612954,-0.0006113335811955721,0.0001195619114721473,0.5737193048280731,0.8190358411545166,0.002682736124642402,0.0,0.8190028930949613,-0.5736587934977143,-0.011427888958090864,0.0,-0.007821026055862601,0.008753737692757377,-0.9999310994402765,0.0,0.6617651241596142,0.26095491702896645,0.30372334263548995,1.0,-0.00016,-0.00021028571428571434,-8e-05,0.009000000000000001
0.46511268644522075,0.5472591975215292,-0.12398844154512954,-1.3555472095163965,0.07946762477689279,1.8941850449382194,0.15911753236320725,0.0003238422475150532,-0.0013046436013859554,0.00047314576012360654,-0.0022582468866205268,-4.4396271817328675e-05,-0.0002726238841959541,-0.001663798496975048,0.5737148586282032,0.819038931776167,0.0026900047181832995,0.0,0.8190060831682239,-0.573654331134476,-0.011423265965102358,0.0,-0.007813117122810243,0.008756996245498236,-0.9999311327374407,0.0,0.6617648492262087,0.2609577155859332,0.30372752385361046,1.0,-0.0005000000000000003,-0.0006571428571428577,-0.00025000000000000017,0.026000000000000016
0.4651095102870866,0.5472433086389987,-0.1239917487621399,-1.3555631563609642,0.07946797743593335,1.8941875327425728,0.15912217635912185,-4.344361715065857e-05,0.0012081217955302722,-0.0007106610828078076,0.0003360602507949399,0.0003766979802094102,-0.00022229379252012275,0.00032698329154769667,0.5737245259668501,0.8190321527621467,0.00269220116729942,0.0,0.8189993337705906,-0.5736639917629811,-0.011422028677057033,0.0,-0.0078107402489726585,0.008758177572776915,-0.9999311409603997,0.0,0.6617636772309744,0.2609522408703457,0.30373151452130054,1.0,-0.0008400000000000006,-0.001104000000000001,-0.0004200000000000003,0.04300000000000003
0.46510882704032924,0.5471497924687752,-0.12398948900111788,-1.3556656711579804,0.07946606730718532,1.8942017789077925,0.15912217619658217,0.0009206105000730331,-0.009879432816122465,-0.0008611117439999554,-0.008508776985142425,-2.561050917238143e-05,0.00048757320365139847,0.0011337758458478974,0.5737285265947984,0.8190293208515852,0.002701158633048018,0.0,0.8189965443881533,-0.5736678815806416,-0.011426671617354379,0.0,-0.007809361497930489,0.008768215872544241,-0.9999310637556007,0.0,0.6617452502088512,0.26094280884548104,0.3037501178964809,1.0,-0.001180000000000001,-0.0015508571428571444,-0.0005900000000000005,0.060000000000000046
0.4651059995213568,0.5470212600724947,-0.12398924354140577,-1.355838163642933,0.07946375514083456,1.8942336526786552,0.15911944176466875,-0.002074918956252921,-0.006746442679592706,-0.0009573945148494407,-0.008495759225600509,-0.00019822058547061693,-0.0007232792236874391,-0.0001929562073521819,0.5737372351595915,0.8190232344183581,0.0026969196367813263,0.0,0.8189902969723732,-0.5736764832979904,-0.01144259049177559,0.0,-0.007824738752201188,0.008773960171974848,-0.9999308931553024,0.0,0.6617162677506785,0.26092407552987484,0.30376180598471525,1.0,-0.0015000000000000011,-0.001971428571428573,-0.0007500000000000006,0.07600000000000005
0.4650819645425217,0.5468664675332154,-0.12398981667176519,-1.3560507966700952,0.07945944526870177,1.8943156032564386,0.15912054549009955,-0.0048879453440855945,-0.007945750825194938,0.0019897731470703587,-0.012200417835185884,-0.00012394193258141034,0.007089137015639161,0.001408809003949192,0.5737689673598352,0.8190009217821973,0.0027219691305797027,0.0,0.8189682469981425,-0.5737080637397486,-0.011437434589388097,0.0,-0.007805804117986037,0.008791820590643179,-0.9999308842678946,0.0,0.6616945933943087,0.26088949867982925,0.30377736223617935,1.0,-0.0018400000000000014,-0.0024182857142857166,-0.0009200000000000007,0.09300000000000007
0.4650603149358498,0.5466642837569741,-0.12399423466249707,-1.3562778753509515,0.07945764259069218,1.8944334336309194,0.15911505791127928,0.00023659312530141985,-0.011955131943782473,-0.0007909558609292773,-0.014264171422653467,1.7434815659208445e-05,0.001770994101563591,-0.0013114247098441648,0.5737976015983858,0.8189805756704955,0.0028064168564730296,0.0,0.818948960994276,-0.5737363970803004,-0.01139705457212541,0.0,-0.007723971528875939,0.008838084908018767,-0.9999311118867038,0.0,0.6616781151388221,0.2608560290712692,0.3038228613306183,1.0,-0.002200000000000002,-0.0028914285714285743,-0.001100000000000001,0.11100000000000008
0.4650325766883984,0.5464683090890968,-0.12398993310408463,-1.356513502536802,0.07945169256169715,1.8945563142030515,0.15910627547693526,-0.0012610276605928088,-0.007855705559266547,0.0005257248363798972,-0.015645096522841795,0.00012362208234351316,0.01202247834186264,-0.0015231991697030095,0.5738218418013991,0.8189633281232449,0.0028823535794067646,0.0,0.8189326554071416,-0.5737603606974591,-0.011362275359172756,0.0,-0.0076516539318720045,0.008880546222294727,-0.9999312916850339,0.0,0.6616603308880766,0.260822151844013,0.3038600273649361,1.0,-0.002520000000000002,-0.003312000000000003,-0.001260000000000001,0.12700000000000009
0.4650062105191687,0.546223561807927,-0.12398993407843403,-1.3568421121546175,0.07944056599542478,1.8946873152097012,0.1591049225065772,-0.005355904722206331,-0.017258346524441796,-0.0006223427458769069,-0.02191975400553213,-0.0004159855151522855,0.009650667318888301,0.0009154233041735121,0.5738577393863492,0.8189380154051336,0.002927246470365373,0.0,0.8189078681154932,-0.5737960581633303,-0.011346103999628319,0.0,-0.007612259965660895,0.008908366272220525,-0.999931344897526,0.0,0.6616250371246579,0.26077600348198615,0.3038882928765432,1.0,-0.002860000000000002,-0.003758857142857146,-0.001430000000000001,0.1440000000000001
0.46497359221616424,0.5459639390774296,-0.12398993700192776,-1.3572510383265386,0.07942746935367034,1.8948322950874397,0.15909728100406878,1.2937169883104086e-05,-0.01608709719124562,-0.0007642923228651282,-0.02283389923069664,0.00046034676769951267,0.009861366526585102,0.000562879611362704,0.5738964538511083,0.8189108879153627,0.002926570006558219,0.0,0.818880631375546,-0.5738346521799814,-0.011360035945159656,0.0,-0.007623636619436325,0.008916167503137173,-0.9999311886933775,0.0,0.6615788089637348,0.2607171078943342,0.3038902814203395,1.0,-0.0031800000000000023,-0.004179428571428575,-0.0015900000000000011,0.16000000000000011
0.46493845549111684,0.5456806287645422,-0.12399033620754399,-1.3576814756866078,0.0794031047876633,1.8949840342083417,0.15908563975835932,-0.0008920101327551664,-0.018769782866232404,0.005568396997808329,-0.027382167226953663,-0.00043015606849138027,0.008035236092152584,0.001238384019059821,0.5739346356619123,0.8188841022208816,0.0029339425244872697,0.0,0.8188539232220969,-0.5738727868142176,-0.011358867860489686,0.0,-0.007618033208048602,0.008921889807752367,-0.9999311803580782,0.0,0.6615258067007629,0.26065251099388415,0.30389889830026523,1.0,-0.0035200000000000027,-0.004626285714285719,-0.0017600000000000014,0.17700000000000013
0.46488913722417713,0.5453732999345519,-0.12399034595272913,-1.3582107503496599,0.0793523002782127,1.8951519001776416,0.15906616754467584,-0.0028365024825985296,-0.013515546055101553,-0.005897701938857896,-0.03346808983435711,-0.006972216304730619,0.01622284902937938,-0.003589655179335857,0.5739751022499237,0.8188559411566071,0.002876896057395494,0.0,0.8188251415665472,-0.573913552887441,-0.011374016522174235,0.0,-0.007662738897876942,0.008884248167084052,-0.9999311739150294,0.0,0.661461608958339,0.2605642548623905,0.30387901615939894,1.0,-0.0038600000000000028,-0.005073142857142862,-0.0019300000000000014,0.19400000000000014
0.4648412306672968,0.5450169744958188,-0.12399410701775218,-1.3587745345137572,0.07931577665620568,1.8953282980991695,0.15900353112697763,-0.004894902534618497,-0.02084153748495208,0.0011690726795080101,-0.034995833058744895,-0.0007378953272808913,0.012765588800622634,-0.006125647823822465,0.5739866148888022,0.818847983216207,0.0028448571936696924,0.0,0.8188167536606847,-0.5739251418916145,-0.011393082571273682,0.0,-0.007696615801269235,0.008869064387155748,-0.999931048523899,0.0,0.6613878919479435,0.26046700185996585,0.30387592346743036,1.0,-0.004200000000000003,-0.005520000000000005,-0.0021000000000000016,0.21100000000000016
0.46477228804371545,0.5445897907274109,-0.12399417188953037,-1.35952234579773,0.07929258148032974,1.895574528619971,0.15891663996059177,-0.0007574698584173066,-0.025120851920145397,-0.0034561524160726395,-0.0452034309698315,-0.0030057346112588477,0.014495716167224202,-0.0009287999613306197,0.5740081640305378,0.8188330425095616,0.002796966577199784,0.0,0.8188009796026573,-0.5739465899401697,-0.011446160884237635,0.0,-0.007767334857999242,0.008860519360141053,-0.9999305774431904,0.0,0.6612999646428932,0.260358365879597,0.30384600351470714,1.0,-0.004560000000000003,-0.005993142857142863,-0.0022800000000000016,0.22900000000000018
0.464713147679308,0.5441940638977286,-0.12399739270218846,-1.3602007924793205,0.0792569119110262,1.8957935251748734,0.15890168281754363,-0.0058194797361904565,-0.027725120116571394,-0.0005873508753549931,-0.045139563974636136,-0.0033891021356371193,0.009665811625361207,-0.005128663307942438,0.5740748613546236,0.8187864627651362,0.0027438758052374503,0.0,0.8187536418957022,-0.574013365931396,-0.01148375007749345,0.0,-0.007827868429291673,0.008839260725175935,-0.9999302935433481,0.0,0.6612162717981332,0.26025114225724666,0.30382217703686953,1.0,-0.004880000000000004,-0.0064137142857142925,-0.002440000000000002,0.2450000000000002
0.4646463293566244,0.5437605985175367,-0.12399697567697066,-1.3608998256148883,0.07922726820693603,1.8960406881214054,0.15886294782899885,-0.005671496687682246,-0.03309629597386034,0.00022986313859679766,-0.04096458700132292,-0.0007845784082969587,0.01227685556333408,-0.0068367995374638306,0.5741286159086146,0.8187488030692166,0.0027343680790398953,0.0,0.818715737447132,-0.5740670070535135,-0.011504762936640451,0.0,-0.007849951520544463,0.00884405407489991,-0.9999300780397824,0.0,0.6611351953840823,0.2601418934167909,0.3038175639751161,1.0,-0.005200000000000003,-0.00683428571428572,-0.0026000000000000016,0.2610000000000002
0.46457888504694744,0.5433046477370141,-0.12400235600530483,-1.3616518958396846,0.0791818909260064,1.8963081379808688,0.1587990686059913,-0.0021018111911045977,-0.03185908857379829,0.0002829291348733911,-0.04791615430748399,-0.0018212829489194064,0.017198290908196755,-0.0015621832149192746,0.5741652259144514,0.818723214157482,0.002709031461103203,0.0,0.8186898009158556,-0.574103672706281,-0.011520840365378485,0.0,-0.007877266204225963,0.00883289239922723,-0.9999299618918374,0.0,0.6610415748858799,0.2600166494620098,0.3038072797775786,1.0,-0.005540000000000004,-0.007281142857142864,-0.002770000000000002,0.2780000000000002
0.4645018990160964,0.5427625441224103,-0.1240058278658359,-1.36255711508725,0.07912981884779305,1.896615127362897,0.15873341249577552,-0.003058428761474182,-0.029777995172880253,0.00023949332525952468,-0.05171429269356154,-0.0032379306426815234,0.01809019653070765,-0.0030644407261403014,0.5742132653524687,0.8186896848415767,0.0026594601826993745,0.0,0.8186556073610523,-0.5741518445967605,-0.01155001227931651,0.0,-0.007929094602983022,0.008809521867482586,-0.9999297584246821,0.0,0.6609396926701278,0.2598808783961876,0.3037847805780351,1.0,-0.005880000000000004,-0.0077280000000000066,-0.002940000000000002,0.2950000000000002
0.46442550550145806,0.5422097686050084,-0.12400839817404112,-1.363436644445423,0.0790714603422905,1.896931250835727,0.15868129781900786,-0.0030702586454887586,-0.03437336967624754,0.00022808568302106535,-0.05430297355626263,-0.0051310880080362095,0.020554248420467307,-0.0016115559828791125,0.5742682686034146,0.8186511479661305,0.002645847724523887,0.0,0.8186169357975481,-0.5742069325170227,-0.011552401310229006,0.0,-0.00793827532497754,0.00880028268818564,-0.9999297669383949,0.0,0.6608384091911751,0.2597437626765174,0.30378453172221187,1.0,-0.006220000000000004,-0.00817485714285715,-0.003110000000000002,0.3120000000000002
0.46434623402939673,0.5416439095618897,-0.12401723629567747,-1.3643272644123472,0.0790214855130905,1.897245985414675,0.15862564761469206,-0.0045572639047520925,-0.03956200778320493,-0.0009418586105737921,-0.05674590367090828,-0.006166534016367126,0.01943414261670339,-0.009692908283366615,0.5743298708198351,0.8186079614259274,0.0026366409249127688,0.0,0.8185736183462281,-0.5742685449012017,-0.011559264069490687,0.0,-0.007948518681748562,0.008797284716980283,-0.999929711945982,0.0,0.6607362131911857,0.25960123659741785,0.303788287294871,1.0,-0.006540000000000005,-0.00859542857142858,-0.0032700000000000025,0.32800000000000024
0.4642607660792686,0.5410267866798042,-0.12401271295475168,-1.3653053512038482,0.0789638332800464,1.8975969909813644,0.15853134078848535,-0.004460684005514896,-0.038071989918720836,0.00010910393898794063,-0.06195013173153899,-0.005171993748900648,0.018866133388145752,-0.006119311844830876,0.5743583205800443,0.8185880237210836,0.0026294299933978882,0.0,0.8185535341457802,-0.5742969566148035,-0.011569972412939205,0.0,-0.007961120485414308,0.008797808523214587,-0.9999296070853216,0.0,0.6606212574749659,0.25945387940427833,0.3037892773934632,1.0,-0.006880000000000005,-0.009042285714285723,-0.0034400000000000025,0.34500000000000025
0.464176589737649,0.5403460793016368,-0.12402652036811881,-1.3663223824376836,0.07890110259116566,1.8979744739919218,0.1584735413726596,-0.004725160969059753,-0.04212873782126218,0.0005601020765748476,-0.06646367356796819,-0.002091329790801466,0.01737938056828984,-0.0040294325871519186,0.5744291662656301,0.8185382122402955,0.002659877260704116,0.0,0.818504195418262,-0.5743677785614176,-0.011544866146215645,0.0,-0.007922318831587338,0.008808998132714227,-0.9999298167452695,0.0,0.6605082382632986,0.2592939419184336,0.30381947828793976,1.0,-0.007220000000000005,-0.009489142857142866,-0.0036100000000000025,0.36200000000000027
0.4640823784363228,0.5396913299687102,-0.12403010455136554,-1.3673273151397125,0.07884560583303014,1.8983497558946885,0.15839932015365857,-0.008802584454212257,-0.04279885147385976,-9.661973910053101e-05,-0.06737442955063366,-0.009415008291363425,0.018040809209083613,-0.010311950213098216,0.5744929303468017,0.8184933776387034,0.002685264296064295,0.0,0.8184596352057317,-0.5744313900990837,-0.011539086139862032,0.0,-0.007902317631210076,0.00882707379472504,-0.9999298156092148,0.0,0.6603887475169721,0.25912711952613865,0.3038374853956294,1.0,-0.007560000000000006,-0.009936000000000009,-0.003780000000000003,0.3790000000000003
0.4639829507276044,0.5389052248627908,-0.12403139543455272,-1.3685567023995233,0.0787734259953746,1.8987994618112771,0.15829465511241056,-0.0061266791714025045,-0.04607432847215804,0.0008130970043500847,-0.06671085067389008,-0.000623653271069747,0.031791104913542846,-0.00751214194667361,0.5745341540595595,0.8184644335786899,0.0026876917584880934,0.0,0.8184307286483138,-0.5744726074300444,-0.01153744416777797,0.0,-0.007899134496076099,0.008828515225501085,-0.9999298280345106,0.0,0.6602528834967184,0.2589522441193297,0.30384570498848484,1.0,-0.007900000000000006,-0.010382857142857152,-0.003950000000000003,0.3960000000000003
0.4638867732956839,0.5381929944662176,-0.12403682629869066,-1.3696536411586193,0.07871672786457296,1.899230703305265,0.15823720773144836,-0.006224358243482412,-0.037960896917006846,-0.00035218533668132185,-0.06742581840171223,-0.0009739827829583185,0.02573881813327591,-0.007189814528826884,0.5746152305435526,0.818407377729265,0.0027290670377164627,0.0,0.8183741862897569,-0.5745535134489065,-0.011519474784192085,0.0,-0.007859779421101054,0.008852834119670486,-0.9999299231423677,0.0,0.660133205154253,0.2587848135154016,0.30386422305456817,1.0,-0.008220000000000007,-0.010803428571428582,-0.004110000000000003,0.4120000000000003
0.4637848730246635,0.5374152224686809,-0.12404528507636732,-1.3708805679373786,0.0786448908723595,1.8996958499262089,0.15812698507091533,-0.005628498234465146,-0.044507252350670455,-0.002166229347376016,-0.07401051133206264,-0.007307054807918144,0.029248164535041747,4.786380434171323e-05,0.574662904062942,0.8183738663902662,0.0027401468210973955,0.0,0.818340844747193,-0.5746011748084958,-0.011510804852632929,0.0,-0.007845801345951253,0.008857377140981143,-0.9999299926851993,0.0,0.659994715573217,0.2585971452203823,0.30387005308212073,1.0,-0.008560000000000007,-0.011250285714285725,-0.004280000000000003,0.4290000000000003
0.46368638093232967,0.5365875336834967,-0.1240475592784998,-1.3721687664960012,0.0785641057755075,1.9001648090551926,0.15805906466786165,-0.007431195691544453,-0.05395493855402568,-0.0006978952571609354,-0.07409047840114823,-0.00013766511863503157,0.02570320457379544,-0.0016084777617908367,0.5747387784908408,0.8183205693767487,0.002743926926593256,0.0,0.8182876176835246,-0.5746770512529741,-0.011506885339520774,0.0,-0.007839600064355856,0.008858945214277408,-0.9999300274321806,0.0,0.6598420287305565,0.2584075245397493,0.30388192898834243,1.0,-0.008900000000000007,-0.011697142857142868,-0.004450000000000003,0.44600000000000034
0.46357389459384707,0.5357447358924692,-0.12405833355851006,-1.373515075184934,0.07847990449823096,1.900654432631814,0.1579358216109918,-0.010045008230431883,-0.04865039046529164,-0.0036792155066727294,-0.0751716542186202,-0.008995109065011341,0.030626888923980612,-0.01023705993115408,0.5747890133255655,0.818285342978267,0.002726633156716371,0.0,0.8182522179467655,-0.5747273926356571,-0.011509947029714043,0.0,-0.007851501353768942,0.008847035057489211,-0.999930039501356,0.0,0.6596858444904434,0.25819790275231413,0.30387872671996435,1.0,-0.009240000000000007,-0.01214400000000001,-0.0046200000000000034,0.46300000000000036
0.46346924171814213,0.5349071121399025,-0.12404822302241,-1.374813541213801,0.07842206082515009,1.9011241973791202,0.15785560202034102,-0.00981172851778219,-0.051139430701804385,0.00029797832538211574,-0.07997217325071147,-0.0038871219095204554,0.03733221860231966,-0.010471515499899397,0.5748576295391961,0.8182370717263018,0.0027472012215001874,0.0,0.8182039777901753,-0.5747956681181373,-0.011529854386178989,0.0,-0.007855226166256057,0.00887596661845462,-0.9999297538519719,0.0,0.6595280926388261,0.25801410378355466,0.3038921225908933,1.0,-0.009560000000000008,-0.01256457142857144,-0.004780000000000004,0.47900000000000037
0.4633419318232723,0.5340205663329973,-0.12405951513781598,-1.3762608353559072,0.07833815957988087,1.9016489136219696,0.15774667207256118,-0.005372550273637529,-0.04889746702098308,0.0009933553365434596,-0.0845814506564906,0.0008515282619353887,0.032992655380345834,-0.008644234292830504,0.5749374779617542,0.8181810798360154,0.0027136570449552404,0.0,0.8181475457590033,-0.5748756098390135,-0.011548743739050368,0.0,-0.007889100264179882,0.008860148035623364,-0.9999296274607573,0.0,0.6593598923520174,0.2577854542797052,0.30387446753366965,1.0,-0.009900000000000008,-0.013011428571428584,-0.004950000000000004,0.4960000000000004
0.46322002303812443,0.5330930861505114,-0.12406272341804532,-1.377732330537269,0.07825285025917436,1.9022000780965203,0.15763554751475287,-0.0063694517272427295,-0.05600216799976379,-0.0002828966013092429,-0.08587753627153182,-0.0038845805871824493,0.02772537802332466,-0.007609625703715742,0.5750062709541668,0.8181327172544824,0.0027188641724984674,0.0,0.8180992329759176,-0.5749443571954796,-0.011548940838890208,0.0,-0.00788552255671826,0.008865184781605681,-0.9999296110390948,0.0,0.6591888810877341,0.25756430391286517,0.3038760102618288,1.0,-0.010240000000000008,-0.013458285714285726,-0.005120000000000004,0.5130000000000003
0.46309040643883764,0.5321572006589639,-0.12406024520218087,-1.3792328051371476,0.07817536284277404,1.9027779813908317,0.15753079506490061,-0.005840633308541455,-0.05374974689915878,-0.0017794868044360708,-0.09010488973098983,-0.01005354976553769,0.040567967869556174,-0.005548556121677888,0.5750862545320522,0.8180764432774194,0.0027349047645683746,0.0,0.8180430641374136,-0.5750241623553919,-0.011554428820144139,0.0,-0.007879921424823577,0.008882234077695603,-0.9999295038932133,0.0,0.6590165576044862,0.25734113557017374,0.3038716513632807,1.0,-0.010580000000000008,-0.01390514285714287,-0.005290000000000004,0.5300000000000004
0.4629614879997439,0.5311917746040319,-0.12406024520747772,-1.3807993670172443,0.07806492096779712,1.9033529330218872,0.15742431700592918,-0.008052955968656095,-0.0572825071275911,-0.0008417769006983595,-0.09319131056340076,-0.007690458991887421,0.03687244709224978,-0.005187636611794943,0.575158116537734,0.8180260374737761,0.0026999809123274586,0.0,0.8179923220476921,-0.5750962610773144,-0.011558480312153854,0.0,-0.00790254106971422,0.008856687941023997,-0.9999295519802167,0.0,0.6588454055706573,0.25711558032367154,0.30385430298529026,1.0,-0.010900000000000007,-0.014325714285714298,-0.0054500000000000035,0.5460000000000004
0.46282722730415965,0.530169331599225,-0.12406333194231683,-1.3824196705530105,0.07798115085638727,1.9039292663986254,0.15729065526700312,-0.01061832679131136,-0.06416810909218633,-0.0004255086031055801,-0.09953290779503725,-0.005227443228144306,0.027597908748172334,-0.004572599362603497,0.5752286001759993,0.8179765103266379,0.0026894227307042474,0.0,0.8179425009428992,-0.5751665950852374,-0.01158447023122144,0.0,-0.00792911107891231,0.008863682402683912,-0.9999292796651984,0.0,0.6586344825141898,0.25686044999841334,0.3038554357275925,1.0,-0.011260000000000008,-0.014798857142857155,-0.005630000000000004,0.5640000000000004
0.4626892755697678,0.5292082349224942,-0.12406594712429724,-1.38398175190987,0.07787059241025199,1.904485979425998,0.15719747929853378,-0.013353784312687189,-0.06538227506860683,0.0001985544161325909,-0.09864432213046254,-0.00924237058002497,0.02843240137179586,-0.006145369177720266,0.5753220607371606,0.8179109377274899,0.0026403174228037864,0.0,0.8178763941254642,-0.5752603231442169,-0.011597907119293642,0.0,-0.007967338629730203,0.008832155163575495,-0.9999292547727193,0.0,0.6584480857211528,0.25661518534961913,0.3038371648917093,1.0,-0.011580000000000009,-0.015219428571428585,-0.005790000000000004,0.5800000000000004
0.4625539819434654,0.5281408598569827,-0.12406982551737908,-1.3856719441845518,0.07777178901177377,1.9051230589690251,0.1570751873516088,-0.004337391064893894,-0.05458859196233565,0.0005077944766248796,-0.10268880646917841,-0.008590804616744033,0.04326501626874678,-0.002082415269607122,0.5754005543817456,0.817855684974148,0.0026509382971346175,0.0,0.8178212682457916,-0.5753387589822437,-0.011594503819691173,0.0,-0.007957596521769028,0.00883964783644857,-0.9999292661402227,0.0,0.658249080185979,0.2563644686716689,0.3038395727415958,1.0,-0.011920000000000009,-0.01566628571428573,-0.005960000000000004,0.5970000000000004
0.462410891028098,0.5270092536265159,-0.12407539610112002,-1.3874158878889717,0.07766786614225617,1.9057943933783352,0.15694154504253324,-0.00911704079188183,-0.07160501806549568,0.00011510907342271173,-0.10611476379835504,-0.004668597302605671,0.03989222786249359,-0.008131232112921265,0.5754786706749462,0.8178005652252378,0.0026985212036979914,0.0,0.8177667998243736,-0.5754167448220104,-0.01156623467912393,0.0,-0.007906251191085512,0.008863053048098937,-0.9999294662538804,0.0,0.6580481755042863,0.2561036105196608,0.30386435160061465,1.0,-0.012260000000000009,-0.01611314285714287,-0.006130000000000004,0.6140000000000004
0.4622552435181124,0.525845468996195,-0.1240833688720026,-1.3892194152606538,0.0775404361721356,1.9064739111224895,0.15681746388416126,-0.0031394968487685306,-0.07444569205698719,-0.001531931592459853,-0.10830867516813505,-0.005763496764476224,0.04267335189967483,-0.008919614820307082,0.575573068339046,0.8177340643630058,0.002718434171345073,0.0,0.8177007474445998,-0.5755112792143475,-0.011532650467976233,0.0,-0.007866303063355284,0.008860919269876644,-0.9999298002289001,0.0,0.6578402935304596,0.25582325755503593,0.30388386548410606,1.0,-0.012600000000000009,-0.016560000000000016,-0.006300000000000004,0.6310000000000004
0.46211423945254887,0.5247712181163208,-0.12408179677209272,-1.3909229514131665,0.07744760191545286,1.907096140665886,0.15668162509640976,-0.010396436832978808,-0.06707910611017973,0.00030107488462979257,-0.10724931623485039,-0.007852887194438218,0.03768743703631049,-0.018900764918927636,0.5756428915693526,0.817684918741713,0.0027169742805088874,0.0,0.8176514618510498,-0.5755809621009769,-0.011549454574290099,0.0,-0.007880127871591092,0.008870070195800772,-0.9999296102423655,0.0,0.6576337241992596,0.2555705138770787,0.3038824933953433,1.0,-0.01292000000000001,-0.016980571428571446,-0.006460000000000005,0.6470000000000005
0.4619560330639806,0.5235835060127924,-0.1240892604038299,-1.39280863457494,0.07731941626752291,1.907764104656324,0.15654407384162972,-0.006918935453463117,-0.07264450482209184,-0.0007473784475361664,-0.10872365258256769,-0.005520996916458906,0.04243601554566071,-0.0065091756017559175,0.5757365328827639,0.817619072820018,0.0026913502701439622,0.0,0.8175854056456489,-0.5756748125093553,-0.011548230114044,0.0,-0.007892862598458006,0.008849317045917529,-0.9999296936824223,0.0,0.657392243180415,0.2552650993085601,0.3038856213303104,1.0,-0.01328000000000001,-0.0174537142857143,-0.006640000000000005,0.6650000000000005
0.46180083947773365,0.5223854949867235,-0.12409230364196817,-1.3947273585205058,0.07720623386102066,1.9084948855604928,0.15641600837856331,-0.01234941645084953,-0.07043014923549762,-0.0001209502158729352,-0.11398844052696784,-0.013365907952769157,0.04485731160229067,-0.014772864228827896,0.5758283591732836,0.817554418899439,0.0026869706014073505,0.0,0.8175206573023244,-0.5757665994470784,-0.011556156209190538,0.0,-0.007900870764574741,0.008851186853277793,-0.9999296138891227,0.0,0.6571767416375218,0.2549939927790111,0.3038703178953889,1.0,-0.01360000000000001,-0.01787428571428573,-0.006800000000000005,0.6810000000000005
0.4616365138702176,0.5211593560522968,-0.12409754755620601,-1.3967032101700212,0.07708777284028329,1.9092685441862531,0.1562710904251914,-0.011505681743289317,-0.07601016402669596,3.6771636171006734e-05,-0.11666565728474895,-0.008705896770914514,0.04676990658822169,-0.010830292635638894,0.5759219191882912,0.817488463514707,0.0027022065145165877,0.0,0.8174549436186054,-0.5758601472908995,-0.011543518389750264,0.0,-0.007880751799423824,0.008857267869033597,-0.999929718808763,0.0,0.6569474837707121,0.2546978362584253,0.3038585492023238,1.0,-0.01394000000000001,-0.018321142857142873,-0.006970000000000005,0.6980000000000005
0.4614745574473261,0.519890022225655,-0.12409798143711803,-1.3987192407572275,0.07695519582952344,1.9100175410369546,0.15612025754066905,-0.007853164788315279,-0.07870338083481512,-0.000806011142883805,-0.11975839472062248,-0.0045665951682201285,0.04503267698498847,-0.00881580945269379,0.5760029735228258,0.8174313752489836,0.0026959511543102185,0.0,0.8173978414291647,-0.5759412873019473,-0.011539034150488486,0.0,-0.007879810687135835,0.008850353033115751,-0.9999297874524611,0.0,0.6567033363722448,0.2543979729801633,0.3038553066554833,1.0,-0.014280000000000011,-0.018768000000000017,-0.007140000000000006,0.7150000000000005
0.4612995878293069,0.5185460029492456,-0.12410404577590974,-1.4007851069939963,0.07681542908655407,1.9107601111420167,0.1559686023464612,-0.009469045560940633,-0.08228211432260733,-5.496890539889429e-05,-0.12038586462052275,-0.013107025233102814,0.04615446288249622,-0.004637497236657677,0.5760916320906833,0.817368879357712,0.0027006284119079514,0.0,0.8173354705810922,-0.5760299919097859,-0.011529260670353574,0.0,-0.007868167398291381,0.008849400368673932,-0.9999298875695772,0.0,0.6564665449418179,0.25409723114323896,0.3038748422867474,1.0,-0.01460000000000001,-0.019188571428571447,-0.007300000000000005,0.7310000000000005
0.4611387451170693,0.5172907165747395,-0.12411589711946044,-1.4027678037198985,0.07668874958113843,1.9114753234340653,0.15582879947601772,-0.005653457809176245,-0.07743671464773051,-0.0014921816702459859,-0.12350577404487291,-0.007330499803138383,0.04310211143723115,-0.0076210996361948695,0.5761944233027122,0.8172964692955664,0.0026860255145356197,0.0,0.8172629628947518,-0.5761329205542898,-0.011526241160264756,0.0,-0.007873000059808677,0.008836715182757443,-0.9999299617147377,0.0,0.6562095338347115,0.25377657704960627,0.3038794174144632,1.0,-0.01494000000000001,-0.01963542857142859,-0.007470000000000005,0.7480000000000006
0.46095687651999795,0.5159374632869568,-0.12412200840339263,-1.4049046198725923,0.07655210125599428,1.9122727605200962,0.15566866905143947,-0.004927450998304518,-0.08020239463591927,-0.0007295414623733973,-0.12388030867850822,-0.008294384648434364,0.04982915254006769,-0.006141069800937829,0.576292562871042,0.8172272583790284,0.0026901752788306968,0.0,0.8171938722483734,-0.5762311090633282,-0.011516553675664204,0.0,-0.007861630262586683,0.00883546909648436,-0.9999300621820805,0.0,0.6559530728617426,0.2534498706316788,0.303880804217466,1.0,-0.015280000000000012,-0.020082285714285733,-0.007640000000000006,0.7650000000000006
0.46078221811988096,0.5146404759296475,-0.12412596690986626,-1.4069575098979452,0.07643500124290535,1.9130516214680737,0.15551718969754993,-0.009506666630878022,-0.08380877392967714,1.8789483828892426e-05,-0.12826113111668289,-0.006136258179606557,0.05151285815864518,-0.0029594935767846397,0.5763910814234814,0.8171577106107456,0.0027100085024152933,0.0,0.8171245352055561,-0.576329499269557,-0.011512998654298473,0.0,-0.007846228843616743,0.008850574583704252,-0.9999300495647041,0.0,0.6557071861085054,0.25314028622515256,0.3038806405818641,1.0,-0.015600000000000011,-0.020502857142857163,-0.007800000000000006,0.7810000000000006
0.4605939265744296,0.5132519583326124,-0.12412666157627708,-1.4092218867615756,0.07629863456209938,1.9138546109247745,0.15532485332820278,-0.009539308553605344,-0.07784260457850486,0.0005864595347025128,-0.1313387952798387,-0.008459982043958501,0.045672939094980686,-0.012860621956585912,0.5764703271786723,0.8171020152819454,0.002646772734168624,0.0,0.817067929678745,-0.5764088396472237,-0.011558320303528824,0.0,-0.007918856075293856,0.008825791729088525,-0.9999296960880869,0.0,0.6554212582573564,0.25279843300262733,0.30384556914107164,1.0,-0.015940000000000013,-0.020949714285714308,-0.007970000000000007,0.7980000000000006
0.46040232961286504,0.5118244894959642,-0.124129747033487,-1.411507721292073,0.07616363341811193,1.9146542053256965,0.15514748228995653,-0.012841532011328033,-0.07865903459299603,-0.000658721570441341,-0.1367399561564059,0.0006313820761742195,0.04742726809324668,-0.012793540321616618,0.5765672078885077,0.8170338148281301,0.002597521174430879,0.0,0.8169989749260688,-0.5765057447494376,-0.011599488861907797,0.0,-0.007979842392427217,0.008810226667067211,-0.9999293485149171,0.0,0.6551309743507716,0.2524510473081226,0.3038268856709291,1.0,-0.016280000000000013,-0.02139657142857145,-0.008140000000000007,0.8150000000000006
0.4602166432229535,0.5104483917995472,-0.12412735905513234,-1.413702202338298,0.07602632293015685,1.9154797627053135,0.154982581725426,-0.01395633690952271,-0.08906234663423392,0.0012934579325932622,-0.13918318381565548,-0.00543412251693989,0.04786884862745261,-0.0066567768196049894,0.5766672659202059,0.8169631810241625,0.0026023389872672055,0.0,0.81692842387735,-0.5766057962976324,-0.011595380047707268,0.0,-0.007972628322769959,0.008812770469820333,-0.9999293836438018,0.0,0.6548472058008166,0.25210123718319416,0.3038185435136525,1.0,-0.016620000000000013,-0.021843428571428593,-0.008310000000000007,0.8320000000000006
0.46001059472860417,0.5088627630347154,-0.12412972811200071,-1.416222243146865,0.07586736269163162,1.9164223210126692,0.15478360885331227,-0.012607535847252022,-0.09355065062999136,-0.0003561666849491555,-0.14412369435326938,-0.006497387853870759,0.052164688377637644,-0.007164539210344064,0.5767557794677698,0.8169007046011889,0.002599341034671918,0.0,0.8168659259677622,-0.5766943280723771,-0.011595596715492222,0.0,-0.007973579411847953,0.008811310188256455,-0.999929388929103,0.0,0.6545523188703172,0.2517460718110706,0.3038092923797304,1.0,-0.016960000000000013,-0.022290285714285735,-0.008480000000000007,0.8490000000000006
0.4597978618645682,0.5073706256437719,-0.12413305321956923,-1.4185972268536207,0.07571469843366527,1.9172580664772807,0.1546104626377372,-0.015108292361605564,-0.0895492179306396,-1.780115416187911e-05,-0.14250543644090272,-0.008017010462487921,0.048898467510623926,-0.010449041840333333,0.5768720733739499,0.8168187304286088,0.0025533279155152307,0.0,0.8167833426372475,-0.5768107506196618,-0.011622222726981019,0.0,-0.00802061664280923,0.008790220670397864,-0.9999291983581811,0.0,0.6542531798108816,0.2513748335845913,0.3037950957231311,1.0,-0.017300000000000013,-0.02273714285714288,-0.008650000000000007,0.8660000000000007
0.45959020611301005,0.5058982876197554,-0.12414064677345474,-1.4208741553330766,0.07557448430455145,1.9180921519214331,0.15442753395673461,-0.010352373834891248,-0.0930696274590559,0.00023754336243949337,-0.1455440043726561,-0.00932264719332938,0.05387542694469876,-0.0048057951269202485,0.5769773598625361,0.8167442939916834,0.0025751386938439565,0.0,0.8167091926740782,-0.5769159530960644,-0.011611398112350471,0.0,-0.007998058547025844,0.008802822752465966,-0.9999292681840386,0.0,0.6539747280489085,0.2510177094420601,0.30381317807456887,1.0,-0.017620000000000014,-0.02315771428571431,-0.008810000000000007,0.8820000000000007
0.4593697224773061,0.5042790203280363,-0.12414240521205291,-1.4233378277499105,0.07541993438831096,1.9190642064820909,0.15422934305584082,-0.013038459192093373,-0.09415892363033154,0.0009752256091329419,-0.14844713798867115,-0.007529038712992044,0.054519063028441596,-0.014232436436162134,0.5770821758717634,0.8166699075930947,0.00267791415196388,0.0,0.8166362332018077,-0.5770205173857955,-0.011546949337362541,0.0,-0.007884986449268105,0.00885059077548235,-0.9999297445478956,0.0,0.6536846623383916,0.2506424113909331,0.3038562720831181,1.0,-0.017960000000000014,-0.02360457142857145,-0.008980000000000007,0.8990000000000007
0.45914996525632495,0.5027179617295731,-0.1241508533345454,-1.4256698180161576,0.07526846490025588,1.919953870431309,0.15404296622393637,-0.013692351645338219,-0.09780180247477044,-0.000441868463815158,-0.1497615794936496,-0.006324626301620288,0.05709467952070596,-0.012020631449992396,0.5771941062061166,0.8165904917625831,0.0027711775607655214,0.0,0.8165581482154913,-0.5771322735034704,-0.011483743501633233,0.0,-0.007778329504294079,0.008891347869719415,-0.9999302183268504,0.0,0.6534083510720701,0.2502735840132223,0.3039138069927379,1.0,-0.018280000000000015,-0.02402514285714288,-0.009140000000000007,0.9150000000000007
0.45891125778669856,0.5009215246542362,-0.12415127550303261,-1.4283577043458782,0.07509774877578825,1.9209196874261618,0.15383545953122088,-0.012294941271229601,-0.10153061475843425,0.0005154393722724671,-0.15217360660509555,-0.009516821535679629,0.052602464624739984,-0.014743417879862681,0.5773107324281589,0.8165078341526368,0.0028322944482062577,0.0,0.8164762701981477,-0.5772486817806801,-0.011454540016820704,0.0,-0.007717932017814844,0.008925501937483371,-0.9999303820469365,0.0,0.6530707240202479,0.24986018721885217,0.3039719547183876,1.0,-0.018640000000000014,-0.024498285714285736,-0.009320000000000007,0.9330000000000007
0.45868445690633936,0.4993270164271321,-0.12415222487923179,-1.4307995423974251,0.07493519818295591,1.9217962413172052,0.15363865555703884,-0.0117811668414433,-0.10173869952019501,-0.000396311091941515,-0.15288734992237366,-0.00827225515093987,0.055073642245097275,-0.013454614753573924,0.5774159241000092,0.8164333863881093,0.002850103118340163,0.0,0.8164020967244943,-0.5773538564533442,-0.01144062076590794,0.0,-0.007695134882821031,0.008932998761426031,-0.9999304908003674,0.0,0.6527647734495936,0.2494761914399446,0.3039979813099217,1.0,-0.018960000000000015,-0.024918857142857166,-0.009480000000000008,0.9490000000000007
0.45842391671247973,0.4976688499496659,-0.12415320051116603,-1.4334279963001129,0.07477030335849658,1.9227799080559307,0.15344137238839223,-0.01983063143097481,-0.09672521598516563,-0.0012350033698782696,-0.15234468917502486,-0.008777292136560335,0.05559838323201538,-0.012205872116455857,0.5775571631932122,0.8163334574115765,0.002855950958845402,0.0,0.8163022541917813,-0.5774950724054796,-0.011437571858341058,0.0,-0.00768772298623821,0.008937342833433157,-0.9999305089946826,0.0,0.6524443341248828,0.24905579343051756,0.3039883849979334,1.0,-0.019300000000000015,-0.02536571428571431,-0.009650000000000008,0.9660000000000007
0.4581777710928147,0.49607307458970024,-0.12415012716285394,-1.4359597795374053,0.07461917871258542,1.9236804468499014,0.1532352774404898,-0.018024205155729965,-0.09443485949002586,0.0009845040316978498,-0.15528741113140626,-0.006434255769004599,0.049052526957702014,-0.013678156477863048,0.5776765780528825,0.8162490837850946,0.002819803240230882,0.0,0.8162173090095612,-0.5776144628359878,-0.011470993727296173,0.0,-0.0077345779006933735,0.008928268512763973,-0.9999302287290159,0.0,0.6521029812477144,0.2486303396888285,0.30396947437047556,1.0,-0.019640000000000015,-0.025812571428571452,-0.009820000000000008,0.9830000000000008
0.45788670827981015,0.4943126092265318,-0.12415542830643125,-1.4388685045737726,0.07443723093692198,1.9246788557013725,0.15300832525043304,-0.014365050034979798,-0.09873450310142684,0.0001923294977529896,-0.16074815614721777,-0.005756210998693969,0.05489016852343121,-0.006282931309345188,0.5778278327593889,0.8161424357412088,0.0026957693156294694,0.0,0.8161089112210216,-0.5777659299751772,-0.011555175756606112,0.0,-0.007873297207139973,0.008877114437636155,-0.9999296015372028,0.0,0.6517468719958895,0.24817857553279982,0.3039019091571484,1.0,-0.019980000000000015,-0.026259428571428597,-0.009990000000000008,1.0000000000000007
0.4576139465620125,0.4923910764575454,-0.12422163353015482,-1.4417916309113927,0.0742717927764686,1.9257430269030376,0.1528796313699303,-0.018837414109324428,-0.1430340595782698,-0.0075298371292535525,-0.2106784018078321,-0.007270387219596738,0.07521709882204969,0.006630707968655876,0.5780948166473661,0.815953195812906,0.002740822752729113,0.0,0.815920368383493,-0.5780328627638953,-0.011519935899524658,0.0,-0.00781559336507981,0.008896079618805453,-0.9999298856758746,0.0,0.6513917919287527,0.24768627671578733,0.3039423068970144,1.0,-0.029888571428570793,-0.03928212244897877,-0.05445956453142566,1.015999999999999
0.45731759819193424,0.4895256423977991,-0.12435906170274906,-1.4462769402449633,0.07407172930989878,1.927484838206083,0.15306323367208158,-0.024571525193829675,-0.18420664154258765,-0.010967730901429766,-0.30086935979864493,-0.010932781177284074,0.11954926073018655,0.01926151318991729,0.5787567163452599,0.8154834952028347,0.002842400082483586,0.0,0.8154520217181328,-0.5786944043097633,-0.01146880977200028,0.0,-0.007707892456959298,0.008955664002108177,-0.9999301898013447,0.0,0.6508386908607815,0.24700420726792918,0.30395577031858567,1.0,-0.041118285714283845,-0.054041175510201635,-0.10485840433370584,1.032999999999997
0.4568770854857013,0.4857200317920418,-0.12454113318475434,-1.452357781900849,0.07380571222603957,1.9297884115966395,0.15409666800402685,-0.029351488236471473,-0.2384873100277867,-0.0064419655402184065,-0.38992928083895995,-0.018267878774592298,0.14257057612382887,0.073257491648153,0.5803208076916861,0.8143711255272487,0.002859539955940734,0.0,0.8143398315184724,-0.5802581936422625,-0.011481045888444267,0.0,-0.007690708842897409,0.008991500223310495,-0.9999300005106497,0.0,0.6500781095309682,0.24605299998245234,0.3039110533983569,1.0,-0.0523479999999969,-0.06880022857142451,-0.15525724413598602,1.0499999999999952
0.456248060261487,0.48091132660973335,-0.1247563871765253,-1.4599556121385597,0.07340709601527404,1.932533398715236,0.15585368011109602,-0.03714323605956685,-0.29277984650827765,-0.00833294696993441,-0.4736188989191293,-0.020176626708953458,0.17235821963901984,0.10527896874090956,0.582682922964167,0.8126829721002891,0.002782992163790272,0.0,0.8126509614330755,-0.5826205618936435,-0.011508372684319073,0.0,-0.007731378911919273,0.008967506144106588,-0.9999299023499977,0.0,0.6491136329191393,0.24480265386608613,0.3038754508862886,1.0,-0.06357771428570995,-0.08355928163264738,-0.20565608393826618,1.0669999999999933
0.4556066490115291,0.47621584482189727,-0.12493114647839822,-1.4673600671452294,0.07302933310671927,1.9351761478673257,0.15771824909601206,-0.04568202259427308,-0.3458141464529263,-0.006345437259373451,-0.5442607735284253,-0.032106194369380274,0.19890880514785775,0.1382520745907507,0.5851013766881608,0.8109437823426552,0.0027032903313556275,0.0,0.8109107243010885,-0.5850389392570915,-0.011575131430350516,0.0,-0.00780540103343863,0.008964925058427997,-0.9999293504210205,0.0,0.6481564065266046,0.2435867679696442,0.30383800635928243,1.0,-0.07282571428570893,-0.09571379591836032,-0.24716101083426162,1.0809999999999917
0.45456008075471116,0.4688804234192898,-0.12519066898553108,-1.4787837284970624,0.07242498185460006,1.9393838148672229,0.16097438457411456,-0.05581244523143798,-0.4020484534820634,-0.012012128631297279,-0.6214748095071768,-0.028180949965962997,0.23536960945011134,0.18692889866759488,0.5894000251066472,0.807824621953154,0.0027816311286458706,0.0,0.8077929094113422,-0.5893371664890301,-0.011535449737598073,0.0,-0.007679449568962271,0.009046150433702757,-0.999929594129831,0.0,0.6466235896949802,0.24158149417350852,0.30385699008596745,1.0,-0.08603714285713619,-0.11307738775509331,-0.3064537635428272,1.1009999999999898
0.45344204881672473,0.4613106402830991,-0.12537150551327017,-1.490419794581491,0.07177358138271162,1.9436489564842299,0.16458892052584032,-0.07307121540781794,-0.45060806248644375,-0.012391567249447108,-0.718097360968391,-0.0439732874053711,0.2573521983813442,0.21990654652002603,0.5934735859314122,0.8048363705482672,0.0028751253209865317,0.0,0.8048060190955197,-0.593410086829203,-0.01151031616367548,0.0,-0.007557938232395589,0.009145162845568378,-0.9999296193063806,0.0,0.6451917896221251,0.23976635496148768,0.30389932431202066,1.0,-0.09660628571427789,-0.12696826122447954,-0.3538879657096791,1.116999999999988
0.45209325171808146,0.4528954117237619,-0.12563578792746177,-1.5035477228687955,0.07097516605638418,1.9481641145073714,0.16878829705389942,-0.08222907273664781,-0.5117661735727732,-0.015088506448886055,-0.771678699595775,-0.04520255725401945,0.27391504543777506,0.2610200777756026,0.5985042553376809,0.8011033458329155,0.0026139126237816413,0.0,0.8010701076396842,-0.5984414802450708,-0.01162859705389508,0.0,-0.007751583509414073,0.009053866402241234,-0.9999289677053401,0.0,0.6434337744299458,0.23747973824087457,0.3038360896985959,1.0,-0.10783599999999094,-0.1417273142857024,-0.4042868055119593,1.1339999999999861
0.4506800110524261,0.44402623272125874,-0.1258561866323334,-1.5167997042947108,0.07010350196778942,1.9531404730954147,0.17338622602726972,-0.0947959906585324,-0.5528377941134618,-0.014782413470744228,-0.8366621702110457,-0.0524847002940057,0.30801186166882677,0.2921331162487456,0.6041669227124317,0.7968400704225096,0.002996426279544051,0.0,0.7968131043405154,-0.6041039201839153,-0.011317122905778366,0.0,-0.007207922926058152,0.009225200659373142,-0.9999314684116539,0.0,0.6416096210764776,0.23503996718147435,0.3040426865633625,1.0,-0.11906571428570399,-0.15648636734692528,-0.4546856453142395,1.1509999999999843
0.44886733451545496,0.43330817475284794,-0.12608908757014275,-1.5331405967848375,0.06910651085333296,1.9589006918878589,0.17917482567768814,-0.10468589487378792,-0.6255882107404249,-0.01689205998091846,-0.9113832110115901,-0.06812704844581499,0.3353296449970159,0.32628002645924475,0.6104729388930954,0.7920191764222213,0.003026872957596561,0.0,0.7919929285723581,-0.6104094214647713,-0.011326348909987837,0.0,-0.007123190908163823,0.009311870766480018,-0.9999312722453049,0.0,0.6395033534031229,0.23234064907580118,0.30409418107880143,1.0,-0.13029542857141704,-0.17124542040814814,-0.5050844851165197,1.1679999999999824
0.447044495020295,0.4230296646546951,-0.12629857993020355,-1.5486883758827525,0.06810412386562369,1.9644584422821851,0.1850260251345664,-0.11400704909390283,-0.6476996527796621,-0.015706193696325622,-0.9859442828574358,-0.061770620844495465,0.3511786107523806,0.36688013590518476,0.6170665264724454,0.7868923918453058,0.0031642478431833767,0.0,0.7868685938955157,-0.6170026812514607,-0.011236288115315927,0.0,-0.006889532871992621,0.009423565961710664,-0.9999318630493637,0.0,0.6373835811935495,0.229578326470939,0.3041759984153347,1.0,-0.14086457142855874,-0.18513629387753439,-0.5525186872833716,1.1839999999999806
0.4449073106569375,0.4113206288132164,-0.12650850761600535,-1.5662945171143436,0.06687693740535101,1.9707449961503245,0.1917173332777552,-0.12894385555366877,-0.7037148493747922,-0.01095701846847829,-1.0559700020547442,-0.06951842208898391,0.3705366814673669,0.40854892707302604,0.6245213963967187,0.7809882266613682,0.0033409819263560737,0.0,0.7809678749112485,-0.6244577965616808,-0.011062801234194612,0.0,-0.006553741485548437,0.009518338887500657,-0.9999332226190725,0.0,0.6349468144600531,0.2264170659231291,0.30428272768591463,1.0,-0.1520942857142718,-0.19989534693875724,-0.6029175270856518,1.2009999999999788
0.44243793055613373,0.3989711513479391,-0.12675022848955567,-1.5850078103139074,0.0656226184364136,1.977201151219287,0.19910902055658034,-0.14862079329554767,-0.7510415966574276,-0.021786133688667685,-1.1108374476083236,-0.06813659735284396,0.3914583206489355,0.43848482636617087,0.6327567254677912,0.7743312580772279,0.0032826880790309144,0.0,0.7743108113748366,-0.6326929794283171,-0.011095407670280845,0.0,-0.006514712707359649,0.009562698806726874,-0.9999330544140804,0.0,0.6322940052187244,0.22292707047571966,0.3042760910006671,1.0,-0.16332399999998484,-0.21465439999998012,-0.653316366887932,1.2179999999999769
0.43972497735649424,0.38586679584725087,-0.12700095311516454,-1.6047975621771382,0.06425683247868588,1.9840019926099344,0.2070905190853851,-0.1630316833813202,-0.7729266603213404,-0.015390847520753646,-1.1931553213175756,-0.08786093810200897,0.39206223771469084,0.4834864838502581,0.6415506780063613,0.7670613209180931,0.003225585555641834,0.0,0.7670409314745639,-0.6414868874578169,-0.011114385431681863,0.0,-0.0064563686372043905,0.009604782580297802,-0.9999330294852781,0.0,0.6294385801929221,0.21918577799461783,0.3042549889294664,1.0,-0.1745537142856979,-0.22941345306120298,-0.7037152066902121,1.234999999999975
0.4369305100290301,0.37283297835428564,-0.12724655821292358,-1.6241450732120066,0.062760331309926,1.9906284900903353,0.21508825247676192,-0.1762891484844794,-0.8013028653128604,-0.021193931587020823,-1.2302866843901816,-0.10019890303356756,0.4088984821262779,0.5117208057762977,0.6508056451848693,0.7592246296404239,0.0032742700065300566,0.0,0.7592065103606963,-0.6507428871303387,-0.010950633607870002,0.0,-0.006183401877616623,0.009612766351529564,-0.9999346779986633,0.0,0.6264316986313618,0.21519354591638237,0.30433584721871876,1.0,-0.18578342857141095,-0.24417250612242586,-0.7541140464924924,1.2519999999999731
0.43366407829442816,0.358392502580436,-0.12749609095218556,-1.6455917401684355,0.06118847582460974,1.9978842344242218,0.224285643977961,-0.19337660324582212,-0.8722818395215121,-0.015006559487901399,-1.2794739515487816,-0.09970721181883106,0.42497769795183904,0.548238989141739,0.6601418624077795,0.7511208342307448,0.0033107072517327752,0.0,0.7511040985235149,-0.6600790717709494,-0.010908670514242881,0.0,-0.00600851680994513,0.009688142382215492,-0.9999350167000486,0.0,0.6234195347240054,0.21121712970388865,0.30436501761076556,1.0,-0.19635257142855264,-0.2580633795918121,-0.8015482486593443,1.2679999999999714
0.429991481745459,0.34329944993797545,-0.12780213975140894,-1.6679080234293409,0.05946330769970409,2.0052862540311462,0.2340502416273864,-0.22051735432342442,-0.9277606097879473,-0.018341801122194957,-1.3109541976718981,-0.10846872616596297,0.4494737092991211,0.5725478928732777,0.6706345080880969,0.7417678981593842,0.00323862978032493,0.0,0.7417516245021818,-0.6705723739783281,-0.010861201897205233,0.0,-0.00588486854450071,0.0096863421843979,-0.9999357694858709,0.0,0.6200436295665159,0.20663964709876922,0.3043691719559491,1.0,-0.2075822857142657,-0.27282243265303496,-0.8519470884616245,1.2849999999999695
0.4260648869031441,0.3276368313975208,-0.12806218002989744,-1.6909270576107924,0.05769382744318624,2.01287087037761,0.2444180612287564,-0.23560929123413513,-0.9509071780563113,-0.012104482994257653,-1.3579649837298189,-0.1049836829887231,0.4692326574741791,0.6210082155056451,0.6815634915165606,0.731738704116351,0.003228440968452126,0.0,0.7317233063308056,-0.6815012697014089,-0.010852155034358,0.0,-0.0057408657720105505,0.009758946065378388,-0.9999359006615779,0.0,0.616472569369785,0.20190094834463068,0.30436717192445617,1.0,-0.21881199999997875,-0.28758148571425785,-0.9023459282639046,1.3019999999999676
0.42188954972761,0.31135623298402243,-0.12825417255372462,-1.7146794616507341,0.05570443134144349,2.0205417490320743,0.25530317337201225,-0.24676770529072098,-0.9538064970467006,-0.014902146571701327,-1.3883037147381627,-0.11501587211340455,0.44550019928071255,0.6500678311845652,0.6927629301580909,0.7211452139499931,0.003138454556512076,0.0,0.721130197869998,-0.6927015107414939,-0.010798223818657597,0.0,-0.005613183284468692,0.009744031131253647,-0.9999367710164121,0.0,0.6126721450110936,0.19699016784563386,0.30435897281706126,1.0,-0.2300417142856918,-0.30234053877548067,-0.9527447680661848,1.3189999999999658
0.41761373524904644,0.29542708246092014,-0.1284355296567256,-1.737792615947657,0.05375436813517075,2.027864468786873,0.26618221093839894,-0.2757589691068628,-1.0039120312515513,-0.006430308081695225,-1.441116591797511,-0.11675629408736551,0.4458320573146207,0.6831060841196911,0.7045151037054281,0.7096688565280144,0.00305444370693976,0.0,0.7096540648637774,-0.7044539725673896,-0.010791462252611066,0.0,-0.0055067556958499075,0.009770534653627885,-0.9999371041692016,0.0,0.6086580476483184,0.19181984400945945,0.30435713012143545,1.0,-0.24127142857140485,-0.31709959183670355,-1.003143607868465,1.3359999999999639
0.4123212888055352,0.2768726159801712,-0.12867940052077498,-1.7642983229342486,0.05150969338246654,2.036167257224222,0.27896084759734996,-0.31024555877038223,-1.0213342944410528,-0.01613580131758333,-1.4892418707205337,-0.1249999690518683,0.4431267382305598,0.712148918579615,0.7160062269203901,0.6980732395104708,0.0030955115557560744,0.0,0.6980602344633057,-0.715945353921701,-0.010719429097354963,0.0,-0.005266830882154239,0.009836220882865121,-0.9999377526882371,0.0,0.604747730812871,0.18665205476463034,0.30439498586631597,1.0,-0.25184057142854654,-0.3309904653060898,-1.0505778100353167,1.3519999999999621
0.40723690659110384,0.2598166367235696,-0.12893269986588055,-1.7884179966328455,0.049354240624658166,2.043594508339854,0.29080014450814373,-0.32989433287505526,-1.0513671086365872,-0.019726484366953418,-1.5708859363761607,-0.14760052241216992,0.4542462017530015,0.7278156320308745,0.7285364192140968,0.6849859967965121,0.003101124408760962,0.0,0.6849744869425596,-0.728475946832296,-0.010653357488393994,0.0,-0.005038403163374283,0.009885740349173888,-0.9999384414209268,0.0,0.6004121090926549,0.18091916193540145,0.3044454974307566,1.0,-0.2630702857142596,-0.34574951836731266,-1.100976649837597,1.3689999999999602
0.4013417961560632,0.2412496175486519,-0.12922859961776695,-1.8145736846775262,0.04695806655116327,2.0514721910240157,0.30394491836369103,-0.3560099666884114,-1.0945287892765547,-0.019080154904132982,-1.5858627806972196,-0.15168183626275875,0.45883857379755333,0.771122301248958,0.7415136792385534,0.6709164648997805,0.003050824428514208,0.0,0.670905947148062,-0.7414539233427069,-0.010584731563797658,0.0,-0.004839518116465047,0.009895730021886526,-0.9999393249551365,0.0,0.5958997674547073,0.17486301889183728,0.3044553727720639,1.0,-0.2742999999999728,-0.3605085714285357,-1.1513754896398778,1.3859999999999586
0.39508942431917654,0.22215723470991774,-0.1294235260850382,-1.841107904435992,0.044515130735460304,2.0594003469804467,0.31764410485990924,-0.37865758967342716,-1.1137735182789497,-0.01534092117613291,-1.5648269623833542,-0.15164363147790103,0.45804457377984237,0.807339458160911,0.754696665967706,0.6560514005235142,0.0032014293014794573,0.0,0.6560439160769663,-0.754636764004612,-0.010511017660239277,0.0,-0.004479937861355532,0.010033101368388225,-0.9999396316946788,0.0,0.5912072188792864,0.16869669635518333,0.3045183166243093,1.0,-0.2855297142856858,-0.3752676244897586,-1.201774329442158,1.4029999999999567
0.38840385624221185,0.20254806127434197,-0.12961142124792263,-1.8681848016117695,0.041843292731084315,2.0670828705223516,0.33171322571077905,-0.4056052193907799,-1.143331333468602,-0.016588375942446495,-1.593321942363197,-0.165440033181452,0.45225710891050835,0.8317092069535367,0.7679800255143848,0.6404514722003731,0.0030559889574218705,0.0,0.6404439103007092,-0.7679209769651081,-0.010474626336971665,0.0,-0.0043618158109550165,0.010001685882694608,-0.9999404686491766,0.0,0.586250547231286,0.1622752727666689,0.3045186756562189,1.0,-0.29675942857139886,-0.39002667755098147,-1.2521731692444382,1.4199999999999549
0.3806836342961669,0.1811980854960533,-0.12984518804346895,-1.8972272225796134,0.03896141419977889,2.075136878553685,0.3472958512620368,-0.45589146624990545,-1.1659675111835819,-0.022494889758029032,-1.627710058671625,-0.15979835131026565,0.43821895214938644,0.8850815132052595,0.782473320567844,0.6226612358589841,0.0030388911305223917,0.0,0.6226550030546547,-0.7824145376982726,-0.010439601075449237,0.0,-0.0041227416840638464,0.010061083792108808,-0.9999408870497968,0.0,0.5808346337021844,0.155148673975102,0.3045731415872488,1.0,-0.30864971428568344,-0.4056539102040412,-1.3055366466821472,1.437999999999953
0.3736840714895698,0.16299457057539965,-0.13013376794774179,-1.9218684455856445,0.03646634570693742,2.0818157048818406,0.36060590762448663,-0.4762091026014177,-1.212121807300448,-0.014113497946375075,-1.6680544199860574,-0.17323866023552173,0.4149994430321763,0.8942349391906852,0.7947665298856132,0.6068922069455877,0.002959564748884747,0.0,0.6068864007335786,-0.794708081077158,-0.01042637887820802,0.0,-0.00397577461141807,0.010082850684614994,-0.9999412629441345,0.0,0.5761586114597439,0.14887289227668804,0.3045581103498335,1.0,-0.31855828571425376,-0.41867660408159074,-1.350006211213571,1.4529999999999514
0.3653909902426542,0.1419584009526855,-0.1303086795798423,-1.949870714647015,0.03343222905894298,2.089191715058132,0.37606766237582756,-0.510146536591212,-1.2370217466755797,-0.01880891534717207,-1.6135927372456953,-0.17736184417894024,0.420554967758651,0.9191503049802217,0.8093602600450601,0.587288553009935,0.0029785675244752923,0.0,0.5872848655332176,-0.8093029820857081,-0.010291588993890412,0.0,-0.0036336387872999976,0.010079064825695927,-0.9999426029134886,0.0,0.5703707399412412,0.14129249395408247,0.30461784991216606,1.0,-0.3304485714285382,-0.4343038367346503,-1.4033696886512794,1.4709999999999495
0.356447884633072,0.1204052504887015,-0.1305293510103573,-1.9781686994243586,0.030401443678728504,2.0964369574076085,0.39201506097260946,-0.5319617502950266,-1.2491000135599424,-0.011385568356503074,-1.678162417271135,-0.17719568143958436,0.40536863872295936,0.9483068188530638,0.8225226931896858,0.5687070280229859,0.0030793451344332434,0.0,0.5687058149379021,-0.8224654466811795,-0.010248510748048705,0.0,-0.003295808572235326,0.01018107016297104,-0.9999427400887471,0.0,0.5650441216104658,0.1342732337792719,0.3046833971694096,1.0,-0.34101771428567984,-0.4481947102040365,-1.4508038908181313,1.4869999999999477
0.3467400185096524,0.09837626185138107,-0.13084177571732475,-2.0067207864908303,0.02712902602400147,2.1034547614988237,0.40826550111301074,-0.5874536037415856,-1.2992733055121428,-0.0084197617518793,-1.6692427349613155,-0.19787221490357867,0.4183200314332417,0.9684921988231517,0.8365329198341662,0.5478900550155243,0.0031477849384004674,0.0,0.547891432960051,-0.8364770239056614,-0.010095200251502758,0.0,-0.0028980658407681825,0.010169807543559839,-0.9999440865512981,0.0,0.5592284339935069,0.1264372868004195,0.30475570366115085,1.0,-0.3522474285713929,-0.4629537632652594,-1.5012027306204114,1.5039999999999458
0.33658453974851277,0.07593304469275103,-0.13100304538259702,-2.0354420187043263,0.023918805681480502,2.110213822820335,0.42492068550616874,-0.603432676098243,-1.3203091308220745,-0.016216716825515124,-1.6934083645410452,-0.19638120709822837,0.4065843204306871,0.9849911939818359,0.8503497906317496,0.5261894829897023,0.003257063827632813,0.0,0.5261933899138085,-0.8502935414218242,-0.010107261179750558,0.0,-0.0025489232726516042,0.010308751360097415,-0.9999436147281234,0.0,0.5531701188955829,0.11858783745118517,0.3048157250316272,1.0,-0.35998,-0.47311657142857155,-1.5359064300000003,1.520999999999944
0.3263736729859211,0.05496640709157084,-0.13118334077691268,-2.062225835176014,0.02067206509114384,2.116255519903332,0.44057501052637527,-0.6514163974277329,-1.3200806704590229,-0.019049619787294268,-1.6375421558071896,-0.20133246153531667,0.37486271286532014,0.9831122304571003,0.863065865791018,0.5050628884843061,0.0030881844988096202,0.0,0.5050666315367118,-0.8630109524138133,-0.010026994722783768,0.0,-0.0023991720634555236,0.01021389247315986,-0.9999449586722045,0.0,0.5473994053543348,0.11095749372329354,0.30473401986018955,1.0,-0.35998,-0.47311657142857155,-1.5359064300000003,1.5369999999999422
0.3150090262732481,0.03274802116719316,-0.13132124472478118,-2.090067657562076,0.017331241691498394,2.122026361569539,0.45684722841162684,-0.6605222483260597,-1.3194610742247472,-0.0022209462815304215,-1.6190412079815308,-0.2072915611096837,0.3482173163776536,0.9671797948697637,0.8760260780464034,0.48223522173326333,0.0028720034323226236,0.0,0.48223806100371325,-0.875971176432119,-0.010084516880677711,0.0,-0.0023473622026940477,0.010219485895143668,-0.9999450244882107,0.0,0.5412076751360749,0.10280920909943783,0.3046960534311113,1.0,-0.35998,-0.47311657142857155,-1.5359064300000003,1.5539999999999405
0.30326687401005364,0.010769365181265825,-0.13138126678676382,-2.1170034290918,0.013866778356470096,2.1274819890753713,0.4729578677965794,-0.6941134350778756,-1.2946192402010384,-0.0030411109036347812,-1.5762122855143843,-0.2166972346093229,0.32295573501620456,0.9496164032902343,0.8883681751924022,0.45910123174468714,0.002964998657819933,0.0,0.45910677056771054,-0.8883147636201938,-0.009929796296745876,0.0,-0.0019249666905283846,0.010182762024424905,-0.9999463014886321,0.0,0.5351038349504896,0.09471664589571455,0.3047661488179181,1.0,-0.35998,-0.47311657142857155,-1.5359064300000003,1.5709999999999387
0.2910630557839789,-0.010998462421309287,-0.13150459629571512,-2.143199706102571,0.010576974678476545,2.132511263528002,0.488603457238157,-0.7141383223429904,-1.2752791994482082,0.0029942994156007237,-1.5311115572155554,-0.20223178786141555,0.3025740176728513,0.9151219057540972,0.9001237828000246,0.43560026871661384,0.0032137879513360534,0.0,0.43560982831517675,-0.9000705910272984,-0.009887140344945328,0.0,-0.0014142321986537754,0.010299806089273972,-0.9999459555105024,0.0,0.529029160345048,0.0865856452477562,0.30487740221972964,1.0,-0.35998,-0.47311657142857155,-1.5359064300000003,1.5879999999999368
0.2785970899633102,-0.03245371088875601,-0.13149044136188498,-2.1687921010840125,0.0071562214303489404,2.137015922455643,0.5040595091274722,-0.7362850434111804,-1.2675705893622287,-0.003514437202900062,-1.5142809504026649,-0.21431715236674173,0.27304476888672,0.9136408797159707,0.9111656334435694,0.41200438025996333,0.0032134061665099363,0.0,0.4120154303878754,-0.9111137338776225,-0.009787541217226291,0.0,-0.0011047526325493884,0.010242241312638525,-0.9999469365993952,0.0,0.5228889609672911,0.07858060048184984,0.3049084026568772,1.0,-0.35998,-0.47311657142857155,-1.5359064300000003,1.604999999999935
0.2663398618888152,-0.05246617270555442,-0.13162311796089068,-2.1922207850472826,0.004110004814905603,2.140792332438409,0.5182551013979917,-0.7589620891456407,-1.2520832356694314,-0.0017373520196193124,-1.440617405837859,-0.2044534050587185,0.24103091938582322,0.8922935773982077,0.9211235493365003,0.3892318344365643,0.0032760983018543417,0.0,0.38924478325328515,-0.9210714745218788,-0.009827737959636543,0.0,-0.0008077633327707168,0.010327963890060306,-0.9999463389003853,0.0,0.5171343773385073,0.0709179092526772,0.3049732272640022,1.0,-0.35998,-0.47311657142857155,-1.5359064300000003,1.6209999999999332
0.2531370781813462,-0.07339462734494737,-0.13159496850344013,-2.216512609922051,0.0007946787845946904,2.144431975137764,0.5329025035095287,-0.7942395932719927,-1.2370700296203836,-0.0009741678790227216,-1.408545799990639,-0.19161839892101154,0.21992953994953862,0.8713903997960507,0.9308823195190801,0.3652785848103956,0.003226389142790001,0.0,0.36529238186509616,-0.9308309725899071,-0.009794034912175072,0.0,-0.0005743393263779595,0.010295867538644692,-0.9999468312095223,0.0,0.5109882963010266,0.06297079903230278,0.3049760296459283,1.0,-0.35998,-0.47311657142857155,-1.5359064300000003,1.6379999999999313
0.23935358188125702,-0.09402485079711953,-0.13169073321408517,-2.240151432502268,-0.0024530754117948967,2.147668006153388,0.5473177107141591,-0.8172675466873185,-1.2035042666620932,0.000411788845380753,-1.334525797694408,-0.18719335597742245,0.18261529805723437,0.8393287184463386,0.9401671436151038,0.3406707749954043,0.0031483379513465243,0.0,0.3406851099331423,-0.9401160881005051,-0.009805287637512681,0.0,-0.00038057910701327913,0.010291399272872849,-0.9999469697241697,0.0,0.5048642589428417,0.05489093047289991,0.3049528117588082,1.0,-0.35998,-0.47311657142857155,-1.5359064300000003,1.6549999999999294
0.22534758429010932,-0.11439176259059239,-0.1316491703957669,-2.2632392433768036,-0.005824461551227269,2.1505015550776054,0.5612239719027975,-0.8260741042403138,-1.1714286415008188,0.00783705905873551,-1.3073275253891543,-0.199664715031349,0.15027148885816313,0.8030972869326839,0.9486250963930305,0.3163582117457839,0.0029419815655199106,0.0,0.3163717696108914,-0.9485755711656494,-0.009697220335919675,0.0,-0.00027710877570719106,0.01012998152348743,-0.9999486520242229,0.0,0.4986953716381459,0.046967507295635605,0.30488091509776843,1.0,-0.35998,-0.47311657142857155,-1.5359064300000003,1.6719999999999275
0.21072095952909162,-0.13462428335192178,-0.1317509483180588,-2.285776390710172,-0.0090248591562239,2.1529424254772342,0.5747831834521046,-0.8637154921297401,-1.1625145539250468,0.0027979653141376524,-1.308568802458808,-0.19694655867955801,0.13077934667618069,0.8043709147312254,0.9565843275185296,0.2914092141800499,0.00280020322415503,0.0,0.2914226269111039,-0.9565349494370128,-0.009720593138866356,0.0,-0.00015418112699489006,0.010114804371619747,-0.9999488321712786,0.0,0.49251744834763017,0.0389044610860217,0.30482712517150823,1.0,-0.35998,-0.47311657142857155,-1.5359064300000003,1.6889999999999257
0.19661803347558562,-0.15350237584252724,-0.131781670557897,-2.3063156037617687,-0.012028671392912992,2.154859770919805,0.587214547321353,-0.8975364369161174,-1.1776467590316404,-0.0073324909587838055,-1.2835439633121206,-0.19661742717336472,0.11920845636755995,0.7742009570401089,0.9634478314024078,0.26784545909090235,0.002798769656437895,0.0,0.2678600622308543,-0.9633990961449299,-0.009691001497445314,0.0,0.00010064334989262624,0.010086647190389292,-0.9999491234154732,0.0,0.486730126608466,0.0313866442803054,0.30485089931482506,1.0,-0.35998,-0.47311657142857155,-1.5359064300000003,1.704999999999924
0.18119310522886278,-0.1732058179491999,-0.13190196653003317,-2.3275081716009773,-0.0151237012212504,2.1565206385444458,0.5999585253439793,-0.9073380934251685,-1.1390994530592258,0.0007740652069231106,-1.2328036915108085,-0.17669107732821362,0.07414072362775766,0.7306099796829046,0.9701205940539894,0.2425683102895103,0.0027193265406642553,0.0,0.24258339161575332,-0.9700719022843597,-0.009723652184763289,0.0,0.0002792977672811392,0.010092973010008461,-0.9999490256450958,0.0,0.4805887178151598,0.023368670750003782,0.3048350089334828,1.0,-0.35998,-0.47311657142857155,-1.5359064300000003,1.721999999999922
0.16522749714280732,-0.19271164295865348,-0.13214275916605328,-2.3479941414749588,-0.01829218964167418,2.1579002863772323,0.6121740278155758,-0.9444828718992879,-1.1372414679782687,-0.02675553600831406,-1.1879708312436317,-0.1903261085352704,0.09296731227099339,0.7104393343615241,0.9761395723126416,0.21708083517923477,0.0028623878820434657,0.0,0.21709857863535958,-0.9760921432077709,-0.009647902558333346,0.0,0.0006995930467188494,0.01003931310558729,-0.9999493600987688,0.0,0.4745021579819445,0.015248751554339602,0.30489647527847724,1.0,-0.35998,-0.47311657142857155,-1.5359064300000003,1.7389999999999202
0.15085998669530593,-0.20964004553993693,-0.1321985659873803,-2.365707377015335,-0.020923667710573454,2.1586734137802077,0.6227079985573718,-0.9748103063738452,-1.1020717328609368,-0.0047557251661633215,-1.1577799138620228,-0.1706310460011476,0.03889453589742007,0.6949893330996151,0.980882355994694,0.1945340733849923,0.002654221495884024,0.0,0.1945508685157935,-0.9808345449202145,-0.009710919220886776,0.0,0.0007142612124227954,0.010041843758125025,-0.9999493243184165,0.0,0.46904042467650464,0.008226107850291021,0.3048455917228555,1.0,-0.35998,-0.47311657142857155,-1.5359064300000003,1.7539999999999185
0.13207876245784228,-0.2308175869560788,-0.1324205881633543,-2.3872966432118328,-0.024372806843571158,2.15942766685682,0.6354098658558162,-0.9875500834370383,-1.098137109439982,-0.004629773236941811,-1.1265201822565687,-0.18731290185301824,0.03294749474472287,0.6590451292235251,0.9861392146075372,0.1658393848940743,0.002737650889469089,0.0,0.16585830695987863,-0.9860928830478712,-0.009622625210844237,0.0,0.001103789063702676,0.00994350165267883,-0.9999499529599398,0.0,0.46221525908766004,-0.0007787367875094538,0.30489032673452365,1.0,-0.35998,-0.47311657142857155,-1.5359064300000003,1.7729999999999164
0.11586427427707684,-0.24841501085230366,-0.13259778055292368,-2.404781499550276,-0.027126709222677337,2.15978602243051,0.6455749010967138,-1.015754634772352,-1.084798662796605,-0.01934004370374484,-1.098106945157931,-0.16915197046245362,0.019281292477059737,0.6313252945439664,0.9899023555658248,0.14165094698924346,0.0030137291666860163,0.0,0.14167371379056815,-0.9898570701539688,-0.009606580463257252,0.0,0.0016224111396663798,0.009936734145838528,-0.9999493132637318,0.0,0.4565118147200999,-0.008312558243647506,0.30500081226194903,1.0,-0.35998,-0.47311657142857155,-1.5359064300000003,1.7889999999999147
0.09815832722369217,-0.2666344896587263,-0.13276270400580603,-2.4228723205032896,-0.030017994111038795,2.1598225624082934,0.6560816174755039,-1.0458673977372253,-1.0692957046335423,-0.014896818977089936,-1.0342374022209238,-0.17535992065418657,0.007855776850534351,0.6096757481578895,0.9932689569793915,0.11570927735333669,0.0029814655202871935,0.0,0.11573288118517983,-0.9932243327587708,-0.009595411907782958,0.0,0.0018510215621743153,0.009876068517171143,-0.9999495172206548,0.0,0.45039890265644955,-0.016309537487583133,0.30498681142578843,1.0,-0.35998,-0.47311657142857155,-1.5359064300000003,1.8059999999999128
0.07994449350889252,-0.2845446743945652,-0.13298286588570776,-2.4404602034612144,-0.0329242802985327,2.1596848042532057,0.6659829555525164,-1.0647785316000928,-1.071080954809448,0.0005505392162123528,-1.022630404478289,-0.1565366636597078,-0.01805881702795574,0.5721932884781985,0.9960816647267452,0.0882799515296181,0.0029519915874832436,0.0,0.08830436821219473,-0.9960382023705786,-0.00953859917596955,0.0,0.002098269719489121,0.00976208544885689,-0.9999501482333373,0.0,0.4439001045501932,-0.024796715343819754,0.3049323561953578,1.0,-0.35998,-0.47311657142857155,-1.5359064300000003,1.8239999999999108
0.06124835955154646,-0.3022090387529844,-0.13323409963997265,-2.4572545414409843,-0.035685916290912306,2.1593161064394093,0.6753453785571818,-1.1113893432852986,-1.0281309187072976,-0.024519393634792573,-0.9809317638777917,-0.16968252588540475,-0.0334962475603634,0.5399411265781411,0.9979524435785065,0.06372404576436558,0.003303520594337364,0.0,0.06375289009951213,-0.9979106658428649,-0.009519396105730375,0.0,0.002690055794740076,0.009710700551574681,-0.9999492316585972,0.0,0.4382116628721057,-0.032375249855625475,0.3050261540096916,1.0,-0.35998,-0.47311657142857155,-1.5359064300000003,1.839999999999909
0.04327803226013495,-0.3183643432430881,-0.1333816413267726,-2.4726165504628077,-0.03824391436814743,2.1585417482080342,0.6836585750249967,-1.1249181704947977,-0.9975622714782695,-0.0131483644379095,-0.9329139763683031,-0.14824777580636156,-0.047790866287848274,0.5108360678241741,0.9992096657856359,0.039379356535125976,0.0031712742936583884,0.0,0.039407873948202776,-0.9991684385885304,-0.009497247003682947,0.0,0.0027946955150192077,0.009614899298659402,-0.999949870437741,0.0,0.4324275112160378,-0.039859197444624135,0.3049776201477141,1.0,-0.35998,-0.47311657142857155,-1.5359064300000003,1.8559999999999073
0.024818282994026688,-0.334195450649857,-0.13363507745204348,-2.487286324056831,-0.04071982024010133,2.157696404686777,0.6915928882351761,-1.1432172445378048,-0.9844858587612489,-0.005171580611170366,-0.9104828308694546,-0.14341904621039045,-0.06414404468023989,0.49364131085385454,0.9998758878571277,0.014756944732466915,0.0033449013875149875,0.0,0.014788102334705844,-0.9998359875907412,-0.00948982871255905,0.0,0.0032043735984694233,0.009538299295418752,-0.9999493751367579,0.0,0.42671552250500905,-0.04741167457690222,0.3050138116568015,1.0,-0.35998,-0.47311657142857155,-1.5359064300000003,1.8719999999999055
0.0035105115797874273,-0.35164923628040295,-0.13397187120166967,-2.50311204096124,-0.04346564483547986,2.1563983603709884,0.6999266210858193,-1.1898279260675115,-0.9899401202729549,-0.015090279275543806,-0.856317630249192,-0.14800150511375218,-0.07153113644891036,0.45278878335320205,0.9999001223741031,-0.01296425690089864,0.0035242333165062807,0.0,-0.012930361751782415,-0.9998618689527664,-0.009476057221063441,0.0,0.0036466667603243796,0.009429722714668236,-0.9999488897694039,0.0,0.42026506748647136,-0.05593606347814961,0.30508540556878605,1.0,-0.35998,-0.47311657142857155,-1.5359064300000003,1.8899999999999038
-0.017066190950681896,-0.36759327554028803,-0.13429419149511637,-2.517500782903502,-0.04598690997238466,2.155015224988608,0.7071986183974525,-1.2200890208940127,-0.9284140511344191,-0.0356362217522469,-0.8285543374391087,-0.1397040337034188,-0.08682647213266625,0.4260132999468773,0.9992221427012674,-0.039027454090121094,0.0035657066536079443,0.0,-0.038992243865116794,-0.9991850848579164,-0.009461396146981684,0.0,0.003932130814721546,0.009315180973643158,-0.9999488815687951,0.0,0.4141466599356389,-0.06395729391672121,0.3050792618221222,1.0,-0.35998,-0.47311657142857155,-1.5359064300000003,1.9069999999999019
-0.038096276891108435,-0.3830274334090005,-0.13455226860680927,-2.5310707298285946,-0.04841074958323821,2.1533925264545033,0.7139117170094955,-1.235262581892274,-0.8851923008907429,-0.011560034931047562,-0.7638759089726942,-0.13980641329269458,-0.09053928384440148,0.3821068532126062,0.997871255293286,-0.06496232507710109,0.0036879643689722258,0.0,-0.06492521842499,-0.9978360258261137,-0.009419579461036746,0.0,0.004291984126355564,0.00916026205235071,-0.9999488329266608,0.0,0.40807955542321633,-0.07194599652568917,0.30513544789599006,1.0,-0.35998,-0.47311657142857155,-1.5359064300000003,1.9239999999999
-0.05842203652586881,-0.39711758448541895,-0.1349192959394675,-2.543375684791491,-0.05066500974660085,2.151785342848006,0.7197135059474875,-1.2749991986136946,-0.8750265938154723,-0.025660450942542944,-0.7425142598971667,-0.130191920635471,-0.09207187979266274,0.36399853618313155,0.9959720802803275,-0.08947750414111871,0.0037601138229797276,0.0,-0.08943902357381772,-0.9959383659340908,-0.009390379326905427,0.0,0.004585157600186851,0.00901642831817083,-0.9999488388663517,0.0,0.4023210831301376,-0.07954275900572048,0.3051449223115561,1.0,-0.35998,-0.47311657142857155,-1.5359064300000003,1.9399999999998983
-0.08040410012183974,-0.4115307288709468,-0.13525689672784436,-2.5556846919850593,-0.052916231471130816,2.1498813713808698,0.7254180822371966,-1.2850419840831828,-0.8360173729823681,-0.011194055222358579,-0.6948803788820619,-0.12273713809296062,-0.1046888031681424,0.32488178477185137,0.9932975584294352,-0.11543746930579168,0.0038597926893929675,0.0,-0.11539730084662286,-0.9932654618881561,-0.00937721059966207,0.0,0.004916374884646302,0.008869121493411763,-0.9999485826490926,0.0,0.3962386196745416,-0.08756201565299727,0.30519412262810974,1.0,-0.35998,-0.47311657142857155,-1.5359064300000003,1.9569999999998964
-0.10287075963367036,-0.42533139343872034,-0.13563025000259485,-2.567409026345208,-0.05508070952256353,2.1479165573033927,0.7305562134265724,-1.314437041766323,-0.7741476603143402,-0.010546256126447766,-0.6822007749036909,-0.13583782858653795,-0.12847645405379304,0.29387016033562374,0.9899456273581642,-0.14132709065809745,0.0038801058976738988,0.0,-0.14128593922269994,-0.9899147265702997,-0.009373601144514057,0.0,0.005165817205492196,0.008731319164525256,-0.9999485378749482,0.0,0.39013060008454603,-0.09559180310765425,0.30519445812712864,1.0,-0.35998,-0.47311657142857155,-1.5359064300000003,1.9739999999998945
-0.12444937888947341,-0.43770818334970524,-0.13601146796655744,-2.5778290954742897,-0.05702609198995631,2.1459137844395015,0.7349287126198352,-1.3476402861317096,-0.7445670022142816,-0.02338741924312488,-0.617192642023178,-0.12611703874482438,-0.11780811874179384,0.26250275167575243,0.9861647095649192,-0.16566775516155807,0.003755983183764498,0.0,-0.165626862184859,-0.9861340702091811,-0.009385360764497355,0.0,0.005258855883150448,0.00863358608662236,-0.9999489015075146,0.0,0.3843577761250405,-0.10315726103485125,0.30516469311777117,1.0,-0.35998,-0.47311657142857155,-1.5359064300000003,1.9899999999998927
-0.14359961563684753,-0.4481985941665707,-0.13628144509592036,-2.5863188332121347,-0.05864502328563304,2.1443409215279776,0.7383061137719925,-1.3678919998727377,-0.7195612783387171,-0.019354887164178308,-0.6054494289450993,-0.11607607859248445,-0.11797582757449811,0.23436042550301328,0.9823947772824881,-0.18671971191262288,0.004122820947557542,0.0,-0.1866752099441415,-0.9823672995339772,-0.00935957797338009,0.0,0.005797853810179721,0.008425334266462359,-0.9999476979490949,0.0,0.37940986637158436,-0.10975714033863612,0.30527022080746213,1.0,-0.35998,-0.47311657142857155,-1.5359064300000003,2.003999999999891
-0.17153249705740864,-0.4621938727042243,-0.1367469710122256,-2.5979430046445224,-0.060782090440073544,2.141667404033602,0.7425765166445406,-1.3901387052087397,-0.6835511557470635,-0.02250636435783876,-0.5656153351448796,-0.10725847720740826,-0.12394775024141658,0.20210947054503745,0.9761911721833446,-0.21683523663064047,0.003744650564440882,0.0,-0.21679262015421152,-0.9761622338097784,-0.009433982795378708,0.0,0.0057011161157786705,0.008397719798080058,-0.9999484864617914,0.0,0.37214111400523103,-0.11917103938174078,0.30516857569663514,1.0,-0.35998,-0.47311657142857155,-1.5359064300000003,2.0239999999998894
-0.19567435731456911,-0.4733937589580593,-0.1371168327819887,-2.606827364863016,-0.06258484382402803,2.139645252053617,0.7456636058088106,-1.4168502637770792,-0.6367673616194591,-0.01457913857161958,-0.49529493072938935,-0.09973715238655524,-0.10220266115480191,0.1632852716366272,0.9702171799152652,-0.2421642992713351,0.003977795482596707,0.0,-0.24211940973482915,-0.9701912738417018,-0.009371792372994897,0.0,0.006128853998696615,0.0081297289950618,-0.9999481709844412,0.0,0.36609812607728354,-0.127199320446094,0.30524444709848514,1.0,-0.35298571428578845,-0.4639240816327506,-1.5045161491546186,2.0409999999998876
-0.21979311918171512,-0.48346658878316273,-0.13741040891674244,-2.614956030598328,-0.06409722712014033,2.137646883139185,0.7479851009766245,-1.3991024357976827,-0.5848912786105751,-0.006485272031054608,-0.46041506652094516,-0.08477354334108463,-0.13077864307077272,0.12144292551770361,0.9637646989981332,-0.2666895118593865,0.0038802229894732572,0.0,-0.2666445711285306,-0.9637390852173068,-0.009401872866528172,0.0,0.00624702371421737,0.008026707317305981,-0.9999482719942847,0.0,0.3601313959360358,-0.1350379856910125,0.30520175205713385,1.0,-0.3417560000000754,-0.44916502857152774,-1.4541173093523385,2.0579999999998857
-0.24354021359678807,-0.49261481032187665,-0.1376270126814805,-2.6222755138574816,-0.06532797084227475,2.1356425658521236,0.7498070405210595,-1.3670517974206084,-0.5196842269989876,-0.016043090954818675,-0.41183065877999825,-0.052085691807437766,-0.0999736042756887,0.08739276706290584,0.9569096607147483,-0.2903293832947358,0.00367387094114026,0.0,-0.2902846932612229,-0.9568828787000765,-0.009523665791105553,0.0,0.006280585138693895,0.008046974230887155,-0.9999478988707577,0.0,0.3543091154780624,-0.14258751708977482,0.3051493674516734,1.0,-0.3305262857143623,-0.43440597551030485,-1.4037184695500584,2.074999999999884
-0.26570802158554335,-0.500371171679799,-0.1376841190740834,-2.628224315875034,-0.06640873973277811,2.134053326847719,0.7510219521952007,-1.366921814404174,-0.468722136274901,-0.0070756738114377115,-0.3519100446382087,-0.059404603115335367,-0.09945900816031841,0.06618395377329134,0.9501492220454678,-0.31174062696890475,0.0038709488028234804,0.0,-0.31169389854372775,-0.9501248635026762,-0.009508115788184588,0.0,0.0066420785606048915,0.007827728403874884,-0.9999473033417459,0.0,0.3490684592509197,-0.1495572860701217,0.30521519886921233,1.0,-0.31995714285722066,-0.42051510204091863,-1.3562842673832063,2.090999999999882
-0.288648503394257,-0.5076197482229444,-0.137616287832763,-2.633641575742562,-0.06738208490796958,2.132536402013698,0.7518391135107464,-1.320712631808928,-0.4070428016312142,0.011875238260063103,-0.30158862734183717,-0.05765481963380603,-0.08493413699186737,0.043060078541430305,0.9427912540034008,-0.3333286482917544,0.004172589591029665,0.0,-0.333279477279102,-0.9427704933497414,-0.00945165566776482,0.0,0.007084438352527589,0.007520444613484889,-0.9999466253985984,0.0,0.3437604464552834,-0.15667115304825224,0.3053255076255822,1.0,-0.3087274285715076,-0.40575604897969575,-1.3058854275809262,2.10799999999988
-0.31105466066773674,-0.5139454308570072,-0.13753074709536386,-2.638545366840074,-0.06808286434199702,2.1310247248041834,0.7522210954411628,-1.2871699872684972,-0.35620868366597,0.014437632074014677,-0.27445352864796485,-0.04105981393018153,-0.09710676019306405,0.02093619565274843,0.9352308402597282,-0.3539878132578237,0.004080489337676668,0.0,-0.3539383292533423,-0.9352099353818061,-0.009527998201021261,0.0,0.00718904782916685,0.007466779943472807,-0.9999462809514248,0.0,0.33854746085116183,-0.1634834866364339,0.3053125026433351,1.0,-0.2974977142857945,-0.3909969959184729,-1.255486587778646,2.1249999999998783
-0.33287588977340465,-0.5193672409656351,-0.1374105663481327,-2.6428568930734113,-0.0687133942931234,2.129685529096783,0.7523049135514447,-1.2789324171050402,-0.2985892587728177,-0.00469002649336224,-0.24255169180873914,-0.03900187218009543,-0.07467679347006603,0.005561667957918925,0.9275313287611051,-0.3736997894692825,0.0038533645663446072,0.0,-0.37365139429528377,-0.9275096751496629,-0.009549080906838491,0.0,0.00714265996001201,0.007417399466949193,-0.9999469808914088,0.0,0.33349709751421325,-0.17004128857654555,0.30523950213031115,1.0,-0.28626800000008146,-0.37623794285725004,-1.205087747976366,2.1419999999998764
-0.3540223730808012,-0.524050927914149,-0.1371263308289843,-2.646431437613709,-0.06917883128462128,2.1285794289842457,0.7522512847983217,-1.2461315996692108,-0.26400755068276494,0.012672109741658923,-0.206309705438242,-0.021875487826119432,-0.05905475928218591,0.0007216217433681895,0.9197362526853728,-0.39249335528133006,0.0038650300749118746,0.0,-0.39244459255270503,-0.9197158202135833,-0.009528836560951652,0.0,0.007294874788177919,0.0072473458119332035,-0.9999471289925818,0.0,0.3287158069472291,-0.17632146636553328,0.3052471658863281,1.0,-0.27503828571436845,-0.36147888979602716,-1.1546889081740856,2.1589999999998746
-0.37335431920494133,-0.5277330250301377,-0.13689668464878718,-2.6492810831502926,-0.06953977960004941,2.1276802404269812,0.7518806521509128,-1.1775671666700127,-0.21304319232811342,0.004881435912280735,-0.17262426845200926,-0.015051133531146413,-0.062124833843053825,-0.030937573515569663,0.9123720697325595,-0.40932071284489663,0.003808846187432172,0.0,-0.4092720964190688,-0.912352229932504,-0.00951349205791054,0.0,0.007369220543692934,0.007121127078955153,-0.9999474906902381,0.0,0.3243685932834839,-0.18203787718351955,0.30522806912287803,1.0,-0.2644691428572267,-0.34758801632664094,-1.1072547060072337,2.174999999999873
-0.39324907926920594,-0.5309257846104064,-0.13660451588337838,-2.6518401132708505,-0.06980724945378623,2.126832427469427,0.7511589836162914,-1.1356068352832884,-0.17589077916469012,0.022254094992338262,-0.1376814653251081,-0.014232726566591856,-0.045670158251961926,-0.0432569887904195,0.9046036639178516,-0.4262158072458339,0.003611617558488037,0.0,-0.4261683381972737,-0.9045833879091953,-0.009496775142353038,0.0,0.007314825763482746,0.007051796305002439,-0.999948381414222,0.0,0.3199129953117564,-0.18786225100409765,0.3051643565135982,1.0,-0.2532394285715137,-0.33282896326541805,-1.0568558662049536,2.191999999999871
-0.412441761380296,-0.5335761781874503,-0.13637403427361788,-2.6539400615500974,-0.06997459435923058,2.126195990567932,0.7502271845143298,-1.1076581640622059,-0.15093992502615988,0.011734222866903914,-0.11195536109460094,-0.008573593480717826,-0.031514459233397726,-0.05499829866694174,0.8968639450010524,-0.4422705653758457,0.003543735386195687,0.0,-0.4422229779475434,-0.8968437933718645,-0.009528639293166948,0.0,0.007392556103526349,0.0069789061769902905,-0.9999483211560629,0.0,0.31563994643323545,-0.1934724162094435,0.305126035716068,1.0,-0.24200971428580065,-0.31806991020419517,-1.0064570264026735,2.208999999999869
-0.43085689311873315,-0.5357215384207857,-0.13598079521217052,-2.655580449061516,-0.07007524094589125,2.125678597230834,0.7491595820090015,-1.0608504427048617,-0.12059146430929181,0.02752932449804738,-0.09349038095900429,-0.01202675487906527,-0.02840619814722009,-0.0731135173836085,0.8892902660245441,-0.457308360398344,0.0035543163874051454,0.0,-0.45726079122101604,-0.8892713828121638,-0.009472244954637336,0.0,0.007492632914677999,0.006798456603361008,-0.9999488194101827,0.0,0.3115909254776474,-0.19879796017478962,0.3051258421880947,1.0,-0.23078000000008758,-0.30331085714297235,-0.9560581866003932,2.225999999999867
-0.44745228760737554,-0.5372907946526163,-0.1356715495198778,-2.656751928998166,-0.07006713555600338,2.125270119405773,0.7480455724155692,-1.0052666668639898,-0.08196254305355788,0.022517004368056596,-0.06801765511639635,0.001132174037488188,-0.022839239326827722,-0.06818350198891754,0.8822673085886841,-0.4707148038113667,0.00356602996546299,0.0,-0.47066676979248606,-0.8822491431439854,-0.009486207673187901,0.0,0.00761157181159805,0.0066910879318860805,-0.9999486453397718,0.0,0.30794922613372877,-0.20359251954879506,0.3051358290967108,1.0,-0.2202108571429459,-0.2894199836735861,-0.9086239844335413,2.2419999999998654
-0.4644268453345485,-0.5385048980159772,-0.13531972675178244,-2.657731152785758,-0.07006190302335533,2.124928555990167,0.7466886027119424,-0.9704908134156008,-0.07028400484112234,0.016460469800754197,-0.05114253389099467,0.0016186933176249073,-0.017428391060403704,-0.08447562846582339,0.8749882741730541,-0.4841116892929479,0.003484142763539609,0.0,-0.4840642577663481,-0.8749705031202933,-0.009442453269320522,0.0,0.007619870856164113,0.006575613510234196,-0.9999493481547448,0.0,0.30421696642172497,-0.20847052342907782,0.3051103373285949,1.0,-0.20898114285723285,-0.2746609306123632,-0.8582251446312611,2.2589999999998636
-0.480429700446909,-0.5393499415273579,-0.13481426300635496,-2.6584049063893462,-0.06998029591907148,2.1246716417411435,0.7453674946568828,-0.9100642417451332,-0.04616000361245948,0.030607747586177212,-0.03525397765532159,0.005939519341822235,-0.01746530258927798,-0.07830924875144842,0.8680055410084778,-0.49652329774372705,0.0034267298525115513,0.0,-0.4964767482141207,-0.867988646262313,-0.009343197721241748,0.0,0.007613624535676156,0.006408779087449301,-0.9999504789098499,0.0,0.3007339836791709,-0.21301393669500265,0.3051009872714309,1.0,-0.19775142857151978,-0.25990187755114036,-0.8078263048289809,2.2759999999998617
-0.49574062130167945,-0.5398425439424812,-0.13440257128013308,-2.658818877210974,-0.0698333548988299,2.1245019418023077,0.743874599051504,-0.8612894960930291,-0.019473855397375308,0.03292061640145574,-0.023513410320441398,0.014124550071340357,-0.013984592259334782,-0.09784557666438096,0.86121790444824,-0.5082058156358304,0.0033640619658996986,0.0,-0.5081596948905431,-0.8612013718466012,-0.009309592874588305,0.0,0.007628470891781036,0.006308228817487355,-0.9999510051402718,0.0,0.2973961278070877,-0.21737232491779002,0.30508706520224327,1.0,-0.18652171428580674,-0.24514282448991748,-0.7574274650267008,2.29299999999986
-0.5101037095755481,-0.5400428891095214,-0.133926971212763,-2.6589818384609005,-0.06957457773392386,2.1244516920269256,0.7423202433698115,-0.8323563161876081,-0.0128342353705705,0.019318714896324106,-0.008685422050417673,0.015164329394532713,0.008799899058814155,-0.0972831101305073,0.8547854076736445,-0.5189520268961463,0.0033834168810755816,0.0,-0.5189056364817601,-0.8547696466054147,-0.00930261096263801,0.0,0.007719799496305524,0.006196181309661014,-0.9999510048161933,0.0,0.29430358763921916,-0.22143875672506635,0.30509362085000663,1.0,-0.17529200000009368,-0.23038377142869462,-0.7070286252244206,2.309999999999858
-0.5237464147919013,-0.5400494741871232,-0.13346587236132335,-2.658989724289658,-0.0692930690701518,2.124463817449386,0.7407658452023653,-0.7762978723958797,0.010814989252273187,0.03349496659143955,0.003456034239972013,0.019784882417633716,0.0006075101867419532,-0.09093349212974941,0.8489349086112917,-0.5284681179077408,0.003422893132423657,0.0,-0.5284213390411384,-0.8489199947018262,-0.009299351731711277,0.0,0.007820323892729963,0.006085931713119164,-0.9999509007793314,0.0,0.29152948881846935,-0.2250750347471158,0.30510493692648855,1.0,-0.16472285714295198,-0.21649289795930837,-0.6595944230575687,2.325999999999856
-0.5357207843820219,-0.5398676288719766,-0.133012612502775,-2.6589125594698952,-0.06897719762248539,2.1244774333249405,0.7392020170433675,-0.7367558284270201,0.012443086249496105,0.02641627990047628,0.002998913626387691,0.021442382605000313,-0.001961006528212526,-0.1020837471436396,0.8431451846177802,-0.5376575159978582,0.0033674987854731466,0.0,-0.5376107623321245,-0.8431302295714757,-0.009318321127261251,0.0,0.007849456540993505,0.006046410410098679,-0.9999509122717791,0.0,0.2887711267490406,-0.22864126702892512,0.30508759673748653,1.0,-0.15349314285723895,-0.2017338448980855,-0.6091955832552884,2.3429999999998543
-0.5477174722624354,-0.5395519269794559,-0.13253230575903197,-2.658733762461405,-0.06865486502088183,2.124539508377372,0.737647635314134,-0.6764528278427784,0.022762285964122532,0.029792585954958366,0.008531291152632592,0.022624605203912372,0.005266872290996607,-0.089188455489914,0.8376109998541774,-0.5462394192421247,0.003325160224666984,0.0,-0.5461928075917586,-0.8375962186496924,-0.009313342041253895,0.0,0.007872607750497973,0.005984894368117777,-0.9999511003477166,0.0,0.2861722572258861,-0.23198735034668624,0.30507219253537016,1.0,-0.14226342857152588,-0.18697479183686266,-0.5587967434530082,2.3599999999998524
-0.5587095502113304,-0.5390633047090512,-0.13199462894989727,-2.658451581909377,-0.06828422646128907,2.124685353887911,0.7359481445956976,-0.6353052921945487,0.03190240953552012,0.033568770193431824,0.019291689687452304,0.02425656365499179,0.010563306231936237,-0.09971231570404697,0.8326357028820719,-0.5537938615461317,0.003300318334672001,0.0,-0.5537473538177347,-0.8326212137001485,-0.009302125432197855,0.0,0.007899527111470794,0.005917853139965568,-0.999951287056339,0.0,0.2838214633218028,-0.23503291742105484,0.3050497811005796,1.0,-0.13103371428581284,-0.17221573877563978,-0.508397903650728,2.3769999999998506
-0.5691248762943647,-0.5384809670816351,-0.1315519545266587,-2.658071199434227,-0.06792495600446495,2.1248328854160046,0.7342861313641493,-0.5910741871059667,0.03433338368717959,0.02713199385242513,0.02692829442611155,0.022648209860046325,0.012020916738828831,-0.09466649285135843,0.8278487661341424,-0.5609246081033272,0.0032789229199173407,0.0,-0.5608779650877084,-0.8278344050850395,-0.009319492356265566,0.0,0.00794209071224694,0.005876167767566831,-0.9999511957328147,0.0,0.2815781705201761,-0.2379375936897151,0.3050356862605123,1.0,-0.1198040000000995,-0.1574566857144165,-0.4579990638484466,2.393999999999849
-0.577808246724976,-0.5378071090742771,-0.13100948039996135,-2.6576120198374014,-0.06752765084018661,2.1249942841799667,0.7327381772067192,-0.5213751514568518,0.046410264176124955,0.03268567452271117,0.02908518027812579,0.02400511736930725,0.0057282918341648795,-0.09501956847902744,0.8239530374020596,-0.5666317250800383,0.0032599371080491105,0.0,-0.5665851779120616,-0.8239389085843467,-0.009309027468075598,0.0,0.007960932588534253,0.005823281527448487,-0.9999513552891325,0.0,0.2797641459540047,-0.2403293636786567,0.30502779355981674,1.0,-0.10923485714295778,-0.1435658122450303,-0.4105648616815947,2.4099999999998474
-0.5864542174786924,-0.537131492517932,-0.130523111283778,-2.657154207236276,-0.06714381724522048,2.125144155949356,0.7311368716437269,-0.48388909301232763,0.044936468850381224,0.0283855132933918,0.027847639535934426,0.02901202704633514,0.0034945426068416965,-0.10514431438578174,0.8200466365048464,-0.5722707897538916,0.0032255313909799383,0.0,-0.5722242825497084,-0.8200325067832906,-0.009316929772864873,0.0,0.007977000933439338,0.005794701102697475,-0.999951393266312,0.0,0.27792437823790495,-0.24270918617289006,0.3050159989833683,1.0,-0.09800514285724476,-0.1288067591838074,-0.36016602187931457,2.4269999999998455
-0.5942843087730914,-0.5364651989580116,-0.1300601636794547,-2.656657812886129,-0.06673493035947636,2.1253165966387857,0.7294115082851649,-0.4361972909127651,0.045305888698202,0.025910236485414417,0.03184193052314042,0.021055359151247403,0.011175106545283562,-0.09356006575009838,0.8166235538793944,-0.577144755791152,0.003263282606192691,0.0,-0.5770976523509443,-0.8166097931752443,-0.009353728803078071,0.0,0.008063439306098041,0.005755353334588542,-0.9999509272232068,0.0,0.27627484936423036,-0.244864854199145,0.30502652687985415,1.0,-0.0867754285715317,-0.11404770612258458,-0.30976718207703424,2.4439999999998436
-0.6009930520518122,-0.5357590107617912,-0.12948468029811477,-2.656149752515119,-0.06631873879369113,2.125476831195588,0.727804056950476,-0.3715067759421379,0.03819122353058546,0.03682068288251529,0.024625104332391994,0.02011629096296032,0.006434069957275249,-0.09517286243342718,0.8138090733395013,-0.5811066211402363,0.003260968949334794,0.0,-0.5810595846157552,-0.8137956077702206,-0.00933888651133787,0.0,0.008080806574426669,0.005705363160589838,-0.9999510735012551,0.0,0.27490898311303724,-0.24667585212594348,0.3050292814724351,1.0,-0.07554571428581863,-0.0992886530613617,-0.25936834227475414,2.4609999999998418
-0.6066771428580594,-0.5351672849170791,-0.12897011263379396,-2.655717544243501,-0.06595840697373474,2.1256274371397503,0.7262384018240666,-0.3407407892661059,0.03697098011791534,0.028536421823093263,0.026957973345711737,0.019341313301557563,0.004113870038219726,-0.09261352676445117,0.8115396047947928,-0.5842717076156525,0.003284574646598292,0.0,-0.5842246547671947,-0.8115266320805044,-0.009317998037893764,0.0,0.008109918566993723,0.005643103603416244,-0.9999511911101251,0.0,0.27375172908402345,-0.24819998269171173,0.30503663590620894,1.0,-0.06497657142867697,-0.08539777959197548,-0.21193414010790224,2.47699999999984
-0.6118866550285273,-0.534570688539114,-0.12839996711622248,-2.6552768240626996,-0.06557960393184159,2.125778751320613,0.7246751296031161,-0.27626545890177745,0.03548690397583404,0.03148781377867952,0.02752219707484233,0.026982007161823796,0.0051212997508457555,-0.09185264390770415,0.8095573340822697,-0.5870150675060932,0.0033136468782507633,0.0,-0.5869680850469945,-0.8095449473849952,-0.009283975489957803,0.0,0.008132536163190651,0.005571012743945336,-0.999951411655867,0.0,0.2727196795635482,-0.24957714508036488,0.3050473652106196,1.0,-0.05374685714296362,-0.0706387265307522,-0.1615353003056208,2.4939999999998386
-0.6162059619558526,-0.5340236296454464,-0.12786731485306707,-2.6549061540556758,-0.06521015339921422,2.125893313982848,0.7229937593726966,-0.23894974522448192,0.026437242141671258,0.03579587160798569,0.019522581797028614,0.019177025924256314,0.0065969554449776405,-0.10055053456116897,0.8081470701920965,-0.5889552279927639,0.0032862229277351874,0.0,-0.5889084751331439,-0.8081346462313781,-0.009270834808647816,0.0,0.008115973489192518,0.005557020445387195,-0.9999516240789312,0.0,0.2718742446814209,-0.25069574467725814,0.3050398593409058,1.0,-0.042517142857250556,-0.05587967346952932,-0.11113646050334047,2.5109999999998367
-0.6197185455415338,-0.5336017531413861,-0.12735465857074998,-2.6546321905307892,-0.06485230059141221,2.125964075595953,0.7213865625457003,-0.1901993003511324,0.021327548540911206,0.03439053486861463,0.0131197252858269,0.027281155662749655,0.007701732852197005,-0.09770903919762816,0.8071623058050139,-0.5903043651721143,0.0032427530724490577,0.0,-0.5902578196640529,-0.8071495982226289,-0.009272503205484978,0.0,0.0080911417373839,0.00557046195832539,-0.9999517505254724,0.0,0.27119529939208703,-0.2515703065415504,0.30502951162010083,1.0,-0.03128742857153749,-0.04112062040830644,-0.06073762070106037,2.527999999999835
-0.6223592984846812,-0.5333032865003527,-0.12679071787613974,-2.6544162827857876,-0.06450771179733789,2.126031443918016,0.7197232540127714,-0.1409650708135474,0.012768276556283719,0.03704859157028456,0.013784819569249375,0.021077275810658012,0.0010149815841498113,-0.09548149578357426,0.8067563771196867,-0.5908589138907162,0.00326171025833728,0.0,-0.5908124826373057,-0.8067440113519916,-0.009244317651910954,0.0,0.008093608532192487,0.005530959570538507,-0.9999519498391695,0.0,0.27073181502145277,-0.2521840779883456,0.30503869342665313,1.0,-0.020057714285824424,-0.026361567347083614,-0.010338780898780264,2.544999999999833
-0.6242078972893398,-0.5331075246679932,-0.1263856821972722,-2.654269571333585,-0.0642326864202156,2.126051619905965,0.7182956403278542,-0.11401540224348367,0.011327621741561326,0.025190381207880023,0.009774261337609634,0.01647752786760841,0.00015557211317830964,-0.09078250416429609,0.8066226924327893,-0.5910414071957971,0.003260971281435203,0.0,-0.5909949335015261,-0.8066103013071676,-0.009249719017097006,0.0,0.008097455873021076,0.005533922297348004,-0.9999519022995014,0.0,0.27040653373107243,-0.2526029575770316,0.30504577029729774,1.0,-0.019662352941179857,-0.025841949579836387,-0.009831176470589929,2.560999999999831
-0.6259977574385452,-0.5329127839112806,-0.12606348041970214,-2.6540709379901335,-0.06400191087670185,2.1260896694002565,0.7167139633427382,-0.09746307388221571,0.010988684021880923,0.017729807119593474,0.010203207626493932,0.016503737928039434,0.008242149675727969,-0.07875845050328528,0.8065841143073237,-0.5910936715272117,0.003329403664205988,0.0,-0.5910467950957018,-0.8065722656351744,-0.009252741023583404,0.0,0.008154798325110846,0.005495386361329846,-0.9999516488275904,0.0,0.2700893870699,-0.2530438157274596,0.3050764871866799,1.0,-0.019302352941179896,-0.025368806722693583,-0.009651176470589948,2.578999999999829
-0.627461531026876,-0.5327087490255661,-0.12588488594909775,-2.653873407016749,-0.06382857951529382,2.1261653679700006,0.7154668178115933,-0.08442685582759847,0.011723235675585194,0.00478134214987352,0.01276467851992024,0.015810877238082024,0.004553596971801365,-0.0701129019536739,0.8064850064403153,-0.5912283787248419,0.0034184029265004563,0.0,-0.5911808024696479,-0.806473754829646,-0.00927838690308947,0.0,0.008242656586232466,0.005462090898216421,-0.9999511108926381,0.0,0.2698246780962274,-0.25343853436402014,0.30510310849484196,1.0,-0.01898235294117993,-0.024948235294122198,-0.009491176470589965,2.5949999999998274
-0.6289627923992696,-0.5325034257538727,-0.12574689594035768,-2.653700451130312,-0.06372627163115065,2.126187877266844,0.7141238824291839,-0.08986173032000411,0.008502745969684929,0.006376853337563688,0.0048582670481319866,0.00293801182084324,-0.0027938019030507655,-0.08158371181977052,0.8064232448318348,-0.5913125758448631,0.0034256012342276294,0.0,-0.5912650267259957,-0.8064121022581413,-0.009270188969000876,0.0,0.008244184336715643,0.005450362599647263,-0.9999511622935165,0.0,0.2695210140339463,-0.25384575121278274,0.30511223026079154,1.0,-0.018642352941179968,-0.024501378151265105,-0.009321176470589984,2.6119999999998256
-0.6304342802480124,-0.5323109651706183,-0.1256735324284141,-2.6535525103804964,-0.06368649082605461,2.126181681750807,0.7128653037983423,-0.09045432373709125,0.009457173066599548,0.003365508584728098,0.007730499942974463,0.0051042576797480695,0.00015901823617378824,-0.07098724842437956,0.8063169465084857,-0.5914577343953107,0.0033877866529657746,0.0,-0.5914105819563477,-0.8063056291842052,-0.009246772254451613,0.0,0.008200824308129184,0.005452361268144468,-0.9999515079428944,0.0,0.2691952186269401,-0.25425512758339824,0.3051104629011666,1.0,-0.018302352941180006,-0.024054521008408013,-0.009151176470590003,2.6289999999998237
-0.6317979525607947,-0.5321022522960931,-0.12562628809835896,-2.653382837200327,-0.06359596520644739,2.1261965584641014,0.7116449536128358,-0.07608776593139506,0.016054473386190052,-0.0010147865055832987,0.015795622369100128,0.003447341808536947,-0.00020164178578769564,-0.07176914709795533,0.8062216034829653,-0.5915877421453071,0.0033788048156826868,0.0,-0.5915403966047325,-0.8062100599692374,-0.00927606006464381,0.0,0.008211787965087591,0.005479965984929058,-0.9999512670681611,0.0,0.26890316423671334,-0.2546438425898196,0.30511396621818965,1.0,-0.017962352941180044,-0.02360766386555092,-0.008981176470590022,2.645999999999822
-0.6331438482076451,-0.5318751779364903,-0.12562016267976997,-2.6532253237979355,-0.06356952203564817,2.126253362374666,0.7103479149776877,-0.07999878390364547,0.014400850108626498,-0.00039667984257363704,0.007290977952525769,0.0038089816065838616,0.004510727887305172,-0.07811804122249544,0.806181343842589,-0.591642607763862,0.0033782273076923158,0.0,-0.5915953163826982,-0.8061698333537953,-0.009269753264076227,0.0,0.00820796396890039,0.005474664094864079,-0.999951327505761,0.0,0.26860431222550474,-0.2550453327112994,0.3051078049541755,1.0,-0.017622352941180083,-0.023160806722693827,-0.008811176470590041,2.66299999999982
