nelsonifechukwu/NELSON_IML_WORK/CNN-GradCAM/train2dof/data_sample_2022-02-21-15-19-05/robot_state.csv
position_joint1,position_joint2,position_joint3,position_joint4,position_joint5,position_joint6,position_joint7,velocity_joint1,velocity_joint2,velocity_joint3,velocity_joint4,velocity_joint5,velocity_joint6,velocity_joint7,ee_T_00,ee_T_10,ee_T_20,ee_T_30,ee_T_01,ee_T_11,ee_T_21,ee_T_31,ee_T_02,ee_T_12,ee_T_22,ee_T_32,ee_T_03,ee_T_13,ee_T_23,ee_T_33,v_x,v_y,time
0.465100347501,0.547864065833,-0.12393560489,-1.35585324909,0.0794720183503,1.89409314599,0.159166942827,0.000639319610843,-0.00211119329446,0.000123432320117,-0.0014538805917,-0.00021896212429,-0.00034887449944,-0.00343504980818,0.573747068084,0.819018705855,0.00184613808153,0.0,0.818974150027,-0.5736888863,-0.0119645403327,0.0,-0.00874024171625,0.00837672058085,-0.999926716678,0.0,0.661651206508,0.260930183659,0.303143584205,1.0,0.0,0.0,0.0
0.465095608753,0.547871172763,-0.12393495172,-1.35585324912,0.07947198276,1.89409229296,0.159169243015,-0.0010018247401,0.000300972269719,0.000751886438581,-0.00156711817083,-0.00029262416446,-0.00297782680429,-0.00345787254282,0.573751766602,0.819015424827,0.00184149892427,0.0,0.818970850657,-0.573693644441,-0.0119622323704,0.0,-0.00874096488828,0.00837164707567,-0.999926752846,0.0,0.661653419538,0.260926039295,0.303141157751,1.0,-0.00022,-0.000289142857143,0.012
0.465091832318,0.547873284448,-0.123937984897,-1.3558532528,0.0794717474393,1.89409315909,0.159167654902,-0.00118792551782,0.0028596154984,-0.000485066136798,0.000889812790536,4.89629215829e-05,0.000297686893392,-0.00126805127357,0.573756231924,0.819012306142,0.00183728545977,0.0,0.818967649966,-0.57369810132,-0.0119676126061,0.0,-0.00874774324084,0.00837133084336,-0.999926696217,0.0,0.66165374601,0.260923005311,0.3031371314,1.0,-0.0005,-0.000657142857143,0.026
0.465086179631,0.547843199512,-0.123936019607,-1.35587496946,0.079467356809,1.89409556008,0.159173961868,0.000337801827856,-0.000293997789837,0.00108662466844,-0.00149030235578,-0.000253431008355,0.000183311175139,-0.00116737344577,0.573764639929,0.819006396694,0.00184581775654,0.0,0.818961864182,-0.573706483712,-0.0119617081741,0.0,-0.00873792612748,0.00837502077941,-0.999926751154,0.0,0.661651314961,0.260917674292,0.303148243519,1.0,-0.00088,-0.00115657142857,0.045
0.46509522467,0.547759919313,-0.123936017009,-1.35595823951,0.0794693848047,1.89411481818,0.159167707947,0.00102482244016,-0.0118379503,-0.00472310022172,-0.00767090455197,0.000102922737597,0.00528076708894,0.000195799525197,0.57375717918,0.819011574532,0.00186735722119,0.0,0.818967242244,-0.573698854688,-0.0119593964175,0.0,-0.0087237513505,0.00839125550458,-0.999926738813,0.0,0.661635798341,0.26091651178,0.303169284397,1.0,-0.0012,-0.00157714285714,0.061
0.465090461082,0.547633791367,-0.123931058027,-1.35613255464,0.0794647247936,1.89414461727,0.159166469696,0.000321238586601,-0.00645659201415,0.00265076539044,-0.0138287648343,-1.55789901787e-05,0.00389175167221,-0.000592256146426,0.573764860168,0.819006215614,0.00185766580063,0.0,0.818961630867,-0.573706454958,-0.0119790487374,0.0,-0.00874532888675,0.00839467586096,-0.99992652162,0.0,0.661605473605,0.260898459779,0.303178084055,1.0,-0.00152,-0.00199771428571,0.077
0.465074384387,0.547482737695,-0.123938148492,-1.35635108932,0.079461835522,1.89421850967,0.159156435346,-0.000406081648234,-0.00605759372998,-0.00047820878602,-0.0115789057082,-2.93715781139e-06,0.00313722059744,-0.000693671313107,0.573786168988,0.818991265056,0.00186733514535,0.0,0.818946739083,-0.57372765505,-0.0119817894245,0.0,-0.00874180737113,0.00840439489019,-0.999926470772,0.0,0.661580079004,0.26086431489,0.303187721384,1.0,-0.00188,-0.00247085714286,0.095
0.46505704983,0.547300277175,-0.123933224089,-1.35654964158,0.0794610017159,1.89435041763,0.159149246628,0.000573236826199,-0.0126226310535,0.00107114380975,-0.00801373585989,0.000640884851818,0.00602709543452,0.000948531374417,0.573802250107,0.81897975263,0.00197217041623,0.0,0.818936549461,-0.573743248749,-0.01193144474,0.0,-0.00864025855176,0.00846153518524,-0.999926871503,0.0,0.661569130064,0.260843372489,0.303233753323,1.0,-0.0022,-0.00289142857143,0.111
0.465028243605,0.547114012948,-0.123934301515,-1.35678464623,0.0794575723606,1.89446484825,0.159126209132,-0.00224427476976,-0.0110925286205,-0.000582623626013,-0.0173432792167,0.000471310239502,0.0050113427476,-0.00108700850743,0.573820102715,0.818967094379,0.00203345662314,0.0,0.818924637181,-0.573760794178,-0.0119053174602,0.0,-0.0085835108202,0.00849692180728,-0.999927060171,0.0,0.661550934431,0.26080547069,0.303263800015,1.0,-0.00252,-0.003312,0.127
0.464983136809,0.546882322586,-0.123934224579,-1.35712948612,0.0794447663346,1.89459901903,0.159098810731,-0.00351957235568,-0.0152209375317,-0.00094626063895,-0.0221752259354,-5.48419346872e-05,0.0160089494778,-0.00457325922057,0.573850480853,0.818945753781,0.00205545389924,0.0,0.818903520232,-0.573791016184,-0.011901310836,0.0,-0.00856729193893,0.00851295528055,-0.999927062891,0.0,0.661517170305,0.260744824826,0.303275393939,1.0,-0.00286,-0.00375885714286,0.144
0.464946706387,0.546605446692,-0.123936697476,-1.35754291848,0.0794374585273,1.89475632979,0.158977100216,0.000147141234672,-0.0152614557406,0.000103512433736,-0.0218156742321,-7.2164030234e-05,0.00756296006491,-0.00805038417491,0.573803573491,0.818978550973,0.00208302596802,0.0,0.81893652738,-0.573743853611,-0.0119038425574,0.0,-0.00855403307424,0.00853649780442,-0.999926975695,0.0,0.66147146568,0.260683357049,0.303288432217,1.0,-0.00322,-0.004232,0.162
0.464908696636,0.546338397523,-0.123939212009,-1.35798268436,0.0794225997629,1.89491301825,0.158943813283,-0.00555413246014,-0.0164259781212,-0.001210218329,-0.0267501904557,-0.000681607135026,0.0110820038272,0.000931468465474,0.573829838173,0.818960169977,0.00207453953068,0.0,0.818917932153,-0.573770046348,-0.0119206213567,0.0,-0.00857237049456,0.00853945025757,-0.999926793447,0.0,0.661420141326,0.260616294033,0.303281895378,1.0,-0.00354,-0.00465257142857,0.178
0.464856483495,0.54601113952,-0.123939821828,-1.3585396162,0.0793852199023,1.8951004724,0.158894939613,-0.00379067023019,-0.0164989299822,-0.000174648993989,-0.0349495035127,-0.00433337392456,0.0120160199603,-0.00240718015459,0.573854131904,0.818943244643,0.00203574344723,0.0,0.818900507667,-0.573794503353,-0.0119404089368,0.0,-0.00861058461727,0.00851928837014,-0.999926637088,0.0,0.661354122779,0.260526260562,0.303264775597,1.0,-0.0039,-0.00512571428571,0.196
0.464802218323,0.545680612253,-0.123934548858,-1.359101364,0.0792774023034,1.89528681359,0.158794686458,-0.00390870855661,-0.0230136749106,-0.000148481001214,-0.0352919260999,-0.00514017385686,0.01726271026,-0.0016320174221,0.573815410258,0.818970565709,0.00195815079911,0.0,0.818927425979,-0.573756706341,-0.0119104915128,0.0,-0.00863100599266,0.00843816942828,-0.999927148862,0.0,0.661289934955,0.260426269067,0.303247233916,1.0,-0.00422,-0.00554628571429,0.212
0.464729440251,0.545276668661,-0.123942417813,-1.35982135835,0.0792628470927,1.89551107283,0.158728777004,-0.00461643352956,-0.0222904585708,-0.00138168036285,-0.0381497346767,-3.94644120318e-05,0.011557167195,-0.00571610625376,0.57386266717,0.818937605035,0.00189345949955,0.0,0.818893333031,-0.573803948572,-0.0119785066815,0.0,-0.00872334298769,0.00842472135547,-0.999926460975,0.0,0.661201418578,0.260306280691,0.303210224978,1.0,-0.00458,-0.00601942857143,0.23
0.464678402421,0.544895512158,-0.123939949101,-1.36045262726,0.0792475443623,1.89572960234,0.158632886308,-0.00703584524279,-0.0252307336041,0.000628530298442,-0.0393808723212,-0.000531726837514,0.011454858858,-0.00236884953705,0.573855292612,0.818942804551,0.00187960558796,0.0,0.81889809844,-0.573796390069,-0.0120147416406,0.0,-0.00876104399119,0.00843409090398,-0.999926052375,0.0,0.661123493363,0.260216391023,0.303198437898,1.0,-0.00488,-0.00641371428571,0.245
0.464605433792,0.544427930387,-0.123943333772,-1.36123958799,0.0792193881397,1.89602095263,0.158556890261,-0.00584345144776,-0.0280542471574,7.12629634382e-05,-0.0433832250117,4.53399873928e-05,0.012465836273,0.000213139794783,0.573897534685,0.818913225233,0.00186979219039,0.0,0.818868227816,-0.573838512487,-0.0120388521465,0.0,-0.00878598562766,0.00844034348742,-0.999925780775,0.0,0.661040896731,0.260098334065,0.303184230865,1.0,-0.00522,-0.00686057142857,0.262
0.464547649369,0.543982870043,-0.12394629329,-1.36196527277,0.0791834688693,1.8962793216,0.158451795311,-0.00408776091815,-0.0350537244472,6.00805548069e-05,-0.0539419792238,-0.00372152775628,0.0182145990011,-0.00979489435376,0.573885786208,0.818921507445,0.00184822417638,0.0,0.818876140246,-0.573826775245,-0.0120600932033,0.0,-0.00881587891992,0.00843474514457,-0.999925564906,0.0,0.660948220678,0.259985645026,0.303172199568,1.0,-0.00554,-0.00728114285714,0.278
0.464464163125,0.543419049383,-0.123948663857,-1.36286061283,0.0791307659316,1.89657866318,0.158330869315,-0.00785684523928,-0.0290541982004,-0.000404078302511,-0.0505086109561,-0.00363524306476,0.0170460887457,-0.000432581245751,0.573892370589,0.818916952574,0.00182172099787,0.0,0.818871184084,-0.573833423099,-0.0120802860946,0.0,-0.00884755702157,0.00842470105642,-0.999925369789,0.0,0.660841809419,0.25984200529,0.30317095825,1.0,-0.0059,-0.00775428571429,0.296
0.464397132626,0.542851028136,-0.123957623389,-1.36374965229,0.0790816054236,1.8969022082,0.158234050934,-0.00919864027785,-0.0305356995432,-0.0010498843001,-0.0510875625764,-0.00281052023441,0.0192553363563,-0.00934056190423,0.573910554021,0.818904204899,0.00182375520384,0.0,0.818858452773,-0.573851585534,-0.0120805216505,0.0,-0.00884639548211,0.00842669847779,-0.999925363235,0.0,0.660738692163,0.259708451599,0.303177939106,1.0,-0.00624,-0.00820114285714,0.313
0.464325710184,0.542292888999,-0.123947759036,-1.36461615329,0.0790298667802,1.89721797189,0.158120452505,-0.00650184251317,-0.0336466020101,-0.00164085804365,-0.0544513326791,-0.0075972711642,0.0192482400296,-0.00519484529915,0.573903402186,0.818909196977,0.00183274836236,0.0,0.818863490632,-0.573844326404,-0.0120838596612,0.0,-0.00884404183726,0.00843590130978,-0.999925306457,0.0,0.660635793259,0.259584512505,0.303187285151,1.0,-0.00656,-0.00862171428571,0.329
0.464252599952,0.541665306343,-0.12395482846,-1.36557178876,0.0789686471149,1.89758049504,0.157973384342,-0.00179476640367,-0.0356429787751,0.000948245474233,-0.0596706225507,-0.00957741725138,0.0209640331725,-0.0149458554244,0.573884529059,0.818922365444,0.00185838206775,0.0,0.818877066327,-0.573825411826,-0.0120620846832,0.0,-0.00881169371798,0.00844419282051,-0.999925522057,0.0,0.660528206655,0.259441624107,0.303207836516,1.0,-0.0069,-0.00906857142857,0.346
0.464138912037,0.540830532334,-0.123953353162,-1.36685441956,0.0789043689784,1.89805618538,0.157818870178,-0.0023108456044,-0.0435792989728,-0.000538689601657,-0.0663075569639,-0.00435927435925,0.0243405579356,-0.0126797585781,0.573903989824,0.818908656415,0.00188939536024,0.0,0.818863624821,-0.573844602206,-0.0120616485335,0.0,-0.00879333836479,0.00846954841567,-0.999925469198,0.0,0.66038170866,0.25924798379,0.303228673124,1.0,-0.00732,-0.00962057142857,0.367
0.464083118899,0.540331021087,-0.123955885124,-1.36762931904,0.0788558947323,1.8983365108,0.157723727953,-0.00188400559596,-0.0443007801281,-0.000240111348862,-0.0698324074283,-0.00450675564962,0.022399216476,-0.0108265194219,0.573903442127,0.818909034123,0.00189204858119,0.0,0.818864049192,-0.573844054557,-0.012058892649,0.0,-0.00878956452887,0.00847013363827,-0.99992549742,0.0,0.660289503885,0.259135429785,0.303237264868,1.0,-0.00756,-0.009936,0.379
0.463951707393,0.539421001005,-0.123956252994,-1.36903579889,0.0787705487561,1.89887799249,0.157553257647,-0.00582504851759,-0.0431338630581,-0.000401403293164,-0.0669054949445,-0.00518718525492,0.0258995244923,-0.00830458694798,0.573926805307,0.818892574709,0.00192876563017,0.0,0.818848094159,-0.573867279458,-0.0120370744207,0.0,-0.00875038385147,0.00848792914681,-0.99992569016,0.0,0.660135189476,0.25891638735,0.303257809451,1.0,-0.00798,-0.010488,0.4
0.463852211134,0.538743937904,-0.123956816881,-1.37008057466,0.0787118760946,1.89928424298,0.157426182048,-0.008047985689,-0.0488037074074,0.00324992962936,-0.0710045427718,-0.00100160087057,0.0265377459484,-0.00649469992612,0.573946743273,0.818878519829,0.00196279151829,0.0,0.818834465775,-0.573887051382,-0.0120215147687,0.0,-0.00871790742974,0.00850707438257,-0.999925811136,0.0,0.660021454332,0.258753329654,0.303274075674,1.0,-0.00828,-0.0108822857143,0.415
0.46376466754,0.538099988676,-0.123967623811,-1.37109854973,0.0786569403111,1.89966746728,0.157291273238,-0.000994383459455,-0.0437904963927,-0.000239558511176,-0.0692665749043,-0.00417019965254,0.0256100627762,-0.0145498695128,0.573957062943,0.81887126758,0.00197076911026,0.0,0.818827309859,-0.57389732802,-0.0120183368603,0.0,-0.00871061931889,0.00851189277501,-0.999925833646,0.0,0.659907306752,0.258594014222,0.303277956816,1.0,-0.00856,-0.0112502857143,0.429
0.46364296565,0.537243194379,-0.123971174524,-1.37244338963,0.0785773850775,1.90016967809,0.157126167989,-0.00741171255928,-0.051463855962,-0.000358241155275,-0.077866510912,-0.0039155520263,0.0318348780065,-0.00630634397591,0.57397683084,0.818857384578,0.00198198947261,0.0,0.818813568577,-0.573917040939,-0.0120131983477,0.0,-0.0086997661436,0.0085183413933,-0.999925873217,0.0,0.659755073335,0.258384469405,0.303286513665,1.0,-0.00892,-0.0117234285714,0.447
0.463523098833,0.536403966587,-0.123974371176,-1.37376257048,0.0784968384163,1.90067177627,0.156963600616,-0.0103901026812,-0.047274076215,0.00044686718777,-0.0769330652188,-0.00667709947505,0.0347060349211,-0.0130518674436,0.573995185262,0.818844479139,0.00199829463958,0.0,0.818800905718,-0.573935352993,-0.0120014283327,0.0,-0.00868057852066,0.0085251316752,-0.999925982104,0.0,0.659607491871,0.258179005376,0.30329469629,1.0,-0.00926,-0.0121702857143,0.464
0.463419247795,0.535590500811,-0.123980378873,-1.37507373405,0.0784272584285,1.90114411247,0.156802252476,-0.00969485470163,-0.0515023496357,-0.00212655693984,-0.0847330937181,-0.00283220210333,0.0352141128892,-0.0158107868358,0.574005650866,0.818837187668,0.00197984001406,0.0,0.818793278252,-0.573945802553,-0.0120220681266,0.0,-0.00870796324423,0.0085219788098,-0.999925770872,0.0,0.659450740923,0.257982855047,0.303285894504,1.0,-0.00958,-0.0125908571429,0.48
0.463274265822,0.534527412268,-0.123981093029,-1.37677948818,0.0783303356364,1.90176657313,0.156597601554,-0.0117298285295,-0.0568117226634,0.000231808746699,-0.0877082625369,-0.0057811408,0.0346280489112,-0.0124539550359,0.574024799356,0.818823800746,0.00196467733903,0.0,0.818779604408,-0.573964926733,-0.012040315033,0.0,-0.00873140873927,0.00852024119651,-0.999925581227,0.0,0.659249368259,0.257724878262,0.303278066317,1.0,-0.00998,-0.0131165714286,0.5
0.463173179202,0.533732067549,-0.123989590722,-1.37808161068,0.0782517599342,1.90223560799,0.156431934018,-0.00844105096816,-0.0527888881921,-0.0010927310669,-0.0849220177793,-0.000682230772965,0.0295367508326,-0.011531036072,0.574034655708,0.818816974816,0.00192943017986,0.0,0.818772292729,-0.573974909606,-0.012061621109,0.0,-0.00876898442488,0.00850371621549,-0.999925393078,0.0,0.659082753952,0.257512808064,0.303257861856,1.0,-0.0103,-0.0135371428571,0.516
0.463061429708,0.532908777384,-0.123987375048,-1.37943710698,0.0781776142998,1.9027606794,0.156256040249,-0.00697172189795,-0.0537609202078,-0.00488812452575,-0.0858194819287,-0.00520340903423,0.0380740675292,-0.0169293405074,0.574028363918,0.818821394436,0.00192570311981,0.0,0.818776616282,-0.573968588905,-0.0120689055632,0.0,-0.00877715396767,0.00850477854247,-0.999925312366,0.0,0.658936377658,0.257329460241,0.303241092582,1.0,-0.01058,-0.0139051428571,0.53
0.462929830186,0.531921045564,-0.12398464469,-1.38100103452,0.0780891237896,1.90332299756,0.156069729863,-0.00592722804634,-0.0589734922284,-0.000992965563865,-0.091001810279,-0.00854194805922,0.0325087457441,-0.0139173017123,0.574043081338,0.818811095773,0.00191757872451,0.0,0.818766096167,-0.573983228378,-0.0120863645941,0.0,-0.00879596075973,0.00850830623139,-0.999925117096,0.0,0.658748114545,0.25709550878,0.303241688669,1.0,-0.01092,-0.014352,0.547
0.462789722383,0.530853083939,-0.123984182532,-1.38272868279,0.0779786721412,1.90393351344,0.155845690967,-0.0085304644682,-0.0639897191674,0.00421767838191,-0.0967218129669,-0.00323458357949,0.0325732789444,-0.0197199599105,0.574038205501,0.818814618988,0.00187223338076,0.0,0.818769006101,-0.573978533446,-0.0121121712692,0.0,-0.00884317139117,0.00848593910505,-0.999924890758,0.0,0.658536827848,0.256836012192,0.303224916546,1.0,-0.01128,-0.0148251428571,0.565
0.462664727156,0.529861868132,-0.123992153615,-1.38426713096,0.0778920526023,1.90449888975,0.155628652121,-0.00893903860078,-0.0609287532306,-0.00151800750252,-0.0998900473119,-0.00418443270716,0.0343539234267,-0.0209109306849,0.574028719887,0.818821229296,0.00188947067699,0.0,0.818775794554,-0.573968927227,-0.0121084983248,0.0,-0.00883036803771,0.0084978422578,-0.999924902819,0.0,0.658354980559,0.256603819824,0.30324024298,1.0,-0.0116,-0.0152457142857,0.581
0.462521092416,0.528789503469,-0.123988215126,-1.38594371027,0.0777834913183,1.90512941911,0.155404429877,-0.00808432212234,-0.0741387283982,-0.00125064454656,-0.103138623026,-0.00580914377253,0.043335204073,-0.0203586060621,0.574021668519,0.818826129409,0.00190808001807,0.0,0.818780974552,-0.573961829912,-0.0120946441009,0.0,-0.00880841510618,0.00850505115222,-0.999925035154,0.0,0.658158805256,0.256351854132,0.303251986476,1.0,-0.01194,-0.0156925714286,0.598
0.462379853532,0.527676143452,-0.12399071481,-1.38766429414,0.0776665090225,1.90580021614,0.155162588396,-0.00846391801438,-0.068803323798,-0.000216553053016,-0.0990035119529,-0.00675960853951,0.0411579013303,-0.0143500693127,0.574002796783,0.818839252473,0.00195315018975,0.0,0.818794843499,-0.573942916128,-0.0120532231228,0.0,-0.00874882393818,0.00851797708411,-0.999925448294,0.0,0.657962271067,0.256094431194,0.303275065561,1.0,-0.01228,-0.0161394285714,0.615
0.462249325494,0.526636023927,-0.12398843193,-1.38924265136,0.0775756245946,1.90640222744,0.154954871463,-0.0100862544995,-0.0719686293323,0.00013867948362,-0.102029970755,-0.00897044134941,0.0420510545331,-0.013613003535,0.573992598677,0.818846267044,0.0020086099161,0.0,0.818802533834,-0.573932433571,-0.0120299286384,0.0,-0.00869802324503,0.00854990950211,-0.999925618953,0.0,0.657764786502,0.255846929749,0.303306483693,1.0,-0.0126,-0.01656,0.631
0.462077889642,0.525313014495,-0.12399422921,-1.39128494473,0.0774419607074,1.90713537185,0.154668139568,-0.0105571626109,-0.0735935348303,0.00141085714814,-0.106868237524,-0.00428772614807,0.0331298644624,-0.0116261512446,0.573982215295,0.818853526412,0.0020163604562,0.0,0.818809953818,-0.573922076942,-0.0120189861728,0.0,-0.00868472263842,0.00854986493247,-0.999925734944,0.0,0.657531916692,0.255549324455,0.303330305267,1.0,-0.01296,-0.0170331428571,0.649
0.461927602415,0.524203113675,-0.123997428149,-1.39306554805,0.0773359256375,1.90776966788,0.154431976435,-0.0131105386733,-0.0675662652136,0.000636081684791,-0.113397446074,-0.00667169263393,0.033781861128,-0.0105989814603,0.573981127895,0.818854363946,0.00198553994959,0.0,0.818810318005,-0.573921051761,-0.0120431048565,0.0,-0.00872217371986,0.00853845989821,-0.999925506419,0.0,0.657314134727,0.255277785636,0.30331842453,1.0,-0.01328,-0.0174537142857,0.665
0.461780634507,0.523081871292,-0.124009110395,-1.39487522636,0.0772154146526,1.9084599119,0.154178754128,-0.0054432413165,-0.0707043048759,-0.00205591591572,-0.115629852289,-0.0135294291315,0.0450158464802,-0.0139709702115,0.573967044866,0.818864257914,0.00197621352987,0.0,0.818820240247,-0.573907157327,-0.0120306206016,0.0,-0.00871744995987,0.00852350749582,-0.999925675181,0.0,0.657102306952,0.255001659863,0.30330551517,1.0,-0.0136,-0.0178742857143,0.681
0.461608831754,0.521750278296,-0.124004509431,-1.39694597083,0.077095260418,1.90926446647,0.153900058125,-0.0131528637982,-0.0706810657142,0.000870160007824,-0.112037437128,-0.00669951754862,0.0461937696087,-0.015058084551,0.573954844221,0.818872667743,0.00203413868728,0.0,0.818829358001,-0.573894664326,-0.0120059832669,0.0,-0.00866415701935,0.00855666947345,-0.999925855147,0.0,0.65685933258,0.25469829673,0.303325228016,1.0,-0.01396,-0.0183474285714,0.699
0.461436701826,0.520483632789,-0.124007727091,-1.39898223437,0.0769707529864,1.91001405745,0.153620014482,-0.00990174843339,-0.0679202387197,0.000501806667483,-0.120861048336,-0.0107188132127,0.0418150567914,-0.0179150715438,0.573943772641,0.81888047578,0.00201472938292,0.0,0.818836889932,-0.573883653959,-0.0120185817109,0.0,-0.00868572887682,0.00854788944429,-0.999925743093,0.0,0.656613151119,0.254389057881,0.303310855947,1.0,-0.0143,-0.0187942857143,0.716
0.461271583127,0.51923406939,-0.124010648031,-1.40092319172,0.0768509846169,1.91070164075,0.153361692251,-0.00738897692817,-0.0791425086902,0.00153101673557,-0.121421915667,-0.00472591701937,0.0413545573911,-0.01740634349,0.573940179657,0.818883003311,0.00201096119946,0.0,0.818839323087,-0.573880033018,-0.0120257045627,0.0,-0.00869376197155,0.00854885373647,-0.999925665038,0.0,0.656373850291,0.254092320516,0.303324056756,1.0,-0.01462,-0.0192148571429,0.732
0.461090710127,0.51787492686,-0.124014101327,-1.40304784592,0.076712257122,1.91146072957,0.153076891492,-0.0165757134378,-0.0801332705386,0.00117565026375,-0.129853335651,-0.011382504963,0.0464203246581,-0.0265643117176,0.573932495649,0.818888415182,0.0020002049783,0.0,0.8188446219,-0.573872422758,-0.0120280707193,0.0,-0.00870195283168,0.00854132218188,-0.999925658153,0.0,0.656112708873,0.253766419524,0.303332571795,1.0,-0.01496,-0.0196617142857,0.749
0.460885456543,0.516363070087,-0.124021934521,-1.40543407124,0.0765568237604,1.9123621789,0.152732160809,-0.0114497182677,-0.0843001079723,-6.00501305153e-05,-0.130518543188,-0.00883979453746,0.0587926215103,-0.0193539648122,0.573908120899,0.818905463386,0.00201437432611,0.0,0.818861968137,-0.573848101921,-0.0120074960794,0.0,-0.00867722632088,0.00854085847484,-0.999925876993,0.0,0.655829286458,0.253399910352,0.303335780448,1.0,-0.01534,-0.0201611428571,0.768
0.460726238249,0.515219399464,-0.124025715351,-1.40723542213,0.0764440136753,1.91303009451,0.152508266036,-0.012986429018,-0.0835674633143,-0.00177391152889,-0.127995672222,-0.00658390334025,0.0412799445789,-0.0141592250484,0.573922355287,0.818895474476,0.00201962492979,0.0,0.818852065654,-0.573862329929,-0.0120028231154,0.0,-0.00867023779132,0.00854262703016,-0.999925922506,0.0,0.655612573956,0.25312163895,0.303338371326,1.0,-0.01562,-0.0205291428571,0.782
0.460534330678,0.513726202157,-0.124034398591,-1.4096260733,0.0763037204616,1.91386623726,0.152175388942,-0.0117543490816,-0.0878629802923,0.000477149167718,-0.128162564394,-0.00916788008731,0.0469622953833,-0.0146262009915,0.573900679517,0.818910788084,0.00196929186433,0.0,0.818866591507,-0.573840743543,-0.0120438060873,0.0,-0.00873291096239,0.00852469994098,-0.999925530106,0.0,0.655308796436,0.252760799781,0.303319904277,1.0,-0.01598,-0.0210022857143,0.8
0.460331303019,0.512318057552,-0.124035153303,-1.41189908857,0.0761575271306,1.91467694699,0.151851755338,-0.0176387805001,-0.0859387987471,-0.00143365353086,-0.136230692038,-0.00875276462592,0.0508877988795,-0.0220308207328,0.573881876761,0.818924084807,0.00191878839493,0.0,0.818879203842,-0.573822138219,-0.0120727008846,0.0,-0.00878575141647,0.00849972380045,-0.999925279842,0.0,0.655026070403,0.25240754497,0.303294891332,1.0,-0.01632,-0.0214491428571,0.817
0.460147364945,0.510954915254,-0.124038864345,-1.41405786314,0.0760342685817,1.91550570738,0.151547429502,-0.0151744273989,-0.0868153459378,0.000581231823577,-0.134595446641,-0.00423338707283,0.0456722960815,-0.008305861831,0.573865774198,0.81893529804,0.00194877652967,0.0,0.818890750062,-0.573805850034,-0.012063698927,0.0,-0.00876133818604,0.00851894301459,-0.999925330494,0.0,0.654766767034,0.252082928103,0.303293956181,1.0,-0.01664,-0.0218697142857,0.833
0.459947071175,0.509456511054,-0.124042068857,-1.41643126348,0.075876558442,1.91638523182,0.151226082128,-0.0136803036188,-0.0884210563813,0.000310061941558,-0.134908331683,-0.00961147681489,0.0473805881122,-0.0100114852307,0.573849836779,0.818946477586,0.00194385685847,0.0,0.81890195078,-0.573790019009,-0.0120563674515,0.0,-0.00875832261801,0.00851053652186,-0.999925428496,0.0,0.654474927172,0.251722236436,0.303289445794,1.0,-0.01698,-0.0223165714286,0.85
0.459736578251,0.507936927067,-0.124047872089,-1.41880503159,0.0757254796365,1.91723393933,0.150875677589,-0.012097039669,-0.0884956069746,-0.000397437040277,-0.143397647709,-0.00759986037043,0.0475644815181,-0.0219800921397,0.573821531795,0.818966329513,0.00193589088046,0.0,0.818921688775,-0.573761742564,-0.0120613981737,0.0,-0.008767307664,0.00850659678311,-0.99992538328,0.0,0.65417921524,0.251352676414,0.303296450696,1.0,-0.01732,-0.0227634285714,0.867
0.459534016634,0.506490183083,-0.124051048407,-1.4211003454,0.0755838807907,1.91807239533,0.15058541331,-0.0106038411715,-0.0995104974993,-0.000704546132729,-0.146403411115,-0.00307629731983,0.0483217501886,-0.0227795886984,0.573832432572,0.81895871678,0.00192521160989,0.0,0.818913899486,-0.573772652583,-0.0120712583509,0.0,-0.00878139754592,0.00850362581166,-0.999925284911,0.0,0.653894267547,0.250999072827,0.303288427714,1.0,-0.01764,-0.023184,0.883
0.459290407622,0.504776860943,-0.124057460156,-1.42370421443,0.0754160962618,1.91908904921,0.150213987688,-0.018695576343,-0.100315098595,-3.24131551706e-05,-0.148891037786,-0.0140590200537,0.0543492834175,-0.023749188401,0.573821452675,0.818966169346,0.00202504790615,0.0,0.818922802105,-0.573761388255,-0.0120025181514,0.0,-0.0086679288995,0.00854582484068,-0.999925915199,0.0,0.6535894133,0.250591515019,0.303334759178,1.0,-0.018,-0.0236571428571,0.901
0.459082823093,0.503208114771,-0.124063844941,-1.42604300907,0.075279721227,1.91995598979,0.149892988621,-0.012406252994,-0.0941330380824,-0.000504561438406,-0.146447055376,-0.012822960156,0.0499646849089,-0.0145086296144,0.573816449764,0.81896945665,0.00211138716558,0.0,0.818927155957,-0.573755965474,-0.0119646237422,0.0,-0.00858740575763,0.00859473568042,-0.999926190767,0.0,0.653302685924,0.250232107648,0.303392616379,1.0,-0.01832,-0.0240777142857,0.917
0.458860648654,0.501621378861,-0.124069883386,-1.42842456257,0.0751164156525,1.92081521177,0.149556541439,-0.014357169555,-0.10473818847,-0.000215922337581,-0.153262165229,-0.0164905698178,0.0507964286949,-0.0239217615171,0.573804497617,0.818977710132,0.00215771234467,0.0,0.818936129265,-0.573743941283,-0.0119269831026,0.0,-0.0085301231567,0.00861095093039,-0.999926541563,0.0,0.653008630595,0.249853853604,0.303441396898,1.0,-0.01864,-0.0244982857143,0.933
0.458613070965,0.499807345596,-0.124070935854,-1.43117130825,0.0749391159074,1.92179562304,0.14916907802,-0.0172652009586,-0.100205570504,-0.00022315124247,-0.152033228932,-0.00978738510366,0.0574032550543,-0.0267299148759,0.573782425161,0.818993072262,0.00219614762427,0.0,0.818951977739,-0.573721701418,-0.0119085843376,0.0,-0.00849323404243,0.00863164202759,-0.999926677178,0.0,0.652661624523,0.249427682679,0.303484708715,1.0,-0.019,-0.0249714285714,0.951
0.45835687519,0.498128855659,-0.124074161701,-1.43380587776,0.0747803089136,1.92278355322,0.148792914298,-0.0184657848235,-0.100311631313,-0.000835520937028,-0.160712564036,-0.010441303802,0.0549866809913,-0.025936287986,0.573777625994,0.818996361478,0.00222321729481,0.0,0.81895557365,-0.57371674741,-0.0118999592493,0.0,-0.00847068941875,0.00864881307895,-0.999926720042,0.0,0.652340018624,0.249009645824,0.303487033247,1.0,-0.01934,-0.0254182857143,0.968
0.458111456134,0.49655825767,-0.124071211896,-1.4363181535,0.0746268765837,1.92367624411,0.148409071058,-0.0125198938711,-0.0974569584985,-4.31945085607e-05,-0.157191578146,-0.0134332847626,0.0598936819122,-0.0263542399656,0.573747719344,0.81901741917,0.00218369969558,0.0,0.81897597585,-0.573686860992,-0.011936641374,0.0,-0.00852372149604,0.00863718464668,-0.999926369896,0.0,0.652020551408,0.248609968231,0.303463341409,1.0,-0.01966,-0.0258388571429,0.984
0.457837020313,0.494863844935,-0.124076259187,-1.43906413927,0.0744503912331,1.92461959041,0.148023138024,-0.0167462121782,-0.104543547651,-0.00327202939942,-0.161716945785,-0.0153084760708,0.0630310872748,-0.0239734613236,0.573750337748,0.819015834743,0.00208788789237,0.0,0.818973048815,-0.573689781219,-0.0119969638131,0.0,-0.00862806950064,0.00859335140114,-0.999925852615,0.0,0.651666874158,0.24816055933,0.303418757764,1.0,-0.01998,-0.0262594285714,1.001
0.457556814884,0.493021050321,-0.124112504351,-1.44197231869,0.0742699431185,1.92569334282,0.14761071321,-0.0193010770592,-0.118973427416,-0.0100514535138,-0.184299151166,-0.0117900395013,0.0633905255851,-0.0254155719507,0.57376549669,0.819005221243,0.00208549444764,0.0,0.8189625147,-0.573705058435,-0.011985505543,0.0,-0.00861989886479,0.00858497660561,-0.999925995022,0.0,0.651311100503,0.247680033073,0.303411798659,1.0,-0.024264,-0.0318898285714,1.018
0.457245978551,0.49081542085,-0.12412961918,-1.44546528542,0.0740705306582,1.92697865856,0.147097202816,-0.0187003671927,-0.137531890669,-0.00159412544461,-0.223351378984,-0.0179340113067,0.0764580220916,-0.0341069637736,0.573732963683,0.81902800439,0.00208837519247,0.0,0.818985174181,-0.573672356865,-0.0120024307163,0.0,-0.0086324499601,0.00859670398019,-0.99992578599,0.0,0.650867548297,0.247137658832,0.30339589213,1.0,-0.028548,-0.0375202285714,1.035
0.456840922237,0.488287534515,-0.124149420306,-1.44954464537,0.0738338696559,1.92843518868,0.146511169101,-0.026114168068,-0.16345292072,-0.00203734547538,-0.247962197646,-0.00797943177795,0.0964545444646,-0.037345985024,0.573738089733,0.819024604923,0.00201192000913,0.0,0.818980534966,-0.573677569186,-0.0120696669632,0.0,-0.00873132894101,0.00857271604392,-0.999925133415,0.0,0.650347175642,0.246473114384,0.303338773563,1.0,-0.032832,-0.0431506285714,1.052
0.456370513494,0.48530165879,-0.124192305047,-1.45411725619,0.0735498551927,1.93019534246,0.145834055687,-0.0273821744766,-0.183545296573,-0.00764355644063,-0.277705613359,-0.0100249066575,0.107911908916,-0.0436733862261,0.573749416142,0.819016326168,0.00214752138291,0.0,0.818974254644,-0.573688547908,-0.0119736014003,0.0,-0.00857473169626,0.00862877766714,-0.999926006349,0.0,0.649799640787,0.245713219941,0.303390043748,1.0,-0.037116,-0.0487810285714,1.069
0.455870829751,0.482185560395,-0.124232781864,-1.45896039002,0.0732520419678,1.93186309085,0.145086030522,-0.0333123107512,-0.196837545036,-0.00150060957174,-0.310932051513,-0.00758029383134,0.104430112021,-0.0437731147928,0.573731770574,0.819028819884,0.00209631438564,0.0,0.818985935861,-0.573670973671,-0.0120165607038,0.0,-0.0086394811544,0.00861130044203,-0.999925599667,0.0,0.649174120657,0.244897817402,0.303392796348,1.0,-0.041148,-0.0540802285714,1.085
0.455279726224,0.478523427879,-0.124295828395,-1.46467732132,0.0729092788333,1.93390868888,0.14425933343,-0.0308373759336,-0.21724172242,-0.00287967842267,-0.347458149211,-0.0163119612272,0.118840705873,-0.0484082404321,0.573770229401,0.81900190747,0.00208478164573,0.0,0.818958803611,-0.573709407373,-0.0120308262614,0.0,-0.00865737749543,0.00861044600406,-0.999925452239,0.0,0.648448635584,0.243932381071,0.303389149067,1.0,-0.045432,-0.0597106285714,1.102
0.454612765418,0.47447623232,-0.124340474166,-1.47085499527,0.0725370737217,1.93619373122,0.143375151289,-0.0425537432032,-0.242891492264,-0.00349592949749,-0.372706589569,-0.0246617521839,0.133804435029,-0.054509332176,0.573822607115,0.818964867317,0.00221552797091,0.0,0.818923441347,-0.573761205612,-0.0119675832084,0.0,-0.00853001042383,0.0086817847391,-0.999925930025,0.0,0.647677247875,0.242891225619,0.303449373524,1.0,-0.049716,-0.0653410285714,1.119
0.453920277915,0.470392115967,-0.124381611733,-1.4771587671,0.0721587154909,1.93840929715,0.142427260051,-0.0444148268261,-0.263994336879,-0.00296010247086,-0.401010033693,-0.0260213577093,0.13684983608,-0.0670993639783,0.573842175004,0.818951147181,0.00221892293658,0.0,0.818909486217,-0.573780472848,-0.0119987192196,0.0,-0.00855335489645,0.00870263572892,-0.999925549354,0.0,0.64686042948,0.241816768344,0.303465234413,1.0,-0.053748,-0.0706402285714,1.135
0.453089817567,0.4653641739,-0.124394831968,-1.48470094512,0.0716630367167,1.94122624748,0.14119703886,-0.0436548255984,-0.285549484808,-0.000108431024813,-0.433067820195,-0.0339257154823,0.154112411607,-0.0598297467839,0.573746355008,0.819017574899,0.00246556757424,0.0,0.818979309852,-0.573683872303,-0.0118512275838,0.0,-0.00829206696982,0.00881901725232,-0.999926730596,0.0,0.645905643017,0.240558394324,0.303589408002,1.0,-0.058284,-0.0766018285714,1.153
0.452219042265,0.460321794494,-0.124418819563,-1.49251536004,0.0711546518345,1.94390069658,0.140044404174,-0.0556315883622,-0.300578792482,0.000584804076233,-0.466354327967,-0.0340873091009,0.157836693908,-0.0631875510346,0.573758758718,0.819009139191,0.0023798356035,0.0,0.818969479416,-0.573696315267,-0.0119279727746,0.0,-0.00840397760039,0.00879296087024,-0.999926025764,0.0,0.644856784541,0.239226433314,0.303576478556,1.0,-0.062568,-0.0822322285714,1.17
0.451340722437,0.455317947243,-0.124461126015,-1.50029609296,0.0706244153245,1.94662757237,0.138849217761,-0.0613177808456,-0.308617625405,-0.00617428293349,-0.496360373761,-0.027761406735,0.172070187983,-0.0804688630152,0.573743587932,0.819019952158,0.00231520540526,0.0,0.818979528828,-0.573681486906,-0.0119511440288,0.0,-0.00846019781631,0.00875316661248,-0.999925900818,0.0,0.643822003285,0.237884021116,0.303552246885,1.0,-0.0666,-0.0875314285714,1.186
0.450339730123,0.449556189286,-0.124503294372,-1.50882090029,0.0700417878907,1.94984763913,0.137472196864,-0.0599759234588,-0.342943054569,-0.00223548220646,-0.514230933972,-0.0383908192519,0.19116908528,-0.0799567072205,0.573695421821,0.819052593494,0.00267562595335,0.0,0.819017398844,-0.573632540146,-0.0117028277195,0.0,-0.00805056028099,0.00890541435045,-0.999927938441,0.0,0.642738289325,0.236411105512,0.303729409504,1.0,-0.070884,-0.0931618285714,1.203
0.449248746073,0.443615222825,-0.124541758329,-1.51796742735,0.0694498194353,1.95297414127,0.136106943737,-0.0701957232755,-0.351859525214,-0.00248060035936,-0.55559248252,-0.0359939811093,0.179681337704,-0.0873363625277,0.573747096403,0.819016608624,0.00260980246742,0.0,0.818980190782,-0.573684041208,-0.011781972283,0.0,-0.0081525859184,0.00889742021285,-0.999927182977,0.0,0.641489580527,0.234807570564,0.303718076247,1.0,-0.075168,-0.0987922285714,1.22
0.448185916683,0.437732123292,-0.124564081314,-1.52715008349,0.0688155891103,1.95604153421,0.134614121077,-0.063525841971,-0.373995530787,-0.00285254324821,-0.583541457483,-0.0403056760424,0.188060020466,-0.097848428116,0.573641237011,0.819091397473,0.00240014322552,0.0,0.819051942724,-0.573578665697,-0.0119237694708,0.0,-0.00839014758659,0.00880597738312,-0.999926027357,0.0,0.640195226516,0.233219308525,0.303636352872,1.0,-0.0792,-0.104091428571,1.236
0.446923797181,0.431092934724,-0.124583609267,-1.53704171758,0.0681394174553,1.95967854287,0.133006163525,-0.077328517123,-0.384751151715,-5.2690612409e-05,-0.588845344195,-0.0386364616458,0.216488066845,-0.0946616565353,0.573616380452,0.819107843197,0.00270854051002,0.0,0.819072661847,-0.573552932806,-0.0117368984856,0.0,-0.00806044943988,0.00895114104952,-0.999927450483,0.0,0.63888499885,0.231465395133,0.30377205364,1.0,-0.083484,-0.109721828571,1.253
0.445578059297,0.424285306021,-0.124644190146,-1.54751626718,0.0673770284771,1.96321950396,0.13128676193,-0.0805146100601,-0.410106696684,-0.00863039904491,-0.625489733767,-0.0505524593364,0.202831522644,-0.0997774647611,0.573589251535,0.819127311566,0.00256220053382,0.0,0.819090381098,-0.573526507819,-0.011791493642,0.0,-0.00818940223322,0.00886231845139,-0.999927193851,0.0,0.637422937499,0.229553284259,0.30372793603,1.0,-0.087768,-0.115352228571,1.27
0.444213933437,0.417560797292,-0.124763063345,-1.5577633462,0.0666349399101,1.96668708505,0.129645663708,-0.0849525004783,-0.441856515818,-0.00677100611636,-0.634178608077,-0.0435013822862,0.237267582916,-0.0976690157625,0.573685173162,0.819060299087,0.00250907446514,0.0,0.819023074862,-0.573623041962,-0.0117709589456,0.0,-0.00820202014163,0.00880798408547,-0.999927570518,0.0,0.63591551132,0.227502617253,0.303739874151,1.0,-0.092052,-0.120982628571,1.287
0.442584935752,0.409678756034,-0.124812400077,-1.56963378744,0.0658470492698,1.970875699,0.127639618393,-0.09272522934,-0.433339734663,-0.00318465495894,-0.672978957292,-0.0448257338204,0.229227748604,-0.107157597452,0.573671137405,0.819069715057,0.00264100073526,0.0,0.819033897606,-0.573608191776,-0.011741541706,0.0,-0.0081023975595,0.00889902404495,-0.99992757664,0.0,0.634351765646,0.225436926488,0.303770202167,1.0,-0.096336,-0.126613028571,1.304
0.440718429263,0.401079236477,-0.124912416957,-1.58274181066,0.0649291599272,1.97523599168,0.125460487151,-0.0952230471588,-0.460410194895,-0.0108913091006,-0.683929744293,-0.0494805157213,0.242456044085,-0.119350626669,0.573759244482,0.819008451418,0.00249655337515,0.0,0.818970478748,-0.573696523467,-0.011849084442,0.0,-0.00827239557687,0.00884329551098,-0.99992667911,0.0,0.63247360187,0.222935529641,0.303717115115,1.0,-0.101124,-0.132905828571,1.323
0.439381130186,0.394892463119,-0.124977302489,-1.59180470567,0.0642544197454,1.97850085176,0.123907211893,-0.104490550425,-0.466468161534,-0.00526655582551,-0.70259259659,-0.0554221844698,0.250414625735,-0.121014595822,0.573797260505,0.818980889548,0.00278447361959,0.0,0.818947285697,-0.573734188228,-0.0116263239306,0.0,-0.00792434197123,0.00895166228124,-0.99992853372,0.0,0.63122475737,0.221196188026,0.30385175891,1.0,-0.1044,-0.137211428571,1.336
0.437320327317,0.385738838861,-0.125011781156,-1.60576980521,0.0632096505678,1.98301839157,0.121471825936,-0.112421645728,-0.486997124937,-0.000829140815904,-0.737304779413,-0.0575631932194,0.230752500293,-0.13893886281,0.573755234879,0.819011228572,0.00250695516147,0.0,0.818973662856,-0.573692765801,-0.011810881298,0.0,-0.00823518091483,0.00882985522655,-0.999927105069,0.0,0.629143734333,0.218526330123,0.303742655896,1.0,-0.109188,-0.143504228571,1.355
0.435514633393,0.377656721349,-0.125065245288,-1.61765534648,0.062340238188,1.9870573517,0.119362208002,-0.113962951973,-0.503556856373,-0.00247622936881,-0.759543844102,-0.0560745258037,0.256280112425,-0.131257311795,0.573744759141,0.819017998317,0.0026863901259,0.0,0.818982808051,-0.573681683113,-0.0117146694055,0.0,-0.00805354733423,0.00892150927199,-0.999927770915,0.0,0.627406691011,0.216233899704,0.303843535497,1.0,-0.11322,-0.148803428571,1.371
0.433555754883,0.369466067382,-0.125127882083,-1.63003282925,0.0613857617468,1.99109598891,0.117168084914,-0.122866889367,-0.515644790357,-0.00424755515639,-0.7979568501,-0.0585422913891,0.250003910422,-0.129994600163,0.573776625353,0.818996202734,0.0025201203243,0.0,0.818958853678,-0.573714153016,-0.0117988776042,0.0,-0.00821756547064,0.00883396510783,-0.99992721369,0.0,0.625550730766,0.213781682723,0.303768069001,1.0,-0.117252,-0.154102628571,1.387
0.43127904889,0.359862686748,-0.125254772618,-1.64411797053,0.0602696369088,1.99575049013,0.114637502363,-0.124498797948,-0.536627210401,-0.00341188218602,-0.786982083736,-0.0576252676183,0.258368927342,-0.145028673045,0.573841128507,0.818950762308,0.00259904800022,0.0,0.818915043935,-0.573779016892,-0.011684925875,0.0,-0.00807825527784,0.00883386063709,-0.999928349782,0.0,0.623446073033,0.210942337807,0.30385325947,1.0,-0.121788,-0.160064228571,1.405
0.429105193896,0.351215529098,-0.125299406198,-1.65711777897,0.0593438947395,1.99985638426,0.11221762248,-0.136400951975,-0.542527374558,-0.000936177348648,-0.841071242583,-0.0539133482768,0.2492467984,-0.155664465061,0.573860610315,0.81893774556,0.0023907587729,0.0,0.818898217404,-0.573798099267,-0.011924668166,0.0,-0.0083939096335,0.00880105489651,-0.999926039122,0.0,0.621294616749,0.208162256292,0.303742377741,1.0,-0.126072,-0.165694628571,1.422
0.426699198664,0.341633353629,-0.125401787128,-1.67092344685,0.0582783708473,2.00446500988,0.109604707481,-0.144998423933,-0.560389159015,-0.00438882279473,-0.835087956282,-0.0700045708746,0.277976794852,-0.155447109436,0.573916911961,0.81889732205,0.00270203739787,0.0,0.818862210214,-0.573853619795,-0.0117239341834,0.0,-0.00805027935794,0.00894133256664,-0.999927620168,0.0,0.619334566388,0.205487555341,0.303905461852,1.0,-0.130104,-0.170993828571,1.438
0.424377217572,0.332577470702,-0.125406761553,-1.68442897163,0.0571923021354,2.00870358644,0.107012426609,-0.148116594819,-0.572156906875,0.000537345716302,-0.837542998545,-0.0687989299256,0.252231716566,-0.169497161212,0.573815561373,0.818968996236,0.00249632364406,0.0,0.818930812797,-0.57375261197,-0.011874805728,0.0,-0.00829298518208,0.00885843521815,-0.999926374551,0.0,0.617170835159,0.202767532372,0.303801497859,1.0,-0.134136,-0.176293028571,1.454
0.421634599912,0.321957928404,-0.125401585536,-1.69971598581,0.0559291144673,2.01361602028,0.103990730745,-0.16126467457,-0.578797957459,0.00112622625429,-0.87626145654,-0.0647653722497,0.266868853956,-0.164988787294,0.573683551325,0.819060963958,0.00265841310481,0.0,0.819025062344,-0.573620199732,-0.0117711772198,0.0,-0.00811654857311,0.00893040964769,-0.99992718206,0.0,0.614736329619,0.199646871654,0.30390548761,1.0,-0.138672,-0.182254628571,1.472
0.419060089072,0.312404065131,-0.125437181017,-1.71362493396,0.054810706233,2.01796954356,0.101222941527,-0.165212136498,-0.607357496522,-0.00334950905872,-0.863942638981,-0.0723175579564,0.269762123133,-0.186519094456,0.573637562578,0.819093240115,0.0026377449497,0.0,0.819056733158,-0.573573923661,-0.0118223883794,0.0,-0.00817085399741,0.00894240098414,-0.999926632613,0.0,0.612479086077,0.196747445508,0.303896147697,1.0,-0.142704,-0.187553828571,1.488
0.416001180002,0.301361987905,-0.125504084677,-1.7294791636,0.0534488292596,2.02296512806,0.0979380281306,-0.170951406836,-0.612458283853,-0.00518696108377,-0.878036203432,-0.0679709426354,0.267440282901,-0.175022550644,0.573549421002,0.819154680797,0.00272350851795,0.0,0.819119753684,-0.573485995205,-0.0117213194555,0.0,-0.00803983449597,0.00895380800202,-0.99992759257,0.0,0.609905271905,0.193361263104,0.303956483144,1.0,-0.14724,-0.193515428571,1.506
0.413091795815,0.291314116584,-0.125604406554,-1.74389234696,0.0523109005858,2.02731338579,0.0950215927521,-0.179116373604,-0.63667993622,-0.00622498199058,-0.891596847726,-0.0685934057517,0.285723875598,-0.187079155842,0.573679317356,0.819063743473,0.00271511825227,0.0,0.819027995369,-0.573615113967,-0.0118148521559,0.0,-0.00811984050174,0.00900186749264,-0.999926514586,0.0,0.607512690159,0.19020417541,0.303973587185,1.0,-0.151272,-0.198814628571,1.522
0.410104028168,0.281138401722,-0.125719581679,-1.75847670816,0.0510684985841,2.03178128088,0.0919252393121,-0.184459890304,-0.64776040268,-0.00512814103685,-0.928284139734,-0.075541688056,0.280455395802,-0.18967291426,0.573687783989,0.819057797016,0.00272002764234,0.0,0.819022189128,-0.573623646187,-0.0118030992473,0.0,-0.00810730438426,0.00899923010857,-0.999926640046,0.0,0.605079335505,0.186985161181,0.303974997256,1.0,-0.155304,-0.204113828571,1.538
0.40653040562,0.269402838468,-0.125828239732,-1.77509464344,0.0496168351453,2.03678463293,0.0882842813941,-0.202619701778,-0.652454542109,-0.00908010742729,-0.926834854972,-0.0840217456777,0.285652268714,-0.204953051175,0.573689375572,0.819056517346,0.00276923277069,0.0,0.819021684837,-0.57362521061,-0.0117619904986,0.0,-0.00804538814219,0.00901596425944,-0.999926989394,0.0,0.60227100949,0.183245077491,0.304023054283,1.0,-0.15984,-0.210075428571,1.556
0.402952767003,0.258252151678,-0.126017075317,-1.7910595146,0.0481986084016,2.04147839039,0.084814474622,-0.214649697365,-0.66645663691,-0.00772717242954,-0.944375261058,-0.079241816151,0.276284836422,-0.20470941179,0.573867194508,0.818932473645,0.0026064493547,0.0,0.818895595405,-0.5738036819,-0.0118357663934,0.0,-0.00819726103627,0.00892673981864,-0.999926556417,0.0,0.599537771789,0.179531446727,0.303949029755,1.0,-0.164124,-0.215705828571,1.573
0.399453556472,0.247454602355,-0.126122362147,-1.80615839701,0.0468003545011,2.04594391459,0.0813833021936,-0.218389271864,-0.654941058691,-0.00579235074277,-0.962178994546,-0.0897502007265,0.279319523708,-0.226556974953,0.573907143209,0.818904266011,0.00267226182884,0.0,0.81886874021,-0.573843928629,-0.0117421796615,0.0,-0.00808241540244,0.00892732434053,-0.999927486092,0.0,0.596927970483,0.176014743937,0.304004716065,1.0,-0.168156,-0.221005028571,1.589
0.395870531974,0.236484597216,-0.126157960933,-1.82143685634,0.0454774241811,2.05038174909,0.0778154013755,-0.230602438554,-0.689185678973,-0.00369438214318,-0.942114039356,-0.0816944866314,0.278200081813,-0.229723211517,0.573860963939,0.818936258927,0.00278294513866,0.0,0.818901573333,-0.573796692381,-0.0117607782917,0.0,-0.00803463775232,0.00902818354022,-0.999926965582,0.0,0.59421753681,0.172508084766,0.304047677512,1.0,-0.172188,-0.226304228571,1.605
0.391247609842,0.222584938058,-0.126187263677,-1.84086161621,0.0436458906222,2.0559177231,0.0732291460402,-0.238470003853,-0.700035739921,-0.0017387855007,-0.980042461979,-0.10311690614,0.272493162026,-0.236334196247,0.573715733999,0.819038192361,0.00272817123787,0.0,0.819002756947,-0.573651636791,-0.0117911246701,0.0,-0.00809251734569,0.00899930677456,-0.999926759138,0.0,0.590696803551,0.1680311563,0.304016045255,1.0,-0.177228,-0.232928228571,1.625
0.387815460607,0.21256150056,-0.126263918313,-1.85445817967,0.0423908902237,2.05978556287,0.0699250788237,-0.245008918169,-0.722306617198,-0.00679307452296,-0.978195170062,-0.0900178435447,0.272773789341,-0.234747671889,0.573732028959,0.819026017571,0.00294760730085,0.0,0.818993514404,-0.573667250632,-0.0116728667629,0.0,-0.00786958731617,0.00911134421565,-0.999927523875,0.0,0.588235765181,0.164783042848,0.304141136531,1.0,-0.180756,-0.237565028571,1.639
0.383993086248,0.201874418591,-0.126378981942,-1.86929668836,0.0409993826435,2.06375445437,0.0662262889264,-0.258588973768,-0.722553139405,-0.00765258999069,-0.983506014343,-0.0904597177888,0.255244633247,-0.248745916721,0.573733357833,0.819025686827,0.0027758471144,0.0,0.818990346911,-0.573668498574,-0.011832679819,0.0,-0.00809900860035,0.00906236959459,-0.999926137031,0.0,0.585467386113,0.161183982622,0.30407208866,1.0,-0.184536,-0.242533028571,1.654
0.378890318887,0.187981541675,-0.126533414049,-1.88811887666,0.039212463248,2.06892616538,0.0613531708263,-0.277745988587,-0.735751742248,-0.00884855059653,-0.991487265418,-0.0884429363909,0.264697102888,-0.25932323903,0.573764324812,0.819003413765,0.00294188965534,0.0,0.818970194626,-0.573698820591,-0.0117571454158,0.0,-0.00794153650529,0.00915532681324,-0.999926553297,0.0,0.58197105,0.156515950851,0.304152180019,1.0,-0.189324,-0.248825828571,1.673
0.374356065408,0.176057707609,-0.126696259339,-1.90409086441,0.0377103048807,2.07317587042,0.0571442829451,-0.281078490551,-0.745679260259,-0.00729216505772,-1.0051640582,-0.0966035086047,0.270006007919,-0.265887108075,0.573902364112,0.818906088633,0.00310505536791,0.0,0.818874641393,-0.573835869551,-0.0117244787167,0.0,-0.00781960541177,0.00927153566021,-0.999926443494,0.0,0.578957780726,0.152454652254,0.304245765468,1.0,-0.193356,-0.254125028571,1.689
0.369166225958,0.162645858804,-0.126761556176,-1.92237545579,0.0358023600646,2.07781614478,0.0522036373565,-0.297686897981,-0.753007014966,-0.000613792532093,-1.00751818954,-0.105409902123,0.254706084936,-0.284186836787,0.573777540433,0.818994605665,0.00281369631543,0.0,0.818959111592,-0.573711809432,-0.0118945432677,0.0,-0.00812747244779,0.00912929978279,-0.999925297248,0.0,0.575567059044,0.148137943441,0.304128338193,1.0,-0.19764,-0.259755428571,1.706
0.363432844582,0.148126691955,-0.126835005096,-1.94161822397,0.0338117040713,2.0828053282,0.0468336179707,-0.30828240147,-0.750421956122,-0.00445194392579,-1.02103160663,-0.106649286605,0.242104439944,-0.289438528457,0.573662600418,0.819074472338,0.00299608860612,0.0,0.819041742243,-0.573596670455,-0.0117571683293,0.0,-0.00791160231955,0.00919874649361,-0.999926392097,0.0,0.571608948237,0.142982828512,0.304221857161,1.0,-0.20268,-0.266379428571,1.726
0.359315572638,0.1380698616,-0.126937354185,-1.95487552933,0.0324853584985,2.08612292366,0.0430595092388,-0.323354226676,-0.775401707991,-0.00656574105651,-1.01838677927,-0.104541577003,0.260790523372,-0.298992613455,0.573712675704,0.819039054977,0.00308853670211,0.0,0.81900719418,-0.573646028158,-0.0117557288376,0.0,-0.00785682549393,0.00927412298037,-0.999926127739,0.0,0.568973631171,0.139518151113,0.304263614704,1.0,-0.205956,-0.270685028571,1.739
0.352697793453,0.122511014725,-0.127156521213,-1.97544311317,0.030272140319,2.09111472561,0.0369700509996,-0.338914460537,-0.773475501331,-0.0128092281121,-1.02136287513,-0.10297466859,0.252148322941,-0.296631673828,0.573738824431,0.819021064633,0.00300065486304,0.0,0.81898813636,-0.573672568817,-0.0117882649465,0.0,-0.00793359666954,0.00922106354065,-0.999926012278,0.0,0.564822013061,0.13401074177,0.304231985973,1.0,-0.210996,-0.277309028571,1.759
0.347457676997,0.110578888072,-0.127322213682,-1.9908880746,0.0285437836986,2.09487255935,0.0322198124582,-0.353421239957,-0.794991845868,-0.013449118512,-1.03448655235,-0.119045599937,0.239427165694,-0.323930673009,0.573780874644,0.81899116931,0.00311759307848,0.0,0.818960546171,-0.573715140829,-0.0116321923754,0.0,-0.00773820146746,0.00922769290717,-0.999927482331,0.0,0.561690238282,0.129767089005,0.304304667501,1.0,-0.214776,-0.282277028571,1.774
0.34143427978,0.0969394677803,-0.127425428448,-2.00845476988,0.0266235146735,2.09893797075,0.0266774374246,-0.35931281014,-0.806746418421,-0.0057330706205,-1.03154281345,-0.112332340408,0.245641878682,-0.328223032132,0.573686233575,0.819057163822,0.00319604426935,0.0,0.819027483552,-0.573620168656,-0.0116030254544,0.0,-0.00767037334607,0.00927432262571,-0.999927573533,0.0,0.558018859988,0.125006868195,0.304356326415,1.0,-0.21906,-0.287907428571,1.791
0.335145463103,0.0832184758452,-0.127561907656,-2.02626696133,0.0247548574218,2.10278180907,0.0209330643342,-0.371699712907,-0.797455848582,-0.00954329367416,-1.04234802171,-0.105957110932,0.219942874534,-0.344013928448,0.573663748635,0.819073501004,0.00304143969891,0.0,0.819040176997,-0.573596278218,-0.0118846531061,0.0,-0.00798999976835,0.00930903518915,-0.999924748052,0.0,0.554191102185,0.120122603127,0.304267288693,1.0,-0.223344,-0.293537828571,1.808
0.32772307146,0.0675741602701,-0.127765211535,-2.0460323165,0.0224754176769,2.10716190994,0.0142721503126,-0.398541564301,-0.799889223242,-0.0105855279947,-1.04798979709,-0.116877466934,0.216636446307,-0.35073276094,0.573686740624,0.819056853217,0.00318460855548,0.0,0.819025912444,-0.573619374697,-0.0117522175903,0.0,-0.00779913134701,0.00935054835943,-0.99992586765,0.0,0.549960214202,0.114488111074,0.304346569408,1.0,-0.228132,-0.299830628571,1.827
0.321937233567,0.0558871027028,-0.127985896803,-2.0605989543,0.0207484365422,2.11019883768,0.00916177156118,-0.409783745107,-0.827187805854,-0.0127213753794,-1.03242923679,-0.127085459225,0.22605498878,-0.364488356175,0.573808868877,0.81897100287,0.00325965588652,0.0,0.818941418544,-0.573741695819,-0.0116690348186,0.0,-0.00768654864165,0.0093654431996,-0.999926600028,0.0,0.546793838215,0.110167608057,0.304428776853,1.0,-0.22998,-0.302259428571,1.841
0.314073213747,0.0402975008025,-0.128107996742,-2.08033543538,0.0185150369313,2.11412327766,0.00218013739996,-0.417876574457,-0.815560310945,-0.00433522519603,-1.00990708275,-0.121165309414,0.205756653112,-0.369739062023,0.573814203229,0.818967844172,0.00311083356362,0.0,0.818934898305,-0.573745841242,-0.0119201047469,0.0,-0.00797750825872,0.00938767631768,-0.999924112568,0.0,0.542358745018,0.104482329484,0.304322760199,1.0,-0.22998,-0.302259428571,1.86
0.307660643368,0.02791660691,-0.128247535822,-2.09556979557,0.016634051622,2.11715247334,-0.00347549374204,-0.434316766271,-0.8171232399,-0.0112908723248,-1.02134154853,-0.130859048232,0.190059321188,-0.375512676979,0.573822505981,0.818961719568,0.00319067604555,0.0,0.818930357699,-0.573754501355,-0.0118147498764,0.0,-0.00784531417815,0.00939269169531,-0.99992511139,0.0,0.538926772841,0.0999312558766,0.304379694219,1.0,-0.22998,-0.302259428571,1.875
0.30067767152,0.0147940603578,-0.128389264798,-2.11153167397,0.0146753747559,2.12017059463,-0.00965435195505,-0.440074322979,-0.818492555633,-0.00978099212065,-0.987039566486,-0.123452121732,0.193202364375,-0.387935591974,0.573815118969,0.818966456552,0.00330139153017,0.0,0.818936749288,-0.573746994535,-0.0117360056272,0.0,-0.00771738005784,0.00943811002591,-0.9999256793,0.0,0.535268086518,0.0950851053049,0.304456816263,1.0,-0.22998,-0.302259428571,1.891
0.293037102689,0.00102791527768,-0.128575381998,-2.12836835578,0.0126467556773,2.12312434735,-0.0163219773001,-0.45236824925,-0.799590596951,-0.0125936540151,-0.990549997538,-0.116802815553,0.170661141226,-0.401763538485,0.573926603465,0.818888613437,0.00323102456537,0.0,0.818857032243,-0.573857547625,-0.0118921268809,0.0,-0.00788433125672,0.00947113752417,-0.999924064554,0.0,0.531319735805,0.0898786754204,0.304420644265,1.0,-0.22998,-0.302259428571,1.908
0.285369338495,-0.0126557198929,-0.128618311196,-2.14471235266,0.0105861818175,2.12610028418,-0.0231131747201,-0.4531649093,-0.78809917076,-0.00405018248175,-0.975926742453,-0.126863390673,0.169142720957,-0.398620360229,0.57379863045,0.818977412127,0.00344630533818,0.0,0.818949221231,-0.573729571341,-0.0117174619679,0.0,-0.00761923608866,0.00954599649234,-0.999925407814,0.0,0.527463230256,0.084835527165,0.304508979206,1.0,-0.22998,-0.302259428571,1.925
0.277943476671,-0.0254142530918,-0.12873187987,-2.15993446174,0.00859047016925,2.12846221617,-0.0296510486455,-0.470407429931,-0.816019605586,-0.00896801724757,-0.931416222901,-0.113485280803,0.160834714059,-0.407191808372,0.57373781497,0.819020469196,0.00333730612677,0.0,0.818990593569,-0.573668800775,-0.0118009136752,0.0,-0.00775083067918,0.00950403573451,-0.999924796136,0.0,0.523757932942,0.079998229484,0.304510998817,1.0,-0.22998,-0.302259428571,1.941
0.269303183443,-0.0396897145128,-0.128968905438,-2.17678553383,0.00642384090667,2.13114386526,-0.0370669265128,-0.487742588945,-0.779720550062,-0.012826838986,-0.924929685031,-0.117144534954,0.136887760022,-0.424187006298,0.573949759978,0.81887161814,0.00341949218692,0.0,0.818842687237,-0.573880280782,-0.0117823507751,0.0,-0.00768600148771,0.00956268768206,-0.99992473736,0.0,0.519644975365,0.0744592829057,0.304538897103,1.0,-0.22998,-0.302259428571,1.959
0.26112800163,-0.0531168640257,-0.129048589043,-2.19237758824,0.004432620901,2.1335270935,-0.0442545593274,-0.481679665935,-0.768512804862,-0.00239502974787,-0.895873632871,-0.125776982569,0.138984462413,-0.419227057586,0.57389100741,0.818911965589,0.00361263464249,0.0,0.818885484794,-0.573820818572,-0.011703754456,0.0,-0.00751148421792,0.00967519978341,-0.999924981243,0.0,0.515760610973,0.0693962514715,0.304612688006,1.0,-0.22998,-0.302259428571,1.976
0.252766382904,-0.0662573069106,-0.12917967307,-2.20790629774,0.00233287572989,2.13562492107,-0.0516352457849,-0.492004745839,-0.770915278656,-0.00371977558972,-0.90747975457,-0.120171396151,0.112431292949,-0.443379581193,0.573795307875,0.818980012726,0.00338087519056,0.0,0.818949655991,-0.573724844888,-0.0119168037673,0.0,-0.00782008256757,0.00960675762068,-0.999923275315,0.0,0.511784880172,0.0642716392707,0.304487114142,1.0,-0.22998,-0.302259428571,1.993
0.24462398458,-0.0787146147442,-0.129403356963,-2.22205337502,0.000413469725509,2.13751777282,-0.0587050964978,-0.51888629321,-0.78094619178,-0.013557979148,-0.878769730057,-0.115464318112,0.113543755397,-0.451049840782,0.573913039091,0.81889684691,0.0035390088847,0.0,0.818868818933,-0.573842339096,-0.0118141500776,0.0,-0.00764388427942,0.00967846514135,-0.999923946281,0.0,0.50815474987,0.0593591086833,0.304570230789,1.0,-0.22998,-0.302259428571,2.009
0.235419156897,-0.0925122176466,-0.129487934314,-2.23788268885,-0.001672407612,2.13936408533,-0.0667648503453,-0.512717922163,-0.770205314519,-0.00351641277911,-0.874961728856,-0.116446245832,0.102706874138,-0.447165997381,0.573865968076,0.818930136371,0.00346833234822,0.0,0.818899805292,-0.573793796942,-0.0120222454469,0.0,-0.0078554227574,0.00973956172321,-0.999921713571,0.0,0.503960108393,0.0539880566918,0.304511726317,1.0,-0.22998,-0.302259428571,2.027
0.227561843762,-0.103998106368,-0.12960111208,-2.25070628651,-0.00357772831619,2.14085625935,-0.0736121252809,-0.530860412683,-0.757581306325,-0.00838263060016,-0.848155638897,-0.123497893017,0.0930330450316,-0.448187292336,0.573815103881,0.818965575802,0.00351555275533,0.0,0.818936857466,-0.573744013555,-0.0118733859972,0.0,-0.00770701543613,0.0096923305525,-0.999923327381,0.0,0.500544592502,0.0494583197007,0.304573252427,1.0,-0.22998,-0.302259428571,2.042
0.217894977696,-0.117652174942,-0.129821962739,-2.26595795321,-0.00572386288181,2.14239630092,-0.0819790833324,-0.548949505086,-0.761323742677,-0.0094347700598,-0.808054913466,-0.119742783084,0.0937674463535,-0.469772433232,0.57393502665,0.818881590091,0.00350335498125,0.0,0.818852144542,-0.573863249872,-0.0119533562954,0.0,-0.00777808648736,0.0097293669239,-0.999922417385,0.0,0.496387473621,0.0439661779799,0.304567942023,1.0,-0.22998,-0.302259428571,2.06
0.208677625127,-0.13044986145,-0.129918994357,-2.28007057902,-0.00767328772513,2.14373995988,-0.0901211078253,-0.538925964305,-0.766986101739,-0.0109177310214,-0.792367130835,-0.115219856499,0.0723101384675,-0.485799951589,0.573847517162,0.818942561091,0.0035854682329,0.0,0.818913625519,-0.573774747226,-0.011990007763,0.0,-0.00776202597899,0.00981681397945,-0.999921687492,0.0,0.492472763338,0.0388944619111,0.304584151577,1.0,-0.22998,-0.302259428571,2.077
0.199783950258,-0.142425090137,-0.130073826588,-2.29307687986,-0.00961091883422,2.14488204923,-0.0979438800844,-0.556517291194,-0.751445063481,-0.00635207561689,-0.777404734861,-0.126102881926,0.075099821235,-0.498688930559,0.573802065266,0.818974102279,0.00365466743887,0.0,0.818946510699,-0.573729615325,-0.011903277453,0.0,-0.0076518323439,0.00982329146161,-0.999922473198,0.0,0.488814821136,0.034052186104,0.304631745037,1.0,-0.22998,-0.302259428571,2.093
0.19011708679,-0.155022447656,-0.130287622684,-2.30673153529,-0.0116252837381,2.14594812245,-0.106357071449,-0.573800220618,-0.759772722321,-0.00663165461421,-0.812040405316,-0.124353869493,0.0566637792905,-0.494494070482,0.573890237686,0.818912180164,0.00368553512587,0.0,0.818884818436,-0.573817443624,-0.0119139594349,0.0,-0.0076418092794,0.00985552352363,-0.99992223268,0.0,0.484901156702,0.0288692188709,0.304632614687,1.0,-0.22998,-0.302259428571,2.11
0.180421670377,-0.167532320453,-0.130388533349,-2.32000718688,-0.0135634573188,2.14679780572,-0.114931019315,-0.579223793647,-0.749427477455,-0.0103731436954,-0.764356612046,-0.112004626595,0.0549241455552,-0.509634309051,0.573797579154,0.818976599909,0.00379655909824,0.0,0.818950551913,-0.573724235725,-0.0118845178509,0.0,-0.00755510951331,0.00992869289922,-0.99992216766,0.0,0.481010966626,0.0238260017498,0.304694969333,1.0,-0.22998,-0.302259428571,2.127
0.171013864056,-0.179111268568,-0.130551552274,-2.33240311646,-0.0154564402842,2.14748913049,-0.123187399087,-0.597559041488,-0.730610647872,-0.0173954314928,-0.758961693115,-0.12434378292,0.0424565423085,-0.516817877222,0.573797140998,0.818977237369,0.00372458782849,0.0,0.818949806524,-0.573723473782,-0.0119723400991,0.0,-0.00766833819108,0.00992013599478,-0.999921390656,0.0,0.477311593497,0.0189828012622,0.304650053987,1.0,-0.22998,-0.302259428571,2.143
0.159580754153,-0.192877102964,-0.130758304039,-2.34672775635,-0.0176502408735,2.14819592365,-0.133242041482,-0.60581905306,-0.741405209411,-0.00342848422371,-0.743212544235,-0.113646946965,0.0378083764741,-0.534640529755,0.573824990672,0.818957075729,0.00386459508933,0.0,0.818931813281,-0.573751274107,-0.011870448971,0.0,-0.00750421629986,0.00997659221446,-0.999922074137,0.0,0.47297129158,0.013213102634,0.304717240159,1.0,-0.22998,-0.302259428571,2.162
0.150499077301,-0.203574774744,-0.130910630869,-2.35789507923,-0.0193418546135,2.14859801991,-0.141329035782,-0.619051383534,-0.724366654724,-0.00541555612149,-0.747825429398,-0.113655812904,0.0238371322643,-0.534447421606,0.573758468135,0.819003693557,0.00386226411173,0.0,0.818977727693,-0.573683877362,-0.0119598201662,0.0,-0.00757956416952,0.0100253494028,-0.999921018169,0.0,0.469269461845,0.00841575087316,0.304692033449,1.0,-0.22998,-0.302259428571,2.178
0.139847562649,-0.215603683918,-0.131162986559,-2.37021478322,-0.02121546127,2.14889345573,-0.150646712806,-0.62758022297,-0.719954153363,-0.0224187606725,-0.711223405523,-0.11354463673,0.0188876166057,-0.552807337047,0.573942050296,0.818874522306,0.00397322559225,0.0,0.818849558263,-0.573866437969,-0.0119774457718,0.0,-0.00752806930563,0.0101280288006,-0.999920372432,0.0,0.46560948988,0.00351437769702,0.304726973212,1.0,-0.22998,-0.302259428571,2.194
0.129234282098,-0.22750344762,-0.131263807796,-2.38235741991,-0.0231957933445,2.14913623148,-0.160124980093,-0.62265104159,-0.687324085082,-0.0130954951187,-0.712444693436,-0.113553448463,0.00275559946295,-0.561470996507,0.573772505161,0.818993376695,0.00396335114785,0.0,0.818968648644,-0.573697445062,-0.0119306734487,0.0,-0.00749752245717,0.0100915470202,-0.999920970795,0.0,0.461702842701,-0.00152951047618,0.304726817879,1.0,-0.22998,-0.302259428571,2.211
0.117623361379,-0.239967144602,-0.131493057641,-2.39490952864,-0.0252249455716,2.14918953689,-0.170422986261,-0.657248601779,-0.688908174351,-0.011531883531,-0.678548497742,-0.112681776226,0.00101272396689,-0.571252312784,0.573800916048,0.818973353989,0.00398761823197,0.0,0.818948747232,-0.573725502525,-0.0119475545853,0.0,-0.00749707491858,0.0101213675888,-0.999920672746,0.0,0.457564137867,-0.00699200560428,0.304733871696,1.0,-0.22998,-0.302259428571,2.229
0.107741805266,-0.250283667856,-0.131651262056,-2.40505578965,-0.0268286904773,2.14921657737,-0.179190684552,-0.651160903336,-0.679559109871,0.00360377825838,-0.676429621354,-0.106465824861,-0.00767930957766,-0.587109467709,0.573848013771,0.81893937066,0.0041846357589,0.0,0.818917834379,-0.573772609637,-0.0118033837285,0.0,-0.00726536614334,0.0102004175514,-0.999921579893,0.0,0.454169643874,-0.0115383106012,0.304810979343,1.0,-0.22998,-0.302259428571,2.244
0.0965815565051,-0.261779420548,-0.131815855024,-2.41659263548,-0.0286570224943,2.14909117829,-0.189287621729,-0.663976834624,-0.674899118954,-0.0100427107706,-0.665449542981,-0.112374859149,-0.00777537706282,-0.587552097996,0.573707288585,0.819038079113,0.00416159678882,0.0,0.819015318647,-0.573630695388,-0.0119364999919,0.0,-0.00738937063309,0.0102566660382,-0.999920095809,0.0,0.450217743651,-0.0165794695787,0.304739054191,1.0,-0.22998,-0.302259428571,2.261
0.0849117926127,-0.27320727464,-0.132077306622,-2.42755220941,-0.0305663279152,2.14895023293,-0.199580499001,-0.693772667685,-0.672969879794,-0.0037010901563,-0.646642198064,-0.111562953285,-0.00999971561814,-0.607584867074,0.57386297937,0.818927928883,0.00436750553314,0.0,0.818909527473,-0.573788078607,-0.0116264166283,0.0,-0.00701530974805,0.0102487592985,-0.999922871207,0.0,0.446396832463,-0.0218226690371,0.304852376325,1.0,-0.22998,-0.302259428571,2.278
0.0740777579226,-0.283746835682,-0.132188518778,-2.43786608898,-0.0322485210419,2.14855566658,-0.20946883769,-0.690065172,-0.661762083803,-0.0119391573294,-0.628380815198,-0.102584636706,-0.0253301833145,-0.608220578982,0.573655922001,0.819073177843,0.00433121145439,0.0,0.81905354961,-0.573580071008,-0.0117444418876,0.0,-0.00713539814386,0.0102849607726,-0.999921649768,0.0,0.442693670268,-0.02653198494,0.304805911092,1.0,-0.22998,-0.302259428571,2.294
0.0620665136892,-0.294842937545,-0.132465693357,-2.44844049811,-0.0339763971188,2.14808389422,-0.220186128135,-0.714350321099,-0.6509545134,-0.0182237353675,-0.597111376996,-0.100664639744,-0.0269114446443,-0.643434677639,0.573825747746,0.818953334773,0.00449372771417,0.0,0.818935809073,-0.573749340296,-0.0116868314387,0.0,-0.00699283090182,0.0103864793024,-0.999921607609,0.0,0.438585630745,-0.0320497770835,0.304846901433,1.0,-0.22998,-0.302259428571,2.312
0.0493075121806,-0.3064222062,-0.132621011172,-2.45940227355,-0.0359028987393,2.14750449035,-0.23171454604,-0.706177003869,-0.635315143287,-0.0138958986399,-0.617364186329,-0.0956829046427,-0.0379440094261,-0.63036836227,0.573725168443,0.819023663178,0.00451853422331,0.0,0.819006845097,-0.573649275696,-0.0116208036863,0.0,-0.00692579266279,0.0103680576283,-0.999922265367,0.0,0.434693973384,-0.0371257907713,0.304859734671,1.0,-0.22998,-0.302259428571,2.329
0.0377087878226,-0.316543029972,-0.13288253225,-2.46902089788,-0.0375721884402,2.14676221786,-0.242182180194,-0.728757648475,-0.634859687861,-0.0226112013009,-0.599244214551,-0.111875983237,-0.0383150211898,-0.651174222603,0.573777546808,0.818987330123,0.00445272694267,0.0,0.818968614613,-0.573700309801,-0.0117944781256,0.0,-0.0071051341197,0.0104142508469,-0.999920527066,0.0,0.430960386488,-0.0419848119012,0.304802876348,1.0,-0.22998,-0.302259428571,2.345
0.0251983971623,-0.327198924305,-0.133048193092,-2.47868798711,-0.0392740417729,2.14609032858,-0.25353587932,-0.727426545579,-0.622434054743,-0.00390849260335,-0.565660769681,-0.0969929546103,-0.0499313840557,-0.672536447432,0.57374742367,0.819007140977,0.00468441692343,0.0,0.818992979524,-0.573671815832,-0.0114845161854,0.0,-0.00671871215995,0.0104259168781,-0.999923076623,0.0,0.427149865666,-0.0471101135658,0.304926965923,1.0,-0.22998,-0.302259428571,2.362
0.00949226835447,-0.340007445301,-0.133362008116,-2.49059083453,-0.0413316050484,2.14491011943,-0.267842948978,-0.768364566036,-0.601901262853,-0.0165307469005,-0.561828502822,-0.103018914842,-0.0591058721392,-0.673467968118,0.573777557978,0.81898615089,0.00466320838451,0.0,0.818970376611,-0.573699949889,-0.011689167336,0.0,-0.00689811655724,0.010526214078,-0.999920804267,0.0,0.42227575154,-0.0534502207141,0.304865991205,1.0,-0.22998,-0.302259428571,2.383
0.000366183765069,-0.347226303888,-0.133476689719,-2.49720256989,-0.0425767676305,2.14418681792,-0.276163861153,-0.755442450581,-0.603841000655,-0.00397338387394,-0.551185126973,-0.0927145120175,-0.0615984816406,-0.701950519033,0.57371753301,0.819028588727,0.00459456926297,0.0,0.819011865507,-0.573640065295,-0.0117212007929,0.0,-0.00696450361982,0.01048786707,-0.999920747026,0.0,0.419498117021,-0.0570644191243,0.304848323978,1.0,-0.22998,-0.302259428571,2.395
-0.0126920704128,-0.357352128485,-0.133707804003,-2.50610900982,-0.0442060902501,2.1432289307,-0.288143139761,-0.783120306754,-0.575903591562,-0.0168038204816,-0.52919521429,-0.100698060301,-0.0585304472703,-0.710115954559,0.573703035064,0.819037552219,0.00480234475749,0.0,0.819024852834,-0.573627005376,-0.0114497181076,0.0,-0.00662312196608,0.0105021799368,-0.999922916265,0.0,0.415674748592,-0.0621978055807,0.304965501472,1.0,-0.22998,-0.302259428571,2.412
-0.0267995283516,-0.367772032021,-0.133913279869,-2.51556335724,-0.0458966346864,2.14195524968,-0.301109240022,-0.778538383947,-0.575680063436,0.000295350485555,-0.513442315335,-0.0927237079434,-0.0647715170952,-0.724514270211,0.57366211396,0.819066613941,0.00473369157786,0.0,0.819051752351,-0.573584300722,-0.0116629257506,0.0,-0.0068376735761,0.0105679204882,-0.9999207795,0.0,0.41147613616,-0.0676173672288,0.304897092906,1.0,-0.22998,-0.302259428571,2.43
-0.0394557911774,-0.376826817059,-0.13415795485,-2.52365412024,-0.0473911823764,2.14078643776,-0.312743661705,-0.807066680825,-0.561800299383,-0.0214289708758,-0.494627391,-0.0947054108979,-0.0796618221303,-0.723714271756,0.573686149602,0.819049919179,0.00470941057337,0.0,0.819033905349,-0.573607125143,-0.0117929969233,0.0,-0.00695783567673,0.0106228504538,-0.999919368535,0.0,0.407771264906,-0.0724347909463,0.30485943896,1.0,-0.22998,-0.302259428571,2.446
-0.0532189546853,-0.386279538273,-0.134360959695,-2.53175845249,-0.0489939553977,2.13966413695,-0.325365233718,-0.812925518946,-0.548979293877,-0.00247361147949,-0.482996554747,-0.0882240699231,-0.0768519255887,-0.74917214491,0.573718404591,0.819026616248,0.00483125363561,0.0,0.819013871084,-0.573641624943,-0.0115026956178,0.0,-0.00664973371153,0.0105563751636,-0.999922168964,0.0,0.403946071157,-0.0776124078369,0.304956566152,1.0,-0.22998,-0.302259428571,2.463
-0.0670937830282,-0.395496969185,-0.134634728294,-2.53987349779,-0.0504958313736,2.13830235514,-0.338271372506,-0.822180967085,-0.53697718017,-0.0233367190373,-0.474821144659,-0.0898405337894,-0.0822761818878,-0.763739065847,0.573700146102,0.819039488067,0.00481728669804,0.0,0.81902536436,-0.573621524532,-0.0116852911437,0.0,-0.00680754660278,0.0106495382661,-0.999920119132,0.0,0.399987705126,-0.0827424665168,0.304903412126,1.0,-0.22998,-0.302259428571,2.48
-0.0803030599436,-0.403945975922,-0.134809048811,-2.54722986876,-0.0519351677692,2.1369685454,-0.350538950095,-0.816331634081,-0.531290142095,-0.00807351856112,-0.46152812155,-0.0751763759447,-0.0849719387376,-0.776043298381,0.573637851045,0.819083588792,0.00473680499432,0.0,0.819067705599,-0.573558398081,-0.0118154363786,0.0,-0.00696112977086,0.0106577507267,-0.999918974228,0.0,0.396278738382,-0.0875384302782,0.304862507425,1.0,-0.22998,-0.302259428571,2.496
-0.0945919583294,-0.412739239265,-0.135094769249,-2.55456841665,-0.0532478356608,2.13571209302,-0.363829436223,-0.85908121147,-0.522666925252,-0.0291434723869,-0.42475887942,-0.0838618676532,-0.0705999458683,-0.785122499847,0.573755075897,0.818999824676,0.005014674786,0.0,0.818988245932,-0.573675803216,-0.0116220794312,0.0,-0.00664181130626,0.0107753942328,-0.999919885402,0.0,0.392442746307,-0.0927006921374,0.304949084063,1.0,-0.22998,-0.302259428571,2.513
-0.109868404849,-0.421771435218,-0.135289816437,-2.56218616925,-0.0548295982586,2.13416894235,-0.378183313215,-0.850805055147,-0.497865980018,-0.0184195380838,-0.419851858085,-0.0838350517326,-0.0957629307772,-0.79817610209,0.573603260858,0.819106502333,0.00495821231857,0.0,0.819094314017,-0.573524385935,-0.0116202575235,0.0,-0.00667470132962,0.0107268676507,-0.999920188151,0.0,0.388302978432,-0.0981140123879,0.304956784245,1.0,-0.22998,-0.302259428571,2.531
-0.123709516477,-0.429530704055,-0.135565011965,-2.56881913585,-0.056114475292,2.13271691083,-0.391039205097,-0.874896611956,-0.485066166528,-0.0210718509667,-0.408650512305,-0.0805919516668,-0.0833320162617,-0.801909484137,0.573734443918,0.819014784689,0.00493124977633,0.0,0.819000679646,-0.573653143018,-0.0118619200218,0.0,-0.00688639352388,0.010844497796,-0.999917483821,0.0,0.384554599774,-0.102966359116,0.304889572441,1.0,-0.22998,-0.302259428571,2.547
-0.139287445661,-0.437953122568,-0.13573486279,-2.57586042015,-0.0575539210008,2.13122861523,-0.405787858937,-0.868563580711,-0.470055882573,-0.013506898693,-0.375800202479,-0.0848982122836,-0.0828959236905,-0.825624688481,0.573565598681,0.819133093399,0.00492201274199,0.0,0.819118936859,-0.573484467153,-0.0118524307086,0.0,-0.00688615295574,0.010830068872,-0.999917641861,0.0,0.380444505728,-0.10833085418,0.304877572772,1.0,-0.22998,-0.302259428571,2.565
-0.153565414872,-0.445280831578,-0.135995111521,-2.58163146331,-0.0587499622705,2.12991554483,-0.419135507129,-0.892504167115,-0.45141603379,-0.0133741738082,-0.361045413806,-0.0770134658208,-0.0748882592936,-0.836871755917,0.573708513738,0.819031815303,0.00511602261639,0.0,0.819021716713,-0.573629213299,-0.0115628760901,0.0,-0.00653578919972,0.0108240624789,-0.99992005837,0.0,0.376833851937,-0.113257759795,0.305005913383,1.0,-0.22998,-0.302259428571,2.581
-0.166856149546,-0.451837862907,-0.136138783191,-2.58708567383,-0.0598016243442,2.12857919906,-0.431756642233,-0.891426471143,-0.426636541602,-0.0072308749722,-0.365626998694,-0.0763279674114,-0.0985952513277,-0.851080073761,0.573628882952,0.819087547442,0.00512261361287,0.0,0.819076532887,-0.573547925324,-0.0117114273978,0.0,-0.00665474805893,0.0109140357423,-0.999918295738,0.0,0.373374296861,-0.117712209367,0.304963380494,1.0,-0.22998,-0.302259428571,2.596
-0.183099256748,-0.459466522035,-0.136394714943,-2.59333658917,-0.0611742543166,2.12694403503,-0.447177795044,-0.890385965264,-0.420134606696,-0.00596744594714,-0.338153170576,-0.0738207405189,-0.0802076618137,-0.859964123656,0.573571102358,0.819128387708,0.00506180715379,0.0,0.819115835378,-0.57348914498,-0.011840427508,0.0,-0.00679606968315,0.0109377440389,-0.999917086159,0.0,0.369191589255,-0.123146193593,0.304930840466,1.0,-0.22998,-0.302259428571,2.614
-0.198646173461,-0.466269548338,-0.136647410931,-2.59889465509,-0.0623109288177,2.12557173859,-0.461930678395,-0.932522702332,-0.389735798813,-0.0150251103389,-0.32143852332,-0.0716084041013,-0.083132820359,-0.869078395711,0.573622764501,0.819091757035,0.00513463783763,0.0,0.819079711791,-0.573539830143,-0.0118842699962,0.0,-0.00678951899827,0.0110229777159,-0.999916194685,0.0,0.36528672807,-0.128294423518,0.304900912509,1.0,-0.22998,-0.302259428571,2.631
-0.213377267587,-0.472485095428,-0.136808384386,-2.60373825067,-0.0633731819441,2.1242285293,-0.475923641324,-0.912048342291,-0.381557490676,-0.0153172485427,-0.294014390065,-0.0621044403916,-0.0884572354076,-0.881968420761,0.573626249361,0.81908892513,0.00519669842399,0.0,0.819078382417,-0.573544239118,-0.0117624883518,0.0,-0.00665411560972,0.0110039872763,-0.999917314086,0.0,0.361654138319,-0.133116113974,0.30496139062,1.0,-0.22998,-0.302259428571,2.647
-0.229263213701,-0.478803482613,-0.137090207044,-2.60864097381,-0.0644764695502,2.12286747489,-0.491053842227,-0.945874346982,-0.367417668569,-0.0133675758633,-0.294510261159,-0.0645135168951,-0.0751857499496,-0.884669191632,0.573708255659,0.819030798474,0.00530428513837,0.0,0.819022362411,-0.573627070657,-0.0116232775381,0.0,-0.00647726544453,0.011012910459,-0.999918377087,0.0,0.357766594396,-0.138304349077,0.305017705048,1.0,-0.22998,-0.302259428571,2.664
-0.246031985034,-0.485059105254,-0.137214675138,-2.61368446699,-0.0654737365588,2.12134243762,-0.507213510755,-0.936744857505,-0.34200807103,-0.00354590363044,-0.277133398188,-0.0507031116523,-0.0834044002643,-0.898550571296,0.573592489916,0.819111668222,0.00533642155655,0.0,0.819102230679,-0.573508818679,-0.0118286725948,0.0,-0.00662864654111,0.0111561273569,-0.999915797389,0.0,0.35362781233,-0.143620201466,0.304964063864,1.0,-0.226368,-0.297512228571,2.682
-0.26112017926,-0.490155591229,-0.137359498221,-2.61778612294,-0.0663688633425,2.12008936653,-0.521588414236,-0.922589629628,-0.313519230007,-0.00328655605092,-0.249634614105,-0.0457264147587,-0.0713990353085,-0.897363772335,0.573669835333,0.81905752878,0.00533211767143,0.0,0.819047027911,-0.573584479861,-0.0119815455517,0.0,-0.00675528520958,0.0112409228175,-0.99991400019,0.0,0.349980366935,-0.14840022604,0.304912737538,1.0,-0.222336,-0.292213028571,2.698
-0.276951625892,-0.495220824439,-0.137431922828,-2.62172113447,-0.0671751563406,2.11894635516,-0.536769809336,-0.940288938445,-0.288451424501,-0.00796470424192,-0.231587621008,-0.0532132453897,-0.0665724886039,-0.888627348105,0.573688241731,0.819043964099,0.00543443407525,0.0,0.819035163914,-0.573603121063,-0.0118998605253,0.0,-0.00662942822713,0.011278019802,-0.999914424814,0.0,0.34624326572,-0.153362741318,0.304928754868,1.0,-0.218052,-0.286582628571,2.715
-0.293506753465,-0.500191489412,-0.137414305347,-2.62553325112,-0.067907373304,2.11764313054,-0.552616409565,-0.913895591848,-0.269161052979,0.000662481372717,-0.201323890563,-0.0338877582339,-0.0748171052806,-0.869497000014,0.573726579486,0.819016542827,0.00551919089278,0.0,0.819008440314,-0.573640441927,-0.0119400578938,0.0,-0.0066132011591,0.0113708114225,-0.999913481366,0.0,0.342343389458,-0.158464009927,0.304946056578,1.0,-0.213516,-0.280621028571,2.733
-0.30729420316,-0.503941212966,-0.137435839382,-2.62841416732,-0.0685265289163,2.11671206008,-0.56571871255,-0.917986544778,-0.239324835193,0.00064514755455,-0.193243613346,-0.0382529673976,-0.0648147444795,-0.869850650856,0.573874138302,0.818912825478,0.00556817354358,0.0,0.81890549292,-0.573788016979,-0.0119101695251,0.0,-0.00655856559467,0.011394965562,-0.999913566253,0.0,0.339142918524,-0.16271721783,0.304955334566,1.0,-0.209736,-0.275653028571,2.748
-0.322552081528,-0.507842840673,-0.13735542964,-2.63135280185,-0.0690699890856,2.11576591863,-0.580477575428,-0.889041431684,-0.220418054635,0.00580665642693,-0.172461593551,-0.0288977142395,-0.0587909869664,-0.86776186967,0.573824593846,0.818946763076,0.00568169385557,0.0,0.818941457608,-0.57373903511,-0.0117964190791,0.0,-0.00640095290839,0.0114222699487,-0.999914276101,0.0,0.33564795172,-0.167358365064,0.304991941936,1.0,-0.205452,-0.270022628571,2.765
-0.337744322607,-0.511416212743,-0.137315598428,-2.63408183171,-0.0696700793192,2.11481603368,-0.595030393074,-0.878458943139,-0.200351916012,0.0085759892752,-0.156471164989,-0.0328688603618,-0.0543122599201,-0.859606794007,0.573906356827,0.818889317109,0.00570322884689,0.0,0.818884297528,-0.573820715679,-0.0117915401815,0.0,-0.00638345832967,0.0114377446269,-0.999914211049,0.0,0.332146011146,-0.171961943041,0.304996241753,1.0,-0.201168,-0.264392228571,2.782
-0.3516889649,-0.514364341657,-0.137187210789,-2.63641102777,-0.0700651145924,2.11395193971,-0.608575211842,-0.875780778288,-0.176014764681,0.00468886700343,-0.142945885318,-0.0216942909166,-0.0537917755076,-0.837172369525,0.57383984144,0.818935587441,0.00575212144066,0.0,0.818930175337,-0.573752191341,-0.011938917694,0.0,-0.00647703699676,0.0115618350576,-0.999912182125,0.0,0.328944084565,-0.176113858021,0.304957261796,1.0,-0.197136,-0.259093028571,2.798
-0.366423527446,-0.517128113634,-0.137071900132,-2.63863133325,-0.0705009479853,2.1131698853,-0.622780043068,-0.84394084117,-0.152317845638,0.0163244269869,-0.120993699592,-0.0152885292092,-0.0403216809545,-0.836494319548,0.573877929932,0.818908793309,0.00576686033473,0.0,0.81890270892,-0.573788676272,-0.0120687699359,0.0,-0.00657438924459,0.0116487225317,-0.999910538333,0.0,0.325586936798,-0.180502338522,0.304903855947,1.0,-0.192852,-0.253462628571,2.815
-0.38168672534,-0.519756160553,-0.136948167322,-2.6406626185,-0.070864262058,2.11245210753,-0.637522518332,-0.852001172141,-0.140341983176,0.00441487806376,-0.104100848319,-0.0162858919991,-0.0428177390194,-0.823199847432,0.57394390991,0.818861975578,0.00584808770627,0.0,0.81885673005,-0.57385391326,-0.0120867195088,0.0,-0.00654153294468,0.0117260707923,-0.999909849742,0.0,0.322143025091,-0.185030917022,0.30488992832,1.0,-0.188316,-0.247501028571,2.833
-0.394994508952,-0.521778807719,-0.136754554469,-2.64218395763,-0.071135783691,2.1118489389,-0.650458148472,-0.814504705385,-0.117219661298,0.0151570620988,-0.0906867772038,-0.0133423645227,-0.0301414502915,-0.807117095569,0.57390701656,0.818887558386,0.00588642207126,0.0,0.818882737105,-0.573816730432,-0.0120900640642,0.0,-0.00652280115954,0.0117590884135,-0.999909584365,0.0,0.319174170271,-0.188948393485,0.30489509276,1.0,-0.184284,-0.242201828571,2.849
-0.408953731195,-0.523736323257,-0.136632842282,-2.64357917642,-0.0714059959284,2.11127696148,-0.663953118001,-0.829070237667,-0.11089519367,0.0063428595545,-0.0740098122223,-0.0168950888076,-0.0372334641253,-0.794054837525,0.574003901707,0.818819050557,0.00596910140866,0.0,0.818815758078,-0.573914073039,-0.0120057482545,0.0,-0.00640490739946,0.0117791674214,-0.999910110148,0.0,0.316060541167,-0.193072134232,0.304933306887,1.0,-0.18,-0.236571428571,2.866
-0.423348840675,-0.525443833423,-0.1364025288,-2.64483480081,-0.0716166473414,2.11076108132,-0.678029038633,-0.795122360052,-0.0836299620259,0.00752828942519,-0.0668952813245,-0.0102373141345,-0.0288501651815,-0.773063613301,0.57393913715,0.818864055832,0.00602260867585,0.0,0.818861652412,-0.573849458525,-0.0119641155429,0.0,-0.00634103553498,0.0117985846029,-0.999910288311,0.0,0.312872700854,-0.197278664362,0.304949942909,1.0,-0.175464,-0.230609828571,2.884
-0.435221084306,-0.526650186614,-0.136293019017,-2.64572332464,-0.0717875497374,2.11038450858,-0.689514981867,-0.791265807861,-0.0724049948611,0.00422794366903,-0.0603036157206,-0.00716560836328,-0.0241320190747,-0.757497822214,0.574053268251,0.818783591456,0.00608460961578,0.0,0.81878207253,-0.573963458508,-0.0119420644323,0.0,-0.0062857438466,0.0118375782988,-0.999910176548,0.0,0.310232697995,-0.200762662164,0.304958101309,1.0,-0.171684,-0.225641828571,2.899
-0.448984967744,-0.527824171766,-0.136008024487,-2.64662982181,-0.0719311715556,2.10999639572,-0.702987127301,-0.752042931778,-0.0612277807222,0.00807165171789,-0.0478511743006,-0.0014717387074,-0.012574623886,-0.742117362341,0.573976997523,0.818836951765,0.0060991508061,0.0,0.818835503113,-0.573886920064,-0.0119569529032,0.0,-0.00629069311183,0.0118574454383,-0.999909910026,0.0,0.307191298856,-0.204740439953,0.304949383491,1.0,-0.167148,-0.219680228571,2.917
-0.462601605435,-0.528703540782,-0.13584309896,-2.64732584406,-0.0720582602726,2.10966779176,-0.716189430293,-0.756214554628,-0.0421997958064,0.00750771461716,-0.0377523738336,-0.00510762674078,-0.0206095964201,-0.727720360412,0.574105417671,0.81874652117,0.00615226570531,0.0,0.818745401327,-0.574014406352,-0.0120073314217,0.0,-0.0062995929702,0.0119308429806,-0.999908980915,0.0,0.304170142294,-0.20870398016,0.304930340599,1.0,-0.162612,-0.213718628571,2.935
-0.473533597124,-0.529223356581,-0.135571245666,-2.64774470504,-0.0721139778208,2.10945137979,-0.726967601197,-0.712851995351,-0.0354684523583,0.0111472569203,-0.0254407200573,-0.00334348782643,-0.00698395544836,-0.716750289071,0.573991668469,0.818826300271,0.00614828548637,0.0,0.818824930133,-0.573900323017,-0.0120374388928,0.0,-0.00632819036399,0.0119439890268,-0.999908643393,0.0,0.301776810608,-0.211847463381,0.304918207983,1.0,-0.158832,-0.208750628571,2.95
-0.485751251115,-0.52962888446,-0.135382982105,-2.64808991841,-0.0721462268749,2.10923410226,-0.738904251932,-0.723034200069,-0.0235128382758,0.00461305818138,-0.0199479477037,-0.00198844444716,-0.0148450822692,-0.700051652823,0.57405545946,0.818781132397,0.00620754352788,0.0,0.818780026308,-0.573962880446,-0.012108975659,0.0,-0.00635182353077,0.0120340679317,-0.999907413487,0.0,0.299077605304,-0.215380797884,0.30489555471,1.0,-0.154548,-0.203120228571,2.967
-0.497617146684,-0.529870501105,-0.135103257818,-2.64828511474,-0.0721603855085,2.10908309607,-0.750547048937,-0.683627353956,-0.00703811254701,0.0187339121238,-0.00459571061724,-0.000676605790245,-0.00710740815172,-0.679568615579,0.573995964842,0.818822751728,0.00621936485038,0.0,0.818821675313,-0.573903109978,-0.0121256462308,0.0,-0.0063595646248,0.0120528548086,-0.999907138003,0.0,0.296331257561,-0.218982880894,0.304887927307,1.0,-0.150012,-0.197158628572,2.985
-0.508451482892,-0.530002915746,-0.134878396214,-2.64840852396,-0.0721740334664,2.10897991808,-0.761229010402,-0.674733675875,-0.0097805223124,0.0123115891516,-0.00792532962346,-0.00101066038033,-0.00348454617023,-0.658172297775,0.573977092795,0.818835856701,0.00623567386298,0.0,0.818834881284,-0.573883956667,-0.0121403614082,0.0,-0.00636253254385,0.0120745090856,-0.999906857867,0.0,0.29408476847,-0.221898581978,0.304878414447,1.0,-0.146232,-0.192190628572,3.0
-0.520515206113,-0.52999918339,-0.134626315808,-2.64840605049,-0.0721708889935,2.10890301611,-0.77292474264,-0.654461822313,0.00310905162491,0.0198576821584,0.0013272807461,0.000289849594581,-0.00681690497373,-0.631144755349,0.574102191048,0.818748030838,0.00625165054817,0.0,0.818747308166,-0.574009039795,-0.0121331985124,0.0,-0.00634565063491,0.0120844505714,-0.999906845047,0.0,0.291421131801,-0.225360791927,0.304878058385,1.0,-0.141696,-0.186229028572,3.018
-0.530683992197,-0.529865559369,-0.134368141855,-2.64830792665,-0.0721712714224,2.10890001248,-0.783034192948,-0.638638690638,0.00798353499739,0.0075092083815,0.00689153031537,-0.000615002623962,-0.00224529165904,-0.632740558444,0.573974308988,0.818837856316,0.00622933281421,0.0,0.818837078017,-0.573881733568,-0.012097208072,0.0,-0.00633087349965,0.0120445272179,-0.999907420417,0.0,0.289184635193,-0.228271675668,0.30488024039,1.0,-0.137664,-0.180929828572,3.034
-0.54080889244,-0.529673183116,-0.134178516831,-2.64815689043,-0.0721656652949,2.10889885199,-0.792868314232,-0.630284640634,0.0118792517861,0.00550698687033,0.012333459248,-0.00114130126833,-0.00032316980255,-0.617839447038,0.574089761287,0.818756859811,0.00623677800587,0.0,0.818756349173,-0.573997453188,-0.0120710945843,0.0,-0.0063035181671,0.0120365251395,-0.9999076896,0.0,0.286928761873,-0.23117495942,0.304883429584,1.0,-0.133632,-0.175630628572,3.05
-0.551565603548,-0.529247900804,-0.133807333404,-2.64783704359,-0.0721072937665,2.10892311933,-0.803584367805,-0.588891817726,0.0219465318936,0.0196426139039,0.0210074290108,0.00876999043998,-0.000369390063529,-0.59247777713,0.57390452368,0.818887107363,0.00618465800986,0.0,0.8188859358,-0.573812518949,-0.0120732824167,0.0,-0.00633794314813,0.0119936717719,-0.999907986924,0.0,0.284576320141,-0.234227131164,0.304885141404,1.0,-0.129096,-0.169669028572,3.068
-0.560975723593,-0.528782158104,-0.133554509754,-2.64752798517,-0.0720788437453,2.10895925148,-0.812863409824,-0.586698925473,0.0349506566384,0.0184239899229,0.0204740845953,0.00772633020103,0.00629267423821,-0.57672445783,0.573871718395,0.81891035529,0.00615042482345,0.0,0.818908427994,-0.573779288935,-0.0121268730517,0.0,-0.00640195879501,0.0119961351634,-0.999907549559,0.0,0.282354937363,-0.237070251448,0.304866478824,1.0,-0.124812,-0.164038628572,3.085
-0.570200573563,-0.528230990701,-0.133348798998,-2.64709526729,-0.0720078715979,2.10905884451,-0.821808894543,-0.560299664282,0.0397215222676,0.0196854283658,0.0297309937955,0.00128255861559,0.0108347925421,-0.559424127045,0.573984261528,0.818831429665,0.00615663967595,0.0,0.818829905224,-0.573892385319,-0.0120773873634,0.0,-0.00635621810909,0.0119737014802,-0.99990811026,0.0,0.280324596188,-0.239711720228,0.304876835821,1.0,-0.12078,-0.158739428572,3.101
-0.579916142701,-0.527412134793,-0.133011106105,-2.64651281011,-0.0718543728409,2.10920513357,-0.831581433929,-0.540617983286,0.049156160826,0.0182898843008,0.0365661699994,0.00714199546586,0.0114725212271,-0.533429927661,0.573815663458,0.818949616072,0.00615285354927,0.0,0.818947818552,-0.573723419191,-0.0121101470777,0.0,-0.00638768710659,0.0119880888799,-0.999907737333,0.0,0.278329890894,-0.242320682794,0.304860776,1.0,-0.116496,-0.153109028572,3.118
-0.589026493255,-0.526617035698,-0.132747073845,-2.64591338804,-0.0716875977245,2.10932584749,-0.840402908899,-0.533394905766,0.0431461933824,0.0151541609264,0.0376885472937,0.00929892684332,0.00682314043833,-0.505807233542,0.573970698905,0.818840693906,0.00618883697523,0.0,0.81883925792,-0.57387805901,-0.0121239422873,0.0,-0.00637606232348,0.0120266818552,-0.999907348084,0.0,0.276324661597,-0.244918742825,0.304859504349,1.0,-0.112212,-0.147478628572,3.135
-0.597220420029,-0.525736131801,-0.132492225018,-2.64525318976,-0.0715265904399,2.10948214111,-0.848486547244,-0.494383746526,0.0595519781509,0.017577072228,0.0430760325006,0.017010350465,0.0113153849954,-0.499667829261,0.573986782077,0.818829282342,0.00620703486924,0.0,0.818828009869,-0.57389391783,-0.0121329400361,0.0,-0.00637274971843,0.0120468731573,-0.999907126141,0.0,0.274538076625,-0.247269801996,0.304857032176,1.0,-0.10818,-0.142179428572,3.151
-0.605863793815,-0.524698824466,-0.132121310698,-2.64449962912,-0.0713206915988,2.10964671253,-0.857218458276,-0.480827053011,0.0568874032668,0.0161372102791,0.0401193620693,0.0112166074167,0.0119229426766,-0.47515921316,0.573782315588,0.818972607438,0.00620237742944,0.0,0.818970883951,-0.57368878123,-0.0121909980108,0.0,-0.00642598280004,0.0120747780709,-0.999906448864,0.0,0.272667368713,-0.249721505398,0.304843080312,1.0,-0.103644,-0.136217828572,3.169
-0.613479023584,-0.52380491592,-0.131829065044,-2.6438130986,-0.0711336847484,2.10980956414,-0.864630980596,-0.468043592698,0.0556194400693,0.0171924559922,0.0488183772623,0.0108427021543,0.0115474893468,-0.45893702186,0.573859609031,0.818918357551,0.00621447420702,0.0,0.818916833276,-0.573766080167,-0.0121841014453,0.0,-0.0064122532935,0.012081333833,-0.999906457815,0.0,0.271003175767,-0.251885417138,0.30484875982,1.0,-0.0996120000001,-0.130918628572,3.185
-0.620786520365,-0.522826438632,-0.131595215566,-2.64303699174,-0.0709437246245,2.10999257881,-0.871781993496,-0.444481662419,0.0639644832061,0.0176704395739,0.0521946307634,0.00864732845058,0.0124164621611,-0.43706960855,0.573946206515,0.818857444976,0.00624369564392,0.0,0.818856472305,-0.573852847304,-0.0121546001957,0.0,-0.00637004498106,0.012089010014,-0.999906634823,0.0,0.269410379004,-0.253992005582,0.304864110751,1.0,-0.0955800000001,-0.125619428572,3.201
-0.628411381564,-0.521723343574,-0.131217382402,-2.64219748293,-0.0707012070278,2.11020313496,-0.879448673544,-0.415487481909,0.0564569992799,0.0142408836137,0.044625941352,0.0117791450413,0.00775646680277,-0.419138782609,0.573794337615,0.818963872389,0.00624345615994,0.0,0.818962885412,-0.573700991309,-0.0121536739423,0.0,-0.00637166556167,0.0120871008751,-0.999906647578,0.0,0.267771898122,-0.256154219032,0.304868160254,1.0,-0.0910440000001,-0.119657828572,3.219
-0.63551996632,-0.520706861274,-0.130932286817,-2.64139955075,-0.0704856873189,2.11038862951,-0.886381484844,-0.417750443436,0.0599152070803,0.0119203107723,0.0510804119466,0.0173181764977,0.00504441801436,-0.390310983879,0.573872063163,0.818909248154,0.00626460770567,0.0,0.818908621773,-0.573778764764,-0.0121385828486,0.0,-0.00634602106369,0.012096367738,-0.9999066986,0.0,0.266215666294,-0.258179032239,0.304880291027,1.0,-0.0867600000001,-0.114027428572,3.236
-0.641855316971,-0.519709970712,-0.130667326808,-2.6405966152,-0.0702681166338,2.11059083037,-0.892629361188,-0.388197901243,0.0676716356708,0.0130122224864,0.0499255718119,0.0182902593009,0.00900008895274,-0.383502903966,0.57389249279,0.81889476293,0.00628656241012,0.0,0.81889473382,-0.573799686179,-0.0120864372043,0.0,-0.00629041370099,0.0120845810933,-0.999907192491,0.0,0.264845556369,-0.259997923723,0.30490248967,1.0,-0.0827280000001,-0.108728228572,3.252
-0.648954354364,-0.518498452064,-0.130383039768,-2.63968625197,-0.0700036471396,2.11084086555,-0.899605011192,-0.3605749582,0.0662804185453,0.0170854956024,0.0503026023024,0.0249853789149,0.0133451075258,-0.367547288849,0.573954591938,0.818850875421,0.00633380747322,0.0,0.818851423206,-0.573861484849,-0.012086762217,0.0,-0.00626264823646,0.0121239333632,-0.999906890404,0.0,0.263298957876,-0.26203266683,0.304898740749,1.0,-0.0779400000001,-0.102435428572,3.271
-0.654872173378,-0.517455543481,-0.130019643745,-2.63892458145,-0.069769592594,2.11103875205,-0.905571554587,-0.342325441445,0.0597718153282,0.0242931196681,0.046388768083,0.0133718229701,0.0194121983214,-0.336949112061,0.573798377982,0.818960401406,0.00632686773587,0.0,0.818960587917,-0.573704813757,-0.0121280258708,0.0,-0.00630273980658,0.0121407306401,-0.999906434688,0.0,0.262025382442,-0.26369185117,0.304886578992,1.0,-0.0736560000001,-0.0968050285715,3.288
-0.65962141115,-0.516624066789,-0.129770523742,-2.63828970726,-0.0695925681091,2.11121246673,-0.910202741472,-0.33326769464,0.0629534541639,0.0155260765844,0.0470121279623,0.0118166911583,0.01179510006,-0.337314338622,0.573828152324,0.818939544403,0.0063262244355,0.0,0.818939782998,-0.573734701019,-0.0121190581601,0.0,-0.00629532268764,0.0121352872602,-0.999906547491,0.0,0.260993302173,-0.265037608497,0.304889524828,1.0,-0.0701280000001,-0.0921682285715,3.302
-0.665331573619,-0.515508492577,-0.129454251091,-2.63745460199,-0.0693442558438,2.11144522658,-0.915802945436,-0.307723117163,0.0574647210365,0.0115590061439,0.0466532197363,0.0163840462597,0.0138047893135,-0.307846270857,0.573844737959,0.818927822115,0.00633922583617,0.0,0.818928174478,-0.573751116066,-0.0121263663143,0.0,-0.00629360202874,0.0121502560717,-0.999906376543,0.0,0.259767736389,-0.266663452656,0.304885078736,1.0,-0.0655920000001,-0.0862066285715,3.32
-0.670458057877,-0.514491164942,-0.129228785813,-2.63671261603,-0.0691204739876,2.11164382992,-0.920778941978,-0.298841198748,0.0544087768134,0.0118141211944,0.0445793893113,0.0116652277084,0.0127406972864,-0.293279281602,0.573943423062,0.818858314063,0.00638400465645,0.0,0.818858978232,-0.573849045391,-0.0121652691852,0.0,-0.00629829809903,0.0122100108492,-0.999905619084,0.0,0.258642337519,-0.268127024894,0.304869082818,1.0,-0.0613080000001,-0.0805762285715,3.337
-0.674949591406,-0.513627547608,-0.128953424361,-2.63605274109,-0.0689051905172,2.1118437494,-0.925179095116,-0.275026396234,0.0498022570078,0.0243304964077,0.0388098916762,0.018950941591,0.00917730741213,-0.26805265092,0.573949745232,0.818853794218,0.00639535334183,0.0,0.818854780177,-0.573855650866,-0.0121362206822,0.0,-0.00626790137511,0.0122026813629,-0.999905899563,0.0,0.257675886335,-0.269393806096,0.304873587456,1.0,-0.0572760000001,-0.0752770285715,3.353
-0.679326936202,-0.51273216895,-0.128573857927,-2.6353777126,-0.068697493863,2.11203746857,-0.929517418502,-0.250813556487,0.0495662038798,0.0205585465152,0.0384334687276,0.0189780032772,0.00825453138839,-0.258892414252,0.57383647253,0.818933537399,0.00634909584376,0.0,0.818933954418,-0.573742683454,-0.0121350066492,0.0,-0.00629513783559,0.0121632337559,-0.999906209094,0.0,0.256759019203,-0.270608963682,0.30487496117,1.0,-0.0529920000001,-0.0696466285715,3.37
-0.683689118457,-0.511811294514,-0.128231958819,-2.63467008693,-0.0684692907309,2.11222205758,-0.933777078041,-0.243431493463,0.0467065644913,0.0128735750294,0.0368332247118,0.0139151166154,0.0170662629594,-0.226609311014,0.573819917626,0.818945233829,0.00633664147224,0.0,0.818945552337,-0.573726312728,-0.0121263057818,0.0,-0.00629540358306,0.0121479140203,-0.999906393658,0.0,0.255791039595,-0.271896967882,0.304881092143,1.0,-0.0482040000001,-0.0633538285715,3.389
-0.687070793912,-0.511086883717,-0.128009138816,-2.63413736115,-0.0682761253876,2.11237807283,-0.937004237579,-0.222585954984,0.0486513392469,0.0114264199162,0.0336342266301,0.0157282785496,0.00913269032451,-0.21257270717,0.573890914864,0.818895299704,0.00636025630191,0.0,0.818895810706,-0.57379696259,-0.0121426451751,0.0,-0.00629418049499,0.0121771754374,-0.999906045431,0.0,0.255112640778,-0.27277937542,0.304872258592,1.0,-0.0446760000001,-0.0587170285715,3.403
-0.690571440255,-0.510354119871,-0.127736125656,-2.6335964446,-0.0680782064682,2.11253960666,-0.94041029314,-0.199749759031,0.0380605323658,0.0152136693988,0.0296899586018,0.00707633106164,0.0164840279546,-0.197132298379,0.573887150716,0.81889789719,0.00636546318961,0.0,0.818898445182,-0.573793115342,-0.0121467759863,0.0,-0.00629463154986,0.0121837811456,-0.999905962124,0.0,0.254364448183,-0.273748867095,0.304866896775,1.0,-0.0403920000001,-0.0530866285715,3.42
-0.693953647805,-0.509657280713,-0.127459463724,-2.6330573422,-0.0678504049265,2.11270409197,-0.943620963052,-0.180475804351,0.038035746563,0.0159864083341,0.0292444944175,0.00795026639675,0.0118806555332,-0.169351611834,0.573956156351,0.818849350785,0.00638891279898,0.0,0.818850413662,-0.573862403679,-0.0121115065025,0.0,-0.00625126273702,0.0121832721738,-0.999906240401,0.0,0.253649736972,-0.274683240855,0.304874198725,1.0,-0.0358560000001,-0.0471250285715,3.438
-0.696651825576,-0.509091341293,-0.127199270889,-2.63260467592,-0.0676601077702,2.11283791746,-0.946194698357,-0.159084443152,0.0344390039612,0.0166931324601,0.0290832413852,0.0162804472155,0.0159098579021,-0.153845103783,0.573977542561,0.818834336826,0.00639189893842,0.0,0.818835703112,-0.573884288089,-0.0120690552553,0.0,-0.00621446613204,0.0121615158848,-0.999906734622,0.0,0.253092263579,-0.275424463431,0.3048876063,1.0,-0.0318240000001,-0.0418258285715,3.454
-0.699326372212,-0.508503636368,-0.126867076816,-2.6321439506,-0.0674376052755,2.11295607319,-0.948780396786,-0.14041425368,0.03328173328,0.0186871139881,0.0250253116304,0.017442832031,0.00310265583949,-0.139133257515,0.573932579637,0.818865867141,0.00639003627894,0.0,0.81886729586,-0.573839513229,-0.0120545314614,0.0,-0.00620430850246,0.0121513140166,-0.99990692173,0.0,0.252557948309,-0.276139830921,0.304896872298,1.0,-0.0272880000001,-0.0358642285715,3.472
-0.701393311922,-0.508033182336,-0.126557805297,-2.63181431305,-0.067260555137,2.11306077197,-0.950685618654,-0.120087695672,0.027569839988,0.0190204990081,0.0216321207014,0.0126198164528,0.00831312425832,-0.110818519395,0.573942378026,0.81885915492,0.0063700871169,0.0,0.818860281168,-0.573849315843,-0.0120643911224,0.0,-0.00622368681044,0.0121407104041,-0.999906930106,0.0,0.252129089286,-0.276707586276,0.304893303433,1.0,-0.0230040000001,-0.0302338285715,3.489
-0.703292509145,-0.507623885463,-0.126242816545,-2.63149385061,-0.0670651210378,2.11313248226,-0.952491573506,-0.105658498802,0.0286345409241,0.0154166115527,0.0187123709786,0.0189132993036,0.00847802078031,-0.0932833705746,0.573889296164,0.81889639409,0.00636540618296,0.0,0.818897402128,-0.573796155207,-0.0120732745234,0.0,-0.00623443541012,0.0121415713682,-0.999906852692,0.0,0.251789707991,-0.277158219333,0.304895508411,1.0,-0.0199,-0.0261542857143,3.505
-0.704893161544,-0.507259224222,-0.126025850765,-2.63124907874,-0.0669089395433,2.11322334392,-0.95397779104,-0.0939657118924,0.0235855852392,0.012974665777,0.0190737182973,0.00615437175161,0.00239082938282,-0.0950104382418,0.573907856782,0.818883283666,0.00637860151629,0.0,0.818884374968,-0.573814479254,-0.0120859725343,0.0,-0.0062369870491,0.0121598058241,-0.999906615197,0.0,0.251469908286,-0.277573391848,0.304884163059,1.0,-0.01958,-0.0257337142857,3.521
-0.706525926105,-0.506877861,-0.125854632374,-2.63095538061,-0.0667709227475,2.11326395911,-0.955610854618,-0.083592238536,0.0184384097432,0.00739505990537,0.00998514561722,0.0039025914627,8.02589970522e-05,-0.0861769184243,0.573859658561,0.818916887966,0.00640076421773,0.0,0.818918052971,-0.573765770674,-0.0121165103325,0.0,-0.00624999585199,0.0121951126468,-0.999906103981,0.0,0.251130751078,-0.278012972422,0.304883400729,1.0,-0.01922,-0.0252605714286,3.539
-0.707841290893,-0.506565233309,-0.125750722283,-2.63069911529,-0.0667378828978,2.11334963818,-0.956833981955,-0.0873184400914,0.0170378896524,0.0040882804272,0.0192409460171,0.00104375707992,0.00219822202426,-0.0763040863029,0.573888230899,0.818897212999,0.00635609001876,0.0,0.818898033187,-0.573795002965,-0.0120852271697,0.0,-0.00624958648051,0.0121407930035,-0.999906767561,0.0,0.250853635549,-0.278394507421,0.30489333803,1.0,-0.01892,-0.0248662857143,3.554
-0.709338030056,-0.506195000356,-0.125690883085,-2.6304225116,-0.0666690068945,2.11340779285,-0.958401403037,-0.0758409738159,0.0178624200688,-0.000753455097628,0.00892672812275,0.00784496397487,0.000770410275977,-0.0916825822106,0.57383140303,0.81893690393,0.00637300389877,0.0,0.818937773222,-0.573737777762,-0.0121092056035,0.0,-0.00626036278284,0.0121679703338,-0.999906369795,0.0,0.250517490893,-0.278827326689,0.30488770228,1.0,-0.01856,-0.0243931428572,3.572
-0.71076641238,-0.505841121772,-0.12566997815,-2.63013546726,-0.0666081580392,2.11345981471,-0.959854892949,-0.0798399604151,0.0179257346629,0.000914125018485,0.0152601088628,0.000297115989325,0.00141022205849,-0.0787049741712,0.57384139617,0.818929727453,0.00639534484317,0.0,0.818930881109,-0.573747652957,-0.0121074189202,0.0,-0.0062459314364,0.0121853181697,-0.999906248786,0.0,0.250172777582,-0.279278964912,0.304892926623,1.0,-0.01818,-0.0238937142857,3.591
-0.711886983876,-0.505565293678,-0.125642963508,-2.62992682836,-0.0665795907663,2.11354991868,-0.960981600329,-0.0778160332487,0.0174196534834,-0.000165069223545,0.0174570475171,0.000116784360554,0.00421660406163,-0.0838682406959,0.573827831322,0.818939230647,0.00639557724927,0.0,0.818940522898,-0.573734354778,-0.0120854045509,0.0,-0.00622796942611,0.0121727732244,-0.999906513625,0.0,0.249921554173,-0.279613843007,0.304890393004,1.0,-0.0179,-0.0235257142857,3.605
