nelsonifechukwu/NELSON_IML_WORK/CNN-GradCAM/train2dof/data_sample_2022-02-22-11-42-46/robot_state.csv
position_joint1,position_joint2,position_joint3,position_joint4,position_joint5,position_joint6,position_joint7,velocity_joint1,velocity_joint2,velocity_joint3,velocity_joint4,velocity_joint5,velocity_joint6,velocity_joint7,ee_T_00,ee_T_10,ee_T_20,ee_T_30,ee_T_01,ee_T_11,ee_T_21,ee_T_31,ee_T_02,ee_T_12,ee_T_22,ee_T_32,ee_T_03,ee_T_13,ee_T_23,ee_T_33,v_x,v_y,time
0.465061727684,0.547786793789,-0.124008418724,-1.35584724636,0.0795716237575,1.89409603642,0.159150975091,-0.000202764363315,-0.000647499161933,0.000139466398266,-0.00122659496229,0.000470797415941,0.000904840653644,-0.00247308314328,0.573842453277,0.818951616167,0.00195859532149,0.0,0.818908002154,-0.573783275134,-0.0119659552688,0.0,-0.00867589620601,0.00847064559517,-0.999926485792,0.0,0.661676430002,0.260880580767,0.303204026729,1.0,0.0,0.0,0.0
0.465061725091,0.547794484723,-0.12400172016,-1.35584474058,0.0795701864606,1.89409791002,0.159149422903,-0.000734083674338,0.00110464064662,0.0010112900686,2.22338403887e-05,7.58526824211e-05,-0.000106617957965,-0.00123349961584,0.573836013233,0.818956134207,0.00195628800114,0.0,0.818912473269,-0.573776829183,-0.0119690567228,0.0,-0.00867982681115,0.00847046752018,-0.999926453189,0.0,0.661675716859,0.260884545549,0.303199709321,1.0,-0.00026,-0.000341714285714,0.014
0.465058819113,0.547784576228,-0.124009245784,-1.35584842054,0.0795695892523,1.89409709912,0.159150975091,-0.00141816965359,-0.00135167738336,-0.000874431483388,-0.000248361368302,-0.000172022711319,2.59805437753e-05,0.00155567597929,0.573844941656,0.818949871304,0.00195911416632,0.0,0.818906287513,-0.573785783922,-0.0119629988572,0.0,-0.00867315150188,0.00846940035222,-0.999926520151,0.0,0.661677494686,0.26087781019,0.303205154715,1.0,-0.00058,-0.000762285714286,0.03
0.465059857836,0.547761751799,-0.124006898685,-1.355872392,0.0795701996038,1.89410032948,0.159153275263,-0.000646143698851,-0.00108098971132,4.83388987008e-05,-0.0023973760636,-4.37205901984e-05,0.000173777230648,-0.000305012498473,0.57384578771,0.818949269222,0.00196297455541,0.0,0.81890569789,-0.573786576615,-0.0119653399876,0.0,-0.00867284496781,0.00847391414773,-0.999926484567,0.0,0.661672403343,0.260877629046,0.303210118584,1.0,-0.00092,-0.00120914285714,0.047
0.465071180191,0.54766917501,-0.124002369124,-1.35599135437,0.0795707538873,1.89412263595,0.159145455505,0.00251964531134,-0.00432136904606,0.000690709672354,-0.0111385872793,-6.57937709243e-05,-0.00062571983134,-0.00077322040281,0.573833581254,0.818957814754,0.00196610746115,0.0,0.818914160121,-0.573774237135,-0.0119778985466,0.0,-0.00868145895544,0.00848355699394,-0.999926328052,0.0,0.661648001439,0.260876440753,0.303220868434,1.0,-0.00126,-0.001656,0.064
0.465060287863,0.547526021236,-0.124004395876,-1.35617346031,0.0795674433858,1.89414829015,0.159150820841,0.000451013771931,-0.011108070583,-0.00058606772991,-0.0153489538042,-0.000328378960757,0.00531655537926,0.00191339298639,0.573857301153,0.818941207274,0.00196057217419,0.0,0.818897366175,-0.573797865961,-0.0119941482172,0.0,-0.00869769754927,0.00848860034708,-0.999926144133,0.0,0.661618640507,0.260849527523,0.303237890651,1.0,-0.0016,-0.00210285714286,0.081
0.465047066388,0.547368481744,-0.124006369609,-1.3563869944,0.0795614540868,1.89424833717,0.159138392316,-0.000589150863959,-0.0138850447651,-0.000438756061244,-0.0156600149894,-0.000112891144092,0.00796073058044,-0.000984824652126,0.573869820806,0.818932336824,0.0020008430474,0.0,0.818888999695,-0.573810192904,-0.0119756252477,0.0,-0.00865928935217,0.00851108214127,-0.999926286378,0.0,0.66159803683,0.260822190595,0.303256594286,1.0,-0.00194,-0.00254971428571,0.098
0.465028000748,0.547195974251,-0.124003813649,-1.35659369651,0.0795603095288,1.89436157679,0.15912808458,0.00107232708837,-0.00883124839984,9.97120804891e-05,-0.0151869042189,-6.6343964012e-05,0.00587605861982,-0.000914288732703,0.573881243789,0.818924134306,0.00208018733953,0.0,0.818881793912,-0.573821246811,-0.011938643496,0.0,-0.0085833528531,0.0085549558283,-0.999926566696,0.0,0.661581686278,0.260798604493,0.303291026004,1.0,-0.00228,-0.00299657142857,0.115
0.465010489937,0.546990934171,-0.124007082132,-1.35685692524,0.079559777633,1.89450406993,0.159117914796,0.00110899433267,-0.0133462858038,-0.00140075761147,-0.0155655292959,-5.49888098643e-05,0.00888706433902,0.00103342655716,0.573909814705,0.818903924675,0.00215258866754,0.0,0.818862453062,-0.573849443645,-0.0119099073911,0.0,-0.0085179720932,0.00859805231988,-0.999926756142,0.0,0.66156105136,0.260763876411,0.30332257426,1.0,-0.0026,-0.00341714285714,0.131
0.464975362835,0.546766185009,-0.124007318339,-1.35722172581,0.0795492877621,1.89463304633,0.159082230457,-0.00179972124984,-0.0134702895164,-0.00115515463669,-0.0254946572103,6.65375620437e-05,0.00635352468559,-0.00290767675326,0.573927149428,0.81889178482,0.00214914045311,0.0,0.818850155101,-0.573866676004,-0.0119251232287,0.0,-0.0085322296287,0.00860414163097,-0.999926582207,0.0,0.661518818393,0.260707202963,0.303319308196,1.0,-0.00294,-0.003864,0.148
0.464936785371,0.54648337938,-0.124004534175,-1.35762503051,0.0795405476283,1.89478307508,0.158965831894,-0.0032309655781,-0.0163925294168,0.000516454787115,-0.0269131808266,0.000291598878584,0.0187117280502,-0.0106940723592,0.573881699301,0.818923542621,0.00218482270327,0.0,0.818882220552,-0.573820927615,-0.0119247136626,0.0,-0.00851189564743,0.00863265361247,-0.999926509762,0.0,0.661473569274,0.260647908125,0.303340548717,1.0,-0.00328,-0.00431085714286,0.165
0.464892044854,0.546210271987,-0.124006744084,-1.35807955884,0.0795281953921,1.89493492231,0.158945249396,-0.00149904464332,-0.015052072716,-0.000992958112692,-0.0335145893589,6.4616184574e-05,0.00998777897827,0.00113497839106,0.573925111516,0.818893166283,0.0021669072154,0.0,0.818851461055,-0.573864255838,-0.0119518827229,0.0,-0.00854396898722,0.00863402699563,-0.999926224364,0.0,0.661419586136,0.26057496755,0.303330840477,1.0,-0.0036,-0.00473142857143,0.181
0.464841273193,0.5458932837,-0.124004542956,-1.35861055729,0.0795076279651,1.89512083892,0.158886829026,-0.000697895677165,-0.0140789312789,2.06721184614e-05,-0.0336956580575,0.000344191065711,0.0140569984573,-0.00784678458342,0.573941526881,0.818881707738,0.00214926868791,0.0,0.818839636353,-0.573880604373,-0.0119770097869,0.0,-0.00857449569992,0.00863417591004,-0.999925961774,0.0,0.661356976307,0.260493074933,0.303318586334,1.0,-0.00394,-0.00517828571429,0.198
0.464771091549,0.545545052943,-0.12400770318,-1.35921331205,0.0794374796072,1.89532227967,0.158779885762,-0.00280880187023,-0.0228834550266,-9.06271684872e-05,-0.0351855016628,-0.00649498915316,0.0128645456158,-0.00020837139899,0.57392861639,0.818890923691,0.00208453524989,0.0,0.818848285242,-0.57386824195,-0.0119780439822,0.0,-0.00861262874127,0.00858162554756,-0.999926086433,0.0,0.661290807577,0.260380157971,0.303295708675,1.0,-0.00428,-0.00562514285714,0.215
0.464703806315,0.545143668104,-0.12400559968,-1.3599037565,0.0793899807306,1.89554481201,0.158732078525,-0.00245337548846,-0.0255798170513,0.00629810554243,-0.038410900695,-0.000597888180107,0.0120114092023,0.000593279866496,0.573968884122,0.818862850561,0.00202458182288,0.0,0.81881941748,-0.573908744277,-0.0120108992718,0.0,-0.00867352099603,0.00855181401013,-0.999925815504,0.0,0.661206789447,0.260267598305,0.30327039526,1.0,-0.00462,-0.006072,0.232
0.464638151721,0.544709404913,-0.124013394806,-1.36061956098,0.0793661930649,1.89579189083,0.158614179862,-0.00374576688584,-0.0251695501426,-0.000633780134773,-0.0453851739493,-0.000775064485245,0.0107112098793,-0.00387849262391,0.573965117933,0.81886554085,0.0020040721169,0.0,0.81882166492,-0.57390489369,-0.0120416343174,0.0,-0.00871050030697,0.00855262039292,-0.999925487158,0.0,0.661123141689,0.26015332115,0.303258748279,1.0,-0.00496,-0.00651885714286,0.249
0.464567859721,0.544251559246,-0.124013768036,-1.36137657463,0.0793359270747,1.8960759087,0.158536471565,-0.00780875469399,-0.0292240576616,0.0013407124053,-0.0468858686891,0.000259584365968,0.0112499953257,-0.00701648930714,0.573993565885,0.818845614788,0.00199809040839,0.0,0.818801518562,-0.573933224288,-0.01206126697,0.0,-0.00872971317071,0.00855929389075,-0.999925262505,0.0,0.661037779461,0.260037159067,0.303247086207,1.0,-0.0053,-0.00696571428571,0.266
0.464504402647,0.54377058087,-0.124014368707,-1.36215148513,0.0793024551585,1.89634738308,0.158423976152,-0.00310749245646,-0.0311061772536,-0.00085031795651,-0.0517338814782,-0.0012074163698,0.0150871156252,-0.00951014244553,0.573989606427,0.818848407207,0.00199113781105,0.0,0.818804052987,-0.573929131687,-0.0120839362102,0.0,-0.00875230843263,0.00856657043217,-0.999925002672,0.0,0.660939556091,0.25991188122,0.30324731361,1.0,-0.00564,-0.00741257142857,0.283
0.464419120378,0.543228871586,-0.124017310706,-1.36300692098,0.0792506626848,1.89663959941,0.158345009843,-0.00491846016109,-0.0372193533102,0.00108241412432,-0.0504853217055,-0.00185506505849,0.0172805641107,-0.00192740733422,0.574028963294,0.8188208757,0.00196716008993,0.0,0.818776199054,-0.573968579306,-0.0120976333596,0.0,-0.00877687564137,0.00855522051159,-0.999924884507,0.0,0.660846051411,0.259781145541,0.303243617431,1.0,-0.00596,-0.00783314285714,0.299
0.464343795507,0.5426724672,-0.124024318685,-1.36390348647,0.0791971771292,1.89695947255,0.158202805062,-0.00448337210413,-0.0281046492845,-0.00099080334787,-0.0499280882809,-0.00742093865328,0.0148169526383,-0.00548244665094,0.574014693087,0.818830924256,0.00194846195635,0.0,0.818786001905,-0.573954391668,-0.0121072817032,0.0,-0.00879565771408,0.00854529548951,-0.999924804338,0.0,0.660742076812,0.259641236837,0.303238385037,1.0,-0.0063,-0.00828,0.316
0.464275599656,0.542068942502,-0.124024416572,-1.36483015941,0.0791519172383,1.89730490079,0.158090320294,-0.00139577308421,-0.0404197575809,0.000522859655042,-0.0504022517271,3.40669788825e-05,0.0204494448316,-0.00492635848504,0.574017949838,0.818828582377,0.00197302996499,0.0,0.818783880962,-0.573957442565,-0.0121060853444,0.0,-0.00878054252056,0.00856476032013,-0.999924770647,0.0,0.660633473342,0.259510163776,0.303254076365,1.0,-0.00664,-0.00872685714286,0.333
0.46419608432,0.541469725603,-0.124027530222,-1.36573824104,0.0790982257128,1.89764509841,0.157963185364,-0.00224451231696,-0.0372729384471,0.00594632194739,-0.0569647006351,-0.000235264735571,0.0258977985357,-0.00224873407037,0.574017245833,0.818829011296,0.00199966184001,0.0,0.81878466459,-0.573956628778,-0.0120916589062,0.0,-0.00875345046979,0.00857827835032,-0.999924892302,0.0,0.660531955314,0.259370303805,0.303275116096,1.0,-0.00696,-0.00914742857143,0.349
0.464109435454,0.540785838098,-0.124026937619,-1.36678863001,0.0790373049384,1.89803043599,0.157826868514,-0.00750657930747,-0.0388252522722,-0.00120938434529,-0.0593218753629,-0.00116174762627,0.0260405175612,-0.00813978527635,0.574018126172,0.818828350923,0.00201728827892,0.0,0.818784196205,-0.573957394758,-0.0120870156902,0.0,-0.00873952186303,0.00859005524466,-0.999924913035,0.0,0.660410061097,0.259213999788,0.303291982389,1.0,-0.0073,-0.00959428571429,0.366
0.464018699856,0.540060555877,-0.124030101631,-1.36790458008,0.0789637987677,1.89844365995,0.157687587341,-0.00623021401342,-0.0452656578068,0.000918345733473,-0.0692480397061,-0.00139862407127,0.022617850915,-0.0142492423505,0.574022767548,0.818825060436,0.00203215173113,0.0,0.818781164556,-0.57396203487,-0.0120720336952,0.0,-0.00871867363879,0.00859367520751,-0.99992506393,0.0,0.660282094226,0.259045446604,0.303309315974,1.0,-0.00764,-0.0100411428571,0.383
0.463919793227,0.539324795074,-0.124030814965,-1.36904258021,0.0789061345473,1.89888367221,0.157550646376,-0.0113272441659,-0.0460368268791,0.000461351850245,-0.0645957812155,-0.00917688464303,0.0275772402017,-0.00075397040062,0.574039817793,0.818813014853,0.00206910537616,0.0,0.818769524791,-0.57397884811,-0.0120620934179,0.0,-0.00868914364947,0.00861840826446,-0.999925108106,0.0,0.660155105403,0.258874824524,0.30332571749,1.0,-0.00798,-0.010488,0.4
0.463810405135,0.538556592033,-0.124030690044,-1.37023550163,0.0788373342139,1.8993406798,0.157410070879,-0.00588636690485,-0.0497305739334,0.000411316200043,-0.0759935451283,-0.00577956030393,0.0216248898362,-0.00267693809865,0.574061822695,0.818797515872,0.00209729035193,0.0,0.818754378568,-0.57400071468,-0.0120496482414,0.0,-0.00866254266712,0.00863457493341,-0.999925199438,0.0,0.660022557281,0.258691041604,0.303340203097,1.0,-0.00832,-0.0109348571429,0.417
0.463704742349,0.537774450318,-0.124041752193,-1.37146051232,0.0787603245714,1.89980666374,0.157246535278,-0.00897101551319,-0.0432422350406,-0.00139012095477,-0.0715167375912,-0.000832243870144,0.0223193627126,-0.0100586995323,0.574069292654,0.818792241726,0.00211163987128,0.0,0.818749380761,-0.574008211695,-0.0120320950778,0.0,-0.00863985381907,0.00863632642348,-0.999925380612,0.0,0.659886530442,0.258498896146,0.30335026039,1.0,-0.00866,-0.0113817142857,0.434
0.463583230109,0.536943956464,-0.124039627722,-1.3727581061,0.0786927978223,1.90029223835,0.157092223178,-0.00500798920647,-0.0456087022316,-0.000406272781746,-0.0743106058269,-0.000826856789758,0.0284402596818,-0.0097382550467,0.57409442502,0.818774564951,0.00213303796807,0.0,0.81873187144,-0.574033138527,-0.0120343450869,0.0,-0.0086291473214,0.00865540323393,-0.999925308116,0.0,0.659739138372,0.258298838056,0.303361058754,1.0,-0.009,-0.0118285714286,0.451
0.463470797731,0.536147286749,-0.124051118142,-1.3739926504,0.0786227625992,1.90075940829,0.156938703862,-0.00699164059094,-0.0517911805854,-0.000146424671128,-0.0782587035579,-4.06558525381e-06,0.0272145244616,-0.00713772370252,0.574118103061,0.818757899626,0.00215695154611,0.0,0.818715539956,-0.574056734889,-0.0120198445612,0.0,-0.00860329576498,0.00866690697311,-0.999925431232,0.0,0.659602431669,0.258102271752,0.303376676901,1.0,-0.00932,-0.0122491428571,0.467
0.463355707955,0.535251815903,-0.124047727523,-1.37540210766,0.078539270078,1.90126533597,0.156766237323,-0.00896798397942,-0.0515120238138,0.0012889682816,-0.082731988846,-0.0112077670247,0.0343837153911,-0.0121729301397,0.574123704594,0.818753985491,0.00215173578595,0.0,0.818711486003,-0.574062285361,-0.0120308816758,0.0,-0.00861526782886,0.00866903206578,-0.999925309732,0.0,0.659433171846,0.257893602257,0.303381480525,1.0,-0.00966,-0.012696,0.484
0.463220599225,0.53434935468,-0.124055262829,-1.37686574054,0.0784597723331,1.9018008704,0.156586598715,-0.00664013603008,-0.0581888768054,4.6535175348e-05,-0.0879104937369,-0.00523453620517,0.0353759988286,-0.00641065250983,0.574151552142,0.818734509929,0.0021317423801,0.0,0.818691673936,-0.574090137933,-0.0120500396726,0.0,-0.00864213743685,0.00866395552694,-0.999925121864,0.0,0.659264490094,0.257661714293,0.303368201199,1.0,-0.01,-0.0131428571429,0.501
0.463094880497,0.533426686324,-0.124061904367,-1.37835203277,0.078376123578,1.90235124599,0.156403638487,-0.00586758639566,-0.054365284184,-0.00194472098572,-0.0843569447682,-0.00264496273121,0.0320460375584,-0.0143957216687,0.57416837232,0.818722742415,0.00212089147972,0.0,0.818679719192,-0.574106956451,-0.0120609634386,0.0,-0.00865713318688,0.00866152134834,-0.999925013235,0.0,0.659091256627,0.257434468674,0.303359456588,1.0,-0.01034,-0.0135897142857,0.518
0.462971979966,0.532537033943,-0.124057810537,-1.37978372123,0.0782974499559,1.90289210714,0.156219787022,-0.00724028619632,-0.0556089710213,-0.00194772410505,-0.091417581718,-0.0016151053923,0.0371319781722,-0.0083000490253,0.574182601457,0.818712769572,0.00211849597567,0.0,0.818669643633,-0.574121122541,-0.0120705487517,0.0,-0.00866620596242,0.00866521426093,-0.999924902648,0.0,0.658915598206,0.257200659665,0.303348778554,1.0,-0.01068,-0.0140365714286,0.535
0.462812608948,0.531447058709,-0.12405883761,-1.38154338584,0.0781996579394,1.90353457023,0.155999521608,-0.0096558213164,-0.0594589386501,0.00218815540771,-0.0910287711507,-0.00910808767781,0.0389834846362,-0.0201205563557,0.574193503418,0.818705161859,0.00210368211877,0.0,0.818661699866,-0.574131944362,-0.0120945664074,0.0,-0.00869426023446,0.00866699230357,-0.999924643702,0.0,0.658717298519,0.256949140599,0.303338551306,1.0,-0.01104,-0.0145097142857,0.553
0.462672724918,0.530422604975,-0.124064263201,-1.38318763429,0.0780870194396,1.90410953624,0.155786557857,-0.00735075189078,-0.061482454449,-0.00142574870147,-0.0987196233458,-0.00992770799688,0.0369134067044,-0.0116698762825,0.574196507214,0.818703173401,0.00205715048481,0.0,0.818659169772,-0.57413521523,-0.0121105442562,0.0,-0.00873402663484,0.00863810363059,-0.999924547126,0.0,0.658518484357,0.256692943501,0.303327789232,1.0,-0.01138,-0.0149565714286,0.57
0.462540832682,0.529446036801,-0.12406485304,-1.38473605476,0.078000716445,1.90467333951,0.155570493357,-0.0095471471311,-0.0577820616247,-0.000639318753481,-0.097318540196,-0.00603388503923,0.0351624576866,-0.0135464011474,0.574188926621,0.818708497851,0.00205401899575,0.0,0.818664349165,-0.574127546326,-0.0121239786033,0.0,-0.00874690382912,0.00864317279277,-0.99992439076,0.0,0.658333526227,0.25645907023,0.303327588848,1.0,-0.0117,-0.0153771428571,0.586
0.462420473932,0.528400556196,-0.124068277645,-1.38632455188,0.0778969038676,1.90529156711,0.155362039062,-0.00599631359063,-0.0672364269531,0.000263601216346,-0.0952752077561,-0.00760781867863,0.0316825757687,-0.0128730908977,0.574177559965,0.81871632178,0.00211210448805,0.0,0.81867305222,-0.574116048957,-0.0120806787559,0.0,-0.00867822287469,0.00866574452108,-0.999924793832,0.0,0.658150117435,0.256228169277,0.303361374978,1.0,-0.01202,-0.0157977142857,0.602
0.462292183526,0.52736324039,-0.124073362733,-1.38795443926,0.0777939345221,1.90592248166,0.15511956281,-0.0115632634086,-0.0696267268727,-6.85778315497e-05,-0.104693951034,-0.00337391201027,0.0413185345029,-0.015131871329,0.574152796801,0.818733620806,0.00213798729619,0.0,0.81869073663,-0.574091225825,-0.0120618857372,0.0,-0.0086482381411,0.00867588286278,-0.999924965702,0.0,0.657948275226,0.255968559425,0.303368080185,1.0,-0.01236,-0.0162445714286,0.619
0.462142173472,0.526204291944,-0.124074504642,-1.38976909609,0.0776821243212,1.90659248067,0.15488103927,-0.006421628906,-0.0644672115478,-0.00220506340705,-0.106571751451,-0.00887259563843,0.0359496365526,-0.0242897863571,0.574144556029,0.818739367747,0.0021502055697,0.0,0.818696670232,-0.574082961504,-0.0120524836923,0.0,-0.00863361272055,0.00868040116344,-0.999925052875,0.0,0.657744697533,0.255714916953,0.30338057628,1.0,-0.01268,-0.0166651428571,0.635
0.461996910804,0.525016953863,-0.124075214969,-1.39161761759,0.0775737248563,1.9072560545,0.154625888178,-0.00897514867675,-0.0696674483251,-0.000307442786262,-0.113587579847,-0.00214837732126,0.0385334083629,-0.0248524361782,0.574125347746,0.818752825138,0.00215483281771,0.0,0.818710100418,-0.574063647946,-0.0120601194708,0.0,-0.00863741199709,0.00868837095565,-0.999924950846,0.0,0.657517583674,0.255442644021,0.30339347633,1.0,-0.01302,-0.017112,0.652
0.461842104046,0.523921670205,-0.124077622008,-1.39340645238,0.0774581585259,1.90789303531,0.154393906602,-0.00877603004614,-0.0689423334853,-0.00125432932367,-0.110850927383,-0.00329344052705,0.038868207765,-0.0126241295072,0.574121701703,0.81875551422,0.00210391757136,0.0,0.818712134952,-0.574060230223,-0.0120846621845,0.0,-0.00868677564298,0.00866073641046,-0.999924762957,0.0,0.657286108917,0.255150673299,0.303370673847,1.0,-0.01336,-0.0175588571429,0.669
0.4616699464,0.522619335843,-0.124080894461,-1.3954426437,0.0773351248786,1.90868042463,0.154118325396,-0.0126047055547,-0.0775514227086,-0.00177312428773,-0.114039207939,-0.00938780710652,0.0405486604253,-0.0171737046533,0.574122643257,0.818754748149,0.00214471064739,0.0,0.818711922916,-0.5740610186,-0.0120615546081,0.0,-0.00864442675862,0.00868087892545,-0.999924955298,0.0,0.657062905884,0.254859938372,0.303382131599,1.0,-0.0137,-0.0180057142857,0.686
0.461504200545,0.521389506022,-0.124085912208,-1.3974317471,0.0772144190583,1.9094433765,0.153843363532,-0.00781066406692,-0.0754523459703,-0.000105069060029,-0.119477000033,-0.0051931479921,0.0410642947863,-0.016923760418,0.574110875158,0.818763001712,0.00214405074838,0.0,0.81872019111,-0.574049278154,-0.0120590969889,0.0,-0.00864291806707,0.00867880345822,-0.999924986355,0.0,0.656828647423,0.254560403153,0.303365812019,1.0,-0.01404,-0.0184525714286,0.703
0.461350578314,0.520176287491,-0.124094346645,-1.39933669676,0.0770936246295,1.91014742016,0.153593396486,-0.00638979195527,-0.075760798121,-0.000924704661075,-0.118850569264,-0.00254166431717,0.0409068843762,-0.0215611235815,0.574106977276,0.81876572137,0.00214919847412,0.0,0.818723032425,-0.574045413649,-0.0120501513133,0.0,-0.00863267951143,0.00867784131358,-0.999925083151,0.0,0.656599078652,0.2542726745,0.303372494944,1.0,-0.01436,-0.0188731428571,0.719
0.461178404835,0.518831421919,-0.124093600267,-1.40142708613,0.076956025829,1.91088367653,0.153320365959,-0.0096234953506,-0.0812998433134,-0.000973037165463,-0.125363274237,-0.004938492827,0.0421054763956,-0.0134907145672,0.574097596575,0.81877233067,0.00213706253715,0.0,0.818729485408,-0.574036087729,-0.0120559781871,0.0,-0.00864451677441,0.00867115115941,-0.999925038924,0.0,0.656338450588,0.253957396021,0.303385452643,1.0,-0.0147,-0.01932,0.736
0.461004579789,0.517478557844,-0.124097510104,-1.40354094565,0.0768124961758,1.91165326907,0.153019729079,-0.00738212104012,-0.0769152379674,0.000250619204894,-0.125115603982,-0.0127621589227,0.0391055138724,-0.0219065448716,0.574069735139,0.818791869352,0.00213559899625,0.0,0.818749102697,-0.574008334067,-0.0120451714352,0.0,-0.00863680309925,0.00866345493576,-0.999925172291,0.0,0.656080176509,0.253636981081,0.303395484311,1.0,-0.01504,-0.0197668571429,0.753
0.460823531298,0.516209542088,-0.124108175953,-1.40556531032,0.0766891803366,1.91240758806,0.152736791617,-0.0143823712621,-0.0805512662721,-0.00159953611251,-0.12676301975,-0.00947235037702,0.0523086378094,-0.0225112749312,0.574067788886,0.818793245897,0.00213099450206,0.0,0.818750439056,-0.574006427532,-0.0120451898815,0.0,-0.00863948191611,0.00865967493175,-0.999925181892,0.0,0.655839366587,0.25331964806,0.303387851358,1.0,-0.01536,-0.0201874285714,0.769
0.46062922803,0.514746066045,-0.124114477951,-1.40790124383,0.0765493030143,1.9132803104,0.15242694873,-0.0116543038402,-0.0876089391286,-0.00138324238756,-0.13466481587,-0.0101896680294,0.048697067747,-0.0224461531349,0.574063265638,0.818796421304,0.00212941460207,0.0,0.818753568417,-0.57400188608,-0.0120488954509,0.0,-0.00864347089165,0.00866046081468,-0.999925140613,0.0,0.655555851826,0.252967153144,0.303378009159,1.0,-0.01572,-0.0206605714286,0.787
0.460452472069,0.513437557021,-0.124110680258,-1.41002163466,0.0764223422294,1.91401218273,0.152134535962,-0.012606820648,-0.0801708030339,0.00266503141879,-0.13203293371,-0.00815223171462,0.0409352734638,-0.0196126821308,0.57404283397,0.818810912447,0.00206429813428,0.0,0.818767036091,-0.573981564067,-0.0121017198367,0.0,-0.00872431916004,0.00863725110984,-0.999924639235,0.0,0.655283022731,0.252648267006,0.303349180068,1.0,-0.01604,-0.0210811428571,0.803
0.46025502499,0.511995472899,-0.124118456945,-1.41231674888,0.0762834000425,1.91482804455,0.151805760663,-0.0134178706781,-0.0879880940867,0.000108997331183,-0.138745206128,-0.00983160717741,0.0498187123082,-0.019982567716,0.574023488709,0.81882455497,0.00203211452785,0.0,0.8187801833,-0.573962287956,-0.0121264315179,0.0,-0.00876323150662,0.00862487768674,-0.999924405772,0.0,0.654996577528,0.252293896346,0.303337975807,1.0,-0.01638,-0.021528,0.82
0.460057222715,0.510548578691,-0.124116068259,-1.41463786007,0.0761323075056,1.91571675423,0.151473072702,-0.0175312707347,-0.0899227238621,-0.000216616380214,-0.139923635505,-0.00997393219649,0.052877592115,-0.0213636779063,0.57399201853,0.81884660276,0.00203732991716,0.0,0.818802366566,-0.573930865238,-0.0121158299481,0.0,-0.00875188817143,0.0086227262599,-0.999924523674,0.0,0.654716153293,0.251945202832,0.303323295336,1.0,-0.01672,-0.0219748571429,0.837
0.459869690781,0.509140072104,-0.124124779432,-1.4168509552,0.0760110409505,1.91653253028,0.151172596627,-0.012788908217,-0.0927638265722,-0.000778520883162,-0.141111119487,-0.00799716807318,0.0455792784664,-0.0191896600503,0.573988471166,0.818849052305,0.00205217147401,0.0,0.818804878368,-0.573927123512,-0.0121233229383,0.0,-0.00874954308361,0.00863914194323,-0.999924402504,0.0,0.654443353912,0.251608994808,0.303326716321,1.0,-0.01704,-0.0223954285714,0.853
0.459650578995,0.507638200788,-0.124124867439,-1.41922799812,0.0758465496248,1.91737214865,0.150823364534,-0.0118107310931,-0.0875580731711,-0.00148968185447,-0.140518270314,-0.00416381963413,0.0438333554385,-0.015703831428,0.573960522871,0.818868740674,0.00201261881881,0.0,0.818824108575,-0.573899410438,-0.0121364252259,0.0,-0.00878326759258,0.00861397562437,-0.999924323954,0.0,0.654145972814,0.251233772902,0.303318695256,1.0,-0.01738,-0.0228422857143,0.87
0.459433065535,0.50606736063,-0.124128724648,-1.4216657695,0.0756944271406,1.91828380335,0.15050228677,-0.0153909763093,-0.0867900613077,0.000785667911074,-0.149581188794,-0.0103906513777,0.0573947607277,-0.0196052202144,0.573963571082,0.818866517482,0.00204756394896,0.0,0.818822362257,-0.573902324663,-0.0121164233629,0.0,-0.00874680009633,0.00863114294792,-0.999924495579,0.0,0.653849061591,0.250857966034,0.303335816888,1.0,-0.01772,-0.0232891428571,0.887
0.459203263934,0.504428407632,-0.124140135947,-1.42414100752,0.0755406528449,1.91924509626,0.150157393853,-0.012242035297,-0.098065351956,-0.00360483969397,-0.149307428211,-0.0131953967516,0.057193172868,-0.0193704541877,0.573963816338,0.818866085023,0.00214924051148,0.0,0.818823375293,-0.573902249374,-0.0120513542442,0.0,-0.00863515755876,0.00867705670422,-0.999925068563,0.0,0.653558724141,0.250469292503,0.303386597582,1.0,-0.01806,-0.023736,0.904
0.458973213202,0.502757785502,-0.124143729908,-1.42662564478,0.0753780810784,1.92017828293,0.149814750533,-0.0110572621531,-0.100877726502,0.000209075922223,-0.146151418186,-0.0136974281243,0.0488879033569,-0.014504122144,0.573957768882,0.8188700659,0.00224535387391,0.0,0.818828718897,-0.573895911578,-0.0119899410227,0.0,-0.00852976861158,0.00872044793009,-0.99992559565,0.0,0.653259028626,0.250081166745,0.303451649317,1.0,-0.0184,-0.0241828571429,0.921
0.45873960451,0.501050124606,-0.12414721618,-1.42919503434,0.0752129050098,1.92108088478,0.149453148304,-0.00707508600398,-0.102637012818,0.000197714074894,-0.152977564706,-0.00789261890064,0.0416722012138,-0.0157018442748,0.573941844872,0.818881134485,0.00227885747716,0.0,0.818840201473,-0.573879828919,-0.0119755297885,0.0,-0.0084989087105,0.00873944603729,-0.999925692556,0.0,0.652933665666,0.249678920833,0.303498932102,1.0,-0.01874,-0.0246297142857,0.938
0.458514814437,0.49944093516,-0.124145148716,-1.43164886099,0.0750557759818,1.92197358942,0.149106445068,-0.0129424176618,-0.107511104534,0.000919017625888,-0.15916621196,-0.0107159831238,0.0586454953926,-0.0252471179352,0.573922997645,0.818894233427,0.00231821797783,0.0,0.818853801885,-0.573860812379,-0.0119568413428,0.0,-0.00846121687825,0.0087607565023,-0.999925825726,0.0,0.652626606572,0.249298775782,0.303530886954,1.0,-0.01906,-0.0250502857143,0.954
0.458262019976,0.497766366507,-0.124153883066,-1.43429326621,0.0749004148616,1.92295539316,0.148724183701,-0.0136966695839,-0.102585145477,-0.00120104877549,-0.16156304137,-0.00653599953068,0.0584190954225,-0.0266789072784,0.573915899979,0.818899175326,0.00232965742039,0.0,0.818858819308,-0.573853593196,-0.0119597039928,0.0,-0.00845707228012,0.00877169368748,-0.999925764904,0.0,0.652301258616,0.248878666799,0.303525312779,1.0,-0.0194,-0.0254971428571,0.971
0.458000709797,0.496089786526,-0.124148227987,-1.43696951101,0.0747292483547,1.923892347,0.148329492015,-0.0165274658068,-0.0942649710978,0.000872204943593,-0.158444440553,-0.0089832316977,0.0560378590129,-0.0253998303584,0.57389149544,0.818916430539,0.00227555623735,0.0,0.818875250131,-0.57382928948,-0.0120007566121,0.0,-0.00852200002458,0.0087506973196,-0.999925397623,0.0,0.651957754552,0.248452371273,0.303501010447,1.0,-0.01974,-0.025944,0.988
0.457730125343,0.49441793973,-0.124149764519,-1.43970177462,0.0745607602583,1.92484276454,0.147956971595,-0.0166766494952,-0.0971356262715,-0.00157958416944,-0.161181121507,-0.0135632224564,0.0552698968248,-0.0172651597589,0.573901162536,0.818909910407,0.00218201233673,0.0,0.818867341729,-0.573839175754,-0.0120674736473,0.0,-0.00863021576098,0.00871248353917,-0.999924803176,0.0,0.651605728024,0.248010608075,0.303447602335,1.0,-0.0231091428571,-0.0303720163265,1.005
0.457424747369,0.492141156392,-0.124231731087,-1.44306947275,0.0743646296538,1.92608702168,0.147459618803,-0.0208885148934,-0.164241988524,-0.00515916542617,-0.244167041352,-0.0166424535442,0.0918330876444,-0.0360248489265,0.573911056631,0.818902597317,0.00231993198369,0.0,0.818862013448,-0.573848685132,-0.0119764939204,0.0,-0.00847645525779,0.00877331536934,-0.999925586553,0.0,0.651168206076,0.247414172651,0.303543061029,1.0,-0.036408,-0.0478505142857,1.022
0.456972158393,0.488574182061,-0.12426580351,-1.44873426825,0.074077622036,1.92826405983,0.146596381932,-0.0326661017845,-0.223407403372,-0.00150631822077,-0.355045673395,-0.0181302526636,0.126304534265,-0.0491790465706,0.573814674074,0.818969926213,0.00239304769708,0.0,0.818929944874,-0.573751653736,-0.0119804893686,0.0,-0.0084388078937,0.0088344891122,-0.999925366377,0.0,0.650484287976,0.246609141645,0.3035138319,1.0,-0.0497068571429,-0.0653290122449,1.039
0.456344761151,0.48426471127,-0.124354084619,-1.45549834304,0.0736769361319,1.93081781138,0.14556872633,-0.0429993749511,-0.288069344195,-0.0126786236322,-0.449050249983,-0.0322497907054,0.162087582161,-0.0715987075924,0.573772536447,0.818999269683,0.0024534830319,0.0,0.818960212497,-0.573709423839,-0.0119337440176,0.0,-0.00836630237557,0.00885673007892,-0.999925778904,0.0,0.649586502754,0.245436708346,0.303504232221,1.0,-0.0630057142857,-0.0828075102041,1.056
0.455479483135,0.478645093885,-0.124519979165,-1.46447820971,0.0731384157793,1.93391472098,0.14421805981,-0.053122754041,-0.359474207464,-0.00865035636931,-0.560901064945,-0.0357197587096,0.194410638925,-0.0874504135791,0.573793995862,0.818984892721,0.00222322033962,0.0,0.818942802653,-0.573731788552,-0.0120527046535,0.0,-0.00859561633809,0.00873662806708,-0.999924890534,0.0,0.648485066398,0.243988356188,0.303407378593,1.0,-0.0755222857143,-0.0992578612245,1.072
0.454399336559,0.471859659011,-0.124668372729,-1.47512064016,0.0725105824019,1.93765387606,0.142675112497,-0.0693879457966,-0.409351411089,-0.00604433176941,-0.65352187954,-0.0391131065952,0.231080192027,-0.102264981317,0.57386649294,0.818934369345,0.00211987882707,0.0,0.818890668134,-0.573804456058,-0.0121353513113,0.0,-0.00872182827789,0.00870018799229,-0.999924115341,0.0,0.647106460183,0.242184086863,0.303365452614,1.0,-0.0888211428571,-0.116736359184,1.089
0.45313139173,0.463956670568,-0.124780993517,-1.48711245738,0.0717966771389,1.94213174502,0.140765241645,-0.0785367962862,-0.475017882006,-0.00253913556121,-0.735790137084,-0.0432401247453,0.273585298175,-0.123064336998,0.573800007273,0.818980024263,0.00245324528737,0.0,0.81894068915,-0.573736601268,-0.0119669094247,0.0,-0.00839330475489,0.00887584598878,-0.999925383113,0.0,0.645589526738,0.240172900624,0.303502977989,1.0,-0.10212,-0.134214857143,1.106
0.451698194764,0.455691519202,-0.124882931544,-1.50009530226,0.0709741072949,1.94658633212,0.138790380114,-0.0915016874791,-0.527462661559,-0.00923468859515,-0.863376452738,-0.0569508203796,0.272288695382,-0.119957843417,0.573810528435,0.818973307624,0.0022239059632,0.0,0.81893048091,-0.573747559134,-0.0121388930611,0.0,-0.00866563562337,0.00878681819543,-0.999923846393,0.0,0.643844384052,0.237935706277,0.303401531001,1.0,-0.114636571429,-0.150665208163,1.122
0.449632085954,0.443854329877,-0.125079844929,-1.51794653829,0.0697463278852,1.95296698694,0.135986765731,-0.110340549791,-0.619004899777,-0.00439943514195,-0.939639516155,-0.0585358446169,0.318036450559,-0.142415679724,0.573823945303,0.818963213696,0.00246603136627,0.0,0.818924483168,-0.573760949772,-0.0119084123743,0.0,-0.00833779969769,0.00885299608063,-0.999926050044,0.0,0.641499496531,0.234780398343,0.303580848157,1.0,-0.130282285714,-0.171228146939,1.142
0.448001858555,0.43482392219,-0.125173245771,-1.53173146526,0.0688493883022,1.95766993283,0.133773304336,-0.116784952183,-0.66691587124,-0.00728045548923,-0.994311354715,-0.0725299234438,0.346843159238,-0.170580699844,0.573778338459,0.818995294291,0.00242345753494,0.0,0.818955516718,-0.573714997823,-0.0119879026757,0.0,-0.00842782420713,0.0088632734421,-0.999925204284,0.0,0.639594492206,0.232355649209,0.303600382151,1.0,-0.141234285714,-0.185622204082,1.156
0.445767950054,0.422945980157,-0.125318144072,-1.54959161612,0.0676191336849,1.96393656995,0.130795426439,-0.136303732172,-0.702058748141,-0.0110771108551,-1.0782319301,-0.0790307005283,0.369093900646,-0.181969817459,0.573704938667,0.819046091521,0.00262492172347,0.0,0.819009251935,-0.573641157816,-0.0118496500427,0.0,-0.00819980428836,0.00894821020885,-0.999926343659,0.0,0.637151916713,0.229135144473,0.303731935688,1.0,-0.154533142857,-0.203100702041,1.173
0.443420256292,0.410915392033,-0.125466501756,-1.56750030206,0.0663220302219,1.97028628848,0.127820208205,-0.148051472051,-0.785375251418,-0.010383788477,-1.15761566114,-0.0782121854356,0.412449660001,-0.185852630733,0.573686156035,0.81905812907,0.00295338436016,0.0,0.819026440207,-0.573622222638,-0.0115750956523,0.0,-0.00778669920592,0.00905954643393,-0.999928643421,0.0,0.634689623759,0.225844177996,0.303915672465,1.0,-0.167049714286,-0.219551053061,1.189
0.440607777023,0.397371064023,-0.12562137638,-1.58775446055,0.064976250604,1.97719464542,0.124373893347,-0.17115139002,-0.813135689767,-0.0139740749753,-1.20191141872,-0.084118588823,0.429466491882,-0.206755067761,0.573725675732,0.81902977899,0.00313321462552,0.0,0.818999789862,-0.573660414732,-0.0115680454711,0.0,-0.00767732033625,0.00920316401413,-0.999928177683,0.0,0.631804888312,0.222048015233,0.304015340818,1.0,-0.180348571429,-0.23702955102,1.206
0.437503299548,0.383070978615,-0.125760522976,-1.60926649828,0.0633758649212,1.98438257043,0.120602762501,-0.193555272475,-0.87959529498,-0.00934938939523,-1.28351520415,-0.103579051639,0.418561477123,-0.22841862808,0.573662533807,0.8190743133,0.00305180267361,0.0,0.819043362076,-0.573597653228,-0.0115952642144,0.0,-0.00774702537649,0.00915150356639,-0.999928114206,0.0,0.628655180392,0.217943177749,0.304000893431,1.0,-0.193647428571,-0.25450804898,1.223
0.433848626788,0.366974694174,-0.125935584381,-1.63324173064,0.0615684597487,1.9923359823,0.116333104309,-0.213130119874,-0.890468992063,-0.0085951407197,-1.3467939101,-0.103510937338,0.42861445855,-0.236673756721,0.573660113313,0.819076019671,0.00304881845296,0.0,0.819045164804,-0.573595402235,-0.0115792680222,0.0,-0.00773566145094,0.00913986018861,-0.999928308679,0.0,0.625084683083,0.213258967941,0.304024550463,1.0,-0.207728571429,-0.273014693878,1.241
0.429977020322,0.351003270465,-0.126149441511,-1.65697834492,0.0597290092248,2.00011246949,0.111968315179,-0.238561704102,-0.947689166911,-0.0190680713847,-1.43616544437,-0.109361640452,0.459697493695,-0.268009612511,0.573720454071,0.819034012822,0.00297881216057,0.0,0.819002517091,-0.573656274592,-0.0115802642813,0.0,-0.00777596574853,0.00908366402785,-0.999928508147,0.0,0.62149004411,0.208460689766,0.303999020226,1.0,-0.221027428571,-0.290493191837,1.258
0.425736502871,0.334196436289,-0.126359990141,-1.68154777478,0.0578481219636,2.00807831727,0.107276602583,-0.257122720502,-0.99593513504,-0.00717576334542,-1.48170708537,-0.127308683332,0.481028069955,-0.28804711042,0.573782184804,0.818990283216,0.00310922835045,0.0,0.818960315182,-0.573717389407,-0.0115371639021,0.0,-0.00766515433736,0.0091663302203,-0.999928609351,0.0,0.617693435394,0.203397565412,0.304074522291,1.0,-0.234326285714,-0.307971689796,1.275
0.421786031826,0.31880657146,-0.12648488885,-1.70389549192,0.0560535065291,2.01517531542,0.102887145832,-0.266697622335,-1.0327806375,-0.00684297748202,-1.51530003208,-0.117921677041,0.457202870623,-0.288745475051,0.573709961774,0.819040676571,0.00316176928663,0.0,0.819011260395,-0.573644857327,-0.0115273548386,0.0,-0.00762778667329,0.00920306013976,-0.999928557725,0.0,0.613875375272,0.198459275075,0.304122749806,1.0,-0.246842857143,-0.324422040816,1.291
0.41691118601,0.300721421553,-0.126651762323,-1.73007418355,0.053858532778,2.02335844821,0.0975270961996,-0.29327571494,-1.05799171749,0.00153801013306,-1.55728855182,-0.130942289328,0.466480741757,-0.314343870977,0.573533839677,0.819163991866,0.00316797690686,0.0,0.819134829847,-0.573468949112,-0.0114996450971,0.0,-0.00760350518621,0.00919061277978,-0.999928857142,0.0,0.609854198521,0.193264615752,0.304144299231,1.0,-0.259359428571,-0.340872391837,1.307
0.410889333587,0.279634466697,-0.126901206686,-1.76025303397,0.0513421866267,2.03257433701,0.0912152423896,-0.32508683712,-1.12704774201,-0.0172394650336,-1.60135139523,-0.13750648512,0.482980676534,-0.347307722191,0.573550181804,0.819152368302,0.00321455426199,0.0,0.819123466874,-0.57348473055,-0.0115220112365,0.0,-0.0075949312332,0.00924174640325,-0.999928451012,0.0,0.604819888231,0.186680035332,0.304184630452,1.0,-0.274222857143,-0.360407183673,1.326
0.405698390909,0.262423101037,-0.127116900918,-1.78454642712,0.0492342006834,2.03989380574,0.0858893554276,-0.356526995734,-1.15285419299,-0.016377237207,-1.60103295959,-0.14107168663,0.469917719298,-0.351152580984,0.573567546147,0.819139670977,0.00334908044546,0.0,0.819112603424,-0.57350180285,-0.0114442973609,0.0,-0.00745391781246,0.00930753075625,-0.999928901963,0.0,0.600695385013,0.18121214788,0.304269913908,1.0,-0.285957142857,-0.375829387755,1.341
0.398912250285,0.241209402265,-0.12742590669,-1.81449452456,0.0464992839193,2.04864475801,0.0791206969132,-0.389988802848,-1.19014770959,-0.0226324629693,-1.69549368111,-0.154407595574,0.480648928931,-0.39294567181,0.573650108558,0.81908227297,0.00324498976461,0.0,0.819054159804,-0.57358503374,-0.011455971267,0.0,-0.00752225024749,0.0092297192269,-0.999929111505,0.0,0.595477779667,0.174266335432,0.304238932435,1.0,-0.300038285714,-0.394336032653,1.359
0.392121878609,0.220522954242,-0.12761793541,-1.84325229271,0.0439264729296,2.05685562597,0.0722805491834,-0.415136030645,-1.21597575407,-0.00872342898391,-1.71294742709,-0.160848407832,0.468369675739,-0.417646891527,0.573535246611,0.819162330213,0.00333834632202,0.0,0.81913464169,-0.573468939241,-0.0115135316036,0.0,-0.00751715818186,0.00933815109429,-0.999928143052,0.0,0.590297302706,0.167592892607,0.304267671002,1.0,-0.313337142857,-0.411814530612,1.376
0.385182049584,0.200467130761,-0.127880346793,-1.8708366892,0.041244946693,2.0644311739,0.0654431222268,-0.452511367071,-1.25544300375,-0.0176575664362,-1.71993976761,-0.165596059863,0.453984985843,-0.437402875557,0.573455486107,0.819218424195,0.00327502891401,0.0,0.819190078463,-0.573389583451,-0.0115216248697,0.0,-0.0075610054779,0.00929018904834,-0.999928259218,0.0,0.585209384412,0.160948679513,0.304287293514,1.0,-0.325853714286,-0.428264881633,1.392
0.377654487087,0.179859259185,-0.128246710832,-1.89881826032,0.038561048867,2.07192110442,0.058176453925,-0.489371058076,-1.29080376124,-0.0315939693955,-1.74596147075,-0.168668374503,0.456486168118,-0.467186134723,0.57352518117,0.819169434013,0.00332443148161,0.0,0.819141309521,-0.573458600786,-0.0115540089119,0.0,-0.00755841263797,0.00934987422576,-0.999927722513,0.0,0.579949503693,0.153970552053,0.304333208109,1.0,-0.338370285714,-0.444715232653,1.408
0.369037184906,0.157388326324,-0.128643681317,-1.92893517287,0.0355389328039,2.07976581712,0.0500306344544,-0.518185202073,-1.33586818706,-0.0205293795614,-1.77052393673,-0.17359146895,0.465750803725,-0.488048487691,0.573623131338,0.819100477257,0.0034144182628,0.0,0.819073453707,-0.573556181747,-0.0115208816038,0.0,-0.00747854290353,0.00940548462499,-0.999927801521,0.0,0.574152617917,0.146265287825,0.304399391432,1.0,-0.351669142857,-0.462193730612,1.425
0.359882433222,0.134349628082,-0.129019096103,-1.95943004156,0.0323216500099,2.08749661861,0.0413782950757,-0.554507080598,-1.38473079148,-0.0225751835957,-1.8094760567,-0.186058508997,0.464848557893,-0.522595044812,0.573568931992,0.81913793262,0.00353192552662,0.0,0.819112848536,-0.573502180239,-0.0114077835656,0.0,-0.00731912217156,0.00943637749457,-0.999928690073,0.0,0.568115504561,0.138353713092,0.304465118721,1.0,-0.364968,-0.479672228571,1.442
0.35053721876,0.112216159722,-0.129478836923,-1.9883574084,0.0291664948781,2.0944780918,0.0327144598339,-0.598952303927,-1.39073338256,-0.0324579813168,-1.81897130872,-0.212940151865,0.450054496605,-0.562771741451,0.57364197896,0.819086562874,0.00358181455998,0.0,0.819062467327,-0.573575525859,-0.0113374447469,0.0,-0.00723204671904,0.00943754581395,-0.999929312616,0.0,0.562247355261,0.130539771894,0.304514545307,1.0,-0.377484571429,-0.496122579592,1.458
0.339952542417,0.0882251733767,-0.129887920625,-2.01932647358,0.0256903530245,2.10151103009,0.022923939805,-0.631941862381,-1.42741077219,-0.0181705871431,-1.84495850148,-0.198763109049,0.397738057573,-0.587987423558,0.573571171967,0.819136314415,0.00354344405539,0.0,0.819111562311,-0.573504624222,-0.0113772310013,0.0,-0.00728746182542,0.00942830923949,-0.999928997422,0.0,0.555745044102,0.122045199727,0.304535028987,1.0,-0.38998,-0.512545142857,1.475
0.328710889914,0.064137066856,-0.130327842379,-2.05018275156,0.0221848197705,2.10821430121,0.0125811122815,-0.669165678835,-1.40286888479,-0.0286268319664,-1.82915744267,-0.214793560068,0.373464471134,-0.609423842699,0.573501028163,0.819185811221,0.00345315653618,0.0,0.819159089562,-0.573433726141,-0.0115279925543,0.0,-0.0074635552094,0.00944018189958,-0.999927586533,0.0,0.549085247829,0.113360480349,0.304461443969,1.0,-0.38998,-0.512545142857,1.492
0.317415944148,0.0415802352549,-0.130810661776,-2.07848496605,0.0187662859963,2.11389018014,0.00267606647979,-0.71226859563,-1.38233001964,-0.0224902131165,-1.74577588874,-0.215115598748,0.344268451181,-0.617404991318,0.573790492697,0.818983627539,0.00332192931081,0.0,0.818954938863,-0.573723227505,-0.0116281226193,0.0,-0.00761752069934,0.00939279746295,-0.999926871693,0.0,0.542822425287,0.104962640749,0.304453509755,1.0,-0.38998,-0.512545142857,1.508
0.304379730239,0.0165182994618,-0.131221110029,-2.109165978,0.0150274833432,2.11979053499,-0.00887499679384,-0.738220374402,-1.38647855178,-0.0224679463298,-1.66783410627,-0.212279286492,0.310762228831,-0.653077670721,0.573884219919,0.818917141482,0.00351630718086,0.0,0.81889078355,-0.573816095802,-0.0115637241494,0.0,-0.00745216174438,0.00951589356583,-0.99992695386,0.0,0.535851037689,0.0957107573904,0.304577032798,1.0,-0.38998,-0.512545142857,1.526
0.291497957101,-0.006854554968,-0.131680791339,-2.1373598437,0.0114707271596,2.12487254676,-0.020175147909,-0.761643055133,-1.36584813032,-0.0143256554046,-1.61667064941,-0.202239494693,0.308125766716,-0.67731101048,0.574074299434,0.818783129197,0.00369228550318,0.0,0.818759039659,-0.5740056113,-0.0114865170475,0.0,-0.00728571404694,0.00961739152429,-0.999927209426,0.0,0.52927478589,0.0868831224208,0.304673173109,1.0,-0.38998,-0.512545142857,1.543
0.279124283667,-0.0285957430556,-0.131963436165,-2.16320121249,0.00810626654271,2.12915616075,-0.0311468584723,-0.773845018438,-1.35299373172,-0.00944694772497,-1.53741310685,-0.194331063839,0.261387549485,-0.690130906679,0.573974017106,0.818852884759,0.00381152338161,0.0,0.818830262742,-0.573904902902,-0.0114415970919,0.0,-0.00718167109815,0.00968835666785,-0.999927277028,0.0,0.523040625122,0.0787478294768,0.304747474098,1.0,-0.38998,-0.512545142857,1.559
0.265332469908,-0.051407126504,-0.132468147554,-2.19003167664,0.00451175778574,2.1332388014,-0.0431249156599,-0.822480469021,-1.35217021823,-0.0175083524064,-1.53766321743,-0.205805506136,0.238038450898,-0.713465111293,0.574213655985,0.818684700675,0.00384513502337,0.0,0.818662196288,-0.574143983927,-0.0114734907536,0.0,-0.00718564854824,0.00973628920952,-0.999926782883,0.0,0.516406441663,0.0698994981882,0.30475961598,1.0,-0.38998,-0.512545142857,1.576
0.251247796618,-0.0738944486685,-0.132787623669,-2.21605269183,0.000897269182798,2.13683889559,-0.0555546696809,-0.831591812787,-1.34689225848,-0.0201953937932,-1.49760027294,-0.205030729382,0.221082299135,-0.744004579825,0.574087817914,0.818772853461,0.00386505608004,0.0,0.818750550507,-0.574018030767,-0.0114709764058,0.0,-0.00717365031886,0.00975005232612,-0.999926734926,0.0,0.50976196771,0.0612514476846,0.304770334058,1.0,-0.38998,-0.512545142857,1.593
0.237467801256,-0.0946716332417,-0.133216445431,-2.23983550821,-0.00241897023961,2.13969719944,-0.067669518207,-0.861904758974,-1.27947397859,-0.0116234174606,-1.45447165982,-0.204306773044,0.170999110607,-0.760201039592,0.574136383841,0.818739122631,0.0037958824837,0.0,0.818714793982,-0.574065277881,-0.0116571757828,0.0,-0.00736524334373,0.00980074259005,-0.999924846494,0.0,0.503504515536,0.0530233894316,0.30471520639,1.0,-0.38998,-0.512545142857,1.609
0.222489416008,-0.11653520277,-0.133532760078,-2.26438844762,-0.00607830810909,2.14233199314,-0.0808745291384,-0.894190080681,-1.28543890983,-0.0310641482231,-1.42110469772,-0.195523373285,0.140309985828,-0.781642189837,0.573954388639,0.818867144187,0.00370227428188,0.0,0.818841671104,-0.573883698909,-0.0116860896352,0.0,-0.00744482332293,0.00973904639882,-0.999924859967,0.0,0.496855324595,0.0444142967165,0.304692748696,1.0,-0.38998,-0.512545142857,1.626
0.206925316444,-0.138100066418,-0.133921086732,-2.28832064205,-0.0096086930739,2.14449611891,-0.0946112081583,-0.91573869708,-1.25518282137,-0.0184906211067,-1.4049154684,-0.209783333449,0.10733366017,-0.82115724385,0.573871951851,0.818925382021,0.00359839713474,0.0,0.818897368081,-0.57380008755,-0.0118872611934,0.0,-0.00767016699751,0.00976867180337,-0.99992286782,0.0,0.490170203662,0.0357498173962,0.304613049535,1.0,-0.38998,-0.512545142857,1.643
0.190793782439,-0.15946678169,-0.134400095051,-2.31150618503,-0.013196844203,2.14627580333,-0.108841568459,-0.961792401326,-1.24723736344,-0.0347124106738,-1.36350910834,-0.222194650206,0.0871630923012,-0.839267586839,0.573842338035,0.818946226638,0.00357712938675,0.0,0.818917671325,-0.573770218078,-0.0119302698729,0.0,-0.00771794778128,0.00977565663637,-0.999922431901,0.0,0.483511903945,0.0270184533684,0.304593668344,1.0,-0.38998,-0.512545142857,1.66
0.174242029785,-0.180520131245,-0.134782812845,-2.33385444416,-0.0166025605432,2.14751915221,-0.123491926403,-0.980747946167,-1.23701633572,-0.0223480279007,-1.30295923942,-0.202833539178,0.0703813662854,-0.873094519013,0.57376847073,0.818997680626,0.00364527449981,0.0,0.818968914218,-0.573694714659,-0.0120432063002,0.0,-0.00777223295275,0.00989556908108,-0.99992083192,0.0,0.476864680885,0.0184120542091,0.304613499609,1.0,-0.38998,-0.512545142857,1.677
0.15801909049,-0.200035053181,-0.135335299733,-2.35422479009,-0.0199206884802,2.14841909738,-0.137827569469,-1.00326857055,-1.20139802615,-0.0247529669464,-1.26153577426,-0.196631964375,0.0440691040722,-0.903433331114,0.573842508296,0.818945532014,0.00370650357293,0.0,0.818917586438,-0.573768540754,-0.0120164539059,0.0,-0.00771429461459,0.009931064214,-0.999920928685,0.0,0.470639099255,0.0101387690679,0.304636323427,1.0,-0.38998,-0.512545142857,1.693
0.140245816124,-0.220557496857,-0.135928829059,-2.37515490073,-0.0233389991271,2.14896377053,-0.153550558387,-1.06033049068,-1.21852401911,-0.0414766611424,-1.21545934902,-0.210406147815,0.0281100407095,-0.928020998647,0.573971742733,0.818854099777,0.00389213610944,0.0,0.818828509364,-0.573896993741,-0.0119523942892,0.0,-0.00755372728608,0.0100475220347,-0.999920991131,0.0,0.464023256502,0.00136089033241,0.304715458822,1.0,-0.38998,-0.512545142857,1.71
0.122063454209,-0.240574937293,-0.136427818447,-2.39540228369,-0.0267424303536,2.14907492,-0.169738815264,-1.07615763492,-1.17076290954,-0.0284293227671,-1.16414906557,-0.190349136306,0.0084685844582,-0.968274317992,0.573949849255,0.818869468947,0.00388719277116,0.0,0.818843124518,-0.573874207038,-0.0120448672194,0.0,-0.00763256130481,0.0100963451852,-0.999919900703,0.0,0.457376594394,-0.00730388889594,0.304702400321,1.0,-0.38998,-0.512545142857,1.727
0.103208563033,-0.260323716533,-0.1370411359,-2.41493055304,-0.0300863807755,2.14901515689,-0.186598322271,-1.11889027921,-1.15460987247,-0.0304000145695,-1.14060025984,-0.196527302033,-0.0163763907015,-1.00365539179,0.574016035971,0.818822085717,0.00409014552646,0.0,0.818798681817,-0.573940043982,-0.0119285987777,0.0,-0.00742004468634,0.010196409063,-0.999920484928,0.0,0.450768764778,-0.0160608840311,0.304748640711,1.0,-0.38998,-0.512545142857,1.744
0.0850400706123,-0.278452836409,-0.137621682837,-2.43250169209,-0.0332171261488,2.14870109998,-0.202906337816,-1.14840268286,-1.12129176511,-0.0332471078042,-1.10283339354,-0.189602248783,-0.0431299907514,-1.04148646215,0.574053958856,0.818794412007,0.00430233519023,0.0,0.818774793778,-0.573978692539,-0.0117066001589,0.0,-0.00711598707115,0.0102430609848,-0.99992221819,0.0,0.444609142223,-0.0242646707688,0.304818253029,1.0,-0.38998,-0.512545142857,1.76
0.0640009583121,-0.29842316188,-0.138202759757,-2.45152321504,-0.0366073870607,2.14783128698,-0.221975908523,-1.19750733938,-1.11004723109,-0.0484542906757,-1.03189425423,-0.196627662051,-0.0462919778378,-1.08470232556,0.5739744794,0.818849223647,0.00447133438091,0.0,0.818831915785,-0.573898872791,-0.0116243022179,0.0,-0.0069525909444,0.0103335230635,-0.999922436882,0.0,0.437634524773,-0.0334468499466,0.304879265754,1.0,-0.38998,-0.512545142857,1.778
0.0447817497466,-0.315702964258,-0.138729611751,-2.46794193737,-0.0396367693164,2.14673197681,-0.23936541665,-1.2060859874,-1.07924855649,-0.0383384553698,-1.02320822575,-0.179914988956,-0.0796031479916,-1.09612242734,0.573948075182,0.818868067579,0.00440928525345,0.0,0.818849104065,-0.57387141685,-0.0117681178047,0.0,-0.00710630992855,0.0103650274008,-0.999921030165,0.0,0.43135264906,-0.0415994181012,0.304816342605,1.0,-0.38998,-0.512545142857,1.794
0.0237417475057,-0.333623360496,-0.139339573383,-2.48450119776,-0.0427670175031,2.14541022175,-0.258515217137,-1.24880512399,-1.03309663376,-0.0325099087978,-0.964871407265,-0.187994787438,-0.0846093687437,-1.13803293427,0.57394855239,0.818867081306,0.00452871548524,0.0,0.818849982894,-0.573871975585,-0.011679385861,0.0,-0.00696509580873,0.0104119056668,-0.999921536752,0.0,0.424755835852,-0.0503099443536,0.304844581093,1.0,-0.38998,-0.512545142857,1.811
0.00208105435841,-0.35101671792,-0.139988009297,-2.50034536295,-0.0458556589204,2.14366393948,-0.278284698316,-1.28483450305,-1.01190646978,-0.0260839128922,-0.909242281356,-0.180281476644,-0.109158036585,-1.16935524938,0.573989257414,0.818838595602,0.00452035700212,0.0,0.818820726051,-0.57391171401,-0.0117775215215,0.0,-0.00704973907667,0.0104617342556,-0.999920423481,0.0,0.41810329295,-0.0590482169654,0.304835608319,1.0,-0.38998,-0.512545142857,1.828
-0.0201033104141,-0.367953773373,-0.140681699687,-2.51539788902,-0.0487712633435,2.14184781767,-0.298707648949,-1.33114956611,-0.986437091658,-0.0491699637097,-0.887140438077,-0.173623140525,-0.1169254943,-1.20305328322,0.57403437784,0.818805754981,0.00473450833085,0.0,0.818790795773,-0.573956333289,-0.0116836268639,0.0,-0.00684935174499,0.0105835790883,-0.99992053396,0.0,0.41149656104,-0.067771141589,0.304892853081,1.0,-0.38998,-0.512545142857,1.845
-0.04141714833,-0.383314209749,-0.141244442487,-2.52884906597,-0.051540014763,2.13987669822,-0.318434303312,-1.34995262594,-0.96084938559,-0.0462791295148,-0.828376681402,-0.166113808465,-0.115365674442,-1.23371024072,0.57394144482,0.818870695364,0.00476960093841,0.0,0.818856438799,-0.573863690379,-0.011633761376,0.0,-0.0067895761919,0.0105829200058,-0.999920948605,0.0,0.405274212062,-0.075921372327,0.304929709763,1.0,-0.38998,-0.512545142857,1.861
-0.0646754679566,-0.398978731046,-0.141864692088,-2.54241148266,-0.0542563523114,2.1377290788,-0.34002660027,-1.38159483259,-0.906750257587,-0.0333990841442,-0.774795468926,-0.163177139041,-0.138414360058,-1.28353961268,0.573950047776,0.818863762192,0.00492224823785,0.0,0.818851320456,-0.573871565645,-0.0116055173387,0.0,-0.00667872787357,0.0106917825501,-0.999920537033,0.0,0.398672266995,-0.0845981220782,0.304947736159,1.0,-0.38998,-0.512545142857,1.878
-0.0884007067402,-0.413989281644,-0.142489060431,-2.55514300797,-0.0569761165627,2.13535620292,-0.362272871984,-1.40591326717,-0.86893767203,-0.0280581534503,-0.727219692173,-0.156422859404,-0.125913017264,-1.33047809999,0.573819991859,0.818954549565,0.00498092266928,0.0,0.818942937128,-0.573741465328,-0.0115734002213,0.0,-0.00662045435849,0.0107203462611,-0.999920618729,0.0,0.392072751623,-0.0932547518358,0.304984143764,1.0,-0.38998,-0.512545142857,1.895
-0.112760485279,-0.428264667199,-0.143149077493,-2.56717971492,-0.0595657503914,2.13295012707,-0.385142460826,-1.4316804318,-0.844439334382,-0.0392623255645,-0.699241557177,-0.135832915643,-0.153042722566,-1.35137954284,0.573795485311,0.818971319164,0.00504641704763,0.0,0.818960124507,-0.57371606304,-0.0116163840585,0.0,-0.00661840228003,0.0107984509657,-0.999919791887,0.0,0.385442497728,-0.10194791972,0.304970876903,1.0,-0.38998,-0.512545142857,1.912
-0.137610356581,-0.441810840431,-0.143781790316,-2.57838716857,-0.0620671544267,2.13038612783,-0.408566684537,-1.46785893274,-0.782008028872,-0.0449054408429,-0.620116701158,-0.152579914612,-0.135434073508,-1.39107902538,0.573757606398,0.818997709809,0.00507023953489,0.0,0.81898624829,-0.573677176765,-0.0116948224489,0.0,-0.00666948050851,0.01086265893,-0.999918757035,0.0,0.378808629473,-0.110617131099,0.30497194594,1.0,-0.38998,-0.512545142857,1.929
-0.161524776503,-0.453811291371,-0.144392900798,-2.58813898109,-0.064329396585,2.1281173233,-0.431199172096,-1.49882497122,-0.740385047215,-0.0412994677866,-0.602063383236,-0.136224014592,-0.150365593617,-1.42958609083,0.573749180904,0.819003073824,0.00515648922043,0.0,0.818993214945,-0.573669277989,-0.0115939754416,0.0,-0.00653750794376,0.0108753729821,-0.999919490385,0.0,0.372213481408,-0.11933937348,0.304997694846,1.0,-0.38998,-0.512545142857,1.946
-0.187249915179,-0.465568746886,-0.144860977365,-2.59779701663,-0.0664494122567,2.1255608964,-0.455724381027,-1.50657020144,-0.651956749346,-0.0258149662919,-0.554548130076,-0.127453577454,-0.144479757785,-1.43975838049,0.573625249557,0.819089889769,0.00515484724684,0.0,0.819078125224,-0.573542271753,-0.0118757817953,0.0,-0.00677094036276,0.0110346833666,-0.999916191553,0.0,0.366002140875,-0.127380024968,0.30491994576,1.0,-0.378203428572,-0.497067363265,1.962
-0.213025944896,-0.476194724834,-0.145165049225,-2.60617019406,-0.0682980199603,2.1232785453,-0.479993226943,-1.51696857805,-0.605606598503,-0.00747565300442,-0.462642115625,-0.10522270925,-0.128561520453,-1.42779553625,0.573808243937,0.818960798783,0.00529680549612,0.0,0.818951390079,-0.573725585001,-0.0117609822954,0.0,-0.00659299755882,0.0110865882731,-0.999916806511,0.0,0.3596677668,-0.135804503788,0.304973909474,1.0,-0.364904571429,-0.479588865306,1.979
-0.238402919152,-0.485674965212,-0.145282691875,-2.61364841234,-0.0698550367455,2.12107709625,-0.50402042569,-1.49023500824,-0.530235395289,0.0104909765854,-0.422408654946,-0.0895489362348,-0.137928905253,-1.39034724205,0.573896684768,0.818898116439,0.00540527578597,0.0,0.818889636356,-0.573812821332,-0.0118049330539,0.0,-0.0065655473008,0.011201351927,-0.999915708099,0.0,0.353509062099,-0.143886966135,0.30497924765,1.0,-0.351605714286,-0.462110367347,1.996
-0.26336177865,-0.49402220771,-0.145199810279,-2.62025819448,-0.0711626822589,2.11901718207,-0.527723157572,-1.44422675332,-0.467720881358,0.020434290148,-0.369443069467,-0.0797252809146,-0.120712111332,-1.37922374753,0.573916714998,0.818883700792,0.00546220872044,0.0,0.818874879865,-0.573830796942,-0.0119538491247,0.0,-0.00665455674764,0.0113335975378,-0.999913629491,0.0,0.347544465102,-0.151651346459,0.304944404727,1.0,-0.338306857143,-0.444631869388,2.013
-0.287686357214,-0.501291612728,-0.144988779412,-2.62585741933,-0.072146795571,2.11727129887,-0.550911126688,-1.40541094069,-0.398208929139,0.0322716030537,-0.309881704327,-0.0659766467995,-0.110360068537,-1.34948719543,0.573941614506,0.818864970591,0.00565066173507,0.0,0.81885878793,-0.573855306117,-0.0118793927787,0.0,-0.00648508125652,0.0114453922494,-0.999913469615,0.0,0.341890719142,-0.159101800848,0.304976210967,1.0,-0.325008,-0.427153371429,2.03
-0.310047511658,-0.507144656271,-0.144789069661,-2.63029644287,-0.0728942298682,2.11582478843,-0.572231629506,-1.37781556023,-0.352759679026,0.0238770229333,-0.255650558273,-0.0592279562362,-0.0799423071833,-1.32691860297,0.574064590443,0.818777329253,0.00585474183395,0.0,0.818774165643,-0.573978165969,-0.0117761440278,0.0,-0.0062816667175,0.0115542011127,-0.99991351681,0.0,0.336787092424,-0.165898164024,0.305019095081,1.0,-0.312491428572,-0.410703020408,2.046
-0.335843804303,-0.513101196546,-0.144349275154,-2.63481714543,-0.0737031569445,2.11427917064,-0.596874497187,-1.33562700585,-0.297018146526,0.0296901282294,-0.225035337726,-0.049381010969,-0.0815158392508,-1.2905399556,0.574076398434,0.818768557174,0.00592329678763,0.0,0.818766761283,-0.573990613346,-0.0116838910421,0.0,-0.00616660458082,0.0115574671331,-0.999914195289,0.0,0.330949708231,-0.173604457243,0.305050786417,1.0,-0.297628,-0.391168228572,2.065
-0.355528920714,-0.516969580421,-0.143866391709,-2.63791833509,-0.0741172764368,2.11311491874,-0.615755750332,-1.30800796471,-0.242769528078,0.0257998756899,-0.197961750984,-0.0175051676023,-0.0708603883413,-1.24452747936,0.574027514388,0.818802659119,0.00594685179696,0.0,0.818799648118,-0.573938822697,-0.0119210294445,0.0,-0.00634796370743,0.0117125045617,-0.999911256359,0.0,0.326499496069,-0.179354716559,0.304982289634,1.0,-0.285893714286,-0.37574602449,2.08
-0.37829941053,-0.52077380952,-0.143239313095,-2.64095604836,-0.0745417940693,2.11203527918,-0.63758990878,-1.24772159073,-0.199634007794,0.035635056367,-0.153309311649,-0.016849242709,-0.0575222276764,-1.18821920339,0.573984732714,0.818832707928,0.00593885008549,0.0,0.818828833399,-0.573894688809,-0.0120405420028,0.0,-0.00645103929387,0.0117742156606,-0.999909871907,0.0,0.321433544796,-0.185974228621,0.304925750751,1.0,-0.271812571429,-0.357239379592,2.098
-0.397760476338,-0.523491952678,-0.142665471225,-2.64305363148,-0.074770471058,2.11122197543,-0.656333228847,-1.19454894602,-0.154260895143,0.030546286894,-0.120069345996,-0.00170655517961,-0.044588212602,-1.163909188,0.573941346984,0.818862851541,0.00597557443162,0.0,0.818859185753,-0.573850664451,-0.0120745897376,0.0,-0.00645846997122,0.0118234879505,-0.999909242531,0.0,0.317160409576,-0.191602873754,0.304915712149,1.0,-0.259296,-0.340789028572,2.114
-0.41767369891,-0.525799538295,-0.142001351502,-2.64480973079,-0.0749376577258,2.1105145421,-0.675453821853,-1.14645890025,-0.119123852443,0.0472742543376,-0.0999136543642,-0.00761656116132,-0.0360068019721,-1.10857588972,0.573920338112,0.818877570043,0.00597642729558,0.0,0.81887402802,-0.573829862703,-0.0120566084175,0.0,-0.00644355780789,0.0118137013225,-0.999909454413,0.0,0.312579514984,-0.197645154988,0.304921840594,1.0,-0.245214857143,-0.322282383674,2.132
-0.435626846336,-0.527431774423,-0.141391604019,-2.646068072,-0.0749657768765,2.11000877367,-0.692686299826,-1.11248253801,-0.0914137321378,0.0267088279403,-0.068958389628,0.00928102917546,-0.0338883781081,-1.06016755081,0.57401425707,0.818811310111,0.00603473400757,0.0,0.818808491952,-0.573923449547,-0.0120529859012,0.0,-0.00640576914867,0.0118601055434,-0.999909147882,0.0,0.308936602131,-0.202459358114,0.304918089326,1.0,-0.233480571429,-0.306860179592,2.147
-0.453656976804,-0.528715270522,-0.140620160223,-2.64709956814,-0.0749610104713,2.10956052245,-0.710079110455,-1.04090145542,-0.0673611895338,0.0496962355197,-0.0559658721556,-0.00566131297305,-0.0231248028681,-1.00473577057,0.573931769646,0.818869423416,0.00599483828637,0.0,0.818865865188,-0.573840743925,-0.0120930700416,0.0,-0.00646268725705,0.0118497936747,-0.999908903882,0.0,0.305043210119,-0.207549232437,0.304900412701,1.0,-0.220181714286,-0.289381681633,2.164
-0.470953279775,-0.529581831084,-0.139921758149,-2.64777737215,-0.0749307204037,2.10922392144,-0.726625641729,-0.989948129161,-0.0414867585043,0.0473699059705,-0.0269320756005,0.00793736809804,-0.014707679726,-0.954551469399,0.574025356626,0.818804080119,0.00595946569006,0.0,0.818800079083,-0.573934496472,-0.0120983947323,0.0,-0.00648599690518,0.0118246239898,-0.99990905092,0.0,0.301314712192,-0.212443616749,0.304898469808,1.0,-0.206882857143,-0.271903183674,2.181
-0.486248011563,-0.530040452183,-0.13917434207,-2.64814435315,-0.0748320480147,2.10900888112,-0.741331372214,-0.940651705283,-0.0318066495664,0.0337964233293,-0.0177708131512,0.0102785270625,-0.0141238640022,-0.896018803995,0.574018207022,0.818809586645,0.00589115663026,0.0,0.818804834808,-0.573927892067,-0.0120898347439,0.0,-0.0065182989801,0.0117637192824,-0.999909559254,0.0,0.297847614699,-0.216997867686,0.304900976056,1.0,-0.193584,-0.254424685714,2.198
-0.504063703833,-0.530259146422,-0.138162098389,-2.6483133332,-0.0745828248391,2.10885443743,-0.75861950855,-0.864220879658,-0.00813934555262,0.0486484820657,-0.00599241570501,0.0135861013161,-0.00401748111147,-0.846053602102,0.573815157232,0.818952366968,0.00582519270576,0.0,0.818947108194,-0.573725792671,-0.0120455679083,0.0,-0.00652280863165,0.0116826790921,-0.999910479981,0.0,0.294280615007,-0.221682699343,0.304917162109,1.0,-0.178720571429,-0.234889893878,2.217
-0.515861988654,-0.530260369915,-0.137523212648,-2.64832521575,-0.0743551650054,2.10881685986,-0.769879315678,-0.824958026216,0.000681474991499,0.0434113322668,-0.00109020250765,0.0158345410837,-0.00251418249513,-0.802609757911,0.573901932885,0.818891505738,0.0058326805647,0.0,0.818886638101,-0.573813047473,-0.0120003079794,0.0,-0.00648020682486,0.0116635286824,-0.999910980547,0.0,0.291772018353,-0.224953595839,0.304925940847,1.0,-0.167768571429,-0.220495836735,2.231
-0.530589067081,-0.530016290632,-0.136464307088,-2.64820076202,-0.0738715985019,2.1088081296,-0.784083626864,-0.750887090625,0.0142059752553,0.0519615610105,0.0105368460903,0.0229131521482,-0.00286830991464,-0.719660368717,0.573796841203,0.818964975223,0.00585672990943,0.0,0.818960359641,-0.57370776951,-0.0120029763248,0.0,-0.00647009032479,0.0116839244849,-0.999910807942,0.0,0.288690969008,-0.228945940954,0.304920726205,1.0,-0.152905142857,-0.200961044898,2.25
-0.542205931862,-0.529663176457,-0.135713750166,-2.64800289935,-0.073478920544,2.10881683929,-0.795128235314,-0.717772245445,0.0262159802438,0.0430152531487,0.0109546285023,0.024597659033,-0.000982196698899,-0.668636477682,0.573915233547,0.818881621053,0.00591120174604,0.0,0.818877316047,-0.573825191349,-0.0120556185103,0.0,-0.00648025272039,0.0117596785435,-0.999909854079,0.0,0.286230490913,-0.232106974707,0.304902309875,1.0,-0.140388571429,-0.184510693878,2.266
-0.554597711325,-0.529078752067,-0.134659825415,-2.64767868256,-0.0729464057643,2.10889922398,-0.807081529259,-0.633592413908,0.0338210392452,0.0502361906811,0.012123337046,0.0235676728797,0.010878622837,-0.600167451109,0.573777028668,0.818978379847,0.00592297369144,0.0,0.818973754329,-0.573686106513,-0.0121238531978,0.0,-0.00653137168257,0.0118073757933,-0.999908959386,0.0,0.283662129385,-0.23541119231,0.304870904063,1.0,-0.125525142857,-0.164975902041,2.285
-0.563705566219,-0.528577870841,-0.133940247076,-2.64737692795,-0.0725352631003,2.10898298271,-0.815646317021,-0.591626713176,0.0365549264826,0.0437879604391,0.0193499070914,0.0255521374319,0.00693181393255,-0.536475046238,0.573906842438,0.818887095483,0.00596724012522,0.0,0.818882758004,-0.573815176616,-0.0121621802857,0.0,-0.00653548537087,0.0118666570063,-0.99990823073,0.0,0.281758767038,-0.237849229755,0.304850987188,1.0,-0.113790857143,-0.149553697959,2.3
-0.573021617826,-0.527961137828,-0.133094785943,-2.64693015409,-0.0720485775768,2.10911322665,-0.824430600411,-0.51696064474,0.04371583888,0.055697434185,0.0244256126195,0.0312035202201,0.010509418616,-0.509502675307,0.573978332593,0.818836752861,0.00599939819638,0.0,0.818833081042,-0.573886960402,-0.0121197761351,0.0,-0.00648126652521,0.0118692231263,-0.999908553182,0.0,0.279856489909,-0.240332168029,0.304861666578,1.0,-0.100492,-0.1320752,2.317
-0.580255132848,-0.527374488973,-0.132293819852,-2.64652494114,-0.071603593801,2.10921489214,-0.831301395443,-0.47486499851,0.0369547288257,0.0506114934995,0.0264677209888,0.0338747312118,0.00719337238955,-0.452125213234,0.573922489545,0.818875878608,0.0060015272876,0.0,0.818872150164,-0.573830965276,-0.0121314417095,0.0,-0.00649040775256,0.0118772194552,-0.999908398937,0.0,0.278410912187,-0.242221842727,0.304860592826,1.0,-0.0887577142858,-0.116652995919,2.332
-0.58770691377,-0.526789319353,-0.131405674603,-2.64608649792,-0.0711158177569,2.10933131337,-0.838152965554,-0.41361759324,0.0298852938111,0.0558941490095,0.0268192432206,0.0293758101766,0.0080749635015,-0.379525823766,0.574019082251,0.818808230691,0.00599345189221,0.0,0.818804673694,-0.573928079696,-0.0120918391835,0.0,-0.00646121151076,0.0118486409748,-0.999908927079,0.0,0.276931261265,-0.244148865013,0.304878383062,1.0,-0.075458857143,-0.0991744979593,2.349
-0.594087561107,-0.52617429629,-0.130535054306,-2.64564601058,-0.0705926119599,2.10944505025,-0.844040284837,-0.348352894154,0.0329609127845,0.0544117804046,0.030105812069,0.0220842826675,0.00475871339303,-0.335521157695,0.574055489185,0.818782565696,0.00601268242143,0.0,0.818779266561,-0.573964409785,-0.0120878389923,0.0,-0.00644637021923,0.0118623784165,-0.999908859991,0.0,0.275700604706,-0.245771504904,0.304885259631,1.0,-0.0621600000001,-0.0816960000002,2.366
-0.599282305607,-0.525629086472,-0.129563026129,-2.64530077629,-0.0700328352031,2.10955902639,-0.848868223094,-0.283816694464,0.0282911746242,0.0598876214152,0.0169923251007,0.0291248426171,0.00322954787778,-0.269648505123,0.573926877951,0.818872736053,0.00601064192369,0.0,0.818869238325,-0.57383551814,-0.0121126193495,0.0,-0.00646969848659,0.0118739161906,-0.999908572378,0.0,0.27475653866,-0.247013143507,0.304876669424,1.0,-0.0488611428573,-0.064217502041,2.383
-0.603378376147,-0.525239402744,-0.128655850295,-2.64506476947,-0.069529987819,2.10960022862,-0.852501809762,-0.243601817277,0.0259462335333,0.0561891689522,0.011458380191,0.0315172374422,0.00132450689198,-0.20848626842,0.573891893884,0.818897356126,0.00599676291694,0.0,0.818893290891,-0.573799895426,-0.0121739494162,0.0,-0.00652839874782,0.0118974688694,-0.999907910882,0.0,0.274026845407,-0.247936603728,0.30486728897,1.0,-0.0363445714287,-0.0477671510206,2.399
-0.606813734369,-0.524903965534,-0.127714484053,-2.64483108663,-0.068989173688,2.10969765017,-0.855387923489,-0.17919134275,0.0189498638786,0.0538613406102,0.015656303537,0.0319310708273,0.00403229420317,-0.141070944528,0.573919346186,0.818878191796,0.00598648269245,0.0,0.818874294009,-0.573827937194,-0.0121299632429,0.0,-0.00649787645667,0.0118640257812,-0.999908507061,0.0,0.273478744579,-0.248673348373,0.304882165181,1.0,-0.0230457142858,-0.0302886530614,2.416
-0.609268122056,-0.524622556227,-0.126945385312,-2.6446599955,-0.0685010834156,2.10978132448,-0.857385460353,-0.131947842501,0.0157192164901,0.0363161218842,0.00887285304788,0.0283694444191,0.00255531349618,-0.109774450314,0.573967053332,0.818844544296,0.00601505337603,0.0,0.818841076995,-0.573875616243,-0.0121167078388,0.0,-0.006469932212,0.0118801926095,-0.999908496314,0.0,0.273117065014,-0.249168804288,0.304882829192,1.0,-0.0197183783784,-0.0259155830116,2.433
-0.611180307253,-0.524447606373,-0.12641354057,-2.64452942818,-0.0682142309767,2.10977978978,-0.859061647297,-0.108625822516,0.0132219617698,0.0319101043969,0.0065921071498,0.0126026437217,-4.94189862049e-05,-0.0999636769373,0.573913461396,0.818882227946,0.00599854004532,0.0,0.8188784316,-0.573821899111,-0.0121362787459,0.0,-0.00649621441001,0.011877477486,-0.999908358164,0.0,0.272802154415,-0.249570446531,0.304890870896,1.0,-0.0193783783784,-0.0254687258687,2.45
-0.612975015492,-0.524262961748,-0.126020209431,-2.64433140802,-0.0680183666144,2.10983011656,-0.860806419383,-0.0943181806201,0.00670570192636,0.0112958198642,0.0127450818316,0.0183635764089,0.000606926808947,-0.0987154615224,0.573769831808,0.818983125768,0.00596378371852,0.0,0.818979446573,-0.573679491191,-0.0120521524601,0.0,-0.00644933325441,0.0117996049582,-0.999909583624,0.0,0.272503701954,-0.250003814789,0.304927005574,1.0,-0.0190183783784,-0.0249955830116,2.468
-0.614307085779,-0.524081078436,-0.125865561802,-2.64417140195,-0.0678947200693,2.10991640086,-0.862096267805,-0.0828104013688,0.0102086805248,0.0107343398396,0.00974883587666,0.00880065504748,0.000720626941651,-0.0819425610589,0.573756062979,0.8189926316,0.00598301610087,0.0,0.818989677889,-0.573666518693,-0.0119741280736,0.0,-0.00637458937481,0.0117704836286,-0.999910406149,0.0,0.272261302656,-0.250367387721,0.304944166688,1.0,-0.0187183783784,-0.0246012972973,2.483
-0.616002007927,-0.523904959944,-0.125749141748,-2.64399314003,-0.0678297569092,2.10992391102,-0.863750708349,-0.094406189299,0.00959156653587,0.00742932418592,0.0121939870987,0.000310155885506,-0.000127447525269,-0.0811637158479,0.57374376193,0.819001272705,0.00597978720681,0.0,0.818998419203,-0.573654496045,-0.0119522136507,0.0,-0.00635866879906,0.0117551706164,-0.999910687659,0.0,0.271906027698,-0.250838120814,0.304964048423,1.0,-0.0183383783784,-0.0241018687259,2.502
-0.617387234467,-0.523780496553,-0.125690017877,-2.64384304311,-0.0678061254402,2.10993054658,-0.864998690467,-0.0907136316093,0.00840288226538,0.00579208635116,0.014105503983,0.00195161700584,0.000677876293288,-0.074562771366,0.57383204697,0.818939502726,0.00596821967907,0.0,0.818936775483,-0.573743321287,-0.0119124280367,0.0,-0.00633145361193,0.0117235532588,-0.999911231557,0.0,0.271606560316,-0.251235083231,0.304988601228,1.0,-0.0180183783784,-0.0236812972973,2.518
-0.618761123253,-0.523585790751,-0.125635753377,-2.64366969485,-0.0677652067486,2.10997800926,-0.866412926589,-0.0871840555936,0.00934035027473,0.00178832745735,0.00680973558561,0.0053824643579,0.00200748368716,-0.0801268231596,0.573787092465,0.818970986205,0.00597019057718,0.0,0.818968500794,-0.573698769136,-0.0118770324523,0.0,-0.00630197532757,0.0117045112925,-0.999911640858,0.0,0.271320390867,-0.251638076413,0.305001323924,1.0,-0.0176783783784,-0.0232344401544,2.535
-0.620104248213,-0.523392398918,-0.125631468827,-2.64352905083,-0.0677339810532,2.11001409259,-0.867780891087,-0.0822491712524,0.0112889002642,0.000330851950053,0.00693524997368,0.00228120139954,0.000667978472962,-0.0772180442957,0.573784531678,0.818972613343,0.0059930544829,0.0,0.818970346639,-0.573695973373,-0.0118847954306,0.0,-0.00629525195094,0.0117276714816,-0.999911411838,0.0,0.271020491966,-0.252034902566,0.304997483154,1.0,-0.0173383783784,-0.0227875830116,2.552
-0.621451712367,-0.523214478883,-0.125625756383,-2.64340817413,-0.0677096553116,2.11000772422,-0.86908671315,-0.0800538387584,0.010639445662,0.00184943282398,0.00657520623136,0.000273610127345,0.000150519430045,-0.0759308615566,0.573831486868,0.818939557526,0.00601437442803,0.0,0.818937199379,-0.573742147506,-0.0119397885078,0.0,-0.00632738683909,0.0117770482871,-0.999910628661,0.0,0.270707423692,-0.252422501595,0.304986730051,1.0,-0.0169983783784,-0.0223407258687,2.569
-0.622677508076,-0.52303117582,-0.125611989812,-2.64328826841,-0.0676820133188,2.11002658092,-0.870343358417,-0.0737960365027,0.0128585428885,0.00184617007118,0.0103265674907,0.000498444900731,-0.000728856581272,-0.0777296252672,0.573814753761,0.818951151895,0.00603208723164,0.0,0.81894877089,-0.573724874215,-0.0119760705671,0.0,-0.0063471805008,0.0118122438301,-0.999910088056,0.0,0.270430282329,-0.25277777247,0.304975898291,1.0,-0.0166783783784,-0.0219201544402,2.585
-0.623915163182,-0.52284081032,-0.125577239141,-2.64316964492,-0.0676538051542,2.11008357444,-0.871532318723,-0.069199407939,0.0128707473111,0.000745696169003,0.00453078133845,0.000534704765006,0.00681141901251,-0.0697925059188,0.573857464907,0.818921191687,0.00603644585024,0.0,0.818918773736,-0.573767384221,-0.011990735116,0.0,-0.006356073719,0.0118245593488,-0.999909886001,0.0,0.270174100253,-0.253116717306,0.304963433301,1.0,-0.0163583783784,-0.0214995830116,2.601
-0.6252782367,-0.522635691495,-0.125486897997,-2.64304021115,-0.0676204679696,2.1101118123,-0.872956434251,-0.0732855033376,0.00697974764233,0.00603541876779,0.00340997936045,0.00113280067549,0.00286845667886,-0.0733521888484,0.573755806974,0.818992533448,0.00602088214988,0.0,0.818989723689,-0.573665461152,-0.0120215670347,0.0,-0.00639172456724,0.0118287122428,-0.999909609627,0.0,0.269866950184,-0.253513376527,0.304953728225,1.0,-0.0159583783784,-0.0209738687259,2.621
-0.626330117332,-0.522487819219,-0.125412225492,-2.64294406379,-0.0675995261451,2.11013236625,-0.874009224604,-0.0734692078971,0.0142755280879,0.00535441696184,0.00332317606823,0.00274428904199,-0.000107322061831,-0.0722380177875,0.57371632213,0.81902032786,0.00600259729713,0.0,0.819017138163,-0.573625799561,-0.0120464258411,0.0,-0.00642314663338,0.0118276889079,-0.999909420379,0.0,0.269640344118,-0.253802847096,0.304946665647,1.0,-0.0156583783784,-0.0205795830116,2.636
-0.627368376305,-0.522317054508,-0.125369859316,-2.64283266215,-0.0675715923168,2.11015603347,-0.875111712766,-0.0660030844562,0.0101715509934,-0.000582176106273,0.0067519935805,0.000639447546774,0.00209564151647,-0.0605922273776,0.573651641402,0.819065613017,0.00600523029992,0.0,0.819062263824,-0.573560764588,-0.0120749411951,0.0,-0.00644592873384,0.011845695427,-0.999909060616,0.0,0.269414222723,-0.25409877982,0.304937623939,1.0,-0.0153383783784,-0.020159011583,2.652
-0.628570956209,-0.522141596562,-0.125358002493,-2.6427007422,-0.0675446656252,2.1101848257,-0.876377152413,-0.0644671031664,0.00709504868437,0.00118314288061,0.0116061610971,0.00198184348614,-8.16952550676e-05,-0.0693309464563,0.573610227674,0.819094498484,0.00602130899727,0.0,0.819091292591,-0.573519168849,-0.012081567162,0.0,-0.00644273310651,0.0118623406469,-0.999908883881,0.0,0.269144946454,-0.254451403869,0.304935886831,1.0,-0.0149783783784,-0.0196858687259,2.67
-0.629604358699,-0.521991774176,-0.125355662674,-2.64259993868,-0.0675279559043,2.11021785072,-0.877356818615,-0.0699231805075,0.00851324499344,-0.000657840885203,0.0118343377397,0.00333555006863,4.34533850807e-06,-0.0618856922438,0.573665119378,0.819055968282,0.00603311956736,0.0,0.819052844444,-0.573573865864,-0.0120915386788,0.0,-0.00644333126119,0.0118781664137,-0.999908692154,0.0,0.268909367915,-0.254754590511,0.304929546095,1.0,-0.0146783783784,-0.0192915830116,2.685
-0.630752733875,-0.521833247263,-0.125363361789,-2.64246977323,-0.0674963177001,2.11025672796,-0.878431072231,-0.0655804791244,0.0146426903591,-0.00075620397932,0.00839522790269,0.00134871470001,0.0023524851324,-0.0635759225414,0.573751582329,0.818995207261,0.00605963362934,0.0,0.818992524122,-0.573660372466,-0.0120734997041,0.0,-0.0064120901603,0.0118902131243,-0.999908749803,0.0,0.26865091648,-0.255097196096,0.30493361504,1.0,-0.0143383783784,-0.0188447258687,2.702
-0.631977080473,-0.521650987835,-0.125365158804,-2.64232591109,-0.0674662349686,2.11028265558,-0.879723168835,-0.0628905886487,0.0102562766992,-0.000482189740726,0.0115249926269,0.00265489090672,0.00126318983425,-0.0683909117856,0.573717767894,0.819018711308,0.0060844252904,0.0,0.819016294878,-0.57362635362,-0.0120773365241,0.0,-0.0064015011515,0.0119124553622,-0.999908552914,0.0,0.268374333272,-0.255460072424,0.304934213854,1.0,-0.0139583783784,-0.0183452972973,2.721
-0.632901973009,-0.521516153301,-0.125336800767,-2.6422058571,-0.0674426366057,2.11030896164,-0.880637976149,-0.0572182971373,0.013536630664,0.000800296915884,0.00879221515023,0.00233489155487,0.00100724769338,-0.0541182377506,0.573722234025,0.819015569727,0.00608618367964,0.0,0.819013285325,-0.573631014461,-0.0120600419123,0.0,-0.00638626133473,0.011904008668,-0.999908750959,0.0,0.268175299295,-0.255731182182,0.304942154939,1.0,-0.0136583783784,-0.017951011583,2.736
-0.633923592599,-0.52135686526,-0.125267162144,-2.64208563266,-0.0674234844295,2.11034701206,-0.881646599904,-0.0615118872678,0.00929439869784,0.00528012315905,0.0101006699294,0.000187168342395,0.00348755821443,-0.0535964366201,0.573698061502,0.819032665645,0.00606413520787,0.0,0.819030144736,-0.573607035834,-0.0120555944273,0.0,-0.00639561815371,0.0118832094788,-0.999908938554,0.0,0.267961037622,-0.256020644038,0.304943157402,1.0,-0.0133183783784,-0.0175041544402,2.753
-0.634837205653,-0.521194593489,-0.125201364458,-2.64197763851,-0.0673991188683,2.11037573474,-0.882639598704,-0.0548498029884,0.0148417812274,0.00396116978378,0.00472489256791,5.7304408736e-05,0.000539924313806,-0.0620602349187,0.573602606403,0.819099618014,0.00605083448955,0.0,0.819096802796,-0.573511433314,-0.0120751981003,0.0,-0.00642069100877,0.0118828130688,-0.99990878258,0.0,0.267769373915,-0.256276891016,0.304936612917,1.0,-0.0129983783784,-0.0170835830116,2.769
-0.635785508135,-0.521042942343,-0.125161188143,-2.64188149576,-0.0673742324535,2.11039743916,-0.883602906923,-0.055047534663,0.0114751762659,0.00369480612769,0.00722806192118,0.000307401145908,0.000432745072635,-0.0550406123408,0.57357765202,0.819117080859,0.00605242515154,0.0,0.819114104564,-0.573486141156,-0.0121027479595,0.0,-0.00644270967628,0.0118997216726,-0.999908439866,0.0,0.267559482987,-0.256544088867,0.304927373736,1.0,-0.0126583783784,-0.0166367258687,2.786
-0.636712323958,-0.520878241376,-0.12513627641,-2.64176663818,-0.0673600586291,2.1104136658,-0.884513321745,-0.0560698294562,0.0133516884486,-0.000329270803797,0.00772221265716,0.000404196378604,0.00096339617121,-0.0577164551649,0.573585604671,0.819111527515,0.00605033116245,0.0,0.819108342912,-0.573493767393,-0.0121312915262,0.0,-0.00646717803361,0.0119144403079,-0.999908106638,0.0,0.267353815744,-0.256813606854,0.304920998089,1.0,-0.0123183783784,-0.0161898687259,2.803
-0.637601900161,-0.520734035988,-0.125131907423,-2.64166919967,-0.067346507902,2.11043334962,-0.885411960515,-0.0548563682099,0.00866241372283,-0.00122983470824,0.00363081293069,-0.000338571692499,4.14152353875e-05,-0.0572253739256,0.573586079075,0.819111129029,0.00605929811572,0.0,0.819107910891,-0.573493924905,-0.012152996119,0.0,-0.00647980846999,0.011934238185,-0.999907788769,0.0,0.267149953302,-0.257074010157,0.304914044207,1.0,-0.0119983783784,-0.0157692972973,2.819
-0.638549942811,-0.520594725459,-0.125126282704,-2.64155260756,-0.0673347926071,2.11045640952,-0.886356469692,-0.0507596930902,0.0069304717691,0.00103304586795,0.00772070473768,0.00150500863173,3.30623163921e-05,-0.0490751156141,0.573596060029,0.819104107796,0.00606361381653,0.0,0.819100978548,-0.573503944692,-0.0121473974702,0.0,-0.00647260134161,0.011934641118,-0.999907830639,0.0,0.266936004209,-0.257355184134,0.304917903754,1.0,-0.0116583783784,-0.0153224401544,2.836
-0.639531234241,-0.520444799895,-0.125125517275,-2.64142792043,-0.0673251977976,2.11049463136,-0.887265759281,-0.0537011665209,0.00835275081632,0.000840207399372,0.00775048800959,0.000395897432526,0.00165846261557,-0.0428639902199,0.57366507706,0.819055756758,0.0060657716159,0.0,0.819052775746,-0.573573159281,-0.0121296494889,0.0,-0.00645581974664,0.0119267730151,-0.999908033009,0.0,0.26671602668,-0.257650319523,0.304922709001,1.0,-0.0112983783784,-0.0148492972973,2.854
-0.640311008183,-0.520315258938,-0.125130124735,-2.64132304207,-0.0673205029639,2.11053305633,-0.888032650187,-0.0534924073769,0.00632520849283,0.000216748555135,0.00814923054041,-0.00033143405869,0.00299905555497,-0.0565707088272,0.573687573535,0.819039986905,0.00606751373195,0.0,0.819037149079,-0.573595866138,-0.012111056086,0.0,-0.00643926239946,0.0119177109808,-0.999908247823,0.0,0.266528431094,-0.257903374949,0.304925551793,1.0,-0.0109783783784,-0.0144287258687,2.87
-0.64124036919,-0.520172351801,-0.125120637776,-2.6412032242,-0.067316051072,2.11056418641,-0.88898155785,-0.0500328751112,0.00179804968874,0.0010500240837,0.00597061430346,-0.00036524865586,0.00224179917298,-0.0506597399598,0.573671766697,0.819051100089,0.00606188407793,0.0,0.819048267438,-0.573580232561,-0.0120995587706,0.0,-0.0064333039035,0.0119063801423,-0.999908421163,0.0,0.266334181871,-0.258166057682,0.304930651309,1.0,-0.0106183783784,-0.0139555830116,2.888
-0.641957154305,-0.520069849497,-0.125104214193,-2.64111749372,-0.0673035066592,2.11058678186,-0.889710316538,-0.0537785437285,0.00464115836342,-0.000394874083852,0.00750099997835,0.000470191281862,0.0038259778332,-0.0479937390713,0.573660125782,0.819059251973,0.00606207435491,0.0,0.819056484579,-0.573568709497,-0.0120895598219,0.0,-0.00642517336428,0.011900708844,-0.999908540956,0.0,0.266174873778,-0.258375255072,0.304934221804,1.0,-0.0103183783784,-0.0135612972973,2.903
-0.642752035666,-0.51994802493,-0.125083260684,-2.64103418748,-0.0672969124503,2.11060875514,-0.890473215615,-0.0451026756235,0.00693175663197,0.0013495205717,0.00468371091769,0.000117099075503,0.00486726295841,-0.0536508047506,0.573678717664,0.81904627211,0.00605639684414,0.0,0.819043357437,-0.573587186504,-0.0121022732129,0.0,-0.00643857409541,0.011903497362,-0.999908421564,0.0,0.265994565434,-0.258603712488,0.304929628498,1.0,-0.00997837837838,-0.0131144401544,2.92
-0.643618729987,-0.519821299466,-0.125064075986,-2.64095539728,-0.0672860154656,2.11063615173,-0.891290342299,-0.0412336408259,0.0093613357274,0.000693662716327,0.00521020430143,0.00125844110766,0.00245371419135,-0.0375516947978,0.573714609484,0.819021133352,0.00605614466708,0.0,0.819018116802,-0.573622889713,-0.0121182361798,0.0,-0.00645127253276,0.0119127306948,-0.999908229754,0.0,0.265795184633,-0.258850604168,0.304921599145,1.0,-0.00959837837838,-0.012615011583,2.939
-0.64424512565,-0.519752540041,-0.125056025713,-2.64091847269,-0.0672764133649,2.11064443054,-0.89190643625,-0.0414214147691,0.00365159148551,0.00218743151825,0.00047842448671,0.000152683306533,0.000387574514401,-0.0431665734985,0.573723474008,0.81901486616,0.00606393299448,0.0,0.819011817155,-0.573631470721,-0.0121377946807,0.0,-0.00646269591082,0.0119304002091,-0.999907945319,0.0,0.265643891207,-0.259023718427,0.304913978243,1.0,-0.00931837837838,-0.012247011583,2.953
-0.645074264808,-0.519645779647,-0.125051970002,-2.64083865834,-0.0672652367318,2.11066250439,-0.892734330459,-0.041486659107,0.0108416178427,0.00121313715916,0.00222418886594,-0.000205988399705,-0.00101058760607,-0.0418380027933,0.57373058899,0.819009823799,0.00607179378907,0.0,0.819006844019,-0.573638487975,-0.0121417241591,0.0,-0.00646130115573,0.0119391490875,-0.999907849907,0.0,0.265449810761,-0.25926295946,0.304912601502,1.0,-0.00893837837838,-0.0117475830116,2.972
-0.645694215574,-0.519554676868,-0.125034256661,-2.64077451498,-0.0672523473566,2.11068253912,-0.893297577165,-0.0458472151614,0.00806602467387,0.00300347177353,0.00353764037086,-0.000119375084287,0.00142367755174,-0.0378274493721,0.573773365807,0.818979850223,0.00607260418311,0.0,0.818976862323,-0.573681217623,-0.0121452223972,0.0,-0.00646307789215,0.0119421573769,-0.9999078025,0.0,0.265309956849,-0.259439929312,0.304910354462,1.0,-0.00863837837838,-0.0113532972973,2.987
-0.646378123469,-0.519460749278,-0.125016596147,-2.64068347801,-0.0672396414864,2.11070734053,-0.893967714475,-0.0366410404749,0.00804742811342,0.000134063085887,0.00767648839608,0.00328281098308,0.000158077039728,-0.0489294586627,0.573782193161,0.818973682641,0.00607032558956,0.0,0.818970833822,-0.573690365309,-0.0121196122753,0.0,-0.00644328024541,0.0119256669273,-0.999908127084,0.0,0.265160248543,-0.259641308058,0.304919689506,1.0,-0.00829837837838,-0.0109064401544,3.004
-0.647103735723,-0.519330885743,-0.125006551738,-2.64055923949,-0.0672283585385,2.11074682361,-0.89466248373,-0.0372418720229,0.00888139849694,0.00190899055905,0.00236295530045,0.00291023298947,0.00107222314209,-0.0443749793162,0.573811494004,0.818953186861,0.00606580424263,0.0,0.818950526835,-0.573720138704,-0.012082381489,0.0,-0.00641495428157,0.0119008320814,-0.999908605102,0.0,0.265006947017,-0.259865405039,0.304931951501,1.0,-0.00791837837838,-0.010407011583,3.023
-0.647624100245,-0.519244982423,-0.124983892996,-2.64048339764,-0.0672180190904,2.11077072456,-0.895160407644,-0.0377316355754,0.00507058881057,0.00256502554134,0.00258516996704,0.000292095631475,0.00080905685172,-0.040905377288,0.573822121193,0.818945791774,0.00605889978415,0.0,0.818943155696,-0.573731004721,-0.0120660210044,0.0,-0.00640536178742,0.0118858731163,-0.999908844526,0.0,0.26489686526,-0.260018561743,0.30493736966,1.0,-0.00763837837838,-0.010039011583,3.037
-0.64821606298,-0.51917282917,-0.124963859842,-2.64041486134,-0.0672063271944,2.11079227932,-0.895736636363,-0.0294951883841,0.00141768315151,0.00177460915988,0.0027206599998,0.00336316383723,0.000644110589992,-0.0250305607506,0.573829290366,0.818940788515,0.0060561807905,0.0,0.818938256512,-0.573738443008,-0.0120448303428,0.0,-0.00638946213808,0.0118715431499,-0.999909116489,0.0,0.264765873328,-0.260189101423,0.304944266926,1.0,-0.00729837837838,-0.00959215444016,3.054
-0.648848959959,-0.519060397556,-0.124955032603,-2.6403616893,-0.0671922613457,2.11080715928,-0.896354891747,-0.0329480566376,0.0072642994539,0.00160669154397,0.00294642964405,3.53340395358e-05,-0.000234827650007,-0.0320442853063,0.573844012361,0.818930399985,0.0060660003066,0.0,0.818927729032,-0.573752624365,-0.0120850137793,0.0,-0.0064165251108,0.0119027578169,-0.999908572101,0.0,0.26461639747,-0.260367063396,0.304928519666,1.0,-0.00691837837838,-0.00909272586873,3.073
-0.649324230346,-0.519005712558,-0.124943791207,-2.6403211312,-0.0671839026391,2.11081482131,-0.896834399415,-0.029187720487,0.00404910228552,-0.00147526202019,0.00781268275057,-0.000216258930305,-0.000724650841377,-0.0310256234093,0.573838269421,0.818934404853,0.00606860751341,0.0,0.818931741727,-0.573746822839,-0.0120885306961,0.0,-0.00641799297757,0.0119068660994,-0.999908513768,0.0,0.264505132097,-0.260500035809,0.304927737442,1.0,-0.00659837837838,-0.00867215444016,3.089
-0.649812394522,-0.518934593472,-0.124918214829,-2.64028778623,-0.0671732276549,2.11083423238,-0.897297729109,-0.0289085385057,0.00261151787764,0.00307681907849,-0.000148935482009,-0.000724949406309,1.06386392546e-05,-0.0283801332309,0.573846891591,0.818928380521,0.00606625828219,0.0,0.818925590509,-0.573755274943,-0.0121040731093,0.0,-0.00643194513542,0.0119139282553,-0.999908339997,0.0,0.264393606073,-0.260632521948,0.304918967948,1.0,-0.00627837837838,-0.00825158301159,3.105
-0.650294990485,-0.518878824835,-0.124895358817,-2.64023923286,-0.0671607389128,2.11084391414,-0.897757998718,-0.0272300085292,0.000419548758117,0.000955136824388,0.00397551602831,0.000758492422695,-0.000220630991812,-0.0285392527574,0.573862740979,0.818917261368,0.00606798578296,0.0,0.818914549474,-0.573771216521,-0.0120953980442,0.0,-0.00642361833153,0.0119104894324,-0.999908434492,0.0,0.264278048849,-0.260777387873,0.304922398061,1.0,-0.00593837837838,-0.00780472586873,3.122
-0.650839908792,-0.518787477947,-0.124889177355,-2.6401557971,-0.0671445997795,2.11087204655,-0.898297916885,-0.0252679753361,0.00466164360311,-0.000897085758535,0.00290846688408,7.15336545716e-05,-0.000485473894985,-0.0217442156721,0.573867667578,0.818913791818,0.00607030315195,0.0,0.818911238719,-0.573776370737,-0.0120750314408,0.0,-0.00640553659814,0.0119007387285,-0.999908666588,0.0,0.264167549533,-0.260931499657,0.304928693202,1.0,-0.00555837837838,-0.0073052972973,3.141
-0.651207425192,-0.518723848792,-0.124874438826,-2.64008606832,-0.0671356308248,2.11088190716,-0.898672870786,-0.032389351511,0.00170846543036,0.000414904408902,0.00884804148757,-0.000236990196233,0.000470840237264,-0.0227482964482,0.573858468802,0.818920268026,0.00606624278426,0.0,0.818917779989,-0.573767410563,-0.0120571595057,0.0,-0.00639336297196,0.0118870860291,-0.999908906899,0.0,0.264091792054,-0.261042648345,0.304938136265,1.0,-0.00527837837838,-0.0069372972973,3.155
-0.65163178252,-0.518672748591,-0.124861672005,-2.64002143566,-0.0671178791296,2.1109049539,-0.899089066529,-0.0270051626629,0.00352435918489,-0.00230091215737,0.00697993754336,-0.000133826310336,0.000953201140212,-0.0226027944219,0.57386688284,0.818914345269,0.00606982646871,0.0,0.818912153066,-0.57377627177,-0.0120175877697,0.0,-0.00635877504478,0.0118673787787,-0.999909361543,0.0,0.264002696585,-0.261169081193,0.304950961343,1.0,-0.00493837837838,-0.00649044015445,3.172
-0.652020550948,-0.518633323188,-0.124844973206,-2.63997960124,-0.067101243263,2.11091321877,-0.899454384257,-0.0219442064253,0.00134695175152,0.000198147947347,0.00262988204479,0.000519305268061,0.000993941809369,-0.0216037972496,0.573883452682,0.818902699011,0.00607447052474,0.0,0.818900649878,-0.573792972969,-0.0120040286069,0.0,-0.00634476507998,0.0118635296531,-0.999909496215,0.0,0.263916298983,-0.261277610508,0.304956557746,1.0,-0.00459837837838,-0.00604358301159,3.189
-0.652398406228,-0.51859880306,-0.124820239247,-2.63994821578,-0.0670772811543,2.11091830681,-0.899826308589,-0.0212401568921,0.000377752249788,-0.000242769492096,-0.00114407906274,0.00229833833916,-0.000241279897547,-0.019638860687,0.573885792985,0.818900973968,0.00608591377877,0.0,0.818899132662,-0.573795375165,-0.0119927005665,0.0,-0.00632888684518,0.0118664184548,-0.999909562563,0.0,0.263829428187,-0.261384520517,0.304961052321,1.0,-0.00421837837838,-0.00554415444016,3.208
-0.652691424885,-0.51855915277,-0.124792922701,-2.63992775349,-0.0670535279953,2.110927952,-0.900135651733,-0.0168473630611,0.00248439038036,0.00286375830726,-0.000820041626374,0.00127970150882,0.00374050137489,-0.0205066182871,0.573861109086,0.818918234969,0.00609087964367,0.0,0.818916373735,-0.573770517102,-0.0120047255095,0.0,-0.00633624345509,0.0118771948386,-0.999909388026,0.0,0.263769168283,-0.261452570892,0.304955309793,1.0,-0.00391837837838,-0.00514986872588,3.223
-0.652980623692,-0.518516143199,-0.124752720392,-2.63990562327,-0.0670301618064,2.11093667783,-0.900440945723,-0.0169580841845,0.00505582119601,0.000277564675465,0.00287910581194,0.000268699691017,0.000241007347374,-0.0177299550861,0.573830596333,0.8189396086,0.00609188628811,0.0,0.818937697549,-0.573739888604,-0.012013936068,0.0,-0.00634365207589,0.0118830682146,-0.999909271268,0.0,0.263709923118,-0.261523901055,0.304951228496,1.0,-0.00357837837838,-0.00470301158302,3.24
-0.653237474777,-0.518451137892,-0.124701405112,-2.63987636816,-0.0670042902779,2.11094701044,-0.900698943039,-0.0102366253353,0.00346981601443,0.00413407628387,0.000340586487814,0.000436312633443,0.000281732021011,-0.00877078012106,0.573805942024,0.818956907574,0.00608862344473,0.0,0.818954809854,-0.573714983535,-0.012036776352,0.0,-0.00636458917715,0.0118933102321,-0.999909016449,0.0,0.263663172083,-0.261585696907,0.304942681328,1.0,-0.00323837837838,-0.00425615444016,3.257
-0.653464474537,-0.518403195413,-0.124659638009,-2.63985191301,-0.0669792624286,2.1109494587,-0.9009515033,-0.010210983953,0.000255450793732,0.00225272044137,0.000313619437222,0.00388402888094,-0.000409736094426,-0.015686967927,0.573767407942,0.818983893351,0.0060902311844,0.0,0.818981694006,-0.573676221806,-0.0120550536829,0.0,-0.00637919680327,0.0119048139611,-0.999908786466,0.0,0.263620089563,-0.261639727224,0.304937339269,1.0,-0.00289837837838,-0.0038092972973,3.274
-0.653687404295,-0.518348315519,-0.124630943429,-2.63982720491,-0.066958604372,2.11095504093,-0.901181670405,-0.0121618539887,0.000130649791574,0.00341789033298,0.00229906782431,0.00345072372308,-0.000336907585338,-0.00774869865357,0.573747776575,0.818997632087,0.0060921599202,0.0,0.81899531788,-0.573656325211,-0.01207628823,0.0,-0.00639576853068,0.0119184234382,-0.999908518479,0.0,0.263573962902,-0.261699609547,0.304930584506,1.0,-0.00253837837838,-0.00333615444016,3.292
-0.653868966104,-0.518313251595,-0.124605297589,-2.63981341678,-0.066943401509,2.1109605212,-0.901370779504,-0.0125705311905,0.00349843364757,0.00109740691285,-0.00213611034796,9.72599191529e-05,0.001629948721,-0.0148852930486,0.57373424067,0.819007089702,0.006095490245,0.0,0.819004718928,-0.573642591493,-0.0120910917881,0.0,-0.00640618041498,0.0119295383214,-0.999908319281,0.0,0.263537906396,-0.261740804053,0.304923940279,1.0,-0.00225837837838,-0.00296815444016,3.306
-0.654057160428,-0.51827745203,-0.12458371261,-2.63979880566,-0.0669227823237,2.11096486292,-0.901551619403,-0.0118482777524,0.00304180820899,-0.000159541060003,-2.00391180913e-05,0.000320595872311,0.000131885657228,-0.0124257202536,0.573732856539,0.81900799531,0.00610408448398,0.0,0.819005733188,-0.573641163977,-0.0120901156574,0.0,-0.00640047048811,0.0119360065854,-0.999908278656,0.0,0.263497691867,-0.26179163999,0.304923631288,1.0,-0.00189837837838,-0.00249501158302,3.324
-0.65424305604,-0.518269555406,-0.124563741309,-2.63979318954,-0.0668990907059,2.11097008404,-0.901725952722,-0.00284368891618,-0.000829117960194,0.000298323929791,-0.000236576230547,0.000161625953056,0.00448878026278,-0.00818695263767,0.573740286542,0.819002713353,0.00611441089958,0.0,0.819000513761,-0.573648412857,-0.0120997433001,0.0,-0.00640232375014,0.0119500459316,-0.999908099104,0.0,0.263458219275,-0.261831653911,0.304918853225,1.0,-0.00155837837838,-0.00204815444016,3.341
-0.654415651932,-0.518259282605,-0.124537539341,-2.63978787839,-0.066876759635,2.11096979357,-0.901865935092,-0.0116715342362,0.00179144225864,0.00321872598266,-0.000213243340664,0.00402499166457,-0.000519725591495,-0.00386233369282,0.573758226099,0.818990091346,0.00612169599614,0.0,0.818987962528,-0.573666271504,-0.0121026060709,0.0,-0.00640022715838,0.0119577953461,-0.999908019881,0.0,0.263421711067,-0.261870311416,0.304918086678,1.0,-0.00121837837838,-0.0016012972973,3.358
-0.654556236705,-0.518263860982,-0.124512618562,-2.6397739489,-0.0668627322088,2.11097223952,-0.901951250362,-0.0060284756244,-0.00093831474653,0.00353961433514,0.002295292087,-9.46955654863e-05,0.000429064545122,-0.00975110327974,0.573792408243,0.818966158498,0.00611967143592,0.0,0.818964150489,-0.573700730465,-0.012080520655,0.0,-0.00638280050918,0.0119437325121,-0.999908299351,0.0,0.263395287612,-0.261904507714,0.304926904829,1.0,-0.000898378378384,-0.00118072586873,3.374
-0.654653787988,-0.518261049943,-0.124502334062,-2.63977405344,-0.0668463163447,2.11097085921,-0.902011885918,-0.00447368857713,-0.000769369071512,0.000229620325998,0.00151846706142,0.000369149758969,-3.49116702768e-05,-0.00953409630729,0.573822356269,0.818945101745,0.00612949226564,0.0,0.818943198188,-0.573730585318,-0.0120830672274,0.0,-0.00637881434665,0.011953470248,-0.999908208425,0.0,0.263373162324,-0.261926035016,0.304925955903,1.0,-0.000578378378384,-0.000760154440161,3.39
-0.654686269954,-0.518253007732,-0.124495686539,-2.63977496258,-0.0668258207789,2.11097207861,-0.902068189719,-0.000841503374582,0.00177018606666,0.000729000292735,-0.000997027191665,0.00117555282374,0.000269531816978,0.000506141679511,0.573806870663,0.818955839166,0.00614455673646,0.0,0.818954078755,-0.573714937439,-0.0120886042119,0.0,-0.00637493176024,0.0119688643927,-0.999908049038,0.0,0.263367758946,-0.261930874017,0.3049228532,1.0,-0.000178378378384,-0.000234440154447,3.41
-0.654681933185,-0.518259983678,-0.124471900904,-2.63977240653,-0.0668126399906,2.1109698179,-0.902083128673,0.000717668892725,-0.00206620228425,0.000337506820343,-0.000567010672742,-0.000252319001657,-0.000318222013856,-0.00166559480362,0.573779915134,0.818974731622,0.00614368410573,0.0,0.818973009348,-0.573688084434,-0.0120805066147,0.0,-0.00636919392341,0.0119632938512,-0.999908152266,0.0,0.263375674409,-0.261923680521,0.304926958478,1.0,0.0,0.0,3.426
-0.654676177065,-0.518255581666,-0.124432802372,-2.63977196393,-0.0668003609814,2.11097191887,-0.902080210536,0.000279933334094,0.000392421228563,-0.000124083611536,0.00139726445421,0.000718313446621,0.000496732828482,0.000479865118317,0.573754931765,0.818992301081,0.00613481426488,0.0,0.818990481237,-0.573663178863,-0.0120787317885,0.0,-0.0063731939924,0.0119548165875,-0.999908228168,0.0,0.263388664533,-0.261913748458,0.304928275472,1.0,0.0,0.0,3.444
-0.654673227455,-0.518249694082,-0.12439165947,-2.63976848328,-0.0667912912505,2.11097806737,-0.902091983923,2.34814531256e-05,0.00105034810969,0.00419668597902,0.00147394200066,-0.000114359961021,0.000168035574958,-0.00207793520671,0.573717925547,0.819018328144,0.00612102699909,0.0,0.819016341914,-0.57362626536,-0.0120783387883,0.0,-0.00638132184373,0.0119430105552,-0.999908317412,0.0,0.263399420361,-0.261903755618,0.304927550926,1.0,0.0,0.0,3.458
-0.65467358951,-0.518246937805,-0.124369178093,-2.63977225781,-0.0667832224574,2.11097725518,-0.902089011638,-0.000178142381381,0.00174357309842,0.000838027454854,0.000343796976172,8.1887620733e-05,0.000366323285186,0.000871981250737,0.573707986251,0.819025317037,0.00611747211365,0.0,0.819023242483,-0.57361626508,-0.0120853469142,0.0,-0.00638924659517,0.0119440418474,-0.999908254488,0.0,0.263403922515,-0.261897007344,0.304925283884,1.0,0.0,0.0,3.477
-0.654670849853,-0.518243307341,-0.124357093358,-2.63977439731,-0.0667771652863,2.11097562758,-0.90209842882,-0.000888002368644,0.000966823669674,-0.000227249128488,-0.000429339334371,0.000282492360537,-0.000328443375338,-0.00146127199707,0.573691958622,0.819036544338,0.00611739755815,0.0,0.819034422526,-0.573600154674,-0.0120923189085,0.0,-0.00639523403434,0.0119478553285,-0.999908170651,0.0,0.263407004733,-0.261892200219,0.304923122812,1.0,0.0,0.0,3.491
-0.654672652517,-0.518237352348,-0.124356388583,-2.63976881261,-0.0667729430955,2.1109767402,-0.902092354641,-0.00106435474848,0.00298614109642,-0.000224890363426,0.000696143083372,0.000241407047162,-0.00072657127987,0.00130179266517,0.573699995796,0.819030896472,0.00611983245494,0.0,0.819028811188,-0.573608188463,-0.0120912973962,0.0,-0.00639288322054,0.0119493264272,-0.999908168104,0.0,0.263408387162,-0.261893587814,0.304923580312,1.0,0.0,0.0,3.51
-0.654673586502,-0.518247667653,-0.124358511653,-2.63976096923,-0.0667723094881,2.11098096392,-0.902095338879,6.577043931e-06,-0.00149266557182,0.00232522873879,0.00049645618882,0.00143928742779,-0.000135226460176,0.00104669834292,0.573700400387,0.81903061683,0.00611932935978,0.0,0.819028668355,-0.573608863358,-0.0120689349457,0.0,-0.00637484841005,0.011936088794,-0.999908441355,0.0,0.263410424557,-0.261897022763,0.304931255082,1.0,0.0,0.0,3.526
-0.654678879211,-0.518237582918,-0.124360999769,-2.63976842042,-0.0667669086304,2.11098144817,-0.90210483742,-0.00124049191253,0.00189872495607,0.000256710551376,-0.000500123543386,0.000286520212116,-0.000358675219845,-0.0010762662536,0.573700732235,0.819030328907,0.00612674989727,0.0,0.819028365044,-0.573608953042,-0.0120852449281,0.0,-0.00638394644499,0.0119515259198,-0.999908198914,0.0,0.26340712614,-0.261896391754,0.304924140742,1.0,0.0,0.0,3.545
-0.654671083856,-0.518245375723,-0.124361026077,-2.63976344195,-0.0667689611013,2.11098307578,-0.902104024605,0.00106355843793,-0.000959116414989,0.000115987868091,-0.000420084968601,-0.000361409344955,0.000208404607033,-0.00015479742298,0.573694345738,0.819034824911,0.0061237368579,0.0,0.819032914352,-0.573602754354,-0.0120711352737,0.0,-0.00637421056007,0.0119409139982,-0.99990838781,0.0,0.263410546528,-0.261896195322,0.304929410564,1.0,0.0,0.0,3.561
-0.65467358951,-0.518245378285,-0.1243638101,-2.6397607442,-0.0667675362831,2.11098544089,-0.902097044359,0.00124632467306,-0.000931743435171,-0.000162786895839,0.000756298675467,0.000202981661871,-6.62781138191e-05,0.00130813640997,0.573704820595,0.819027474103,0.0061255523588,0.0,0.819025619325,-0.573613279332,-0.0120659672025,0.0,-0.00636878308307,0.0119395177363,-0.999908439067,0.0,0.26341039874,-0.261898345682,0.304930774568,1.0,0.0,0.0,3.576
