nelsonifechukwu/NELSON_IML_WORK/CNN-GradCAM/train2dof/data_sample_2022-02-22-07-59-40/robot_state.csv
position_joint1,position_joint2,position_joint3,position_joint4,position_joint5,position_joint6,position_joint7,velocity_joint1,velocity_joint2,velocity_joint3,velocity_joint4,velocity_joint5,velocity_joint6,velocity_joint7,ee_T_00,ee_T_10,ee_T_20,ee_T_30,ee_T_01,ee_T_11,ee_T_21,ee_T_31,ee_T_02,ee_T_12,ee_T_22,ee_T_32,ee_T_03,ee_T_13,ee_T_23,ee_T_33,v_x,v_y,time
0.46507373578,0.547684974712,-0.124017766391,-1.35580762212,0.0795272105248,1.89413946597,0.159132942879,-0.00244560412029,-0.000897130940424,0.00031913087468,0.000466864484386,-8.73374687063e-05,0.000185572550957,-0.00122567786599,0.573810568238,0.818973633907,0.0020894124516,0.0,0.818932282949,-0.573751410997,-0.01183136612,0.0,-0.00849093703997,0.00850021388081,-0.999927822571,0.0,0.661698400461,0.260884945762,0.303299015925,1.0,0.0,0.0,0.0
0.465076548173,0.547690494014,-0.124017976558,-1.35581040618,0.0795313398528,1.89413946597,0.15913425579,-0.000881940140951,0.000704880869645,0.000300783944999,-0.00027412308,0.000177572752328,0.00028480819604,-0.000456856241409,0.573810743551,0.818973523659,0.00208447415394,0.0,0.818932068964,-0.573751566446,-0.0118386369562,0.0,-0.00849972355833,0.00850034346402,-0.99992774682,0.0,0.661696698183,0.260886949835,0.303293795387,1.0,-4e-05,-5.25714285714e-05,0.003
0.465078658971,0.547690470983,-0.124018642998,-1.35580765897,0.0795303911971,1.89413865217,0.159131064278,0.00076626783646,0.00309206240533,-0.000527302792044,0.000157333003389,-0.000347397571518,-0.000322525299602,-0.00198322844003,0.573806459616,0.818976522691,0.00208544630957,0.0,0.818935094007,-0.573747292526,-0.0118365123124,0.0,-0.00849747012319,0.0084998760427,-0.999927769946,0.0,0.661696822105,0.260888078608,0.303295068919,1.0,-0.00036,-0.000473142857143,0.019
0.465073028224,0.547683140173,-0.124018722249,-1.35581429553,0.0795314712856,1.89413972537,0.159139709463,-0.000662263765217,0.00281082673738,-4.01313779569e-05,0.000760503685331,2.43317328213e-05,1.03468317606e-05,0.00145581446668,0.573818849113,0.81896783605,0.00208777858239,0.0,0.818926424296,-0.573759657786,-0.0118369585986,0.0,-0.00849636882536,0.00850217070238,-0.999927759796,0.0,0.661697135326,0.260883863645,0.303297201223,1.0,-0.0007,-0.00092,0.036
0.465075582784,0.547629671361,-0.124021506308,-1.35585910102,0.0795300341053,1.89415054925,0.159129103457,-0.00227632353644,-0.00280514439428,-0.00152322014936,-0.00357539198568,1.02926544104e-05,0.00317000278536,-0.00196557069629,0.573812061429,0.818972546851,0.00210536586154,0.0,0.8189313594,-0.573752796516,-0.0118281013946,0.0,-0.00847909402166,0.0085114212423,-0.999927827732,0.0,0.661690491671,0.26087983193,0.303314782769,1.0,-0.00104,-0.00136685714286,0.053
0.465073725804,0.547516665706,-0.124016216595,-1.35599997179,0.0795273304165,1.89417990275,0.159134112389,7.43068250227e-05,-0.00852299802877,5.65872507264e-05,-0.0064109595671,-0.000142119672471,0.00217851542054,5.04101705225e-05,0.573820967879,0.818966288397,0.00211239022195,0.0,0.81892508544,-0.573761566643,-0.0118370596811,0.0,-0.00848230782021,0.00852240646881,-0.999927706908,0.0,0.661666458244,0.260867981449,0.303330153952,1.0,-0.00136,-0.00178742857143,0.069
0.46506209558,0.547365614022,-0.124016926884,-1.35621228161,0.079524527326,1.8942252254,0.159124335456,2.79808686756e-05,-0.00717428679379,-4.61222019928e-05,-0.00894845404379,-5.85258140364e-05,-0.000936246239534,-0.000844761057808,0.573833880094,0.818957258435,0.0021056625248,0.0,0.818915837935,-0.573774373584,-0.011856032129,0.0,-0.00850157205377,0.00852791749886,-0.999927496319,0.0,0.661634162313,0.260839276243,0.303340054532,1.0,-0.00172,-0.00226057142857,0.087
0.465043482737,0.547193524593,-0.124016160414,-1.35643363633,0.0795223816236,1.89434736437,0.159116685597,-0.00305462493001,-0.0112956453129,0.000532236461487,-0.0136372932593,0.000157155805609,0.00851051923742,-0.000423445791802,0.573854374464,0.818942722135,0.00217294080501,0.0,0.818902130117,-0.573794551319,-0.0118262871619,0.0,-0.00843839267203,0.00856615740041,-0.999927704625,0.0,0.661617115646,0.260811347581,0.303367173442,1.0,-0.00206,-0.00270742857143,0.104
0.465031485081,0.547006137236,-0.124014745723,-1.35665007687,0.0795196799257,1.89446390666,0.159103886355,0.000667581874798,-0.0180083417126,-0.000316945122787,-0.0158860627809,4.43345986712e-05,0.00406277775168,-0.000834949255815,0.573864289724,0.818935557525,0.00225310951578,0.0,0.818895962561,-0.573804107326,-0.0117896487698,0.0,-0.00836228009374,0.00861088648932,-0.999927959858,0.0,0.661598632295,0.26078848589,0.303406952283,1.0,-0.00238,-0.003128,0.12
0.465006987655,0.546788671393,-0.12401664417,-1.35695239271,0.079515539074,1.89459347839,0.159088204821,-0.00273333319306,-0.0141693497559,0.000237040099936,-0.0229048186976,-0.000307641981054,0.0074386339818,0.000366903808187,0.573888741307,0.818918297851,0.00229803135407,0.0,0.818879198567,-0.573828292882,-0.0117768987093,0.0,-0.00832580273356,0.00864060600871,-0.999928007877,0.0,0.661567931274,0.260746281195,0.30342838897,1.0,-0.00272,-0.00357485714286,0.137
0.464974954426,0.546533102182,-0.124014123144,-1.35732574029,0.0795061588005,1.89472114071,0.159019442189,4.93943960847e-05,-0.013770198208,0.000131963121622,-0.0218327793099,0.000339063179879,0.00523802986403,-0.00117154284406,0.573875214115,0.818927728772,0.0023152911617,0.0,0.818888709375,-0.57381455157,-0.0117851163287,0.0,-0.00832277102781,0.00865931866647,-0.99992787124,0.0,0.661522781122,0.260692733443,0.303442665533,1.0,-0.00306,-0.00402171428571,0.154
0.464942372925,0.54626574227,-0.124016196952,-1.3577242412,0.079497043031,1.89486445184,0.158927915579,-0.00158151834309,-0.0170139227737,0.004285029693,-0.0240840194111,0.00057449339039,0.0063987879161,-0.00298303426495,0.573848228547,0.818946585005,0.00233418140769,0.0,0.818907680054,-0.573787360833,-0.011790801396,0.0,-0.00831687287371,0.00867777664976,-0.9999277603,0.0,0.661476449401,0.260634438584,0.303454816219,1.0,-0.00338,-0.00444228571429,0.17
0.464901446091,0.545954384946,-0.124016910488,-1.35825765155,0.0794799014258,1.89505218087,0.158896448048,-0.00271350621835,-0.0191760911657,0.000235569442185,-0.0318465587833,-4.08613612968e-05,0.00563275543523,-0.00744717932945,0.57388176782,0.818923145658,0.00231191914154,0.0,0.818883804479,-0.573820828442,-0.0118202583973,0.0,-0.00835341666127,0.00867679098251,-0.999927464233,0.0,0.661411446556,0.260557684081,0.303437687279,1.0,-0.00374,-0.00491542857143,0.188
0.464842278877,0.545627910965,-0.124019447974,-1.35881902405,0.0794374211468,1.89523864706,0.158829989231,-0.00135989410622,-0.0143509453478,-0.00137018235663,-0.0309188290074,-0.00226071195561,0.0135002644679,-0.00797179338429,0.573897607216,0.818912176942,0.00226490390168,0.0,0.818872275399,-0.573836901238,-0.0118386765338,0.0,-0.00839531257167,0.00864902166736,-0.999927353937,0.0,0.661346706138,0.260460499378,0.303417833185,1.0,-0.00408,-0.00536228571429,0.205
0.464780544404,0.545273629892,-0.124020064079,-1.35943787285,0.0793430853723,1.89543446376,0.158734190007,-0.000837360583862,-0.0258831027061,5.76881747649e-05,-0.0424475027673,-0.0052632468109,0.00831512302155,-0.00627470290704,0.5738795117,0.818925102234,0.00217482970184,0.0,0.818884481494,-0.573819623909,-0.0118318251227,0.0,-0.00844158116323,0.00857114133768,-0.999927635003,0.0,0.661274426353,0.260348511913,0.303390936056,1.0,-0.0044,-0.00578285714286,0.221
0.464707694722,0.54484010548,-0.124017240559,-1.36017244455,0.0793286876733,1.8956593889,0.15865631714,-0.00320188926591,-0.0235332088911,0.000683729157014,-0.0413878864279,3.27908459406e-05,0.0183871452396,-0.00152659887559,0.573910364571,0.818903604647,0.00212758940601,0.0,0.818862014604,-0.573850303356,-0.0118986250242,0.0,-0.00852307319215,0.00857111139322,-0.999926943968,0.0,0.661180993578,0.260233396058,0.303367583869,1.0,-0.00476,-0.006256,0.239
0.46463154544,0.544413005424,-0.124020338772,-1.36090252244,0.0793042721409,1.89591841575,0.158576017071,-0.00566598551231,-0.0251390457021,0.00149794223334,-0.0452239501233,-0.00394094315567,0.0205102418716,-0.00380467977079,0.573943381751,0.818880537915,0.00209906382102,0.0,0.818838390198,-0.573883246125,-0.0119355543168,0.0,-0.00856934056617,0.00856929143318,-0.999926564127,0.0,0.66109791215,0.260113820417,0.303344924804,1.0,-0.0051,-0.00670285714286,0.256
0.464561953416,0.543969220824,-0.124023280717,-1.36164125728,0.0792785150386,1.89618261092,0.158455754861,-0.00515557642085,-0.0221137946951,-0.000288144673452,-0.0423374238013,-0.00325350945556,0.0168982160489,-0.00841408143727,0.573938285197,0.818884153396,0.00208206695019,0.0,0.818841603437,-0.573878040057,-0.0119653885389,0.0,-0.00860358020865,0.00857244266576,-0.999926243097,0.0,0.661012548792,0.259998002485,0.303330352036,1.0,-0.00542,-0.00712342857143,0.272
0.464483812063,0.543448216367,-0.124024091461,-1.36247657118,0.0792335099978,1.89646646036,0.158390713378,-0.00940932558965,-0.0256549428423,-0.000170026623967,-0.045693379664,-0.000331733597075,0.0198242396472,-0.00507917323374,0.573983988144,0.818852178348,0.00205870602247,0.0,0.818809237901,-0.573923749435,-0.0119878548463,0.0,-0.0086349070239,0.00856668917858,-0.999926022372,0.0,0.660913613948,0.259865544022,0.303325998292,1.0,-0.00576,-0.00757028571429,0.289
0.464410516921,0.542936532676,-0.124032193695,-1.36329458598,0.0791844612367,1.89675066657,0.158264962137,-0.0082901296424,-0.0346418755866,-0.00045889882382,-0.0478530004309,-0.00357514058832,0.0165762146513,-0.00575785125311,0.573979074201,0.818855673651,0.00203838432857,0.0,0.818812468968,-0.573918922412,-0.0119982524659,0.0,-0.00865513640649,0.00855596507603,-0.999925939295,0.0,0.660819005877,0.259733372702,0.303323488758,1.0,-0.00608,-0.00799085714286,0.305
0.464346558076,0.542388319591,-0.124032908053,-1.36414820966,0.0791274355955,1.89704808029,0.158149232151,-0.00281082117691,-0.0313494407025,0.00021729241469,-0.0510411546586,-0.00136276388406,0.0162015110125,-0.00819771823036,0.573969322388,0.818862532679,0.00202889964159,0.0,0.818819222933,-0.573909230302,-0.0120009345838,0.0,-0.00866287824343,0.00854963492601,-0.999925926398,0.0,0.660715996849,0.259607518988,0.303330693826,1.0,-0.0064,-0.00841142857143,0.321
0.464253755657,0.541772876273,-0.124040030909,-1.36508536642,0.0790795813134,1.8974001006,0.158020635235,-0.00567596296597,-0.0423636520751,3.01391369178e-05,-0.055628441094,-0.00566654863637,0.01497450771,-0.0140941050033,0.573977528798,0.818856700851,0.00206077863602,0.0,0.81881377036,-0.573917265261,-0.0119887032611,0.0,-0.00863447980126,0.00856880517219,-0.999926007931,0.0,0.660607963022,0.259447067586,0.30335214523,1.0,-0.00676,-0.00888457142857,0.339
0.464182603262,0.54113554773,-0.12403395383,-1.3660820308,0.0790219707125,1.8977717741,0.157882540118,-0.00254596957613,-0.0368168871525,0.000601668414242,-0.0580370285792,-0.00315655351366,0.0178427987217,-0.0096634095322,0.573965220255,0.818865303391,0.0020706859479,0.0,0.818822436295,-0.573904851338,-0.0119910938614,0.0,-0.00863088017286,0.00857816009806,-0.999925958797,0.0,0.660495915501,0.259317536089,0.303358787952,1.0,-0.00708,-0.00930514285714,0.355
0.464087223388,0.540421681143,-0.124033405962,-1.36714250421,0.0789515788839,1.89814696936,0.157763341008,-0.00498092817385,-0.0397609530919,0.000174540000801,-0.0604058184512,-0.0065266804825,0.0175699865207,-0.0154199992818,0.57398513542,0.818851287884,0.0020927369581,0.0,0.818808736293,-0.57392469967,-0.0119766180694,0.0,-0.00860616139574,0.00858811739637,-0.999926086381,0.0,0.660373194029,0.259152424198,0.303391086274,1.0,-0.00742,-0.009752,0.372
0.463992656136,0.539696590191,-0.124038455929,-1.36825576135,0.0788909368062,1.89857422555,0.157621554522,-0.00368389012992,-0.0428354404845,0.000400033467118,-0.0698592809372,-0.00270014015635,0.0271443571462,-0.00980621698684,0.573995543265,0.818843902226,0.00212767490255,0.0,0.818801786059,-0.573934941252,-0.0119609889512,0.0,-0.00857320095776,0.00860786408944,-0.999926199727,0.0,0.660249282502,0.25898359764,0.303410808769,1.0,-0.00776,-0.0101988571429,0.389
0.46389502874,0.538936774847,-0.124042016301,-1.3694270252,0.0788239460715,1.89900946707,0.157485341349,-0.00358092291861,-0.0407295452612,-0.00218909404899,-0.0662983430166,-0.00231349258491,0.027893861807,-0.0144069113316,0.57401330632,0.818831395395,0.00214871680484,0.0,0.81878953199,-0.573952593796,-0.0119527937923,0.0,-0.00855422593171,0.00862057548429,-0.999926252729,0.0,0.660115040737,0.25880671101,0.303427969159,1.0,-0.0081,-0.0106457142857,0.406
0.463786896463,0.538206272027,-0.124043417216,-1.37054799057,0.0787599128802,1.89944809687,0.157344238849,-0.00186657023577,-0.0405528959639,-0.000974562825229,-0.0698958262873,-0.00192399892412,0.0312238958157,-0.0067583004551,0.574032217324,0.818818027953,0.00219031378801,0.0,0.818776707739,-0.573971333709,-0.0119313806927,0.0,-0.00851261617767,0.00864254122275,-0.999926418216,0.0,0.659994173449,0.258630446601,0.303448465684,1.0,-0.00842,-0.0110662857143,0.422
0.463677109446,0.537362216261,-0.124052019469,-1.37187351438,0.0786896774521,1.89994307693,0.157183625074,-0.00792794664597,-0.0509028955879,0.000707496682194,-0.0740883946052,-0.00511060336601,0.0306435587814,-0.00468418667653,0.574051004781,0.818804819334,0.00220423358513,0.0,0.818763628387,-0.573990009397,-0.0119305005415,0.0,-0.00850370700692,0.00865362872053,-0.99992639813,0.0,0.659842319797,0.258428952081,0.303456786815,1.0,-0.00878,-0.0115394285714,0.44
0.463561585772,0.536525469025,-0.124055261473,-1.37317437319,0.0786183095715,1.900433157,0.157017224801,-0.00673407354127,-0.0471745030284,-0.00196146609352,-0.0762180892227,-0.00143345842152,0.0303651107518,-0.0111838132436,0.574064215304,0.818795490952,0.00222881268937,0.0,0.818754572409,-0.574003070161,-0.0119236112629,0.0,-0.00848381715119,0.00866993604683,-0.999926425821,0.0,0.659695031214,0.258229114749,0.30347092272,1.0,-0.00912,-0.0119862857143,0.457
0.463471593807,0.535820392934,-0.124064172145,-1.37429521747,0.0785432098066,1.90084502125,0.156886786461,-0.00889250650926,-0.0548329503705,-9.53037897711e-05,-0.0859673430279,-0.00902566681588,0.0292471571916,-0.00536022423099,0.574078869608,0.818785244589,0.00221847101038,0.0,0.818744283123,-0.57401785803,-0.0119182389023,0.0,-0.00848519954362,0.00865853627743,-0.999926512869,0.0,0.659565078446,0.258056581214,0.303471045942,1.0,-0.0094,-0.0123542857143,0.471
0.46333925707,0.534818600176,-0.124061735666,-1.37588490561,0.0784553229332,1.9014113476,0.156690481952,-0.00927975585631,-0.0524200670611,-0.000339298694995,-0.0878323222886,-0.00572572194304,0.0279143842043,-0.008851076499,0.574088394472,0.818778602476,0.00220507613123,0.0,0.818737329514,-0.574027296321,-0.0119413248733,0.0,-0.00851169127811,0.00866092091701,-0.999926267062,0.0,0.659373614526,0.257819372927,0.303470284395,1.0,-0.00978,-0.0128537142857,0.49
0.463206374656,0.533921850528,-0.124068059877,-1.37736565141,0.0783723207487,1.90194135097,0.156511177172,-0.00633812059374,-0.0575093186164,0.000413783253134,-0.0814795534317,-0.00986274639265,0.028374191544,-0.00946113677176,0.574113715501,0.81876096846,0.00215988453367,0.0,0.818719027054,-0.574052718848,-0.0119740396041,0.0,-0.00856415356021,0.00864296533452,-0.999925974472,0.0,0.659198914147,0.257586618495,0.303444220194,1.0,-0.01012,-0.0133005714286,0.507
0.463081629267,0.533060468726,-0.124070545898,-1.37875344437,0.0782991119267,1.90246796295,0.156340912406,-0.00979445280466,-0.051557439432,-0.000572505151168,-0.0844636463969,-0.00201575606393,0.0366828939933,-0.00672295797649,0.574134650094,0.818746279182,0.00216351326127,0.0,0.818704300177,-0.574073550081,-0.0119822732064,0.0,-0.00856859083727,0.00865088240147,-0.999925867995,0.0,0.659040364731,0.257373391863,0.303436868229,1.0,-0.01044,-0.0137211428571,0.523
0.462947109086,0.532102507072,-0.124073703393,-1.38030580287,0.0782118999361,1.90305683067,0.156142141512,-0.00924886046695,-0.0609488719594,-0.000947724629154,-0.0876406919313,-0.00815277546713,0.0303504892988,-0.00738806278601,0.574145826533,0.818738452015,0.00215962201299,0.0,0.818696373514,-0.574084692029,-0.0119900489692,0.0,-0.00857707332967,0.00865227786897,-0.999925783196,0.0,0.658861517419,0.257137047776,0.303424516715,1.0,-0.01078,-0.014168,0.54
0.462811874275,0.531039875303,-0.124068364136,-1.38200602954,0.0781009308182,1.90366620706,0.15592552534,-0.0054122615099,-0.060564988011,0.000684922566315,-0.092024950734,-0.010850473723,0.0346232523817,-0.008775442185,0.574138176162,0.818743889211,0.00213200720914,0.0,0.818701440305,-0.574077147384,-0.0120053069738,0.0,-0.00860550078863,0.00863834873804,-0.99992565938,0.0,0.658654130841,0.256886595485,0.303416798383,1.0,-0.01114,-0.0146411428571,0.558
0.462688015956,0.530119443543,-0.124076248145,-1.38346614241,0.078022692723,1.90418120443,0.155733704203,-0.0096939538062,-0.0589974104114,-0.00137329818245,-0.0984422644903,-0.00938351399551,0.0346169463092,-0.0159776762279,0.574146387004,0.81873817545,0.00211500632164,0.0,0.818695392334,-0.574085315962,-0.0120271139028,0.0,-0.00863302943282,0.00863703621335,-0.999925433424,0.0,0.658478066231,0.256661491436,0.303415223051,1.0,-0.01144,-0.0150354285714,0.573
0.462553287848,0.529074507309,-0.124079439624,-1.38511800422,0.0779136080205,1.90479704553,0.155500775462,-0.00550330323023,-0.0655070304686,0.00274227989652,-0.0935553260659,-0.00825235376165,0.0382146538961,-0.0187306553093,0.574128617653,0.81875063337,0.00211604564941,0.0,0.81870794196,-0.574067622683,-0.0120173732549,0.0,-0.00862464471957,0.00863210746818,-0.999925548341,0.0,0.658283604725,0.256412710972,0.303418426092,1.0,-0.01178,-0.0154822857143,0.59
0.462399434173,0.527921699581,-0.124074811498,-1.38692948388,0.0777985982503,1.90549206319,0.155256211843,-0.00672341017027,-0.068823223333,0.00124748804426,-0.101384796454,-0.00238513559996,0.0336993111174,-0.0137121541405,0.574118441267,0.818757697673,0.00214354835237,0.0,0.818715400761,-0.574057368253,-0.011999058838,0.0,-0.00859396752304,0.00864400342894,-0.999925709704,0.0,0.658073378802,0.256142789305,0.303427963867,1.0,-0.01214,-0.0159554285714,0.608
0.462269614652,0.5268897223,-0.124080127675,-1.38849138143,0.0777009692023,1.90607926773,0.155042337135,-0.0134452662511,-0.0699169161063,-0.00162915083289,-0.106291713754,-0.0122256720171,0.042307439455,-0.00640198219385,0.574111528983,0.818762422708,0.00218960056471,0.0,0.818720778268,-0.574050318692,-0.0119693668833,0.0,-0.00854329141055,0.008664589821,-0.999925965787,0.0,0.657891564875,0.255906473962,0.303461919151,1.0,-0.01244,-0.0163497142857,0.623
0.462129035566,0.525790340334,-0.124083075467,-1.39018782818,0.0775961189236,1.90670895949,0.154818348906,-0.00487203364282,-0.0672306196784,0.00379770275481,-0.105443042667,-0.0028825234377,0.0342642295045,-0.0109008706622,0.574108591372,0.818764413004,0.00221544855315,0.0,0.818723120247,-0.574047290641,-0.0119543875712,0.0,-0.00851621884664,0.00867712262288,-0.999926088048,0.0,0.657690602673,0.255651116764,0.30348262866,1.0,-0.01276,-0.0167702857143,0.639
0.461942915252,0.524408998381,-0.124087483544,-1.39236361218,0.0774594295212,1.90748943348,0.154519044867,-0.00737274298476,-0.0672218141017,-0.000340716081197,-0.108257205749,-0.00638055086832,0.0412349775237,-0.0139122721519,0.574099142875,0.818771078949,0.0022003016948,0.0,0.818729580799,-0.574037897143,-0.0119629875144,0.0,-0.00853205590521,0.00866955987837,-0.99992601864,0.0,0.657427692558,0.255316907675,0.303486309118,1.0,-0.01316,-0.017296,0.659
0.46179954404,0.523285684764,-0.12409081799,-1.39415304566,0.077350104798,1.90814316885,0.154279631312,-0.00625581276778,-0.0691843598674,0.00196917522836,-0.114432033241,-0.00559587795756,0.0454268138713,-0.00888520864462,0.574089446749,0.818777910593,0.00218795736227,0.0,0.818736229731,-0.574028230802,-0.0119717696964,0.0,-0.00854643582979,0.00866439341964,-0.999925940618,0.0,0.657210169792,0.255049754857,0.303481092845,1.0,-0.01348,-0.0177165714286,0.675
0.461633797433,0.522041342717,-0.12409401563,-1.396092931,0.0772378400138,1.90890768966,0.154004476945,-0.0127207700614,-0.0788212442098,0.000999061417781,-0.112828360356,-0.00765313060732,0.0477562781316,-0.0169820972409,0.574076107598,0.818787103935,0.00224677915233,0.0,0.818746197401,-0.574014661173,-0.0119406825824,0.0,-0.00848735614467,0.00869456986373,-0.999926181896,0.0,0.656987789521,0.254758733724,0.303498619366,1.0,-0.01382,-0.0181634285714,0.692
0.4614647302,0.520801399762,-0.124099258419,-1.398113091,0.0771022192491,1.90967356462,0.153740455575,-0.0133558104484,-0.0759840406884,0.00105907497317,-0.121877196977,-0.00736814372898,0.047397334436,-0.0162967953354,0.574073556506,0.818788956247,0.00222345452712,0.0,0.818747870376,-0.574012332246,-0.0119379263984,0.0,-0.00849851559952,0.00867386352256,-0.999926266944,0.0,0.656748534004,0.254451161442,0.303474695706,1.0,-0.01416,-0.0186102857143,0.709
0.461304555931,0.51956839693,-0.124110329603,-1.40004209085,0.0769859770489,1.91037290296,0.15347783353,-0.00974826465575,-0.0810892765434,-0.00110000998002,-0.122325887243,-0.00580413830835,0.043057859318,-0.019878818626,0.574068860742,0.818792245684,0.00222450765326,0.0,0.818751165206,-0.574007624306,-0.0119383254047,0.0,-0.00849828753289,0.00867490611619,-0.999926259838,0.0,0.656514648957,0.254155434205,0.303483332494,1.0,-0.01448,-0.0190308571429,0.725
0.461132608709,0.518237631403,-0.124111975263,-1.40211813644,0.0768485264571,1.91111652325,0.153210775184,-0.00817421122722,-0.0769747779398,0.00113894467036,-0.122437226681,-0.0103247894254,0.0421592546331,-0.00844121063446,0.574065117913,0.818794889786,0.0022171507246,0.0,0.818753751962,-0.574003951067,-0.0119375336553,0.0,-0.00850190196552,0.00866838903319,-0.99992628563,0.0,0.656258734769,0.25384095757,0.303493749564,1.0,-0.01482,-0.0194777142857,0.742
0.460949849178,0.516865638238,-0.12412097571,-1.40425045047,0.0767154836115,1.9118759667,0.152915026893,-0.0100638377619,-0.0765978930345,-2.68851856006e-05,-0.121793019515,-0.00491117813906,0.0450834477619,-0.0120708748709,0.574055835667,0.81880140687,0.00221371757766,0.0,0.818760218258,-0.573994677754,-0.0119399250512,0.0,-0.00850592908768,0.00866685440389,-0.999926264684,0.0,0.655997152764,0.253510795044,0.303507517017,1.0,-0.01516,-0.0199245714286,0.759
0.460781185692,0.515604694184,-0.124126311114,-1.40630133908,0.0765816155403,1.91265458922,0.152629143348,-0.0113279600453,-0.0738641248965,0.00257196170087,-0.127268394106,-0.00246120036515,0.043784728661,-0.0198555572168,0.574036037351,0.818815336437,0.00219534491149,0.0,0.818773996211,-0.573975045914,-0.0119388733712,0.0,-0.00851582337573,0.00865100144526,-0.999926317749,0.0,0.655750662577,0.253201404577,0.303483367187,1.0,-0.01548,-0.0203451428571,0.775
0.460566645278,0.514043968532,-0.124124947285,-1.40880430093,0.0764394821296,1.9135552374,0.152290438906,-0.0129272667906,-0.0826856213919,0.00017822573658,-0.136728157222,-0.00659902014665,0.0377554841201,-0.0187469418711,0.574026875219,0.818821838579,0.00216566234894,0.0,0.818779921767,-0.573965814464,-0.0119762448206,0.0,-0.00856355952436,0.00864805374168,-0.999925935565,0.0,0.655438773797,0.252823150454,0.303464165598,1.0,-0.01586,-0.0208445714286,0.794
0.460390239543,0.512797977963,-0.124123388731,-1.41080766964,0.0763194464816,1.9142468642,0.152012823244,-0.00927765035176,-0.0857419700726,0.000857534740082,-0.138842663797,-0.00488984969208,0.043563959757,-0.0262532308878,0.574015434842,0.818829998044,0.00211228971406,0.0,0.818787238269,-0.573954450656,-0.0120205624539,0.0,-0.00863060521402,0.0086296703933,-0.999925517947,0.0,0.655183835128,0.25251466737,0.30344358982,1.0,-0.01616,-0.0212388571429,0.809
0.460168399266,0.511201992554,-0.124128064675,-1.41337774123,0.0761630730685,1.91520953425,0.151646296604,-0.0146441983086,-0.0867033613264,-0.00171285810821,-0.139351732803,-0.00408304524663,0.0498276435552,-0.0174177985049,0.573992795749,0.818845900267,0.00209974894594,0.0,0.818802953807,-0.573931844364,-0.0120294539549,0.0,-0.00864532271743,0.00862426658996,-0.999925437431,0.0,0.654871290694,0.252122646054,0.303421719048,1.0,-0.01654,-0.0217382857143,0.828
0.459989418327,0.509924020673,-0.124131260018,-1.41543950026,0.0760345795171,1.91599221751,0.151365926846,-0.00962621616811,-0.0826663952169,0.000143585776903,-0.136828219017,-0.0115424467866,0.0534285788335,-0.0228789556478,0.573985132923,0.818851285517,0.00209434759208,0.0,0.818808290233,-0.573924226969,-0.012029648604,0.0,-0.00864866291449,0.00861987458332,-0.999925446417,0.0,0.654622048155,0.251808058902,0.303402995342,1.0,-0.01684,-0.0221325714286,0.843
0.459751419659,0.508155722649,-0.124134457257,-1.41822080405,0.0758540053567,1.91699151668,0.150980848865,-0.0105246551593,-0.0891178986384,-0.00183620268021,-0.137368112483,-0.00493260714322,0.0470343273722,-0.020446699571,0.573962547114,0.818867161458,0.0020768478658,0.0,0.818823946999,-0.573901727431,-0.0120373574446,0.0,-0.00866525697741,0.00860973087024,-0.999925390145,0.0,0.654273783133,0.251382354008,0.303403127785,1.0,-0.01724,-0.0226582857143,0.863
0.459598334231,0.507068671657,-0.124135495765,-1.419917992,0.0757423125366,1.91760388493,0.150736527933,-0.00957449234048,-0.0899460563689,0.000368718970127,-0.14705047589,-0.00597805675826,0.0476258992643,-0.0205824246553,0.573946189615,0.818878631683,0.00207482554927,0.0,0.81883541,-0.573885399645,-0.0120360419502,0.0,-0.00866551231149,0.00860714675893,-0.999925410179,0.0,0.654063184753,0.25111807317,0.303408641959,1.0,-0.01748,-0.0229737142857,0.875
0.459331077475,0.505122954538,-0.124143606871,-1.42293912614,0.075552398356,1.91875028043,0.150324333789,-0.0118342395262,-0.0901686874257,-0.000389881761355,-0.147732403754,-0.0093975834792,0.0493162537663,-0.0184148358975,0.573938225491,0.818884073961,0.00212923339349,0.0,0.818841635998,-0.573877280906,-0.0119995215228,0.0,-0.00860446406251,0.00863065521176,-0.999925734737,0.0,0.653698237893,0.250652808755,0.303430339949,1.0,-0.0179,-0.0235257142857,0.896
0.459132626156,0.50363379348,-0.124146818859,-1.42513607633,0.0754169520262,1.91959009801,0.150017597372,-0.0130320846695,-0.0986816758476,-0.00019331431155,-0.146988332705,-0.00250613127557,0.0542674884377,-0.0215574501147,0.573928377863,0.818890677234,0.00224114344965,0.0,0.818849742098,-0.57386701886,-0.0119369774919,0.0,-0.00848912471416,0.00868629710242,-0.999926238782,0.0,0.653435333732,0.250315247803,0.303497758986,1.0,-0.0182,-0.02392,0.911
0.458888710182,0.50185470305,-0.124150517575,-1.42778580218,0.0752484466678,1.92056683517,0.149652205561,-0.0159971800515,-0.0931267415861,-0.00093350072325,-0.150117791567,-0.00751734616071,0.0505686572426,-0.0245557204552,0.5739216891,0.818895119043,0.00232931067565,0.0,0.818855369186,-0.573860017065,-0.0118874753962,0.0,-0.00839805900425,0.00873001659163,-0.999926627016,0.0,0.653110811607,0.249901901154,0.303563412792,1.0,-0.01856,-0.0243931428571,0.929
0.458694047374,0.500427174247,-0.124153281272,-1.42992240369,0.0751071973485,1.92131519004,0.149349205902,-0.0188326229447,-0.0991980776604,0.000231759561835,-0.15122384264,-0.0111177672697,0.054279865786,-0.0193878105999,0.573905466565,0.818906400794,0.00235989117018,0.0,0.818867060292,-0.573843688424,-0.0118703717421,0.0,-0.00836667583047,0.0087450767479,-0.999926758502,0.0,0.652839929251,0.24956659056,0.303607494279,1.0,-0.01884,-0.0247611428571,0.943
0.458386732234,0.498363107606,-0.124151918655,-1.43314036672,0.0749105119453,1.92251658755,0.14889627825,-0.016213480966,-0.0966203517287,-0.000131782390523,-0.157924372911,-0.00737266733032,0.0566085417853,-0.0242534349388,0.57389607313,0.818912865696,0.00240052995859,0.0,0.818873996578,-0.573834077995,-0.0118564564899,0.0,-0.0083320592836,0.00877027423683,-0.999926826862,0.0,0.652444479008,0.24906207768,0.303619544197,1.0,-0.01926,-0.0253131428571,0.964
0.458209825776,0.497154936549,-0.124153287057,-1.43503012358,0.0747904363958,1.92320330734,0.14860955633,-0.0111672125053,-0.0968916254792,-6.32527655455e-05,-0.157459629443,-0.00736842442923,0.0548017584078,-0.0188719860676,0.573870428979,0.818930829114,0.00240307525698,0.0,0.818891975212,-0.573808408413,-0.0118570767336,0.0,-0.00833138129675,0.00877245365225,-0.999926813393,0.0,0.652207378939,0.24876492646,0.303621840674,1.0,-0.0195,-0.0256285714286,0.976
0.457878631655,0.495111184573,-0.124156828466,-1.43837392564,0.0745841359265,1.92435436471,0.148128056891,-0.0158134807021,-0.0940793406156,-0.0012592540649,-0.158958847686,-0.0144947481544,0.056633758218,-0.0191621121399,0.573862789622,0.818936543654,0.00227663253511,0.0,0.818895835862,-0.573801054249,-0.0119460056929,0.0,-0.0084768496695,0.00871986093893,-0.999926050788,0.0,0.651775444184,0.248222332376,0.303554274659,1.0,-0.01992,-0.0261805714286,0.997
0.457633548737,0.493661238122,-0.124170811479,-1.44072890258,0.074440324291,1.92518924158,0.147803354585,-0.0174843104866,-0.110702474954,7.22892830323e-05,-0.177421337386,-0.0131492893573,0.0589748678682,-0.0257879074585,0.573887249505,0.818919573547,0.00221445695023,0.0,0.818877987773,-0.573825695798,-0.0119857784323,0.0,-0.00854484077678,0.00869202281747,-0.999925714459,0.0,0.651480613506,0.247827856878,0.303515926467,1.0,-0.0251228571429,-0.0330186122449,1.011
0.457287480827,0.490870980462,-0.124251278311,-1.44496947588,0.0741972060011,1.92679611442,0.147171305711,-0.0245102909744,-0.162132087921,-0.00507025459148,-0.255326566437,-0.00759252425383,0.0893156470418,-0.0370143971771,0.573858366596,0.818939464696,0.00233990452116,0.0,0.818899706455,-0.573796508613,-0.0118989231591,0.0,-0.00840203048272,0.0087446120947,-0.999926466118,0.0,0.650960719702,0.247159038405,0.303580739004,1.0,-0.0348942857143,-0.0458610612245,1.03
0.456910350352,0.488351031593,-0.124257848854,-1.44907509742,0.073983956896,1.92830031882,0.146566032632,-0.0302197285156,-0.195348400193,-0.00132727144372,-0.308294550027,-0.0178227059598,0.117004100509,-0.0423571886286,0.573824167935,0.8189635701,0.00228955109943,0.0,0.818922686467,-0.573762030752,-0.0119796727245,0.0,-0.00849742165647,0.0087493595227,-0.9999256185,0.0,0.650432543425,0.246523961336,0.303509421671,1.0,-0.0420942857143,-0.0553239183673,1.044
0.456164909231,0.483483324804,-0.124372744905,-1.45668280077,0.0735214923887,1.93112481963,0.145408238637,-0.0388172760452,-0.250736627138,-0.00598249529189,-0.399213998783,-0.0237930207167,0.137495849762,-0.0668561666065,0.57382083245,0.818965763057,0.00234053147728,0.0,0.818925827849,-0.573758784145,-0.0119202768083,0.0,-0.00841956020015,0.00875699343809,-0.999926210314,0.0,0.649496728594,0.245251768308,0.303516751209,1.0,-0.0528942857143,-0.0695182040816,1.065
0.455660954,0.480211897327,-0.124455285136,-1.46188781143,0.0732084530025,1.93292089565,0.144634767097,-0.0414802290989,-0.281954259695,-0.00981571029428,-0.445980456843,-0.0294204647392,0.151634955343,-0.0597696756542,0.573829718339,0.818959883737,0.00221587025667,0.0,0.81891825293,-0.57376810157,-0.0119919781509,0.0,-0.00854971797031,0.00869613747156,-0.999925636993,0.0,0.648820882118,0.244374485344,0.303466186576,1.0,-0.0590657142857,-0.0776292244898,1.077
0.454699564752,0.474214687525,-0.124587570523,-1.47117581763,0.0726414173903,1.93625720497,0.143278136749,-0.0521190430266,-0.329477379936,-0.00995193034179,-0.515047786188,-0.0275184976966,0.189708855269,-0.0727793594726,0.573898494497,0.818911628377,0.00223826357228,0.0,0.818870409044,-0.573836898788,-0.0119671919123,0.0,-0.00851583834526,0.0087009687494,-0.999925884073,0.0,0.647645758748,0.242788302991,0.303490593777,1.0,-0.0688371428571,-0.0904716734694,1.096
0.453761892101,0.468509168992,-0.124655494554,-1.47988915969,0.0721318778328,1.93946677739,0.141943266578,-0.0605569654448,-0.373261833152,-0.0051248441658,-0.557961079247,-0.0373076907685,0.220112592922,-0.0864353402231,0.573902225451,0.818908498226,0.00241951606146,0.0,0.818869434884,-0.573839690669,-0.0118997867885,0.0,-0.00835658307004,0.00881075150454,-0.99992626637,0.0,0.646542551582,0.241321682024,0.303565603806,1.0,-0.0770657142857,-0.101286367347,1.112
0.45269886388,0.462179586163,-0.12469342437,-1.48959727521,0.0715221844863,1.94297380617,0.140367920273,-0.0693418376525,-0.410507264559,-0.00559505068831,-0.631351569575,-0.0453510405246,0.223842926128,-0.101419498403,0.573802342727,0.818978155411,0.00252969190854,0.0,0.818940345497,-0.573739201839,-0.0118653146388,0.0,-0.00826620922988,0.00888018307355,-0.999926403359,0.0,0.645281183778,0.239688936558,0.303614220522,1.0,-0.0852942857143,-0.112101061224,1.128
0.45140670449,0.454839695987,-0.124798760489,-1.50111452372,0.0707622595136,1.94683692372,0.138662206489,-0.0747377007631,-0.437129279397,-0.00858313837959,-0.691040926332,-0.0421916239731,0.230991259479,-0.108896457503,0.573865548877,0.818934706263,0.00224178297521,0.0,0.818892895666,-0.573803292362,-0.012039684578,0.0,-0.00857353816859,0.00874510872111,-0.999925005946,0.0,0.643721334547,0.237672831587,0.303519916853,1.0,-0.0940371428571,-0.123591673469,1.145
0.449998893952,0.446621524897,-0.124911117748,-1.51324498997,0.0699164128133,1.95135102056,0.136726923278,-0.0862871322629,-0.486946247025,-0.00301744404685,-0.723806403988,-0.0470498502038,0.266600285805,-0.113157194758,0.573835396621,0.818954457465,0.0026983485462,0.0,0.818919590594,-0.573772453313,-0.0116885782576,0.0,-0.00802432969348,0.0089172221113,-0.999928044053,0.0,0.64216880093,0.235550418748,0.303777346571,1.0,-0.10278,-0.135082285714,1.162
0.448525589336,0.438493699118,-0.124946928919,-1.52574101049,0.0691073509458,1.95565911829,0.134763763478,-0.0912478901464,-0.513090068816,-0.00419630431488,-0.77360539302,-0.0512719428025,0.269657609383,-0.122784501323,0.573795410237,0.818982617404,0.00265452117311,0.0,0.818946621313,-0.573732010138,-0.0117795961099,0.0,-0.00812445710642,0.00893316131926,-0.999927093255,0.0,0.640449215099,0.233385000749,0.30376424784,1.0,-0.111008571429,-0.145896979592,1.178
0.446804255348,0.429149572959,-0.125022448486,-1.53974620277,0.0681535647254,1.96064723254,0.132464651766,-0.104038208705,-0.553426809164,-0.00225763682689,-0.832285035693,-0.0578886871598,0.294646137333,-0.144661578749,0.573725064837,0.819031038188,0.00290781078813,0.0,0.818998526644,-0.573661008155,-0.0116278965178,0.0,-0.00785566173452,0.00905288273089,-0.999928164366,0.0,0.638553422376,0.230904634816,0.303904174093,1.0,-0.119751428571,-0.157387591837,1.195
0.44476094381,0.418725357577,-0.125088427335,-1.55565667317,0.0670201761657,1.9660624844,0.12983462616,-0.115949224131,-0.582799641327,-0.00327416318895,-0.899857965484,-0.0585884246446,0.304412585795,-0.152344349264,0.573652318246,0.819082333673,0.00280986414396,0.0,0.819048515651,-0.573588563181,-0.0116805864047,0.0,-0.00795580920791,0.00900218384573,-0.999927830289,0.0,0.636319696708,0.228025892397,0.303886358806,1.0,-0.129008571429,-0.169554122449,1.213
0.442792291837,0.408820674412,-0.125205789281,-1.57050695339,0.0659651959703,1.97129558366,0.127364321862,-0.135779917671,-0.610770922536,-0.00654967864162,-0.951025077456,-0.0586024061928,0.322447672658,-0.156909629894,0.573647723023,0.819084851189,0.00300721211895,0.0,0.819054034867,-0.573583827129,-0.0115251084848,0.0,-0.00771530207547,0.0090745961737,-0.999929060393,0.0,0.63425987326,0.225290162865,0.303980267972,1.0,-0.137237142857,-0.180368816327,1.229
0.4404602359,0.397740712947,-0.125301769757,-1.58717081164,0.0648454749119,1.97692487987,0.12454961741,-0.143911385083,-0.683161574087,-0.0117765537867,-0.996124704219,-0.0627948892891,0.348887961302,-0.176640117768,0.573680875362,0.819061455412,0.00305489811578,0.0,0.819030619315,-0.573616071004,-0.011584239802,0.0,-0.00773601459986,0.00914788805094,-0.999928232536,0.0,0.631867980517,0.222169732302,0.304012048806,1.0,-0.14598,-0.191859428571,1.246
0.43793934027,0.386199079368,-0.125437121935,-1.60465550878,0.0635117627821,1.98280492013,0.121541454118,-0.153097088964,-0.687554646892,-0.00709641980714,-1.06244548295,-0.0789144371437,0.332395786468,-0.184366617709,0.573682304526,0.819060938045,0.0029223525889,0.0,0.819028862819,-0.573618491317,-0.0115885801561,0.0,-0.00781558832443,0.00904182857101,-0.999928578407,0.0,0.629327156388,0.218816450831,0.303955362635,1.0,-0.154722857143,-0.203350040816,1.263
0.435377480857,0.374754364933,-0.125558617929,-1.62164528262,0.0622560004351,1.98847728374,0.118468248055,-0.166246932003,-0.72831438925,-0.00918055066188,-1.08784815844,-0.0807907316106,0.353262225522,-0.197658420374,0.573634374899,0.819094252837,0.00299262497327,0.0,0.81906313307,-0.573570392607,-0.01154710665,0.0,-0.00774183666743,0.00907514081637,-0.999928850361,0.0,0.626822694109,0.215515477571,0.304016364625,1.0,-0.162951428571,-0.214164734694,1.279
0.432174992006,0.361357167659,-0.125742989827,-1.6414599053,0.0607294482664,1.9950592778,0.114958966892,-0.182383341832,-0.762696064123,-0.014382840614,-1.12573629388,-0.0853260433051,0.378069235727,-0.20409949684,0.573798027019,0.818979386053,0.0030555376883,0.0,0.818949589657,-0.573734428872,-0.011450835302,0.0,-0.00762507770127,0.00907297272284,-0.999929767212,0.0,0.623886197709,0.211516565914,0.304076390243,1.0,-0.172208571429,-0.226331265306,1.297
0.428913204086,0.348295504489,-0.125895062001,-1.66096839577,0.0592728307765,2.00127961124,0.111297499217,-0.198906013126,-0.775852890616,-0.00485814930384,-1.15307750197,-0.0848915160619,0.363242851883,-0.221272526255,0.573840717633,0.818950230751,0.00284556521028,0.0,0.818917073544,-0.573777040613,-0.0116396402289,0.0,-0.00789971816016,0.00900975490224,-0.999928206808,0.0,0.620881980645,0.207543641037,0.303984031376,1.0,-0.180951428571,-0.237821877551,1.314
0.425851741762,0.33622445151,-0.1260277776,-1.67850277694,0.0578969448326,2.00707382581,0.107958712746,-0.205697312702,-0.814784710762,-0.0121141919687,-1.17786507788,-0.105327539397,0.374761113419,-0.223837013959,0.573894254303,0.818911894549,0.00307257945369,0.0,0.818882029991,-0.573830248013,-0.0114810419572,0.0,-0.00763896986448,0.00910515941554,-0.999929368611,0.0,0.618199503144,0.203922877549,0.304095816955,1.0,-0.188665714286,-0.247960653061,1.329
0.422256056737,0.322164619329,-0.126110204718,-1.69901437984,0.0562154912245,2.01364390375,0.103935552485,-0.217653373448,-0.844769291382,-0.00298523581042,-1.21364288148,-0.102472314191,0.386395629088,-0.242786954029,0.57375739795,0.819007664684,0.00310489736985,0.0,0.818978397857,-0.573693526243,-0.0114397854846,0.0,-0.00758815856903,0.00910668075803,-0.999929741639,0.0,0.614936185673,0.199726605795,0.30411980084,1.0,-0.197408571429,-0.259451265306,1.346
0.418346621653,0.307589284595,-0.126196690989,-1.72005969671,0.0544993106575,2.02026999441,0.0996897165267,-0.237034575553,-0.886273223146,-0.00557704633552,-1.24512928611,-0.10661637708,0.406742280496,-0.255340136806,0.573667213773,0.819070497667,0.00319289737254,0.0,0.819042224538,-0.573602918694,-0.0114137194374,0.0,-0.00751733033974,0.00916297081074,-0.999929762389,0.0,0.611530411711,0.195315162432,0.304176670835,1.0,-0.206151428571,-0.270941877551,1.363
0.414138121544,0.292648623491,-0.126324302316,-1.74169204385,0.0526785107597,2.02680373314,0.0952616524021,-0.253987581087,-0.921285903951,-0.0100403746648,-1.27040358375,-0.100650167746,0.399557657794,-0.265650898588,0.573646878148,0.819085442392,0.00300734994339,0.0,0.819054427057,-0.573582745879,-0.0115510194027,0.0,-0.00773645674997,0.00908956450692,-0.99992876099,0.0,0.607931297625,0.190656337667,0.304127509804,1.0,-0.214894285714,-0.282432489796,1.38
0.40964169036,0.277252663407,-0.126478505605,-1.76381420538,0.0508510968251,2.03349502264,0.0905605901653,-0.274434830652,-0.913350738821,-0.00640726519972,-1.312965045,-0.106760533107,0.369798426305,-0.279992477893,0.573632171628,0.819095928392,0.0029561235059,0.0,0.819063584349,-0.573567433909,-0.0116614944385,0.0,-0.00785649770185,0.00911083690553,-0.999927631429,0.0,0.604202665265,0.185811951659,0.304091141455,1.0,-0.223637142857,-0.293923102041,1.397
0.404754396402,0.26128958102,-0.126689872496,-1.78629814269,0.0488528815002,2.04026798185,0.0856334257311,-0.302319848605,-0.9193146823,-0.0117727110828,-1.34364999499,-0.123479287518,0.390661866273,-0.293602878475,0.573711022496,0.819040420975,0.003032882778,0.0,0.819009520389,-0.573646545796,-0.0115668884576,0.0,-0.00773409536762,0.00912018686539,-0.999928500424,0.0,0.600157489454,0.180388600877,0.304159839549,1.0,-0.232894285714,-0.306089632653,1.415
0.399835725235,0.245984512628,-0.126867836896,-1.80778114865,0.0469170807379,2.04653321497,0.080804612521,-0.316276573907,-0.971749272665,-0.00880961471116,-1.36020295656,-0.133443087108,0.394514038724,-0.318885167186,0.573801443439,0.818976881983,0.0030849937165,0.0,0.818946776588,-0.573736932185,-0.0115263465197,0.0,-0.00766998417362,0.00914045591261,-0.99992880917,0.0,0.59665936374,0.175708231649,0.304222635708,1.0,-0.240608571429,-0.316228408163,1.43
0.394098548145,0.228299272551,-0.127015260656,-1.83237206331,0.04476696719,2.05365680279,0.0750452277954,-0.323784865015,-0.981274275393,-0.00514061654012,-1.38324057936,-0.116665794157,0.387443461506,-0.321327959752,0.573742829836,0.819017271852,0.00325891413055,0.0,0.818988705207,-0.573676923395,-0.0115340889671,0.0,-0.00757720013169,0.00928679350728,-0.999928168172,0.0,0.592275288125,0.170041328624,0.304284707171,1.0,-0.249865714286,-0.328394938775,1.448
0.388325574829,0.211183696404,-0.127187208287,-1.85599531487,0.042482144028,2.06029104374,0.0692912487776,-0.343725219044,-1.01101022862,-0.00931994114898,-1.38713905679,-0.13068588719,0.386740503222,-0.341583272339,0.573606754613,0.819112563836,0.00326277944148,0.0,0.819084460036,-0.573541361205,-0.0114761150258,0.0,-0.00752903599675,0.00925544722859,-0.999928822624,0.0,0.587969016616,0.164453193748,0.304321617662,1.0,-0.258608571429,-0.33988555102,1.465
0.383229592535,0.196833177581,-0.12734889062,-1.87570475386,0.0405617094715,2.0656280163,0.0643402072004,-0.371304088489,-1.05495529186,-0.0147078042914,-1.40569393407,-0.147308275549,0.399198769593,-0.361951113132,0.573567572078,0.819140327056,0.00317989828977,0.0,0.819111097817,-0.57350237239,-0.0115232459795,0.0,-0.00761562289159,0.00921422760042,-0.999928547596,0.0,0.584301035808,0.15966033244,0.304315460113,1.0,-0.265808571429,-0.349348408163,1.479
0.375739950135,0.176875146082,-0.127675889814,-1.90271186313,0.0379747129968,2.07290269485,0.0572646264029,-0.405095079437,-1.08270004741,-0.023122718757,-1.42092309547,-0.149072449332,0.394470233537,-0.383659292779,0.5737340463,0.819023172976,0.00332161814168,0.0,0.818995526618,-0.573668083964,-0.0114892872576,0.0,-0.00750463067731,0.00931236495842,-0.999928477631,0.0,0.579240247979,0.152832671646,0.304386055862,1.0,-0.27558,-0.362190857143,1.498
0.368691510209,0.158671934489,-0.127889268775,-1.92718907903,0.0354792896425,2.07917424014,0.0506292148015,-0.421932788846,-1.10420502657,-0.0160398921288,-1.42727799109,-0.143775465916,0.39186994068,-0.399423163297,0.573728641874,0.819027247987,0.00324953047758,0.0,0.818998498108,-0.57366269086,-0.0115466061588,0.0,-0.00759299685677,0.00928615803777,-0.999928054246,0.0,0.57449051393,0.146602123767,0.304390428926,1.0,-0.284322857143,-0.373681469388,1.515
0.362174379371,0.142456680397,-0.128077559405,-1.94898374459,0.0331902784873,2.08464674258,0.0445585492898,-0.440146744714,-1.08868631134,-0.021473907117,-1.43814013149,-0.138900427152,0.351902888579,-0.4089001368,0.573719459501,0.819034246918,0.00310339596442,0.0,0.819003326315,-0.573653645748,-0.0116530299119,0.0,-0.00776410565211,0.00922743929713,-0.99992728387,0.0,0.569881068267,0.140608127938,0.304311741835,1.0,-0.292551428571,-0.384496163265,1.531
0.353841122253,0.12243664884,-0.128376022695,-1.97528701878,0.0304478452227,2.09108315165,0.0367821954516,-0.469242623435,-1.10134772026,-0.0164503123302,-1.44801349895,-0.145326813445,0.337352355522,-0.428514802783,0.573709213728,0.819041150953,0.00317459149432,0.0,0.819010897387,-0.573642859641,-0.0116518859223,0.0,-0.00772244099449,0.0092849981045,-0.999927073699,0.0,0.564873146943,0.134004816593,0.304354593433,1.0,-0.301294285714,-0.39598677551,1.548
0.344398352965,0.100887890183,-0.128786055771,-2.00322418457,0.0273577315888,2.09769324403,0.0281735719915,-0.504158070998,-1.11543658083,-0.0188217798283,-1.46983467592,-0.147621390573,0.332631432903,-0.458117750405,0.573833294254,0.818953906331,0.00325524364649,0.0,0.818925142421,-0.573767203738,-0.0115565534265,0.0,-0.00759667878743,0.00929751499574,-0.999927920745,0.0,0.559138887557,0.126316221724,0.304417878925,1.0,-0.311065714286,-0.40882922449,1.567
0.336610478967,0.0835783152092,-0.129025980201,-2.02559967673,0.0249268822523,2.10267952454,0.02099158711,-0.532636391772,-1.14036826892,-0.0144673312015,-1.511153782,-0.159417780013,0.32000260395,-0.484217338759,0.573771498299,0.818997449163,0.0031926329558,0.0,0.818966852914,-0.57370438202,-0.0117184803048,0.0,-0.00776592747894,0.00933857036301,-0.999926238017,0.0,0.554375231052,0.120187816507,0.304370701625,1.0,-0.31878,-0.418968,1.582
0.327296973402,0.0638207319172,-0.129353489456,-2.05074843718,0.0219717954819,2.10818332469,0.0124703151275,-0.56581877143,-1.12795354768,-0.0251254162859,-1.46681634684,-0.176324232397,0.305947800461,-0.498868568459,0.573706799308,0.819042896114,0.00316064148297,0.0,0.819012098897,-0.573640057033,-0.0117052863129,0.0,-0.00777421071867,0.00930418509479,-0.999926494192,0.0,0.548630397212,0.112628827975,0.304359820254,1.0,-0.31998,-0.420545142857,1.6
0.316878972507,0.0430254820825,-0.129697303254,-2.07687988843,0.0188992530241,2.11345161462,0.00332736783193,-0.584262996904,-1.13127059912,-0.0150890817399,-1.44965214093,-0.172600032105,0.289644237129,-0.521313109777,0.573899274646,0.818908260708,0.00310322523904,0.0,0.818876174378,-0.573832058643,-0.0118036609247,0.0,-0.00788553713152,0.00931544900611,-0.999925517583,0.0,0.543164738373,0.105370860566,0.304353522033,1.0,-0.31998,-0.420545142857,1.617
0.308052440009,0.0257553972671,-0.129889489499,-2.09803172425,0.0163502788987,2.11758357357,-0.00452037899345,-0.599001755817,-1.14030824176,-0.0132998138774,-1.40382090058,-0.186316662607,0.26460471762,-0.530705982135,0.573878491487,0.818922141174,0.00327881156946,0.0,0.818892342859,-0.573810681293,-0.01172091049,0.0,-0.00771724459538,0.00941155332034,-0.999925930657,0.0,0.538377992806,0.0990995117079,0.304469456753,1.0,-0.31998,-0.420545142857,1.632
0.297686828898,0.00645643199797,-0.130162323355,-2.12148840174,0.0134101660548,2.12193534728,-0.0136483411571,-0.620045152197,-1.12429927203,-0.0190118040436,-1.3727759945,-0.163402701324,0.230558166286,-0.542656922223,0.573924720139,0.818889330797,0.00338029902407,0.0,0.818861070813,-0.573856842288,-0.0116455213583,0.0,-0.00759673172854,0.00945182984196,-0.999926473587,0.0,0.532964707594,0.0919177171717,0.304550215865,1.0,-0.31998,-0.420545142857,1.649
0.287072853633,-0.0126943220862,-0.130354814958,-2.14440166968,0.010581594762,2.12603087286,-0.0230813658585,-0.621522983467,-1.11214945072,-0.00616924833756,-1.34405046562,-0.161188566957,0.228160176728,-0.551448352084,0.573848439128,0.818941608012,0.00365492516051,0.0,0.818916787538,-0.573779567642,-0.011534719215,0.0,-0.00734928162001,0.00961244525782,-0.999926791798,0.0,0.527558540147,0.0848328912319,0.304663522778,1.0,-0.31998,-0.420545142857,1.666
0.276786637213,-0.0305357490453,-0.130589000389,-2.16549128183,0.00777145140763,2.12949187512,-0.0321326483417,-0.652511180859,-1.12900352339,-0.0173712160861,-1.30780658884,-0.180549499809,0.23730082867,-0.560448724916,0.573805122214,0.818971510356,0.00375417728388,0.0,0.818948566378,-0.573736755116,-0.0114073817093,0.0,-0.00718854953652,0.00962027738054,-0.999927884909,0.0,0.522459974354,0.0781119648201,0.30475298848,1.0,-0.31998,-0.420545142857,1.682
0.265453080119,-0.0491569149983,-0.130890533701,-2.18745225596,0.00493045521381,2.13275860891,-0.0420027259629,-0.670166191882,-1.10934986141,-0.0133726510657,-1.26342291437,-0.160479298179,0.192030539089,-0.578784326573,0.573944219213,0.818873782598,0.00380897730439,0.0,0.818850845129,-0.573874735849,-0.0114816325859,0.0,-0.00721627099717,0.00970898786267,-0.999926827817,0.0,0.516701076021,0.0704923413028,0.304775324494,1.0,-0.31998,-0.420545142857,1.7
0.25395391247,-0.0675852818129,-0.131089682021,-2.20896786329,0.00201026646534,2.13578897139,-0.0521523477926,-0.689485404728,-1.0763918406,-0.0149305868995,-1.26443375667,-0.169647154323,0.149146518179,-0.607317432271,0.57380962662,0.818968699922,0.00367802218359,0.0,0.818943372616,-0.573739636328,-0.011633101755,0.0,-0.00741706191179,0.00968746417977,-0.999925567345,0.0,0.511537629157,0.0638378759302,0.304689288403,1.0,-0.31998,-0.420545142857,1.716
0.242673684001,-0.084766874734,-0.131418892111,-2.22862249161,-0.0007384791588,2.13836902647,-0.06201067998,-0.711792640971,-1.05855562817,-0.0235624881589,-1.24146831365,-0.17167872001,0.155844372935,-0.630706358227,0.573885702581,0.818915106302,0.00374111547729,0.0,0.818890733568,-0.573815686029,-0.0115875728274,0.0,-0.00734266905879,0.00971369418956,-0.99992586193,0.0,0.506458169514,0.05703786858,0.304714083231,1.0,-0.31998,-0.420545142857,1.732
0.229850662716,-0.103956460305,-0.131590855221,-2.25030182512,-0.00380508502348,2.14082573216,-0.0733331443151,-0.719179165024,-1.06423806097,-0.0113493214175,-1.20618016305,-0.172043792664,0.123434747397,-0.629065677471,0.573691442157,0.819051306554,0.00371931833244,0.0,0.819026268099,-0.573621015926,-0.0116468516374,0.0,-0.00740603247954,0.00972810582233,-0.999925254527,0.0,0.500664909043,0.0496004531507,0.304719461528,1.0,-0.31998,-0.420545142857,1.75
0.217193188584,-0.121800319632,-0.131957339983,-2.27028023729,-0.00671450591197,2.14287684256,-0.0843200985211,-0.752535096973,-1.05047155164,-0.0264084513005,-1.16301024754,-0.166547379525,0.121378892542,-0.648815231022,0.573833300018,0.818952186061,0.00366164402857,0.0,0.8189259662,-0.573762474113,-0.0117316701239,0.0,-0.00750690748817,0.00973082570442,-0.999924475834,0.0,0.495217405228,0.0423781522555,0.304679959531,1.0,-0.31998,-0.420545142857,1.767
0.20508407857,-0.138416229452,-0.132168083032,-2.28873972499,-0.00936679374979,2.14441397063,-0.0950138792191,-0.759341094779,-1.03915504684,-0.0150739929829,-1.13637225484,-0.166682678002,0.0975698025685,-0.680052519594,0.573730402118,0.819024957494,0.00350593618123,0.0,0.818995069987,-0.573658051613,-0.0120109140894,0.0,-0.00782618056095,0.00976255897794,-0.999921718606,0.0,0.490016730026,0.0357157907675,0.304586271447,1.0,-0.31998,-0.420545142857,1.783
0.191743669209,-0.156001954439,-0.132586217132,-2.30770429495,-0.012252204706,2.14595995061,-0.106698775662,-0.797796551826,-1.03228098693,-0.0328144708498,-1.10908968234,-0.170123697693,0.076913694121,-0.703268870966,0.5738397973,0.818947740442,0.00363763129943,0.0,0.818919949756,-0.573767431452,-0.011907871252,0.0,-0.00766491746143,0.00981232818417,-0.999922480623,0.0,0.484609392294,0.0284797165818,0.304641406848,1.0,-0.31998,-0.420545142857,1.8
0.178171535281,-0.173347574922,-0.13286426107,-2.3261532652,-0.015003802327,2.14710976964,-0.118673267468,-0.800852846182,-1.01242354016,-0.0220304506367,-1.08575191542,-0.162791583879,0.0554949538892,-0.709751315885,0.573815282941,0.818964394304,0.00375350849711,0.0,0.818937555606,-0.573741788097,-0.0119326238093,0.0,-0.00761899604298,0.00992120199484,-0.999921757264,0.0,0.479179258207,0.0213883193094,0.30468389636,1.0,-0.31998,-0.420545142857,1.817
0.164952662484,-0.189450278212,-0.133256193606,-2.34307677787,-0.0177006575749,2.14791452466,-0.13027478489,-0.830438890616,-1.00509520202,-0.0262610668173,-1.03617387139,-0.16362357612,0.0593894670912,-0.734120768205,0.57391397428,0.818895200325,0.00376137094095,0.0,0.818868364467,-0.573840306736,-0.0119436569257,0.0,-0.00762232382968,0.00993489056169,-0.999921595991,0.0,0.474067374775,0.0145853336399,0.304704576443,1.0,-0.31998,-0.420545142857,1.833
0.149854720374,-0.207346286861,-0.1335508151,-2.3616820472,-0.0205948233879,2.14862815674,-0.143736100893,-0.840725982055,-0.99046083092,-0.0176390279583,-1.02833408049,-0.156706848771,0.0244444938514,-0.752390854115,0.573789980088,0.818981687623,0.00384720551701,0.0,0.818955488407,-0.573715389929,-0.0119710595792,0.0,-0.00759702382977,0.0100197570222,-0.999920941724,0.0,0.46830342852,0.00709544999943,0.304707784157,1.0,-0.31998,-0.420545142857,1.851
0.134230191312,-0.225001927874,-0.13394132973,-2.3796254524,-0.0235745777239,2.14900422724,-0.157502865449,-0.858988015895,-0.957419848965,-0.00826321544758,-0.997614696019,-0.168633010019,0.0103437651369,-0.768665651396,0.573858922277,0.818933021542,0.0039230667503,0.0,0.818908296164,-0.573784698765,-0.0118772403243,0.0,-0.00747581256535,0.0100286853236,-0.999921765788,0.0,0.46257473944,-0.000502070804606,0.304766449614,1.0,-0.31998,-0.420545142857,1.869
0.12013165499,-0.240444291405,-0.134189658757,-2.39519390173,-0.0261282814661,2.14908495367,-0.17012658853,-0.89265705221,-0.964866961195,-0.0178112528087,-0.935542055074,-0.154239815254,0.00406592209095,-0.789276641829,0.573717198685,0.819032197513,0.00394743862959,0.0,0.819007516323,-0.573642544993,-0.0119023393036,0.0,-0.00748412446626,0.0100617523908,-0.999921371419,0.0,0.45745215885,-0.00713375576362,0.304772257083,1.0,-0.31998,-0.420545142857,1.885
0.104630947663,-0.256592326395,-0.13459448466,-2.41127914338,-0.0287602541855,2.14906705823,-0.183990056234,-0.906145666454,-0.941080545195,-0.0117796731427,-0.947477009175,-0.153770831327,-0.00358492099379,-0.828784062303,0.57375407822,0.819005669744,0.00408871056346,0.0,0.818982521354,-0.573678509065,-0.0118888541717,0.0,-0.00739157590406,0.0101700568578,-0.999920964151,0.0,0.452029313521,-0.0143025139889,0.304773299715,1.0,-0.31998,-0.420545142857,1.902
0.0878466886219,-0.273547618174,-0.13504765044,-2.42770980429,-0.0316192522444,2.14886334718,-0.198991287789,-0.949350817862,-0.942007736148,-0.0367290655358,-0.911119642172,-0.155051971864,-0.0171997439444,-0.842837106881,0.573802396768,0.818970561546,0.00433309184985,0.0,0.818952001636,-0.573728028827,-0.0115980539401,0.0,-0.00701258351638,0.0102037818468,-0.999923350317,0.0,0.446328630893,-0.0218953475053,0.304874681994,1.0,-0.31998,-0.420545142857,1.92
0.0736003940067,-0.287325494547,-0.135347521295,-2.44110736009,-0.0338500160263,2.14832430638,-0.211852497955,-0.949846951843,-0.934474356567,-0.0251300854254,-0.897500892813,-0.142750092024,-0.0320803637522,-0.854480410204,0.573751174091,0.819006305905,0.00435981854287,0.0,0.818987036965,-0.573675197914,-0.0117365873327,0.0,-0.00711135618548,0.0103047140298,-0.999921617669,0.0,0.441495906686,-0.0281361941854,0.304837179251,1.0,-0.31998,-0.420545142857,1.935
0.0569321591485,-0.302694555544,-0.135816097942,-2.45554536861,-0.0364797809159,2.14764875288,-0.226843903378,-0.98399851844,-0.896454255819,-0.0246881237948,-0.851921347237,-0.144169220691,-0.0530691812649,-0.892525407423,0.573832406317,0.818948322737,0.00455642931387,0.0,0.818932896859,-0.573757745944,-0.0114763370692,0.0,-0.00678437100146,0.0103171026097,-0.999923761946,0.0,0.436137068108,-0.0353595997604,0.304943420393,1.0,-0.31998,-0.420545142857,1.952
0.0400412469484,-0.317673658783,-0.136178170302,-2.4697674952,-0.0390092728066,2.14664992396,-0.242165032828,-1.00380405976,-0.889916825254,-0.0256769289841,-0.80636932546,-0.147675387054,-0.0601619834254,-0.905293974753,0.573770113807,0.818992266686,0.0045022784874,0.0,0.818975202933,-0.573694211293,-0.0116325324175,0.0,-0.00694415668256,0.0103618533847,-0.999922202315,0.0,0.430659183313,-0.042443837257,0.30487839316,1.0,-0.31998,-0.420545142857,1.969
0.0247583327182,-0.330649705074,-0.13655510567,-2.48165540993,-0.0411448356361,2.14574751074,-0.256064426826,-1.01908658982,-0.856906353711,-0.0149765188866,-0.79647427149,-0.131884526975,-0.0702427627278,-0.937794605573,0.573803820069,0.818967450464,0.0047157243856,0.0,0.818953813449,-0.573728301638,-0.0114557513628,0.0,-0.00667647148674,0.0104355152785,-0.99992325943,0.0,0.425936354317,-0.048747606238,0.304955026153,1.0,-0.31998,-0.420545142857,1.984
0.00704899277462,-0.344997845056,-0.13701810972,-2.49492805347,-0.0436305661848,2.14442215399,-0.272204340504,-1.04965456555,-0.810506104176,-0.0273496611312,-0.761410008716,-0.146067480507,-0.0952512289886,-0.95033499873,0.573824939094,0.818953107735,0.00463610901586,0.0,0.818937520922,-0.573748229825,-0.0116212090945,0.0,-0.00685739798864,0.0104654247169,-0.999921722425,0.0,0.420128080612,-0.0563296552363,0.304883318252,1.0,-0.31998,-0.420545142857,2.002
-0.0120576472268,-0.35984866537,-0.137420298722,-2.50815592821,-0.0461496791645,2.14294610397,-0.289790554228,-1.07827625331,-0.800068837675,-0.0247514168267,-0.729964935783,-0.138199411888,-0.081579949787,-0.987228669995,0.573727079752,0.819020627898,0.00481621613642,0.0,0.819008401406,-0.573651475151,-0.0114004554818,0.0,-0.00657450529531,0.010485473388,-0.999923412431,0.0,0.414769726678,-0.0634407570344,0.304976593052,1.0,-0.31998,-0.420545142857,2.019
-0.0294578111932,-0.372626131276,-0.137875834813,-2.51969487812,-0.0483807481952,2.1413940491,-0.305827530537,-1.08838706844,-0.774899238965,-0.0289997004018,-0.707333040993,-0.138688356041,-0.100667712827,-1.01103418932,0.573717050424,0.819028078561,0.00474336207672,0.0,0.819013726268,-0.573639793424,-0.011603899603,0.0,-0.00678306894896,0.0105424366777,-0.999921420415,0.0,0.409592783372,-0.0701768443029,0.304896877056,1.0,-0.31998,-0.420545142857,2.035
-0.0483363889363,-0.385904890329,-0.138346802936,-2.53115780015,-0.050678474304,2.13968961754,-0.323179060719,-1.110531673,-0.763820750016,-0.020770035581,-0.661885471368,-0.140047954939,-0.0948574074843,-1.03344208653,0.573806404532,0.818964668096,0.00488153960818,0.0,0.818952972886,-0.573730108267,-0.0114253214344,0.0,-0.00655637455906,0.0105538771821,-0.999922811836,0.0,0.404208036999,-0.0773570099579,0.304990360649,1.0,-0.31998,-0.420545142857,2.052
-0.0675529045557,-0.398693771731,-0.138774541314,-2.54231390027,-0.0528270030743,2.13790193817,-0.34105094953,-1.14996793832,-0.747557552796,-0.0382580324602,-0.64013368174,-0.118915249217,-0.106954160655,-1.06483907716,0.573777691304,0.818984354299,0.00495330960546,0.0,0.818972931094,-0.573700138642,-0.0114993894888,0.0,-0.00657623228074,0.0106549247788,-0.999921609801,0.0,0.398759479826,-0.0844747278117,0.304963202345,1.0,-0.31998,-0.420545142857,2.069
-0.0858886682221,-0.410311778457,-0.139120521215,-2.55226024567,-0.0548281824196,2.13601019147,-0.358204457956,-1.14752135285,-0.728269014235,-0.0184340915829,-0.592785270226,-0.127571896195,-0.106684521102,-1.07491402328,0.573658816585,0.819067695379,0.00494160317842,0.0,0.819055441253,-0.573580223232,-0.0116042479702,0.0,-0.00667038721295,0.0107045322251,-0.999920456299,0.0,0.393641271801,-0.0911229555922,0.304956867211,1.0,-0.31998,-0.420545142857,2.085
-0.107059827016,-0.422951850146,-0.13958890115,-2.56282611966,-0.0570701714142,2.13404222368,-0.378005409971,-1.1786611886,-0.676364491717,-0.0226962626406,-0.582814687508,-0.123401471708,-0.126933977072,-1.10843393118,0.573635535921,0.819083288765,0.00505815141102,0.0,0.819073686573,-0.573558478194,-0.0113892474047,0.0,-0.00642772034858,0.0106764813176,-0.999922345564,0.0,0.387932160619,-0.0987143346086,0.305023064819,1.0,-0.31998,-0.420545142857,2.103
-0.126177315098,-0.433655204475,-0.139993228537,-2.57192208784,-0.0589532363936,2.13199271006,-0.395912401447,-1.19243855566,-0.647976859322,-0.0137632955502,-0.559072595631,-0.115036406868,-0.127109400727,-1.12088032729,0.573606899831,0.819103885116,0.0049695829263,0.0,0.819091282301,-0.573527086971,-0.0117003705522,0.0,-0.00673375820312,0.010782162921,-0.999919197467,0.0,0.382421062201,-0.105804639788,0.304937363523,1.0,-0.31998,-0.420545142857,2.12
-0.146783470329,-0.444612945459,-0.140423626682,-2.58076678495,-0.0607656056273,2.12999990854,-0.415411686432,-1.24357689048,-0.628680811651,-0.0391929889261,-0.49468715045,-0.104917681134,-0.110146262352,-1.14820846916,0.573631470635,0.819085142991,0.00521644805215,0.0,0.819076445019,-0.573552052026,-0.0115138062205,0.0,-0.00643900710072,0.0108775607478,-0.999920105738,0.0,0.377374866541,-0.112518355555,0.305037098756,1.0,-0.31998,-0.420545142857,2.136
-0.16779855893,-0.454938155902,-0.140793492304,-2.58925137244,-0.0627119378752,2.12795763861,-0.435301392272,-1.24093128175,-0.593600706121,-0.0202159166967,-0.496625076858,-0.108368948936,-0.135541532618,-1.18091031944,0.57353295463,0.819154589067,0.00514354598534,0.0,0.819144888677,-0.573453671291,-0.0115449182811,0.0,-0.00650761275333,0.0108349091019,-0.99992012467,0.0,0.37193112459,-0.11964424007,0.305013318099,1.0,-0.31998,-0.420545142857,2.153
-0.189118831864,-0.464728546242,-0.141274958507,-2.59721074595,-0.0645131245966,2.12585498775,-0.45562960767,-1.25463612752,-0.559411471715,-0.0334174137104,-0.461184590286,-0.0958159764031,-0.1146491173,-1.22173681357,0.573488785542,0.819185458087,0.0051521856897,0.0,0.81917494234,-0.573407945776,-0.0116828277993,0.0,-0.00661622581277,0.0109207223993,-0.999918478366,0.0,0.366459320881,-0.126781152999,0.304981606928,1.0,-0.31878,-0.418968,2.17
-0.209410760996,-0.473259310704,-0.141572758496,-2.60397846729,-0.0659817940513,2.12406770823,-0.474859601895,-1.26837581202,-0.517660666819,-0.00684753254381,-0.397782674856,-0.0985530812212,-0.105536907305,-1.21345306499,0.573568370621,0.819128969432,0.00527281348865,0.0,0.819120334945,-0.573487664773,-0.0115983677235,0.0,-0.00647679020433,0.0109717368679,-0.999918832795,0.0,0.361440024717,-0.133447291304,0.305012818243,1.0,-0.310551428571,-0.408153306123,2.186
-0.232176134435,-0.482030370042,-0.141829472726,-2.6108299428,-0.0674423185906,2.12208750892,-0.496386164677,-1.25687025288,-0.46984419026,-0.00232244759801,-0.377168532822,-0.0866149518252,-0.11533263321,-1.17728955663,0.573755144408,0.818997206226,0.00541824327847,0.0,0.818990587177,-0.573674183898,-0.0115367129847,0.0,-0.00634035148395,0.0110569515492,-0.999918768583,0.0,0.355906965914,-0.140803932888,0.305059136846,1.0,-0.301294285714,-0.39598677551,2.204
-0.253362213542,-0.489469627096,-0.141911586781,-2.61681647424,-0.0686237964849,2.12025061666,-0.516536376062,-1.26162657932,-0.413025786743,-0.0137010794585,-0.336125682991,-0.0675146683587,-0.11408042226,-1.17627222858,0.573814909004,0.818955020112,0.00546554109247,0.0,0.818947343564,-0.573730885047,-0.0117841806611,0.0,-0.00651508961771,0.0112381452817,-0.999915625289,0.0,0.350761073692,-0.147472643173,0.304990412438,1.0,-0.292551428571,-0.384496163265,2.221
-0.272994576335,-0.495766663336,-0.141823547526,-2.62174696875,-0.0696133193035,2.11878431432,-0.535293691763,-1.21360372982,-0.384784204875,0.013307872823,-0.304428230004,-0.0654220908562,-0.0864479219701,-1.17835155858,0.573759390115,0.818993543699,0.0055212801811,0.0,0.81898675644,-0.573675470273,-0.0117428482051,0.0,-0.00645001804305,0.0112596415543,-0.999915805325,0.0,0.3461329805,-0.153566708213,0.304992905068,1.0,-0.284322857143,-0.373681469388,2.237
-0.294701478673,-0.502038571147,-0.141724690964,-2.62660941379,-0.070557942405,2.11718532093,-0.55599698041,-1.17845401186,-0.325711963749,0.00152996829792,-0.254918855989,-0.0418972784268,-0.0800729789164,-1.1445319563,0.573822490738,0.818948781132,0.00560266963802,0.0,0.818942652263,-0.573737575265,-0.01178447851,0.0,-0.00643654614238,0.0113506824796,-0.999914862816,0.0,0.341069667604,-0.16023713315,0.304993886633,1.0,-0.275065714286,-0.361514938776,2.255
-0.313668079297,-0.506991067744,-0.141532342601,-2.63035392888,-0.0712888094899,2.11596021288,-0.574097005374,-1.16510928754,-0.301906255325,0.0182574261606,-0.217329023348,-0.0495063514619,-0.0702384913949,-1.12487534538,0.573861532717,0.818920954273,0.00567087481157,0.0,0.818916372269,-0.573777552915,-0.0116637001705,0.0,-0.00629794905671,0.011337539368,-0.999915894483,0.0,0.336733999721,-0.166002043004,0.305035686951,1.0,-0.266837142857,-0.350700244898,2.271
-0.33226936746,-0.511396803187,-0.141375845752,-2.63368484165,-0.0718076244872,2.11483048122,-0.591862272101,-1.15757153825,-0.261659041928,4.57349049451e-06,-0.197342803461,-0.031645514761,-0.0747977131361,-1.1076599315,0.574015954354,0.818811432074,0.00585403728562,0.0,0.818809289446,-0.573931449273,-0.0116097353016,0.0,-0.0061464862238,0.0114577339961,-0.999915466946,0.0,0.33249879323,-0.171601480544,0.305063135995,1.0,-0.258608571429,-0.339885551021,2.287
-0.351362005896,-0.515409127796,-0.140986850813,-2.63688574855,-0.072330577827,2.11363291703,-0.610334559501,-1.11136306444,-0.224893769243,0.0193922252618,-0.183234461901,-0.0311911985514,-0.0663076923033,-1.08417683538,0.573834795014,0.818938552558,0.0058328437495,0.0,0.818934732392,-0.573747815754,-0.0118361691967,0.0,-0.00634663610128,0.0115689467979,-0.99991293605,0.0,0.328135047533,-0.177214408306,0.304998976246,1.0,-0.249865714286,-0.328394938776,2.304
-0.370158244348,-0.518793439706,-0.140704721124,-2.63957975182,-0.0727551225244,2.11267976002,-0.628336961011,-1.08816344272,-0.17991120132,0.0207800209881,-0.14741923999,-0.0125672689398,-0.0535051893285,-1.05588520547,0.573943941705,0.818861619653,0.00589461970084,0.0,0.818857729972,-0.573855109757,-0.0119615204904,0.0,-0.00641229586348,0.0116923222398,-0.999911082078,0.0,0.32389801165,-0.182758768774,0.304947504362,1.0,-0.241122857143,-0.316904326531,2.321
-0.387315036484,-0.521520507779,-0.140391952345,-2.6416726487,-0.0730959964947,2.11190001672,-0.64482602317,-1.0655004585,-0.159459811941,0.0298041159658,-0.122201940842,-0.0260328299752,-0.0427843893394,-1.01626678347,0.573998942375,0.818822761418,0.00593687104701,0.0,0.818819277626,-0.573909665698,-0.0119763561823,0.0,-0.00639940857148,0.011735866196,-0.999910654516,0.0,0.320073340911,-0.187792286276,0.304940213627,1.0,-0.232894285714,-0.306089632653,2.337
-0.404924289516,-0.523929422261,-0.139952463584,-2.64349052204,-0.0733420149535,2.11117322554,-0.661902568675,-1.03757396535,-0.130552104444,0.0198473529137,-0.0986646681547,-0.0149850614697,-0.0383889823243,-0.990029285119,0.57393912861,0.818864328849,0.00598619159508,0.0,0.818861468639,-0.57384963017,-0.0119684599507,0.0,-0.00636549364744,0.0117712557492,-0.999910455005,0.0,0.315961428818,-0.193208374094,0.304950251173,1.0,-0.223637142857,-0.293923102041,2.355
-0.423055790471,-0.526004749127,-0.139534196645,-2.64504381245,-0.0735125640229,2.11054837348,-0.679424302498,-0.979679357241,-0.109563212452,0.0322322950344,-0.0812340990419,-0.000252385429409,-0.0281437300198,-0.961537595974,0.573948665039,0.8188572065,0.00604583862931,0.0,0.818855237256,-0.573859136153,-0.0119389771039,0.0,-0.00630697913552,0.0118032538451,-0.999910448597,0.0,0.312206334488,-0.198159926156,0.304958640847,1.0,-0.214894285714,-0.282432489796,2.372
-0.438690833897,-0.527478409949,-0.139191716357,-2.64613117497,-0.0736557702703,2.11008802983,-0.694462450548,-0.970950346736,-0.0858203757681,0.0191599281211,-0.0610098063793,-0.0162248612482,-0.0259376690161,-0.918992111324,0.57404676762,0.818788105343,0.00609048733756,0.0,0.818786930775,-0.573957441156,-0.0118980937189,0.0,-0.00624645734932,0.0118171011901,-0.999910664955,0.0,0.30898739304,-0.202404582468,0.304972707114,1.0,-0.20718,-0.272293714286,2.387
-0.455431422317,-0.528706835589,-0.138640419286,-2.64707075101,-0.0736832460564,2.10967761125,-0.710743225839,-0.925252316329,-0.0607713476778,0.0298245791808,-0.0460817123169,-0.00148806096721,-0.0226420131877,-0.896862733331,0.573989287035,0.818828251598,0.00611061823285,0.0,0.818827408059,-0.573900023452,-0.0118821628091,0.0,-0.00622268645707,0.0118240034972,-0.999910731573,0.0,0.305134646644,-0.207464245973,0.304974065607,1.0,-0.197408571429,-0.259451265306,2.406
-0.469905000813,-0.529476487303,-0.138230644527,-2.64765798077,-0.0736926195608,2.10937720391,-0.724680661278,-0.875783406191,-0.0421425946288,0.0358420505389,-0.0331709778885,0.00114317263083,-0.0141986498635,-0.866008590829,0.574071272486,0.818770597883,0.00613425225847,0.0,0.81877006817,-0.573981909989,-0.0118781048992,0.0,-0.00620461268035,0.0118416489225,-0.999910635073,0.0,0.301797856242,-0.211851859546,0.3049782636,1.0,-0.188665714286,-0.247960653061,2.423
-0.483679483411,-0.529940894373,-0.137732992267,-2.64801057519,-0.0736879424811,2.10917663435,-0.73813710392,-0.854289047253,-0.0219211219031,0.0241735536145,-0.0183299013836,-0.000365350212592,-0.0111330784833,-0.828013770257,0.573990988968,0.818827128416,0.00610125026617,0.0,0.818826277609,-0.573901979797,-0.0118655629266,0.0,-0.00621444485855,0.0118068175609,-0.999910985905,0.0,0.299009273175,-0.215529667148,0.304978272608,1.0,-0.180951428572,-0.237821877551,2.438
-0.497765720644,-0.530156907707,-0.137209562104,-2.64821204972,-0.0736665948327,2.10900615944,-0.751800044244,-0.809284992855,-0.00288420563324,0.0405850602562,-0.00956077349663,0.00269385551014,-0.0106937066508,-0.7892255521,0.573966030591,0.818845093221,0.00603787513259,0.0,0.818843224023,-0.573876911458,-0.0119084788205,0.0,-0.00628632334822,0.011779362248,-0.999910860409,0.0,0.295963558836,-0.219528574444,0.304964605567,1.0,-0.172208571429,-0.226331265306,2.455
-0.511192729359,-0.530246901048,-0.136684805887,-2.6482957021,-0.0735985325763,2.10890780918,-0.764835556593,-0.787995093368,-0.00354219740342,0.0284480194102,-0.00216693159678,0.00194227443787,-0.00105042014696,-0.757210338549,0.573940826498,0.818863073893,0.00599506416011,0.0,0.818860778175,-0.573852125617,-0.0118958309099,0.0,-0.00630089766573,0.0117368518984,-0.999911268561,0.0,0.293055374571,-0.223319373178,0.30496471986,1.0,-0.163465714286,-0.214840653061,2.472
-0.523999824209,-0.530115584835,-0.136087996583,-2.648255511,-0.0734619430476,2.10888489799,-0.777271948857,-0.73013565631,0.0127684621378,0.0460397602724,0.00894771795355,0.0105816938487,5.79302409629e-05,-0.724769842326,0.57388450373,0.818902909217,0.00594546512285,0.0,0.818899942667,-0.573795961907,-0.0119090260108,0.0,-0.0063409742504,0.0117033718565,-0.999911407642,0.0,0.290297573803,-0.226901429446,0.304948718416,1.0,-0.154722857143,-0.203350040816,2.489
-0.536095981413,-0.529878097958,-0.135531847787,-2.64811967859,-0.073272571277,2.1088832488,-0.789014471188,-0.710654037211,0.0160098439703,0.0285093689103,0.00913539219005,0.0148832313038,-9.55437495823e-05,-0.667676665864,0.573870722747,0.818912588744,0.00594242976852,0.0,0.818909513545,-0.573782068135,-0.0119203109409,0.0,-0.00635215534761,0.011707255127,-0.999911291215,0.0,0.287681389783,-0.230272047081,0.304938192286,1.0,-0.14598,-0.191859428572,2.506
-0.548244999332,-0.52946328501,-0.134938811904,-2.64784767198,-0.0730176708658,2.10890377517,-0.800767374821,-0.642935823893,0.0234778762379,0.0412047197286,0.0137838848971,0.020773396567,0.000397720475608,-0.641110847233,0.573901345178,0.818891006035,0.00595929024912,0.0,0.818887938954,-0.573812227693,-0.0119506354493,0.0,-0.00636687685461,0.0117387026762,-0.999910828894,0.0,0.285059734595,-0.233643942199,0.304927655173,1.0,-0.136722857143,-0.179692897959,2.524
-0.557071634869,-0.529025580422,-0.134421643838,-2.64756711081,-0.0727611568237,2.1089545161,-0.809444579626,-0.626320970162,0.0338283085974,0.0315175179107,0.017223477457,0.0153091397855,0.00164734356147,-0.612477373978,0.573778902413,0.818976666432,0.00597811734137,0.0,0.818973530817,-0.573689155595,-0.0119939766121,0.0,-0.0063933289848,0.0117780373665,-0.999910197558,0.0,0.283040090396,-0.236242483982,0.304908103398,1.0,-0.129008571429,-0.169554122449,2.539
-0.568032969304,-0.52838716939,-0.133888870057,-2.64710749052,-0.0724596519233,2.10906170864,-0.819870785158,-0.592806248619,0.0344537459338,0.0305166912814,0.030451017755,0.0126739626537,0.0035083220977,-0.55690497224,0.574009692959,0.818814586822,0.00602425906577,0.0,0.818812137554,-0.57391986774,-0.0119756297717,0.0,-0.00634850060548,0.0118070913341,-0.99991014053,0.0,0.280692601329,-0.239281209334,0.304911688701,1.0,-0.119751428572,-0.157387591837,2.557
-0.577383363389,-0.527622341768,-0.133246272236,-2.6466035896,-0.0721024799058,2.10919408796,-0.829117538748,-0.531913207681,0.0467840054591,0.0395888252932,0.0335826257632,0.0185003426277,0.00506591354842,-0.530086817499,0.573814100262,0.818951514521,0.00604500672848,0.0,0.818948949237,-0.573723511843,-0.012029023364,0.0,-0.00638314730811,0.0118532033379,-0.999909374394,0.0,0.278855925458,-0.241675329738,0.304889288836,1.0,-0.111522857143,-0.146572897959,2.573
-0.585782490397,-0.526915271271,-0.132715634411,-2.64610365893,-0.0718192529159,2.10928142774,-0.83716942036,-0.520704499528,0.0443647878729,0.0343363497298,0.0318071954702,0.0163983850299,0.00966894910723,-0.485175042787,0.573872884404,0.818910296492,0.00604861532397,0.0,0.818907426915,-0.57378161715,-0.0120842403983,0.0,-0.00642544831514,0.0118883027912,-0.999908686766,0.0,0.277066630349,-0.243980369187,0.304879027901,1.0,-0.103294285714,-0.135758204082,2.589
-0.594570306555,-0.526081660232,-0.132146948931,-2.6454908725,-0.0714524202308,2.10943313569,-0.845543241871,-0.47283533449,0.051595035211,0.0360904731356,0.0328760941375,0.0261496919126,0.00465190338214,-0.450984201221,0.574000968774,0.818820193921,0.00609301033266,0.0,0.818817868126,-0.573909418034,-0.0120841065293,0.0,-0.00639799761886,0.0119255841901,-0.999908418841,0.0,0.275212352468,-0.246395881292,0.304880035978,1.0,-0.0940371428572,-0.12359167347,2.607
-0.601887691882,-0.525231682819,-0.131482140355,-2.64490753154,-0.0710542709112,2.1095769212,-0.852740571843,-0.414513019357,0.0513566144382,0.0370422696548,0.0332984599613,0.0236206742722,0.00611508299849,-0.404351884149,0.573832038592,0.81893849156,0.00610617951159,0.0,0.818935928227,-0.573739704209,-0.0121426592888,0.0,-0.00644085746117,0.0119686471534,-0.999907629154,0.0,0.273716597497,-0.248361560405,0.304863122036,1.0,-0.0852942857144,-0.112101061225,2.624
-0.608384598301,-0.524529087619,-0.130905564855,-2.64439101269,-0.0707340762043,2.1097105773,-0.858929373302,-0.390364409796,0.0471991595254,0.0361392659867,0.0286890310842,0.0212331954413,0.00722748554503,-0.370737720601,0.573841910397,0.818931653856,0.00609549717402,0.0,0.818928970214,-0.57374965668,-0.012141668106,0.0,-0.00644603103778,0.0119594075007,-0.999907706369,0.0,0.272373108555,-0.250107061489,0.304866422531,1.0,-0.0770657142858,-0.101286367347,2.64
-0.614625849684,-0.523777697383,-0.13027895146,-2.64380820082,-0.0703595988983,2.10986925197,-0.864863692572,-0.360743582035,0.046151583318,0.0365174447144,0.0357975286206,0.0213523194875,0.0106923091988,-0.339889488387,0.573841707106,0.818931806507,0.00609412651917,0.0,0.818929389882,-0.573749988884,-0.0120975842668,0.0,-0.00641071494144,0.0119329874667,-0.999908249063,0.0,0.271116834829,-0.251778315221,0.304885133583,1.0,-0.068322857143,-0.0897957551022,2.657
-0.620196893302,-0.523034831137,-0.129728237503,-2.64327986314,-0.0699806999326,2.11002377135,-0.870106421011,-0.315145836532,0.0430661112974,0.0357261073689,0.0285503628069,0.0209538634237,0.00903146457572,-0.301553133617,0.573899964799,0.818890681566,0.00613424403313,0.0,0.818888708861,-0.57380791099,-0.0121041598928,0.0,-0.00639222906044,0.0119700705735,-0.99990792417,0.0,0.269932297859,-0.253344116221,0.304880993646,1.0,-0.0590657142858,-0.0776292244899,2.675
-0.62471779339,-0.522439120984,-0.129114750996,-2.64284012878,-0.0695971787026,2.11014145719,-0.874420069428,-0.267822566798,0.0372946575049,0.0429613820608,0.0281548007007,0.0262355931864,0.00712072040701,-0.252964303265,0.573834589953,0.818936397305,0.00614714916927,0.0,0.818934600172,-0.573742507087,-0.0120997150136,0.0,-0.00638213912177,0.011977578756,-0.999907898712,0.0,0.269115698521,-0.254424156326,0.304886257091,1.0,-0.0513514285715,-0.0674904489797,2.69
-0.628997977023,-0.521926066589,-0.128458177842,-2.6424489521,-0.0692427370278,2.11025606453,-0.878418072085,-0.240137996305,0.0259544590299,0.0369209609604,0.0233240005353,0.0211036946349,0.00226540365503,-0.20847315761,0.573772458446,0.818980173547,0.00611458646491,0.0,0.818978258778,-0.573681105503,-0.0120560249592,0.0,-0.00636594525469,0.0119253580562,-0.999908626114,0.0,0.268252824836,-0.255552354042,0.304905838764,1.0,-0.0420942857144,-0.0553239183675,2.708
-0.632852369816,-0.521428868184,-0.127802762926,-2.64206356938,-0.0688442611604,2.11037932138,-0.881914835134,-0.199803044017,0.0332982331403,0.0353635779967,0.0212303860769,0.0237698977559,0.00906817135611,-0.179014391662,0.573792338806,0.818966219743,0.00611798570112,0.0,0.81896462336,-0.573701481723,-0.0120125956864,0.0,-0.00632813445287,0.0119033784064,-0.99990912802,0.0,0.267580149843,-0.256451298607,0.30492077934,1.0,-0.0333514285715,-0.0438333061226,2.725
-0.635639600939,-0.521030106175,-0.127298846256,-2.64180144832,-0.0685086773215,2.11044480311,-0.884376156386,-0.159310578853,0.0231944238449,0.0321663855898,0.0140422359487,0.0221391556032,0.00743086038516,-0.144015660079,0.573859645958,0.818918825365,0.00614907347964,0.0,0.818917367202,-0.573768139755,-0.0120504936919,0.0,-0.00634035575915,0.0119511052042,-0.999908481299,0.0,0.267064456785,-0.257119690351,0.304911305729,1.0,-0.025122857143,-0.033018612245,2.741
-0.63796468905,-0.520717807347,-0.126749937142,-2.64160458015,-0.0681719533553,2.1104758568,-0.886353090516,-0.125854811069,0.0148989962963,0.032443509659,0.0123178956852,0.0174023254659,0.00406805989469,-0.110208258496,0.57391018074,0.818883302488,0.00616346102246,0.0,0.818881680864,-0.573817940078,-0.0121041848293,0.0,-0.00637533308416,0.0119940911485,-0.999907744197,0.0,0.266657359832,-0.257633883833,0.304902008737,1.0,-0.01984,-0.0260754285714,2.758
-0.639868656111,-0.520470928706,-0.126350202164,-2.64142906968,-0.0679104774315,2.11052448003,-0.888045998786,-0.103693133109,0.0157532987549,0.0257249975717,0.0112061436844,0.00771455763334,0.000400910993023,-0.0965052137653,0.573920650677,0.818875805472,0.00618456464993,0.0,0.818874451114,-0.573828299688,-0.0121021770908,0.0,-0.00636142427298,0.0120103025692,-0.999907638191,0.0,0.266318521717,-0.258073857458,0.304904861159,1.0,-0.0195,-0.0256285714286,2.775
-0.641396507112,-0.52023112197,-0.126063468581,-2.6412333232,-0.0677510466331,2.11058889679,-0.889541089378,-0.0950268565296,0.0137031324724,0.0189476637652,0.0151703170375,0.0149812926181,9.96582340615e-05,-0.0988332573733,0.573822532762,0.81894468525,0.00616849216217,0.0,0.818943358875,-0.573730721651,-0.0120656905502,0.0,-0.00634220179733,0.0119754413659,-0.999908178425,0.0,0.266050113606,-0.25845603629,0.30491804613,1.0,-0.01918,-0.025208,2.791
-0.642895062722,-0.519969998433,-0.125873727493,-2.64104046549,-0.0676369165297,2.11064321043,-0.891021346054,-0.0841040862273,0.0141948467131,0.00714814960956,0.0083728397469,0.00657289590895,0.0046378508089,-0.0793571112115,0.573761931755,0.818987176363,0.00616421312003,0.0,0.818985789973,-0.573670144148,-0.0120660033227,0.0,-0.00634579913838,0.011971646818,-0.999908201039,0.0,0.265761014074,-0.258853551672,0.304918843369,1.0,-0.01884,-0.0247611428571,2.808
-0.644385714626,-0.519732940554,-0.125721343836,-2.64087454498,-0.0676081851275,2.11065470167,-0.892466476609,-0.0878973877836,0.0122849636689,0.007070022078,0.00584593999082,9.94129496377e-05,0.00019143839372,-0.0895920798609,0.573712315444,0.819022314627,0.00611344022122,0.0,0.819019979109,-0.573620222074,-0.0121186446502,0.0,-0.00641877103544,0.0119598756292,-0.999907876133,0.0,0.26544521588,-0.259253086915,0.304911631136,1.0,-0.0185,-0.0243142857143,2.825
-0.645831899206,-0.519525196492,-0.125637784194,-2.64069417184,-0.0675737496157,2.1106971487,-0.893887115513,-0.0849661610185,0.0166058683341,0.00622202299092,0.0106465291691,0.0022690473663,0.000797841082375,-0.0778029185837,0.573694028233,0.819035248034,0.00609683111607,0.0,0.819032874116,-0.573602343317,-0.0120933766549,0.0,-0.00640786850441,0.011931632801,-0.999908283474,0.0,0.265153553701,-0.259639538246,0.304924474437,1.0,-0.01818,-0.0238937142857,2.841
-0.647209737392,-0.519304676352,-0.12558086202,-2.64050667096,-0.0675391274332,2.11079980878,-0.895260534249,-0.0825218817392,0.0138672238832,0.00290448875462,0.0124924515254,0.000847134633331,0.0065470169936,-0.0811343513762,0.573685795188,0.819041122034,0.00608241048946,0.0,0.819039055034,-0.573595096831,-0.0120182411919,0.0,-0.006354715265,0.011876654657,-0.999909277219,0.0,0.264846789009,-0.260071192775,0.304936923907,1.0,-0.01782,-0.0234205714286,2.859
-0.648479796943,-0.519102111122,-0.125564331501,-2.64033697068,-0.0675062177406,2.11082152261,-0.896553931219,-0.076338385102,0.0149863168358,0.00050647491146,0.00985494174315,0.00188693574815,0.000249483766585,-0.0921503842975,0.573677851557,0.819046569812,0.00609803355124,0.0,0.819044670496,-0.573587021981,-0.0120209337546,0.0,-0.00634807387314,0.011890934268,-0.999909149693,0.0,0.264560720844,-0.26044351388,0.304941724744,1.0,-0.0175,-0.023,2.875
-0.649820705717,-0.518888127138,-0.125579585711,-2.64016609358,-0.0674829423912,2.11083375452,-0.897846145944,-0.082507026926,0.0115519773281,-0.000217728041854,0.0110553072885,0.00619246468842,0.00126692291999,-0.0836146320903,0.5737474536,0.818997631392,0.00612259445228,0.0,0.818995888562,-0.57365619837,-0.0120435664018,0.0,-0.00635151038518,0.0119245748241,-0.99990872725,0.0,0.264246380249,-0.260840945489,0.304941274421,1.0,-0.01716,-0.0225531428571,2.892
-0.651219146671,-0.518671868486,-0.12557465768,-2.63997651177,-0.0674466048643,2.11088724571,-0.899264026239,-0.0773018431805,0.0075933936187,0.000632606708349,0.0113857468042,0.00350118413241,0.00591805273151,-0.0801866798737,0.573753355485,0.818993348433,0.00614240938183,0.0,0.818992071627,-0.573662406258,-0.0120073793729,0.0,-0.00631041598735,0.0119200882888,-0.999909040936,0.0,0.26393275683,-0.261258032398,0.304952478416,1.0,-0.0168,-0.02208,2.91
-0.65228603666,-0.518501733846,-0.125574709526,-2.639829578,-0.0674270745765,2.11096687841,-0.900324360438,-0.0760175820736,0.0129509187967,0.000720046927524,0.00693964232754,0.000177519950617,0.0077139379505,-0.0730193458599,0.573774684164,0.818978367194,0.00614758350804,0.0,0.818977546984,-0.573684446308,-0.0119448943902,0.0,-0.00625595750961,0.0118886397606,-0.999909757548,0.0,0.263698026909,-0.261583613793,0.304963382769,1.0,-0.01652,-0.021712,2.924
-0.65351553329,-0.518280224622,-0.125553781484,-2.63965014446,-0.0674016458858,2.11099737628,-0.901556979165,-0.0701117749324,0.0161146844118,0.000571371353294,0.0145661856397,0.00223130404016,0.000292615343482,-0.0709046426025,0.573777507185,0.818976354321,0.00615225275757,0.0,0.818975562472,-0.573687187883,-0.0119492859028,0.0,-0.00625683448521,0.0118950051562,-0.999909676358,0.0,0.263423976088,-0.26194723545,0.304966425891,1.0,-0.01618,-0.0212651428571,2.941
-0.65470201684,-0.518051794256,-0.125521917819,-2.63948894201,-0.0673743392132,2.11100950888,-0.902810068763,-0.0728010838205,0.0158503914267,0.00420880094277,0.00681723679739,-8.58632110966e-05,-0.00035473185596,-0.0764280077864,0.573720573619,0.819016191571,0.0061585917106,0.0,0.819015171107,-0.573629649274,-0.0119967441684,0.0,-0.00629289807483,0.011926988621,-0.999909069054,0.0,0.263156077088,-0.262289279783,0.304957313466,1.0,-0.01584,-0.0208182857143,2.958
-0.655893663651,-0.517831069907,-0.125498725555,-2.63933404514,-0.0673503977024,2.11103080638,-0.903925285233,-0.068946865804,0.0151514834521,0.000903528916068,0.01266901249,0.00365108857256,0.000295403903047,-0.0577650089572,0.573785161631,0.818970900299,0.00616438618055,0.0,0.81896971738,-0.573693748437,-0.0120346134002,0.0,-0.00631965002926,0.0119539583539,-0.999908578273,0.0,0.262884354497,-0.262634435335,0.304948735213,1.0,-0.0155,-0.0203714285714,2.975
-0.657195519804,-0.517591583017,-0.125478455282,-2.63913357391,-0.0673180411629,2.11107520815,-0.905253572074,-0.0679837188991,0.0191983135681,0.000361704738152,0.0156063151813,0.00288383502498,0.00153124580251,-0.0755446893911,0.573773349862,0.818979114787,0.00617247375041,0.0,0.818978112308,-0.573682046755,-0.0120211352719,0.0,-0.00630414272332,0.0119527580821,-0.999908690511,0.0,0.262596914343,-0.263022764767,0.304955839381,1.0,-0.01512,-0.019872,2.994
-0.658250540804,-0.517390358334,-0.125472363942,-2.63898158454,-0.0672980006324,2.11116738736,-0.906372913176,-0.0627116414425,0.0192993810635,0.00256788324695,0.0111115200862,7.03891557789e-05,0.00936679681017,-0.0643240158017,0.573732844856,0.819007474948,0.00617459416515,0.0,0.819006802032,-0.573642115101,-0.011972005231,0.0,-0.00626327510497,0.0119259968533,-0.999909266876,0.0,0.262367012282,-0.263345237518,0.304958738835,1.0,-0.0148,-0.0194514285714,3.01
-0.659376622179,-0.517197447762,-0.125454294082,-2.63881786435,-0.0672711747255,2.11118510214,-0.907465052696,-0.066145820458,0.00777123674467,0.00254924792129,0.0110159726498,0.00389981178774,1.31600836573e-05,-0.0699864507323,0.573767761029,0.818982951374,0.00618293325441,0.0,0.818982352488,-0.573676923128,-0.0119766892222,0.0,-0.00626181872098,0.0119357811823,-0.999909159251,0.0,0.262112412493,-0.26367548392,0.304963954292,1.0,-0.01446,-0.0190045714286,3.027
-0.660475308993,-0.517009860483,-0.125436924707,-2.63867269394,-0.0672472918201,2.11119076484,-0.908564822754,-0.0628924474025,0.0108290416811,-0.00104723251552,0.0100974896314,0.00261143201388,-0.000219282048274,-0.0604478972166,0.57377235453,0.818979654244,0.00619338465478,0.0,0.818978993613,-0.573681094509,-0.0120065283706,0.0,-0.0062801956794,0.0119614962805,-0.99990873671,0.0,0.261858236574,-0.263992336984,0.304961647139,1.0,-0.01412,-0.0185577142857,3.044
-0.661474084154,-0.516818279547,-0.125399750965,-2.63851260617,-0.0672216519876,2.11122642362,-0.909592078298,-0.0633179468926,0.0122324104622,0.00066126851767,0.011793820359,-0.000171752431518,0.000186216732102,-0.0638776786905,0.573741876987,0.819001039913,0.0061888701097,0.0,0.819000383938,-0.573650763476,-0.0119966484609,0.0,-0.00627513831735,0.0119518967126,-0.999908883251,0.0,0.26164262286,-0.264286410054,0.304967661846,1.0,-0.0138,-0.0181371428571,3.06
-0.662482919047,-0.516619657074,-0.125365692341,-2.63835576003,-0.0672019946321,2.11129469048,-0.910579289475,-0.0616208596743,0.0140421328822,0.00542134753419,0.0108762516696,1.5241756769e-06,0.00658109150666,-0.0562870595108,0.573751945033,0.818994075146,0.00617716338888,0.0,0.818993475992,-0.573661277302,-0.0119654548092,0.0,-0.00625615760582,0.011924489069,-0.999909329416,0.0,0.261427007034,-0.264587893101,0.304972299878,1.0,-0.01346,-0.0176902857143,3.077
-0.663597268313,-0.516391875905,-0.125312403161,-2.63818574922,-0.0671808862883,2.11133186859,-0.911726937099,-0.0565200605862,0.00982125532293,0.00230863985366,0.00881642936094,3.99532580964e-05,0.00189716601605,-0.0638634194239,0.573704756189,0.819027242798,0.00616240064475,0.0,0.819026367229,-0.573613999964,-0.0119806398084,0.0,-0.00627775197221,0.0119207481651,-0.999909238678,0.0,0.261184978198,-0.264910950321,0.304969950812,1.0,-0.01308,-0.0171908571429,3.096
-0.664456825443,-0.516221364353,-0.12528848315,-2.6380600241,-0.0671660394001,2.11135440856,-0.912637614885,-0.0615898454758,0.007581648706,-0.000567521993512,0.0035937680729,0.000257291670982,0.00215974135597,-0.0617002959832,0.573658840325,0.819059421713,0.00615999352295,0.0,0.819058402173,-0.573567890284,-0.0119981651174,0.0,-0.00629415687557,0.0119284775997,-0.999909043369,0.0,0.260992010513,-0.265161657253,0.304966652632,1.0,-0.01278,-0.0167965714286,3.111
-0.665431771183,-0.516026425438,-0.125269303915,-2.6379134104,-0.0671485352348,2.11141697032,-0.913562599875,-0.0605187624023,0.0141430282183,-0.00194351333068,0.00933875509471,0.000786382524535,0.000701061549933,-0.0534661499359,0.573701261825,0.819029744643,0.00615519874412,0.0,0.81902879104,-0.573610566363,-0.0119793366193,0.0,-0.00628086690077,0.0119140749032,-0.999909298652,0.0,0.260777792046,-0.26545380278,0.304967125009,1.0,-0.01244,-0.0163497142857,3.128
-0.666276511623,-0.515862994644,-0.125262911049,-2.63778893126,-0.0671353653523,2.11144791776,-0.914395336408,-0.0563324772802,0.0119239360166,0.000365436002522,0.00680490914406,0.000211718809062,0.002185623572,-0.0545456615442,0.573718677719,0.819017525185,0.00615785487875,0.0,0.819016582819,-0.573627923162,-0.011982893572,0.0,-0.00628200328073,0.0119184245823,-0.999909239676,0.0,0.260585386432,-0.265705308691,0.304966157832,1.0,-0.01214,-0.0159554285714,3.143
-0.667215816813,-0.515683668052,-0.125264627191,-2.63764232525,-0.0671200419049,2.11147543589,-0.915350793172,-0.0559821401216,0.0117939047073,0.000318361828132,0.0095482607565,0.00198121902291,0.0048618063963,-0.057392330522,0.573719030114,0.819017228011,0.00616454428035,0.0,0.8190163489,-0.573628202149,-0.011985526048,0.0,-0.00628031678305,0.01192541653,-0.999909166906,0.0,0.260357616757,-0.266001987698,0.304968379068,1.0,-0.01178,-0.0154822857143,3.161
-0.668230430182,-0.515496936427,-0.125258252559,-2.6374767068,-0.0671015980728,2.11150924529,-0.91631271988,-0.0537708424626,0.0102461679785,0.00647733107774,0.0120074517296,0.00526276166318,0.000187997664227,-0.0459449760213,0.573775811711,0.818977421109,0.00616834745611,0.0,0.818976723281,-0.57368520634,-0.0119648506796,0.0,-0.00626037340199,0.0119171043395,-0.99990939107,0.0,0.26014161694,-0.266293463471,0.304978232982,1.0,-0.01142,-0.0150091428571,3.179
-0.669004825491,-0.515347458475,-0.12524972387,-2.63735148127,-0.0670874370566,2.11154059737,-0.917043411463,-0.0511820060257,0.00978685645567,0.000527611891981,0.00875847994411,-9.54022727718e-05,0.000947679675201,-0.0495427234559,0.573818051379,0.818947824505,0.00616859391271,0.0,0.818947202578,-0.573727574506,-0.0119539341458,0.0,-0.00625067628423,0.0119113652572,-0.999909520119,0.0,0.259968276147,-0.266526172174,0.304982815774,1.0,-0.01112,-0.0146148571429,3.194
-0.66996375841,-0.515153789024,-0.125231456989,-2.63718931697,-0.0670706491876,2.11157253132,-0.917994619732,-0.0521749556337,0.0103805206059,0.000635678151497,0.00925387816583,9.25090454464e-06,0.00553600887611,-0.0513904730867,0.573826935679,0.818941624618,0.00616524607117,0.0,0.818940995621,-0.573736540354,-0.011948843219,0.0,-0.00624829842585,0.011905770068,-0.999909601617,0.0,0.259755339233,-0.266813316642,0.304988133497,1.0,-0.01074,-0.0141154285714,3.213
-0.670648000541,-0.515019277018,-0.125212192313,-2.63708596429,-0.0670555641792,2.11159735622,-0.918715222831,-0.0437078389807,0.00675814705889,-0.000573994483756,0.0115396382609,0.000259349532184,0.00206375318799,-0.0419178263173,0.573795289191,0.818963803853,0.00616449366632,0.0,0.818963147253,-0.573704869731,-0.0119512672662,0.0,-0.0062511756199,0.0119063032246,-0.999909577285,0.0,0.259602512661,-0.267013584383,0.304987988372,1.0,-0.01046,-0.0137474285714,3.227
-0.671454451325,-0.514856584237,-0.125193298848,-2.63697084203,-0.0670339983888,2.11164164813,-0.919498795836,-0.0469695213145,0.00308467961288,0.00151178818707,0.00570387157551,0.00362102205123,0.00207430571327,-0.0457513640226,0.573815845445,0.818949380146,0.00616726655253,0.0,0.818948767782,-0.573725425687,-0.0119498355569,0.0,-0.00624811308949,0.0119079096009,-0.999909577298,0.0,0.259422431885,-0.267250293333,0.304984431277,1.0,-0.01012,-0.0133005714286,3.244
-0.67227770642,-0.514678850378,-0.125163223218,-2.6368620934,-0.0670107825999,2.11168041793,-0.920290643063,-0.045819508631,0.0115230190857,0.00222545634192,0.00679839384144,0.00215109296385,0.00164543042825,-0.04783994542,0.573835922512,0.818935300936,0.00616877754958,0.0,0.818934549687,-0.573745190311,-0.0119752589136,0.0,-0.00626777648711,0.0119238883825,-0.999909263815,0.0,0.259237690246,-0.267485949456,0.304972207666,1.0,-0.00976,-0.0128274285714,3.262
-0.67298041392,-0.514538260132,-0.125136266499,-2.63675832865,-0.0669930156779,2.11169428569,-0.921000491584,-0.0388997470806,0.00756634056589,0.00258707053768,0.00819910120047,0.00244725933358,0.00419103170262,-0.0410332384002,0.573823251988,0.818944199723,0.00616604572041,0.0,0.818943301273,-0.573732321788,-0.011993295521,0.0,-0.00628430106734,0.0119319034021,-0.999909064486,0.0,0.25907231741,-0.267698218144,0.304969775585,1.0,-0.00942000000001,-0.0123805714286,3.279
-0.673730690491,-0.514372484035,-0.125102144575,-2.63663910599,-0.0669682346632,2.11173248742,-0.921770991809,-0.0410102280612,0.00816095011649,-0.000244570279815,0.00396547242529,-0.000107914654611,0.00283451961911,-0.0418538029218,0.573800855261,0.818959910515,0.00616363296827,0.0,0.818959003367,-0.573709983103,-0.0119897036495,0.0,-0.00628306983036,0.0119276945663,-0.999909122439,0.0,0.258930244353,-0.267892933199,0.304969785792,1.0,-0.00910000000001,-0.01196,3.295
-0.674334049308,-0.514242246989,-0.125076206616,-2.6365467826,-0.0669476991482,2.11176655299,-0.922377454695,-0.0403983880891,0.00825830473921,0.001733589083,0.00132661125497,1.18182915296e-05,0.00170616176815,-0.0317333644371,0.57379254919,0.818965711759,0.00616606508758,0.0,0.818964779117,-0.573701560033,-0.011998228311,0.0,-0.006288777507,0.0119345139172,-0.999909005187,0.0,0.258786742709,-0.268081009599,0.304963555813,1.0,-0.00878000000001,-0.0115394285714,3.311
-0.674990685007,-0.514097126618,-0.125054490273,-2.63642993307,-0.0669276939957,2.11178529514,-0.923004887837,-0.0357920809365,0.00982101208508,0.00136931107959,0.00901991931909,0.00411303686334,0.00483950500898,-0.0330791755664,0.573815609254,0.818949552012,0.00616642009002,0.0,0.818948589109,-0.573724547516,-0.0120041191071,0.0,-0.0062930625501,0.0119383618021,-0.999908932294,0.0,0.258643221645,-0.268275061279,0.304965124232,1.0,-0.00844000000001,-0.0110925714286,3.328
-0.675687967419,-0.513941588463,-0.125041729786,-2.63632797983,-0.0669053642214,2.11181911632,-0.923695387952,-0.0368559820708,0.00715342683341,0.00129550813534,0.00527015440579,0.00188161960384,0.00164647624907,-0.03421267418,0.573827021311,0.818941490686,0.00617505844395,0.0,0.81894053742,-0.573735725241,-0.0120191785328,0.0,-0.00630027364953,0.0119541652515,-0.999908698075,0.0,0.258485620593,-0.268479319426,0.304957146694,1.0,-0.00806000000001,-0.0105931428571,3.347
-0.676241406549,-0.513819419763,-0.125022862607,-2.63626118337,-0.0668795226388,2.11183538538,-0.924241822436,-0.0331468023494,0.00632823877261,0.00230717378707,0.00342958624615,0.000659555241322,0.000655136623775,-0.0361123750643,0.57383401297,0.818936491762,0.00618828888015,0.0,0.818935480694,-0.573742221892,-0.0120535546779,0.0,-0.00632073486312,0.0119847797243,-0.999908202469,0.0,0.258358376472,-0.268633487867,0.304944176873,1.0,-0.00776000000001,-0.0101988571429,3.362
-0.676871147438,-0.513710946183,-0.124996607612,-2.63620055315,-0.0668560580192,2.1118498479,-0.924895495254,-0.0365602042412,0.00417276306269,0.00245905932093,0.00131740083391,-0.000251588181298,0.000223051969658,-0.0402917711958,0.573809050978,0.818953911407,0.00619765342821,0.0,0.818952830104,-0.573716859925,-0.0120819536743,0.0,-0.00633898700045,0.0120085513887,-0.999907801718,0.0,0.258210623836,-0.268804311328,0.304933482835,1.0,-0.00740000000001,-0.00972571428572,3.38
-0.677434602835,-0.513589509854,-0.124982842656,-2.63613122911,-0.0668302629682,2.11186968068,-0.925445997077,-0.0321936747548,0.00986324620015,0.00223800915301,0.0045286713022,0.000684452686389,-9.78425594589e-05,-0.0368115497344,0.573824631268,0.818942882244,0.00621249333615,0.0,0.81894180706,-0.573732016251,-0.0121093798102,0.0,-0.00635270638552,0.0120365626646,-0.999907377851,0.0,0.258080469055,-0.268963225114,0.30492210789,1.0,-0.00706000000001,-0.00927885714286,3.397
-0.677946711807,-0.513509865726,-0.124957932227,-2.63607342359,-0.0668101201139,2.11188269354,-0.925938526798,-0.0320977979208,0.00718797611688,0.0041019073375,0.002309483032,0.0015829208469,0.00719041338766,-0.036405763416,0.573834569619,0.818935887165,0.00621661675513,0.0,0.818934829866,-0.573741866071,-0.0121145553307,0.0,-0.00635443316216,0.0120429864938,-0.99990728953,0.0,0.257963325946,-0.269103724081,0.304920624811,1.0,-0.00674000000001,-0.00885828571429,3.413
-0.678528918492,-0.513384609171,-0.124932324331,-2.63598473124,-0.0667804065024,2.11190336384,-0.926531802687,-0.0282717438237,0.00743713468562,0.000327883496463,0.00381482062682,0.000607552881961,0.00402327106796,-0.0345674230525,0.573824626707,0.818942780775,0.00622627516078,0.0,0.818941768661,-0.573731728926,-0.0121255790423,0.0,-0.00635806621912,0.0120571447973,-0.999907095811,0.0,0.257835337818,-0.269269586423,0.304916978333,1.0,-0.00634000000001,-0.00833257142858,3.433
-0.67891885269,-0.513316663997,-0.124905004054,-2.63593181015,-0.0667661449253,2.11191982865,-0.926919850999,-0.0299934663531,0.00604926959414,0.00196529821803,0.0016374362441,-0.000168402539087,0.00511331695335,-0.0277532427278,0.573815561321,0.81894916067,0.00622259801244,0.0,0.8189481267,-0.573722731488,-0.0121218831024,0.0,-0.00635728246114,0.0120519421794,-0.999907163515,0.0,0.257750646942,-0.269377976374,0.304917944754,1.0,-0.00606000000001,-0.00796457142858,3.447
-0.679338040982,-0.513227679389,-0.124878526755,-2.63585633503,-0.0667420583706,2.11194469958,-0.927356063364,-0.0250163012921,0.00588531523731,0.00249037003118,0.00485319964466,3.30861158455e-05,0.00112713084204,-0.0267144421569,0.573796930452,0.81896220027,0.0062244706604,0.0,0.81896127992,-0.573704265496,-0.0121072145472,0.0,-0.00634446784703,0.0120449149043,-0.999907329582,0.0,0.257664600108,-0.26949987608,0.304922075813,1.0,-0.00574000000001,-0.00754400000001,3.463
-0.67976342246,-0.513133530695,-0.124850790922,-2.63578152713,-0.0667211014126,2.11196686422,-0.927798617386,-0.0252439632863,0.00354747205616,0.0027199669231,0.00314278378281,0.00677886798865,0.00274551207664,-0.0317006736602,0.57377839807,0.818975190783,0.00622363971471,0.0,0.818974237196,-0.573685698302,-0.012110543978,0.0,-0.00634794418679,0.0120460010343,-0.999907294435,0.0,0.257568685337,-0.269628462522,0.30491941867,1.0,-0.00538000000001,-0.00707085714286,3.481
-0.68020426076,-0.513052054975,-0.124821997576,-2.63572276222,-0.0667017951521,2.11199930063,-0.928242127309,-0.0256430386342,0.00335655011196,0.00122677460651,0.00367620483032,0.00217728128947,0.0047543987651,-0.0241453779215,0.573764561222,0.818984896007,0.00622216189065,0.0,0.818984061079,-0.573672132937,-0.0120887754131,0.0,-0.00633116548586,0.0120321939916,-0.999907567054,0.0,0.257481844146,-0.269746948481,0.3049237986,1.0,-0.00504000000001,-0.00662400000001,3.498
-0.680554262701,-0.512990655491,-0.124807671875,-2.63567483972,-0.0666869140653,2.112008976,-0.928583183124,-0.0313950186661,0.0063748044551,0.00042951929409,0.00664100462984,0.000403097678011,0.00049647778115,-0.0207514612308,0.573770528848,0.818980684521,0.00622619537805,0.0,0.818979891248,-0.573678060648,-0.0120899695926,0.0,-0.00632974175027,0.0120362287952,-0.999907527507,0.0,0.257402837424,-0.269845478035,0.304924024752,1.0,-0.00474000000001,-0.00622971428572,3.513
-0.680948189917,-0.512935979003,-0.124782612796,-2.63562911593,-0.0666689493274,2.11202630253,-0.928961304457,-0.0182897048502,0.00117053266568,0.00102010956244,0.00501840397659,0.00189673199882,8.33014042005e-05,-0.0209352995989,0.573775652986,0.818977089608,0.00622684819606,0.0,0.818976375342,-0.573683314919,-0.0120788127066,0.0,-0.00632015364428,0.0120304018359,-0.999907658281,0.0,0.257315488142,-0.269953342777,0.304926643735,1.0,-0.00438000000001,-0.00575657142858,3.531
-0.681252526455,-0.512880927764,-0.124767252703,-2.63558942982,-0.066656098553,2.11203550125,-0.929256146064,-0.0150707838429,-0.000269349761963,0.000531849464166,0.00336972221167,0.000588222202561,0.00383118115968,-0.0148575571406,0.573780058378,0.818973985314,0.00622919647248,0.0,0.818973274595,-0.57368765748,-0.0120828000313,0.0,-0.00632200748135,0.0120346468447,-0.999907595479,0.0,0.257247018465,-0.27003792719,0.304925457412,1.0,-0.00408000000001,-0.00536228571429,3.546
-0.681575831357,-0.512827723262,-0.124742388088,-2.63553004246,-0.0666410137824,2.11204398416,-0.92955391322,-0.0169481064178,0.00316104511125,0.00562234723436,0.0052119332267,1.00145462445e-05,0.000855442026935,-0.0133845451147,0.573792682468,0.818965170405,0.00622527998982,0.0,0.818964517923,-0.573700504208,-0.0120663480479,0.0,-0.00631059401468,0.0120220971024,-0.999907818544,0.0,0.257180064295,-0.270130250249,0.304934063661,1.0,-0.00374000000001,-0.00491542857144,3.563
-0.681885900542,-0.512772623518,-0.124717544772,-2.63548003212,-0.0666283097001,2.11205995349,-0.929840388901,-0.015939966223,0.000833461642625,5.80189805066e-05,0.00127828293384,-3.08459928686e-05,0.00482046055465,-0.0187526494312,0.573802285273,0.818958482759,0.00621995444314,0.0,0.81895784559,-0.573710289642,-0.0120539456807,0.0,-0.00630335055986,0.0120106933117,-0.999908001277,0.0,0.257115457729,-0.270217972837,0.304938345743,1.0,-0.00340000000001,-0.00446857142858,3.58
