nelsonifechukwu/NELSON_IML_WORK/CNN-GradCAM/train2dof/data_sample_2022-02-21-14-01-54/robot_state.csv
position_joint1,position_joint2,position_joint3,position_joint4,position_joint5,position_joint6,position_joint7,velocity_joint1,velocity_joint2,velocity_joint3,velocity_joint4,velocity_joint5,velocity_joint6,velocity_joint7,ee_T_00,ee_T_10,ee_T_20,ee_T_30,ee_T_01,ee_T_11,ee_T_21,ee_T_31,ee_T_02,ee_T_12,ee_T_22,ee_T_32,ee_T_03,ee_T_13,ee_T_23,ee_T_33,v_x,v_y,time
0.465100269004,0.547735347787,-0.123978798825,-1.35576732487,0.0794475150902,1.8940923322,0.159168514491,-0.0018458993516,-0.00146523083146,7.46302029492e-05,-0.00067689518972,0.000184784165367,-6.26631763469e-05,-0.00226121381855,0.573767193682,0.819004232692,0.00200529000713,0.0,0.818962290514,-0.573708877474,-0.0118168322935,0.0,-0.00852774717192,0.00842252976041,-0.99992816668,0.0,0.661685500673,0.260913046176,0.303276978294,1.0,0.0,0.0,0.0
0.465097842496,0.547735500273,-0.123977985816,-1.35576446428,0.0794464505364,1.89409314601,0.159170007748,-0.00116489426745,-0.000863188816851,0.000330624854897,0.00133497111911,0.000156199795568,3.52848009224e-05,-0.000240341051375,0.573769403498,0.819002678498,0.0020077659663,0.0,0.818960778312,-0.573711086792,-0.0118143717308,0.0,-0.00852428861676,0.00842316877124,-0.999928190787,0.0,0.661686821259,0.260912132102,0.303278273647,1.0,-8e-05,-0.000105142857143,0.005
0.465097139105,0.54773761519,-0.12398172504,-1.35577026536,0.0794458398518,1.8940923322,0.159170007746,0.00015662274531,-0.000550536341492,-0.000447568764986,0.000290444124619,-2.12960474602e-05,-0.000369025267788,2.9295450706e-05,0.57377274544,0.819000358155,0.00199920789513,0.0,0.818958364237,-0.573714479914,-0.0118169406162,0.0,-0.00853126833255,0.00841766855385,-0.999928177579,0.0,0.66168634878,0.260908630303,0.303274066225,1.0,-0.00038,-0.000499428571429,0.02
0.465096804637,0.547733559045,-0.123981729094,-1.35577708276,0.0794436128919,1.89409197496,0.159173025204,0.000432116422843,-0.00267513390002,-0.00111148439683,-0.00287953011143,-9.81022732452e-05,-0.000354568479311,-0.00273344558834,0.573773267258,0.819000010494,0.00199185625362,0.0,0.818957939457,-0.573715049369,-0.0118187321009,0.0,-0.00853694816851,0.00841268099574,-0.999928171078,0.0,0.661684833917,0.260904920869,0.303271520657,1.0,-0.00072,-0.000946285714286,0.037
0.465095877731,0.547666422847,-0.123976465687,-1.35584551794,0.0794428827895,1.89410033717,0.159173944316,0.000784887328973,-0.0122161897533,0.00123213813869,-0.0111291370166,0.000181536901545,0.000323582548452,0.00086079480209,0.573773647465,0.818999680791,0.00201773150605,0.0,0.81895785609,-0.57371523691,-0.0118154046868,0.0,-0.0085193733822,0.00843196725325,-0.999928158522,0.0,0.661673764299,0.2609064217,0.303295244813,1.0,-0.00106,-0.00139314285714,0.054
0.465093177508,0.547547776681,-0.123971206226,-1.35597278311,0.0794411354521,1.89413524316,0.1591637088,-7.85487548246e-05,-0.00984987432172,0.00124289468838,-0.0123030547934,0.000204452976548,0.000831575394257,-0.00119733954511,0.573773249928,0.818999918042,0.00203440799445,0.0,0.818958219778,-0.573714683242,-0.011817080491,0.0,-0.00851118208213,0.00844658245031,-0.999928104928,0.0,0.66165238311,0.260892707198,0.303315526795,1.0,-0.00138,-0.00181371428571,0.07
0.465081897213,0.547397208981,-0.123979209187,-1.35617850556,0.0794346785349,1.89418437981,0.159161928513,0.000525638922961,-0.0128287656157,-0.000577202585396,-0.00994395218405,-6.22509803217e-05,0.000240160455,0.000665931674821,0.573796213357,0.818983836236,0.00203185215124,0.0,0.818942057435,-0.573737607151,-0.011824195763,0.0,-0.00851823921754,0.00844881060172,-0.99992802601,0.0,0.661624136606,0.260860458093,0.303328787282,1.0,-0.00174,-0.00228685714286,0.088
0.465064432703,0.547221905069,-0.123977067187,-1.35639094584,0.0794331826122,1.89431541415,0.159154739236,-0.00455630387608,-0.00413537213728,0.00101767483542,-0.0115716539905,0.000485955276737,0.0123404347817,0.00159289915081,0.573814918358,0.818970514637,0.00211719767547,0.0,0.818929802595,-0.573755929859,-0.0117838140792,0.0,-0.00843600397908,0.00849572815733,-0.999928325651,0.0,0.661610344783,0.260835901592,0.303363155656,1.0,-0.00208,-0.00273371428571,0.105
0.465045252642,0.547035872287,-0.123974945571,-1.35659923957,0.0794271239979,1.89443625878,0.159137215741,-0.0034789753052,-0.00870542068671,0.000385261334798,-0.0138679518889,-0.00188782608411,0.00453069959989,-0.00243563213522,0.573825044082,0.818963188914,0.00220474267194,0.0,0.818923604236,-0.573765706976,-0.0117384336803,0.0,-0.0083485000763,0.00854148748947,-0.999928670225,0.0,0.661596453806,0.260809398964,0.303406198346,1.0,-0.0024,-0.00315428571429,0.121
0.465015656162,0.546814197133,-0.123977077411,-1.35689814148,0.0794213309443,1.89455473766,0.159119633612,-0.00273903572589,-0.019987001196,-2.61949275524e-05,-0.0101606178255,-0.00196929340568,0.0125008429931,0.00142686127421,0.573851560965,0.818944495841,0.00224624357019,0.0,0.818905364428,-0.573791975674,-0.0117268778385,0.0,-0.00831494561175,0.00856911304431,-0.99992871345,0.0,0.661565912037,0.260763126984,0.303431283204,1.0,-0.00274,-0.00360114285714,0.138
0.464977955971,0.546546439923,-0.123977156329,-1.35732004211,0.0794041306438,1.89470661578,0.159024272431,-0.00154699268922,-0.0134710031698,-0.000145906505824,-0.0296882297064,0.000299426415085,0.0072513787856,-0.0106795545601,0.573823419737,0.818964206082,0.00224922640428,0.0,0.818925028637,-0.573763739295,-0.0117352393377,0.0,-0.00832037660814,0.00857606808159,-0.999928608646,0.0,0.661517288541,0.260699100829,0.303433257497,1.0,-0.0031,-0.00407428571429,0.156
0.464936048493,0.546274675684,-0.123974372285,-1.35773146877,0.079381955878,1.89486035358,0.158942290219,-0.00101101646957,-0.0159978019688,0.00130322029618,-0.0265369194394,0.000351623097624,0.0117832009908,-0.00172521583677,0.57380577845,0.818976526718,0.00226367047411,0.0,0.818937497043,-0.573746004659,-0.0117322195938,0.0,-0.00830980055267,0.008585985336,-0.999928611487,0.0,0.661472233526,0.260634569268,0.303443096808,1.0,-0.00342,-0.00449485714286,0.172
0.464895097967,0.545997356714,-0.123972952814,-1.35821432778,0.079341336326,1.89501250788,0.158923928324,-0.00241836213643,-0.0181094054856,0.00305777576279,-0.0308050004351,-0.00185634582089,0.00451957545843,-0.00313695843775,0.573846784637,0.818947949136,0.00220709485596,0.0,0.81890830428,-0.573787343081,-0.011748234033,0.0,-0.00835494993263,0.00854925923061,-0.999928549937,0.0,0.661410591716,0.260547270593,0.303421456413,1.0,-0.00376,-0.00494171428571,0.189
0.464831013393,0.545646598585,-0.123973998472,-1.35881697119,0.0792717614081,1.89521673719,0.158830865126,-0.00276504538172,-0.0147884408207,0.00131076817097,-0.0326197256817,-0.00506154034326,0.00812814342199,-0.00660864975051,0.573831517217,0.818958793227,0.00215214918509,0.0,0.818918641313,-0.573772498383,-0.0117526980167,0.0,-0.00839029290921,0.00850666740056,-0.99992861725,0.0,0.661344092538,0.260451043352,0.303401867258,1.0,-0.0041,-0.00538857142857,0.206
0.464772673318,0.545285411303,-0.123982849503,-1.35943220312,0.0792590065265,1.895419822,0.158754131962,-0.00346595186426,-0.0260615607425,-0.000786989971628,-0.0439775436405,-0.000260728460475,0.0148654764072,-0.00178169234379,0.573853507715,0.818943468796,0.00211978792655,0.0,0.818902685154,-0.573794398344,-0.0117952354013,0.0,-0.00844347111984,0.00850480097814,-0.999928185499,0.0,0.66127071241,0.260350765224,0.303382638169,1.0,-0.00442,-0.00580914285714,0.222
0.464699589329,0.544873042472,-0.123982887447,-1.36012285535,0.0792328841515,1.8956416396,0.158683030886,-0.00537393100928,-0.0253855411233,-0.000366439007421,-0.0447282560026,9.12513925826e-05,0.0069410767287,-0.00431149586339,0.573886581819,0.818920393241,0.0020802988826,0.0,0.818878906983,-0.573827434812,-0.0118388199509,0.0,-0.00850148219809,0.00849781639885,-0.999927753349,0.0,0.661187573916,0.260236671782,0.303365020964,1.0,-0.00476,-0.006256,0.239
0.464627955685,0.544452283366,-0.123986994186,-1.36084946131,0.0791959177752,1.89589017494,0.15857062893,-0.00548232770684,-0.0255228256991,6.81592126393e-05,-0.0392687435987,0.000102562898304,0.0154675831302,-0.00592964114289,0.573886701841,0.81892042605,0.00203375271175,0.0,0.818878254963,-0.573827663453,-0.0118727884833,0.0,-0.0085560101662,0.00847919454672,-0.999927446343,0.0,0.661102791335,0.260117087015,0.303338629489,1.0,-0.0051,-0.00670285714286,0.256
0.464571065202,0.5440001745,-0.123989933952,-1.36159079694,0.079154688471,1.89616201889,0.158495430915,-0.00464948749731,-0.0243583862491,0.000885398866917,-0.0469325214225,-0.00877173084392,0.0137872008096,-0.00220411423054,0.573904130282,0.818908248574,0.00201905020655,0.0,0.818865859249,-0.573845123027,-0.0118838644786,0.0,-0.00857333759561,0.00847369333509,-0.999927344562,0.0,0.661016142368,0.260007490209,0.303329348157,1.0,-0.00542,-0.00712342857143,0.272
0.464494177787,0.543450176678,-0.123989934078,-1.36247878266,0.0791031718688,1.89646446097,0.158369403393,-0.00437679278429,-0.0329513256835,0.00113978606423,-0.0452449841791,-0.000950937142025,0.0150804009826,-0.0069918916729,0.573899464032,0.81891158927,0.00199023704508,0.0,0.818868760001,-0.573840511742,-0.0119066317286,0.0,-0.00860856580883,0.00846311544986,-0.999927131481,0.0,0.660909408203,0.25987067227,0.303322017735,1.0,-0.00578,-0.00759657142857,0.29
0.464425257265,0.542900419999,-0.123993522343,-1.36334541883,0.0790482975325,1.89677680421,0.158271286995,-0.00270824483144,-0.0331949479275,0.000964158912331,-0.0485523753709,-0.000358921107958,0.020187062323,-0.00805352184849,0.573911603211,0.818903097667,0.00198374198208,0.0,0.818860206631,-0.57385269866,-0.011907524444,0.0,-0.00861289878786,0.0084584366644,-0.999927133757,0.0,0.660808368825,0.259739711096,0.303325581405,1.0,-0.00612,-0.00804342857143,0.307
0.464365897755,0.542350122536,-0.123997042796,-1.36420960802,0.0790035745043,1.89707702751,0.158152701332,-0.000465898927032,-0.0346323722894,0.00106321142691,-0.0539357852355,-0.000712675349613,0.0153441344883,-0.0096927851171,0.573901545129,0.818910165779,0.00197579934078,0.0,0.818867084624,-0.573842589668,-0.0119216988235,0.0,-0.00862916868779,0.00845996130183,-0.999926980585,0.0,0.660702293251,0.25961622888,0.303329588357,1.0,-0.00644,-0.008464,0.323
0.464279391967,0.541658770474,-0.123997397075,-1.36528389653,0.0789428454843,1.89748171534,0.158006781955,-0.0073261984627,-0.0380212909366,0.000484521662159,-0.0634539832556,-0.00462315956133,0.0291920343014,-0.00990015243092,0.573896624913,0.818913565035,0.00199595001796,0.0,0.818870709178,-0.573837550055,-0.0119153136009,0.0,-0.008612426687,0.00847274639366,-0.999927016674,0.0,0.66057939134,0.259458066262,0.303342204626,1.0,-0.00682,-0.00896342857143,0.342
0.464203576408,0.541087243263,-0.124001653842,-1.36616633691,0.0788903207674,1.89781241867,0.15789202745,-0.00170913221782,-0.0387848996626,0.000111284723531,-0.0632415719661,-0.00098007564558,0.0252045218012,-0.00520820779248,0.573902657009,0.818909298828,0.00201183324957,0.0,0.818866662012,-0.573843527907,-0.0119055544156,0.0,-0.00859525721444,0.00848021576028,-0.99992710109,0.0,0.660480331093,0.259322218171,0.303355035479,1.0,-0.00712,-0.00935771428571,0.357
0.46412028373,0.540429751578,-0.124004882563,-1.36716826039,0.0788229151513,1.89817109104,0.157762082936,-0.00287304382867,-0.0378025005825,-0.00106996713817,-0.0603950408242,-0.00518603786076,0.0254940300154,-0.00859929940288,0.573904100918,0.818908267007,0.00201992015304,0.0,0.818865789007,-0.573844991279,-0.0118950611246,0.0,-0.00858200805914,0.00848083115222,-0.999927209671,0.0,0.66036390527,0.259168474062,0.30337404915,1.0,-0.00744,-0.00977828571429,0.373
0.464004891095,0.539693073311,-0.124005306736,-1.3682806125,0.0787571229835,1.89860006922,0.157623731866,-0.00995094660371,-0.0410812191275,-0.00811786791636,-0.0660822025347,-0.00453338073438,0.0316371470598,-0.00731856668188,0.573929638501,0.818890255757,0.00206542434271,0.0,0.818848375797,-0.573870346202,-0.011870556306,0.0,-0.00853556144279,0.00850429719194,-0.999927407925,0.0,0.660245472015,0.258988132053,0.303402377581,1.0,-0.00778,-0.0102251428571,0.39
0.463900403941,0.538902545437,-0.12400566923,-1.3695249881,0.0786882427815,1.89907265951,0.15748004359,-0.00443234526301,-0.0398661630842,-5.67653785764e-06,-0.0733860804546,-0.00574633450808,0.0241803751068,-0.00812076876636,0.5739482326,0.818877178025,0.00208338833612,0.0,0.818835481547,-0.57388881532,-0.0118671273607,0.0,-0.00852225058003,0.00851723304928,-0.999927411359,0.0,0.660103714508,0.25880253095,0.303409578226,1.0,-0.00814,-0.0106982857143,0.408
0.463799937091,0.538217792531,-0.12401305773,-1.37057562942,0.0786411669882,1.89947649703,0.157347089671,-0.00665949633719,-0.0479420752639,-0.00167947301709,-0.0700329219244,-0.000140984521079,0.0276700025556,-0.00729775706771,0.573972306773,0.818860204273,0.00212221962615,0.0,0.818818914419,-0.573912631725,-0.0118584753709,0.0,-0.00849262842326,0.00854431453842,-0.999927432343,0.0,0.659989410627,0.258635987771,0.303428434963,1.0,-0.00844,-0.0110925714286,0.423
0.463687329311,0.537417715189,-0.124012271634,-1.37183929325,0.0785669786235,1.89995503194,0.157187302892,-0.00773817978418,-0.0523905826665,0.000919014315163,-0.0700176076893,-0.00373032801197,0.0261327253608,-0.00448392134909,0.573983000543,0.818852674989,0.00213510019391,0.0,0.818811530582,-0.573923250442,-0.0118544037719,0.0,-0.00848178989642,0.00855263556908,-0.999927453201,0.0,0.659846249943,0.25844310109,0.303433407775,1.0,-0.00878,-0.0115394285714,0.44
0.463569909921,0.536539565986,-0.124019058833,-1.37321979031,0.0784576174979,1.90046815127,0.15702112726,-0.00731269967185,-0.0458730675869,0.000619642758227,-0.0729829854609,-0.00139594039146,0.0255522383343,-0.0068504882884,0.573994497023,0.818844636374,0.00212738572493,0.0,0.818803645401,-0.573935031983,-0.011828619588,0.0,-0.00846498348846,0.00853163799813,-0.999927774996,0.0,0.659689583563,0.258226488931,0.303440928722,1.0,-0.00914,-0.0120125714286,0.458
0.463460053096,0.535716947132,-0.124033201003,-1.37451410119,0.0783987848637,1.90093410504,0.156867731124,-0.00715138506885,-0.0572502402699,-0.00154379201902,-0.0813697669578,0.000344631233325,0.0268853874549,-0.0127590356413,0.574024092696,0.81882388399,0.00212953374475,0.0,0.818782785555,-0.57396447902,-0.0118437241839,0.0,-0.0084758106964,0.0085423730674,-0.999927591626,0.0,0.659538648936,0.258025069732,0.303446345521,1.0,-0.00946,-0.0124331428571,0.474
0.463314146284,0.534663522221,-0.124033984133,-1.37620512409,0.0783081360265,1.90155357827,0.156663915902,-0.00528714981718,-0.0543226832737,-3.78538056408e-05,-0.0908950904878,-0.0136217963702,0.0287872533215,-0.00688178511798,0.574045700665,0.818808762955,0.00211899903602,0.0,0.818767397405,-0.573985995438,-0.0118647751027,0.0,-0.00849886968315,0.00854605500095,-0.999927364441,0.0,0.65933991597,0.257768860872,0.303438482141,1.0,-0.00986,-0.0129588571429,0.494
0.463214008995,0.533915742103,-0.124039604164,-1.37741126247,0.0782329282464,1.90198755671,0.156514684115,-0.00951604219973,-0.0526839768886,-0.000332826852759,-0.0861355395844,-0.0105346250539,0.0275706679033,-0.00598482953428,0.574055273143,0.81880211365,0.00209498456807,0.0,0.818760449689,-0.573995677444,-0.011875824259,0.0,-0.0085216019855,0.00853283432937,-0.999927283875,0.0,0.659196922505,0.257583508292,0.303429658368,1.0,-0.01014,-0.0133268571429,0.508
0.463092551215,0.533038085284,-0.124036832994,-1.37880179937,0.078159276955,1.90252864444,0.156341663495,-0.00542785980241,-0.0527511877964,-0.000288151422422,-0.0849867908648,-0.00061206566043,0.0390618375242,-0.011733048835,0.574067580721,0.81879341152,0.00212342122305,0.0,0.818752029373,-0.574007780468,-0.0118713630441,0.0,-0.0085014972232,0.00855368478311,-0.999927276866,0.0,0.659039019716,0.257376308468,0.303433554695,1.0,-0.01046,-0.0137474285714,0.524
0.462963610738,0.532083006293,-0.124037134502,-1.38035631017,0.0780767646017,1.90311505926,0.156138316149,-0.00322304067084,-0.0551600086783,0.00481234391595,-0.0958734359852,-0.000474699603059,0.0366029440844,-0.0177461882565,0.57406972782,0.818791923906,0.00211656491003,0.0,0.818750341322,-0.574009843118,-0.0118880397934,0.0,-0.00851906590034,0.00855766677262,-0.99992709327,0.0,0.658856743213,0.25714560952,0.303417848485,1.0,-0.0108,-0.0141942857143,0.541
0.462833650935,0.53107037821,-0.124040376774,-1.38196586002,0.0779618953539,1.90368707785,0.155930726918,-0.0113655261653,-0.0628921856213,-0.000487297401019,-0.0949276244172,-0.00811024502759,0.0330569441874,-0.0106144222144,0.574065061139,0.818795276914,0.00208494232273,0.0,0.818753398821,-0.574005421417,-0.0118909631006,0.0,-0.00853966064306,0.00853340436689,-0.999927124948,0.0,0.658662553985,0.256900605141,0.303415070628,1.0,-0.01114,-0.0146411428571,0.558
0.462694889566,0.530034291294,-0.124045811423,-1.38361036149,0.0778616046819,1.90427582624,0.155711551088,-0.00541490226076,-0.0631145785059,-0.00077532715468,-0.0961803428186,-0.0112800725079,0.0366625202906,-0.0153807605736,0.574065367947,0.818795108685,0.00206645074454,0.0,0.818752970795,-0.574005784459,-0.0119029040018,0.0,-0.00856004970265,0.00852512178655,-0.999927021261,0.0,0.658465659657,0.256648194963,0.303413505181,1.0,-0.01148,-0.015088,0.575
0.462557873985,0.529059217135,-0.124046079045,-1.38516746553,0.0777637426761,1.90485327634,0.155505472875,-0.0126925367869,-0.0634586555181,-0.000400279336991,-0.094585971568,-0.00574243180594,0.0353242354787,-0.0160033062768,0.574064572431,0.818795675609,0.00206280999957,0.0,0.818753492765,-0.574005006356,-0.0119045228903,0.0,-0.00856347346928,0.00852306183046,-0.999927009506,0.0,0.658270953855,0.256395753129,0.303412945728,1.0,-0.01182,-0.0155348571429,0.592
0.462423864616,0.527965379209,-0.1240442637,-1.38687925461,0.0776554857573,1.90551319327,0.155249309373,-0.00987268756127,-0.0662023126781,0.000195646569992,-0.0975023446513,-0.0130610765067,0.0373952704354,-0.0137544060292,0.574029587821,0.818820128922,0.00209181265414,0.0,0.818778373457,-0.573969957849,-0.0118831623624,0.0,-0.00852969913982,0.00853418206489,-0.999927203335,0.0,0.658082853439,0.256160444269,0.303421710576,1.0,-0.01214,-0.0159554285714,0.608
0.462273498812,0.526792443611,-0.124047481314,-1.38864292511,0.0775520193255,1.906187043,0.155011721251,-0.0100290317922,-0.0692957467314,1.67229046378e-05,-0.105587840588,-0.00668080002413,0.0421880008234,-0.00916929791117,0.574027933751,0.818821101996,0.00216358515223,0.0,0.8187802755,-0.573968011634,-0.0118460530938,0.0,-0.00845813242603,0.00857163125803,-0.999927490938,0.0,0.657879853648,0.255894663884,0.303466280679,1.0,-0.01248,-0.0164022857143,0.625
0.462115170871,0.52564192775,-0.124055313296,-1.39046229409,0.0774334205238,1.90684831174,0.154775172826,-0.011624455936,-0.0645397148406,-0.00235930084583,-0.106017913222,-0.0128448884893,0.0320126972814,-0.0139194465565,0.574035440032,0.818815874714,0.00215030356077,0.0,0.81877494268,-0.573975637704,-0.0118451451103,0.0,-0.00846493397326,0.00856031257289,-0.999927530345,0.0,0.657664032936,0.255610819854,0.303467331363,1.0,-0.01282,-0.0168491428571,0.642
0.461967749745,0.524464969865,-0.124061704945,-1.39232068826,0.0773161291423,1.90750939599,0.154516842401,-0.00117352945784,-0.0753666387605,-0.000183699781341,-0.115335199117,-0.00657664188832,0.0386191655724,-0.012600611564,0.574017286034,0.818828655886,0.00212944485677,0.0,0.818787455631,-0.573957572119,-0.011855581376,0.0,-0.00848564213781,0.00854903597743,-0.999927451299,0.0,0.657435928247,0.255330945196,0.303468043074,1.0,-0.01316,-0.017296,0.659
0.46181822947,0.523346006411,-0.124066317558,-1.39411790063,0.0772021086296,1.90817272057,0.154279029099,-0.00852355849098,-0.0703610947078,-0.000294902258633,-0.113011500105,-0.00457290846928,0.0435172159078,-0.0150317331716,0.574013947651,0.818831042128,0.0021116938761,0.0,0.818789643295,-0.573954337706,-0.0118610776261,0.0,-0.00850036635165,0.00853762144278,-0.999927423762,0.0,0.657220502769,0.255057926797,0.303456957546,1.0,-0.01348,-0.0177165714286,0.675
0.461655692497,0.522114786194,-0.124069134983,-1.39606002529,0.0770914796027,1.9089359995,0.154006008351,-0.00814926924961,-0.0747320405912,0.000276479983486,-0.113734981868,-0.00730378842163,0.0481195881344,-0.0285431723171,0.57399995223,0.818840734635,0.00215709134133,0.0,0.818799904205,-0.57394014087,-0.0118396990483,0.0,-0.0084569493807,0.00856237772406,-0.999927580225,0.0,0.656996014164,0.25476898967,0.303464114908,1.0,-0.01382,-0.0181634285714,0.692
0.461485487909,0.520804432472,-0.124071304891,-1.39819922675,0.0769548437365,1.90974001094,0.15372637488,-0.00909451423571,-0.0726128068501,0.000287149953406,-0.119607680602,-0.00785874536193,0.0495433078879,-0.0195485429386,0.57398935618,0.818848235637,0.00212905772942,0.0,0.818807085851,-0.573929703185,-0.0118490026011,0.0,-0.00848076868436,0.0085446534405,-0.999927530104,0.0,0.656737783864,0.254451687268,0.303436231876,1.0,-0.01418,-0.0186365714286,0.71
0.461327566576,0.519561809706,-0.124080805167,-1.40012377563,0.0768353767794,1.91043718044,0.153466863025,-0.0105333927953,-0.0813535637784,-0.00156101013343,-0.122785208582,-0.00301563337132,0.0483551744496,-0.0154064416772,0.573982982451,0.818852677499,0.00213899751652,0.0,0.818811673085,-0.573923306933,-0.0118418191007,0.0,-0.00846924780809,0.00854860336737,-0.99992759399,0.0,0.656503991304,0.254158358605,0.303453488236,1.0,-0.0145,-0.0190571428571,0.726
0.461153147367,0.518224019216,-0.124078732013,-1.40222021038,0.0766967790686,1.91117806566,0.153193689366,-0.00976422822478,-0.0748459602314,-0.000379718583099,-0.127711204934,-0.0111283399788,0.0399446841446,-0.0235258403969,0.57397421289,0.818858876072,0.00211917839443,0.0,0.818817618448,-0.57391462198,-0.011851636955,0.0,-0.00848875408425,0.00853791898009,-0.99992751987,0.0,0.656242705507,0.25384175162,0.303458781417,1.0,-0.01484,-0.019504,0.743
0.460971002353,0.516853205307,-0.124082212452,-1.40434878095,0.0765550093644,1.91194515801,0.152883248822,-0.0123104871474,-0.0780792058803,0.000163255883627,-0.124562801877,-0.0118080140928,0.0506201846822,-0.0189495880826,0.573945776693,0.818878803895,0.00212057743384,0.0,0.818837623548,-0.57388624315,-0.0118436939448,0.0,-0.00848174301423,0.00853421101653,-0.999927611019,0.0,0.655982540107,0.253514770274,0.303473974606,1.0,-0.01518,-0.0199508571429,0.76
0.460798454645,0.515573215092,-0.124085117058,-1.40639406529,0.0764242645245,1.91273236322,0.152609136828,-0.0106003047991,-0.0858418182138,0.00118113501964,-0.125405911601,-0.0063417889492,0.0509889757901,-0.0269137001322,0.573937540296,0.818884545479,0.00213258408623,0.0,0.818843593656,-0.573878033025,-0.0118287463896,0.0,-0.00846269738336,0.00853537875709,-0.999927762422,0.0,0.655739830922,0.253206252483,0.303466494349,1.0,-0.0155,-0.0203714285714,0.776
0.460615034744,0.514187281913,-0.124091555723,-1.40862471012,0.0763015489833,1.91353154697,0.152303164382,-0.01274895202,-0.0754736433529,-0.000623019062899,-0.132225578606,-0.00635997527862,0.0451458152738,-0.0144572004708,0.573924820403,0.818893569348,0.00209033677122,0.0,0.818851899137,-0.573865313863,-0.0118707929926,0.0,-0.00852150834286,0.00852478309977,-0.999927353346,0.0,0.655443525041,0.25284765263,0.303441435857,1.0,-0.01586,-0.0208445714286,0.794
0.460418995531,0.512772576195,-0.124091509952,-1.41089145913,0.0761625483337,1.91431410425,0.151983451935,-0.0106580983952,-0.0822813412424,0.000178392362129,-0.134105601552,-0.009958594231,0.048641603859,-0.0122278549486,0.573904054172,0.818908280408,0.00202775395866,0.0,0.818865634268,-0.573844645281,-0.0119223738568,0.0,-0.00859988049664,0.00850292043082,-0.999926868526,0.0,0.655152032376,0.25250340444,0.303418435436,1.0,-0.0162,-0.0212914285714,0.811
0.460233193785,0.511445359171,-0.124099018805,-1.41306250888,0.0760272557422,1.91513149183,0.15167788443,-0.0145139724769,-0.085822770991,-0.00120358803969,-0.135540584579,-0.00783313413076,0.0596456663315,-0.0213992413876,0.573890334033,0.818917932388,0.00201281368891,0.0,0.818875161709,-0.573831057761,-0.0119219791063,0.0,-0.00860827320749,0.00849031517155,-0.999926903419,0.0,0.654908862604,0.25218929009,0.303393451715,1.0,-0.0165,-0.0216857142857,0.826
0.460019754243,0.509894516199,-0.124100406933,-1.41552576748,0.0758781661488,1.91606182881,0.151325339978,-0.00943862706383,-0.083173037835,-4.91759903085e-05,-0.137846812455,-0.0106626593013,0.0595154066973,-0.0138360983742,0.573865787648,0.818935099255,0.00202678977214,0.0,0.81889248042,-0.57380642688,-0.01191792281,0.0,-0.00859718582464,0.00849917469976,-0.999926923543,0.0,0.654609932355,0.251815830352,0.303387408524,1.0,-0.01686,-0.0221588571429,0.844
0.459805796458,0.508396410804,-0.124103910364,-1.4179009387,0.075728243118,1.91690233578,0.15099932108,-0.0139027220045,-0.0830131144098,-0.00033408610431,-0.142171121675,-0.00899337230858,0.0543163175216,-0.0202568866027,0.573859184193,0.818939809286,0.00199308428135,0.0,0.818896706517,-0.573799919808,-0.011940811761,0.0,-0.00863534076252,0.00848463800514,-0.999926718219,0.0,0.654312319759,0.251444500388,0.303378111592,1.0,-0.0172,-0.0226057142857,0.861
0.459610701669,0.5069367022,-0.124107136436,-1.42016356916,0.0755818860204,1.9177159233,0.150685674691,-0.0119765613091,-0.0947624966477,0.00117787239075,-0.144228721484,-0.00725754809148,0.0516361738369,-0.0161755862118,0.573841794425,0.818951982275,0.0019981493296,0.0,0.818908955161,-0.573782520587,-0.0119368809569,0.0,-0.00862939530562,0.00848634695641,-0.999926755044,0.0,0.654029312856,0.251097343929,0.303392624521,1.0,-0.01752,-0.0230262857143,0.877
0.459388331999,0.505337869355,-0.124116924174,-1.42261932337,0.075428279416,1.91865707722,0.150353238955,-0.0113072778653,-0.0912149708617,-0.000791562864573,-0.146151435496,-0.0132172480968,0.0571945795475,-0.019355975275,0.573844091544,0.818950207819,0.00206461001949,0.0,0.818908125803,-0.573784622448,-0.011892663148,0.0,-0.00855502218674,0.00851542435009,-0.999927146918,0.0,0.653736966402,0.25071490485,0.30342321211,1.0,-0.01786,-0.0234731428571,0.894
0.459167678615,0.503675027328,-0.124124838127,-1.42510116688,0.0752634089455,1.91960931976,0.15000405472,-0.0165620011203,-0.0964576179465,-0.00138960120278,-0.148394604288,-0.0157392612934,0.0614873114832,-0.0222266851345,0.573827562223,0.818961519287,0.00216925397346,0.0,0.81892095989,-0.573767838644,-0.0118184470701,0.0,-0.00843436759205,0.00855836299271,-0.999927805327,0.0,0.653440954315,0.250331471477,0.303486305555,1.0,-0.0182,-0.02392,0.911
0.458949327517,0.502083349414,-0.124127824971,-1.42743949996,0.0751175348672,1.92048142387,0.149683382117,-0.0145338974121,-0.106500645185,-0.00122024667495,-0.156312909295,-0.0117560550747,0.0484923509556,-0.022579686559,0.573826209259,0.818962178101,0.00227580924194,0.0,0.818923018111,-0.573766089337,-0.011760613786,0.0,-0.00832587601205,0.00861242681632,-0.999928250372,0.0,0.653157815792,0.249966245597,0.303560263077,1.0,-0.01852,-0.0243405714286,0.927
0.458708245203,0.500275546157,-0.124125961539,-1.43017157956,0.0749359796852,1.92144876738,0.149293455401,-0.0177096729408,-0.10117701513,-0.000595417292544,-0.151443065988,-0.00849357683745,0.0540279824435,-0.0282851106195,0.57379286137,0.818985451386,0.00230858409503,0.0,0.818946721382,-0.573732626208,-0.0117425748389,0.0,-0.00829264759835,0.0086285791192,-0.999928387245,0.0,0.652809964559,0.249546076017,0.303605145266,1.0,-0.01888,-0.0248137142857,0.945
0.458459446244,0.498593968958,-0.124125971188,-1.43278621432,0.0747729156243,1.92241958709,0.148918636753,-0.0166085975008,-0.0937758565044,-0.000693277431999,-0.152668328494,-0.00226184034395,0.0571810212284,-0.0213802100229,0.573778617672,0.818995343538,0.00233924483963,0.0,0.818956986778,-0.573718243559,-0.0117293527212,0.0,-0.00826437693562,0.00864595915728,-0.999928471174,0.0,0.652487936948,0.24913528275,0.303617647948,1.0,-0.01922,-0.0252605714286,0.962
0.458215566456,0.497021721866,-0.124125834246,-1.43529838052,0.0746221244263,1.92332636946,0.14854890799,-0.015577911609,-0.0973867328933,0.000185118865233,-0.157092317535,-0.010540745717,0.0599894581972,-0.023574044098,0.573762054873,0.819007020956,0.00231320430449,0.0,0.818968203664,-0.573701652845,-0.0117576278386,0.0,-0.00830265046846,0.00864068784305,-0.999928199677,0.0,0.652171910901,0.248736291668,0.303596617433,1.0,-0.01954,-0.0256811428571,0.978
0.457943923884,0.495344046134,-0.124118492046,-1.43800967037,0.074455629018,1.9242574773,0.148151699498,-0.0149794061692,-0.0934614005911,-0.00114950724212,-0.158586043629,-0.0194291018053,0.0555343212165,-0.0306626547887,0.573745522892,0.819018833895,0.00222970598355,0.0,0.818978723428,-0.57368522902,-0.0118260508179,0.0,-0.00840677081902,0.00861139126626,-0.99992758245,0.0,0.65182023829,0.248300552421,0.303555599778,1.0,-0.01988,-0.026128,0.995
0.45766058319,0.493643629065,-0.124133919337,-1.44080551438,0.074276018964,1.92525498512,0.147777985777,-0.0183728235152,-0.103624171992,-0.00230462149806,-0.169379169915,-0.0157560439189,0.0602902652067,-0.0242458603827,0.573774520712,0.818998764492,0.00213776584587,0.0,0.818957466286,-0.573714595798,-0.0118734107928,0.0,-0.0084980049144,0.00856356476269,-0.999927221987,0.0,0.651469319917,0.247836628084,0.303496060647,1.0,-0.0217965714286,-0.028646922449,1.012
0.457392014908,0.491800001565,-0.124159651455,-1.44370464472,0.0740963752488,1.92633811014,0.14736078417,-0.0181688082123,-0.115648040733,-0.00199397847549,-0.186029357489,-0.00870280367932,0.0652511758174,-0.0306055358913,0.573768124808,0.819003202726,0.00215401508751,0.0,0.818962191013,-0.573708211476,-0.0118559975108,0.0,-0.0084744869496,0.00856681531275,-0.999927393737,0.0,0.651111457486,0.247371758092,0.303493932316,1.0,-0.0244388571429,-0.0321196408163,1.028
0.457031441708,0.48953500146,-0.124172521373,-1.44739839966,0.0738750978657,1.92764172918,0.14682024086,-0.0180061463328,-0.137494469999,-0.000829674055748,-0.216380923481,-0.014460619968,0.0788881803459,-0.0320966216119,0.573754293777,0.819013161968,0.00204885244183,0.0,0.818970583551,-0.573694611217,-0.0119341208297,0.0,-0.00859895198742,0.00852536708809,-0.999926685383,0.0,0.650635529442,0.24677448745,0.303424694509,1.0,-0.0274114285714,-0.0360264489796,1.046
0.456648341055,0.487069037148,-0.12419578137,-1.45122946957,0.0736497471422,1.92908268681,0.146266085973,-0.0218813132597,-0.152999447274,-0.001443478505,-0.231224242808,-0.0138461713379,0.0892654927254,-0.0355307619662,0.573760481226,0.81900866265,0.00211366705153,0.0,0.818966883966,-0.573700487774,-0.0119054691653,0.0,-0.00853823494833,0.00856207588293,-0.999926892028,0.0,0.650164532364,0.246151562565,0.303440500621,1.0,-0.0302188571429,-0.0397162122449,1.063
0.456263605999,0.484682540183,-0.124212334905,-1.45485116625,0.0734181494168,1.93046424493,0.145714187684,-0.0236076362439,-0.164291552665,-0.000787575268757,-0.243435630981,-0.0179563737129,0.0889989417246,-0.0420538143765,0.573751574148,0.819014593051,0.0022303438088,0.0,0.818974465773,-0.573691251312,-0.0118287565042,0.0,-0.00840855735482,0.00861352813088,-0.999927549024,0.0,0.6497275437,0.245550533327,0.303493867148,1.0,-0.032696,-0.0429718857143,1.078
0.455788991513,0.481794443067,-0.124259651472,-1.45938455869,0.0731398281306,1.93199752174,0.145024884653,-0.0286363482855,-0.178159987535,-0.00292414555966,-0.277893672694,-0.0209924944761,0.102494762183,-0.0385006354869,0.57376055928,0.81900854211,0.00213903410655,0.0,0.818967112246,-0.573700481713,-0.0118900480953,0.0,-0.0085110499229,0.0085740043064,-0.999927021577,0.0,0.649103997633,0.244725987928,0.303481598633,1.0,-0.0356685714286,-0.0468786938775,1.096
0.455239205678,0.478444047983,-0.124302120441,-1.46454798914,0.0728269791335,1.93386321639,0.144275494241,-0.0353289101341,-0.186699608488,-0.000143356299505,-0.288596445864,-0.0149797890082,0.105431505981,-0.0423323483992,0.573790120364,0.81898773463,0.00217605150999,0.0,0.818946701999,-0.573729804803,-0.0118809623587,0.0,-0.00848206014522,0.00859941459468,-0.999927049701,0.0,0.648489108533,0.243902741259,0.303501294,1.0,-0.038476,-0.0505684571429,1.113
0.454705689847,0.475251331641,-0.124328593201,-1.46943505322,0.0725303054911,1.93568055247,0.143586529294,-0.035776030677,-0.196550356277,0.000365780421032,-0.317605302417,-0.0198631889806,0.114106302568,-0.0423277260732,0.573838101034,0.818953834351,0.00227989124834,0.0,0.818914120103,-0.573777336208,-0.0118312827418,0.0,-0.0083812858051,0.00865644262026,-0.99992740739,0.0,0.647880763812,0.243080603621,0.303543571516,1.0,-0.0411182857143,-0.0540411755102,1.129
0.454101034194,0.471669594275,-0.124357108034,-1.4749853253,0.0721834613475,1.93763269676,0.142756682854,-0.0316455799993,-0.212933879972,-0.000488702008852,-0.340201081866,-0.0243969755942,0.116170408281,-0.0450362924841,0.573845953617,0.818948372285,0.00226538098923,0.0,0.818908315229,-0.573785085686,-0.0118572169459,0.0,-0.00841076862601,0.00865952201743,-0.99992713317,0.0,0.647160959451,0.242139956044,0.303548470493,1.0,-0.0439257142857,-0.0577309387755,1.146
0.453455778935,0.467793286518,-0.124363065715,-1.48076337611,0.0718232909776,1.93983252799,0.141825282365,-0.0416526889735,-0.232579223992,-0.00031544069123,-0.346138900466,-0.0182646618889,0.134560388336,-0.0553991469736,0.573793163568,0.818984615054,0.00252044624127,0.0,0.818947890145,-0.573731355254,-0.0117231449236,0.0,-0.00815517330695,0.00879094379708,-0.999928103643,0.0,0.646441834667,0.241178207392,0.303665585631,1.0,-0.0467331428571,-0.0614207020408,1.163
0.452817789983,0.463979926288,-0.124372405183,-1.48660842633,0.0714209226361,1.94187078519,0.140929244486,-0.0410011308602,-0.243742201588,-0.00039962023368,-0.373396705817,-0.0343843254128,0.131127290063,-0.0560109947284,0.573752928614,0.81901282736,0.00251245454314,0.0,0.818976027553,-0.573691185541,-0.0117233453675,0.0,-0.00816035432218,0.0087841129003,-0.999928121406,0.0,0.645667063361,0.240194382088,0.30369022141,1.0,-0.0493754285714,-0.0648934204082,1.179
0.452086985494,0.459758255177,-0.124385870943,-1.49318018036,0.0709862533867,1.9441366224,0.139966574835,-0.0440596112368,-0.258210160912,-0.00295769519306,-0.384554721688,-0.0260360731481,0.133379269313,-0.057913163619,0.573759791024,0.819008254914,0.0024346434151,0.0,0.818970270566,-0.573698149214,-0.0117845839627,0.0,-0.00825508006078,0.00875558958035,-0.999927594031,0.0,0.644784793339,0.23907921616,0.303666668569,1.0,-0.0521828571429,-0.0685831836735,1.196
0.451257462793,0.455124499442,-0.124393607938,-1.50045280045,0.0704875641884,1.94672214996,0.138829666679,-0.0456474408605,-0.2604162522,-0.00187238750004,-0.416072970131,-0.0210589223319,0.147485474185,-0.0615192143395,0.573711918071,0.81904197732,0.00237093898915,0.0,0.819003179666,-0.57365053952,-0.0118151219827,0.0,-0.00831715057161,0.00872045076154,-0.999927386736,0.0,0.643818426304,0.237839236184,0.30361621321,1.0,-0.0551554285714,-0.0724899918367,1.214
0.450459615118,0.450689205214,-0.124442145412,-1.50708748388,0.0700335589091,1.94920871037,0.137746681013,-0.0512672916636,-0.284381519954,-0.00710213911063,-0.414855035677,-0.0334206332633,0.160570066827,-0.0640983410859,0.573692037402,0.819055241392,0.00258933790193,0.0,0.819019701457,-0.573630311608,-0.0116507996013,0.0,-0.00805748090383,0.00880485923689,-0.999928773191,0.0,0.642978552057,0.236669521009,0.303719948806,1.0,-0.0577977142857,-0.0759627102041,1.23
0.449575883402,0.44581330211,-0.124493717499,-1.51454737268,0.06953328007,1.95175817846,0.136655123141,-0.0537862535945,-0.291048410691,-0.00338430071605,-0.447808907844,-0.0296685136221,0.144335579155,-0.0650008574971,0.573757711274,0.819009369701,0.00254715475809,0.0,0.818973230853,-0.573696070088,-0.0116796067176,0.0,-0.00810457069963,0.00878748516692,-0.999928545466,0.0,0.641967982292,0.235350805564,0.303733894825,1.0,-0.0606051428571,-0.0796524734694,1.247
0.448645687112,0.440767444488,-0.124511829829,-1.52241668872,0.0689929776104,1.95440082048,0.135416633732,-0.0510821853142,-0.302629671434,0.000219670131754,-0.458901089641,-0.0269522827751,0.159742158158,-0.0769489390301,0.573718717924,0.819037179071,0.00238304532037,0.0,0.818998676422,-0.57365743689,-0.0117923713464,0.0,-0.00829149852868,0.00871738297002,-0.999927626524,0.0,0.640871408304,0.233978362244,0.303671024086,1.0,-0.0634125714286,-0.0833422367347,1.264
0.447705091082,0.435842470753,-0.124515882123,-1.5299615335,0.0684946505911,1.95709466317,0.134184273158,-0.06217064077,-0.318898448944,-0.000152223801437,-0.477042465857,-0.0290279599394,0.172742756468,-0.079679332734,0.573677124404,0.819066131805,0.00244449716171,0.0,0.819028246725,-0.573615425476,-0.0117822588821,0.0,-0.0082484067344,0.00876149330485,-0.99992759739,0.0,0.639851704114,0.232655506327,0.303677719787,1.0,-0.0660548571429,-0.086814955102,1.28
0.446625226565,0.430392214564,-0.124552689439,-1.53813987848,0.0679153514287,1.96008423636,0.132846230003,-0.066935833804,-0.321072040154,-0.000752980223518,-0.489996843624,-0.0349082463446,0.169996351025,-0.0863245580715,0.573686650576,0.819058864949,0.00263620953543,0.0,0.819023861941,-0.573624684262,-0.0116353804143,0.0,-0.00801802098473,0.00883435102129,-0.999928830258,0.0,0.638774655046,0.23116602153,0.303760859015,1.0,-0.0688622857143,-0.0905047183673,1.297
0.445504673643,0.424780415305,-0.124619221614,-1.54685700467,0.0672868112864,1.96291057647,0.13144172011,-0.0685035709968,-0.331810169292,-0.00854194149382,-0.514612498959,-0.0362234885133,0.172393495738,-0.0825117031112,0.573698886378,0.819051103238,0.00237169866119,0.0,0.819012608838,-0.573637814375,-0.0117792777782,0.0,-0.00828749398316,0.00870037716079,-0.999927807835,0.0,0.63753490866,0.229557817853,0.303677800842,1.0,-0.0716697142857,-0.0941944816326,1.314
0.44438615258,0.419283502641,-0.12468916453,-1.55525622098,0.0666859558568,1.96572075187,0.130100047019,-0.0744510704337,-0.34620483267,-0.000620628469539,-0.522145348042,-0.0428754606806,0.179745125551,-0.0769678569332,0.57375271273,0.819013694767,0.00226700691248,0.0,0.818973910441,-0.573692109262,-0.0118255946392,0.0,-0.00838492141666,0.00864175290052,-0.999927503972,0.0,0.636357058213,0.227990379355,0.303658734155,1.0,-0.074312,-0.0976672,1.33
0.443141579617,0.413214281629,-0.124716086252,-1.56420357418,0.0660875823794,1.96905215737,0.128599763512,-0.0727369158372,-0.359208521731,0.000820994332024,-0.534656063903,-0.0304930509554,0.189950140089,-0.0973111822012,0.573768891683,0.81900123016,0.00264401847916,0.0,0.818966477796,-0.573707052892,-0.0116134667272,0.0,-0.0079947054094,0.00882897841898,-0.999929064397,0.0,0.635161817924,0.226348488649,0.303801758492,1.0,-0.0771194285714,-0.101356963265,1.347
0.441747450539,0.406678826837,-0.12476070793,-1.57419551714,0.0653730556226,1.97233198844,0.126938750625,-0.0804797343031,-0.367092835037,-0.00561841400263,-0.564882104405,-0.0400124904349,0.187254643315,-0.0974134831389,0.57378865355,0.818987903988,0.00247812004207,0.0,0.818950757751,-0.573727138011,-0.0117292109513,0.0,-0.00818447474955,0.00875971509686,-0.9999281383,0.0,0.633720830706,0.224470446058,0.303750691224,1.0,-0.080092,-0.105263771429,1.365
0.440451566502,0.400706321348,-0.124832398763,-1.58327222479,0.0647425051541,1.97541286034,0.125411499117,-0.0790105168441,-0.38276668553,-5.03217483316e-05,-0.556622978619,-0.0405882225082,0.203077298274,-0.0981350648216,0.573839018913,0.818952714837,0.00244502255564,0.0,0.818915023295,-0.573777496054,-0.0117608054282,0.0,-0.00822880304427,0.0087512432402,-0.999927848668,0.0,0.632429662303,0.222740964401,0.303728764335,1.0,-0.0827342857143,-0.108736489796,1.381
0.439000488662,0.394088795948,-0.124865334753,-1.59303385192,0.0639882943189,1.97887257292,0.123744033755,-0.0879161196533,-0.391078151426,-0.00336687669467,-0.587364007545,-0.041430770537,0.193529685082,-0.0934137577861,0.573854835517,0.81894095649,0.0026616609157,0.0,0.818906702525,-0.573793224653,-0.0115712922044,0.0,-0.00794911515103,0.00882006376194,-0.999929506537,0.0,0.631065856802,0.220875269199,0.303836087913,1.0,-0.0855417142857,-0.112426253061,1.398
0.437504388865,0.387412709236,-0.124901919217,-1.60327864101,0.0632248186567,1.98213837627,0.121989656227,-0.0849817379348,-0.398992104792,-0.00270098698195,-0.611941414738,-0.0434886375643,0.193584428499,-0.110771804612,0.573846666306,0.818947533535,0.00238490848331,0.0,0.818909375286,-0.573785699175,-0.0117538671664,0.0,-0.00825753312697,0.00869810887137,-0.999928075438,0.0,0.629528075496,0.218916936837,0.303727026264,1.0,-0.0883491428571,-0.116116016327,1.415
0.436053551759,0.380826343465,-0.124932027686,-1.61289548132,0.0625306070453,1.98541422159,0.120238326675,-0.0889262392157,-0.419298434087,-0.000797206079135,-0.605354387763,-0.0455053395718,0.218854676876,-0.111785479196,0.573788716065,0.818987532401,0.00258418061639,0.0,0.818951902401,-0.573726970909,-0.0116572426451,0.0,-0.00806467754126,0.00880528345114,-0.999928711439,0.0,0.62812619709,0.217077163876,0.303844093208,1.0,-0.0909914285714,-0.119588734694,1.431
0.434312039289,0.373417130294,-0.124939222394,-1.62404214757,0.0617070899828,1.98915395246,0.118254630519,-0.100863347767,-0.420622697673,-0.000255355947405,-0.627586933785,-0.055971668019,0.203864408139,-0.116368136524,0.573771922147,0.81899933845,0.00257135680413,0.0,0.818963314639,-0.573709976658,-0.0116918287474,0.0,-0.00810054291788,0.0088144596509,-0.999928340685,0.0,0.626470661263,0.21492097675,0.30381227124,1.0,-0.093964,-0.123495542857,1.449
0.432596356215,0.366186162655,-0.125030271472,-1.63486622134,0.060865880341,1.99258151107,0.116429900313,-0.0947644509988,-0.429130742897,-0.00495025428397,-0.634942662459,-0.0522091785734,0.20490873606,-0.110093857252,0.573897973416,0.818911556654,0.00239277851261,0.0,0.818873239071,-0.573836694701,-0.0117818949891,0.0,-0.00827542518061,0.00872115585753,-0.999927726778,0.0,0.624825047895,0.212751051889,0.303776328814,1.0,-0.0967714285714,-0.127185306122,1.466
0.431045841282,0.359597472955,-0.125061178068,-1.64441976378,0.0601214935945,1.99586238724,0.114603005433,-0.105998178201,-0.43315628032,-0.000775357888192,-0.641190727149,-0.0494036048278,0.213044688259,-0.130861275321,0.573816530039,0.81896791036,0.00262651010001,0.0,0.81893298715,-0.573754807281,-0.0116159623231,0.0,-0.00800628174006,0.00881653670095,-0.999929081552,0.0,0.623409404954,0.210865987431,0.303889822305,1.0,-0.0992485714286,-0.130440979592,1.481
0.429163095185,0.352123842749,-0.12508571669,-1.65567990365,0.0592934531628,1.99942135619,0.112544138859,-0.114410464747,-0.435183830989,-0.00310045084322,-0.665201326198,-0.0483990215512,0.208324477795,-0.123319944566,0.573839998816,0.818952044447,0.00243958119743,0.0,0.818913965576,-0.5737781599,-0.0118019959184,0.0,-0.00826564941493,0.00877043329461,-0.999927376633,0.0,0.621656089687,0.208609887656,0.30379197052,1.0,-0.102056,-0.134130742857,1.498
0.427106487366,0.34390997112,-0.125160368435,-1.66752811816,0.0583863146328,2.00341357213,0.110290561754,-0.116762725298,-0.454983695798,-0.00249708967866,-0.668435012224,-0.0610315915844,0.233611651398,-0.125856372618,0.573870008937,0.818930154199,0.0027133536736,0.0,0.818895885111,-0.573807458223,-0.0116308700124,0.0,-0.00796808100826,0.00889673292579,-0.999928676371,0.0,0.619871999414,0.206182749818,0.303923715841,1.0,-0.105028571429,-0.13803755102,1.516
0.425336986435,0.33701657157,-0.125151805699,-1.67770852079,0.0575723563482,2.00664853908,0.108345385718,-0.117780475287,-0.46425966982,0.00012956736336,-0.681470400555,-0.052271069686,0.218980958156,-0.136966661384,0.573812362973,0.818970754833,0.00264985433547,0.0,0.818935449088,-0.573749804255,-0.0116892790999,0.0,-0.00805297936645,0.00887768343492,-0.99992816555,0.0,0.618261671043,0.204128235834,0.303897976454,1.0,-0.107505714286,-0.14129322449,1.531
0.423144426251,0.3285078178,-0.125171198288,-1.69012377341,0.0565131025427,2.01054757673,0.105941223574,-0.119625777871,-0.487483257056,-0.0031559920281,-0.675166647199,-0.0588633882405,0.221981318382,-0.1365805086,0.573731320365,0.819027738386,0.00258508937704,0.0,0.818991875844,-0.573669312603,-0.0116864870968,0.0,-0.00808872638372,0.00882224072611,-0.999928367721,0.0,0.61628077088,0.201582637766,0.303912539617,1.0,-0.110478285714,-0.145200032653,1.549
0.420983754485,0.320388159245,-0.125170996594,-1.70197183055,0.0555933394999,2.01438674604,0.103627676834,-0.133122916845,-0.477120369218,-0.00232636328768,-0.714616037092,-0.0543089216565,0.219412484575,-0.133581047168,0.573700312734,0.819049178119,0.00267243220631,0.0,0.819014110147,-0.573637627709,-0.0116835935768,0.0,-0.00803658477463,0.00889181216915,-0.999928171911,0.0,0.614393723599,0.199153362611,0.30391879142,1.0,-0.113285714286,-0.148889795918,1.566
0.418840893693,0.312590830381,-0.125231734434,-1.71336570637,0.0546699552831,2.01787847006,0.10133767913,-0.138125189106,-0.494520749238,-0.0107343677132,-0.714087147472,-0.0649045235117,0.226320956428,-0.147981226951,0.573691578162,0.819055644795,0.00256335257311,0.0,0.819018882181,-0.573628982637,-0.0117731818596,0.0,-0.00817263507922,0.0088537799028,-0.999927406674,0.0,0.61253939402,0.196734471667,0.303885470451,1.0,-0.115928,-0.152362514286,1.582
0.416500341166,0.304086996916,-0.12529350711,-1.72546606994,0.0536303445912,2.02176500689,0.0988244491114,-0.142617529929,-0.499843184889,-0.00195707862623,-0.719630193976,-0.0614286840941,0.219830763997,-0.152974496662,0.573634084267,0.819095313325,0.00274808240169,0.0,0.819061540319,-0.573571496812,-0.0116050900982,0.0,-0.00792960584311,0.00890809534459,-0.999928881065,0.0,0.610599761043,0.194143426426,0.303990131965,1.0,-0.118735428571,-0.156052277551,1.599
0.413844793984,0.295020436953,-0.125348291816,-1.73872454921,0.0525809708003,2.02563966403,0.0961940880752,-0.14595755205,-0.509645333164,-0.00820286454269,-0.736762679412,-0.0483990468161,0.215792049836,-0.158127863877,0.57375301878,0.819012820528,0.00249402336877,0.0,0.818974681442,-0.573690165619,-0.0118664202765,0.0,-0.00828811323261,0.00885110686095,-0.999926479841,0.0,0.608369073078,0.191259743881,0.303890162969,1.0,-0.121708,-0.159959085714,1.617
0.41144851174,0.286737574098,-0.125449816749,-1.7503150674,0.0515888849758,2.02941653808,0.0936945996635,-0.150140647968,-0.511403621912,-0.00539107218126,-0.735977609636,-0.0603304737643,0.228455972804,-0.170224747546,0.573758664077,0.819007763073,0.00283307685525,0.0,0.818974790405,-0.573695434571,-0.0116012040675,0.0,-0.00787630457793,0.00897668270016,-0.999928688954,0.0,0.606507194562,0.188689755522,0.304045231803,1.0,-0.124350285714,-0.163431804082,1.633
0.408808371812,0.277926863674,-0.125466855089,-1.76311000321,0.0504865118853,2.03309576589,0.0909658624397,-0.15728256235,-0.52693157469,-0.00127306886271,-0.752100976113,-0.066566988719,0.216932035596,-0.170515492799,0.573692671372,0.819054892507,0.00255905765784,0.0,0.819017724678,-0.573629713606,-0.0118180046064,0.0,-0.00821180108379,0.00887598710344,-0.999926888915,0.0,0.604294838995,0.185894707649,0.303941415442,1.0,-0.127157714286,-0.167121567347,1.65
0.406019678873,0.268855038855,-0.125568468397,-1.77576965093,0.0493691633006,2.0370813247,0.0882064568173,-0.16779563163,-0.529631601003,-0.00894255982901,-0.744189628787,-0.0668499314999,0.23876277336,-0.160575381222,0.573767260049,0.81900174358,0.00283235073688,0.0,0.818968825027,-0.573704104267,-0.0115935880209,0.0,-0.00787038909038,0.0089718009229,-0.999928779346,0.0,0.602203501784,0.183007647211,0.304071623762,1.0,-0.129965142857,-0.170811330612,1.667
0.403305221022,0.260322803678,-0.125686120072,-1.78803042822,0.0483076554082,2.04060989004,0.085550687195,-0.171732644491,-0.530498116284,-0.0109444748545,-0.766933614061,-0.0651461477751,0.210835095104,-0.163653341768,0.573872653501,0.81892854092,0.00263994903069,0.0,0.81889275639,-0.57380973702,-0.0117382338139,0.0,-0.00809810214475,0.00889825784373,-0.999927618255,0.0,0.600078609368,0.180190100361,0.303990037828,1.0,-0.132607428571,-0.17428404898,1.683
0.400325510274,0.250992225374,-0.125760923168,-1.80097179881,0.0471248142198,2.04446543043,0.0826597761371,-0.181351002005,-0.537880793414,-0.00230908149991,-0.774064308672,-0.0671424492121,0.22825677256,-0.173109855669,0.573929162556,0.818888442651,0.00278958080991,0.0,0.818855028774,-0.573866196097,-0.0116093810875,0.0,-0.0079060940876,0.00894739690481,-0.999928716342,0.0,0.597853053343,0.177195767667,0.304094316668,1.0,-0.135414857143,-0.177973812245,1.7
0.397098116089,0.241112988694,-0.125764039826,-1.81503504325,0.0459107738644,2.04847508409,0.0794108185541,-0.180385712097,-0.55118185124,-0.000468795948842,-0.78330384695,-0.0600045182153,0.213741950465,-0.175529278268,0.57384160658,0.818950260547,0.00265107704764,0.0,0.818914114335,-0.573778097362,-0.0117947120257,0.0,-0.00813830922986,0.00893947302305,-0.999926924202,0.0,0.595335338455,0.174012773297,0.304003437771,1.0,-0.138387428571,-0.181880620408,1.718
0.394312794967,0.232608448186,-0.125780910557,-1.82657599136,0.0448736395388,2.05193760677,0.0767193203485,-0.187839829718,-0.55789573887,0.00185363627217,-0.766973070745,-0.0698050237662,0.222888950324,-0.180704676045,0.573843783628,0.818947594503,0.00298267512308,0.0,0.818916015904,-0.57377942019,-0.0115966704013,0.0,-0.00778581762775,0.00909741280248,-0.999928306492,0.0,0.593313741834,0.171335302394,0.304167957637,1.0,-0.140864571429,-0.185136293878,1.733
0.391075193845,0.223034665684,-0.125778105336,-1.84011144703,0.0435782538034,2.05564858654,0.0734863433197,-0.197161844745,-0.565319906773,0.000237267559744,-0.816373446789,-0.0717659462423,0.197950260572,-0.197433732496,0.573695171196,0.819052589505,0.00273003150499,0.0,0.819017401065,-0.573631317845,-0.0117624335025,0.0,-0.00806817538649,0.00898416758299,-0.999927091982,0.0,0.59082117162,0.168212062862,0.30406006879,1.0,-0.143672,-0.188826057143,1.75
0.387259567726,0.212033854673,-0.125893038849,-1.85508408072,0.0422140037328,2.05991884772,0.0698500779189,-0.206759770941,-0.570749208258,-0.00389984020728,-0.789417956824,-0.0787172189524,0.230167559444,-0.193573626774,0.573774890517,0.818995971169,0.00295315468301,0.0,0.81896371727,-0.573710293326,-0.0116480052938,0.0,-0.0078455652198,0.00910203474144,-0.999927797428,0.0,0.588122722698,0.164599237834,0.304176828223,1.0,-0.146809714286,-0.192949910204,1.769
0.383936297375,0.202792038547,-0.12595789038,-1.86798949074,0.0409779845597,2.06332700891,0.0666250249005,-0.210209537835,-0.575471195003,-0.0033726220649,-0.833156316918,-0.0809834767956,0.206954651251,-0.203994518303,0.573729463055,0.819028623723,0.00271360394582,0.0,0.818992739283,-0.573665129439,-0.0118304340161,0.0,-0.00813292071539,0.00901006395636,-0.999926334461,0.0,0.585700331811,0.161483664023,0.304081097744,1.0,-0.149452,-0.196422628571,1.785
0.380254002465,0.192707159021,-0.126065291039,-1.88159570822,0.0396756341921,2.06714263704,0.0631566230142,-0.217455342671,-0.584715854248,-0.00842705855734,-0.793227133916,-0.0775903687294,0.216387765427,-0.205757807822,0.573787596434,0.818987199832,0.0029167775951,0.0,0.818954277925,-0.573722894536,-0.0116909304798,0.0,-0.00790145245993,0.00909699353465,-0.999927403244,0.0,0.583199310766,0.158111134331,0.304179126331,1.0,-0.152259428571,-0.200112391837,1.802
0.376379001649,0.182595514145,-0.126233473888,-1.89547045608,0.038363907699,2.070752618,0.0595192159519,-0.230226057519,-0.598758720445,-0.00865008437802,-0.782798333518,-0.07503318807,0.21702635901,-0.211337081064,0.573898016988,0.818910305336,0.00277935490439,0.0,0.818874974181,-0.573833081818,-0.0118371353297,0.0,-0.00809882224434,0.00906942728269,-0.999926074551,0.0,0.580574484311,0.154582324414,0.304123025964,1.0,-0.155066857143,-0.203802155102,1.819
0.372658585479,0.172910364671,-0.126311266738,-1.90844471862,0.0370369107311,2.07428209286,0.0561093206238,-0.232223774813,-0.606803666366,-0.00129400301277,-0.807050573689,-0.0845224265317,0.211098096557,-0.223797949859,0.573954106606,0.818870529416,0.00291315389936,0.0,0.818837532057,-0.573889362606,-0.0116979691988,0.0,-0.00790744643932,0.00909967240698,-0.999927331486,0.0,0.578127189442,0.151293981946,0.304193011874,1.0,-0.157709142857,-0.207274873469,1.835
0.36887365904,0.163233845721,-0.126322928468,-1.92169071971,0.0357034268509,2.07758597836,0.0524999682916,-0.240586330981,-0.60991051503,-0.000866739517305,-0.791746478259,-0.084974473864,0.203444145978,-0.231220614463,0.57383182424,0.818957035487,0.00267552170921,0.0,0.818920233206,-0.573767154653,-0.0119017136703,0.0,-0.00821202377328,0.00902079460734,-0.999925591197,0.0,0.575512493984,0.147996473068,0.304085319735,1.0,-0.160351428571,-0.210747591837,1.851
0.364725272317,0.152691139167,-0.126375462217,-1.93552019905,0.0342658800181,2.08132620057,0.0486244714812,-0.248645395614,-0.607683608634,-0.00300506576503,-0.798816088502,-0.0805396539285,0.211568678215,-0.22934921869,0.573777700698,0.818993974083,0.00296099609017,0.0,0.818961697647,-0.573712932543,-0.0116600051869,0.0,-0.00785086338916,0.0091153688501,-0.999927634379,0.0,0.572684136677,0.144236451774,0.304219026739,1.0,-0.163324,-0.2146544,1.869
0.360380689726,0.142133375636,-0.126458917799,-1.94969562077,0.0328337750505,2.08470462782,0.0446404636384,-0.257688315629,-0.623915951832,-0.00466441578058,-0.827902354582,-0.0783894432515,0.20303355776,-0.234985333489,0.573802412472,0.818977274948,0.00278593996313,0.0,0.818941844298,-0.573737258195,-0.0118558474201,0.0,-0.00811142822652,0.00908461157001,-0.999925834532,0.0,0.569998958826,0.140777479059,0.304157456897,1.0,-0.165966285714,-0.218127118367,1.885
0.355901794636,0.131373758454,-0.126584484818,-1.96372940411,0.0313890319491,2.08830070631,0.0404837003764,-0.269355339983,-0.622943454751,-0.0120828238161,-0.858001876591,-0.0887274820377,0.211524386722,-0.249091316417,0.573807200626,0.818973098685,0.00301778743222,0.0,0.818940988269,-0.573741570353,-0.0117053441808,0.0,-0.00785508312922,0.00918817749974,-0.999926934862,0.0,0.567224019123,0.137052263881,0.30425593956,1.0,-0.168773714286,-0.221816881633,1.902
0.351241325473,0.12050880509,-0.126751424405,-1.97793765506,0.029842862827,2.0916642016,0.0363284237724,-0.274710492369,-0.659773340374,-0.0108686327747,-0.809602574103,-0.0924218307936,0.208032102051,-0.247238320145,0.573936225865,0.818882825012,0.00297900014565,0.0,0.818850362303,-0.573870887672,-0.0117062094532,0.0,-0.0078766040583,0.00915814934409,-0.999927041043,0.0,0.564337978306,0.133199182869,0.304280957375,1.0,-0.171581142857,-0.225506644898,1.919
0.34638959914,0.109561335076,-0.126857487108,-1.99218375335,0.0283091483698,2.09508865802,0.031880610891,-0.288103497935,-0.634789046472,-0.00476080384601,-0.817808801137,-0.0997465219709,0.19339439114,-0.263126332534,0.573919260524,0.818894469615,0.00304580620792,0.0,0.818862949136,-0.573853786185,-0.0116640264736,0.0,-0.00780390959769,0.00918848420916,-0.999927332736,0.0,0.561426841793,0.129312698382,0.304305979269,1.0,-0.174388571429,-0.229196408163,1.936
0.341494936098,0.0984813630574,-0.126879804139,-2.00643142009,0.02671970457,2.098389561,0.0274157997578,-0.293541379682,-0.662082466576,-0.000274759012623,-0.834132639072,-0.0906980532486,0.196248080175,-0.268336987231,0.573811479699,0.818969763846,0.0031078244444,0.0,0.81893923496,-0.573746037057,-0.0116086737082,0.0,-0.0077241995213,0.00920648686413,-0.999927786063,0.0,0.5584451013,0.125476669077,0.304358958236,1.0,-0.177196,-0.232886171429,1.953
0.336421333131,0.0873703046498,-0.126914802256,-2.02085590496,0.0252459965762,2.10160776651,0.0228039261499,-0.309691902804,-0.652548046539,-0.00261517007233,-0.843733649966,-0.0887159360031,0.188824381975,-0.282376011456,0.57377030089,0.818998719438,0.0030799800571,0.0,0.818966528523,-0.573703417366,-0.0117881704719,0.0,-0.00788765329859,0.00928628148358,-0.999925772196,0.0,0.555365761617,0.121573151542,0.304305178609,1.0,-0.180003428571,-0.236575934694,1.97
0.331455929182,0.0766758415022,-0.127038504901,-2.03428831959,0.0236797295154,2.10461611336,0.0182678492981,-0.313959868668,-0.672020543964,-0.00523108179093,-0.843233015041,-0.0962576231194,0.197352506693,-0.276545883602,0.57370534385,0.819043629831,0.00323384801087,0.0,0.819014165871,-0.573638822759,-0.0116208445458,0.0,-0.0076630654703,0.00931568730299,-0.999927245052,0.0,0.552513999747,0.117770393509,0.304418450278,1.0,-0.182645714286,-0.240048653061,1.986
0.325965824777,0.0654281061935,-0.127219182008,-2.04880325259,0.0220338141629,2.10768349984,0.0134204535059,-0.331121065081,-0.659345106094,-0.0115005303298,-0.871254631914,-0.0990380859361,0.162715825353,-0.286657508441,0.573819509637,0.818964354286,0.00305019176736,0.0,0.818931938805,-0.573752915274,-0.0117821356775,0.0,-0.00789924480354,0.00925889703719,-0.999925934636,0.0,0.549358545315,0.113607079065,0.304314795434,1.0,-0.185453142857,-0.243738416327,2.003
0.320253333031,0.0538720345137,-0.127364877535,-2.06309856478,0.0203798518739,2.1107035701,0.00834925841113,-0.336332151747,-0.675942067017,-0.00586158347262,-0.824541704834,-0.0970715252282,0.178308057616,-0.301695345619,0.573876753624,0.818923487069,0.00324667194626,0.0,0.818893966219,-0.573809896294,-0.0116456818778,0.0,-0.00767409767002,0.00934204604018,-0.99992691453,0.0,0.546247329533,0.109404018908,0.304440074829,1.0,-0.188260571429,-0.247428179592,2.02
0.314843487673,0.0430975129658,-0.127443925132,-2.07683523314,0.0188212178343,2.11342342356,0.00354045224347,-0.338979348884,-0.670826406882,-0.00543363751633,-0.873371600622,-0.102968365081,0.157970668702,-0.300082351908,0.573863476737,0.818933484731,0.00306668458334,0.0,0.818900558653,-0.573795967846,-0.0118663061738,0.0,-0.00795821743759,0.00932112889606,-0.999924888845,0.0,0.543150093081,0.105481651243,0.304325197013,1.0,-0.18998,-0.249688,2.036
0.308511554314,0.0308341001129,-0.127499321535,-2.09187161608,0.0170052087048,2.11649379858,-0.00209624837492,-0.356031393512,-0.671114237748,-0.00136915842623,-0.814653719135,-0.1086707746,0.16203813782,-0.310551746952,0.57378454428,0.818988056364,0.00325686657142,0.0,0.81895822054,-0.573717121687,-0.01169804232,0.0,-0.00771218531128,0.00937957411926,-0.999926270175,0.0,0.539784275812,0.101027838913,0.304423153225,1.0,-0.18998,-0.249688,2.054
0.302773978389,0.0200619913822,-0.127613876407,-2.10528010905,0.0154220460913,2.11891638501,-0.00718420046725,-0.368719852851,-0.667603805356,-0.0107091335297,-0.845646101191,-0.0935154828714,0.145182562996,-0.322961569478,0.57378692798,0.818986992394,0.00310072103724,0.0,0.818954147779,-0.573718881021,-0.0118952215994,0.0,-0.00796324287479,0.00936485131611,-0.999924440307,0.0,0.536682365216,0.097012722118,0.304356146884,1.0,-0.18998,-0.249688,2.07
0.296846922315,0.0092716586033,-0.127791140591,-2.11829299143,0.0137605178758,2.12137527815,-0.0122897531013,-0.369732736248,-0.6579518147,-0.00321255745762,-0.842515427982,-0.0992360100941,0.140749609776,-0.324172268278,0.573927991748,0.818887672471,0.00322289701594,0.0,0.818857257833,-0.573860496823,-0.0117332169726,0.0,-0.00775884283629,0.00937329473156,-0.999925968111,0.0,0.533705104518,0.0929244772593,0.304447183919,1.0,-0.18998,-0.249688,2.086
0.290171471114,-0.00277156335569,-0.12783898054,-2.13288085576,0.0120555534972,2.12392418523,-0.0181801766297,-0.371971073091,-0.675173753259,-0.00135476148056,-0.811219392548,-0.100268990573,0.149160419261,-0.326607993017,0.573898198423,0.818908338834,0.00327678753779,0.0,0.818877665429,-0.573829360039,-0.0118313786292,0.0,-0.00780864806427,0.00947347740303,-0.999924636281,0.0,0.530258116813,0.088474975947,0.304460477522,1.0,-0.18998,-0.249688,2.104
0.283785447908,-0.0140574591611,-0.127858363825,-2.1463682383,0.010342934246,2.12636230427,-0.0237990990946,-0.377942561474,-0.66495148361,-0.008839739831,-0.796790289994,-0.100242805252,0.129488037498,-0.339938226988,0.573805605156,0.818972613197,0.00342537970297,0.0,0.818944431559,-0.573736965582,-0.0116901345115,0.0,-0.00760877954536,0.00951324350087,-0.999925799583,0.0,0.527065415975,0.0843003957252,0.3045201031,1.0,-0.18998,-0.249688,2.121
0.278021095092,-0.0239342986527,-0.127928368289,-2.15824883013,0.00878797254617,2.12812934745,-0.0288908519167,-0.389074042063,-0.665049972447,-0.00684187039332,-0.793448761203,-0.103350510772,0.128585462269,-0.346136543383,0.573727234215,0.819028346045,0.00322117943994,0.0,0.818996930223,-0.573658594097,-0.011857175274,0.0,-0.00786365678433,0.00944110221902,-0.999924511396,0.0,0.524151305619,0.0805482858836,0.304472989765,1.0,-0.18998,-0.249688,2.136
0.270906881254,-0.0357633284548,-0.128129119286,-2.17214179168,0.00698689933681,2.13046261809,-0.0349746560703,-0.398238067317,-0.645447624023,-0.0116826414574,-0.779055380804,-0.102791805813,0.116459851709,-0.337873164841,0.57392220673,0.818891002141,0.00340207816011,0.0,0.818862542506,-0.573853657991,-0.0116988286506,0.0,-0.00762791738169,0.00950023483628,-0.999925777453,0.0,0.520799358963,0.0759712088305,0.304548311923,1.0,-0.18998,-0.249688,2.154
0.264138451917,-0.0468035602896,-0.128206605651,-2.18523385472,0.00541200882084,2.13235609477,-0.040925528168,-0.39869234656,-0.653585831266,-0.00219829487269,-0.765075971736,-0.0997443942744,0.113217678732,-0.348800809122,0.573923243769,0.818890437956,0.00336270519305,0.0,0.81885996333,-0.573852974017,-0.0119109851586,0.0,-0.00782424411821,0.00958976052241,-0.999923405915,0.0,0.517521335732,0.0717462807208,0.304497921681,1.0,-0.18998,-0.249688,2.171
0.257693035279,-0.0571791282118,-0.128244594749,-2.19718945935,0.00373889655284,2.13421535638,-0.0465640229956,-0.401192202373,-0.634701393294,-0.000326528564134,-0.745844891045,-0.10286103366,0.108555864589,-0.356865158763,0.573827452269,0.818956987664,0.00350061140103,0.0,0.818929562555,-0.573758287548,-0.0116852875286,0.0,-0.00756138865176,0.00957227723089,-0.999925595687,0.0,0.514544400689,0.0677929755889,0.304581047315,1.0,-0.18998,-0.249688,2.187
0.250728110646,-0.068053676999,-0.128358490596,-2.21003751406,0.00208171938799,2.13583255258,-0.0526787498749,-0.408117176661,-0.649746983782,-0.00607039827754,-0.750499692766,-0.100724432233,0.095602306485,-0.360405750356,0.573814920683,0.818966693291,0.00327703868311,0.0,0.818934778217,-0.573744588097,-0.0119884760272,0.0,-0.00793813219379,0.00956303148579,-0.99992276426,0.0,0.511220446916,0.0635487248492,0.304458895593,1.0,-0.18998,-0.249688,2.204
0.243090209053,-0.0796137468361,-0.128565663825,-2.22314154473,0.000298598522669,2.13762461212,-0.0592863135301,-0.429297572775,-0.642251632313,-0.0115072982411,-0.743684747879,-0.10689303784,0.093595868198,-0.371280874303,0.573950359224,0.818871039085,0.00345736841668,0.0,0.818842019542,-0.573880024932,-0.0118410690968,0.0,-0.00771234236852,0.00962740975581,-0.999923913484,0.0,0.507866629335,0.0589573278455,0.30454576589,1.0,-0.18998,-0.249688,2.222
0.236772635918,-0.0891004012107,-0.128606090749,-2.23413331959,-0.00111602016649,2.13887379072,-0.0647924879613,-0.41793888113,-0.629368751248,-0.000567006230079,-0.71353012992,-0.0969247369022,0.0837282045536,-0.371372073046,0.573933368452,0.818883479318,0.00332908063661,0.0,0.818851307393,-0.573861690391,-0.0120848493594,0.0,-0.00798580540043,0.00966210635729,-0.99992143222,0.0,0.504942688311,0.0552714267521,0.304459089907,1.0,-0.18998,-0.249688,2.237
0.229012615562,-0.100533490398,-0.128674439952,-2.24682788276,-0.00294556424301,2.14042354731,-0.0716052031685,-0.431316894408,-0.617366670229,-0.00544578699279,-0.708988715963,-0.096111054175,0.0751975477677,-0.381871468458,0.573835776806,0.818951173043,0.00349633083457,0.0,0.818922357635,-0.573764943485,-0.0118620695603,0.0,-0.00770853213058,0.00967028957383,-0.999923529092,0.0,0.50158858277,0.0508076309869,0.304571126229,1.0,-0.18998,-0.249688,2.255
0.221993829357,-0.110553545895,-0.128817049834,-2.2582313555,-0.00450281112173,2.14156205458,-0.0776799644113,-0.445692932165,-0.621119355782,-0.0207508478673,-0.711923569899,-0.11055369073,0.0618695506564,-0.388141001345,0.573909119277,0.818900404264,0.00334628264958,0.0,0.818868454733,-0.573837375475,-0.0120775516156,0.0,-0.00797024329919,0.00967176852461,-0.999921462974,0.0,0.498291704225,0.0465351369983,0.304490496378,1.0,-0.18998,-0.249688,2.272
0.214335617603,-0.121250268747,-0.128965126916,-2.26987525428,-0.00618535181432,2.14282793077,-0.0843218913794,-0.439725518699,-0.615562336202,0.00116449622416,-0.683816722647,-0.0939865784771,0.0771479670391,-0.390992507751,0.573981993828,0.818848354104,0.00357640094792,0.0,0.818820404134,-0.573910636393,-0.0118521774207,0.0,-0.00765274876859,0.00973155385922,-0.999923363211,0.0,0.495325442237,0.0424971566274,0.304612258264,1.0,-0.18998,-0.249688,2.288
0.206684071359,-0.131766299752,-0.129009559284,-2.28153581124,-0.00777808140824,2.14386350696,-0.0910576404849,-0.463863281648,-0.619510334407,-0.00281811326121,-0.67884834439,-0.10529894738,0.069235597899,-0.397504587255,0.573908636841,0.818899858573,0.00355599344261,0.0,0.818870728288,-0.573836205687,-0.0119785765821,0.0,-0.0077688464588,0.00978669592188,-0.999921929756,0.0,0.492063676742,0.0383201860167,0.30458329432,1.0,-0.18998,-0.249688,2.305
0.198865541068,-0.142313920732,-0.129115057748,-2.29292302725,-0.00945441439895,2.14487384664,-0.0979493303242,-0.458782185995,-0.633315037637,-0.00658642181282,-0.651741534828,-0.0941467300421,0.0650559055349,-0.410032764472,0.573844879252,0.818944022687,0.00367275959237,0.0,0.818917003965,-0.573772793875,-0.0118519419231,0.0,-0.00759889376489,0.00980905031806,-0.999923016709,0.0,0.488862421182,0.0340853323731,0.304655505971,1.0,-0.18998,-0.249688,2.322
0.191352854765,-0.152063690385,-0.129296829859,-2.30353710879,-0.0109991360048,2.14573182563,-0.104471368,-0.468523560795,-0.614741011282,-0.00563368122761,-0.663631597387,-0.101625258384,0.0478378292361,-0.421335275168,0.573952177345,0.818868739274,0.00369227053756,0.0,0.818841761634,-0.573879733267,-0.0118729967375,0.0,-0.00760365303246,0.00983810705453,-0.999922695067,0.0,0.485831105703,0.0300434336897,0.304643390069,1.0,-0.18998,-0.249688,2.338
0.18331617448,-0.162396921128,-0.129350691326,-2.31470917676,-0.0126569860626,2.14639664358,-0.111535191528,-0.471272526781,-0.611602122773,-0.00136280208824,-0.654247504434,-0.0921102001303,0.0393063048171,-0.413722497556,0.573867773008,0.81892836997,0.00358480997783,0.0,0.818899353987,-0.573794911692,-0.0119997606944,0.0,-0.0077701483403,0.00982206362652,-0.999921572855,0.0,0.48255281069,0.0258438846043,0.304612503798,1.0,-0.18998,-0.249688,2.355
0.174642863242,-0.173270261079,-0.129417297279,-2.32615319069,-0.014264671282,2.14720350884,-0.119195789274,-0.481211935018,-0.597230975392,-0.0041642381296,-0.65309703893,-0.101617464467,0.0414662222696,-0.428416115438,0.573830472867,0.818953416475,0.00382582729869,0.0,0.818927734847,-0.573757003221,-0.0118749002001,0.0,-0.00753003986,0.00994744719986,-0.999922170368,0.0,0.479197445752,0.021403273209,0.304693724164,1.0,-0.18998,-0.249688,2.373
0.166264249596,-0.183438281766,-0.129617337171,-2.33702249675,-0.0159623470807,2.14769532723,-0.126493553284,-0.50711541133,-0.594332180478,-0.0129412111975,-0.639516770665,-0.0972518153903,0.0239726220118,-0.434741355092,0.573911994115,0.818896956039,0.00368039426909,0.0,0.818868790501,-0.573838267855,-0.012012210021,0.0,-0.00772495987855,0.0099079021684,-0.99992107612,0.0,0.475913335059,0.0170923708188,0.304635141899,1.0,-0.18998,-0.249688,2.39
0.158310843558,-0.193003376573,-0.129702798753,-2.3468319683,-0.017436022627,2.14821730705,-0.133518265245,-0.488556992668,-0.60626175739,-0.00169146834413,-0.610446520153,-0.0879902294378,0.0351710825682,-0.432806472693,0.57388500168,0.818914845036,0.00390234900164,0.0,0.818890389145,-0.573811568235,-0.0118136204402,0.0,-0.00743527930385,0.009975447737,-0.999922600537,0.0,0.472945267517,0.0131249909363,0.304744009211,1.0,-0.18998,-0.249688,2.406
0.149752702464,-0.202998685754,-0.12979139304,-2.35732896954,-0.0190079511396,2.14856802077,-0.141128364586,-0.502224861727,-0.586356522088,-0.00936109964746,-0.622124051023,-0.0905232027183,0.00905513822675,-0.449707617645,0.573807161661,0.818969630435,0.00385130524309,0.0,0.818943718005,-0.573732862286,-0.0119388598096,0.0,-0.0075680889346,0.0100047981191,-0.999921310926,0.0,0.469680668201,0.00891646655931,0.304698213633,1.0,-0.18998,-0.249688,2.423
0.141533068813,-0.212370592518,-0.129971222442,-2.36703810997,-0.020465345693,2.14876762343,-0.14835466022,-0.513769529037,-0.592570400866,-0.0103932305407,-0.593242586243,-0.0969006701479,0.0143387254411,-0.449479048717,0.573895792918,0.818907603492,0.00383441190122,0.0,0.818880495937,-0.573820259384,-0.0120743610727,0.0,-0.00768767086951,0.010069544011,-0.99991974878,0.0,0.466605639277,0.0048934662263,0.304673999848,1.0,-0.18998,-0.249688,2.439
0.132702967198,-0.222279086729,-0.130072689323,-2.3769761947,-0.0220540901529,2.14907843082,-0.15612769762,-0.514517293246,-0.577927746779,-0.00278658988824,-0.59430772924,-0.0939820233189,0.0121650145888,-0.465969770412,0.573898090004,0.818905083937,0.00402401462488,0.0,0.818881700115,-0.57382355225,-0.0118338075054,0.0,-0.00738183288529,0.010086785664,-0.999921879598,0.0,0.463453365162,0.000667599352632,0.304775153123,1.0,-0.18998,-0.249688,2.456
0.123252579184,-0.232590313153,-0.130147599093,-2.38759078945,-0.0237157184797,2.14913557574,-0.164583138208,-0.52923200856,-0.564480463706,-0.00536246125964,-0.592535614482,-0.0903790290913,0.00014919273609,-0.477115161342,0.573768101542,0.818996761571,0.00390090904146,0.0,0.818970809752,-0.573692719719,-0.0120092887391,0.0,-0.00759779174976,0.0100854716137,-0.999920275233,0.0,0.45997807956,-0.00376864065759,0.304701206621,1.0,-0.18998,-0.249688,2.474
0.115152495642,-0.241168938732,-0.130315705659,-2.39608977614,-0.0251066073799,2.14918973415,-0.171727877157,-0.542995327066,-0.570763429173,-0.0148283693543,-0.549136134956,-0.0838844581385,0.0101014184987,-0.483916048918,0.573842735285,0.81894395888,0.00400677878486,0.0,0.818919987897,-0.573767770827,-0.011888880696,0.0,-0.00743750968735,0.010103773581,-0.999921295507,0.0,0.45717066906,-0.00756679381759,0.304762756552,1.0,-0.18998,-0.249688,2.489
0.105414452501,-0.251369582491,-0.130440041614,-2.40618852317,-0.0266563635345,2.14921188519,-0.180435382043,-0.536560369228,-0.557421209752,0.00187428583028,-0.561554049997,-0.0846604256002,-0.00672594731316,-0.485560186959,0.57382178529,0.818957816817,0.00417131894686,0.0,0.81893610071,-0.573746420321,-0.0118091076876,0.0,-0.00727802186113,0.0101925631676,-0.999921567951,0.0,0.453785189967,-0.012020508957,0.304805974515,1.0,-0.18998,-0.249688,2.507
0.0954781582701,-0.261385928495,-0.130582146927,-2.4163010262,-0.0283049667574,2.14906253292,-0.189275125266,-0.554492517019,-0.549179866805,-0.00977927688218,-0.553832275192,-0.0859196226578,-0.0148170928861,-0.487418882527,0.573812826918,0.818964709341,0.00404863178281,0.0,0.818940519719,-0.5737366801,-0.0119747221836,0.0,-0.00748417040801,0.0101870339361,-0.999920102575,0.0,0.450306891441,-0.0165121727711,0.304712027872,1.0,-0.18998,-0.249688,2.525
0.0864461891905,-0.27032951795,-0.130777521032,-2.4247804268,-0.0297005518355,2.1489745293,-0.197288716983,-0.56553851346,-0.55986624019,-0.0102904206617,-0.527588192695,-0.0833526904321,-0.00895054200933,-0.498151326314,0.573929772543,0.818881301855,0.00433319309954,0.0,0.818862242056,-0.573854656677,-0.0116708374718,0.0,-0.00707054367408,0.0102467265936,-0.999922503,0.0,0.447364061926,-0.0205677295447,0.304852295289,1.0,-0.18998,-0.249688,2.541
0.0769356582457,-0.279591944587,-0.130862537656,-2.43391646972,-0.0311840229445,2.14868963584,-0.205936412287,-0.560824347587,-0.539219472349,-0.00821815683291,-0.538363126799,-0.0809174596476,-0.0284184753449,-0.51350984531,0.573765829917,0.818996452959,0.00428128038102,0.0,0.81897611717,-0.573690040029,-0.011773036048,0.0,-0.00718608520509,0.010261429746,-0.999921528541,0.0,0.444111592458,-0.024720135896,0.304795498452,1.0,-0.18998,-0.249688,2.558
0.0670749603984,-0.288802541399,-0.131016005215,-2.44286824354,-0.0326678659352,2.14829320915,-0.214725235661,-0.590205750217,-0.54017230744,-0.00934710108574,-0.518659762696,-0.0809060742773,-0.0239347962007,-0.519848264006,0.573822319853,0.818957030711,0.00425135134995,0.0,0.818935736375,-0.573745812468,-0.0118637795151,0.0,-0.00727687071263,0.0102894831364,-0.999920583691,0.0,0.440849998299,-0.0289969712254,0.304760983875,1.0,-0.18998,-0.249688,2.575
0.0582321106893,-0.296930471593,-0.131193365206,-2.45039456809,-0.0338962563738,2.14800582831,-0.222618274237,-0.586267106469,-0.538470165487,-0.011324629872,-0.501021686269,-0.0817441205916,-0.026123681858,-0.529854240595,0.573947783347,0.818867662281,0.00452112409111,0.0,0.818850929849,-0.573871925295,-0.0116152892911,0.0,-0.00691697177503,0.0103688958409,-0.999922317733,0.0,0.438078206883,-0.0328005110259,0.304881280635,1.0,-0.18998,-0.249688,2.59
0.0483425147124,-0.305913169835,-0.13130862412,-2.45897721835,-0.0353800982529,2.14751420493,-0.231644520725,-0.590556299683,-0.522550083797,-0.00858127943178,-0.517682959666,-0.0869152297395,-0.0383841369004,-0.529795743442,0.573798182024,0.818972702994,0.00448385525038,0.0,0.818955408316,-0.573722343351,-0.0116386782271,0.0,-0.00695940581557,0.010350529195,-0.999922213583,0.0,0.434846231681,-0.0369654183918,0.304856156906,1.0,-0.18998,-0.249688,2.607
0.0380642788812,-0.314805626559,-0.131500009203,-2.46744249538,-0.0368124912232,2.14684766702,-0.240817990585,-0.611334106219,-0.523508802369,-0.0129478226917,-0.487546779709,-0.0847814300349,-0.0368734806069,-0.547182742366,0.573923942923,0.818884938862,0.00441718750562,0.0,0.818865702501,-0.573846714976,-0.0118176089184,0.0,-0.00714261093452,0.0103996922826,-0.999920411588,0.0,0.43156010029,-0.0412606803645,0.304803071756,1.0,-0.18998,-0.249688,2.624
0.0277834884537,-0.323631670858,-0.131617588117,-2.47547863863,-0.0381950002702,2.1463361184,-0.25019455596,-0.593378662736,-0.515724320053,-0.00198902041128,-0.46581195154,-0.0712676661392,-0.0297112734853,-0.560648221602,0.573856142725,0.81893131199,0.0046239160843,0.0,0.81891608315,-0.573780253324,-0.0115506084102,0.0,-0.00680617419738,0.0104151873616,-0.999922596937,0.0,0.428418655297,-0.0454788394571,0.304904975707,1.0,-0.18998,-0.249688,2.641
0.017411499475,-0.332260644118,-0.131738530107,-2.48351781868,-0.0395499424315,2.14565880885,-0.259708075099,-0.620120136393,-0.506996561871,-0.00860989362808,-0.47853031807,-0.0825268817928,-0.0527097973374,-0.559321302665,0.573759065119,0.818999202209,0.0046463830152,0.0,0.818983892362,-0.573682555244,-0.0115955492575,0.0,-0.00683132823454,0.0104585657085,-0.999921972635,0.0,0.425192617325,-0.0496667707834,0.304882716521,1.0,-0.18998,-0.249688,2.658
0.00664660699912,-0.340819171136,-0.131944103891,-2.49141872537,-0.0409114572967,2.14481676884,-0.269300585577,-0.632368872673,-0.505889826951,-0.0099839653588,-0.461138274708,-0.080161142387,-0.0414824916412,-0.578726475782,0.573978476984,0.818845530781,0.00463158515481,0.0,0.818829150969,-0.573900640349,-0.0117313013426,0.0,-0.00694818776261,0.0105261940795,-0.999920457799,0.0,0.421914462754,-0.0539939126474,0.304853664743,1.0,-0.18998,-0.249688,2.675
-0.00328944566989,-0.348748621268,-0.132031799667,-2.49861382187,-0.0421869770077,2.14405415201,-0.278519338149,-0.62526651201,-0.501087137816,-0.00644595204834,-0.434119141594,-0.077374546726,-0.0463462990582,-0.574460240407,0.573791920773,0.818976152267,0.00465194316827,0.0,0.818960160364,-0.573714237211,-0.0117037028432,0.0,-0.00691630065565,0.0105254489051,-0.99992068671,0.0,0.418895362707,-0.0578969766819,0.304865884326,1.0,-0.18998,-0.249688,2.691
-0.0148738858565,-0.357545364131,-0.132265709338,-2.5064055277,-0.0435628048865,2.14321657358,-0.289071680262,-0.649629900088,-0.4757229053,-0.0173438813119,-0.434080489473,-0.076364162802,-0.0510210850609,-0.595452644678,0.573900795898,0.818898800267,0.00483511026257,0.0,0.818885893391,-0.573823639272,-0.0115356628986,0.0,-0.00667216840074,0.0105799334022,-0.999921770529,0.0,0.415532330526,-0.0624538713395,0.304940214756,1.0,-0.18998,-0.249688,2.709
-0.0252263729839,-0.365227597489,-0.132359956741,-2.51340057532,-0.0448625167532,2.14226555711,-0.298577905236,-0.632641985393,-0.488944179203,-0.000166003210657,-0.424840213149,-0.072894394328,-0.0481547100946,-0.60223637851,0.573780673237,0.81898375321,0.00470084022078,0.0,0.818968306326,-0.573702699059,-0.011699283204,0.0,-0.00688477069894,0.010562865115,-0.999920509747,0.0,0.412243502756,-0.0666581508338,0.304878634442,1.0,-0.18998,-0.249688,2.726
-0.0355806583212,-0.372784951702,-0.132479218664,-2.52017869854,-0.0460056895892,2.14135267461,-0.308198609958,-0.652846165458,-0.467601354918,-0.00589183597533,-0.430191689948,-0.0716918260754,-0.057775383746,-0.595727197588,0.573733193671,0.819016760116,0.00474510602656,0.0,0.819001118384,-0.573653901612,-0.0117947510418,0.0,-0.00693818378042,0.0106534924391,-0.999919179086,0.0,0.409190928861,-0.0705924549325,0.304852146634,1.0,-0.18998,-0.249688,2.742
-0.0496659590272,-0.382544148862,-0.132707972835,-2.5285377466,-0.0476065102457,2.14017968673,-0.321001153102,-0.666081004586,-0.462031423567,-0.00617878344739,-0.401690548174,-0.0751819252117,-0.05017490111,-0.626894008809,0.573883032499,0.81891087686,0.0048977209429,0.0,0.818898818129,-0.573805757402,-0.0115076210115,0.0,-0.00661350286836,0.0106149707057,-0.99992178893,0.0,0.405467499341,-0.0756741014462,0.304969663321,1.0,-0.18998,-0.249688,2.762
-0.0589294430206,-0.388852054086,-0.132817625491,-2.53410246644,-0.048601086549,2.13932586319,-0.329685151585,-0.669977844863,-0.447280788206,-0.0099021270307,-0.401353601962,-0.0771039002023,-0.0657451024508,-0.620774745204,0.57376358317,0.81899451473,0.00490737935523,0.0,0.818982163673,-0.573685630721,-0.0115654481851,0.0,-0.00665687376885,0.0106550942975,-0.999921074384,0.0,0.402817565644,-0.0790982812847,0.304947360753,1.0,-0.18998,-0.249688,2.776
-0.0698997706678,-0.39602895079,-0.133029054269,-2.54039101366,-0.0497682212517,2.13822554444,-0.339737628593,-0.688180623352,-0.440184685647,-0.0165511633914,-0.380996536138,-0.0702468476892,-0.067821329827,-0.618925002618,0.573886126061,0.818908788177,0.00488445108361,0.0,0.818895224222,-0.573806768313,-0.0117111607669,0.0,-0.00678777206614,0.0107209327607,-0.999919490635,0.0,0.399714944883,-0.0831477499054,0.304913075259,1.0,-0.18998,-0.249688,2.792
-0.0814553688564,-0.403466111638,-0.133092141494,-2.54682122079,-0.0510006011972,2.13709566353,-0.350551729511,-0.681511325677,-0.439118791429,-0.00136806866436,-0.367550886103,-0.0664079600785,-0.0704720375539,-0.641073526295,0.573712124742,0.819030982372,0.00483681104409,0.0,0.819016742792,-0.573632860754,-0.0117329872598,0.0,-0.00683525792531,0.0106929921505,-0.999919466341,0.0,0.396487280619,-0.0873106156371,0.304903690225,1.0,-0.18998,-0.249688,2.809
-0.093272315088,-0.410711692324,-0.133303361258,-2.55289764633,-0.0520948782051,2.13605330766,-0.361535815926,-0.710102386483,-0.431049720299,-0.0193992174681,-0.352923672736,-0.0594263554078,-0.0579168978857,-0.637283178707,0.573796193921,0.818970961958,0.00502376489956,0.0,0.818959681535,-0.573717179701,-0.0115924388029,0.0,-0.00661177782539,0.0107661654477,-0.999920183852,0.0,0.393319149484,-0.0915835098781,0.304964919985,1.0,-0.18998,-0.249688,2.826
-0.104541147584,-0.417422179755,-0.133405745744,-2.55851682702,-0.0531379047724,2.13500132804,-0.372004249806,-0.69471643242,-0.41770621708,-0.00152424525031,-0.35490554951,-0.0668786822878,-0.0715035253285,-0.658685239568,0.573811045879,0.818960022627,0.00510997719455,0.0,0.818950276801,-0.573732460885,-0.0115001894088,0.0,-0.00648656047393,0.010783960575,-0.999920812228,0.0,0.390308231637,-0.0955786714586,0.3050053232,1.0,-0.18998,-0.249688,2.842
-0.117220146361,-0.424771977768,-0.133583213151,-2.56483577325,-0.0543829140251,2.13362437573,-0.383956568279,-0.7132910645,-0.400995003295,-0.0147428164206,-0.345737167459,-0.0676047989346,-0.0728259508672,-0.653632123455,0.573696828587,0.819040696989,0.00500324362186,0.0,0.819028250017,-0.573616440024,-0.0117325321014,0.0,-0.00673960823315,0.0108289228162,-0.999918652747,0.0,0.386823910253,-0.100026766607,0.304938019963,1.0,-0.18998,-0.249688,2.86
-0.128749443241,-0.431130028345,-0.133742009878,-2.5701778616,-0.0554183513633,2.13252514689,-0.394648033743,-0.710988276271,-0.384425323731,-0.00436886623799,-0.325848354347,-0.0587396534548,-0.0658669945475,-0.669982174181,0.573779974384,0.818982289785,0.00502960402046,0.0,0.81896996072,-0.573699123287,-0.0117586682658,0.0,-0.00674479150227,0.0108661921913,-0.999918213483,0.0,0.383588497946,-0.10428436723,0.304925187051,1.0,-0.18998,-0.249688,2.877
-0.140942364723,-0.437639301714,-0.133866381542,-2.57561495643,-0.0564730634124,2.13134641449,-0.406214102424,-0.724784433953,-0.384141002605,-0.00395354103518,-0.313906693005,-0.0700096923836,-0.0700079395114,-0.681048418015,0.573674986533,0.819055711263,0.00504961132649,0.0,0.819043493579,-0.57359384742,-0.0117728810834,0.0,-0.00674634938882,0.0108898683628,-0.999917945402,0.0,0.380574613073,-0.108233347381,0.304920028552,1.0,-0.18998,-0.249688,2.893
-0.153517075537,-0.444058991576,-0.134044479918,-2.58071047548,-0.0575608791149,2.13017425216,-0.41790296221,-0.734854267875,-0.371264214907,-0.00623140591648,-0.295586577021,-0.0554571216467,-0.0607726310974,-0.687074379596,0.573805563266,0.818963686886,0.00513829044933,0.0,0.8189539238,-0.573726257398,-0.0115498556394,0.0,-0.00651106556674,0.0108356031649,-0.999920094672,0.0,0.377393898189,-0.112565581191,0.30501572961,1.0,-0.18998,-0.249688,2.91
-0.1659181678,-0.450311857127,-0.134176252212,-2.58587482548,-0.058516792939,2.12892537064,-0.429739326676,-0.735327247828,-0.358724624902,-0.00879462443,-0.300830298301,-0.0686021344252,-0.0735896626762,-0.701486924538,0.573691731292,0.819043116856,0.00518816728849,0.0,0.819033278892,-0.573611090845,-0.0116426555484,0.0,-0.00655997289085,0.0109287872972,-0.999918760882,0.0,0.374153809716,-0.116723677955,0.304997309024,1.0,-0.18998,-0.249688,2.927
-0.177985966239,-0.455998805601,-0.134376252237,-2.59061138742,-0.0594472811777,2.1276960141,-0.441021995812,-0.756716112383,-0.346405555608,-0.00664132276645,-0.280273027377,-0.0581962099967,-0.0691497452533,-0.712474385635,0.573838199268,0.818940552168,0.00518073134994,0.0,0.818929293214,-0.573755368046,-0.0118464026504,0.0,-0.00672915666244,0.0110407835968,-0.99991640628,0.0,0.371032483548,-0.120766093308,0.304942076723,1.0,-0.18998,-0.249688,2.943
-0.190626104398,-0.461773150262,-0.134462610876,-2.59523639487,-0.0603662932882,2.12656556765,-0.453161711504,-0.75132861162,-0.331018647019,-0.0114866444833,-0.262013183924,-0.0585030429485,-0.063440861528,-0.723632949833,0.573675176898,0.819054304481,0.00525210649818,0.0,0.81904446374,-0.57359294192,-0.0117494807661,0.0,-0.00661101886193,0.0110423068059,-0.999917177515,0.0,0.367870446058,-0.124943331727,0.304972212261,1.0,-0.18998,-0.249688,2.96
-0.204416006542,-0.467644639312,-0.134667182081,-2.60003111536,-0.0614279375018,2.12532605953,-0.466118894441,-0.771509635347,-0.317744274853,-0.00754137233245,-0.263008779492,-0.0557979239419,-0.0715882493338,-0.729167808679,0.573797956529,0.818968495851,0.00522061183799,0.0,0.818957941083,-0.573715299847,-0.0118064541609,0.0,-0.00667409761651,0.0110501935439,-0.99991667135,0.0,0.364423264632,-0.129504573816,0.3049399729,1.0,-0.18998,-0.249688,2.978
-0.215772446562,-0.472473877873,-0.134760487373,-2.60376096092,-0.0621782850372,2.1242907367,-0.477010054914,-0.758743858766,-0.318027841781,-0.00638298484848,-0.244680112412,-0.051367022126,-0.0644367288696,-0.726712818636,0.573725631935,0.819018530537,0.00531909760756,0.0,0.819009876641,-0.573643699877,-0.0116822282852,0.0,-0.00651682008091,0.0110590002008,-0.999917611391,0.0,0.361624642409,-0.13319763332,0.305003002811,1.0,-0.18998,-0.249688,2.993
-0.228962166881,-0.477744814322,-0.134963537486,-2.60785480521,-0.063075482356,2.12313661046,-0.489521234248,-0.776109014359,-0.305782865084,-0.00630348713831,-0.239302923653,-0.0532964037756,-0.0667478975927,-0.739855279123,0.573823269076,0.818949616971,0.00539700202605,0.0,0.818942466562,-0.573741916424,-0.0115843299903,0.0,-0.00639061936226,0.0110674053382,-0.999918332927,0.0,0.358393355231,-0.137495528109,0.305048671584,1.0,-0.18998,-0.249688,3.01
-0.242035259461,-0.482705172001,-0.135040008411,-2.61184110977,-0.0639277439319,2.12198441065,-0.502171067424,-0.764848686127,-0.289067716903,-0.00381533446231,-0.23153301293,-0.0486398353979,-0.0738536402917,-0.73894651115,0.573629664458,0.819085470363,0.00536164106762,0.0,0.81907732008,-0.573547528383,-0.0116757576712,0.0,-0.00648841240362,0.0110893730569,-0.999917459748,0.0,0.3549820615,-0.141899659483,0.305014080085,1.0,-0.18998,-0.249688,3.028
-0.255469905024,-0.487425376856,-0.135229553274,-2.61562032747,-0.0647622461022,2.12082023851,-0.514938454863,-0.79016250725,-0.273106035241,-0.0108321374844,-0.216773982013,-0.0483452163841,-0.0678444107189,-0.759520010062,0.573763740315,0.818991482372,0.00537298827705,0.0,0.818982714966,-0.573680239146,-0.0117916369196,0.0,-0.00657499958978,0.0111662132143,-0.999916039007,0.0,0.351897143177,-0.1459508241,0.304983954726,1.0,-0.18998,-0.249688,3.044
-0.268767948561,-0.491854274305,-0.135321098875,-2.61914543845,-0.06545988976,2.11977708575,-0.527822132826,-0.787592101297,-0.261180832772,-0.0107031199417,-0.202040043942,-0.0440514117529,-0.0523751487501,-0.757287016786,0.573676754547,0.819051987365,0.00543784765739,0.0,0.819043552068,-0.573592169943,-0.0118502867589,0.0,-0.00658702090364,0.0112522847505,-0.999914995009,0.0,0.348705626324,-0.150132408596,0.304959568466,1.0,-0.189785714286,-0.249432653061,3.061
-0.282345501938,-0.496106367085,-0.135471422355,-2.62245751355,-0.0662171494938,2.11874083796,-0.540768529756,-0.800667920721,-0.242388184367,-0.00297541757608,-0.19016099939,-0.0472985731738,-0.060055869088,-0.756224324804,0.573793624319,0.818969895919,0.00547112151081,0.0,0.818961800277,-0.573708738428,-0.011857488799,0.0,-0.00657222268352,0.011284608259,-0.999914728117,0.0,0.345474809021,-0.15440962203,0.304958723803,1.0,-0.186978285714,-0.245742889796,3.078
-0.294820455288,-0.499927823263,-0.135466318147,-2.62537925833,-0.066786843338,2.11775799284,-0.552868887723,-0.775129491331,-0.235471376481,0.00185960076763,-0.17221074545,-0.0386040964582,-0.0582408040042,-0.753173510813,0.573689557179,0.819042380239,0.00553337671645,0.0,0.819034963737,-0.573604239618,-0.011859653017,0.0,-0.00653971600169,0.0113360063392,-0.99991435987,0.0,0.342516116275,-0.15824651998,0.304977368718,1.0,-0.184336,-0.242270171429,3.094
-0.309876154886,-0.504041939584,-0.135529550929,-2.62851701295,-0.0675009749384,2.11673811234,-0.567200395163,-0.779434497288,-0.207263041229,0.00196457911509,-0.157074067989,-0.0382228117531,-0.0570238656335,-0.751042395081,0.573845859297,0.818932607917,0.00557318213742,0.0,0.818926045126,-0.573760954805,-0.0118002651181,0.0,-0.00646607207475,0.011335775532,-0.999914841427,0.0,0.339015903047,-0.162909643157,0.304997481799,1.0,-0.181198285714,-0.238146318367,3.113
-0.322213996722,-0.507231230827,-0.135475212194,-2.63092033418,-0.0679525468642,2.11598311989,-0.579207970013,-0.766323048049,-0.196221728309,0.00221217753501,-0.142256845894,-0.0315537218464,-0.0454867896406,-0.755143364211,0.573748592239,0.819000146005,0.00566221239605,0.0,0.818995287519,-0.573664368361,-0.0116900981985,0.0,-0.00632610443081,0.0113447210749,-0.999915635295,0.0,0.336184760207,-0.166667397759,0.305028522209,1.0,-0.178556,-0.2346736,3.129
-0.334670841824,-0.510232008492,-0.135499960745,-2.63318980591,-0.0684688186428,2.11519723633,-0.591101594881,-0.773497707637,-0.179350419823,0.00101898411943,-0.137449815714,-0.0295833857373,-0.0474524252026,-0.740727404219,0.573877941968,0.818909296841,0.00569369572997,0.0,0.818905003965,-0.573793869981,-0.0116591661381,0.0,-0.00628091276351,0.0113537527876,-0.999915817673,0.0,0.333306629026,-0.170469417985,0.305042721814,1.0,-0.175913714286,-0.231200881633,3.145
-0.347474964062,-0.513107384618,-0.135400164244,-2.63542078102,-0.0688630230123,2.11437628677,-0.603641741395,-0.748906035095,-0.161419488141,0.00908787068305,-0.126278011471,-0.0231185025125,-0.052071979332,-0.734699374506,0.573727983423,0.819014030979,0.00574151523579,0.0,0.819009720209,-0.573642620972,-0.011745999679,0.0,-0.00632668250499,0.0114415857819,-0.999914527949,0.0,0.330352554134,-0.174294026294,0.305025571881,1.0,-0.173106285714,-0.227511118367,3.162
-0.360486120928,-0.515682194768,-0.135405738471,-2.63746838284,-0.0693090666102,2.11363885656,-0.616074744776,-0.760559251478,-0.150857052752,0.00202722170005,-0.11174415821,-0.0247657739094,-0.0427650180742,-0.727219775056,0.573898666021,0.818894305804,0.00576055228807,0.0,0.81888946436,-0.573811797902,-0.0118664506529,0.0,-0.00641201945567,0.01152761772,-0.999912996233,0.0,0.327361414223,-0.178212690411,0.304982771064,1.0,-0.170298857143,-0.223821355102,3.179
-0.37232086236,-0.517860224757,-0.135287696596,-2.63916922298,-0.0696234206752,2.11306518081,-0.627608837123,-0.739559077438,-0.132118812748,0.00319258449109,-0.105054230923,-0.0216040791995,-0.0329256414869,-0.728915009397,0.573829857273,0.81894226803,0.00579684716821,0.0,0.8189377695,-0.573742632985,-0.0118771917394,0.0,-0.00640095922187,0.0115629669536,-0.999912658944,0.0,0.324686176908,-0.181728900529,0.304966667904,1.0,-0.167656571429,-0.220348636735,3.195
-0.38495179871,-0.51998904049,-0.135236854435,-2.64077514079,-0.0699877591568,2.11242123595,-0.639761157605,-0.738596246674,-0.12001994394,0.00265991512503,-0.0905094789558,-0.0231787353767,-0.0440819892257,-0.718959837347,0.57393800202,0.818866315447,0.00582015159359,0.0,0.818861892648,-0.573850255875,-0.0119093031781,0.0,-0.0064123551895,0.0116013253824,-0.999912141616,0.0,0.321825389972,-0.185498330123,0.304966406138,1.0,-0.164849142857,-0.216658873469,3.212
-0.397170264328,-0.521878967202,-0.135084069403,-2.64217799937,-0.0702521634885,2.11186398283,-0.651785121686,-0.716777114073,-0.111847916281,0.00185492123693,-0.0810173167625,-0.00906406587507,-0.0302554827423,-0.701255551314,0.573795369052,0.818965998301,0.00585789920727,0.0,0.818962122122,-0.573707606678,-0.011889973539,0.0,-0.00637688548958,0.0116200330424,-0.999912151223,0.0,0.319089493924,-0.18909987654,0.304979457737,1.0,-0.162041714286,-0.212969110204,3.229
-0.408776380471,-0.523522178294,-0.135019692774,-2.64338121598,-0.0705170935061,2.11135924602,-0.662940761512,-0.735902328193,-0.106061730605,0.00126823844179,-0.0709591056575,-0.0114400121047,-0.0328147224237,-0.687787296301,0.573936175011,0.818867013532,0.00590153066403,0.0,0.818863746844,-0.573848293339,-0.0118763310276,0.0,-0.00633867445979,0.0116490297947,-0.999912056788,0.0,0.316476950802,-0.192534174194,0.304993942931,1.0,-0.159399428571,-0.209496391837,3.245
-0.421465964794,-0.525084751625,-0.134870648351,-2.64451146217,-0.0707392895032,2.11089778152,-0.675417700958,-0.697113226281,-0.0792065698172,0.00927391948489,-0.0608844223864,-0.00758470261592,-0.0226756722848,-0.677951814741,0.573844683351,0.818930779949,0.00595012132907,0.0,0.818928456346,-0.573757211019,-0.011814952043,0.0,-0.00626182343211,0.0116528954433,-0.999912495969,0.0,0.313658282879,-0.196264680243,0.305017155586,1.0,-0.156426857143,-0.205589583674,3.263
-0.433375129113,-0.526355958948,-0.134773116353,-2.64546126724,-0.0709521607976,2.11052455317,-0.686987891321,-0.706825991569,-0.0758137175324,0.00395143679405,-0.0549344664959,-0.00658606676258,-0.0280995480802,-0.677993161139,0.573907812953,0.818886261518,0.00598830775659,0.0,0.818884581717,-0.573820460761,-0.011784207188,0.0,-0.00621383148859,0.0116670060931,-0.999912630817,0.0,0.311002552218,-0.199767221517,0.305021279587,1.0,-0.153619428571,-0.201899820408,3.28
-0.44431866163,-0.52732965824,-0.134637827211,-2.64623933708,-0.0711150244921,2.11018770756,-0.697729343747,-0.665563426655,-0.0605946088031,0.0180014290237,-0.0477109087177,-0.00215609502855,-0.0123540380043,-0.670382699919,0.57386378651,0.818917010983,0.00600254576389,0.0,0.818915108537,-0.573775624968,-0.0118458475174,0.0,-0.00625677205666,0.0117137038516,-0.999911817085,0.0,0.308559940784,-0.202957301638,0.304998308052,1.0,-0.150977142857,-0.198427102041,3.296
-0.455748898906,-0.528194613871,-0.13449430942,-2.64691888025,-0.0712659364356,2.10990525455,-0.708940731515,-0.67253751153,-0.0485055782857,0.00632450863577,-0.0391901093214,-0.013547026811,-0.0127953912539,-0.652965607348,0.573838424617,0.818934645288,0.00602130220038,0.0,0.81893286633,-0.57374997015,-0.0118608219741,0.0,-0.00625863657659,0.0117374636488,-0.999911526794,0.0,0.306020505834,-0.206288852676,0.304984981406,1.0,-0.148169714286,-0.194737338776,3.313
-0.467188606212,-0.528883704572,-0.13438431094,-2.64744312568,-0.0714189894743,2.10964155033,-0.720005225956,-0.660606388122,-0.035318724359,0.0105204967028,-0.025083861079,-0.00370650343798,-0.0114135218076,-0.642618413212,0.573972705088,0.81884044078,0.00603433986009,0.0,0.818838706461,-0.573883937766,-0.0118804745833,0.0,-0.00626532295062,0.0117604456047,-0.999911214882,0.0,0.303477941831,-0.209633613199,0.304978545133,1.0,-0.145362285714,-0.19104757551,3.33
-0.47749787315,-0.529356340698,-0.134224121332,-2.64780712994,-0.0714533619165,2.10943991611,-0.730278101615,-0.64823925208,-0.0235012702648,0.0122356467463,-0.0183453848906,-0.00864235686118,-0.00523960726216,-0.640145164061,0.573853936674,0.818923251163,0.00609220565059,0.0,0.818922055445,-0.573764561138,-0.0119013607777,0.0,-0.00625092970967,0.0118189118583,-0.999910615605,0.0,0.301205237386,-0.212619872921,0.304972481524,1.0,-0.14272,-0.187574857143,3.346
-0.488539174732,-0.529736841369,-0.134125036973,-2.64809181773,-0.0715211123845,2.10924254073,-0.740965852811,-0.649279442879,-0.0192692322056,0.00513439234769,-0.0154366693953,-0.00414473258645,-0.007607038928,-0.617887619902,0.574028316755,0.818800613883,0.00614761493875,0.0,0.818799913757,-0.573938253072,-0.0119302050736,0.0,-0.0062402280032,0.0118821708872,-0.999909932729,0.0,0.298751313445,-0.215835889479,0.304967556988,1.0,-0.139912571429,-0.183885093878,3.363
-0.499724050978,-0.529938148624,-0.133891157466,-2.64824736808,-0.0715565733731,2.10909509916,-0.752151080158,-0.60551892254,-0.0083870688903,0.0147589282616,-0.0107569448198,-0.000405547982962,-0.0062854493433,-0.616232561385,0.573839101945,0.818933205509,0.00615117011313,0.0,0.818932409957,-0.573748793887,-0.0119489052043,0.0,-0.00625624926011,0.0118943706,-0.999909687568,0.0,0.296296787242,-0.219061913955,0.304963628618,1.0,-0.13694,-0.179978285714,3.381
-0.509641542023,-0.530069638501,-0.133760935726,-2.64837397452,-0.0715762760508,2.10899040271,-0.761866208004,-0.618859996031,-0.00630057820007,0.00979147756787,-0.00412544493733,-0.00100790765136,-0.0039357123265,-0.599216671562,0.57389754755,0.818891900629,0.00619733023145,0.0,0.818891457399,-0.573806560851,-0.0119815952162,0.0,-0.00625568297386,0.0119513789966,-0.999909011346,0.0,0.294084250293,-0.221921368566,0.304948398282,1.0,-0.134297714286,-0.176505567347,3.397
-0.520035222578,-0.530068236949,-0.133599164279,-2.64838630944,-0.0715899313174,2.10892571657,-0.772029699565,-0.596080329805,0.00781070779549,0.016677002805,0.000806891836043,-0.00223434477867,-0.0051388526687,-0.582000745882,0.573965580724,0.818844007371,0.00622500110271,0.0,0.818843858372,-0.573874335978,-0.011988703598,0.0,-0.00624462995157,0.01197863777,-0.999908754254,0.0,0.291776552229,-0.224918183096,0.304940844041,1.0,-0.131490285714,-0.172815804082,3.414
-0.529977220868,-0.529947051949,-0.133437732808,-2.64831895095,-0.071596552675,2.10892434512,-0.781960351568,-0.594560683266,0.012461111776,0.00709728722959,0.00539323865578,-0.00152629747166,-0.00173028784052,-0.57139896685,0.573862285765,0.818916252428,0.00624462867064,0.0,0.818916414938,-0.573771087458,-0.011974616673,0.0,-0.00622334064557,0.0119858405833,-0.99990880067,0.0,0.289570089047,-0.22778387284,0.30493120982,1.0,-0.128682857143,-0.169126040816,3.431
-0.539402827841,-0.529771445901,-0.133305053209,-2.64817154554,-0.0715928461095,2.10891213261,-0.791141104013,-0.589465094374,0.0140112439134,0.00384000374114,0.00923575133415,-0.000364715070148,-0.00205877377474,-0.55991282985,0.573979151943,0.818834138505,0.00627165489234,0.0,0.818834776096,-0.573888052601,-0.0119523821236,0.0,-0.00618790984292,0.0119960982466,-0.999908897549,0.0,0.287466902241,-0.23050164722,0.304936447461,1.0,-0.126040571429,-0.165653322449,3.447
-0.548981590435,-0.529425147987,-0.133076476791,-2.64790112795,-0.0715904991894,2.1089359685,-0.800695831284,-0.548083893619,0.020008151965,0.0175598229572,0.0148077295305,-0.0010154660643,-0.00113780419155,-0.557162317889,0.573854039257,0.818922095765,0.00623615243785,0.0,0.818922389115,-0.573763343184,-0.0119370651959,0.0,-0.00619757009862,0.0119572881477,-0.99990930258,0.0,0.285353895871,-0.233252274617,0.304940780344,1.0,-0.123233142857,-0.161963559184,3.464
-0.558389594663,-0.528975846989,-0.132906265478,-2.64760530522,-0.0715905211221,2.10895717717,-0.810055709142,-0.560405224006,0.0289920036956,0.0147415331647,0.0185928272295,-0.000727175443239,-0.00168312867935,-0.543037234615,0.573790550927,0.81896670998,0.00621920509718,0.0,0.81896636057,-0.573699129022,-0.0120065196795,0.0,-0.00626510799553,0.0119827780113,-0.999908576547,0.0,0.283246671891,-0.235953142269,0.304917295864,1.0,-0.120425714286,-0.158273795918,3.481
-0.56776592789,-0.528444465219,-0.132766943146,-2.64720228484,-0.0715848543125,2.10904133491,-0.819191298722,-0.541893654009,0.0343241804718,0.0128893588274,0.025721117686,0.000758601650744,0.00744183351036,-0.541694155821,0.573914711734,0.818879785835,0.00620861556832,0.0,0.818879416428,-0.573823533894,-0.0119916721489,0.0,-0.00625720866577,0.0119665349509,-0.999908820534,0.0,0.281150900229,-0.238665037113,0.304917088923,1.0,-0.117618285714,-0.154584032653,3.498
-0.576632099759,-0.527710617635,-0.132543330643,-2.64668602209,-0.0715058258004,2.10917379305,-0.82815412602,-0.518103212106,0.0452350236413,0.00823238819215,0.0332862335984,0.00782040599587,0.00865060377348,-0.51550641176,0.573740868083,0.81900167561,0.00619826913173,0.0,0.819001006408,-0.57364945644,-0.0120166355578,0.0,-0.00628613196624,0.0119710540531,-0.999908585027,0.0,0.279206285319,-0.241219218948,0.304900558767,1.0,-0.114810857143,-0.150894269388,3.515
-0.585479383959,-0.52697176523,-0.132370535119,-2.64613040476,-0.0714796450512,2.10926908655,-0.836908428141,-0.519840163042,0.0445029903595,0.0139687564964,0.0341648979822,-0.00234048427016,0.00591690539407,-0.505092101033,0.573737569522,0.819004233965,0.00616546570984,0.0,0.81900296216,-0.573645967185,-0.0120498633296,0.0,-0.00633221646016,0.0119632243084,-0.999908387953,0.0,0.277231701897,-0.243774231981,0.304895420209,1.0,-0.112003428571,-0.147204506123,3.532
-0.593657062802,-0.526177657012,-0.132229830335,-2.64551033672,-0.0713694225279,2.10939968525,-0.844914151483,-0.50442573556,0.0510870692435,0.00877563946539,0.0427150460141,0.00897638819171,0.0132340178622,-0.499557150695,0.57386070364,0.818917676185,0.00620317264421,0.0,0.818916923065,-0.573768963952,-0.0120414295337,0.0,-0.00630187288098,0.0119902171289,-0.999908256337,0.0,0.275419279821,-0.246146723515,0.304901450177,1.0,-0.109361142857,-0.143731787755,3.548
-0.602320253709,-0.525140349445,-0.131974752478,-2.64477281643,-0.0712172055704,2.1095655907,-0.85371319811,-0.474116095332,0.0610145790565,0.0155591105328,0.0424998497161,0.00449211019366,0.00262713809051,-0.486478259834,0.573675693172,0.819047223032,0.00621227883101,0.0,0.819046081289,-0.573582990479,-0.012116792497,0.0,-0.00636109024782,0.0120394837645,-0.999907289383,0.0,0.273521453248,-0.248638379855,0.304877496863,1.0,-0.106388571429,-0.139824979592,3.566
-0.610505601692,-0.524209500333,-0.13180406373,-2.64406087266,-0.0711131503983,2.10971746714,-0.861774223448,-0.484939771409,0.0539531964801,0.017011068565,0.0405389474499,0.0103002296218,0.00742529813484,-0.46376162614,0.573740913368,0.819001479962,0.00621989140098,0.0,0.819000331566,-0.573647961946,-0.0121334064187,0.0,-0.00636937241837,0.0120557569113,-0.999907040589,0.0,0.271693574128,-0.251003028311,0.304877261776,1.0,-0.103581142857,-0.136135216327,3.583
-0.617592160726,-0.523327854177,-0.131659166558,-2.64333264298,-0.0709815523306,2.10988066671,-0.868736730941,-0.472551716279,0.0587235478458,0.00921604251256,0.0501290493851,0.00805741111393,0.00763796321559,-0.46084928666,0.573836256775,0.818934465492,0.00624808298794,0.0,0.818934013008,-0.573743783215,-0.0120789263387,0.0,-0.00630717174612,0.0120483255186,-0.999907524443,0.0,0.270127395075,-0.25306697146,0.304902543628,1.0,-0.101104,-0.132879542857,3.598
