nelsonifechukwu/NELSON_IML_WORK/CNN-GradCAM/train2dof/data_sample_2022-02-21-16-37-57/robot_state.csv
position_joint1,position_joint2,position_joint3,position_joint4,position_joint5,position_joint6,position_joint7,velocity_joint1,velocity_joint2,velocity_joint3,velocity_joint4,velocity_joint5,velocity_joint6,velocity_joint7,ee_T_00,ee_T_10,ee_T_20,ee_T_30,ee_T_01,ee_T_11,ee_T_21,ee_T_31,ee_T_02,ee_T_12,ee_T_22,ee_T_32,ee_T_03,ee_T_13,ee_T_23,ee_T_33,v_x,v_y,time
0.46506945857,0.547821157083,-0.123893036997,-1.35586286835,0.0795251397308,1.89409731511,0.159178314824,-7.88386030175e-05,-0.00145877081628,-0.000470793050627,-0.00136445060437,-8.98734979052e-05,7.70704605869e-05,0.000962616055418,0.573766497764,0.819004926804,0.00191906636796,0.0,0.818960610757,-0.573707315819,-0.0120075270584,0.0,-0.00873340954993,0.00846131941852,-0.999926064082,0.0,0.661646274844,0.260942704903,0.30316845487,1.0,0.0,0.0,0.0
0.46506766817,0.547831072661,-0.123890783136,-1.35586191468,0.0795206806023,1.89409948965,0.159171296268,0.00349224862311,0.00100104681914,0.001716545608,-0.00091984828255,-0.00046743864637,0.000384525506841,-0.00185854610125,0.573759439937,0.819009889933,0.0019110669343,0.0,0.818965501469,-0.573700324146,-0.0120080131191,0.0,-0.00873847002598,0.00845497155659,-0.999926073566,0.0,0.661646863002,0.260942230773,0.30316199051,1.0,-4e-05,-5.25714285714e-05,0.003
0.465069222357,0.547828490092,-0.123890256922,-1.35585761532,0.0795254892702,1.8940977961,0.159174788369,-0.000374971458868,0.000488593541905,0.000781318894685,0.0012474912263,5.79085579017e-05,5.59906858369e-05,-0.00199959775785,0.573761683041,0.819008301725,0.00191824948335,0.0,0.818963962929,-0.573702493487,-0.0120093001921,0.0,-0.00873538022663,0.00846161640146,-0.999926044355,0.0,0.661646783934,0.260944773524,0.303165710656,1.0,-0.00038,-0.000499428571429,0.02
0.4650629767,0.547814796605,-0.123900864736,-1.35586918287,0.0795211703357,1.89409638699,0.1591764072,-0.00111498684635,0.00043855134448,-0.00230262206619,0.000647057789993,-0.000311325121477,-0.00429872594996,0.000550234066066,0.573774988121,0.818998989116,0.00191461076792,0.0,0.818954684535,-0.573715891637,-0.0120019691201,0.0,-0.00873132605798,0.00845457192346,-0.999926139352,0.0,0.661648522792,0.260932513702,0.303170126353,1.0,-0.0007,-0.00092,0.036
0.465063029751,0.547768390581,-0.123893347847,-1.35591432357,0.079522532231,1.89410448986,0.15917291097,-0.000292839454501,-0.00428765759825,0.000580703462171,-0.00506985603237,5.95059163974e-05,0.00520083802839,-0.00130096659654,0.5737696283,0.81900271383,0.0019275062386,0.0,0.818958490353,-0.573710392775,-0.0120051323511,0.0,-0.00872657362779,0.00846689093997,-0.999926076603,0.0,0.661639202629,0.260932923979,0.303181974127,1.0,-0.00104,-0.00136685714286,0.053
0.465062676408,0.547654259937,-0.123897987328,-1.35605372353,0.0795189332525,1.89412984828,0.159173150016,-0.0010112470165,-0.00688738263214,-0.00113377954158,-0.0122931861086,2.42394672073e-05,0.00140882546625,0.000773681700673,0.57377998209,0.818995452888,0.00193059640201,0.0,0.818951215511,-0.573720679421,-0.0120098092366,0.0,-0.00872852412655,0.00847221551519,-0.999926014478,0.0,0.661616679113,0.26091609746,0.303198826572,1.0,-0.00136,-0.00178742857143,0.069
0.465055626216,0.547524679194,-0.123890563824,-1.35623872117,0.0795184141134,1.89416939651,0.159168332316,0.000547140251548,-0.0110950574079,0.00112765995313,-0.0164626764894,-0.000368569276019,0.00614014575788,0.00105185927306,0.573786623591,0.818990810743,0.00192598199267,0.0,0.818946336991,-0.573727169081,-0.0120324348634,0.0,-0.0087496338452,0.0084814893668,-0.999925751366,0.0,0.661585735208,0.260898070983,0.303205757922,1.0,-0.00168,-0.002208,0.085
0.465034320312,0.547359549266,-0.123893622645,-1.35644841168,0.0795169408143,1.89428445306,0.159156428996,-0.000322692016696,-0.00852210493667,-0.000516615969076,-0.0142620348378,0.000485091693208,0.0103733123226,0.000877465631688,0.573813518617,0.818971814113,0.00199008589022,0.0,0.818928168238,-0.573753777852,-0.0120001903303,0.0,-0.00868616558233,0.00851577278522,-0.999926013334,0.0,0.661569235592,0.260865450002,0.303233936134,1.0,-0.00204,-0.00268114285714,0.103
0.465011221061,0.547149994807,-0.123893615324,-1.3566928785,0.0795111555481,1.89442178427,0.159141410559,-0.00313430393191,-0.0108787478305,-0.000883678760985,-0.016291957697,8.38252747467e-05,0.00895920778403,-0.000572854023884,0.573827023979,0.818962123179,0.00208188651701,0.0,0.818919646505,-0.573766868875,-0.01195573717,0.0,-0.00859694390654,0.00856558776444,-0.999926358919,0.0,0.661554535311,0.260833939982,0.30327700603,1.0,-0.00238,-0.003128,0.12
0.464979944085,0.546945467767,-0.123888085812,-1.35697609787,0.07950788952,1.89453971237,0.159125236839,-0.00134090310356,-0.0105100853767,0.00128375849423,-0.0203662791868,-6.58126385041e-05,0.0116823790063,0.0014570638634,0.573850563621,0.818945520816,0.0021240214902,0.0,0.818903463222,-0.573790101465,-0.011949237857,0.0,-0.00856719725892,0.00859661094479,-0.999926347993,0.0,0.661525565516,0.260793004046,0.303297119577,1.0,-0.0027,-0.00354857142857,0.136
0.464949634754,0.546695906145,-0.12389580466,-1.35735343148,0.0794990289181,1.89467948266,0.159034542836,-0.00249209974257,-0.0133053465701,-0.00106812292736,-0.0185529503633,-0.00063846106085,0.00787780869026,-0.0139378626426,0.573825262097,0.818963206485,0.00214053852375,0.0,0.818921273079,-0.573764643668,-0.0119511119761,0.0,-0.00855952045895,0.00861094828241,-0.999926290373,0.0,0.661483631373,0.260735031801,0.303306646927,1.0,-0.00304,-0.00399542857143,0.153
0.464908647182,0.546405625175,-0.123896543841,-1.35778007656,0.0794871943942,1.89483387073,0.158948618528,-0.000706976799984,-0.0150317295636,-0.000344700385804,-0.0250760097121,-0.000658642765639,0.00581217412801,-9.05319077395e-05,0.573809651208,0.818974082292,0.00216416628704,0.0,0.818932328279,-0.573748808126,-0.0119538183852,0.0,-0.00854834419625,0.00863168828119,-0.999926207162,0.0,0.661435692647,0.260669230334,0.303322557881,1.0,-0.00338,-0.00444228571429,0.17
0.464867528419,0.546135417975,-0.123893385335,-1.35824050263,0.0794754607538,1.89499763227,0.158934896029,-0.00110184526079,-0.0141702522012,0.00170201667339,-0.0313938190455,0.000214678489126,0.0147749982538,-0.000768094092255,0.573852514265,0.818944085994,0.00215006711397,0.0,0.818901975226,-0.573791549559,-0.0119816329436,0.0,-0.0085787622665,0.00863655067655,-0.99992590467,0.0,0.661380432575,0.260601971749,0.303308845113,1.0,-0.0037,-0.00486285714286,0.186
0.464808976953,0.54578612043,-0.123894075927,-1.35883316041,0.0794454899558,1.89519419106,0.158861247179,-0.00438115672396,-0.0123817322337,0.0004226821023,-0.0306321278903,-0.00502203740947,0.0150903869336,-0.0147906558894,0.57386570026,0.818934942603,0.00211299543053,0.0,0.818892257154,-0.57380479717,-0.0120113620924,0.0,-0.00862424325469,0.00862339034268,-0.999925627018,0.0,0.661309835761,0.260505570336,0.303291117475,1.0,-0.00406,-0.005336,0.204
0.464751804985,0.54544039977,-0.123894439072,-1.35942835569,0.0793518151522,1.89539627988,0.158748841713,-0.00291616933378,-0.0176025181541,0.000544440957966,-0.0332285900338,-0.00625346191729,0.00797166799875,-0.00745461709125,0.573829004155,0.818960839726,0.00204056057843,0.0,0.81891769572,-0.573768893922,-0.0119921184742,0.0,-0.00865043177729,0.00855264123348,-0.999926008442,0.0,0.661242733176,0.260399986553,0.303269974806,1.0,-0.00438,-0.00575657142857,0.22
0.464696045576,0.545056986208,-0.123903044114,-1.36008384216,0.0793277715964,1.89559683106,0.158715831148,-0.00378622563567,-0.0243119213117,-0.000101797421687,-0.0381640599413,-0.000632245155189,0.0192115854345,-0.00247847383124,0.573882751451,0.818923302767,0.00198964149298,0.0,0.81887931591,-0.573822675466,-0.0120395181291,0.0,-0.00871790839201,0.0085387124514,-0.999925541459,0.0,0.661156940984,0.260289244155,0.30324832378,1.0,-0.00472,-0.00620342857143,0.237
0.464619322697,0.544581503536,-0.123902910472,-1.36088369463,0.0793038964373,1.89588266413,0.158572988014,-0.00356827897321,-0.0215765278591,-0.00100532897438,-0.0385352503363,-0.005284287779,0.0110041510276,-0.00212269850274,0.57386764141,0.818933948321,0.00196604482374,0.0,0.818889412379,-0.573807434006,-0.0120791503732,0.0,-0.00876406390745,0.00854197128477,-0.999925110151,0.0,0.661066894058,0.260171263005,0.30322768254,1.0,-0.00508,-0.00667657142857,0.255
0.464556220659,0.544129702295,-0.123905774229,-1.36162624158,0.0792747895915,1.89614912923,0.158515554807,-0.00863734927149,-0.030476755927,0.000122809026141,-0.0472072017559,-7.7031207999e-05,0.0187253109147,-0.00799561910718,0.573907914685,0.818905758476,0.00195220327552,0.0,0.818860893014,-0.573847618074,-0.0121035541819,0.0,-0.00879157228296,0.00854507297749,-0.999924842168,0.0,0.660979803943,0.260059056069,0.303217178014,1.0,-0.0054,-0.00709714285714,0.271
0.464482359265,0.543653534626,-0.12390059938,-1.36241300384,0.079238599368,1.89642021192,0.158384924956,-0.00720027630164,-0.0261461752933,0.000237265484181,-0.0492272108096,-0.00088824869144,0.00954103831781,-0.00814781598154,0.573891893255,0.818917048202,0.00192611580546,0.0,0.818871666317,-0.573831543998,-0.0121367259787,0.0,-0.00883387588625,0.00854257478001,-0.999924490676,0.0,0.660885345507,0.259938636866,0.303202948462,1.0,-0.00572,-0.00751771428571,0.287
0.464404910211,0.543099849522,-0.123909329216,-1.36327326516,0.0791844633741,1.8967264455,0.158315717082,-0.00619044974886,-0.0368631325863,-0.000371214924133,-0.0492975300699,-0.00738047703162,0.0186877261866,-0.00336941240443,0.573938106775,0.818884669411,0.00192215927075,0.0,0.818839281452,-0.573877813413,-0.0121339739553,0.0,-0.00883341076221,0.00853825394349,-0.999924531689,0.0,0.660788031304,0.259799580454,0.303211993389,1.0,-0.00606,-0.00796457142857,0.304
0.464337403763,0.54251632382,-0.123908925724,-1.36417631163,0.0791341096953,1.8970550839,0.158170133041,-0.00201687073467,-0.0354297434464,0.000525518844936,-0.0514433843461,-0.00312548513754,0.0215775921265,-0.0110198524395,0.573910618854,0.818903909682,0.00193266025347,0.0,0.818858600449,-0.573850225616,-0.0121349879095,0.0,-0.00882850149654,0.00854713845012,-0.999924499143,0.0,0.660681091778,0.259669838984,0.303223362936,1.0,-0.0064,-0.00841142857143,0.321
0.464247680671,0.541959430801,-0.123907248631,-1.36505496198,0.0790872865236,1.89738569904,0.158055274335,-0.00803868951782,-0.0373947876694,-2.3940561718e-05,-0.0557880738323,-0.001408826914,0.0271163475122,-0.00357509301095,0.573925221024,0.818893650704,0.00194329872073,0.0,0.818848414995,-0.573864715118,-0.0121370879694,0.0,-0.00882396359807,0.00855721272562,-0.999924453035,0.0,0.660584608348,0.259529414384,0.303227574073,1.0,-0.00672,-0.008832,0.337
0.464165642792,0.541317600553,-0.123912828634,-1.36605227947,0.0790246157326,1.89775358413,0.15791874219,-0.00241847351108,-0.0328012553068,-0.000158965157785,-0.0633928912094,-0.00197046171511,0.0240077427127,-0.0115752621168,0.573923097001,0.818895121142,0.00195094844408,0.0,0.818850026542,-0.573862597317,-0.0121284926443,0.0,-0.00881255678089,0.00855852102364,-0.999924542434,0.0,0.660470820168,0.259376866257,0.30323873064,1.0,-0.00706,-0.00927885714286,0.354
0.464080426289,0.540614731185,-0.123912799928,-1.36711686883,0.0789607928624,1.89814172277,0.157796668078,-0.00222407810436,-0.043579510307,-0.000106704019485,-0.0634666255154,-0.00645586097134,0.0217529319749,-0.00239326355526,0.573933323325,0.818887897227,0.00197460189486,0.0,0.818843068857,-0.573872676022,-0.0121213531295,0.0,-0.0087930285953,0.00857390263433,-0.999924582577,0.0,0.660338760668,0.259209495274,0.303262356071,1.0,-0.00742,-0.009752,0.372
0.463966743666,0.539834957964,-0.123911122855,-1.36829267917,0.0788928354259,1.89859304517,0.157644693467,-0.00977161446992,-0.0421519872431,0.00163511555829,-0.0652814059165,-0.00362851372744,0.0257265029628,-0.0129152387946,0.573949216321,0.818876640709,0.00202269313387,0.0,0.818832451833,-0.573888367155,-0.0120956508785,0.0,-0.0087442142519,0.00859870167235,-0.999924797696,0.0,0.660218275889,0.259035703132,0.303292970352,1.0,-0.00776,-0.0101988571429,0.389
0.463882547646,0.539128462279,-0.123924366361,-1.36939440701,0.0788306561151,1.89900479951,0.157508546463,-0.00641688058746,-0.0464644169432,-0.00138077362533,-0.0715146019253,0.000178476886256,0.024459299264,-0.00777668802575,0.573960276006,0.818868857693,0.00203528100294,0.0,0.818824857355,-0.573899394476,-0.0120865585855,0.0,-0.0087294279557,0.0086039088305,-0.999924882099,0.0,0.660092504087,0.258868821514,0.303303876444,1.0,-0.00808,-0.0106194285714,0.405
0.463777555893,0.538360217045,-0.123922519362,-1.37058000774,0.0787633688661,1.8994708964,0.157360667456,-0.0019490065561,-0.0506887643516,-0.000274370222677,-0.0662651803778,-0.00040373900445,0.0254703558526,-0.0118782520806,0.573971488135,0.818860890998,0.00207819710625,0.0,0.818817435984,-0.573910405114,-0.012066496287,0.0,-0.00868825023338,0.00862765496552,-0.999925036129,0.0,0.659961783277,0.258690690674,0.303322580189,1.0,-0.00842,-0.0110662857143,0.422
0.463665362953,0.537570697682,-0.12392637659,-1.37184208089,0.0786909269367,1.89995021686,0.157209239826,-0.00922882503916,-0.0469064528121,-0.000561782418768,-0.0726263236468,-0.004248866128,0.0240518722911,-0.0127054651955,0.573992376682,0.81884623565,0.00208345252289,0.0,0.818802838095,-0.573931257383,-0.0120652819345,0.0,-0.00868401936227,0.00863148287451,-0.999925039846,0.0,0.65981973456,0.258495775305,0.303321113838,1.0,-0.00876,-0.0115131428571,0.439
0.463568528931,0.536780859173,-0.123932038794,-1.37305682788,0.0786166723341,1.90039854655,0.157062636725,-0.0060407954888,-0.048953373942,-0.00116410375458,-0.0790851195453,-0.00600920133296,0.0301082012076,-0.00658864374947,0.574002548993,0.818839059254,0.0021013545904,0.0,0.81879592166,-0.573941378018,-0.0120532225576,0.0,-0.00866376187495,0.00863932737402,-0.999925147825,0.0,0.659678758164,0.258313194079,0.303339610477,1.0,-0.00908,-0.0119337142857,0.455
0.463451595102,0.535921110918,-0.123934899759,-1.37440672777,0.0785524894885,1.90091022473,0.156890070092,-0.0114958389204,-0.0572014403201,0.00021333670464,-0.0821179629969,-0.00697839392528,0.0285789997076,-0.00782263854317,0.574016132768,0.818829469577,0.00212743389627,0.0,0.818786533967,-0.573954710672,-0.012056068736,0.0,-0.00865098022003,0.00866245895756,-0.999925058365,0.0,0.659524615502,0.258109782381,0.303348419163,1.0,-0.00942,-0.0123805714286,0.472
0.463337321577,0.535021766253,-0.123940467952,-1.37582308475,0.0784604106051,1.9014195558,0.156719973884,-0.00550216061174,-0.053146099661,0.000690803239835,-0.0850749170092,-0.00413928273018,0.0359810900374,-0.0138141972483,0.574020210671,0.818826631494,0.00211948080641,0.0,0.818783573837,-0.5739588037,-0.0120622457107,0.0,-0.00866056009809,0.0086595356163,-0.999925000758,0.0,0.659343908455,0.257885584695,0.303355235423,1.0,-0.00978,-0.0128537142857,0.49
0.463218019745,0.534133357306,-0.123942997352,-1.37729687383,0.0783821627929,1.90194279542,0.156537762595,-0.0117940681438,-0.0528232631229,-0.000962130437579,-0.0888657191429,-0.00476659798093,0.0284708692228,-0.0110654332579,0.574037261334,0.818814812409,0.0020669981242,0.0,0.818770986992,-0.573975995941,-0.0120985058994,0.0,-0.00872019642228,0.00863755758672,-0.99992467255,0.0,0.659177493294,0.257673989944,0.303323920138,1.0,-0.0101,-0.0132742857143,0.506
0.463089850526,0.533220280182,-0.123936103372,-1.37877933929,0.0783121928522,1.90250178334,0.156348816021,-0.00869399639913,-0.0529779360669,0.000826859445953,-0.0869988256886,-0.00210092985373,0.0295869812423,-0.0155203974551,0.574045126737,0.818809293947,0.002068699352,0.0,0.818765268017,-0.573983632346,-0.0121232252128,0.0,-0.00873937816868,0.00865322413451,-0.999924369631,0.0,0.659003302567,0.257456125921,0.303310532129,1.0,-0.01044,-0.0137211428571,0.523
0.46296021965,0.532318598788,-0.123944243479,-1.38024872317,0.0782182126143,1.9030615977,0.156162142565,-0.00476737022847,-0.050348812068,-0.00121059851209,-0.0916313679687,-0.008341508315,0.0340277173242,-0.0171974081622,0.574059303443,0.81879938961,0.00205489799188,0.0,0.81875526964,-0.573997952916,-0.012120453247,0.0,-0.00874488084567,0.00864048386388,-0.999924431694,0.0,0.658836779185,0.257226175758,0.303295670519,1.0,-0.01076,-0.0141417142857,0.539
0.46281932563,0.531320042722,-0.123941325293,-1.38184404047,0.078117719617,1.90363763756,0.155953560096,-0.00944116401736,-0.061536532807,-0.00462887392796,-0.0961942757242,-0.0107754547166,0.0359173557271,-0.00976139215384,0.574061672976,0.81879777735,0.00203527108826,0.0,0.818753375652,-0.574000383303,-0.0121332900986,0.0,-0.00876663336473,0.00863180807562,-0.99992431615,0.0,0.658646999238,0.256981643337,0.303289992718,1.0,-0.0111,-0.0145885714286,0.556
0.462683899369,0.530280376479,-0.123946612084,-1.38349172879,0.078017469485,1.90421296021,0.155749387313,-0.00537700529186,-0.066214282453,-0.0020749456808,-0.0971448448994,-0.0113741035214,0.0312396348783,-0.0103955427088,0.574071544491,0.818790927779,0.00200631320141,0.0,0.818746101665,-0.574010336395,-0.0121532556257,0.0,-0.00879950035129,0.00861966529528,-0.999924132204,0.0,0.65844592672,0.25673029442,0.303288330291,1.0,-0.01144,-0.0150354285714,0.573
0.462537971503,0.52923143264,-0.123947677034,-1.3851428217,0.0779188754077,1.90482586038,0.155519483201,-0.00840996604929,-0.0647099703697,0.00121237302702,-0.0957453871542,-0.00340287478785,0.0414289927337,-0.0154987557052,0.574066656269,0.818794332762,0.00201536547404,0.0,0.818749597309,-0.574005381525,-0.0121517812708,0.0,-0.00879314830501,0.00862617819279,-0.999924131918,0.0,0.658252979471,0.256477032705,0.303294463729,1.0,-0.01178,-0.0154822857143,0.59
0.462408739151,0.528196208075,-0.123953379422,-1.38675062936,0.0778169421216,1.90544692162,0.155293839768,-0.00837687284365,-0.0651230153109,-0.00193165377143,-0.103589447907,-0.00615198993541,0.0373115974353,-0.00915266636769,0.574051546581,0.81880483634,0.00205152508048,0.0,0.818760664552,-0.573990204151,-0.0121229791121,0.0,-0.00874896707277,0.00863908927593,-0.999924407999,0.0,0.658067930854,0.256237056592,0.303312134346,1.0,-0.0121,-0.0159028571429,0.606
0.462263570965,0.527043690514,-0.12395101577,-1.38850322322,0.0777034804744,1.9061194779,0.155043297713,-0.00615721045619,-0.0667576474374,0.000367276397575,-0.103991581665,-0.00582748622093,0.0319499633796,-0.0202437208179,0.574027843846,0.818821306513,0.00210935811148,0.0,0.818777966234,-0.573966328994,-0.0120847876141,0.0,-0.00868474825964,0.00866426733603,-0.999924749978,0.0,0.657864734417,0.255977304427,0.303347374536,1.0,-0.01244,-0.0163497142857,0.623
0.462113800709,0.525875293885,-0.123951967896,-1.3903151794,0.0775938862644,1.90679021836,0.154804009351,-0.00742268066749,-0.0726083272077,0.000915251943448,-0.11004888507,-0.0100840977798,0.0357673005372,-0.0189459093749,0.574023390192,0.818824369629,0.00213216213601,0.0,0.818781308654,-0.573961759636,-0.0120753457674,0.0,-0.00866397466295,0.00867747248734,-0.999924815681,0.0,0.65764883392,0.255706297929,0.303365207647,1.0,-0.01278,-0.0167965714286,0.64
0.461954258068,0.524719453205,-0.123960107063,-1.3921638347,0.0774698238056,1.90744912141,0.154555469755,-0.0102160793772,-0.0650821224725,-0.000293789581193,-0.10994710843,-0.00788861125977,0.032288129515,-0.0160955783464,0.574022108686,0.818825364759,0.00209467604567,0.0,0.818781890123,-0.57396071494,-0.0120855704568,0.0,-0.00869387726091,0.00865263404015,-0.999924771381,0.0,0.657425953654,0.255417084922,0.303355644916,1.0,-0.01312,-0.0172434285714,0.657
0.461803614966,0.523508709227,-0.123960597752,-1.39407498329,0.0773625969741,1.90814434081,0.154298259829,-0.00433647717987,-0.0719368863179,-0.00202850597126,-0.109974081811,-0.00869104415678,0.0453643790414,-0.0166622358353,0.574008849459,0.818834659556,0.00209474437492,0.0,0.818791059369,-0.573947331296,-0.0120999544053,0.0,-0.00870575671515,0.00866080561988,-0.99992459728,0.0,0.657191536863,0.255136672041,0.303357562011,1.0,-0.01346,-0.0176902857143,0.674
0.461648821586,0.522368850046,-0.12396087494,-1.39589891393,0.077247956126,1.9088533974,0.154051947386,-0.00730039221286,-0.0761740653104,-0.00016375241405,-0.113914536823,-0.00891370915825,0.0451391613882,-0.0166523405029,0.574001109494,0.818840043139,0.00211114975999,0.0,0.8187967141,-0.573939578226,-0.0120850497291,0.0,-0.00868421743677,0.00866560127891,-0.999924743029,0.0,0.656979365579,0.254862835023,0.303352044279,1.0,-0.01378,-0.0181108571429,0.69
0.461488775034,0.521121388141,-0.1239640699,-1.39789600258,0.0771297963651,1.90961884966,0.153781090828,-0.00763017325089,-0.0766172334079,0.000120532799701,-0.117406260423,-0.00659001123122,0.0385278526202,-0.0127805485506,0.573989784983,0.81884795965,0.0021195787475,0.0,0.818804733178,-0.573928211457,-0.0120815529012,0.0,-0.00867663595508,0.00867037599442,-0.999924767454,0.0,0.656726932732,0.25454791496,0.303343683353,1.0,-0.01414,-0.018584,0.708
0.461314725549,0.519825080575,-0.123967891027,-1.39994971093,0.0769969753743,1.91036549533,0.153501705675,-0.0110704693334,-0.0772611304158,-0.000895586205261,-0.124384554029,-0.00311689865274,0.0391092679654,-0.013293797445,0.573977578377,0.818856544828,0.00210841516186,0.0,0.818813204835,-0.573916086575,-0.0120833794939,0.0,-0.00868466821043,0.00866215384964,-0.999924768985,0.0,0.656492674056,0.254253977913,0.303342100554,1.0,-0.01446,-0.0190045714286,0.724
0.461150437616,0.51855122073,-0.123973625642,-1.40190235274,0.0768666539737,1.91105409187,0.153241037855,-0.0068132638473,-0.0753597444772,0.000144518905637,-0.127338671978,-0.00900228179651,0.0479268978657,-0.0157014686242,0.573970909596,0.818861213241,0.00211075555089,0.0,0.818817960067,-0.573909464724,-0.012075656195,0.0,-0.00867707095463,0.00865956664807,-0.999924857349,0.0,0.656252126614,0.25395349347,0.303366745726,1.0,-0.01478,-0.0194251428571,0.74
0.460963353516,0.517124767278,-0.123978568484,-1.404167126,0.0767256301459,1.91186291833,0.152912879106,-0.0104567440506,-0.0766339134816,8.5947741541e-05,-0.123543406232,-0.00940955827483,0.0451717332349,-0.0198117234529,0.573940612543,0.818882519266,0.00208322231049,0.0,0.818838869164,-0.573879252919,-0.0120936477439,0.0,-0.00870792632301,0.00864702547699,-0.99992469765,0.0,0.655971155598,0.253609935068,0.303359973809,1.0,-0.01514,-0.0198982857143,0.758
0.460781026787,0.51577364247,-0.123985225722,-1.4063369966,0.0765858396687,1.91268820344,0.152632189693,-0.0171489073732,-0.0801133755237,-0.000909450406571,-0.124486892969,-0.00823733056152,0.0567568152764,-0.0272340139524,0.573941814161,0.818881684229,0.00208040711683,0.0,0.818838090425,-0.57388055895,-0.012084396129,0.0,-0.00870195299551,0.00863942316383,-0.999924815364,0.0,0.655712253097,0.253280101766,0.303346593979,1.0,-0.01548,-0.0203451428571,0.775
0.460607807529,0.514454179808,-0.123983247726,-1.40842656008,0.0764583339992,1.9134559398,0.152340703703,-0.0109020362853,-0.0849672125178,0.000592263692617,-0.137091906407,-0.0083758265064,0.0436167646463,-0.0207992648107,0.573919157061,0.818897569255,0.00207825135123,0.0,0.818853890571,-0.573857857751,-0.0120918110551,0.0,-0.00870950149751,0.0086416725916,-0.999924730206,0.0,0.655454362316,0.252968548329,0.303343555687,1.0,-0.0158,-0.0207657142857,0.791
0.460410508511,0.513052553063,-0.123986328538,-1.41070884984,0.0763276142702,1.91423656346,0.152030662574,-0.0138600578201,-0.0900281552716,0.000587110370815,-0.136806635411,-0.0128142329334,0.0505806823417,-0.0198491028191,0.573913299302,0.818901874436,0.00199795642798,0.0,0.818856927119,-0.573852136885,-0.0121574998765,0.0,-0.0088094374807,0.00861355716419,-0.999924097342,0.0,0.655161958503,0.252616936732,0.303307300633,1.0,-0.01614,-0.0212125714286,0.808
0.460215870467,0.511629332385,-0.1239924051,-1.41300165636,0.0761915207383,1.91508412517,0.151708375369,-0.0104776547979,-0.0816728585616,3.21569110107e-05,-0.135593712473,-0.00569434668166,0.0536885721531,-0.0225437407082,0.573896470004,0.818913715919,0.00197850914122,0.0,0.818868454222,-0.573835337897,-0.0121740117209,0.0,-0.00883429680197,0.00860692678454,-0.999923935113,0.0,0.654880402616,0.252268035782,0.303286599882,1.0,-0.01648,-0.0216594285714,0.825
0.460029764343,0.510242417334,-0.123992514647,-1.41518629821,0.0760575543079,1.91591357219,0.151401515527,-0.0115022312102,-0.0862178994717,0.000218770424032,-0.141129765769,-0.0091743144709,0.0525351574957,-0.02817957253,0.573875638088,0.818928253362,0.00200368558865,0.0,0.81888331863,-0.573814394041,-0.0121613553225,0.0,-0.00880970345496,0.00862005621283,-0.999924038993,0.0,0.654615589255,0.251939729314,0.303289699507,1.0,-0.0168,-0.02208,0.841
0.45981149202,0.508650752878,-0.123995647945,-1.41769330546,0.0758853651043,1.91681607423,0.151054682413,-0.00846852677471,-0.0904328038508,-0.00451944343786,-0.142941127955,-0.0143728060437,0.0428055703775,-0.0228784811679,0.573856083737,0.818942008759,0.00198200632479,0.0,0.818896889876,-0.573795035786,-0.0121609029392,0.0,-0.0088219787417,0.0086018325624,-0.999924087702,0.0,0.654303667097,0.251552003317,0.303288564862,1.0,-0.01716,-0.0225531428571,0.859
0.459610828089,0.507203229608,-0.123996716016,-1.41994446537,0.0757458049539,1.91763168956,0.150736328573,-0.0099267889071,-0.0945790809386,0.0014116775975,-0.138102703664,-0.00307462136254,0.057810954626,-0.0110793067593,0.573839294161,0.818953749949,0.00199168849073,0.0,0.818908712656,-0.573778161274,-0.0121609572591,0.0,-0.00881664393802,0.00860961194957,-0.999924067803,0.0,0.654024146276,0.251204881568,0.303300242788,1.0,-0.01748,-0.0229737142857,0.875
0.459386093186,0.505628384248,-0.124010069245,-1.42240050965,0.0755909572364,1.91856347054,0.1504049126,-0.0140869243274,-0.0988653162675,-0.000277250532538,-0.147968161853,-0.0102955333407,0.0637233151246,-0.0206456559309,0.573846637717,0.818948515799,0.00202774586955,0.0,0.818904050345,-0.573785442671,-0.012131323473,0.0,-0.00877160717208,0.008622214496,-0.999924355301,0.0,0.65373080344,0.250817646467,0.303313376197,1.0,-0.01782,-0.0234205714286,0.892
0.459170213539,0.503975438206,-0.124014101543,-1.42487502681,0.075439738451,1.9195090288,0.150046117362,-0.0144247824842,-0.0993196966654,-0.00113011035539,-0.148653950604,-0.00675136526575,0.0586119478681,-0.0237942313254,0.573819118594,0.818967531059,0.00213286386226,0.0,0.818924477519,-0.573757509439,-0.0120734163991,0.0,-0.00866415617405,0.00867477859691,-0.999924837482,0.0,0.653432279257,0.25044207321,0.303372499029,1.0,-0.01816,-0.0238674285714,0.909
0.458937047418,0.502280347158,-0.124019748552,-1.42736937945,0.0752771383153,1.92044284553,0.149715171382,-0.015165109078,-0.103529288798,-0.00091616797394,-0.150094401139,-0.00934646606525,0.0514500224541,-0.0239460247184,0.573826864124,0.818961811667,0.00224230721813,0.0,0.818920304084,-0.573764912649,-0.0120044771892,0.0,-0.008544815696,0.00872493039178,-0.999925428077,0.0,0.653131972979,0.250049973598,0.303449930569,1.0,-0.0185,-0.0243142857143,0.926
0.458719170443,0.500674838126,-0.124015887769,-1.42980114111,0.0751276963286,1.92129698162,0.149368496398,-0.0142264145981,-0.0998901301036,0.000980488205269,-0.156211911442,-0.0133229392644,0.0580911799357,-0.0173740393119,0.573802132566,0.818979063591,0.00227001407695,0.0,0.818937798887,-0.573739948574,-0.0120041603712,0.0,-0.00852892246845,0.00874718156266,-0.999925369363,0.0,0.65282069003,0.249676559384,0.303486873356,1.0,-0.01882,-0.0247348571429,0.942
0.458472991019,0.498963368416,-0.124019449953,-1.43241333932,0.0749566646477,1.92225517873,0.149001176871,-0.0172227132615,-0.104940478952,0.000374158310694,-0.151269882061,-0.00692943846215,0.0597693811506,-0.0203450272458,0.573792010072,0.818986034298,0.00231337501397,0.0,0.818945396718,-0.573729713365,-0.0119749779691,0.0,-0.00848025100513,0.00876584326767,-0.999925619901,0.0,0.652498282764,0.249263970039,0.303520493004,1.0,-0.01916,-0.0251817142857,0.959
0.45819918798,0.497195755852,-0.124021487764,-1.43520835599,0.0747827534961,1.92329001365,0.148575331599,-0.01383257399,-0.103373105692,0.000697211836326,-0.15361599415,-0.0130438297238,0.0567268947822,-0.018666606342,0.573763783065,0.819005797866,0.00231758627039,0.0,0.818965183106,-0.573701439685,-0.011976387761,0.0,-0.00847929168644,0.00876980885948,-0.999925593264,0.0,0.652153928055,0.248818143658,0.303512286452,1.0,-0.01952,-0.0256548571429,0.977
0.457952391795,0.495616402053,-0.124024785058,-1.4377586925,0.0746265127985,1.92416263478,0.148199315161,-0.0136989104135,-0.0995369282965,-0.00030370818605,-0.156835377642,-0.00853118498332,0.0562279926151,-0.0253610872552,0.573746634252,0.819018039725,0.00223543978788,0.0,0.818976180163,-0.573684454025,-0.0120378750881,0.0,-0.00857696493601,0.00873763048025,-0.999925041934,0.0,0.651822726319,0.248407840285,0.303474725077,1.0,-0.01984,-0.0260754285714,0.993
0.457682066883,0.494016171732,-0.12402818398,-1.44035322498,0.074462010221,1.92508837229,0.147841432083,-0.0203318502992,-0.103188289361,-0.00325320420532,-0.167402620943,-0.0135371287489,0.06309161194,-0.0241220554456,0.573770394899,0.819001609589,0.00215507072211,0.0,0.818958625558,-0.573708475834,-0.0120872363283,0.0,-0.00866325046352,0.00870037962718,-0.999924622902,0.0,0.651472776285,0.247947042139,0.303424235928,1.0,-0.0229422857143,-0.0301527183673,1.01
0.457360591953,0.491625558772,-0.124094765844,-1.44409775415,0.0742459602097,1.92648495454,0.147299673994,-0.0150038597456,-0.135294418129,-0.00197313730498,-0.220724875715,-0.0104716649241,0.0803984622174,-0.0294330820552,0.573760652407,0.819008310032,0.00220198748838,0.0,0.818966060458,-0.573698658166,-0.0120494123563,0.0,-0.00860545726519,0.00871699954249,-0.999924977198,0.0,0.65103508997,0.247378587923,0.303439401416,1.0,-0.0288668571429,-0.0379392979592,1.028
0.457018740018,0.489376346077,-0.124090251679,-1.44774536209,0.0740514990478,1.9277914215,0.146765775437,-0.0232057144761,-0.160244002916,0.000992943516319,-0.260934114232,-0.0175899231914,0.0876679433459,-0.0430960240684,0.573729951497,0.819029976744,0.00214169340258,0.0,0.81898646551,-0.573667742111,-0.0121341614186,0.0,-0.00870978921635,0.00871591756055,-0.999924083295,0.0,0.650560451655,0.246813359491,0.303380803732,1.0,-0.033804,-0.0444281142857,1.043
0.456533966709,0.48629485216,-0.124131345422,-1.45255967116,0.0737558729296,1.92961248616,0.146070893355,-0.0310452820681,-0.193434429908,-0.00249341924504,-0.297227183229,-0.0181544062078,0.113190339664,-0.0402557809392,0.573746639556,0.819018114226,0.00220659674227,0.0,0.818975589028,-0.573684287494,-0.0120859323065,0.0,-0.00863287381601,0.008741580216,-0.999924526284,0.0,0.649973681872,0.246019953202,0.303389571466,1.0,-0.0393994285714,-0.0517821061224,1.06
0.455950045051,0.482521261029,-0.124209564956,-1.45842115749,0.0733986063028,1.93169132842,0.14516434988,-0.0387566930825,-0.217430242906,-0.00905670273061,-0.339699081092,-0.0208861300068,0.112171529152,-0.0554772687393,0.573730287763,0.819029613045,0.00219015087203,0.0,0.818986901352,-0.5736680366,-0.0120907443374,0.0,-0.00864642457593,0.00873069919715,-0.999924504267,0.0,0.649231207206,0.245033781779,0.303401212119,1.0,-0.045324,-0.0595686857143,1.078
0.455336431007,0.478726882444,-0.124277767774,-1.46436783988,0.0730442596543,1.93379771425,0.144283387412,-0.0396816812795,-0.247795856724,-0.000786498720295,-0.378220286753,-0.0242327717043,0.144332971534,-0.0589506554956,0.573754806155,0.819012547054,0.00214874002351,0.0,0.81896917148,-0.573692606567,-0.0121258499723,0.0,-0.00869867448255,0.00871718436995,-0.999924169004,0.0,0.648472550337,0.244027465347,0.30338557911,1.0,-0.0505902857143,-0.0664900897959,1.094
0.454608425949,0.474203027978,-0.124343545175,-1.47129756289,0.0726232023988,1.93633670008,0.14329509553,-0.0423553986538,-0.271376681611,-0.000575735317477,-0.422919948933,-0.0277690534656,0.150512937609,-0.0579053666962,0.573810350172,0.818973343386,0.00225649289613,0.0,0.818931413849,-0.573747721626,-0.0120680670183,0.0,-0.00858893289971,0.00877286358423,-0.999924630708,0.0,0.647600732169,0.242861000914,0.303440417646,1.0,-0.0561857142857,-0.0738440816326,1.111
0.453780334128,0.469248467705,-0.124391861458,-1.47886102076,0.0721700348386,1.93908058941,0.142129372279,-0.0553200880767,-0.305523472642,-0.00600821007856,-0.454841161292,-0.0289060884615,0.181187065184,-0.081572319698,0.573807901511,0.818974715945,0.00237775264793,0.0,0.818934189365,-0.573744583135,-0.0120288699646,0.0,-0.00848728106706,0.00884965395244,-0.999924822017,0.0,0.646637009225,0.241580740335,0.303503390407,1.0,-0.0617811428571,-0.0811980734694,1.128
0.452987501565,0.464482207589,-0.124424214283,-1.48607293879,0.0716908490408,1.94172042358,0.140969393274,-0.0548360107692,-0.327527441708,-0.00432148213102,-0.49947450267,-0.0239364597517,0.170045396575,-0.0858345278674,0.573740634219,0.819021395023,0.00252706175305,0.0,0.818983030545,-0.57367695331,-0.0119287812493,0.0,-0.00832037016533,0.00891381883096,-0.999925654873,0.0,0.645714573434,0.240362050936,0.303588383065,1.0,-0.0667182857143,-0.0876868897959,1.143
0.451922357196,0.458353893041,-0.124473156901,-1.4955901093,0.0710792053049,1.94495889281,0.139556412698,-0.0580071485915,-0.353076853714,-0.0100294074764,-0.544064533081,-0.0301290255118,0.191684461619,-0.0709620949392,0.573767455368,0.819002996602,0.00239700199473,0.0,0.818962557015,-0.573703891669,-0.0120383467538,0.0,-0.00848443604444,0.00887043724992,-0.999924662006,0.0,0.644434469336,0.238725536664,0.303560780141,1.0,-0.0726428571429,-0.0954734693877,1.161
0.450823983827,0.45211950343,-0.124541227077,-1.50511649565,0.0704261460847,1.94833385249,0.138035824308,-0.0704006605607,-0.387914091031,-0.00667767398796,-0.560044889205,-0.0354006701549,0.215844706335,-0.0931649304433,0.57372923997,0.819029649872,0.00243695191305,0.0,0.818990017235,-0.573665818659,-0.0119844512497,0.0,-0.00841778696519,0.00887184020663,-0.99992521286,0.0,0.643180277043,0.237061663703,0.303604684103,1.0,-0.0782382857143,-0.102827461224,1.178
0.449714276756,0.445808622752,-0.124580796924,-1.5145102786,0.0698048819425,1.95183985587,0.136600363851,-0.075267299265,-0.392677769002,-8.74095005112e-05,-0.603502280855,-0.0343696288242,0.20788913634,-0.0812672428452,0.57374656135,0.819016423909,0.00277985738783,0.0,0.818981590121,-0.57368219447,-0.0117746206931,0.0,-0.0080490080147,0.00903247406076,-0.999926811263,0.0,0.641966859811,0.235439825968,0.303764729681,1.0,-0.0835045714286,-0.109748865306,1.194
0.44843836801,0.438849699685,-0.124608820089,-1.52535755318,0.0690585938929,1.95547940014,0.13488175617,-0.0755073555521,-0.418929996037,-0.000474179603469,-0.66077887024,-0.0482944440569,0.216992991801,-0.107587671084,0.573679848294,0.819063891579,0.00255344362043,0.0,0.819025761671,-0.573615955058,-0.0119283160465,0.0,-0.00830551686697,0.00893454266371,-0.9999255934,0.0,0.640451520887,0.233550013026,0.303678677513,1.0,-0.0891,-0.117102857143,1.211
0.447062230774,0.431363829503,-0.12464094073,-1.53658885008,0.0683084216465,1.95951450132,0.133039507608,-0.0806913181037,-0.439747986656,-0.00209547299549,-0.675293046271,-0.0474687782551,0.243936382156,-0.116021566079,0.57360534702,0.819115294177,0.00279063007395,0.0,0.819080277545,-0.57354059726,-0.0118080114251,0.0,-0.00807173851874,0.00905906296164,-0.999926387498,0.0,0.638933876039,0.231584510753,0.303790536311,1.0,-0.0946954285714,-0.12445684898,1.228
0.445637685707,0.424097309458,-0.124689294487,-1.5477563392,0.0675012875444,1.963347523,0.131217772135,-0.0921542351333,-0.468469447458,-0.00310992202437,-0.700631952632,-0.0489844084171,0.236016513078,-0.118998198817,0.57356809571,0.819141701141,0.0026944269841,0.0,0.819105578957,-0.573503867359,-0.0118368723582,0.0,-0.00815096839543,0.00899644572191,-0.999926310124,0.0,0.637381223565,0.229566364356,0.303753882617,1.0,-0.0999617142857,-0.131378253061,1.244
0.443999805523,0.415931875067,-0.124807096177,-1.56015854088,0.0665988833019,1.96758101477,0.129206574513,-0.0987144520638,-0.496418673121,-0.0103973044881,-0.731259405263,-0.057256876277,0.269208763967,-0.118985142174,0.573622139438,0.81910394732,0.00266674557609,0.0,0.819067913878,-0.573558501032,-0.0117959845236,0.0,-0.00813275947135,0.00895085594675,-0.999926867526,0.0,0.635554707546,0.227120899629,0.303777550675,1.0,-0.105886285714,-0.139164832653,1.262
0.442125472899,0.406892630278,-0.12486535942,-1.57387722558,0.065691731253,1.9722992274,0.12690680024,-0.107005415424,-0.50793950116,-0.00267271408782,-0.766586421991,-0.0492944261626,0.254529705951,-0.122340785942,0.573621682964,0.819104221361,0.00268072440825,0.0,0.819067763501,-0.573557325453,-0.0118633939032,0.0,-0.00817996439359,0.00900096821858,-0.999926032641,0.0,0.633714807948,0.224728137957,0.303758322121,1.0,-0.111481714286,-0.14651882449,1.279
0.440301253659,0.398471454069,-0.124974210325,-1.58650950374,0.0648170193662,1.9765777433,0.124783039584,-0.117150972803,-0.543184027797,-0.00930024508092,-0.811048297929,-0.056869571193,0.289653846097,-0.141017358579,0.573717501485,0.819036972501,0.00272269477151,0.0,0.819000940814,-0.57365284138,-0.0118584747736,0.0,-0.00815080461339,0.00903347802038,-0.99992597759,0.0,0.63192267048,0.22230401268,0.303797950588,1.0,-0.116748,-0.153440228571,1.295
0.43827597278,0.389250977722,-0.125068293886,-1.60034672617,0.0637473618342,1.98134052765,0.122413166007,-0.121386528674,-0.546869416753,-0.00284091633043,-0.828982375857,-0.0533329757886,0.281087620833,-0.143683256386,0.573739647549,0.819021293886,0.00277198376352,0.0,0.818986646055,-0.573675633228,-0.0117425860031,0.0,-0.00802736299259,0.00900757826392,-0.999927209839,0.0,0.629946990959,0.21964339085,0.303824352427,1.0,-0.122343428571,-0.160794220408,1.312
0.436118342156,0.379593819581,-0.12513559291,-1.61472131084,0.0626726114344,1.98608320683,0.11983108807,-0.124123866151,-0.592449085518,-0.00380289469174,-0.846650681352,-0.0566267390623,0.293598292406,-0.144703142183,0.573679480982,0.819063474701,0.00276123398301,0.0,0.819028643427,-0.57361546376,-0.0117527819103,0.0,-0.00804254272104,0.00900403290524,-0.999927119793,0.0,0.627821667132,0.216868499859,0.303862815093,1.0,-0.127938857143,-0.168148212245,1.329
0.433939941679,0.370300482967,-0.125204630874,-1.62865367848,0.0616355945607,1.99075965207,0.117345906928,-0.139339469947,-0.586781110489,-0.00305972520802,-0.88794571162,-0.0716139821903,0.299972796992,-0.152072976139,0.57369620215,0.819051762287,0.00276138284891,0.0,0.819016906676,-0.57363215281,-0.0117561364196,0.0,-0.00804502115541,0.00900624345305,-0.999927079948,0.0,0.625759111645,0.2141378632,0.303840963768,1.0,-0.133205142857,-0.175069616327,1.345
0.431493415491,0.360010007155,-0.125335103478,-1.64380151749,0.0604427519492,1.99573979477,0.114638114824,-0.142093955172,-0.615838188125,-0.00630964199356,-0.916108772491,-0.0755365108168,0.293418681845,-0.164117348536,0.573774920102,0.818996492217,0.00279887463376,0.0,0.818962630002,-0.573711298454,-0.0116749127322,0.0,-0.0079561197542,0.00899111895811,-0.999927927372,0.0,0.623490362419,0.211086884253,0.303906835733,1.0,-0.138800571429,-0.182423608163,1.362
0.428850951604,0.349556201806,-0.125418477405,-1.65956549624,0.0592917685264,2.000713277,0.111688191833,-0.160972964356,-0.61980160856,-0.00593466425971,-0.926897946412,-0.059263838547,0.296481811208,-0.177458711934,0.573803168583,0.818977513191,0.0025501985931,0.0,0.818939472339,-0.573739413198,-0.0119152545043,0.0,-0.00829533576951,0.00892564092546,-0.999925757413,0.0,0.620908386383,0.207701511292,0.303781684417,1.0,-0.144725142857,-0.190210187755,1.38
0.426246472008,0.339207415448,-0.125535236027,-1.67446539135,0.0581434054366,2.00566696168,0.10887473393,-0.164542438454,-0.635441561252,-0.00278186292899,-0.936015547789,-0.0779057180316,0.299904716011,-0.177971626322,0.573867559491,0.818931546897,0.00280937042707,0.0,0.818897168167,-0.573803151701,-0.011752360059,0.0,-0.00801250706301,0.00904505781774,-0.999926990665,0.0,0.618630508352,0.204625291446,0.303917599104,1.0,-0.149991428571,-0.197131591837,1.396
0.42320896336,0.327379041266,-0.125558462559,-1.69179732589,0.0566925619528,2.01116704071,0.105489153721,-0.175350136639,-0.682939257436,0.00117147300957,-0.959895978363,-0.0931978861875,0.315155816118,-0.191580180472,0.573732396977,0.819026434089,0.0027538743694,0.0,0.818991504883,-0.573668396653,-0.011757232327,0.0,-0.00804982835763,0.00900107809752,-0.99992708777,0.0,0.616018817306,0.201287048231,0.303918623971,1.0,-0.155586857143,-0.204485583673,1.413
0.419986629921,0.315187753498,-0.125589222731,-1.70959636951,0.0552446185578,2.01674678886,0.102025337713,-0.181272838007,-0.693309540992,-0.00434543469471,-1.00897711811,-0.0864814339589,0.310148121482,-0.194128794794,0.573688244229,0.819057473045,0.00272051184907,0.0,0.81902187907,-0.57362411305,-0.0118019249753,0.0,-0.00810605971766,0.0089989576021,-0.999926652589,0.0,0.613305843689,0.197823962235,0.303909314485,1.0,-0.161182285714,-0.21183957551,1.43
0.417158767536,0.304715518497,-0.125681631012,-1.724545904,0.0539733178246,2.02149237603,0.0989108437693,-0.192307779138,-0.698266882249,-0.00930068627602,-1.00526052355,-0.0919599493833,0.308235386586,-0.215266522181,0.573561845727,0.819145527391,0.00285674338466,0.0,0.819112156118,-0.573497757252,-0.0116766873679,0.0,-0.00792672292202,0.00903746959133,-0.999927742993,0.0,0.610723451608,0.194441346846,0.304005027841,1.0,-0.166448571429,-0.218760979592,1.446
0.413703006636,0.292669488057,-0.125747863934,-1.74191031844,0.0525813602861,2.02674054352,0.0953652341926,-0.21112077622,-0.730860273946,-0.010634858162,-1.01149737909,-0.0786355805807,0.314722018504,-0.217928264487,0.573607513582,0.819113746785,0.0027994804932,0.0,0.819078778458,-0.573542656264,-0.0118119865827,0.0,-0.00806989447897,0.00906861391577,-0.999926315808,0.0,0.607834315848,0.190690997236,0.303995043398,1.0,-0.172044,-0.226114971429,1.463
0.409898518238,0.279617790941,-0.125883964724,-1.76064793057,0.0510077497337,2.03244679873,0.0913730473067,-0.212738339688,-0.73648592543,-0.010247774173,-1.06213099913,-0.0915539837353,0.308848115036,-0.235729038558,0.573578526107,0.819134122886,0.00277669122494,0.0,0.819098641335,-0.573513513456,-0.0118495800652,0.0,-0.00811408165427,0.00907122332768,-0.99992593455,0.0,0.604691148491,0.186583660653,0.303979513644,1.0,-0.177968571429,-0.23390155102,1.481
0.406291199717,0.267667026848,-0.126013681532,-1.77748287841,0.0495070658177,2.03755911583,0.0877013472891,-0.229282519584,-0.745485868983,-0.0082363718597,-1.06181597546,-0.0961748656217,0.317216198904,-0.232160224271,0.573585214573,0.81912903161,0.00289449463303,0.0,0.819095622542,-0.573520389191,-0.0117248119808,0.0,-0.00794423514634,0.00909622180969,-0.999927071279,0.0,0.601852092443,0.182792930391,0.304065811794,1.0,-0.183234857143,-0.240822955102,1.497
0.402158241805,0.254791952095,-0.12620737145,-1.79567243622,0.0479053066536,2.04290040071,0.0836833569053,-0.251291589399,-0.76440145252,-0.0172259814247,-1.06943627837,-0.0927380589073,0.319756459018,-0.241432499945,0.573764582452,0.819003512411,0.00286312480138,0.0,0.818969705124,-0.573699854022,-0.0117408042895,0.0,-0.00797333918252,0.0090814449911,-0.999926973943,0.0,0.598735094745,0.178549997485,0.304077632262,1.0,-0.188830285714,-0.248176946939,1.514
0.39789399519,0.241710124742,-0.126339839547,-1.8142484938,0.0462200254787,2.04824179137,0.0794806250778,-0.251754326436,-0.768101629334,-0.0108574591052,-1.10605088149,-0.103835657142,0.304072678331,-0.258205433495,0.573801214514,0.818978468915,0.00267965975564,0.0,0.818942041024,-0.57373688573,-0.0118602823218,0.0,-0.00817605362812,0.00900010371013,-0.999926072407,0.0,0.595457023185,0.174253192106,0.303990958879,1.0,-0.194425714286,-0.255530938775,1.531
0.393761025439,0.229043602448,-0.126427344072,-1.83169488111,0.0446906867638,2.05337426928,0.0753592799069,-0.265379252624,-0.787622519459,-0.00409296852702,-1.10452599261,-0.10099697763,0.308952545765,-0.267330895648,0.573760869809,0.819005758449,0.0029629048183,0.0,0.818972796492,-0.573695274014,-0.0117489608638,0.0,-0.00792281465035,0.00916780895808,-0.999926587449,0.0,0.592364053509,0.170216906261,0.304109562235,1.0,-0.199692,-0.262452342857,1.547
0.389079947165,0.215358895272,-0.126536485678,-1.85058994239,0.0428488944424,2.05870349395,0.0707764509979,-0.279291249723,-0.813268035185,-0.0106828063833,-1.1048360296,-0.104560611867,0.324384577749,-0.266724156436,0.57369522665,0.819051718545,0.00296920340977,0.0,0.819019361565,-0.57363022436,-0.011678954735,0.0,-0.00786259450769,0.00913217148734,-0.99992738889,0.0,0.588941995461,0.165719007823,0.304147551948,1.0,-0.205287428571,-0.269806334694,1.564
0.384149497188,0.201543671066,-0.126676783961,-1.8697571876,0.0410614830201,2.06386389492,0.066031745072,-0.291858205692,-0.82470545403,-0.013997793074,-1.12712111602,-0.116024295759,0.295286865001,-0.283286217869,0.573719774528,0.819035157418,0.00278892996802,0.0,0.818999651864,-0.573654492616,-0.0118676134484,0.0,-0.00812026678343,0.00909299225296,-0.999925686618,0.0,0.585377088073,0.161077436559,0.304071976436,1.0,-0.210882857143,-0.277160326531,1.581
0.379260289902,0.188196405234,-0.126856334203,-1.88787006026,0.0393149763923,2.06887727344,0.0613676387524,-0.312074925617,-0.809886962341,-0.0156137721215,-1.14140694248,-0.111351977195,0.303607445497,-0.300524143512,0.57378010205,0.818992448482,0.00291731414604,0.0,0.818958752049,-0.573714501273,-0.0117889936655,0.0,-0.00798154502635,0.00915362617649,-0.999926250314,0.0,0.581801912696,0.156288463444,0.304122781884,1.0,-0.216478285714,-0.284514318367,1.598
0.373419383848,0.172908889685,-0.127052037174,-1.90843506221,0.0373579588988,2.07431956948,0.0559446482364,-0.32174241143,-0.873658179637,-0.00362068928761,-1.14857093363,-0.118402891637,0.298327196688,-0.304749727927,0.573922019488,0.818892458389,0.00306660089058,0.0,0.818860304077,-0.573855410037,-0.011769353416,0.0,-0.0078782009208,0.00926598721731,-0.99992603498,0.0,0.578124210409,0.151355511486,0.304210986864,1.0,-0.222073714286,-0.291868310204,1.615
0.367772632683,0.158287962112,-0.127173159377,-1.92805056657,0.0353310352811,2.07936392497,0.0505499673343,-0.335121623886,-0.886069368278,-0.00812460189959,-1.12711106858,-0.107331643505,0.316805263205,-0.316760884043,0.573794257313,0.818982092572,0.00303796352539,0.0,0.818949666856,-0.573727883423,-0.0117688504033,0.0,-0.00789566536311,0.0092410159118,-0.999926128318,0.0,0.574302119817,0.146400368915,0.304227008743,1.0,-0.227669142857,-0.299222302041,1.632
0.362573151186,0.145311541825,-0.127280782059,-1.94558529567,0.0334849053822,2.08373907747,0.045692401223,-0.349694837646,-0.870994559922,-0.00469930402147,-1.18331718324,-0.125936696818,0.282195799262,-0.323877229556,0.573729689419,0.819028084532,0.00282615064776,0.0,0.818992650406,-0.573663803077,-0.0119006941686,0.0,-0.00812589886957,0.00914255420117,-0.999925188937,0.0,0.570810834665,0.141924300987,0.304123159161,1.0,-0.232606285714,-0.305711118367,1.647
0.355615037511,0.128390370787,-0.12746797517,-1.96770198929,0.0312059909365,2.0892354631,0.0391754055956,-0.366521888447,-0.879931727046,-0.0141238746937,-1.15765592147,-0.128315445438,0.274894952258,-0.356604386211,0.573674939634,0.819065654751,0.00304364001889,0.0,0.819032943848,-0.573608141875,-0.0118103077178,0.0,-0.00792771336095,0.00926829745518,-0.999925622246,0.0,0.566387308969,0.136106957725,0.304242252691,1.0,-0.23886,-0.313930285714,1.666
0.349356563351,0.113904951191,-0.127707664004,-1.9864908587,0.029150551258,2.09381248706,0.0335689422068,-0.395354170565,-0.911921035144,-0.0214789975926,-1.18544186149,-0.126638645231,0.284447353474,-0.353122572511,0.573834502405,0.81895332427,0.00318801149777,0.0,0.818923136294,-0.573767956662,-0.0116608597818,0.0,-0.00772066968608,0.00930231914326,-0.999926926389,0.0,0.562591408627,0.130973088512,0.304333416533,1.0,-0.244126285714,-0.320851689796,1.682
0.342890262059,0.0993169401062,-0.127843215254,-2.00535288715,0.0270450762965,2.09821376136,0.0276241893152,-0.395278502033,-0.931279744369,-0.00888668849204,-1.16082895735,-0.137815965567,0.283537853227,-0.377725942125,0.573747167966,0.819014363043,0.00322603166395,0.0,0.818984908471,-0.573680800968,-0.011610564145,0.0,-0.00765865382166,0.00930377867026,-0.999927389726,0.0,0.558674908253,0.125829822459,0.304371350651,1.0,-0.249392571429,-0.327773093878,1.698
0.335382436775,0.0827313163759,-0.128007309054,-2.02681554161,0.0247679329395,2.10291071259,0.0207052036911,-0.424332869027,-0.931227152734,-0.0120943222151,-1.19160926564,-0.129063306067,0.251332941955,-0.389173832345,0.573657763925,0.819077405296,0.00311783969098,0.0,0.819044968291,-0.573589890144,-0.0118627460324,0.0,-0.00792829855836,0.00935898746328,-0.999924772888,0.0,0.55407559804,0.119977724349,0.304303532412,1.0,-0.255317142857,-0.335559673469,1.716
0.327397320289,0.0658311999705,-0.128206115364,-2.04825101824,0.0222597373861,2.10765664974,0.0134655960299,-0.457579753808,-0.920865205452,-0.0137870044832,-1.20702290837,-0.136550107502,0.247339364536,-0.408205348547,0.573581830232,0.819130259991,0.00320126486287,0.0,0.819099513801,-0.573514395355,-0.011746136063,0.0,-0.00778579390559,0.00935970491719,-0.999925885922,0.0,0.549468958507,0.113915215325,0.304345775655,1.0,-0.25998,-0.341688,1.734
0.320859906856,0.0525883236365,-0.128426352924,-2.06471951962,0.0203493513808,2.11109699798,0.00766327315595,-0.471640141612,-0.933019677853,-0.0108835856497,-1.17374919569,-0.123056396079,0.237492546241,-0.414029805091,0.573685626117,0.819056989197,0.0033463016273,0.0,0.819028259784,-0.573617855983,-0.0116624128447,0.0,-0.00763282934202,0.0094314557981,-0.99992639107,0.0,0.54587503425,0.109066600306,0.304445414362,1.0,-0.25998,-0.341688,1.748
0.31185184908,0.0348958280673,-0.128597649163,-2.08688650956,0.0177951451373,2.11549863167,-0.000285880188582,-0.486018845693,-0.933884926914,-0.00592338686994,-1.14595520452,-0.13473679819,0.243288768916,-0.426078466078,0.5737437127,0.819016479527,0.00330231754809,0.0,0.818986142298,-0.573674811305,-0.0118176350635,0.0,-0.00778453134614,0.00948502874222,-0.999924714817,0.0,0.540894097856,0.102590451586,0.304402840892,1.0,-0.25998,-0.341688,1.767
0.304074689546,0.0201387281412,-0.128753904304,-2.10519173059,0.0155160511628,2.11894420507,-0.00720005443593,-0.491249238312,-0.922346274394,-0.00641792231384,-1.12993321197,-0.131533068708,0.215353642605,-0.442047746577,0.573682629158,0.819059809883,0.00316476503454,0.0,0.819027535371,-0.573614050609,-0.0118980733378,0.0,-0.00793003267307,0.00941792902495,-0.999924205725,0.0,0.536698370159,0.0971165322224,0.304359069387,1.0,-0.25998,-0.341688,1.783
0.296014535579,0.00535700976737,-0.129002093254,-2.1230330151,0.0132851488174,2.12222636021,-0.0142384420269,-0.507348137254,-0.910982955621,-0.0145485496894,-1.11418400558,-0.130492555449,0.193931115689,-0.449654192703,0.573810743489,0.818969524695,0.00330078454724,0.0,0.818939400056,-0.573742121572,-0.0117891420948,0.0,-0.00776129839804,0.00946806119689,-0.999925056224,0.0,0.532581031837,0.0915583455165,0.304459687481,1.0,-0.25998,-0.341688,1.799
0.287361929047,-0.0102062852836,-0.129109062297,-2.14163933881,0.0109867872307,2.12557802747,-0.0218759435736,-0.507182214549,-0.921941306091,-0.0108642957602,-1.0856643307,-0.133400916814,0.192129596972,-0.45975673901,0.573755190078,0.819007448828,0.00353942422615,0.0,0.818980595121,-0.573685996451,-0.0116580098027,0.0,-0.00751762349044,0.00958774798327,-0.999925777458,0.0,0.528199718586,0.0858094384851,0.304565182674,1.0,-0.25998,-0.341688,1.816
0.277974357984,-0.0264516847974,-0.129282311359,-2.1610318001,0.00845827344573,2.12868693626,-0.0301276665704,-0.532571650658,-0.924100871118,-0.0153071666505,-1.05199366627,-0.13624728931,0.186710924822,-0.453871726695,0.573713402106,0.819036999112,0.00347465552161,0.0,0.819009119271,-0.573644189652,-0.0117112395047,0.0,-0.00759886881058,0.00956485377073,-0.999925382599,0.0,0.523500884315,0.0796693367993,0.304574794239,1.0,-0.25998,-0.341688,1.834
0.269865462314,-0.0398506383671,-0.129509800681,-2.17691636567,0.00637133301409,2.13122126692,-0.0371262449431,-0.544833129664,-0.879949594544,-0.0138366034643,-1.04361696782,-0.129011462699,0.151630894549,-0.468416057086,0.573860006255,0.818934226101,0.00348904620066,0.0,0.818906545231,-0.573790741177,-0.0117048032121,0.0,-0.00758362756298,0.00957430554986,-0.999925407851,0.0,0.519619673898,0.0744616873757,0.304568370095,1.0,-0.25998,-0.341688,1.849
0.260043141552,-0.0559052365604,-0.129630703937,-2.19553301411,0.00394521896891,2.13402798644,-0.0457362973198,-0.554165602207,-0.891882694817,-0.00512640215256,-1.02090580131,-0.143925211962,0.156552837777,-0.478147475902,0.573812714652,0.818966492992,0.00368764995498,0.0,0.818941473302,-0.57374293309,-0.0116041775619,0.0,-0.00738781173878,0.00967878046174,-0.999925867975,0.0,0.514973548034,0.0683746305934,0.304656790132,1.0,-0.25998,-0.341688,1.867
0.250541701878,-0.0707707093361,-0.129808770138,-2.21289644483,0.00159838180408,2.13633263896,-0.0541088908219,-0.564677051759,-0.896052678742,-0.0107949357544,-0.986595363984,-0.145207200514,0.135209792837,-0.494966784532,0.573749350301,0.819011526011,0.00354262497127,0.0,0.818983856718,-0.573679056523,-0.011769853139,0.0,-0.00760746209636,0.00965448413224,-0.999924455875,0.0,0.510517150392,0.0625760643606,0.304583714761,1.0,-0.25998,-0.341688,1.884
0.241286167912,-0.0847412122223,-0.130024783976,-2.22891202846,-0.000558165589034,2.13838732572,-0.0621334278557,-0.575051474824,-0.873086620004,-0.00973015181087,-0.999624179585,-0.135536189821,0.118477817912,-0.495334033324,0.573862632585,0.818931997488,0.00357901018975,0.0,0.818904312575,-0.573791577535,-0.0118194456747,0.0,-0.00762586317426,0.00971379211029,-0.999923741319,0.0,0.506358473878,0.0570491133647,0.304579312069,1.0,-0.25998,-0.341688,1.9
0.231460503462,-0.0995400877576,-0.130152509763,-2.24558188113,-0.00287018364481,2.14033926624,-0.0708603921048,-0.57518980973,-0.883545479962,-0.0152600598989,-0.974164806625,-0.143073764373,0.106819138183,-0.517571319823,0.573732534299,0.819022898309,0.00363566126134,0.0,0.818995761912,-0.573661063058,-0.0118183587261,0.0,-0.0075940153213,0.00975835594654,-0.999923549788,0.0,0.502445030483,0.0520062990126,0.304611135635,1.0,-0.25998,-0.341688,1.915
0.221218233244,-0.11405512239,-0.130384321147,-2.2620363828,-0.0052606075995,2.14199545726,-0.0796881463427,-0.606101654691,-0.866739016103,-0.0168856946488,-0.956214684492,-0.137950754355,0.0914649362972,-0.522234013965,0.573808934496,0.818970197118,0.003445261318,0.0,0.818939871661,-0.573737237497,-0.0119923231765,0.0,-0.00784483160206,0.00970295085753,-0.999922152651,0.0,0.497193064675,0.0451220509992,0.304537598552,1.0,-0.25998,-0.341688,1.935
0.210778027247,-0.128588768812,-0.130575602345,-2.27801208092,-0.00749448043918,2.14355348441,-0.0888184703571,-0.604846232836,-0.829462091957,-0.0113689940069,-0.939632857419,-0.126086933932,0.0792507461121,-0.548337888456,0.573834225841,0.81895192769,0.0035732740099,0.0,0.818922950118,-0.5737616506,-0.0119798569427,0.0,-0.00776086876345,0.00980087672539,-0.999921852812,0.0,0.493046690792,0.0396625826385,0.304582935727,1.0,-0.25998,-0.341688,1.951
0.198287075614,-0.145529549286,-0.130793958415,-2.29637330765,-0.0102032796678,2.14517937292,-0.0998397188874,-0.633367301839,-0.852354790957,-0.00694504014505,-0.893463096749,-0.132957637761,0.0779952919533,-0.556781991892,0.57374463618,0.819013997619,0.00372975336327,0.0,0.818987581949,-0.573672188993,-0.0118451293751,0.0,-0.00756181657389,0.00985089079222,-0.999922886467,0.0,0.487880508614,0.0328682859055,0.304664419798,1.0,-0.25998,-0.341688,1.971
0.1911629462,-0.154666103814,-0.131003482849,-2.30631904495,-0.011690644732,2.14590909371,-0.106018847838,-0.646918255984,-0.8283284064,-0.0125816567797,-0.886194274389,-0.13346581241,0.0571670401256,-0.571342646599,0.573866958576,0.818928462568,0.00369241812577,0.0,0.818901154271,-0.573794096753,-0.0119155766299,0.0,-0.0076394642102,0.00986187105711,-0.999922188016,0.0,0.485018852865,0.0290308704192,0.304637171705,1.0,-0.25998,-0.341688,1.982
0.178931569393,-0.170490712912,-0.13114174341,-2.32311558055,-0.0141188090773,2.1469809575,-0.116871754417,-0.645458965213,-0.803602466792,-0.0101951185383,-0.875459018276,-0.118926902427,0.0499982632491,-0.579469531682,0.573731974868,0.819022291601,0.00385405959747,0.0,0.818996661564,-0.573658003317,-0.0119042210558,0.0,-0.00753905542568,0.00998648647022,-0.999921713301,0.0,0.480088080862,0.0226775251131,0.304707010816,1.0,-0.25998,-0.341688,2.001
0.167528334392,-0.184359054813,-0.131414474994,-2.3379622103,-0.0164604417602,2.14773959157,-0.126850949465,-0.679953523133,-0.793754202355,-0.0269971792785,-0.875879243883,-0.129599063592,0.0407225632857,-0.596482974161,0.573788211682,0.818983618561,0.00369696695519,0.0,0.818955374321,-0.57371406387,-0.0120422045443,0.0,-0.00774151536542,0.00993751729481,-0.999920654197,0.0,0.475625584863,0.0168005429891,0.304627548646,1.0,-0.25998,-0.341688,2.018
0.155296711022,-0.198983829898,-0.131601448943,-2.35308218476,-0.0188134107635,2.14845356315,-0.1377201638,-0.678608770523,-0.780685322433,-0.0151019331348,-0.867687299553,-0.117699131066,0.0377594348893,-0.603489822387,0.5736875464,0.819053312041,0.00387531178975,0.0,0.819028106796,-0.573613703913,-0.0118754310845,0.0,-0.00750382368397,0.00998696847978,-0.999921973501,0.0,0.471010347383,0.0106936979294,0.304713347205,1.0,-0.25998,-0.341688,2.036
0.144881779165,-0.211049760674,-0.131821802769,-2.36563998409,-0.0207250025788,2.14872664644,-0.14693090799,-0.704402096786,-0.807985356637,-0.0207998331712,-0.826928117095,-0.136080117756,0.0130624563921,-0.607076296452,0.573731323976,0.819022893287,0.00382296514779,0.0,0.818995557341,-0.573655755872,-0.0120870886878,0.0,-0.00770668476451,0.010065926668,-0.999919638836,0.0,0.46679350923,0.00522353904405,0.304665266225,1.0,-0.25998,-0.341688,2.052
0.13205792682,-0.225324111667,-0.132087610424,-2.38014820589,-0.0231197300198,2.1490713073,-0.158169406823,-0.707926850228,-0.773255113041,-0.000634439982647,-0.825664326936,-0.135374926494,0.0163622325105,-0.630168786288,0.573806367633,0.818970012104,0.00388826952974,0.0,0.818944351855,-0.5737316319,-0.0119544980572,0.0,-0.00755969774363,0.0100440368558,-0.999920981025,0.0,0.462412919436,-0.000616637822472,0.304709966535,1.0,-0.25998,-0.341688,2.069
0.11985121079,-0.238705333132,-0.132296713861,-2.39364417718,-0.0252908708263,2.14914973656,-0.169138608281,-0.734790233427,-0.799984458073,-0.0178859822503,-0.7499089312,-0.130032380688,0.00442709956747,-0.651400347111,0.573669934507,0.819065429354,0.00392117092721,0.0,0.819039910855,-0.573594718845,-0.0119778896787,0.0,-0.00756165800224,0.010083144806,-0.999920572605,0.0,0.457978037173,-0.00635895182391,0.304717759275,1.0,-0.25998,-0.341688,2.086
0.107905709212,-0.251131388775,-0.132577262316,-2.40589692558,-0.0272460560591,2.14919646892,-0.179673885598,-0.74339537045,-0.760906403613,-0.00917265145432,-0.751811559523,-0.126170840717,-0.00681050097922,-0.663180427248,0.573841267432,0.818944237899,0.00415715114549,0.0,0.818922231019,-0.573765798095,-0.0118294285739,0.0,-0.00730255182017,0.0101927940194,-0.999921386753,0.0,0.453881571168,-0.0118971234656,0.304796422517,1.0,-0.25998,-0.341688,2.102
0.0944645326445,-0.264887838341,-0.132791977772,-2.41955424454,-0.0295149808199,2.14904176375,-0.191743814716,-0.754312354585,-0.769201902465,-0.0099906837197,-0.73397485896,-0.121700528285,-0.0110152905493,-0.669367153435,0.573729067769,0.819022800913,0.00416596724492,0.0,0.819000788256,-0.573653417888,-0.0118411098253,0.0,-0.00730845829664,0.0102057158505,-0.999921211797,0.0,0.449190886153,-0.0179696571284,0.304767191988,1.0,-0.25998,-0.341688,2.12
0.0821148354496,-0.276959348645,-0.133104040378,-2.43117387774,-0.0314836586835,2.14879193786,-0.202756217545,-0.770782145439,-0.727869442999,-0.0130617883994,-0.718755846438,-0.128364790625,-0.0262406622438,-0.691986598304,0.573839532648,0.818944428982,0.00435429799126,0.0,0.818925600466,-0.573764303392,-0.0116675599586,0.0,-0.00705687834099,0.0102613508137,-0.999922449567,0.0,0.445098820559,-0.0234942802055,0.304844461291,1.0,-0.25998,-0.341688,2.136
0.0697225568902,-0.28885633738,-0.133262149023,-2.44274650104,-0.0333760888593,2.148311544,-0.214031924167,-0.775743581381,-0.738225073163,-0.0124407510488,-0.704588419023,-0.105811007097,-0.040457375463,-0.709892496318,0.573668127843,0.819064509365,0.0043537911125,0.0,0.819044820988,-0.573591691187,-0.0117855808144,0.0,-0.00715599033504,0.0103271609736,-0.999921067659,0.0,0.440907775926,-0.0288563358276,0.304802457735,1.0,-0.25998,-0.341688,2.152
0.055285953117,-0.302084702188,-0.133588156225,-2.45513676588,-0.0356078026091,2.14775293443,-0.226968832667,-0.802205943561,-0.722747576807,-0.0141300870456,-0.682719774342,-0.126470424498,-0.042999221767,-0.7278192499,0.573744675444,0.81900988945,0.0045382026385,0.0,0.81899414142,-0.573669949238,-0.011494892893,0.0,-0.00681113161571,0.0103120935054,-0.999923631691,0.0,0.436309591048,-0.0350768337542,0.304913288215,1.0,-0.25998,-0.341688,2.17
0.0415818027345,-0.314279682939,-0.133811714866,-2.46677941249,-0.0375981222312,2.14691885521,-0.239375964862,-0.815019870877,-0.719627637564,-0.0144700188813,-0.678910704492,-0.119918283411,-0.0546110109185,-0.73517421991,0.573692015731,0.819047200446,0.00446110172257,0.0,0.819029246168,-0.57361572494,-0.0116979025325,0.0,-0.00702231142294,0.0103649656223,-0.999921624244,0.0,0.431839813637,-0.0408058821932,0.304840122628,1.0,-0.25998,-0.341688,2.187
0.029093877246,-0.324931412525,-0.134095394179,-2.47656493611,-0.0393532906852,2.1462032,-0.250651989273,-0.825858587502,-0.723074209238,-0.00743176571347,-0.650201916007,-0.114810798471,-0.0482889778063,-0.758619533277,0.57377098188,0.818991066035,0.00460879685402,0.0,0.818975756445,-0.57369532608,-0.0115382013856,0.0,-0.00680576967105,0.0103949781635,-0.999922809985,0.0,0.427987268181,-0.0459884399003,0.304910126817,1.0,-0.25998,-0.341688,2.202
0.0149336455119,-0.336695607188,-0.134290228129,-2.48752721277,-0.0412112316899,2.14523948282,-0.263687532585,-0.849154484867,-0.689773783192,-0.0164597188955,-0.639281453516,-0.120688965058,-0.0654414268719,-0.768047225747,0.573609078649,0.819104284568,0.00464142170985,0.0,0.819088523765,-0.573532017735,-0.011651685271,0.0,-0.00688207387073,0.0104854495869,-0.99992134311,0.0,0.423561983885,-0.0516871832827,0.304862735548,1.0,-0.25998,-0.341688,2.219
-0.000558837874401,-0.348933943683,-0.134596125433,-2.49867903117,-0.04330489751,2.14398859033,-0.277722402345,-0.86095501018,-0.67166188164,-0.00293768004546,-0.60788347485,-0.109111550978,-0.0663571295362,-0.781213029937,0.573676458862,0.819057375888,0.00459156305558,0.0,0.819040676022,-0.57359910139,-0.0117127625575,0.0,-0.00695984212066,0.0104802148332,-0.999920859716,0.0,0.418867810392,-0.0578757080196,0.304856969613,1.0,-0.25998,-0.341688,2.237
-0.013553171011,-0.358981726419,-0.134861337743,-2.50757252784,-0.0449759982181,2.14304640358,-0.289711883215,-0.8818728356,-0.655428859219,-0.0217556593142,-0.597531582036,-0.115802991732,-0.0667292227371,-0.802382859731,0.573605265832,0.819106297676,0.00475594561758,0.0,0.819092933469,-0.573529279448,-0.0114751409205,0.0,-0.00667181458465,0.0104779644388,-0.999922846599,0.0,0.415042451307,-0.0629854160605,0.30494220001,1.0,-0.25998,-0.341688,2.252
-0.0285914486522,-0.370089410313,-0.135128923291,-2.51757706041,-0.0467911874014,2.14168628761,-0.303549216756,-0.879225078027,-0.661874027363,-0.014019538488,-0.585528930539,-0.105788557378,-0.0773958601518,-0.817501090195,0.573577237971,0.819126075704,0.00472980808531,0.0,0.819111259244,-0.573499598409,-0.011649141841,0.0,-0.00682970429706,0.0105561248968,-0.999920958559,0.0,0.410576339677,-0.0687648995452,0.304893983237,1.0,-0.25998,-0.341688,2.269
-0.0439170913199,-0.380940631289,-0.135463443766,-2.52705519574,-0.0486152740039,2.14028753886,-0.317578714685,-0.915025676013,-0.634305542824,-0.0253224700341,-0.532104149813,-0.109900562036,-0.0760591350975,-0.830757519895,0.573681109187,0.81905286306,0.00481034052437,0.0,0.81903944712,-0.573603764316,-0.0115694651891,0.0,-0.00671690347598,0.0105772459107,-0.999921499457,0.0,0.40592310714,-0.0749477549998,0.304948528709,1.0,-0.25998,-0.341688,2.287
-0.0594265771819,-0.391477698289,-0.135701027921,-2.53624842584,-0.0503921062738,2.13893382539,-0.332002634096,-0.917618644187,-0.6198386538,-0.0196951970427,-0.53178206293,-0.103536299868,-0.0897770461548,-0.861945208815,0.573564796228,0.819134151219,0.00483877430708,0.0,0.819121301875,-0.573487700392,-0.0115281054891,0.0,-0.00666821573869,0.0105758622037,-0.999921839964,0.0,0.401789988815,-0.0803751755774,0.304946209237,1.0,-0.25998,-0.341688,2.303
-0.075274970689,-0.401737643347,-0.136037558801,-2.5452221966,-0.0521696542937,2.13734831642,-0.346653303759,-0.926560201627,-0.594528852886,-0.0152081122969,-0.526776574415,-0.0936711649951,-0.0924684792488,-0.86355636992,0.573612544635,0.819101161534,0.00476263704492,0.0,0.819086264532,-0.57353401232,-0.0117121675478,0.0,-0.00686204782454,0.0106194612742,-0.999920066476,0.0,0.397310753845,-0.0862065984369,0.304887929527,1.0,-0.25998,-0.341688,2.32
-0.0922027622187,-0.412324321211,-0.136329584676,-2.55410089523,-0.0538052388147,2.13575689753,-0.362483247875,-0.95508973661,-0.580786464541,-0.0308800712682,-0.47966413709,-0.099647617955,-0.0858844673336,-0.889140710061,0.573600504804,0.819108207386,0.0049952360403,0.0,0.81909676433,-0.573521946535,-0.0115678177989,0.0,-0.00661054427684,0.0107270943364,-0.999920611924,0.0,0.392701934522,-0.0923118845583,0.304970661073,1.0,-0.25998,-0.341688,2.338
-0.107600060334,-0.421422838822,-0.136593500302,-2.56174530374,-0.0554063413075,2.13425844448,-0.376851368612,-0.959645317392,-0.562061246074,-0.01310020247,-0.478436570597,-0.0888224311994,-0.103010850979,-0.909137725523,0.573574887551,0.819126137567,0.00499660157751,0.0,0.819115133497,-0.573497014875,-0.0115029955553,0.0,-0.00655699447287,0.0106908271818,-0.999921352926,0.0,0.388551398335,-0.0978032546952,0.304995645543,1.0,-0.25998,-0.341688,2.354
-0.124126816852,-0.430735227657,-0.136943999162,-2.56969936823,-0.0570045577711,2.13250803857,-0.392311325836,-0.978911224569,-0.550724268102,-0.0200258172285,-0.45981785042,-0.0918674209886,-0.0953828614652,-0.899749067031,0.573624339638,0.819091875189,0.00493597776907,0.0,0.819078348593,-0.573543858049,-0.0117834061945,0.0,-0.006820823865,0.0108024090966,-0.99991838883,0.0,0.384056695679,-0.103603486673,0.30491504823,1.0,-0.25998,-0.341688,2.371
-0.136811626122,-0.437585472946,-0.137134633153,-2.57543404906,-0.0581474762061,2.13127380788,-0.404325644224,-0.977253103544,-0.525400516393,-0.0223489785706,-0.437348038839,-0.0760884621171,-0.0954404369525,-0.927118137695,0.573531740562,0.8191565414,0.00496489186792,0.0,0.819143020759,-0.57345059076,-0.0118270198871,0.0,-0.00684119224521,0.0108503367265,-0.999917730757,0.0,0.380699573501,-0.107980612483,0.304897329161,1.0,-0.25998,-0.341688,2.384
-0.156889012428,-0.447866294685,-0.137492305709,-2.58362709552,-0.0598765602737,2.12942574778,-0.423163637475,-0.996034439414,-0.504364581282,-0.00963251832788,-0.402009609448,-0.087048659947,-0.0957150079395,-0.941861162693,0.573641300866,0.819078545641,0.00517116172191,0.0,0.819069428863,-0.573562295171,-0.0115026588452,0.0,-0.00645572198462,0.0108341492524,-0.999920469269,0.0,0.375584656467,-0.114885158513,0.305029340792,1.0,-0.25998,-0.341688,2.404
-0.174084447426,-0.456118660514,-0.137808103041,-2.5905241368,-0.0613442372562,2.12764402354,-0.43945484472,-1.02294043254,-0.47877260486,-0.0230186430561,-0.398848214622,-0.0900406153636,-0.104674321436,-0.968246927616,0.573620175635,0.819093853881,0.00508915916256,0.0,0.819081888116,-0.573538488654,-0.011798707307,0.0,-0.00674554985702,0.0109366252174,-0.999917440485,0.0,0.371094143308,-0.120670533417,0.304939840203,1.0,-0.25998,-0.341688,2.421
-0.191412126902,-0.464010149248,-0.138047745634,-2.59694636367,-0.0626946321414,2.12601850097,-0.456034652055,-1.02383287865,-0.450336448288,-0.0161075033643,-0.374379361208,-0.0781729125777,-0.0871077402246,-0.977975379898,0.573484411742,0.819188691377,0.00512487180891,0.0,0.81917679397,-0.573401982986,-0.0118445358688,0.0,-0.00676442841674,0.0109910443547,-0.999916716258,0.0,0.366691787935,-0.126414031235,0.30492130491,1.0,-0.25998,-0.341688,2.438
-0.208134987898,-0.471110232041,-0.138332354517,-2.6025978114,-0.0640058474935,2.12452230208,-0.471780191949,-1.03860563731,-0.439715506148,-0.00804412037821,-0.344475943926,-0.0786074572684,-0.0953184471704,-0.979387805756,0.573621667893,0.819092467986,0.0051437255864,0.0,0.819081232788,-0.573539830355,-0.0117789639607,0.0,-0.00669805811902,0.0109700092543,-0.999917394045,0.0,0.362532971217,-0.13194110105,0.30494094982,1.0,-0.25998,-0.341688,2.454
-0.225905145704,-0.478257866387,-0.138599427634,-2.60810538587,-0.0651680210648,2.1229739205,-0.488797326761,-1.0555411944,-0.402176619989,-0.0272508075529,-0.318641161383,-0.0654974361078,-0.0905970265606,-1.00169124691,0.573629843496,0.819085562536,0.0053283014781,0.0,0.819077471912,-0.573548654964,-0.0116095777981,0.0,-0.00645332166203,0.0110241042478,-0.999918408554,0.0,0.358196413323,-0.137731975578,0.305024505607,1.0,-0.25614,-0.336641142857,2.471
-0.244645007123,-0.485214931766,-0.138693205502,-2.613731305,-0.0663230290871,2.12129306255,-0.506740805973,-1.04335213212,-0.373841125067,-0.00261440868917,-0.309330785159,-0.0634694971589,-0.0873213050807,-0.996177603742,0.573542377315,0.819146897166,0.00531499664428,0.0,0.819137249277,-0.573458905189,-0.0118236123301,0.0,-0.00663747098869,0.0111352688438,-0.999915971353,0.0,0.353586686809,-0.143671013224,0.30495964895,1.0,-0.250215428571,-0.328854563265,2.489
-0.260373163638,-0.490530543751,-0.13880199965,-2.61800240865,-0.0672342961128,2.1199466082,-0.521640762671,-1.02753755202,-0.344082684682,-0.000834827628535,-0.275280088215,-0.0541208763886,-0.0794548414661,-0.9920048988,0.57366900525,0.819058278054,0.00530626683931,0.0,0.819047257688,-0.573583445412,-0.0120153120669,0.0,-0.00679778487425,0.0112391118122,-0.999913732522,0.0,0.349782830821,-0.148632844839,0.304906271744,1.0,-0.245278285714,-0.322365746939,2.504
-0.278957892215,-0.496399658757,-0.138851960519,-2.62254294132,-0.0681035043935,2.11862095269,-0.539359020612,-1.03633147656,-0.313082996825,-0.008908424299,-0.242712274813,-0.057859396799,-0.0739614794371,-0.973172554978,0.573784917372,0.81897597077,0.00547492448212,0.0,0.818967549803,-0.573699376764,-0.0119132015185,0.0,-0.0066157923899,0.0113196187752,-0.999914045067,0.0,0.345419263314,-0.154437841723,0.304932651452,1.0,-0.239353714286,-0.314579167347,2.522
-0.296116061822,-0.50145518715,-0.138767365281,-2.62639902537,-0.068860706794,2.1173236912,-0.555840104038,-1.0048025804,-0.286373466177,0.00298015915348,-0.224144892864,-0.052389687212,-0.0686471246652,-0.970900185278,0.573733660928,0.819011436363,0.0055407874878,0.0,0.819003894464,-0.573647923491,-0.0118923348594,0.0,-0.00656162334958,0.0113611780846,-0.999913930662,0.0,0.341406336442,-0.15970366229,0.304961904558,1.0,-0.233758285714,-0.30722517551,2.539
-0.312249986084,-0.505709781205,-0.138761928675,-2.62963370965,-0.0695183027944,2.11626468902,-0.571216115785,-1.00553208906,-0.254435847059,0.00199649609703,-0.197886018643,-0.0411381104516,-0.0573658758614,-0.964142073434,0.573882756405,0.818906331194,0.00563467238763,0.0,0.818900281975,-0.573797121024,-0.0118295809777,0.0,-0.00645428422903,0.0114032468935,-0.999914150403,0.0,0.337690062883,-0.164662443863,0.30498642875,1.0,-0.228492,-0.300303771429,2.555
-0.329002596965,-0.509846784259,-0.138680454188,-2.63274404358,-0.0701015811244,2.11524124419,-0.587322246722,-0.980363245884,-0.235661735635,-0.000119928072664,-0.181329834828,-0.0338617538195,-0.0598962351123,-0.946264365736,0.57392432315,0.818876362347,0.00575511839745,0.0,0.818872392452,-0.57383917262,-0.011719886861,0.0,-0.00629474713369,0.0114392559462,-0.999914756158,0.0,0.333854603026,-0.169743610741,0.305023485381,1.0,-0.222896571429,-0.292949779592,2.572
-0.347327351494,-0.513872248467,-0.138523534691,-2.63590738447,-0.0706916728921,2.11406578517,-0.605036308277,-0.952435212112,-0.199061192,0.0131069711012,-0.165954766427,-0.0348815227813,-0.0630294005429,-0.927275136677,0.57387713057,0.818909228736,0.00578454847452,0.0,0.818904459472,-0.573789744064,-0.0118980151652,0.0,-0.00642440352338,0.0115652140105,-0.999912482602,0.0,0.329632918054,-0.175217613815,0.304979002805,1.0,-0.216642857143,-0.284730612245,2.591
-0.361688285158,-0.516633154055,-0.138444884716,-2.63812822794,-0.0710971147261,2.11328133537,-0.618823529509,-0.942103268966,-0.174283964042,0.0126017119942,-0.144551201245,-0.0224427276142,-0.0509135370619,-0.913976781248,0.573989131385,0.818830350368,0.00583791646185,0.0,0.818825267025,-0.573899696628,-0.0120443843161,0.0,-0.00651205432032,0.0116938043394,-0.999910420032,0.0,0.326350389884,-0.179501965937,0.304923525346,1.0,-0.211705714286,-0.278241795918,2.606
-0.378406941978,-0.519510008283,-0.138217997443,-2.64041755914,-0.0714676645085,2.11249071683,-0.634973510511,-0.927774320417,-0.158623021729,0.00969099809878,-0.119604816792,-0.0258476120753,-0.0448608866031,-0.899995483901,0.574002375312,0.818820620972,0.00590006005248,0.0,0.818815736005,-0.573911576248,-0.0121260059513,0.0,-0.006543036932,0.0117916452591,-0.999909068751,0.0,0.322586598507,-0.184433397285,0.304880652469,1.0,-0.205781142857,-0.270455216327,2.624
-0.393911066124,-0.521859915528,-0.13798889554,-2.64222049551,-0.0717831462601,2.11177544275,-0.649995331082,-0.899172618245,-0.126205249882,0.0243526142949,-0.103002584403,-0.0165445776205,-0.0452394468947,-0.874455782309,0.573994682735,0.818825725517,0.00593989256182,0.0,0.818820967951,-0.573903004388,-0.012178296218,0.0,-0.00656310640947,0.0118542140813,-0.999908197408,0.0,0.319121243616,-0.188992407101,0.304869450291,1.0,-0.200185714286,-0.26310122449,2.641
-0.40725460698,-0.523711227852,-0.137838555121,-2.64356237138,-0.071988714825,2.11122745975,-0.662934435997,-0.902087723241,-0.1161012676,0.0098626984687,-0.0807764414147,-0.0156323957441,-0.0361117975432,-0.85092783285,0.574052494399,0.818784424497,0.00604539297173,0.0,0.818781254686,-0.573960726462,-0.0121279988403,0.0,-0.00646052279404,0.0119121917754,-0.99990817645,0.0,0.316151502446,-0.192917153209,0.304895748331,1.0,-0.195248571429,-0.256612408163,2.656
-0.42212074537,-0.525496821304,-0.137586746775,-2.64486055829,-0.0721926071409,2.11071357106,-0.677362844913,-0.855595466845,-0.0995727475248,0.0126323442888,-0.0809202949139,-0.0088035708279,-0.0267962016093,-0.845343892728,0.574069202717,0.81877220385,0.00611355829852,0.0,0.818770377217,-0.573977981834,-0.0120454415941,0.0,-0.00635354723181,0.0119207469978,-0.999908759952,0.0,0.31286754721,-0.19725845863,0.3049223835,1.0,-0.189653142857,-0.249258416327,2.673
-0.436655978456,-0.526936391369,-0.137415769647,-2.6459118887,-0.0723834594178,2.11026481459,-0.691434769566,-0.854063892159,-0.0804290418148,0.0102914576292,-0.054359861195,-0.0140470279593,-0.0266047228783,-0.82730070464,0.574184304886,0.818690945171,0.00618605037198,0.0,0.818690260584,-0.574093124611,-0.0120036828136,0.0,-0.00627605827472,0.011957015673,-0.999908816277,0.0,0.30964925159,-0.20151577645,0.304937223594,1.0,-0.184057714286,-0.24190442449,2.69
-0.44983341175,-0.528016458408,-0.137095148385,-2.64673787376,-0.0724731738448,2.1099048374,-0.704319691047,-0.814328585802,-0.0584352243676,0.019539884247,-0.0510573262347,-0.00316358473994,-0.0218940979234,-0.794449676291,0.574110708649,0.818742343469,0.0062141875506,0.0,0.818741969539,-0.574019317777,-0.0120065413936,0.0,-0.00626332072753,0.011981130816,-0.999908607483,0.0,0.306753215614,-0.205308431661,0.304934097823,1.0,-0.178791428571,-0.234983020408,2.706
-0.464458567924,-0.528932913508,-0.13682880672,-2.64744857721,-0.0725651321893,2.10956556145,-0.718454855931,-0.810317366811,-0.0392515430506,0.0187846759187,-0.0331581297479,-0.00722260786031,-0.0226368581823,-0.773519154507,0.574243164723,0.818649070888,0.00626365738022,0.0,0.818649140869,-0.574151147472,-0.0120329095771,0.0,-0.00625456459294,0.0120377855741,-0.999907981836,0.0,0.303528870625,-0.20953845106,0.304923640026,1.0,-0.172866857143,-0.227196440816,2.724
-0.476874098494,-0.529497784271,-0.136458166988,-2.64788311727,-0.0725917912378,2.10934894582,-0.730661496271,-0.763060306287,-0.028035602155,0.023292479822,-0.0224244457616,-0.0016441900645,-0.0133933593654,-0.753155301218,0.574105293414,0.818745768713,0.0062630017096,0.0,0.818745883187,-0.574013410894,-0.0120220539033,0.0,-0.00624807908567,0.0120299632638,-0.999908116525,0.0,0.300663368724,-0.213307951739,0.304923320212,1.0,-0.167271428571,-0.21984244898,2.741
-0.489869098016,-0.529859078398,-0.13620182423,-2.64818046731,-0.0726035103467,2.10913848288,-0.743246322727,-0.759828564609,-0.0172188471208,0.0148441750572,-0.0190922343158,-0.000582900865603,-0.0146027020881,-0.733441439216,0.574248836663,0.818644775637,0.00630490395751,0.0,0.818645102861,-0.574156096459,-0.012071427483,0.0,-0.00626233256792,0.0120937147793,-0.999907258326,0.0,0.297971967069,-0.21683518274,0.304908717011,1.0,-0.162005142857,-0.212921044898,2.757
-0.50223952393,-0.530030683787,-0.135787543071,-2.64833945437,-0.0726031181982,2.10901018426,-0.755513415414,-0.72185082014,-0.0075065213904,0.0187073784514,-0.0078120627802,-0.00156472165634,-0.00307309929095,-0.706450346507,0.574032490782,0.818796829407,0.00626087693973,0.0,0.81879650496,-0.573939843903,-0.0120866019486,0.0,-0.00630322597693,0.0120647186611,-0.999907351661,0.0,0.29528308392,-0.220355814811,0.304898788702,1.0,-0.156409714286,-0.205567053061,2.774
-0.514473482687,-0.530083744607,-0.13550953697,-2.64839775466,-0.0726044619355,2.10889970176,-0.767345213665,-0.72039070657,-0.000784939485185,0.0096971269742,-0.0019673428465,-0.0013983949751,-0.00903884720457,-0.691172631989,0.574161962904,0.818706000569,0.00626672858229,0.0,0.818705589694,-0.574068950403,-0.0121138138977,0.0,-0.00632023951232,0.0120861295806,-0.999906985696,0.0,0.292583831629,-0.223859497595,0.304889363352,1.0,-0.150814285714,-0.198213061225,2.791
-0.525384405307,-0.529999421238,-0.135129199262,-2.64835203054,-0.0725709365805,2.10887737049,-0.778126523633,-0.673980722935,0.00872215380221,0.0227678743874,0.00816790118606,0.00364073449643,-0.000241855147254,-0.667942822769,0.574017041333,0.818807932705,0.00622515055548,0.0,0.818807154066,-0.573924578322,-0.0120900682085,0.0,-0.00632679865898,0.0120373347485,-0.99990753282,0.0,0.290204058539,-0.226950817466,0.304887279235,1.0,-0.145548,-0.191291657143,2.807
-0.536689293197,-0.529784080148,-0.134810596465,-2.64821273411,-0.0725488167022,2.10887540586,-0.789126364283,-0.662160597822,0.0137903424108,0.0117503212295,0.013259012514,0.00781794971362,0.000223516018093,-0.637794927939,0.574059858422,0.8187781498,0.00619413115986,0.0,0.818777024546,-0.573967632746,-0.0120866676971,0.0,-0.00634119070313,0.0120103142635,-0.999907766572,0.0,0.287712301804,-0.230168397063,0.304880040459,1.0,-0.139952571429,-0.183937665306,2.824
-0.547582367201,-0.529446879884,-0.134435347757,-2.64795260953,-0.072500892711,2.10889242834,-0.799788517715,-0.622114085301,0.0216430676576,0.0232492453101,0.0179193658733,0.00820321157528,0.00140069072469,-0.615122485691,0.574019722488,0.818806704145,0.00613892032844,0.0,0.818805033198,-0.573928074639,-0.0120677111348,0.0,-0.00635794646653,0.0119539132098,-0.999908336037,0.0,0.285324594537,-0.233254029024,0.304886302827,1.0,-0.134357142857,-0.176583673469,2.841
-0.557281319656,-0.528959533458,-0.134034302563,-2.6476312315,-0.07240961291,2.10892483614,-0.8094221842,-0.603398502298,0.0390811827654,0.0206279653574,0.0219230223169,0.00190093904444,0.00319386707533,-0.595266077874,0.57384795737,0.818927505544,0.00608353413886,0.0,0.818924756796,-0.573755923879,-0.0121296917068,0.0,-0.00644299846986,0.0119427854602,-0.999907924584,0.0,0.283208622194,-0.235980385566,0.304867525131,1.0,-0.129090857143,-0.169662269388,2.857
-0.568028082033,-0.528337126151,-0.133699106177,-2.64717403988,-0.072256501337,2.1090376508,-0.819805663226,-0.587714867505,0.0354199096636,0.0176336994458,0.03061520674,0.011811138009,0.00439346734999,-0.574108358073,0.574000338908,0.81882053268,0.00610680737881,0.0,0.818818214593,-0.573908407244,-0.01210861041,0.0,-0.00641015414517,0.0119509416865,-0.99990803823,0.0,0.280852138156,-0.239031182486,0.304866272737,1.0,-0.123166285714,-0.161875689796,2.875
-0.577439426588,-0.527584573438,-0.133276040315,-2.64664036591,-0.0720635327015,2.1091564813,-0.829206307232,-0.540999399223,0.0436961962452,0.024511923162,0.0321881668795,0.0122235328733,-0.000144687101588,-0.534502147394,0.573823258295,0.818944707957,0.00609757741002,0.0,0.818942060893,-0.573731016837,-0.0121395271809,0.0,-0.00644335630881,0.0119597359137,-0.99990771968,0.0,0.278823443543,-0.24167925204,0.304854832042,1.0,-0.117570857143,-0.154521697959,2.892
-0.586122959935,-0.526839753448,-0.13294408523,-2.6460949345,-0.0718822465598,2.1092767599,-0.837660299405,-0.540475304453,0.0476049853112,0.0210182794602,0.036497674628,0.0195924272445,0.00387559419529,-0.512936924,0.57388505342,0.818901287951,0.00611334237285,0.0,0.81889871592,-0.573792486003,-0.0121582471344,0.0,-0.00644873847791,0.0119838752521,-0.999907395965,0.0,0.276931441113,-0.24413375529,0.30484916414,1.0,-0.112304571429,-0.147600293878,2.908
-0.594971359174,-0.525974221541,-0.132622623643,-2.64543004823,-0.0716732198934,2.10942935349,-0.846246534923,-0.510049751754,0.055772353277,0.0217797791802,0.0421357032646,0.0056819132407,0.00448687681272,-0.498681043913,0.573999118254,0.818821102394,0.00614503206211,0.0,0.818819006531,-0.573906501693,-0.0121453184194,0.0,-0.0064182927356,0.0120033022126,-0.999907358836,0.0,0.275008704099,-0.246650004749,0.304855919371,1.0,-0.106709142857,-0.140246302041,2.925
-0.603076534501,-0.525015755096,-0.132165128546,-2.64473776436,-0.0714035726569,2.10959286082,-0.854388515159,-0.473296991304,0.0553622253385,0.0243202431451,0.0399135959919,0.0184446457411,0.00907408794644,-0.469284808766,0.573799600169,0.818960885747,0.00615088319479,0.0,0.818958573234,-0.573706452868,-0.0121863926507,0.0,-0.00645150175098,0.0120300973725,-0.9999068231,0.0,0.273287931625,-0.248917943562,0.304845215927,1.0,-0.101113714286,-0.132892310204,2.942
-0.610552689295,-0.524165848986,-0.131805717355,-2.64410191512,-0.0711906747642,2.10973715048,-0.861628628434,-0.45696923668,0.0464482856421,0.0236533846507,0.0382157810092,0.0144897767867,0.0107884228132,-0.443446039259,0.573865062649,0.818914975945,0.0061562119279,0.0,0.818912622357,-0.573771670681,-0.0122038423801,0.0,-0.00646177369535,0.0120449903291,-0.99990657748,0.0,0.271667236111,-0.251016001666,0.304844198352,1.0,-0.0958474285715,-0.125970906123,2.958
-0.618118541615,-0.523223012228,-0.131451578408,-2.64334901822,-0.0709412500657,2.10991507448,-0.868936962296,-0.434967981093,0.0536233647432,0.0177318216665,0.0406467477433,0.0147210010837,0.00832311482023,-0.419666105917,0.573972096565,0.81883976568,0.00618202283933,0.0,0.818838021722,-0.57387907454,-0.0121593128645,0.0,-0.00640891874256,0.0120414134842,-0.999906960733,0.0,0.269949590536,-0.253277795096,0.304866434679,1.0,-0.0899228571429,-0.118184326531,2.976
-0.625048846925,-0.522225755825,-0.131035771549,-2.64260221643,-0.0706543157814,2.11010985262,-0.875833580318,-0.389703632574,0.0552775659692,0.0354499412692,0.0427234827486,0.017049839109,0.00817962926206,-0.397361706317,0.573870318359,0.818910950334,0.00620161512607,0.0,0.818909394126,-0.57377710182,-0.0121650540604,0.0,-0.0064038745223,0.0120599565236,-0.999906769574,0.0,0.268576394418,-0.255100461944,0.304865316871,1.0,-0.0846565714286,-0.111262922449,2.992
-0.631624349724,-0.52130437719,-0.130628676321,-2.64189986763,-0.070390799438,2.11028964684,-0.882282999345,-0.382429492432,0.0567464477785,0.0189624603352,0.0390076891035,0.0147022992296,0.0107895902144,-0.371076905567,0.573836291137,0.818934744479,0.00620823325255,0.0,0.818933324859,-0.573743146612,-0.0121555770175,0.0,-0.00639281615913,0.0120596725174,-0.999906843761,0.0,0.267174522818,-0.256932349123,0.304871665509,1.0,-0.0790611428572,-0.103908930612,3.009
-0.637889365682,-0.520394605253,-0.130236004185,-2.64116796798,-0.0701400923798,2.1104910932,-0.888298731182,-0.356989728015,0.0579479430973,0.0247195066772,0.0422393041644,0.00889314592335,0.0147331903654,-0.341074753439,0.573908969275,0.818883876169,0.00619993849591,0.0,0.818882796739,-0.573816693827,-0.0120877620838,0.0,-0.00634096734298,0.0120145293704,-0.999907717351,0.0,0.265847009045,-0.258689286357,0.304896885423,1.0,-0.0734657142858,-0.0965549387756,3.026
-0.643972758571,-0.519396093845,-0.129878836194,-2.64041857694,-0.0698256789975,2.11068837538,-0.894246091505,-0.32846606932,0.0571250448692,0.0182091826649,0.0363830505265,0.0217851615599,0.0145710278433,-0.312397461562,0.573942214936,0.818860094444,0.00626310963034,0.0,0.818859764418,-0.573849511333,-0.0120901390104,0.0,-0.00630617138448,0.0120678819831,-0.999907294916,0.0,0.264554812684,-0.260395084514,0.304895924454,1.0,-0.0675411428572,-0.0887683591838,3.044
-0.648392164986,-0.518677599975,-0.129586470134,-2.63989761519,-0.0696058823452,2.11083746328,-0.898503381976,-0.310675988963,0.0515036211702,0.0253029672183,0.0369594780188,0.0196491737627,0.0141364091549,-0.294562517529,0.573989852911,0.81882651434,0.00628769201332,0.0,0.818826399522,-0.573896827167,-0.0121039710369,0.0,-0.0063026872634,0.0120963176593,-0.999906973289,0.0,0.263611501279,-0.26161890043,0.304888190172,1.0,-0.0629331428572,-0.0827121306123,3.058
-0.653550698585,-0.517794989403,-0.129103445534,-2.63926235287,-0.0693190581596,2.11100686812,-0.903644116349,-0.278796011885,0.047713528038,0.0253487733269,0.0380693140389,0.0207881406412,0.0060697010419,-0.274196674087,0.573818710969,0.818946570592,0.00627282701032,0.0,0.81894602389,-0.573725334329,-0.0121407415564,0.0,-0.00634386102731,0.0121039244468,-0.99990662086,0.0,0.262541831354,-0.263014929468,0.304878165264,1.0,-0.0570085714286,-0.0749255510205,3.076
-0.658341803954,-0.516983834175,-0.128669732381,-2.63865053104,-0.0690457696198,2.11120109683,-0.908180113561,-0.261184802641,0.0463160578887,0.0211417769954,0.0284085228974,0.0123034896869,0.0134198583129,-0.247834236241,0.573869335958,0.818911179447,0.00626197458858,0.0,0.818910707857,-0.573776410907,-0.0121090769669,0.0,-0.00632340694155,0.0120772585256,-0.999907072858,0.0,0.261550171765,-0.264321211575,0.304884449245,1.0,-0.0510840000001,-0.0671389714287,3.094
-0.661964816963,-0.516281639336,-0.128336540486,-2.63814683395,-0.0688119679624,2.11134893329,-0.911652072593,-0.231810180987,0.0481853004794,0.0231487761053,0.0353414419191,0.0164737869422,0.0138085023068,-0.214897713287,0.573883414647,0.818901231937,0.00627260915501,0.0,0.818900760008,-0.573790173047,-0.0121296939043,0.0,-0.00633398173751,0.0120979074829,-0.999906756308,0.0,0.260807171321,-0.26531201449,0.304875150542,1.0,-0.0461468571429,-0.0606501551021,3.109
-0.665852721686,-0.515564184617,-0.127953355592,-2.6376474585,-0.0685529291124,2.1115000984,-0.915387653542,-0.211275984941,0.0366048942118,0.0233424879422,0.0251337773058,0.016966008285,0.00813152432415,-0.19498409872,0.573873485856,0.818908096496,0.00628479317724,0.0,0.818907556354,-0.573779757124,-0.0121635258826,0.0,-0.00635484507489,0.0121272231082,-0.999906268809,0.0,0.260002674671,-0.26635544042,0.304859582709,1.0,-0.0402222857144,-0.0528635755103,3.127
-0.669171129638,-0.515011995239,-0.127601952952,-2.63722506902,-0.0683148069224,2.11162392447,-0.918413114293,-0.190305945808,0.0331318043438,0.0232498807487,0.0242222426792,0.0155878371848,0.00803679118504,-0.168401361719,0.573987779053,0.818827919382,0.00629403209409,0.0,0.818827646245,-0.573894262973,-0.0121411520391,0.0,-0.00632952721633,0.0121228337812,-0.99990648262,0.0,0.259319504549,-0.267236491364,0.304866764876,1.0,-0.0346268571429,-0.0455095836736,3.144
-0.671860964085,-0.514516177646,-0.12723335157,-2.63685417309,-0.0680879047575,2.11173632295,-0.920991747819,-0.157710922981,0.0332485845011,0.0316658003287,0.0186757991176,0.0121318879013,0.00452927086606,-0.150483303807,0.573933413789,0.818866079582,0.00628706199332,0.0,0.818865791966,-0.573840087713,-0.0121291130508,0.0,-0.00632447281268,0.0121097964089,-0.999906672582,0.0,0.258792729028,-0.267936431108,0.304870686993,1.0,-0.0293605714286,-0.0385881795919,3.16
-0.674283610867,-0.514077983701,-0.126833626922,-2.63651776878,-0.0678293877555,2.11182998341,-0.923263862484,-0.134526499496,0.0244235094638,0.0249523117752,0.0209222470135,0.0117758749324,0.00490200822492,-0.118165255991,0.573900622462,0.818889016842,0.00629289553413,0.0,0.818888907892,-0.573807473805,-0.0121114176642,0.0,-0.00630711784584,0.0121041655305,-0.999906850382,0.0,0.25833651281,-0.268545771657,0.304879290573,1.0,-0.0237651428572,-0.0312341877552,3.177
-0.676303631942,-0.513743598712,-0.126422552033,-2.63625032298,-0.0676125811769,2.11189714244,-0.925061455122,-0.109325973891,0.0199299891156,0.022701737095,0.0118704362368,0.0156203887572,-4.51355284078e-05,-0.104635027193,0.573897012918,0.81889178754,0.00626145070146,0.0,0.818891418216,-0.573804292708,-0.012092383727,0.0,-0.00630962791465,0.0120674634811,-0.999907278162,0.0,0.257968833989,-0.269032018699,0.304892831551,1.0,-0.01987,-0.0261148571429,3.194
-0.677946710844,-0.513446440431,-0.126152617883,-2.6360328396,-0.0674159766463,2.11195947411,-0.926585028875,-0.0958443508533,0.0154586747068,0.0120251887844,0.0125986924055,0.0129281589432,0.00299914130349,-0.0923186564869,0.573898308256,0.818890691786,0.00628598341043,0.0,0.818890635833,-0.573805465903,-0.0120896958709,0.0,-0.00629332894181,0.0120860216528,-0.999907156736,0.0,0.257657063698,-0.269439580925,0.304893604875,1.0,-0.01955,-0.0256942857143,3.21
-0.679616631708,-0.513114435594,-0.125956288536,-2.63578147409,-0.0672792325135,2.11205214684,-0.928199651256,-0.0893704379635,0.0159437902622,0.0120202968734,0.017112209612,0.0110287447227,0.00580135053887,-0.0856316527797,0.573875472129,0.818906668774,0.00628945368819,0.0,0.818906823127,-0.573782936763,-0.0120624797527,0.0,-0.00626938460864,0.0120730702461,-0.999907463614,0.0,0.257326675418,-0.269888015321,0.304897646347,1.0,-0.01919,-0.0252211428571,3.228
-0.681129753977,-0.512795437543,-0.125810456783,-2.63553535061,-0.0672186762827,2.11211299019,-0.929708778659,-0.0860945602666,0.021165576399,0.00993401992694,0.0102298625167,0.00461475500023,0.00221362745895,-0.0842413835653,0.573813680001,0.818950217819,0.00625685850663,0.0,0.818949943521,-0.573721294592,-0.0120670228125,0.0,-0.00629271915255,0.0120485086584,-0.999907613295,0.0,0.257013653145,-0.270308228672,0.304900120916,1.0,-0.01885,-0.0247742857143,3.245
-0.682415898823,-0.512521271427,-0.125726918999,-2.63533502633,-0.0671796848889,2.1121524964,-0.930931253818,-0.0908216047519,0.0146629421404,0.00738649025308,0.0141645185871,0.000438751589339,-0.000194251267915,-0.083775694293,0.573833538283,0.818936421721,0.00624134768801,0.0,0.818935784572,-0.573740910379,-0.0120952638031,0.0,-0.00632445731954,0.0120521630317,-0.999907369013,0.0,0.25673282713,-0.270670784664,0.304895043335,1.0,-0.01855,-0.02438,3.26
-0.68389118901,-0.512210159599,-0.12567386671,-2.63508973826,-0.067131818792,2.11220240181,-0.932473605443,-0.0792230626811,0.011844539293,0.00373400253402,0.0143587123881,0.00336048067448,0.00662023288849,-0.080518032751,0.573774044482,0.818978076677,0.00624521441755,0.0,0.81897743792,-0.573681313095,-0.0121018215579,0.0,-0.00632848557911,0.0120586329699,-0.999907265521,0.0,0.256404859505,-0.271099931874,0.304896861792,1.0,-0.01819,-0.0239068571429,3.278
-0.685240814403,-0.511919737022,-0.125649560081,-2.63484219348,-0.067077970557,2.11228719996,-0.93380745305,-0.0770328546676,0.0161356571488,-0.0004410495693,0.0138793383506,0.00308097251604,0.0107441280803,-0.0801255804459,0.573805371357,0.818956026194,0.00625858322231,0.0,0.8189558752,-0.573713173375,-0.0120505631569,0.0,-0.00627837055319,0.0120404131829,-0.999907801006,0.0,0.256110613147,-0.271508095285,0.304909633529,1.0,-0.01785,-0.02346,3.295
-0.686497822576,-0.511643874269,-0.125643450507,-2.6346273142,-0.0670410577624,2.1123358825,-0.93508068599,-0.0746612925758,0.0109909738614,0.00182199653745,0.0164507870378,0.00158478220247,0.000416726443314,-0.0753202251351,0.573814663098,0.818949382287,0.00627603115802,0.0,0.818949418855,-0.573722310082,-0.0120543424656,0.0,-0.00627131796428,0.0120569426639,-0.999907646088,0.0,0.25582278408,-0.271884102129,0.304909416387,1.0,-0.01753,-0.0230394285714,3.311
-0.687817141903,-0.511366510492,-0.125640301563,-2.63442677818,-0.0670002404169,2.11235594909,-0.936379903577,-0.0770548363549,0.0148175941626,0.000510272559572,0.0120153510554,0.000323849413075,-0.000117106712583,-0.0711571903651,0.573862141747,0.818915885635,0.00630566611055,0.0,0.818916085909,-0.573769218541,-0.0120861489191,0.0,-0.00627966313235,0.0120998276737,-0.999907075683,0.0,0.255492928698,-0.272293270852,0.304904973024,1.0,-0.01717,-0.0225662857143,3.329
-0.68909933118,-0.51109795164,-0.125631153214,-2.63422235328,-0.0669714627087,2.11242969223,-0.937639867278,-0.0768457639073,0.0175306692498,0.00103048598291,0.014825769795,0.00318437094476,0.00394628978142,-0.0758016690175,0.573891442362,0.818895301589,0.00631223575615,0.0,0.818895596133,-0.573798499973,-0.0120843272299,0.0,-0.0062739681764,0.0121043870934,-0.999907056249,0.0,0.255215420461,-0.272650953958,0.304899497731,1.0,-0.01685,-0.0221457142857,3.345
-0.690265334705,-0.510865641147,-0.125613788988,-2.63402000389,-0.0669410174044,2.112505302,-0.938883723121,-0.0709759619746,0.017237041564,0.00556684242729,0.0155950925496,0.000606805437489,0.00520144583851,-0.0737044783409,0.573830158439,0.818938277045,0.00630829282284,0.0,0.81893882899,-0.573737843629,-0.0120344531391,0.0,-0.00623628806559,0.0120720705135,-0.999907682651,0.0,0.254940529005,-0.273023290097,0.304911374831,1.0,-0.01651,-0.0216988571429,3.362
-0.691568203948,-0.510575341117,-0.125580050325,-2.63378426967,-0.0669069951893,2.11254508249,-0.940190309898,-0.0703657520986,0.0165415522723,0.00132097877791,0.0141133457184,-0.000864699538797,0.00469098393626,-0.0690791065545,0.57383828098,0.818932542618,0.00631385968045,0.0,0.818933131691,-0.573745871399,-0.0120394258086,0.0,-0.00623704674733,0.0120795448598,-0.999907587652,0.0,0.25466156749,-0.273387417055,0.304915917024,1.0,-0.01617,-0.021252,3.379
-0.692628311062,-0.510352330208,-0.125536762971,-2.63361853285,-0.0668815161342,2.11259226008,-0.94128746625,-0.0696443208563,0.0156022622397,0.00328628836948,0.00913648444242,-3.89327794917e-05,0.0025080047858,-0.0740317900395,0.573796604189,0.818961799093,0.00630678591171,0.0,0.818962268465,-0.573704181535,-0.0120441613023,0.0,-0.00624559880626,0.0120761510559,-0.999907575264,0.0,0.254422595685,-0.273692728245,0.304913597665,1.0,-0.01587,-0.0208577142857,3.394
-0.693787654984,-0.510084493988,-0.1255086317,-2.63341171966,-0.0668464204741,2.11265129198,-0.94247051069,-0.0691914800501,0.0180192037951,0.00804490323333,0.011437859706,-0.000114764956492,0.00019063597064,-0.0589823049264,0.573782845698,0.818971412052,0.00631023967402,0.0,0.818971952328,-0.573690460951,-0.0120392364662,0.0,-0.00623978631672,0.0120760491665,-0.999907612784,0.0,0.254163306225,-0.274037228531,0.304913960244,1.0,-0.01553,-0.0204108571429,3.411
-0.694916672013,-0.509813046115,-0.125486225665,-2.63320424091,-0.0668067570781,2.11269303451,-0.943584006912,-0.0621968317673,0.0149631919286,0.00336729030627,0.0110426580987,0.00934637019772,0.00721620823004,-0.0523887277586,0.573807298352,0.81895418602,0.00632237771668,0.0,0.81895478396,-0.573714660123,-0.012053940882,0.0,-0.00624450478654,0.0120946135879,-0.99990735895,0.0,0.253908442198,-0.274372123257,0.304911657566,1.0,-0.01519,-0.019964,3.428
-0.69599999421,-0.509554273236,-0.125475225391,-2.63301762736,-0.0667820646751,2.11274330193,-0.944698607474,-0.0660353669968,0.0114227950852,0.00179444033704,0.0132924834962,0.000376775590209,-0.000146733385991,-0.0725654234713,0.573794123287,0.818963364799,0.00632914681153,0.0,0.818963945769,-0.573701254125,-0.0120695255337,0.0,-0.00625358018007,0.012108999004,-0.999907128126,0.0,0.253658677013,-0.274694962688,0.30490500856,1.0,-0.01487,-0.0195434285714,3.444
-0.697262457632,-0.509255146996,-0.125447253704,-2.63280032427,-0.0667436057484,2.11279560894,-0.945966089758,-0.0638296068689,0.0144789379827,0.00484768505483,0.0144230548936,0.00399413463934,0.00198020976407,-0.0595175370379,0.573797828542,0.818960697952,0.00633830203923,0.0,0.818961254888,-0.573704639912,-0.0120911552733,0.0,-0.00626598831231,0.0121289359519,-0.999906808809,0.0,0.253370592124,-0.275065854582,0.30489788856,1.0,-0.01449,-0.019044,3.463
-0.698307144047,-0.509019322163,-0.125430836322,-2.63261783417,-0.0667190885953,2.11283682404,-0.946977202053,-0.0667880055569,0.0188489685268,0.00313453654503,0.0159797664361,0.00599199580834,0.00436734449472,-0.0617022761723,0.573833523586,0.81893566336,0.00634140266518,0.0,0.818936220601,-0.573740235449,-0.0120977566095,0.0,-0.00626908717529,0.0121355362813,-0.999906709301,0.0,0.25313008083,-0.275375289891,0.30489719117,1.0,-0.01417,-0.0186234285714,3.479
-0.699365408561,-0.508775751244,-0.125407050663,-2.63242601644,-0.0666842665948,2.11288784998,-0.948051547556,-0.0629985921381,0.0166036739948,-0.000574701136019,0.0130877771964,0.00481112136529,0.00160232105999,-0.0650775287284,0.573828153267,0.818939378146,0.00634762484375,0.0,0.818940047679,-0.573734898565,-0.0120917897199,0.0,-0.00626070939612,0.012137167235,-0.999906741996,0.0,0.252891485018,-0.275689225532,0.304898853237,1.0,-0.01383,-0.0181765714286,3.496
-0.700453906097,-0.508517452755,-0.125351857816,-2.63222431988,-0.0666531926175,2.1129410147,-0.949145308331,-0.0572206383459,0.0168802653492,0.00179365418985,0.0108402310843,0.000292131461426,0.00714404203197,-0.058705727591,0.573808146032,0.818953496691,0.00633472233927,0.0,0.818954015704,-0.573714988196,-0.012090466654,0.0,-0.00626732545628,0.0121256880106,-0.999906839822,0.0,0.252653263456,-0.276007061029,0.304900433887,1.0,-0.01347,-0.0177034285714,3.514
-0.701377419726,-0.508285419567,-0.125329664577,-2.63204565446,-0.0666363494724,2.11298855818,-0.950039927296,-0.0538137518832,0.0150719405124,0.00298978565466,0.0139008047797,0.000402084895319,0.00235557756876,-0.061244536987,0.573832383106,0.818936576888,0.00632661318046,0.0,0.818936985315,-0.573739247076,-0.0120928635332,0.0,-0.00627358276987,0.0121206075844,-0.999906862178,0.0,0.252445951005,-0.276284810152,0.304900024108,1.0,-0.01315,-0.0172828571429,3.53
-0.702339451235,-0.508031140503,-0.125309914217,-2.63185542712,-0.0666075736879,2.11304327356,-0.951038490922,-0.0622143699482,0.0151843153032,0.000951010180156,0.0132033434975,0.000635308001605,0.00156923691556,-0.0527401877191,0.573810506525,0.818951883117,0.00632950567685,0.0,0.818952300404,-0.57371730651,-0.0120966431537,0.0,-0.00627534256143,0.0121249776131,-0.999906798154,0.0,0.2522313618,-0.276575259815,0.304897150083,1.0,-0.01281,-0.016836,3.547
-0.703303988504,-0.507796275794,-0.12529412695,-2.63166602046,-0.0665807601706,2.11310486155,-0.952040214208,-0.0592846695595,0.0161484900114,0.00250484861865,0.0102447367485,0.00088591088008,0.00356280637453,-0.0604676173115,0.57378993727,0.818966291331,0.00632996474068,0.0,0.818966846242,-0.573696994278,-0.0120751982854,0.0,-0.00625781909366,0.0121128917379,-0.999907054458,0.0,0.252015923118,-0.276868356784,0.304901583784,1.0,-0.01247,-0.0163891428572,3.564
-0.704311210512,-0.507564819344,-0.125280892699,-2.63146287956,-0.066560201558,2.11314073339,-0.952997326814,-0.051858234573,0.0172235298993,0.000798960488162,0.0152399112039,0.00229840559145,0.00491635612919,-0.0499247432145,0.573840631504,0.818930793713,0.0063270565711,0.0,0.818931393339,-0.573747850372,-0.0120633369702,0.0,-0.00624902332605,0.0121040911998,-0.999907216037,0.0,0.251786317942,-0.277173109279,0.304911245233,1.0,-0.01211,-0.015916,3.582
-0.705185134483,-0.507346822046,-0.125285589505,-2.63129739211,-0.0665397339095,2.1131713243,-0.953870799826,-0.0501199266966,0.0174152489255,-0.000309905825373,0.0101858541765,5.83663822031e-05,0.00363689272099,-0.0585151493572,0.57386164315,0.81891597812,0.00633894331377,0.0,0.818916621023,-0.573768587943,-0.0120798262995,0.0,-0.00625539665116,0.0121234484225,-0.999906941676,0.0,0.25158050922,-0.277437227806,0.304907924747,1.0,-0.01179,-0.0154954285714,3.598
