nelsonifechukwu/NELSON_IML_WORK/CNN-GradCAM/train2dof/data_sample_2022-02-21-14-12-16/robot_state.csv
position_joint1,position_joint2,position_joint3,position_joint4,position_joint5,position_joint6,position_joint7,velocity_joint1,velocity_joint2,velocity_joint3,velocity_joint4,velocity_joint5,velocity_joint6,velocity_joint7,ee_T_00,ee_T_10,ee_T_20,ee_T_30,ee_T_01,ee_T_11,ee_T_21,ee_T_31,ee_T_02,ee_T_12,ee_T_22,ee_T_32,ee_T_03,ee_T_13,ee_T_23,ee_T_33,v_x,v_y,time
0.46508183894,0.547817673677,-0.123987457463,-1.35575477447,0.0794843747748,1.8940868503,0.159153630702,0.000758211754022,-0.0011056989531,-0.000426743799411,0.000986660342149,0.000224701346606,-0.0014261614949,0.000599257876471,0.573785336456,0.818991638738,0.00195710160956,0.0,0.818948781955,-0.573726930628,-0.0118763844542,0.0,-0.00860398332035,0.00841742329071,-0.999927556604,0.0,0.661689824444,0.260901835234,0.303224508832,1.0,0.0,0.0,0.0
0.465075876002,0.547817583469,-0.123983141035,-1.35576030261,0.0794830523464,1.89408685176,0.159151749403,0.000301235656789,-0.0014312679519,0.00119673880925,-0.00037570797389,-0.000279584746213,0.00383426869387,-0.000429507879892,0.573785614717,0.818991453602,0.00195299050835,0.0,0.818948527532,-0.57372721032,-0.0118804163402,0.0,-0.00860964141395,0.00841637273519,-0.999927516745,0.0,0.661689197611,0.260899517188,0.303221796385,1.0,-0.00022,-0.000289142857143,0.012
0.465073252623,0.547817267096,-0.123985363939,-1.35576419448,0.0794837642068,1.89408603795,0.159150121798,-0.000613672241116,-0.000418534557958,0.000913662658297,0.000104722077675,-0.000163262302664,-0.000277514543665,-0.0013432562346,0.573788378202,0.818989526364,0.0019492682165,0.0,0.81894655154,-0.573729988491,-0.0118824630211,0.0,-0.00861342496543,0.00841452767561,-0.999927499689,0.0,0.661689305867,0.260896096239,0.303220172408,1.0,-0.00058,-0.000762285714286,0.03
0.465077977044,0.547790388692,-0.123988156747,-1.35578022194,0.0794825683853,1.89408995325,0.159149822577,0.00118681428772,-0.00467081356049,-0.000103550945486,0.00100921345308,-0.000158400566057,-0.000132774365357,0.000127194145434,0.57378675343,0.818990635349,0.00196155534022,0.0,0.818947834535,-0.573728327199,-0.0118742486815,0.0,-0.0085996641781,0.00841986020699,-0.999927573242,0.0,0.661686601885,0.260896131954,0.303232015636,1.0,-0.0009,-0.00118285714286,0.046
0.465080130665,0.547691509271,-0.123985089168,-1.35589260421,0.0794818733822,1.89410956563,0.159150953527,0.00190430498465,-0.00847736328134,0.00077563285865,-0.00698720806631,0.0003327769639,-2.65294054655e-05,-0.000363336892953,0.573789685196,0.818988555505,0.00197231239179,0.0,0.818945795475,-0.573731117254,-0.0118800702451,0.0,-0.00859823011979,0.00843204104959,-0.999927482932,0.0,0.661666138561,0.260888511602,0.303250174548,1.0,-0.00124,-0.00162971428571,0.063
0.465074422716,0.547559139451,-0.123983266013,-1.35608277176,0.079476269268,1.89415391711,0.159144507718,0.000563838389507,-0.00362511958509,0.00073395058015,-0.0130956209404,-0.00015036688743,0.00641258630467,-0.00156060153236,0.57379677651,0.818983603313,0.00196562259451,0.0,0.818940658848,-0.573738139827,-0.0118950029239,0.0,-0.00861422555559,0.00843520500074,-0.999927318576,0.0,0.661636267244,0.260867055973,0.30325721378,1.0,-0.00158,-0.00207657142857,0.08
0.465058607258,0.547399074191,-0.123987840897,-1.35627795456,0.0794720888042,1.89424285244,0.159139709706,0.000608475101,-0.0167506436172,-0.000188082839914,-0.0113167291692,-9.82731395178e-05,0.00289361017824,-0.00176072121334,0.573818876126,0.818968000686,0.00201448614129,0.0,0.818925671204,-0.573760015775,-0.0118716570917,0.0,-0.00856684061124,0.00846205826635,-0.999927498778,0.0,0.661618898517,0.260838250452,0.303285566713,1.0,-0.0019,-0.00249714285714,0.096
0.465033906626,0.54721431957,-0.123983301344,-1.3565012345,0.079471912554,1.89435676792,0.159135667952,-0.00328294055647,-0.0151810795744,0.000816140436895,-0.0160221935254,0.000264531795436,0.00315865874396,0.00122262380797,0.573845220639,0.81894936082,0.00208663931784,0.0,0.818907872473,-0.573785968814,-0.0118450535788,0.0,-0.00850337841104,0.00850615651865,-0.999927666312,0.0,0.661600714882,0.260808179358,0.303319904732,1.0,-0.00224,-0.002944,0.113
0.464998043888,0.546954920265,-0.123986043892,-1.35686397768,0.0794634486932,1.89452603515,0.159117678071,-0.00193926888374,-0.0102682161035,-7.67796522289e-05,-0.0204620083868,-0.00024243955446,0.000602089155271,0.000933886442509,0.573880030431,0.818924808717,0.00214831120851,0.0,0.818884065225,-0.573820472056,-0.0118194954197,0.0,-0.00844669569902,0.00854235467375,-0.999927838151,0.0,0.661568588495,0.260753347489,0.303345757612,1.0,-0.00268,-0.00352228571429,0.135
0.464977916321,0.546801010872,-0.123985968361,-1.35709986343,0.0794609078779,1.89461514699,0.159101329123,-0.00568963185675,-0.0159208225319,-6.31516914205e-05,-0.0231603986406,0.000278089958206,0.0177521449962,0.000146959557091,0.57389560997,0.818913858502,0.00216058130973,0.0,0.818873172088,-0.573835897635,-0.0118252916281,0.0,-0.00844423865754,0.00855588975001,-0.999927743182,0.0,0.661541684573,0.260719736473,0.303350221109,1.0,-0.0029,-0.00381142857143,0.146
0.464928811771,0.546514970654,-0.123986047458,-1.35752245221,0.0794488220382,1.89477698792,0.158985757218,-0.00381582293198,-0.0141955165019,-0.000425093155541,-0.0243785180289,4.7638764085e-05,0.007140255593,-0.00630788482247,0.573861688194,0.81893755111,0.00219022998487,0.0,0.818897132039,-0.573801743502,-0.0118234171815,0.0,-0.00842604475585,0.00857874436452,-0.999927700844,0.0,0.661498046118,0.260649834908,0.303365690646,1.0,-0.00326,-0.00428457142857,0.164
0.464883556319,0.546228050764,-0.123986292702,-1.35799371509,0.079434478991,1.89494085434,0.158924512236,-0.00945699401743,-0.0193586965815,-0.00133623366157,-0.0301325402819,0.000190322759683,0.00753235901122,0.000376745737946,0.573871281431,0.818930855171,0.00218029780932,0.0,0.81889016352,-0.573811228829,-0.0118457022302,0.0,-0.00844989437897,0.00858349800684,-0.999927458792,0.0,0.66144278505,0.260576383725,0.303358774481,1.0,-0.0036,-0.00473142857143,0.181
0.464844295619,0.545932392179,-0.123989126134,-1.3585069279,0.0794023092662,1.8951119932,0.15888767747,0.00100818706572,-0.0199683092162,-0.000204283374381,-0.0406228712899,-0.00419152140298,0.00911499483171,-0.00758034624554,0.573895339941,0.8189141053,0.0021386525475,0.0,0.818872865956,-0.573835444177,-0.0118684164279,0.0,-0.00849214248592,0.00856267827941,-0.999927279384,0.0,0.661379559985,0.260498138459,0.303338745403,1.0,-0.00392,-0.005152,0.197
0.464769637513,0.545569890711,-0.123983814655,-1.35914787708,0.0792944102425,1.89532935209,0.158792587254,-0.0083402969118,-0.0271335161833,0.00101130212919,-0.0393665214007,-0.00529274975007,0.0167012156204,-0.00627066233758,0.573879811896,0.818925195578,0.00205729123174,0.0,0.81888348053,-0.573820828125,-0.0118426950257,0.0,-0.00851792877833,0.00848112868602,-0.999927755063,0.0,0.661314291886,0.260385407845,0.303314979052,1.0,-0.00426,-0.00559885714286,0.214
0.464710941166,0.545204293464,-0.123989322354,-1.35980177025,0.0792795746175,1.89552683161,0.15873761678,-0.00408094087675,-0.0225216328113,0.000773117611369,-0.0416859318213,-0.00030887599781,0.0131241572161,-0.000873684756395,0.573921247281,0.81889633904,0.00198361456162,0.0,0.818853380559,-0.57386227747,-0.0119153071655,0.0,-0.0086192457936,0.00846290037672,-0.999927041298,0.0,0.661225637529,0.260273958839,0.303273717715,1.0,-0.0046,-0.00604571428571,0.231
0.46464737549,0.544799377027,-0.123989933284,-1.36046994904,0.0792591842997,1.89575588841,0.15863722182,-0.00287489316863,-0.0237315686403,0.000380029554223,-0.0445153779441,-7.26831711531e-05,0.0164706373974,-0.0016964016374,0.573923295008,0.818894948034,0.00196530711067,0.0,0.818851538478,-0.57386419294,-0.0119495980903,0.0,-0.008657812818,0.00846761048893,-0.999926668236,0.0,0.661146201845,0.260169822242,0.303262177319,1.0,-0.00492,-0.00646628571429,0.247
0.464582437432,0.544317126311,-0.12399812864,-1.36127296162,0.0792290020767,1.89604739764,0.15853645668,-0.0038975241373,-0.0241604031734,0.00143320069413,-0.049435815022,0.000724789880561,0.00718091588207,-0.00311926917936,0.573936461208,0.818885763105,0.00194740382856,0.0,0.818841976807,-0.573877292998,-0.0119756628407,0.0,-0.00868929626235,0.0084680485882,-0.999926391433,0.0,0.66105280539,0.260048053364,0.303246811037,1.0,-0.00528,-0.00693942857143,0.265
0.464505949502,0.543799662601,-0.123998839622,-1.36209476718,0.0791875787216,1.89633671091,0.158441963302,-0.0025454844912,-0.0308119544354,-0.000202057972638,-0.0453141647724,-0.00481876737844,0.0145586952662,-0.00330427864129,0.57395688877,0.81887146594,0.00193881513574,0.0,0.818827468789,-0.573897658258,-0.0119917097493,0.0,-0.00870715511502,0.00847044259104,-0.999926215804,0.0,0.660957378413,0.259919257042,0.303246901991,1.0,-0.00562,-0.00738628571429,0.282
0.464443530606,0.543315694,-0.124003552987,-1.3628432606,0.0791421659078,1.89659414394,0.158330834144,-0.00416313829777,-0.0344115260176,0.000221534925625,-0.0533742948845,-0.00752757401742,0.012049308924,-0.00343027274005,0.573949729588,0.818876499269,0.00193229208759,0.0,0.818832408201,-0.573890519187,-0.0119960897423,0.0,-0.00871455964604,0.00846753887352,-0.999926175893,0.0,0.660868963666,0.259802902504,0.303255484446,1.0,-0.00592,-0.00778057142857,0.297
0.4643646754,0.542716453472,-0.123998870866,-1.36378976073,0.0790848845247,1.89692960112,0.158221396673,-0.00190217464431,-0.0387159619333,0.00173176476101,-0.0487352163096,-0.00529701779188,0.0167071764266,-0.00460607079769,0.573958689335,0.818870240761,0.00192318354424,0.0,0.818825978891,-0.573899466318,-0.0120069044187,0.0,-0.00872855075414,0.00846638277545,-0.999926063649,0.0,0.66075619264,0.259662519696,0.303257753346,1.0,-0.00628,-0.00825371428571,0.315
0.464295293438,0.542116394428,-0.124007730426,-1.3647191508,0.0790306676629,1.89727906092,0.158092554945,-0.0107418499617,-0.0386749321855,-0.000389264597659,-0.0591463602014,-0.00105461558674,0.0210168968615,-0.00120490319219,0.573953421019,0.818873896498,0.00193882344871,0.0,0.818829864934,-0.573894157321,-0.0119956402931,0.0,-0.00871040496078,0.00847266845129,-0.999926168642,0.0,0.660650506485,0.259524045563,0.303270329593,1.0,-0.00662,-0.00870057142857,0.332
0.464215174425,0.541561654654,-0.124008408114,-1.36556161804,0.0789862632167,1.89759020088,0.15797764315,-0.00932416219992,-0.0402550649818,-0.000209968286871,-0.0571360782568,-0.00138496185981,0.0305887986413,-0.00598143802942,0.573958348708,0.818870368617,0.00196983520061,0.0,0.818826696777,-0.573898908973,-0.0119845661618,0.0,-0.00868348702218,0.0084917589474,-0.999926240821,0.0,0.660549967888,0.259386470671,0.303293144781,1.0,-0.00694,-0.00912114285714,0.348
0.464134523276,0.540834196364,-0.124009219531,-1.36665398366,0.0789226758592,1.89800032763,0.157843239779,-0.00470437607057,-0.0473908868801,0.000497600296205,-0.0643702197847,-0.00568663878081,0.0173877496866,-0.0147692687451,0.57396043703,0.818868826893,0.00200199134294,0.0,0.81882553978,-0.573900827473,-0.0119717388863,0.0,-0.00865450591541,0.0085107499835,-0.999926330617,0.0,0.660429710527,0.259235628085,0.303318462846,1.0,-0.00728,-0.009568,0.365
0.464039490982,0.540073045124,-0.124011263694,-1.36782848479,0.0788519053489,1.8984322737,0.157695312777,-0.00251859224981,-0.0419625391799,0.000371450606434,-0.0713807191098,-0.00656667878955,0.0323282219045,-0.00673201390811,0.573964658626,0.818865830372,0.00201727524795,0.0,0.8188227373,-0.573904979302,-0.011964385233,0.0,-0.00863966827971,0.00851908914522,-0.999926387917,0.0,0.66029361847,0.259060123671,0.303334880455,1.0,-0.00764,-0.0100411428571,0.383
0.463933796745,0.539374512514,-0.124011617487,-1.36891323903,0.0787836063548,1.89884178781,0.157565209368,-0.00475380742672,-0.0452635616905,-0.000155573348932,-0.0693822582949,-0.00256307696524,0.0275659108456,-0.0179790273287,0.57398670198,0.818850336008,0.00203471635408,0.0,0.818807500149,-0.573926976627,-0.0119519914911,0.0,-0.00861927959093,0.00852648935083,-0.999926500798,0.0,0.660174157453,0.258887280412,0.303347643299,1.0,-0.00796,-0.0104617142857,0.399
0.463823670815,0.538622327899,-0.124014774836,-1.37008908434,0.0787207424987,1.899309464,0.157420559072,-0.00887898371106,-0.0449998414294,0.000634246157884,-0.0690964392403,0.000229099439737,0.0252590047713,-0.0105659239479,0.574009021026,0.818834592087,0.00207400160821,0.0,0.81879224534,-0.57394910759,-0.0119343105626,0.0,-0.00858202017965,0.00854874294606,-0.99992663127,0.0,0.660047905957,0.258704609742,0.303359996772,1.0,-0.0083,-0.0109085714286,0.416
0.463721026733,0.537838175007,-0.124023989554,-1.37132653499,0.0786497428768,1.89977630544,0.157264783109,-0.00826657374363,-0.0403081908633,0.00214264401891,-0.0733943758942,-0.00527124046653,0.0218646833194,-0.0106992366075,0.574021328068,0.818825938612,0.0020842456011,0.0,0.818783736291,-0.573961381901,-0.0119277899212,0.0,-0.00857067230438,0.00855351689381,-0.999926687775,0.0,0.65990770907,0.258515112464,0.303365592212,1.0,-0.00864,-0.0113554285714,0.433
0.463600398679,0.537077041719,-0.124026582028,-1.37253936683,0.0785753959419,1.90022453645,0.157112013506,-0.0110633330176,-0.044923904086,-0.000791164481095,-0.0790766401792,-0.0032734334887,0.0329280791876,-0.0135987953885,0.574043751885,0.818810231276,0.00207917778083,0.0,0.818767970823,-0.573983831615,-0.0119297066252,0.0,-0.00857491650534,0.00855070235015,-0.99992667546,0.0,0.659771947127,0.258318423871,0.303364678328,1.0,-0.00896,-0.011776,0.449
0.463485093798,0.536223192294,-0.124033125338,-1.37385636541,0.0784958322177,1.90071885722,0.156950214075,-0.0107066128892,-0.0491581377156,-0.000524980407076,-0.0797145485847,-0.00197151045853,0.0279082388674,-0.00955025663322,0.574061429447,0.81879777545,0.00210357833091,0.0,0.818755863002,-0.57400143722,-0.0119135960093,0.0,-0.00854753349131,0.00856161788436,-0.999926816507,0.0,0.659623205943,0.258114108686,0.303383613441,1.0,-0.0093,-0.0122228571429,0.466
0.463353703573,0.535224901504,-0.124041641783,-1.37543545689,0.0784246172872,1.90128491829,0.156773807654,-0.00680934033136,-0.0594729318754,0.000155225860656,-0.0882260907278,-0.00545088414824,0.0317976004129,-0.0101471264207,0.574098127128,0.818772049701,0.00210189376089,0.0,0.818729896207,-0.574037917862,-0.0119403858445,0.0,-0.00857005247412,0.00857600152582,-0.999926500498,0.0,0.659435511691,0.257875051264,0.303385885058,1.0,-0.00968,-0.0127222857143,0.485
0.463254647923,0.534499073381,-0.124044975726,-1.37663082289,0.0783498585408,1.90172542427,0.156620067305,-0.0112754759743,-0.0513594059298,-0.00133942266302,-0.0897881050258,-0.0131250072727,0.0335478830518,-0.0152228535774,0.574101235428,0.818769942503,0.00207355599201,0.0,0.818727435844,-0.574041158847,-0.0119532692686,0.0,-0.00859683662296,0.00856022864588,-0.999926405735,0.0,0.659295081586,0.25769322993,0.303367298788,1.0,-0.00996,-0.0130902857143,0.499
0.46313266864,0.533570695017,-0.12404140274,-1.37810174061,0.078244217202,1.90226588208,0.156430294276,-0.0088799854417,-0.0562581234804,0.00143656816555,-0.0867370208482,-0.00419877593417,0.0251366244771,-0.013739111187,0.574095320924,0.818774116897,0.00206273923685,0.0,0.818731576833,-0.574035396898,-0.0119463428234,0.0,-0.00859743648614,0.00854733382771,-0.999926510885,0.0,0.659121576852,0.25747207514,0.303368686149,1.0,-0.0103,-0.0135371428571,0.516
0.46299435522,0.532565924499,-0.12405130933,-1.37971734571,0.0781743234963,1.90288155114,0.156233821236,-0.00874780599957,-0.0593216549575,-0.000505277055987,-0.0888135271397,-0.00978622400313,0.0323392249004,-0.0106947110218,0.574124438919,0.818753662093,0.0020775817814,0.0,0.818711115773,-0.574064250975,-0.0119620885796,0.0,-0.00860150400723,0.00856883166897,-0.99992629191,0.0,0.658936306539,0.257227019837,0.303361924155,1.0,-0.01066,-0.0140102857143,0.534
0.462881621167,0.531656808363,-0.124046432849,-1.3811953645,0.078084220077,1.90341789739,0.15603974782,-0.00897667279068,-0.0591495334723,-0.000394833385039,-0.0966153563726,-0.00657189192972,0.0318942180987,-0.0180071544571,0.574110789751,0.818763303311,0.00204966929839,0.0,0.818720333576,-0.574050660866,-0.0119833655454,0.0,-0.00863509219572,0.00855805015783,-0.999926094749,0.0,0.658755488595,0.257013887571,0.303345599873,1.0,-0.01098,-0.0144308571429,0.55
0.462743159305,0.530644524644,-0.124046769257,-1.382833238,0.0779778065267,1.90399433496,0.155841956553,-0.00762505007003,-0.053945877525,0.000329367678337,-0.0948039207352,-0.00876354543865,0.0303838546385,-0.0101522331197,0.574122823807,0.818754979686,0.00200332831204,0.0,0.818711403894,-0.574062887358,-0.012007722238,0.0,-0.00868151308794,0.00853421944375,-0.999925896469,0.0,0.65855637013,0.256763278506,0.303329324538,1.0,-0.01132,-0.0148777142857,0.567
0.462600914401,0.529553103487,-0.124052059032,-1.3845740361,0.0778741573529,1.90463561955,0.155607385362,-0.00622881658635,-0.0584181317205,-0.000987309729602,-0.0960529198037,-0.00815438629652,0.0346152553635,-0.00852607496914,0.574117667687,0.818758614993,0.00199522590019,0.0,0.818714911304,-0.574057744546,-0.0120144428401,0.0,-0.0086917210421,0.00853138935349,-0.99992583194,0.0,0.658349699867,0.256500978681,0.303325365448,1.0,-0.01168,-0.0153508571429,0.585
0.46248230667,0.528642192562,-0.124052125739,-1.38596942632,0.077793711948,1.90516706618,0.155409612839,-0.00957703143684,-0.0694312186471,-0.000218443146075,-0.103608843618,-0.00848045177337,0.043210459647,-0.0161236077426,0.574103280707,0.818768607418,0.00203408175471,0.0,0.81872540059,-0.574043184844,-0.0119953017676,0.0,-0.00865389236936,0.00855206115099,-0.999925983459,0.0,0.658174510451,0.256278348228,0.303349368287,1.0,-0.01198,-0.0157451428571,0.6
0.462328926691,0.527456958092,-0.124052238524,-1.38780570299,0.0776629830296,1.90586910878,0.15515197976,-0.0111567322082,-0.0690866933812,-0.00096124866469,-0.102008974974,-0.00108318724476,0.0378133482428,-0.0183764677417,0.574085908271,0.818780701491,0.00206874165861,0.0,0.818738108595,-0.574025830198,-0.0119583736495,0.0,-0.00860394006992,0.00855905621914,-0.999926354674,0.0,0.657975945448,0.256015318992,0.303369913751,1.0,-0.01232,-0.016192,0.617
0.462179084251,0.526303709449,-0.124053213648,-1.38960112584,0.0775586044306,1.90654981021,0.154920787778,-0.0045111916525,-0.0646288695086,-0.00326624949511,-0.111010297799,-0.0125010589378,0.0425151670386,-0.00866191834328,0.574088911264,0.818778509556,0.00210265429567,0.0,0.818736322592,-0.57402865661,-0.0119449721864,0.0,-0.00857346776862,0.0085791606987,-0.999926444121,0.0,0.657765460043,0.255747492846,0.303385939978,1.0,-0.01266,-0.0166388571429,0.634
0.462036071144,0.525170479507,-0.124053161912,-1.39133273615,0.0774497084468,1.90716018485,0.15468771286,-0.0102913755214,-0.0660111682869,0.000935172051436,-0.112280130134,-0.00576519049466,0.0303526829278,-0.00784074651434,0.574078766688,0.818785597334,0.0021123771653,0.0,0.818743506025,-0.574018442202,-0.0119434607857,0.0,-0.00856675516044,0.00858614763413,-0.999926441682,0.0,0.657553099795,0.255486642096,0.303411789199,1.0,-0.01298,-0.0170594285714,0.65
0.461874288402,0.524008924499,-0.124066310679,-1.39322317997,0.0773303462857,1.90784796281,0.154422792762,-0.0145106616413,-0.0701815863834,-0.000544359367668,-0.110558316102,-0.00147420024322,0.0410876168037,-0.0150264803904,0.574068808438,0.818792681441,0.00207241370674,0.0,0.818750119926,-0.574008700858,-0.0119582340106,0.0,-0.00860189660456,0.00856180296165,-0.99992634874,0.0,0.657313336394,0.255178660561,0.303387883418,1.0,-0.01334,-0.0175325714286,0.668
0.461709974636,0.522713833847,-0.124070960646,-1.39525558235,0.077204960768,1.90862163281,0.154149254436,-0.00775074948511,-0.0756501774266,-0.000965829342007,-0.11722460215,-0.00343876491833,0.0480374335239,-0.0168319179188,0.574062138103,0.818797293443,0.00209779577297,0.0,0.818755102649,-0.574001966299,-0.0119403296661,0.0,-0.00857273576654,0.00857223721333,-0.999926509775,0.0,0.657087391243,0.254888144177,0.303399057741,1.0,-0.01368,-0.0179794285714,0.685
0.461550486027,0.521558878307,-0.12406594715,-1.3971160075,0.0770881789387,1.90934677048,0.153891656974,-0.0145240918045,-0.0698083895461,0.000204207684669,-0.115920676018,-0.00758606172907,0.0455769058622,-0.0160866747218,0.574046500587,0.818808223436,0.0021107575582,0.0,0.818766228656,-0.573986304684,-0.0119302870362,0.0,-0.00855723595562,0.00857692166202,-0.99992660237,0.0,0.656869940373,0.254610926052,0.303387797985,1.0,-0.014,-0.0184,0.701
0.461382235711,0.520263442604,-0.124074419891,-1.39914781989,0.0769669154816,1.91009390597,0.15362240749,-0.00831943757737,-0.0771881316066,0.000327554870264,-0.121289875802,-0.0137538971596,0.0431558457928,-0.0168013710531,0.574045428229,0.818808954597,0.00211875030542,0.0,0.818767045258,-0.573985181005,-0.0119283061746,0.0,-0.00855103726538,0.00858231778949,-0.999926609098,0.0,0.656625035276,0.254302436205,0.303395627198,1.0,-0.01434,-0.0188468571429,0.718
0.461211761828,0.518937055285,-0.124083666096,-1.40123158893,0.0768367389035,1.91082494777,0.153349136475,-0.00926167238959,-0.0829846479975,-7.86749418126e-05,-0.120420036916,-0.0072780642936,0.0490619724639,-0.0170891459536,0.574043213193,0.818810572909,0.00209331810282,0.0,0.818768314454,-0.573983052886,-0.0119435818447,0.0,-0.00857816713385,0.0085702396375,-0.999926480318,0.0,0.656365941234,0.253983832273,0.303398688065,1.0,-0.01468,-0.0192937142857,0.735
0.461049177814,0.517662078821,-0.124086477047,-1.40322778703,0.0766941490383,1.91154388376,0.153068336805,-0.0115600156344,-0.0779762612574,-0.00212485098762,-0.128116893405,-0.00797469535041,0.0448627276384,-0.0202844900761,0.574015481214,0.81883004919,0.00207960822203,0.0,0.81878775118,-0.573955519657,-0.0119342730634,0.0,-0.00857870394843,0.00855337991395,-0.999926620073,0.0,0.656120280555,0.253681111675,0.30340567175,1.0,-0.015,-0.0197142857143,0.751
0.46085756548,0.516311183213,-0.124093733913,-1.40535973001,0.076565073931,1.91233737153,0.152765541975,-0.00711371148772,-0.0791999786863,-0.00194965504224,-0.125816275245,-0.00494732427631,0.0482567106016,-0.02278564051,0.574007563521,0.818835577937,0.00208811575962,0.0,0.818793386489,-0.5739475637,-0.0119302668172,0.0,-0.0085706229823,0.00855796352941,-0.999926650151,0.0,0.65586625926,0.25334887581,0.303407583913,1.0,-0.01534,-0.0201611428571,0.768
0.460666373674,0.514858572643,-0.124097418121,-1.40769450567,0.0764219047241,1.91321162702,0.152470178575,-0.0167204341714,-0.0817740237379,-0.000964736280257,-0.133151287462,-0.00683749023028,0.0432324516342,-0.00719704764781,0.574009467182,0.818834269755,0.00207777807617,0.0,0.818791938416,-0.573949504458,-0.0119362815993,0.0,-0.00858146194948,0.00855297125072,-0.999926599903,0.0,0.655581914699,0.252999526027,0.303390765268,1.0,-0.0157,-0.0206342857143,0.786
0.460500285901,0.51360306451,-0.124105697907,-1.4096950667,0.0763041902281,1.91390349557,0.152179388607,-0.0107886699211,-0.0836209805701,-0.00133027063852,-0.133860383432,-0.00446447174358,0.0500405237909,-0.0188625629878,0.573986389558,0.818850555945,0.00203433836464,0.0,0.818807546508,-0.573926499036,-0.0119717328446,0.0,-0.00863566566328,0.00853750769083,-0.999926265402,0.0,0.655327826043,0.252692879521,0.303378755178,1.0,-0.016,-0.0210285714286,0.801
0.46029041531,0.512106168651,-0.124107093095,-1.41211100262,0.0761595422651,1.9147605716,0.151838659684,-0.0128182247369,-0.0809999935009,-0.00198192045548,-0.135668639275,-0.0032060844388,0.0525772846629,-0.0135109027256,0.573967653785,0.818863814883,0.00198292350711,0.0,0.818820007456,-0.57390785751,-0.0120130503602,0.0,-0.00869920435138,0.00851892378659,-0.999925873143,0.0,0.6550243894,0.252322353802,0.303351887942,1.0,-0.01636,-0.0215017142857,0.819
0.460096985856,0.510664323796,-0.124107508311,-1.41443310733,0.0760110638997,1.91565559433,0.151516116053,-0.0154787856105,-0.0931085868819,0.0018417347287,-0.138025487523,-0.0158050798969,0.0519531949322,-0.0134386641058,0.573943686389,0.818880600048,0.00198862268122,0.0,0.818836930965,-0.573883931549,-0.0120025205304,0.0,-0.00868755987378,0.00851729255656,-0.999925988277,0.0,0.654744327311,0.251975543806,0.303333886202,1.0,-0.0167,-0.0219485714286,0.836
0.459911599736,0.509264346167,-0.124114912063,-1.41664257167,0.0758743813327,1.91647088437,0.151210177737,-0.0124485560664,-0.0865408050508,-0.00165373867026,-0.141606178722,-0.00696236040624,0.0524682553067,-0.0175782355585,0.573928391345,0.818891315681,0.00199037996264,0.0,0.818847671963,-0.573868633346,-0.012001195091,0.0,-0.00868562503399,0.00851780858573,-0.999926000689,0.0,0.654472140944,0.251639335392,0.303333001613,1.0,-0.01702,-0.0223691428571,0.852
0.459702848577,0.507748668804,-0.124116415608,-1.4190302669,0.0757276599831,1.91731107722,0.150865236987,-0.0109823492797,-0.0902816984402,-0.000508159745296,-0.141007170606,-0.00646639569592,0.0498723983156,-0.019871165211,0.573901968717,0.81890989705,0.00196410707145,0.0,0.818865808985,-0.573842226838,-0.0120263242377,0.0,-0.00872155628477,0.0085104351347,-0.999925750718,0.0,0.654169536196,0.251271854323,0.303329724975,1.0,-0.01736,-0.022816,0.869
0.459482607984,0.506185547473,-0.124122362756,-1.4214636482,0.0755685983513,1.91822240987,0.150537507822,-0.0123182085896,-0.0918552620119,-0.000888139172045,-0.143917048906,-0.00385541354142,0.0582289665061,-0.0258258158811,0.573901058721,0.818910469001,0.00199134633441,0.0,0.818866828234,-0.573841290561,-0.0120015735391,0.0,-0.00868566469116,0.00851852722524,-0.999925994223,0.0,0.653875022441,0.250892332616,0.303343613338,1.0,-0.0177,-0.0232628571429,0.886
0.459256528766,0.504549987034,-0.124130908788,-1.4239266342,0.0754099946859,1.9191853187,0.15020913124,-0.0149053574768,-0.0965314228738,0.00153830943767,-0.144952933324,-0.0136906586334,0.0472169828807,-0.0217240410564,0.57390768368,0.818905556881,0.00209914842976,0.0,0.81886347369,-0.573847615591,-0.0119278010168,0.0,-0.00856331608322,0.00856453752183,-0.999926656468,0.0,0.653586629253,0.250508511279,0.303397933177,1.0,-0.01804,-0.0237097142857,0.903
0.459043039076,0.50297693142,-0.12413194276,-1.42626079475,0.0752675985148,1.92008038551,0.149871459646,-0.0104838475909,-0.098729704944,0.000673620228912,-0.150702803019,-0.00644411703949,0.0595049711954,-0.0130233860145,0.573888263076,0.818918864932,0.00221383440539,0.0,0.818878289434,-0.573827749491,-0.011866250792,0.0,-0.00844729965167,0.00862292900531,-0.999927141458,0.0,0.653307243956,0.250149881565,0.303463166704,1.0,-0.01836,-0.0241302857143,0.919
0.458793076755,0.501167338946,-0.12414016667,-1.42895898523,0.0750868277195,1.92103060183,0.149499293577,-0.0140619570893,-0.105329504297,-0.00164539346588,-0.154444679426,-0.00862343539348,0.0572205660566,-0.0173212383558,0.573882659137,0.818922665933,0.00226001413693,0.0,0.818882756571,-0.573822031563,-0.0118344406381,0.0,-0.00839480739982,0.00864243326274,-0.999927415144,0.0,0.652969198745,0.249720966512,0.30352459327,1.0,-0.01872,-0.0246034285714,0.937
0.458569173219,0.499560865674,-0.124133330089,-1.43140104466,0.0749325380132,1.92191222677,0.149158954597,-0.0194380647676,-0.105143239784,0.000587512134723,-0.155477394987,-0.00667851179283,0.0550044366291,-0.0201832746448,0.573864960347,0.818934956478,0.00230027049434,0.0,0.818895506057,-0.573804111894,-0.0118210927889,0.0,-0.00836096241495,0.00866755899248,-0.999927481235,0.0,0.652661346457,0.24934525869,0.303559180111,1.0,-0.01904,-0.025024,0.953
0.45832194288,0.497873619486,-0.124138350352,-1.43404772498,0.074772738716,1.92289343669,0.148770247382,-0.0127072810585,-0.110769780076,-0.000418470557353,-0.154690436651,-0.00132745099429,0.059588906198,-0.0177569130246,0.573844101653,0.818949520117,0.00231892203371,0.0,0.818910258112,-0.573783127637,-0.0118177197366,0.0,-0.00834771828938,0.00868068493709,-0.999927478024,0.0,0.65233379491,0.248930104504,0.303561206878,1.0,-0.01938,-0.0254708571429,0.97
0.458055399139,0.496211830689,-0.124140477603,-1.43673256696,0.0746104026387,1.92383846822,0.148372206816,-0.0187519593672,-0.0945212659884,-0.00663890482356,-0.159161153401,-0.0154673735288,0.057849936462,-0.0240346671074,0.573829834298,0.818959697272,0.002254420975,0.0,0.818919441369,-0.573768953757,-0.0118694209549,0.0,-0.00842722287803,0.00865738370669,-0.999927013147,0.0,0.651992136832,0.248496553741,0.303523546732,1.0,-0.01972,-0.0259177142857,0.987
0.457802345628,0.494620323392,-0.124135567644,-1.43931071883,0.0744532305944,1.92472747016,0.148006272707,-0.0185579529711,-0.101589065484,0.00100105031309,-0.162926524732,-0.0074834216049,0.0555592399616,-0.0240294369904,0.573821106311,0.818966028284,0.00217471176683,0.0,0.818924532786,-0.573760341088,-0.0119342991659,0.0,-0.00852618637867,0.00862924370771,-0.999926417442,0.0,0.651656831315,0.248084856491,0.303482026765,1.0,-0.0203502857143,-0.0267460897959,1.003
0.457523397789,0.492795270843,-0.124167310996,-1.44222980746,0.0742708820827,1.92580810074,0.147598492585,-0.016910403884,-0.113146766942,-0.000700089316457,-0.181880012608,-0.0131461644184,0.0627233411109,-0.0287577403112,0.573835875926,0.818955736029,0.00215332920444,0.0,0.818914059357,-0.573775294478,-0.0119340578154,0.0,-0.00853810238854,0.0086117478826,-0.999926466599,0.0,0.651297948636,0.247606423203,0.303457923554,1.0,-0.0234977142857,-0.0308827102041,1.02
0.457189180456,0.490568192354,-0.124187051044,-1.44577698092,0.0740575829705,1.92708197619,0.147077462803,-0.0182936769561,-0.127342374095,-0.00117221906959,-0.204843311883,-0.0122777397193,0.0727994276762,-0.0343251263821,0.573816776803,0.818969222392,0.00211337075629,0.0,0.818926917614,-0.573756254279,-0.0119670874935,0.0,-0.00858828200084,0.00859777730631,-0.999926157092,0.0,0.650846375731,0.24703823996,0.30343010355,1.0,-0.0268302857143,-0.0352626612245,1.038
0.45684247155,0.488349100439,-0.124198781626,-1.4493460853,0.0738479769989,1.92836420098,0.14657253331,-0.0257315940454,-0.146181547551,-0.000460228061959,-0.227934969823,-0.0138419529833,0.0867082960058,-0.0300851149461,0.573816657134,0.818969444518,0.00205908794087,0.0,0.818926233107,-0.573756164244,-0.0120181372273,0.0,-0.00866123952611,0.00858261370172,-0.999925658073,0.0,0.650389794043,0.246465311571,0.303385702789,1.0,-0.0297925714286,-0.0391559510204,1.054
0.456413324171,0.485643015274,-0.124229903702,-1.4534709114,0.0735908585061,1.92995934759,0.145965002785,-0.0288415473308,-0.160800715159,-0.00123420425413,-0.255003364018,-0.017895688066,0.0999047327426,-0.0421251801035,0.573827941327,0.818961172894,0.00219953327419,0.0,0.818919984644,-0.573767058103,-0.0119234511717,0.0,-0.00850298752946,0.00864341760707,-0.999926492566,0.0,0.649897503972,0.245781608058,0.303441198,1.0,-0.03294,-0.0432925714286,1.071
0.455907292156,0.482513587716,-0.124264626393,-1.45829870969,0.0732984968787,1.93163392591,0.145222899123,-0.0280016257605,-0.178572674833,-0.00102544389473,-0.277383590213,-0.0107492107985,0.0900431070991,-0.0492021220983,0.573817316993,0.818968663385,0.00218220388511,0.0,0.818927068685,-0.573756322371,-0.0119534771548,0.0,-0.00853763430842,0.00864634448954,-0.999926172038,0.0,0.649277986024,0.244968676029,0.303461086325,1.0,-0.0362725714286,-0.047672522449,1.089
0.455418436581,0.479501269071,-0.124325037908,-1.46302853764,0.073005796658,1.93331390446,0.144523706865,-0.0266952857162,-0.197917017451,-0.00548064517091,-0.297798474979,-0.0186568367691,0.109005068329,-0.0437199690412,0.573840175478,0.818952756758,0.00214058576608,0.0,0.818910656328,-0.573779386374,-0.0119707822029,0.0,-0.00857544620214,0.00862243026302,-0.999926054975,0.0,0.648678006845,0.244162618636,0.303445586526,1.0,-0.0392348571429,-0.0515658122449,1.105
0.454844028356,0.476010355985,-0.12435882676,-1.46834887974,0.0726806115504,1.9352768729,0.143763047103,-0.0404940936786,-0.214544530508,-0.0028070115409,-0.326223222973,-0.020515615386,0.118013014283,-0.0495699554507,0.573881957157,0.818923179269,0.00225224469662,0.0,0.818882525011,-0.573820698898,-0.0119148079513,0.0,-0.00846509076119,0.00868218428931,-0.999926478254,0.0,0.648013936155,0.243267457245,0.303501591887,1.0,-0.0423822857143,-0.0557024326531,1.122
0.454260892461,0.472522423692,-0.124377683427,-1.47371832705,0.0723587842485,1.93719532251,0.142978586491,-0.0415555669034,-0.218211795639,0.00151864182164,-0.341165499747,-0.0231236575246,0.122367213993,-0.0457106144533,0.573901592956,0.818909309799,0.00229146838849,0.0,0.818868916099,-0.573839917402,-0.0119245270365,0.0,-0.00845033286948,0.00872008518573,-0.999926273277,0.0,0.647322251945,0.242367950471,0.303525102913,1.0,-0.0453445714286,-0.059595722449,1.138
0.453631704441,0.468785156495,-0.124399301658,-1.47936120972,0.0720026747828,1.93928615757,0.142081984257,-0.0403478974411,-0.240380771587,-0.00326412342968,-0.356779994867,-0.0274363354887,0.135345031771,-0.0598152216824,0.573870590452,0.818930588345,0.00244617821625,0.0,0.818892239521,-0.573808345128,-0.0118418755015,0.0,-0.00829419628635,0.00879902985245,-0.999926889018,0.0,0.646611981494,0.241414753114,0.303602520396,1.0,-0.0483068571429,-0.0634890122449,1.154
0.45287978018,0.464305278809,-0.124402181007,-1.4861603758,0.0715522813653,1.94172353402,0.141002979862,-0.0465241502677,-0.250201200243,0.00113362729798,-0.394784897249,-0.0190883794297,0.130699997583,-0.0634469553682,0.573802271249,0.818978172023,0.00254050416402,0.0,0.818941020719,-0.573739647131,-0.0117969824688,0.0,-0.0082040411283,0.00884982879433,-0.999927184469,0.0,0.645726066281,0.240276092507,0.303667665623,1.0,-0.0516394285714,-0.0678689632653,1.172
0.45211573881,0.459886503731,-0.124431217861,-1.49305466669,0.0710852221391,1.94409252545,0.140002789252,-0.0448299380749,-0.27146506336,-0.00469317942778,-0.411799770122,-0.0282681781247,0.145314267184,-0.0595980288121,0.573823219256,0.818963817678,0.00243418943971,0.0,0.818925234903,-0.573760943413,-0.0118569116852,0.0,-0.00831389889851,0.00879735976877,-0.99992674009,0.0,0.64480219579,0.239096619205,0.303636002557,1.0,-0.0547868571429,-0.0720055836735,1.189
0.451347538767,0.455553802546,-0.124437387185,-1.49983199787,0.0706217196953,1.94649592252,0.138950660521,-0.049633723529,-0.268681871712,0.000697862942735,-0.424798093489,-0.0346062809702,0.151417335933,-0.0694713661166,0.573780646297,0.818993794513,0.00238356561733,0.0,0.81895454403,-0.57371856315,-0.0118832660338,0.0,-0.00836498635096,0.00877058881928,-0.99992654919,0.0,0.643899832244,0.237944663969,0.303598640113,1.0,-0.0577491428571,-0.0758988734694,1.205
0.450460181444,0.450599061142,-0.124479389694,-1.50724038186,0.0701168282039,1.94926660256,0.137744215483,-0.0539897593622,-0.298843342252,-0.000138435844023,-0.446355019638,-0.0307573020478,0.172800524514,-0.069420889059,0.573749876202,0.819014601432,0.00262851660218,0.0,0.818978947088,-0.573687322414,-0.0117084255713,0.0,-0.0080815804467,0.00887057826742,-0.999927997857,0.0,0.642957624079,0.236647865665,0.303715324826,1.0,-0.0608965714286,-0.0800354938775,1.222
0.449533612931,0.445453050939,-0.124529025286,-1.5150977987,0.069597050971,1.95197094062,0.136580593661,-0.0517933280336,-0.309615664887,-0.00082380818924,-0.470290290674,-0.0286768896076,0.160465174034,-0.0702127973957,0.573803089251,0.818977369285,0.00261347781861,0.0,0.818941415685,-0.573740468648,-0.0117294165744,0.0,-0.00810682482237,0.0088708314811,-0.999927791263,0.0,0.641894448577,0.235266850746,0.303738259358,1.0,-0.064044,-0.0841721142857,1.239
0.448600132064,0.440450165082,-0.124547080052,-1.5229229515,0.0690557461283,1.95458005858,0.13534716269,-0.0593425067146,-0.31328169476,-0.00331256331355,-0.498080137019,-0.0336034947381,0.164704346645,-0.0793993107339,0.573768376888,0.819002281783,0.0024205409206,0.0,0.818963572984,-0.573706215197,-0.0118571358384,0.0,-0.00832250217073,0.00878575357842,-0.999926770565,0.0,0.640801380635,0.233894708987,0.303663740589,1.0,-0.0670062857143,-0.0880654040816,1.255
0.447552026564,0.4348557747,-0.124554192195,-1.53137063562,0.0685055893423,1.95760645494,0.13396594632,-0.0605273776701,-0.338886875914,0.000851802932286,-0.488896825544,-0.0257117680687,0.186606795269,-0.07924400363,0.573720447627,0.819035398033,0.00257131196702,0.0,0.818998444307,-0.573657499744,-0.0118054272229,0.0,-0.00819416815348,0.00887908644147,-0.999927006052,0.0,0.639661404395,0.232418346558,0.303725631191,1.0,-0.0701537142857,-0.0922020244898,1.272
0.446341936814,0.428782891812,-0.124591696117,-1.54064410926,0.0678417768466,1.96092777333,0.132488080599,-0.068778709983,-0.345560018762,-0.00405014249403,-0.527323587271,-0.0436005977478,0.18278275611,-0.0830425252979,0.573745095581,0.819017920869,0.00263770618868,0.0,0.81898217204,-0.573682274724,-0.0117301512623,0.0,-0.00809415464949,0.00889052227087,-0.999927719025,0.0,0.638416369796,0.230734967796,0.303739356854,1.0,-0.0734862857143,-0.0965819755102,1.29
0.445219724294,0.423134892826,-0.124684157215,-1.54936581424,0.0672059072818,1.96376986364,0.131036690506,-0.0725513419291,-0.360288249409,-0.00487571802878,-0.551452045029,-0.0386747465199,0.177379127807,-0.0984327063383,0.57373614119,0.819024909035,0.00240532197486,0.0,0.818986244418,-0.573674297611,-0.0118354811875,0.0,-0.00831384257578,0.00876053758396,-0.999927063842,0.0,0.637181954319,0.229110955915,0.303678433324,1.0,-0.0764485714286,-0.100475265306,1.306
0.443954364446,0.416868451323,-0.12475681351,-1.55875924179,0.0665419866827,1.96705527536,0.129563830841,-0.0768788647361,-0.37673598582,-0.000898983779783,-0.551661580203,-0.040301525572,0.206125700539,-0.0874886583661,0.573828066662,0.818960190332,0.00251067014591,0.0,0.818923155558,-0.573766092764,-0.0117508717436,0.0,-0.00818311631017,0.00879919534442,-0.999927802778,0.0,0.635893184894,0.227364779748,0.303746267527,1.0,-0.079596,-0.104611885714,1.323
0.442612350731,0.410444384983,-0.124767825811,-1.56841582659,0.0658890028051,1.97046812378,0.127888644342,-0.0810399843931,-0.380371018445,-0.00226629540292,-0.576075570841,-0.0426463754856,0.194312254128,-0.102217240106,0.573779417467,0.818993791369,0.00266396157741,0.0,0.818958541442,-0.573716672619,-0.0116976005592,0.0,-0.0080520580868,0.00889368775357,-0.99992803075,0.0,0.634552590402,0.225591682905,0.303795362824,1.0,-0.0827434285714,-0.108748506122,1.34
0.441277018278,0.40428075739,-0.124830861276,-1.57794194294,0.0652073582418,1.97357996746,0.126357776658,-0.0823268767147,-0.387877294145,-0.00628366548347,-0.60116896897,-0.04186359505,0.202183677491,-0.101537503152,0.573859189322,0.818938621018,0.00243161192163,0.0,0.818900119712,-0.573797040506,-0.0118447094749,0.0,-0.00830499821642,0.00878861187876,-0.99992689098,0.0,0.63317286031,0.223784959693,0.303697070553,1.0,-0.0857057142857,-0.112641795918,1.356
0.439786043274,0.397384016517,-0.124901325837,-1.58805142969,0.0644899656118,1.97718247431,0.124602734753,-0.0913975217584,-0.404919039394,-1.88985166266e-05,-0.595869980336,-0.0501095061694,0.21260517131,-0.102341089634,0.573895633169,0.818912117569,0.0027373033716,0.0,0.818877933022,-0.573832744211,-0.0116472907609,0.0,-0.00796750663466,0.00892601848643,-0.999928419954,0.0,0.631777268488,0.221847342734,0.303845750977,1.0,-0.0888531428571,-0.116778416327,1.373
0.438211485479,0.390409071961,-0.124931529171,-1.59861551162,0.0636752936343,1.98070453255,0.122808935057,-0.0974770241502,-0.403546448699,-0.00185095683405,-0.619026715315,-0.0519218375007,0.211602077197,-0.104602162558,0.573916354101,0.818897923657,0.0026374282289,0.0,0.818862622259,-0.573854008414,-0.011676035101,0.0,-0.00804813709126,0.0088609294914,-0.999928353142,0.0,0.630241294367,0.21981591859,0.303812124206,1.0,-0.0920005714286,-0.120915036735,1.39
0.436706524507,0.383652164668,-0.124990720812,-1.60888409024,0.0628949986704,1.98397470155,0.120960923441,-0.0925904680862,-0.430834001097,-0.0092650734852,-0.630854874223,-0.0512554528414,0.214233474751,-0.12206875847,0.573846892039,0.818947319524,0.00240400572361,0.0,0.818908843301,-0.573785256118,-0.0118124141094,0.0,-0.00829452152739,0.00874734708408,-0.999927339776,0.0,0.628697055747,0.217837641051,0.303740231635,1.0,-0.0949628571428,-0.124808326531,1.406
0.435016630195,0.376213084257,-0.12499980456,-1.61982261691,0.0621319818515,1.98777210235,0.119045755549,-0.106167692967,-0.439775369124,0.000230406520246,-0.653914741796,-0.0417555221207,0.211825447603,-0.114204175148,0.57386168427,0.818936158163,0.00266140581492,0.0,0.818900756427,-0.573798807005,-0.0117143972823,0.0,-0.00806638732697,0.00890204238153,-0.999927840915,0.0,0.627105195732,0.215746362552,0.303836437934,1.0,-0.0981102857143,-0.128944946939,1.423
0.433208484797,0.368675736095,-0.125069178803,-1.63120178828,0.0612340239578,1.99140875843,0.117051613742,-0.110326752115,-0.440718261745,-0.00546578612615,-0.668589167703,-0.0559092471591,0.206500763849,-0.115962420865,0.573915487014,0.818899139457,0.00244132408816,0.0,0.818860953876,-0.573853494657,-0.0118174358071,0.0,-0.00827648500145,0.00878148346882,-0.999927190021,0.0,0.625384787617,0.213474302513,0.303763441368,1.0,-0.101257714286,-0.133081567347,1.44
0.431373949098,0.360825284921,-0.125152790788,-1.6426158064,0.0603413491078,1.99525978065,0.114976648141,-0.10583389441,-0.457042367663,-0.00272395130685,-0.673441667489,-0.0529861948384,0.233232827131,-0.122323608647,0.573928837904,0.818889177521,0.00263644879549,0.0,0.818854033876,-0.573866681799,-0.0116554548237,0.0,-0.00803171032751,0.00884843873335,-0.999928595831,0.0,0.623690563488,0.211198782614,0.30388388756,1.0,-0.104405142857,-0.137218187755,1.457
0.429392226833,0.352907826743,-0.125158863262,-1.65447222137,0.0594876069322,1.99902944626,0.112775217892,-0.124231412368,-0.469674169017,0.00121391867137,-0.717904625595,-0.0513530075475,0.222028846297,-0.127831680302,0.573918514207,0.818896802614,0.00251249295531,0.0,0.818859126183,-0.573855807363,-0.0118317676181,0.0,-0.00824734678537,0.00884801862954,-0.999926844243,0.0,0.62184854126,0.208838718042,0.303815704373,1.0,-0.107552571429,-0.141354808163,1.474
0.42736081908,0.344740227354,-0.125255714464,-1.66632762902,0.0585641124643,2.00296293032,0.110522269378,-0.11526782564,-0.48905068802,-0.00381669058708,-0.681901709978,-0.051329098696,0.244970915275,-0.129420974593,0.573941449094,0.818880191344,0.00268181610947,0.0,0.818845038259,-0.573878471051,-0.0117068648376,0.0,-0.00804763813168,0.00891521842958,-0.999927874599,0.0,0.620051884661,0.20640579423,0.303910991041,1.0,-0.1107,-0.145491428571,1.491
0.425368342999,0.336972570681,-0.125254072183,-1.67775216095,0.0576553678821,2.00666069998,0.108357496292,-0.124993832145,-0.495095212266,0.000189474495418,-0.718605204576,-0.0577101764923,0.225605146336,-0.149993423732,0.573906238376,0.818904835733,0.00269192631749,0.0,0.818869701415,-0.573843104294,-0.011715402674,0.0,-0.00804921152,0.00892805147218,-0.999927747435,0.0,0.618263224783,0.204095763673,0.30390953129,1.0,-0.113662285714,-0.149384718367,1.507
0.423197217453,0.328504204185,-0.125264949707,-1.69013767387,0.0565983385767,2.01052747174,0.105948538555,-0.127639426524,-0.504735617829,-0.00106858020586,-0.714497198106,-0.067155323813,0.237255401168,-0.1499904894,0.573797186872,0.818981566483,0.00259403161646,0.0,0.818945355369,-0.573734631903,-0.0117398456644,0.0,-0.00812658787986,0.00886083115897,-0.999927719508,0.0,0.616276868342,0.201569587887,0.303908844629,1.0,-0.116809714286,-0.153521338775,1.524
0.420760562007,0.319373438413,-0.125266474883,-1.70340218697,0.0555500365032,2.01483124522,0.103369468398,-0.141277973739,-0.511963112248,-0.00084754523814,-0.753145404634,-0.0642246247382,0.229852698467,-0.133188076761,0.573780376446,0.818992933392,0.0027205809239,0.0,0.818958171931,-0.573717158194,-0.0116996547935,0.0,-0.00802124507655,0.00894124645844,-0.999927854267,0.0,0.614169270184,0.19883670229,0.303941061276,1.0,-0.120142285714,-0.157901289796,1.542
0.41849224191,0.311103682805,-0.125327282229,-1.71543372316,0.0545843360357,2.01854531041,0.100909306853,-0.148067351292,-0.523748975897,-0.00515882658523,-0.729248344969,-0.0678613923644,0.233645165677,-0.157392537654,0.573740768218,0.819020866217,0.00266429865531,0.0,0.818985054151,-0.573677402208,-0.0117671650682,0.0,-0.00810926192417,0.00893349510191,-0.999927213619,0.0,0.612213632012,0.196285967262,0.303928493466,1.0,-0.123104571429,-0.161794579592,1.558
0.415994904763,0.302142851936,-0.125397864586,-1.72835130366,0.0534824862906,2.02261964285,0.0982491924674,-0.151605916544,-0.522570937521,-0.00445389523083,-0.767819404128,-0.0588698476268,0.236018391797,-0.158093255901,0.57370109407,0.819048514571,0.00270783001698,0.0,0.81901361791,-0.573637964677,-0.0117015409102,0.0,-0.00803097022211,0.0089311084329,-0.999927866808,0.0,0.610118889501,0.193516174863,0.303954874436,1.0,-0.126252,-0.1659312,1.575
0.41348403401,0.293569442908,-0.125464554548,-1.74074736865,0.0524995044678,2.02627996737,0.0957727389275,-0.155646933382,-0.542542962481,-0.00999664386603,-0.738133337633,-0.057786705116,0.233008595493,-0.165803273432,0.573830514652,0.818958259437,0.00258004971746,0.0,0.818920875219,-0.573766930158,-0.0118683144591,0.0,-0.00823946558109,0.00892342937052,-0.999926239087,0.0,0.608046029024,0.190799442494,0.303922490858,1.0,-0.129214285714,-0.169824489796,1.591
0.410936107771,0.284834722723,-0.125567630055,-1.75314913575,0.0514390222522,2.03022811263,0.0931330209332,-0.161147062337,-0.532402160705,-0.00575655597497,-0.773331220062,-0.0640277101597,0.239860595488,-0.167337004104,0.573845470336,0.81894717962,0.00276406735851,0.0,0.818912696632,-0.573781770659,-0.0117141732457,0.0,-0.00800747184661,0.00898582811504,-0.99992756502,0.0,0.606021502619,0.188058841261,0.303995366379,1.0,-0.132176571429,-0.173717779592,1.607
0.407922562313,0.274862376269,-0.125607930028,-1.76744027472,0.0502065254672,2.03442073752,0.0900734723048,-0.177517544904,-0.565702295041,-0.00214660483744,-0.793379354489,-0.0730337509404,0.248450014391,-0.163082049037,0.573827700445,0.818960065217,0.00263223924405,0.0,0.818923450817,-0.573764018209,-0.0118313148768,0.0,-0.00817924771344,0.00894491087138,-0.99992654154,0.0,0.603576927785,0.184896075445,0.303963114568,1.0,-0.135509142857,-0.178097730612,1.625
0.404943528054,0.265265682366,-0.125719151463,-1.78091430794,0.0490102828189,2.03858127613,0.0871042264692,-0.177583011351,-0.561594369878,-0.00562564453839,-0.773613518227,-0.0756805412306,0.235853145163,-0.168824150016,0.573884010855,0.818920020527,0.00280873028161,0.0,0.818886271945,-0.573820324996,-0.0116728378095,0.0,-0.0079475670708,0.00899905890913,-0.999927923961,0.0,0.60132305575,0.181815264492,0.304049189086,1.0,-0.138656571429,-0.18223435102,1.642
0.401845464093,0.25554171977,-0.12586856941,-1.79467536638,0.0477988790133,2.04257533833,0.0840601643372,-0.181547081095,-0.580902516945,-0.0077455423768,-0.783826766841,-0.0700830463344,0.235485133157,-0.179115598864,0.573985823207,0.818848987862,0.00271233032786,0.0,0.818813906335,-0.573922370607,-0.0117322721849,0.0,-0.00805044714833,0.00895522411496,-0.999927494502,0.0,0.599083735997,0.178803744776,0.304027796427,1.0,-0.141618857143,-0.186127640816,1.658
0.398662730043,0.245684235806,-0.125890398015,-1.80853466912,0.0465188463265,2.04666879781,0.0809056885653,-0.190562099879,-0.577299942595,0.00127576196456,-0.825349898973,-0.0681244977553,0.24019106827,-0.185518119278,0.573938570355,0.818881961005,0.00275650128701,0.0,0.81884764432,-0.573875182009,-0.0116857933869,0.0,-0.00798755151188,0.00896425472506,-0.999927917981,0.0,0.596520937583,0.175459024836,0.304052069196,1.0,-0.144951428571,-0.190507591837,1.676
0.395376116856,0.235606462402,-0.125908312012,-1.82249124323,0.0453265573146,2.05072461638,0.077641487905,-0.195100146713,-0.609582045423,-0.000438357656962,-0.794712660566,-0.0624312110594,0.24925943092,-0.195851722414,0.573895050588,0.818911903644,0.00291751315128,0.0,0.818879055614,-0.573830406172,-0.011683498253,0.0,-0.00789375001813,0.00909436732977,-0.999927487968,0.0,0.594041370444,0.172262265591,0.304122808141,1.0,-0.148098857143,-0.194644212245,1.693
0.392404462246,0.226681235608,-0.125912398414,-1.8349240645,0.0441397760536,2.05433332273,0.0747204467755,-0.205025294945,-0.60717194675,0.000575071588049,-0.814086395057,-0.0870174049825,0.24391241916,-0.200208436877,0.573809580929,0.818971687015,0.00294747400947,0.0,0.818939488579,-0.573745148025,-0.0116346923342,0.0,-0.00783753559382,0.00909007580256,-0.999927969185,0.0,0.591808155394,0.169396033818,0.304129621892,1.0,-0.150876,-0.198294171429,1.708
0.388648710991,0.215698625113,-0.125973264213,-1.85002428134,0.0427468638213,2.05852110303,0.0710408353191,-0.215806708721,-0.631212674213,-0.00215063528806,-0.846667977006,-0.0716525096857,0.240337356852,-0.196262288204,0.573760590329,0.819005878899,0.0029836578718,0.0,0.818973853623,-0.573695698372,-0.0116541689303,0.0,-0.00783327199592,0.00913041641923,-0.999927635055,0.0,0.58905092296,0.165819401085,0.3041790833,1.0,-0.154208571429,-0.202674122449,1.726
0.384951653399,0.205310852927,-0.126076121074,-1.86440173567,0.0414132048889,2.06248209067,0.0675141594456,-0.221082505986,-0.608197362244,1.49542117516e-05,-0.847133725719,-0.0782259068687,0.225025477871,-0.2101224932,0.573808154639,0.818972724671,0.00293680388489,0.0,0.818939743552,-0.573743013062,-0.0117217018403,0.0,-0.00791493577129,0.00913124932742,-0.999926984373,0.0,0.586403464726,0.162340677073,0.304151560032,1.0,-0.157356,-0.206810742857,1.743
0.381366326121,0.195304739479,-0.126162728395,-1.87797999963,0.0401047695993,2.06616668967,0.0640405722803,-0.233564824531,-0.630354915823,-0.00635296431732,-0.866372175164,-0.0752983052825,0.24810078941,-0.217031977119,0.573767205958,0.819001203817,0.00299473103199,0.0,0.818968985629,-0.573701883308,-0.0116917307839,0.0,-0.00785761003703,0.00916109991977,-0.999927163454,0.0,0.583873494438,0.159024441133,0.304210524697,1.0,-0.160318285714,-0.210704032653,1.759
0.377070416691,0.184034588406,-0.126324042596,-1.89348885161,0.038646198658,2.07026317277,0.0600398488485,-0.244967322881,-0.615617658559,-0.0122051737497,-0.879056169626,-0.0714826552342,0.217042828984,-0.230859740435,0.573901295428,0.818907710751,0.00286553316598,0.0,0.81887313696,-0.573835633029,-0.0118405546134,0.0,-0.00805213146272,0.00914199377563,-0.999925790811,0.0,0.58095050492,0.155113188817,0.30413971445,1.0,-0.163650857143,-0.215083983673,1.777
0.372897442568,0.173139607183,-0.126446975367,-1.90806578507,0.0371881436714,2.07419107766,0.0561820250766,-0.246610748328,-0.639927246317,-0.00610817060353,-0.876275613244,-0.0978475176861,0.229589814717,-0.22210343802,0.573980204773,0.818851867648,0.00301500884459,0.0,0.818819646198,-0.573914473341,-0.0117179858092,0.0,-0.00786508877912,0.00919481739844,-0.999926795176,0.0,0.578200558984,0.151402382178,0.304226054851,1.0,-0.166798285714,-0.219220604082,1.794
0.36890495789,0.162906984534,-0.126457777581,-1.92205282693,0.0357613224577,2.07770498032,0.0523737098597,-0.255215559783,-0.64362500181,-0.00131987414034,-0.876623783247,-0.0826621698767,0.214688376682,-0.240777032102,0.573841955884,0.818949571289,0.0027850051945,0.0,0.818913803287,-0.573776435948,-0.0118966902015,0.0,-0.0081449758017,0.00910767452075,-0.999925352031,0.0,0.575445029653,0.147922248077,0.304122932574,1.0,-0.169760571429,-0.223113893878,1.81
0.364496259277,0.151765999474,-0.126514946719,-1.93672593978,0.0342337365653,2.08161917008,0.0482737664997,-0.259358808226,-0.648325156146,-0.00530002458654,-0.888743602651,-0.0915467259026,0.221467221566,-0.233293995443,0.573796471029,0.81898055148,0.00303529792953,0.0,0.81894876091,-0.57373089111,-0.0116849685853,0.0,-0.00782846855244,0.00919072416666,-0.999927120179,0.0,0.572608891367,0.144162026825,0.30424145727,1.0,-0.172908,-0.227250514286,1.827
0.359912994034,0.140556538141,-0.126627447209,-1.95168772447,0.0327253296018,2.08525600044,0.0440597969161,-0.271256748676,-0.667483288656,-0.0103259498748,-0.875577116875,-0.0898837605813,0.223268315447,-0.240686118334,0.573835943084,0.818953264944,0.00293379687066,0.0,0.818919449302,-0.573769892855,-0.0118233882491,0.0,-0.0079996321109,0.00918740535009,-0.999925795981,0.0,0.569612063738,0.140272286827,0.304207485507,1.0,-0.176055428571,-0.231387134694,1.844
0.355433355536,0.129846775745,-0.126749493054,-1.96569747254,0.031249664287,2.08877527119,0.0398704366921,-0.281256881167,-0.666063949544,-0.00775077471965,-0.877811823062,-0.0971945097058,0.214152949338,-0.264593349937,0.573796174841,0.81898062916,0.003070130049,0.0,0.818948891337,-0.573730006566,-0.0117192083671,0.0,-0.00783652978606,0.00923889441045,-0.999926613123,0.0,0.566822295728,0.136547244873,0.304276346851,1.0,-0.179017714286,-0.23528042449,1.86
0.350436395681,0.118329649161,-0.126947462371,-1.98072381529,0.0296001442302,2.0924007844,0.0354514648595,-0.296416648169,-0.68481305863,-0.00986727403408,-0.87609243348,-0.101240426487,0.217079666838,-0.27642035239,0.573977179865,0.818853695166,0.003093510688,0.0,0.818822731426,-0.573911465613,-0.0116495081043,0.0,-0.00776399098613,0.00921976618884,-0.999927355539,0.0,0.563789548253,0.13242949857,0.304317853384,1.0,-0.182165142857,-0.239417044898,1.877
0.345301870857,0.106742454303,-0.127058488301,-1.99590599802,0.0279710725029,2.09592609567,0.0307602068611,-0.298091758095,-0.681113129379,-0.00909152992498,-0.909115218335,-0.0943662930106,0.1989834617,-0.270285269699,0.573965313992,0.818862308164,0.00301421698363,0.0,0.818829890644,-0.57389937021,-0.0117418040589,0.0,-0.00788521535989,0.00920769649324,-0.999926518152,0.0,0.56064332742,0.128313090086,0.304279414164,1.0,-0.185312571429,-0.243553665306,1.894
0.340390193917,0.095651290579,-0.127088705875,-2.01005423962,0.0264151694011,2.09922601101,0.026237303588,-0.306342583264,-0.692004104815,-0.00566471341194,-0.877529009179,-0.0942303889174,0.206985570442,-0.288290810554,0.573838165921,0.818950786552,0.00318047787501,0.0,0.818920716469,-0.573771904168,-0.0116365383712,0.0,-0.00770503175106,0.00928222776835,-0.999927233719,0.0,0.55768492601,0.124485636403,0.304375101994,1.0,-0.188274857143,-0.247446955102,1.91
0.334627990923,0.0831976465153,-0.12716919255,-2.02625503908,0.0247076944261,2.10271207412,0.0210000010802,-0.330986163683,-0.693135260921,-0.00855889037472,-0.88987075165,-0.0976766190821,0.188152568552,-0.29282041293,0.573801475683,0.818977148869,0.00300716404926,0.0,0.818943315484,-0.573734039699,-0.0119098537247,0.0,-0.00802874024704,0.00929676753071,-0.999924551876,0.0,0.554197229677,0.120045563543,0.304276122751,1.0,-0.191607428571,-0.251826906122,1.928
0.328972253559,0.0711717654701,-0.127320458413,-2.04132672932,0.0229852346618,2.10616384563,0.0159034979212,-0.339810729499,-0.69836723166,-0.00960690939536,-0.889872608554,-0.0943470007475,0.198921371621,-0.303310871622,0.573808468659,0.818971199186,0.00328071635504,0.0,0.818941732651,-0.573741036561,-0.0116794002145,0.0,-0.00768295871802,0.00938863504841,-0.999926410131,0.0,0.55100305924,0.115753495663,0.304407153705,1.0,-0.194754857143,-0.255963526531,1.945
0.323357679839,0.0598432382998,-0.127515510074,-2.05573132409,0.0212815218015,2.10908510298,0.010956011004,-0.358684855746,-0.717101291156,-0.0154555351733,-0.88290361027,-0.106151306549,0.183733319029,-0.310638301276,0.573918069494,0.818895066265,0.00310915696425,0.0,0.818863163394,-0.573850955799,-0.0117875810179,0.0,-0.0078687507409,0.00931125911961,-0.999925688847,0.0,0.547849625512,0.111532215638,0.304367479884,1.0,-0.197717142857,-0.259856816327,1.961
0.317325215477,0.0476660107716,-0.127609242375,-2.07096579987,0.0195349186003,2.11230866442,0.00555057359409,-0.354143686989,-0.717093255987,-0.00836079751958,-0.91135318661,-0.0954876740626,0.19076324894,-0.334797063506,0.573878906712,0.818922052534,0.00322787943854,0.0,0.818891641939,-0.573811328269,-0.0117381946645,0.0,-0.00776062209563,0.00937976640382,-0.999925893618,0.0,0.54449153227,0.107144678969,0.304402788804,1.0,-0.19998,-0.262830857143,1.978
0.31111254337,0.035499688811,-0.127675079429,-2.0861415347,0.0177851527413,2.11534788815,1.67546566887e-05,-0.36764972559,-0.724690960225,-0.00337844619392,-0.864860585929,-0.111791008529,0.181842391954,-0.331462980781,0.573833589897,0.818953696246,0.00325598103759,0.0,0.818923161334,-0.573765329023,-0.0117877030473,0.0,-0.0077855638457,0.00943075981214,-0.999925220086,0.0,0.541077386991,0.102726095196,0.304398150972,1.0,-0.19998,-0.262830857143,1.995
0.305121852723,0.0240870758862,-0.127780892322,-2.10027673515,0.0160043980032,2.1180484875,-0.00525738121473,-0.369818883821,-0.716277882665,-0.00868244145075,-0.887487911119,-0.112556017502,0.170846465446,-0.33071148274,0.573810167625,0.818970442273,0.00317066458663,0.0,0.818939089053,-0.57374255637,-0.0117895857578,0.0,-0.00783632793054,0.00936174559078,-0.999925472065,0.0,0.53785274177,0.098503904713,0.304385764482,1.0,-0.19998,-0.262830857143,2.011
0.29858323683,0.0119691103551,-0.127954699487,-2.11493013752,0.0142223602159,2.12078593857,-0.0109524843272,-0.390011823976,-0.708125826491,-0.0107139991275,-0.860465815442,-0.112032753228,0.156697566519,-0.3345584762,0.573925728851,0.81888889962,0.00331281517312,0.0,0.818859561049,-0.573857820882,-0.0117033154525,0.0,-0.00768277813385,0.00942974578137,-0.999926024671,0.0,0.534490485893,0.0939804345789,0.304480331136,1.0,-0.19998,-0.262830857143,2.028
0.291519884629,-0.000619649241292,-0.128062367277,-2.13036685522,0.0123947545406,2.12347044747,-0.0171605784551,-0.394551252854,-0.696860883939,0.000960706694089,-0.828775230697,-0.107488310658,0.150733878735,-0.34191215503,0.57395593814,0.818868078818,0.00322451039943,0.0,0.818836383733,-0.573886866925,-0.0118990565428,0.0,-0.007893405373,0.00947006292387,-0.999924003142,0.0,0.530852788556,0.0892245512113,0.30441933016,1.0,-0.19998,-0.262830857143,2.046
0.285634570176,-0.0111973231235,-0.128083182663,-2.14286220403,0.0108344532987,2.12578466672,-0.0223643955968,-0.393222182719,-0.680713132245,-0.00212384076162,-0.856848286167,-0.105398735031,0.1566884877,-0.350265584949,0.573863880888,0.818931408994,0.0035129013312,0.0,0.818904224221,-0.57379477378,-0.0116694488537,0.0,-0.00754093895377,0.00957358926768,-0.999925737557,0.0,0.527915932608,0.0853674760259,0.304552204121,1.0,-0.19998,-0.262830857143,2.061
0.278799864174,-0.0229515615791,-0.128155281979,-2.15710963266,0.00898703347517,2.12793147363,-0.0283775505584,-0.406703381967,-0.692537094811,-0.00595284693657,-0.827581685116,-0.112249099975,0.11913528525,-0.356649524757,0.57378391553,0.818988615658,0.00322685635801,0.0,0.818956782312,-0.573714657407,-0.0119175284303,0.0,-0.00790917759748,0.00948092456331,-0.999923775584,0.0,0.524424967041,0.080907799707,0.304457281137,1.0,-0.19998,-0.262830857143,2.078
0.271331109436,-0.0354212485,-0.128353515776,-2.17172625398,0.00708765359534,2.13041079706,-0.0347835971564,-0.419807770369,-0.683441299471,-0.00725283121776,-0.826271034486,-0.112206982051,0.124782903906,-0.360291758996,0.573960182601,0.81886417748,0.0034517431164,0.0,0.818836059852,-0.573891086197,-0.0117164487812,0.0,-0.00761340216941,0.00955137070841,-0.99992540093,0.0,0.520904957334,0.076104338503,0.304553898696,1.0,-0.19998,-0.262830857143,2.096
0.264635642676,-0.0463620947701,-0.128439112599,-2.18471575685,0.00553272013371,2.13227410675,-0.0406929024113,-0.409998571934,-0.678782880013,-0.00194394673189,-0.812767501808,-0.0908653394672,0.114669860286,-0.356248798156,0.573951806745,0.818870269551,0.00339883518972,0.0,0.818839818811,-0.573880852611,-0.0119526163691,0.0,-0.00783726664315,0.00964351301882,-0.999922786973,0.0,0.517649629469,0.0719169828206,0.304497018875,1.0,-0.19998,-0.262830857143,2.112
0.257432254654,-0.0579527905002,-0.128488755117,-2.19807083931,0.00366605482177,2.13434439385,-0.0470012275363,-0.430550539874,-0.662003643698,-0.00264903204785,-0.777461629633,-0.111143921386,0.115767798064,-0.370422822422,0.573846196232,0.81894362982,0.0035526255748,0.0,0.818916531413,-0.573776416473,-0.0117083465222,0.0,-0.00755020839362,0.00962827930327,-0.999925142494,0.0,0.514322841004,0.0674965737918,0.304588809123,1.0,-0.19998,-0.262830857143,2.129
0.249213633933,-0.0707859236426,-0.128646991955,-2.21303799932,0.00169745475591,2.13628462034,-0.0541967457744,-0.443108848053,-0.678419317374,-0.0138584058737,-0.779501577734,-0.103355564992,0.107371227321,-0.375514845005,0.573858990899,0.818935159305,0.00343661451047,0.0,0.818905519315,-0.573788306976,-0.0118943731929,0.0,-0.00776898076083,0.00964014119083,-0.99992335237,0.0,0.510467941203,0.0624938086159,0.304528557219,1.0,-0.19998,-0.262830857143,2.148
0.242504579393,-0.0808869367743,-0.128821613222,-2.22456023151,0.000134079574963,2.13781839699,-0.0600084527046,-0.448476928733,-0.658620338549,-0.0025178637914,-0.777340863192,-0.104979826219,0.0954736926423,-0.388564840499,0.573964025236,0.818861178027,0.00352359997123,0.0,0.818832796886,-0.573893178106,-0.011841358383,0.0,-0.00767440644515,0.00968193934863,-0.999923678856,0.0,0.507500035393,0.0584728179468,0.304562401024,1.0,-0.19998,-0.262830857143,2.163
0.234491152726,-0.0928940672831,-0.12886942184,-2.23829449757,-0.00165113205704,2.13939008765,-0.0670436863262,-0.451478985291,-0.676188051039,-0.00361903282848,-0.743564377087,-0.102197583519,0.0928702315748,-0.392221539779,0.573898941712,0.81890698232,0.00347935489203,0.0,0.818876717891,-0.573826628575,-0.0120278067866,0.0,-0.00785325967181,0.00975209605836,-0.999921608395,0.0,0.503849202089,0.0538219091304,0.304522843383,1.0,-0.19998,-0.262830857143,2.181
0.227648088862,-0.102866478187,-0.128951339393,-2.24944420239,-0.00330518162001,2.14071270304,-0.0730341103917,-0.45974213187,-0.649969135742,-0.00799981568611,-0.742536309738,-0.108155052082,0.0751286147658,-0.40302763384,0.573822755882,0.818960182162,0.00352303355214,0.0,0.818931454371,-0.573751503607,-0.0118841091979,0.0,-0.00771141490435,0.00970468212698,-0.999923173661,0.0,0.500885430138,0.0498844678338,0.304573089429,1.0,-0.19998,-0.262830857143,2.196
0.220203097777,-0.113388886208,-0.129129929942,-2.26141661763,-0.00495756435127,2.14186332574,-0.0794538739316,-0.476002363143,-0.647898932785,-0.0111260760397,-0.752680213478,-0.105657952611,0.0767403939313,-0.403940752026,0.573944320119,0.818875741847,0.00334420680005,0.0,0.818843306006,-0.573872022838,-0.0121362479584,0.0,-0.00801908672134,0.0097040987694,-0.999920759218,0.0,0.497608023722,0.0456288538587,0.304476064262,1.0,-0.19998,-0.262830857143,2.212
0.211674771342,-0.125261999784,-0.129251708075,-2.27436696737,-0.00675224115348,2.14325033648,-0.0868844659855,-0.475288978012,-0.645879995713,-0.0046971064398,-0.722525565995,-0.0972024062198,0.066454297011,-0.416389777818,0.573987143978,0.81884461087,0.00360675740641,0.0,0.818816132825,-0.573914503705,-0.0119595135322,0.0,-0.00772316151236,0.00981806719547,-0.999921976123,0.0,0.494076140223,0.0408977680432,0.304585976758,1.0,-0.19998,-0.262830857143,2.23
0.203554869862,-0.136300295846,-0.12933734427,-2.28660730922,-0.00854761421712,2.14427281265,-0.094030765542,-0.485850204381,-0.649765858522,-0.0085528329556,-0.712095018188,-0.102608158883,0.0611272843741,-0.410182245258,0.573889630047,0.818913533617,0.00347331032748,0.0,0.81888278535,-0.573816839267,-0.0120816278832,0.0,-0.00790091674491,0.00977794324732,-0.999920980548,0.0,0.490627207612,0.0364599581492,0.30453406204,1.0,-0.19998,-0.262830857143,2.247
0.195750802961,-0.146726799217,-0.129487804008,-2.29769578199,-0.0101431001653,2.14533118761,-0.100876034769,-0.491031185164,-0.645226357054,-0.0125668527666,-0.690255708304,-0.0945095231792,0.0614369768379,-0.429562783264,0.573922515912,0.818889127019,0.00378024880501,0.0,0.818863416139,-0.573849932411,-0.011819800431,0.0,-0.00750995512512,0.0098793472593,-0.999922996571,0.0,0.487520312468,0.0322523398833,0.304671274828,1.0,-0.19998,-0.262830857143,2.263
0.187282716429,-0.157617588977,-0.129643491551,-2.30957934743,-0.0119138534706,2.14609908732,-0.108269148989,-0.496868728158,-0.641414070603,-0.0067947282804,-0.69910238679,-0.106280218403,0.0425241358519,-0.430340922383,0.573949183926,0.818871086878,0.0036365157843,0.0,0.818842694953,-0.573876056239,-0.0119858207544,0.0,-0.00772808152108,0.00985717620692,-0.99992155334,0.0,0.484064644891,0.0277455683809,0.304611754339,1.0,-0.19998,-0.262830857143,2.28
0.178794155411,-0.168532773119,-0.129695516753,-2.3210394313,-0.0135619086518,2.14688073146,-0.115755539501,-0.500403531398,-0.637797540424,-0.00226738282677,-0.667528523705,-0.0939333024452,0.050375850161,-0.442580226475,0.573878510399,0.818919624191,0.00385374074211,0.0,0.818894450421,-0.573805128832,-0.0118448342134,0.0,-0.00748881516249,0.00995349435697,-0.999922419789,0.0,0.480714135836,0.0233663001829,0.304719993486,1.0,-0.19998,-0.262830857143,2.297
0.170609513974,-0.178596839908,-0.129817031881,-2.33185434049,-0.0151755689221,2.14745696063,-0.122951787957,-0.512876129769,-0.631553547283,-0.0115760001868,-0.679713559551,-0.0979353237023,0.0394618418211,-0.448678998958,0.57386611565,0.818928726075,0.00376428208857,0.0,0.818901626616,-0.573792052045,-0.0119813954579,0.0,-0.00765214110227,0.00995848532854,-0.999921133543,0.0,0.477477438186,0.0191669545171,0.304660270346,1.0,-0.19998,-0.262830857143,2.313
0.161165746215,-0.189939686644,-0.130008066459,-2.34368671338,-0.0169760326185,2.14802035254,-0.13122950973,-0.519956224034,-0.630986679546,-0.00624028239119,-0.634883448894,-0.0967142969945,0.0381248248611,-0.462684796915,0.573936770625,0.818878802303,0.00385192992368,0.0,0.818852926287,-0.573862486765,-0.0119364272829,0.0,-0.00756415482575,0.0100051112468,-0.999921337561,0.0,0.473894701493,0.0143807721913,0.304707348837,1.0,-0.19998,-0.262830857143,2.331
0.152234801182,-0.200492309619,-0.130090884769,-2.35468445132,-0.0186519391832,2.14850970482,-0.139194852432,-0.530147273356,-0.610448459043,-0.00458739886173,-0.656349348868,-0.0934981267099,0.0119373882616,-0.473628211739,0.573814522902,0.81896419612,0.00390969082024,0.0,0.818939170331,-0.573740183645,-0.0118989020717,0.0,-0.00750177247301,0.0100297548758,-0.999921560637,0.0,0.470513292356,0.0099727439813,0.304716856496,1.0,-0.19998,-0.262830857143,2.348
0.143631705326,-0.21035473915,-0.130252833059,-2.36501099757,-0.0201837485072,2.14871285872,-0.146758162125,-0.539814583283,-0.605837053744,-0.0192511110166,-0.636713045214,-0.0914998449261,0.008367115635,-0.47999940495,0.573882309292,0.818917112349,0.00382165985431,0.0,0.818889413091,-0.573806271107,-0.0121342188461,0.0,-0.00774417616699,0.0100933246558,-0.999919072992,0.0,0.467245595253,0.00576024485293,0.304648751046,1.0,-0.19998,-0.262830857143,2.364
0.133790606775,-0.221451164655,-0.130418641558,-2.37610148899,-0.0219523670986,2.1490583752,-0.155407452365,-0.540620288583,-0.608087419485,-0.00528548416225,-0.625861432829,-0.0995465642827,0.0143146924353,-0.482754317761,0.57393981438,0.818875599099,0.00407302967179,0.0,0.818852589035,-0.573864741611,-0.0118508509499,0.0,-0.00736714639161,0.0101370812566,-0.999921479286,0.0,0.463735001135,0.00101797441572,0.304783670192,1.0,-0.19998,-0.262830857143,2.382
0.124982212252,-0.231095538061,-0.130503004943,-2.38605273936,-0.0235037597448,2.14914351909,-0.163285947203,-0.562669371067,-0.606358962253,-0.00730283412474,-0.617671980157,-0.100461729258,0.00334775624603,-0.488065696944,0.573830645594,0.818952612049,0.00396942013021,0.0,0.818927326341,-0.573754698912,-0.0120135985247,0.0,-0.00756124001758,0.0101446329273,-0.999919953832,0.0,0.460487486475,-0.00312984901187,0.304710014052,1.0,-0.19998,-0.262830857143,2.398
0.115925438658,-0.240726000519,-0.130685305236,-2.39565143493,-0.0250895370487,2.14917373461,-0.171294946874,-0.569868330564,-0.59698373482,-0.0150037165553,-0.584425758737,-0.0976140630939,0.00546122387924,-0.498489577153,0.573877066371,0.818919822326,0.00402295855824,0.0,0.818895637427,-0.573801462876,-0.011939979277,0.0,-0.0074696500162,0.0101466588475,-0.999920621671,0.0,0.45731307032,-0.00738216072551,0.30475330319,1.0,-0.19998,-0.262830857143,2.414
0.106244631119,-0.250859614439,-0.130815361176,-2.40568954517,-0.0266131574259,2.14921451665,-0.179954625165,-0.568049708017,-0.577715448348,-0.00800628094074,-0.598426830505,-0.093828162638,-0.00581356239387,-0.511737563452,0.573866217767,0.818926487405,0.00420942204063,0.0,0.818904786452,-0.573790042973,-0.0118610375552,0.0,-0.0072981338802,0.0102539620384,-0.999920793615,0.0,0.453953553738,-0.0118130653707,0.304796558534,1.0,-0.19998,-0.262830857143,2.431
0.0958357071975,-0.261414344162,-0.130954970436,-2.41631968431,-0.0283537823587,2.14907763318,-0.189254863441,-0.582527067726,-0.576408495635,-0.00715009975295,-0.57854984547,-0.0949443975666,-0.00441517605582,-0.524183690534,0.573809000263,0.818967110624,0.00410485493721,0.0,0.818943337422,-0.573732217816,-0.011995800664,0.0,-0.00746922248817,0.010245139239,-0.999919620688,0.0,0.450303873184,-0.0165163836255,0.304711807507,1.0,-0.19998,-0.262830857143,2.449
0.086299221428,-0.270814439343,-0.131164313102,-2.42524884949,-0.0298316264493,2.14898774692,-0.197687008329,-0.599362456687,-0.580463071308,-0.0130951297071,-0.556619457897,-0.082447152444,-0.00844174528806,-0.52557382773,0.573956520834,0.818862239457,0.00439225279575,0.0,0.818843685647,-0.573880836997,-0.011685474069,0.0,-0.00704829945618,0.0103037208871,-0.999922074369,0.0,0.447203381558,-0.0207989560484,0.304850777054,1.0,-0.19998,-0.262830857143,2.465
0.0763025547129,-0.280569004696,-0.131247737286,-2.43485009027,-0.0314081025545,2.148662603,-0.20679419439,-0.586287666609,-0.576562668297,-0.00961876190791,-0.565229467778,-0.0918476856464,-0.0220393222885,-0.545327233643,0.573755771629,0.819003261879,0.00432648304423,0.0,0.818983261124,-0.573679472691,-0.0117909928576,0.0,-0.00717498524042,0.0103086658718,-0.999921122387,0.0,0.44377730107,-0.0251573688468,0.304795548918,1.0,-0.19998,-0.262830857143,2.482
0.0659158642245,-0.290266072118,-0.131431614647,-2.44425122257,-0.0329524689079,2.14824379879,-0.216082377233,-0.619318364018,-0.56768744458,-0.011350354527,-0.546919570951,-0.0938247431959,-0.0260472411025,-0.546700089944,0.573814845757,0.818961869203,0.0043274104795,0.0,0.818941232173,-0.573737605087,-0.0118813155056,0.0,-0.00724768577074,0.0103617695906,-0.999920049195,0.0,0.440345356349,-0.0296606863814,0.304765358276,1.0,-0.19998,-0.262830857143,2.499
0.055989304817,-0.299363936542,-0.131584204093,-2.45265338209,-0.0343834179748,2.14791778368,-0.224912045607,-0.613535902216,-0.565119585443,-0.00638842614569,-0.528639063461,-0.092441222544,-0.0267604538847,-0.557889333846,0.573919684487,0.81888696861,0.00459078417599,0.0,0.818871372194,-0.573843975846,-0.0115548296292,0.0,-0.00682783702107,0.0103910059718,-0.999922700831,0.0,0.437241690015,-0.0339058860042,0.304904580331,1.0,-0.19998,-0.262830857143,2.515
0.0455344594275,-0.308799847354,-0.131731767287,-2.46170832959,-0.0358952668664,2.14729619693,-0.234450791016,-0.625264086952,-0.55327241573,-0.0120469254205,-0.528882217407,-0.0865774257329,-0.043496631944,-0.557134486915,0.573807165244,0.818966216608,0.00451885725981,0.0,0.818948654809,-0.573730142347,-0.0117290857,0.0,-0.00701325534802,0.0104311463225,-0.999920999597,0.0,0.433796089485,-0.0382912350323,0.304842772447,1.0,-0.19998,-0.262830857143,2.532
0.0346235552156,-0.318119851238,-0.131952500699,-2.47049182489,-0.0374327832378,2.14663998525,-0.244191703792,-0.650035663421,-0.545670852318,-0.0124349162016,-0.511448929149,-0.0927546363436,-0.0327991904223,-0.58344592981,0.57395081207,0.818865643305,0.00450227053918,0.0,0.818847560012,-0.573873366018,-0.0117804982377,0.0,-0.00706304810441,0.0104483009378,-0.999920470017,0.0,0.430173753807,-0.0431121222034,0.304824573079,1.0,-0.19998,-0.262830857143,2.55
0.0238631504146,-0.327373811168,-0.13203004155,-2.47882917644,-0.0388617352325,2.14609408154,-0.254102612289,-0.631699039376,-0.543312808892,-0.00788187822993,-0.49644562185,-0.0819696762514,-0.0304388230748,-0.576923958826,0.573767854922,0.818992391894,0.00475999771393,0.0,0.81897929854,-0.573692174581,-0.0114430891485,0.0,-0.00664115737576,0.0104642177719,-0.999923194638,0.0,0.427093088167,-0.047217151627,0.304957347521,1.0,-0.19998,-0.262830857143,2.566
0.0121130945528,-0.33687886886,-0.132248673292,-2.48780868291,-0.0403649184496,2.14518751381,-0.264773029256,-0.673517207495,-0.523501338242,-0.0117441275475,-0.482549319448,-0.0903919553117,-0.0606992742786,-0.59717355999,0.573822979047,0.818954320593,0.00466437576829,0.0,0.818938132113,-0.573744705763,-0.011751394863,0.0,-0.00694782846055,0.0105632589629,-0.999920069425,0.0,0.423421697377,-0.051958255143,0.304848436735,1.0,-0.19998,-0.262830857143,2.584
0.00147210123883,-0.345302474104,-0.13238947664,-2.49551834869,-0.0417870145063,2.14437518894,-0.274374273188,-0.6535855494,-0.514309594648,-0.00871208632643,-0.48243333095,-0.0913188408691,-0.0484400337321,-0.614188760325,0.573858672392,0.818929565265,0.00461932416888,0.0,0.818912798829,-0.573780551625,-0.0117666219535,0.0,-0.00698569072747,0.0105354045758,-0.999920099496,0.0,0.420200465486,-0.0561917033736,0.304840091755,1.0,-0.19998,-0.262830857143,2.6
-0.00910099522701,-0.353648529185,-0.1325456712,-2.50284602454,-0.0430611541476,2.14363274722,-0.284152780703,-0.67047409862,-0.524508304003,-0.0069020184737,-0.457800160287,-0.0827658612439,-0.0439016566462,-0.620280491858,0.573778467135,0.818984408384,0.00485349117881,0.0,0.818971869459,-0.573701484089,-0.0115078707781,0.0,-0.00664043949766,0.0105780448593,-0.999922001723,0.0,0.417090277995,-0.0603454799852,0.304955354502,1.0,-0.19998,-0.262830857143,2.616
-0.0207690807461,-0.362233210581,-0.132776224448,-2.51067309062,-0.0445401895257,2.14262826226,-0.294704843225,-0.69009530817,-0.500181982217,-0.00701183277922,-0.453141324666,-0.0824221066032,-0.0718531722614,-0.625709000541,0.573901758909,0.818898642186,0.00474677232754,0.0,0.818884021974,-0.573823976426,-0.011651160255,0.0,-0.00681743879737,0.0105738809586,-0.999920854653,0.0,0.413642555639,-0.0649017772126,0.30489739177,1.0,-0.19998,-0.262830857143,2.633
-0.0322502962913,-0.370750596875,-0.132898874235,-2.51833652327,-0.0458200383481,2.14160019429,-0.305426953216,-0.676368325566,-0.490949114753,-0.0150955209525,-0.446047796983,-0.0654438406238,-0.0619518495097,-0.634201902286,0.573738396245,0.819012888375,0.00478416679892,0.0,0.818997747655,-0.573658962938,-0.0117826346104,0.0,-0.00690578239825,0.0106785773133,-0.999919135809,0.0,0.410221655502,-0.0692516317494,0.304862625304,1.0,-0.19998,-0.262830857143,2.65
-0.0434745684054,-0.378620461757,-0.133128220752,-2.52522382834,-0.0470864524624,2.14060019172,-0.31560050328,-0.706911121268,-0.488982115068,-0.0187002618088,-0.410344540311,-0.077266443022,-0.0649243477396,-0.635628120892,0.573925278328,0.818881509942,0.00485741413297,0.0,0.818867311842,-0.573845556699,-0.0117622087861,0.0,-0.00684458155319,0.0107284131601,-0.999919023149,0.0,0.4070249863,-0.0735244334945,0.304890777598,1.0,-0.19998,-0.262830857143,2.666
-0.0560815444959,-0.38726767722,-0.133245570821,-2.53268627536,-0.0485041050087,2.13954617424,-0.327301871623,-0.704124920375,-0.4735311207,-0.00971192024196,-0.417971260268,-0.0649242603841,-0.0694258635208,-0.650109808542,0.573810465751,0.81896144449,0.00494456619572,0.0,0.81894950949,-0.573732289251,-0.0115632209418,0.0,-0.00663310255044,0.0106846529675,-0.999920916944,0.0,0.40349824272,-0.0782188033375,0.304953293332,1.0,-0.19998,-0.262830857143,2.684
-0.0674991624425,-0.394840426295,-0.133455907987,-2.53935837952,-0.0497528841701,2.13839165456,-0.337863788032,-0.725898086121,-0.47693273728,-0.0191413778678,-0.406265600992,-0.075228468235,-0.0765287195187,-0.660064337955,0.573828688423,0.818948986237,0.00489297302851,0.0,0.818935332475,-0.573748996294,-0.0117370088745,0.0,-0.00680480416883,0.0107422677243,-0.999919145893,0.0,0.400234578203,-0.0824347823506,0.304904499988,1.0,-0.19998,-0.262830857143,2.7
-0.0797144512277,-0.402672454243,-0.133568351509,-2.54616341464,-0.0510850938115,2.13719486221,-0.349176599158,-0.709879250604,-0.460095850897,-0.0109263068874,-0.39807022981,-0.077277575287,-0.0725820456205,-0.673840451527,0.573745249329,0.819007848191,0.00482497404152,0.0,0.818993047188,-0.573665383018,-0.0117967744054,0.0,-0.00689386296798,0.0107201698618,-0.999918773007,0.0,0.39661984802,-0.0871192859774,0.304881064465,1.0,-0.19998,-0.262830857143,2.718
-0.0928307073748,-0.41077226825,-0.133797012889,-2.55296032552,-0.0523090159553,2.136014989,-0.361437921592,-0.741660830275,-0.438296479234,-0.0197579897719,-0.366765535336,-0.0672268684801,-0.0705433082318,-0.683240260384,0.573787414232,0.818977133163,0.005020510558,0.0,0.818965397253,-0.573707740292,-0.0116556309206,0.0,-0.00666551776105,0.0107996866781,-0.999919465577,0.0,0.393286061736,-0.0916022351128,0.304946449263,1.0,-0.19998,-0.262830857143,2.735
-0.105437482728,-0.418258502014,-0.133919198233,-2.55922216544,-0.0534890148103,2.13483355582,-0.37315299232,-0.732679140677,-0.435943007322,-0.0022429598978,-0.372049848175,-0.0673078581489,-0.0785766996856,-0.69944220823,0.573800626357,0.818967321469,0.00511023073588,0.0,0.81895724943,-0.573721495621,-0.0115505830421,0.0,-0.00652782651554,0.0108130004755,-0.999920230069,0.0,0.389920810183,-0.0960734670266,0.304992603826,1.0,-0.19998,-0.262830857143,2.752
-0.117321196198,-0.425125129617,-0.134106185741,-2.56511218545,-0.0546692921329,2.13354398523,-0.384326054185,-0.752522360197,-0.428321878832,-0.0158083594691,-0.366595162429,-0.067859734274,-0.0838643936418,-0.693716488629,0.573727356675,0.819019259136,0.00501201246599,0.0,0.819006740604,-0.573646635975,-0.0117576690459,0.0,-0.00675476335066,0.0108507772871,-0.999918313566,0.0,0.386659927829,-0.100248736216,0.304933682987,1.0,-0.19998,-0.262830857143,2.768
-0.130163957103,-0.43219392155,-0.13424546625,-2.57107694216,-0.0558206043432,2.13231695696,-0.396277127464,-0.748765792787,-0.405560352922,0.000168452979276,-0.344779695743,-0.0630299078387,-0.0703359153103,-0.713169002735,0.57377182594,0.818988037796,0.00502320674894,0.0,0.818975384712,-0.573690610334,-0.0117961752806,0.0,-0.00677929042325,0.0108824052296,-0.999917803861,0.0,0.383256752185,-0.104701799066,0.304912230236,1.0,-0.19998,-0.262830857143,2.785
-0.143852984552,-0.439425146882,-0.134449690267,-2.57705579857,-0.057008171758,2.13099702619,-0.409226641451,-0.772320849091,-0.40155993936,-0.0191433695961,-0.315100873872,-0.0689879676318,-0.0706783002164,-0.715953833356,0.573721049651,0.819023323174,0.0050695350493,0.0,0.81901120038,-0.573639570307,-0.0117916891048,0.0,-0.00674971244195,0.0109173564294,-0.999917622962,0.0,0.379884782398,-0.109153924757,0.304920384319,1.0,-0.19998,-0.262830857143,2.802
-0.154768966629,-0.44499949415,-0.134568876526,-2.58145433642,-0.057934931935,2.12997989387,-0.419382556622,-0.774676917975,-0.393083310163,0.00143294168664,-0.317237417333,-0.061431305764,-0.0684443152495,-0.731621155105,0.573787171228,0.818976373525,0.00516997509146,0.0,0.818966904373,-0.573707579238,-0.0115572474534,0.0,-0.00649918384228,0.0108656480172,-0.999919845939,0.0,0.376734360183,-0.113417483079,0.305018613569,1.0,-0.19998,-0.262830857143,2.818
-0.168634948452,-0.451889528868,-0.134733374799,-2.58717801528,-0.0590152152108,2.12857548282,-0.432603150394,-0.784382033917,-0.37033746471,-0.00915354362267,-0.314907809894,-0.0597526873708,-0.0828782203578,-0.735801406667,0.573698251046,0.81903853192,0.00519103828819,0.0,0.819028208709,-0.573616731948,-0.0117211377273,0.0,-0.00662252452242,0.0109762143311,-0.999917829068,0.0,0.373307859354,-0.117809398189,0.30497516412,1.0,-0.19998,-0.262830857143,2.835
-0.182028621202,-0.45817286543,-0.134917991813,-2.5923363589,-0.060072500605,2.12723784536,-0.445248286872,-0.783354494799,-0.362022450562,-0.00321059870356,-0.292018631312,-0.0640195755108,-0.0656877415822,-0.746169109331,0.573724561407,0.819020164893,0.00518112325818,0.0,0.819008936741,-0.573641791402,-0.011840760002,0.0,-0.00672584187526,0.0110369335848,-0.999916471086,0.0,0.369868906164,-0.122279509443,0.304946936669,1.0,-0.19998,-0.262830857143,2.852
-0.194657214053,-0.46382017655,-0.135059439671,-2.5969152986,-0.0610057728374,2.1261292773,-0.45731274808,-0.798264270192,-0.348525056599,-0.0140464853639,-0.281933475877,-0.0614590934789,-0.0695196800466,-0.758742089814,0.573648891122,0.819072835458,0.00523324291118,0.0,0.819062431966,-0.573566196344,-0.0118024512268,0.0,-0.00666558429371,0.0110570286067,-0.999916652579,0.0,0.366701653587,-0.126455827656,0.304945746376,1.0,-0.19998,-0.262830857143,2.868
-0.208351970254,-0.469606558168,-0.135232580969,-2.60155892803,-0.0620144894274,2.12488169089,-0.470187714118,-0.785606602252,-0.329607860348,0.00205107580942,-0.25877852305,-0.053372455269,-0.071878475076,-0.760593133431,0.573766594174,0.81899034716,0.00523961550116,0.0,0.818979968309,-0.573683759582,-0.0118111134857,0.0,-0.00666743398327,0.0110681755918,-0.999916516922,0.0,0.363299444701,-0.130961224363,0.30494576932,1.0,-0.19998,-0.262830857143,2.885
-0.222827249783,-0.475616467436,-0.135448765432,-2.60614042191,-0.0629570252573,2.12360444806,-0.484067536159,-0.817624523297,-0.32127811169,-0.0194678508511,-0.256551214858,-0.0535768606301,-0.0623376807753,-0.762615047575,0.57375991535,0.81899384144,0.00542163471752,0.0,0.818986849015,-0.573678217321,-0.0116013366995,0.0,-0.00639127262143,0.0110968431451,-0.999918002491,0.0,0.359756877368,-0.135690617338,0.305045271754,1.0,-0.19998,-0.262830857143,2.903
-0.235079310736,-0.480337836729,-0.135564411702,-2.6099140806,-0.0638366176676,2.12251866434,-0.495746840658,-0.804640704821,-0.307651359129,-0.000918234358203,-0.248292595583,-0.0632193902158,-0.0713838483103,-0.780353375184,0.573730804135,0.819014602362,0.00536585558551,0.0,0.819006781489,-0.573649106668,-0.011633623452,0.0,-0.00645011340709,0.0110694533724,-0.999917928252,0.0,0.356739546334,-0.13963689948,0.305030585137,1.0,-0.19998,-0.262830857143,2.918
-0.249812201624,-0.485728146166,-0.13574320239,-2.61424727013,-0.0647186370829,2.12123427568,-0.509896593235,-0.822158848019,-0.294709172187,-0.0154907910235,-0.235920059475,-0.0500728435059,-0.0721175846382,-0.789114140393,0.573723499941,0.819019402258,0.00541398583985,0.0,0.819011215233,-0.573639945627,-0.011772383102,0.0,-0.00653625747177,0.0111884233697,-0.999916044736,0.0,0.353120161167,-0.144331411742,0.304989314898,1.0,-0.19998,-0.262830857143,2.936
-0.263893136962,-0.490501989192,-0.135859306433,-2.61806458632,-0.0655124911887,2.12006822188,-0.523421962729,-0.825012338906,-0.277366847057,-0.00499457897749,-0.215364215225,-0.0446367799822,-0.06735383691,-0.794468985989,0.573712126328,0.81902719726,0.00543995905005,0.0,0.819018538908,-0.573627099997,-0.0118882284612,0.0,-0.00661640188918,0.0112760652408,-0.999914533137,0.0,0.349717849778,-0.148776503424,0.304953109918,1.0,-0.198581142857,-0.260992359184,2.953
-0.277172139287,-0.494722050228,-0.13597157341,-2.62137948856,-0.0662164766234,2.11908779993,-0.53615825717,-0.848519933662,-0.262405309302,-0.00733442092992,-0.204253739831,-0.043501344427,-0.0676143483315,-0.790243671662,0.57375193428,0.818998894202,0.00550237292744,0.0,0.818990992262,-0.57366657639,-0.0118811038489,0.0,-0.0065742100488,0.0113234181892,-0.999914276307,0.0,0.346565660864,-0.15295460662,0.304946437951,1.0,-0.195618857143,-0.257099069388,2.969
-0.291147718263,-0.499000466095,-0.135994894951,-2.62466728093,-0.0668845351685,2.1179764033,-0.549551189062,-0.806611431523,-0.249018753057,-0.00234808990053,-0.18976077494,-0.0306070072074,-0.0701046787923,-0.784236110536,0.573775657467,0.818981920397,0.00555480539755,0.0,0.818974429806,-0.573689632706,-0.0119094731088,0.0,-0.00656703532503,0.0113828285009,-0.999913648903,0.0,0.343253990062,-0.157278870858,0.304959478661,1.0,-0.192471428571,-0.25296244898,2.986
-0.305128693194,-0.50294660102,-0.136058025995,-2.62767051088,-0.0675249908862,2.1169860731,-0.562928978042,-0.8261500702,-0.223441165484,-0.0103531841418,-0.168358808024,-0.0371869060821,-0.0566864294351,-0.77817364004,0.573871456025,0.818914298098,0.00562771997814,0.0,0.818907914595,-0.573785418326,-0.0118687838535,0.0,-0.00649053809978,0.0114199605721,-0.999913724986,0.0,0.339986152621,-0.161605570437,0.304981776229,1.0,-0.189324,-0.248825828571,3.003
-0.318070745027,-0.506344738713,-0.135979738643,-2.63022462888,-0.0680168319724,2.1161874405,-0.575424395749,-0.792351753885,-0.210331680892,0.00320762083654,-0.155637152605,-0.0217461804102,-0.0456776005448,-0.773697968331,0.573826079871,0.818945553635,0.00570588656062,0.0,0.818940911357,-0.573741060382,-0.0117356823135,0.0,-0.00633730545658,0.0114072441414,-0.999914853045,0.0,0.337022448953,-0.165552505488,0.305019811721,1.0,-0.186361714286,-0.244932538776,3.019
-0.331794482787,-0.509689558834,-0.135987954549,-2.63273960425,-0.0685617995779,2.11534027173,-0.588598892757,-0.813634537381,-0.201296700727,-0.00156347221711,-0.143054553375,-0.0356518162068,-0.0602651749116,-0.77913000456,0.573905492561,0.818889480948,0.00576632481597,0.0,0.818886006672,-0.573820945564,-0.011660935177,0.0,-0.00624029934124,0.0114144572119,-0.999915380835,0.0,0.333867207082,-0.16974421806,0.305045986087,1.0,-0.183214285714,-0.240795918367,3.036
-0.345994306323,-0.512888720397,-0.135870498524,-2.63524329946,-0.0690130866655,2.11440237528,-0.602416350091,-0.786510737842,-0.172803411266,0.000342791458372,-0.135985057543,-0.0272410872386,-0.0471653301458,-0.761129334073,0.573799664415,0.818963415896,0.00579788267955,0.0,0.818959418839,-0.573713326506,-0.011799838403,0.0,-0.00633743542206,0.0115191957258,-0.999913568786,0.0,0.330584180982,-0.173984799461,0.305015521969,1.0,-0.179881714286,-0.236415967347,3.054
-0.358657866943,-0.515430173236,-0.135837208524,-2.63727841267,-0.0694361385404,2.11367145927,-0.614556896777,-0.781223926528,-0.155926829729,-0.00180611278645,-0.122869832239,-0.02964584905,-0.0485720760252,-0.744077040255,0.573907790741,0.818887561239,0.00581004955682,0.0,0.818882862557,-0.573819829006,-0.0119334886519,0.0,-0.00643838773494,0.0116066955856,-0.999911912011,0.0,0.327669698556,-0.177782341063,0.304967789861,1.0,-0.176919428571,-0.232522677551,3.07
-0.372518170748,-0.517998879311,-0.135682357776,-2.63930485521,-0.0698250733241,2.11299231055,-0.628037448761,-0.763421823228,-0.139859321307,0.00795753129331,-0.103598052774,-0.0176461979376,-0.0373304613461,-0.750469424674,0.573826961756,0.818944079297,0.00582750782028,0.0,0.818939373158,-0.573738524353,-0.0119647676809,0.0,-0.00645513419634,0.0116383059613,-0.999911436617,0.0,0.324528721815,-0.181892644074,0.304939658919,1.0,-0.173586857143,-0.228142726531,3.088
-0.385609779856,-0.520156679255,-0.135617067934,-2.64093730662,-0.0701910103031,2.11237009875,-0.640652203087,-0.770700973349,-0.117548718485,0.00325649956093,-0.0902258649469,-0.0169746038863,-0.0415418447971,-0.744264790722,0.57392097966,0.81887798662,0.00585653795887,0.0,0.818873603597,-0.573832308804,-0.0119686927415,0.0,-0.00644035231285,0.0116650727953,-0.999911220028,0.0,0.321580017091,-0.185801457282,0.304940121839,1.0,-0.170439428571,-0.224006106123,3.105
-0.397512886675,-0.52198352192,-0.135462262238,-2.64229667617,-0.070428556993,2.11182885268,-0.652365701405,-0.744832139062,-0.109957958405,0.00698155169436,-0.0847450974188,-0.0127221912499,-0.0260793078787,-0.731972360329,0.573786667381,0.818971746306,0.0059064362862,0.0,0.818968010479,-0.573697820147,-0.0119564154998,0.0,-0.00640358014798,0.0116978393974,-0.999911073403,0.0,0.318916228168,-0.189304533796,0.304951115887,1.0,-0.167477142857,-0.220112816327,3.121
-0.410265776958,-0.523769683744,-0.135383656531,-2.64356026104,-0.0707111816038,2.11129357566,-0.664613201744,-0.744894835942,-0.101721746504,3.79311979548e-05,-0.0697651311931,-0.0165621450648,-0.0207473243363,-0.719494597046,0.573950770404,0.81885634357,0.00596226874233,0.0,0.818853746769,-0.573862429091,-0.0118827934961,0.0,-0.00630890027612,0.0117025898917,-0.999911619678,0.0,0.316062560884,-0.193083972979,0.304988265782,1.0,-0.164329714286,-0.215976195918,3.138
-0.422611435938,-0.525265330289,-0.135228883117,-2.64465476339,-0.0709088439547,2.11085261325,-0.676768203794,-0.712268565171,-0.0812071793492,0.00375714503216,-0.0661746454342,-0.00986043862677,-0.0292046876207,-0.713602896972,0.573849666549,0.818926794257,0.0060177030578,0.0,0.818925139495,-0.573761544613,-0.0118343874832,0.0,-0.00623889052008,0.0117194332625,-0.99991186168,0.0,0.313319737676,-0.196704924763,0.305005013805,1.0,-0.161182285714,-0.21183957551,3.155
-0.434203591298,-0.526477261289,-0.135142789945,-2.64555004574,-0.0711143302431,2.11047777226,-0.687988825265,-0.728716114939,-0.075365294478,-0.00240999550863,-0.0530204564862,-0.00396252045503,-0.0253614402452,-0.703727738981,0.573953591514,0.818853671298,0.0060569539406,0.0,0.818852624644,-0.573865482851,-0.011812434462,0.0,-0.00619689783793,0.0117397678425,-0.999911884272,0.0,0.310734418792,-0.200116826152,0.305011731974,1.0,-0.15822,-0.207946285714,3.171
-0.446877618612,-0.527584313055,-0.134960683442,-2.64642672224,-0.0712823183339,2.11011133,-0.700434546005,-0.693928955954,-0.053796181118,0.0120030207474,-0.0506763596117,-0.00227388846391,-0.0156098904694,-0.683747647083,0.573889956787,0.818898106179,0.00607915255722,0.0,0.818897049152,-0.573801209165,-0.0118550475257,0.0,-0.0062199706331,0.0117819196411,-0.999911245229,0.0,0.307914668505,-0.203803402428,0.304991325227,1.0,-0.154887428571,-0.203566334694,3.189
-0.458707633313,-0.528423225492,-0.134821650015,-2.64706810102,-0.0714161592756,2.10981378791,-0.711960498325,-0.698687122624,-0.0422454548991,0.00441729163413,-0.0324169557471,-0.00321171937124,-0.0164977480893,-0.687131474584,0.573946770249,0.818858019625,0.00611518747027,0.0,0.818857290194,-0.573857601361,-0.0118717545717,0.0,-0.00621215422767,0.0118214486341,-0.99991082727,0.0,0.305290669767,-0.207254269357,0.304984379766,1.0,-0.15174,-0.199429714286,3.206
-0.469652406193,-0.529024822516,-0.134638259476,-2.64756160253,-0.0715318697939,2.10956178852,-0.722627173527,-0.664102802385,-0.0337367601198,0.0134542298311,-0.028698497909,-0.00426907337115,-0.0118092148018,-0.658093656592,0.573967588342,0.818843479317,0.00610825784278,0.0,0.818842279709,-0.573877722024,-0.0119343213387,0.0,-0.00626706877238,0.011851841599,-0.999910124811,0.0,0.302865452752,-0.210424430639,0.304962825888,1.0,-0.148777714286,-0.19553642449,3.222
-0.480269099067,-0.529459306802,-0.13448189625,-2.64792070704,-0.0715920795468,2.10936323713,-0.733159066245,-0.663881205728,-0.0187542809275,0.0113151649365,-0.0189542726269,-0.00991554868474,-0.0140740699318,-0.659974331454,0.573880587493,0.818904178903,0.00614524003467,0.0,0.818903110582,-0.57378992416,-0.0119818743158,0.0,-0.00628605116079,0.0119087505316,-0.9999093295,0.0,0.300517740145,-0.213501303207,0.304945187063,1.0,-0.145815428571,-0.191643134694,3.238
-0.491564000032,-0.529792035207,-0.134335063401,-2.64818267512,-0.0716396261043,2.10917261928,-0.744104016625,-0.654079758673,-0.0181588341075,0.0158112482909,-0.0149008306325,-0.00102555432178,-0.0151134656395,-0.643698669988,0.574028319879,0.818800270927,0.00619283525984,0.0,0.818799518313,-0.573936846114,-0.012024657363,0.0,-0.00629161750222,0.0119734149163,-0.999908522258,0.0,0.298015549905,-0.216776157226,0.304934959251,1.0,-0.142668,-0.187506514286,3.255
-0.502322518342,-0.529955541289,-0.134119078734,-2.64831025215,-0.0716574197533,2.10907068348,-0.754896141969,-0.621751200877,-0.00752080023871,0.0082189002373,-0.00772198546829,-0.00155125966306,-0.0110198347658,-0.63155538312,0.573833618388,0.818936572502,0.00621413939348,0.0,0.818936136839,-0.573742170182,-0.0120113627272,0.0,-0.00627135114437,0.0119817377298,-0.999908549876,0.0,0.295657089793,-0.219881182062,0.304933409688,1.0,-0.139520571429,-0.183369893878,3.272
-0.5131546003,-0.530053906195,-0.133984047433,-2.64840625686,-0.0716769095155,2.10895777738,-0.765420401728,-0.642887151879,-0.00245792813946,0.00497798086711,-0.00143864138341,-0.000442489441683,-0.00109383998702,-0.615953036895,0.573976827671,0.818835820681,0.00626474006933,0.0,0.818835773196,-0.573884610326,-0.0120489612451,0.0,-0.00627100389223,0.0120458497506,-0.999907781755,0.0,0.29323939143,-0.223006774702,0.30491942941,1.0,-0.136373142857,-0.179233273469,3.289
-0.523571552131,-0.53000488065,-0.133753366329,-2.64836782395,-0.0716791572506,2.10891363965,-0.775746713463,-0.598396467177,0.00567207939059,0.0176087590566,0.00622330015563,0.000216146097881,0.000110462765418,-0.600273885336,0.573889670052,0.8188969068,0.00626494556162,0.0,0.818896983134,-0.573797703525,-0.0120280233238,0.0,-0.00625502014734,0.0120333350356,-0.999908032556,0.0,0.290944625878,-0.225997268825,0.304921100168,1.0,-0.133225714286,-0.175096653061,3.306
-0.533173201987,-0.529877431874,-0.133612575191,-2.64827401046,-0.0716858316908,2.10890700863,-0.785217613148,-0.605258145876,0.0071247066378,0.00819010966074,0.00921032625281,0.000118273767942,-0.00157920873788,-0.591662556556,0.573900043529,0.818889456396,0.00628849285719,0.0,0.818889975108,-0.573808234571,-0.0120027291696,0.0,-0.00622063914704,0.0120381823245,-0.999908188693,0.0,0.288807170919,-0.228766800324,0.304920236794,1.0,-0.130263428571,-0.171203363265,3.322
-0.543336402489,-0.529653585944,-0.133459957608,-2.64807992339,-0.0716834691792,2.10891123681,-0.795104452159,-0.584873511722,0.0148569456631,0.0130939144256,0.015188675608,0.00014401312689,-0.000680194191088,-0.580205087795,0.574030680707,0.818797740611,0.00630749379008,0.0,0.818798765076,-0.573939263823,-0.0119603784758,0.0,-0.00617313138232,0.012030423947,-0.999908576495,0.0,0.286541097107,-0.231696634637,0.304930997558,1.0,-0.127116,-0.167066742857,3.339
-0.552919486333,-0.529248769275,-0.133205185553,-2.64777596363,-0.0716818250862,2.10892718045,-0.80474009047,-0.561746174878,0.0225104855695,0.0131208952582,0.0211500855119,-0.00138940685729,-0.000443834908886,-0.562716531731,0.573826077675,0.818941551081,0.00625423011094,0.0,0.818941810296,-0.573734791886,-0.011976929033,0.0,-0.00622025518757,0.0119947556749,-0.999908712964,0.0,0.28442632968,-0.23444003828,0.304929193784,1.0,-0.123968571429,-0.162930122449,3.356
-0.561943309029,-0.528805370947,-0.133042060871,-2.64746240895,-0.0716657306575,2.10895780766,-0.813612832676,-0.56313453664,0.0295180758023,0.0111038103855,0.0197798930417,0.00048843000243,-0.000655944271452,-0.554693933619,0.573859607965,0.818918099762,0.00624845021594,0.0,0.818918045608,-0.573767881517,-0.0120166392036,0.0,-0.00625560373876,0.0120130637901,-0.999908272653,0.0,0.282404985403,-0.237029451834,0.304916547914,1.0,-0.121006285714,-0.159036832653,3.372
-0.571322496746,-0.528203735,-0.132858563068,-2.64697925711,-0.0716445497817,2.10908372585,-0.822803089495,-0.533332392873,0.0406325082557,0.013878087464,0.0314064362381,0.00156975790807,0.00665954788872,-0.545539033038,0.57392112439,0.818875210171,0.00621932853392,0.0,0.818875235673,-0.573830389935,-0.0119490121109,0.0,-0.00621602976373,0.0119508746763,-0.999909264668,0.0,0.280333356734,-0.239746394674,0.304931764437,1.0,-0.117858857143,-0.154900212245,3.389
-0.580732959233,-0.527408368954,-0.132615357268,-2.64641778063,-0.0715797343274,2.10920903201,-0.832311252603,-0.530375545482,0.0411949929798,0.0134740356279,0.0350966142848,0.00183714239961,0.00355403578108,-0.52463945801,0.57372910113,0.819009995471,0.00618811256967,0.0,0.819009340497,-0.573638014242,-0.0119948195536,0.0,-0.00627426130083,0.0119501291123,-0.999908909881,0.0,0.278258177282,-0.242451567747,0.304913113492,1.0,-0.114526285714,-0.150520261225,3.407
-0.588604474782,-0.526725073241,-0.132456761622,-2.64590084134,-0.0715379709386,2.10931937013,-0.839984955095,-0.520004783274,0.0472832056088,0.0107588582639,0.0396307539593,0.0025091006234,0.0102905752569,-0.501543739347,0.573826077336,0.818942213952,0.00616685307918,0.0,0.818941266322,-0.573735029821,-0.0120026985174,0.0,-0.00629149799278,0.0119379817207,-0.999908946677,0.0,0.276504153405,-0.244724099471,0.304911596821,1.0,-0.111749142857,-0.146870302041,3.422
-0.597689246394,-0.525760740048,-0.132237737233,-2.64517712768,-0.071437961173,2.10947230259,-0.849008065404,-0.488891870777,0.0556198336639,0.0169352662023,0.0387672679543,0.011766333965,0.00919943844885,-0.487564654915,0.57380518742,0.81895694518,0.00615432637195,0.0,0.818955653612,-0.573713855432,-0.0120331377177,0.0,-0.00632392115085,0.0119450271986,-0.999908658002,0.0,0.274499223939,-0.2473495208,0.304906222355,1.0,-0.108416571429,-0.14249035102,3.44
-0.605816766747,-0.524773691884,-0.131986425517,-2.64445694333,-0.071284453367,2.10963381247,-0.857255717588,-0.478371376676,0.0582947633761,0.0123872531089,0.0453695343314,0.00896599869357,0.0105100391129,-0.476294537218,0.5736350725,0.81907604735,0.0061627232365,0.0,0.81907451468,-0.573543079357,-0.0120839738469,0.0,-0.00636322878436,0.0119797514051,-0.999907993205,0.0,0.272720043138,-0.249684689414,0.304892206563,1.0,-0.105269142857,-0.138353730612,3.457
-0.613507559479,-0.52386774384,-0.131787520301,-2.64375222376,-0.0711455508468,2.10978622743,-0.864767437285,-0.478312729515,0.0559306631185,0.0141734421309,0.0488314707731,0.00594908801845,0.00922477509725,-0.468200771352,0.573739476367,0.819002789323,0.00617990622281,0.0,0.819001473007,-0.573647371218,-0.012084188366,0.0,-0.00635201931539,0.0119947591412,-0.999907884559,0.0,0.27101570333,-0.251898225184,0.304898490316,1.0,-0.102306857143,-0.134460440816,3.473
-0.621414156625,-0.52278433289,-0.131613103792,-2.64289383645,-0.0709793975855,2.10998354541,-0.872535299001,-0.450670040851,0.0688146354709,0.0140785097173,0.0538260433546,0.00927732700221,0.00663246394275,-0.446640470098,0.573848004245,0.818926485503,0.00621500347091,0.0,0.81892574497,-0.573755946438,-0.0120617185092,0.0,-0.0063118870727,0.0120114506993,-0.999907938329,0.0,0.269275113686,-0.254202895338,0.30491246244,1.0,-0.0991594285715,-0.130323820408,3.49
-0.628830477469,-0.521685876717,-0.131348936933,-2.64205778909,-0.0708069412886,2.1101906363,-0.880064353759,-0.429019896376,0.0638731225184,0.0115109451329,0.0464470652435,0.00825171762743,0.018008451997,-0.439811992229,0.573688475222,0.819038284608,0.00621036591327,0.0,0.819037426868,-0.573596364035,-0.0120686145186,0.0,-0.00632253575411,0.0120103784157,-0.999907883933,0.0,0.267656713269,-0.256339467994,0.304913460486,1.0,-0.0960120000001,-0.1261872,3.507
-0.635812930248,-0.520656704838,-0.131155861526,-2.64125607013,-0.0706503517197,2.1103682238,-0.886940159844,-0.430493902376,0.0683787820191,0.00607735395313,0.0482206144109,0.00717432463459,0.00738429485135,-0.419086122102,0.573749954362,0.818995095374,0.00622659821992,0.0,0.818994400862,-0.573657666741,-0.0120747524778,0.0,-0.00631734887917,0.0120276693315,-0.999907708878,0.0,0.266105946691,-0.258355947145,0.304919648901,1.0,-0.0930497142858,-0.122293910204,3.523
-0.642956967735,-0.519507227506,-0.130958771218,-2.64034709105,-0.0704639053409,2.11060571432,-0.89401087771,-0.418528656119,0.0704097465777,0.00973616518689,0.0473772238047,0.00595860735497,0.00888848897577,-0.415669753028,0.573799580911,0.818960142046,0.00625088693382,0.0,0.818960013161,-0.573707652485,-0.0120321745642,0.0,-0.00626781039624,0.0120235146579,-0.999908070599,0.0,0.264533090056,-0.260435906146,0.304935205543,1.0,-0.0899022857143,-0.118157289796,3.54
-0.65017780322,-0.518252866111,-0.130735096324,-2.63939904435,-0.0702588840915,2.11084976673,-0.901232808953,-0.392195430885,0.0656576164936,0.0174985242271,0.0532808443926,0.0137062250625,0.00481959472251,-0.401589348634,0.573779485489,0.818974022353,0.00627691362161,0.0,0.818974109392,-0.573687211167,-0.0120473561285,0.0,-0.0062656072693,0.012053387609,-0.999907724749,0.0,0.262939228582,-0.2625282495,0.304930700895,1.0,-0.0865697142858,-0.113777338776,3.558
-0.655922156387,-0.517203148639,-0.130497300451,-2.63862879717,-0.0700836296728,2.11104546125,-0.907018301164,-0.387075287345,0.0700085681576,0.0115087794306,0.0523664075697,0.0157276219197,0.0170741990191,-0.37358807176,0.57369403828,0.819033864383,0.00627903941519,0.0,0.819033675083,-0.573601189285,-0.0120938675513,0.0,-0.0063037439664,0.0120811570419,-0.999907149918,0.0,0.261676764819,-0.264175254287,0.304916564261,1.0,-0.0837925714286,-0.110127379592,3.573
-0.662744374451,-0.515986667039,-0.130259994332,-2.63766744318,-0.0698755651484,2.11131163944,-0.913737506462,-0.360809039271,0.0679873544472,0.0173673377068,0.0524983246317,0.0113193262555,0.0160725767373,-0.375098620067,0.57375072154,0.818994075396,0.00628974553846,0.0,0.818994360746,-0.573658457112,-0.0120398734034,0.0,-0.00625253964549,0.0120593843595,-0.999907734242,0.0,0.260170684286,-0.266150783521,0.304933386653,1.0,-0.0804600000001,-0.105747428571,3.591
