nelsonifechukwu/NELSON_IML_WORK/CNN-GradCAM/train2dof/data_sample_2022-02-21-09-44-50/robot_state.csv
position_joint1,position_joint2,position_joint3,position_joint4,position_joint5,position_joint6,position_joint7,velocity_joint1,velocity_joint2,velocity_joint3,velocity_joint4,velocity_joint5,velocity_joint6,velocity_joint7,ee_T_00,ee_T_10,ee_T_20,ee_T_30,ee_T_01,ee_T_11,ee_T_21,ee_T_31,ee_T_02,ee_T_12,ee_T_22,ee_T_32,ee_T_03,ee_T_13,ee_T_23,ee_T_33,v_x,v_y,time
0.46508537915,0.547629436024,-0.123972185505,-1.35574812363,0.079446961434,1.89409501783,0.159184726334,0.0011577838223,-8.77093018728e-07,-0.00129127785968,-0.000526633566213,0.00012508777748,-0.000299356824338,-0.000417116070317,0.573786671406,0.81899030413,0.00211763071276,0.0,0.81894982136,-0.57372790999,-0.0117567978122,0.0,-0.00841392156694,0.00848029044886,-0.999928642753,0.0,0.661695646793,0.260910806981,0.303361161902,1.0,0.0,0.0,0.0
0.465084721056,0.547634023728,-0.123969105438,-1.35574534527,0.079445184754,1.89409395997,0.159180406245,0.000180681031737,-0.00310553783592,-0.0016036135608,-0.000231400318105,-0.000134179452773,0.000313431657465,-0.00066437913638,0.573780899215,0.818994355284,0.00211485453454,0.0,0.818953837897,-0.573722150704,-0.011758064722,0.0,-0.0084166117903,0.00847868442784,-0.999928633732,0.0,0.661695515293,0.260912063284,0.30335903717,1.0,-0.00014,-0.000184,0.008
0.465081500174,0.547631979315,-0.123972333543,-1.35574857461,0.0794437632213,1.89409229732,0.159181934986,-0.00136714772264,0.00131091925085,-0.000105319079859,-0.000213455543308,0.000124833041554,-0.00138588787269,0.000169608313053,0.573786829582,0.818990210306,0.00211104783109,0.0,0.818949667337,-0.573728119127,-0.0117573208141,0.0,-0.00841812521969,0.00847520092722,-0.999928650523,0.0,0.66169615875,0.260907363464,0.303358908061,1.0,-0.00046,-0.000604571428571,0.024
0.465075840353,0.54761639334,-0.123973312535,-1.3557609578,0.0794468300012,1.89409539954,0.159178051888,-3.50884638975e-06,0.000747286044006,-0.000260772348901,0.000125586492666,0.000175954782556,-0.000419289964212,-0.00368847611644,0.573790450259,0.818987654186,0.00211858072468,0.0,0.818947178133,-0.57373167904,-0.0117569892231,0.0,-0.0084134941336,0.00848121713585,-0.99992863849,0.0,0.661695880441,0.26090249535,0.303364362857,1.0,-0.0008,-0.00105142857143,0.041
0.465084964629,0.547518058202,-0.123967562927,-1.35585000352,0.0794457210797,1.89410986919,0.159183161787,0.00169528820615,-0.00621933872817,0.00107523222733,-0.0105538927265,-6.30744617195e-05,0.00687463106524,0.000735492314538,0.573787634336,0.818989560126,0.00214429234517,0.0,0.818949328636,-0.573728673871,-0.0117538421536,0.0,-0.0083961936643,0.00850043971993,-0.999928620681,0.0,0.661677313634,0.260903387575,0.303392704311,1.0,-0.00114,-0.00149828571429,0.058
0.465077532794,0.547383483222,-0.123967729178,-1.35601507642,0.0794392348827,1.89414572071,0.159182625622,-0.00101470375783,-0.00898278880962,0.00113723098591,-0.0144357544003,4.82104071487e-05,0.00273259347439,0.00148463212295,0.57380069797,0.81898038661,0.00215226834914,0.0,0.818940197548,-0.573741643212,-0.0117569802526,0.0,-0.00839405186486,0.00850890636479,-0.999928566652,0.0,0.661652515576,0.260881929808,0.303412569899,1.0,-0.00146,-0.00191885714286,0.074
0.465054186636,0.54722710224,-0.123967589645,-1.35622676528,0.0794374669507,1.89422064114,0.159171504124,-0.00284978890659,-0.0133091108305,0.00149663281623,-0.0110501370107,5.37197479384e-06,0.00548435190698,0.00147700154633,0.573821934431,0.818965445911,0.00217551625743,0.0,0.818925457041,-0.573762684273,-0.0117569063844,0.0,-0.00838043138135,0.00852812060257,-0.99992851721,0.0,0.661629210164,0.260848293864,0.303429082108,1.0,-0.00182,-0.002392,0.092
0.465037192554,0.547060619726,-0.123971133519,-1.35640788159,0.0794331825583,1.89433344009,0.15915765908,-0.00105834797052,-0.0130535796862,0.00548258035928,-0.0126284765571,0.000133329570337,0.00979299482851,0.00124979018765,0.5738362046,0.818955214864,0.00226124718031,0.0,0.818916359607,-0.573776648923,-0.0117089718012,0.0,-0.00829183233126,0.00857096926497,-0.999928889473,0.0,0.661620064031,0.260822667882,0.303470706931,1.0,-0.00212,-0.00278628571429,0.107
0.465015809998,0.546858380248,-0.123970737365,-1.35664427146,0.0794267558177,1.89445283598,0.159131797408,-0.0015711434497,-0.0135625239405,-0.000519191980656,-0.017170563867,0.000358788732605,0.00313977714797,-0.00355533808238,0.573843898424,0.818949607651,0.00233821952395,0.0,0.81891172362,-0.573784028993,-0.0116714991199,0.0,-0.00821689480648,0.00861257975481,-0.999929150545,0.0,0.661600851238,0.26079042419,0.303511780431,1.0,-0.00246,-0.00323314285714,0.124
0.464970117639,0.546599341174,-0.123968005982,-1.35700525615,0.0794153337678,1.89460314811,0.159094800274,-0.00791026003176,-0.0158960302201,0.000807587845566,-0.0213067772874,1.84558631861e-05,0.00598479278276,-0.00437864666355,0.573866336611,0.818933747928,0.00238560500498,0.0,0.818896398025,-0.573806207871,-0.0116564150551,0.0,-0.00817711414188,0.00864295395502,-0.99992921457,0.0,0.661566792578,0.260730690307,0.303536362221,1.0,-0.00284,-0.00373257142857,0.143
0.464940983906,0.546359496142,-0.123973348309,-1.3573606641,0.0794007707915,1.89473405006,0.158976632508,-0.000798644623266,-0.0182157913891,-0.000776326906644,-0.0337441769836,-0.00388962703005,0.016231981616,-0.00527128524713,0.573813152005,0.818970965907,0.00240218422771,0.0,0.818933788516,-0.573752925182,-0.0116523719707,0.0,-0.0081648512992,0.00865368072936,-0.999929222002,0.0,0.661527323786,0.260675817022,0.303548563977,1.0,-0.00314,-0.00412685714286,0.158
0.464904376732,0.546080413499,-0.123973850433,-1.35780482103,0.0793825862496,1.89489146921,0.158953899917,-0.00247472694435,-0.01565192625,-0.000143795342133,-0.0305032485721,-0.00368151968584,0.0114554492533,-0.00127382764664,0.573844847452,0.818948764509,0.00239980471776,0.0,0.818911474823,-0.573784539004,-0.0116638803405,0.0,-0.00817530695053,0.00865865196127,-0.999929093537,0.0,0.661474826565,0.260609994888,0.303548428365,1.0,-0.00348,-0.00457371428571,0.175
0.46486259534,0.545807369655,-0.123971097047,-1.3582534886,0.0793377904659,1.89503682396,0.158911349931,-0.00625086150705,-0.0206346355533,-0.00221029709832,-0.0307966998547,-0.00312597136143,0.0102011491442,-0.00807905358259,0.573855378177,0.818941486766,0.00236497185159,0.0,0.818903855878,-0.573795311339,-0.0116688652125,0.0,-0.00819926592737,0.00863309184148,-0.99992911837,0.0,0.661420784904,0.260536890006,0.303540646546,1.0,-0.00378,-0.004968,0.19
0.464809559836,0.545473415332,-0.123976465579,-1.35882359585,0.0792424700176,1.8952360227,0.158804332754,-0.00308726306768,-0.0182999989849,-0.00012603970495,-0.0312965497451,-0.00203265271706,0.00799390283924,-0.00659734517651,0.573821450313,0.818965449856,0.00229826094242,0.0,0.818927486438,-0.573762187566,-0.0116392000391,0.0,-0.00821360560744,0.00856109653132,-0.999929619678,0.0,0.661358786369,0.260433500815,0.303523019461,1.0,-0.00412,-0.00541485714286,0.207
0.464743174231,0.545049903935,-0.123973652732,-1.35956815511,0.0792396548387,1.89547462393,0.158751122472,-0.00308271350737,-0.0235384176849,0.000520562546753,-0.0392366480455,0.000413439292136,0.0134039862153,-0.000755707981667,0.573870949865,0.81893089582,0.00225114944462,0.0,0.81889188743,-0.573811404939,-0.0117173019256,0.0,-0.00830408521637,0.00856783216082,-0.999928814677,0.0,0.661263273564,0.260324144648,0.303489048801,1.0,-0.0045,-0.00591428571429,0.226
0.464679429883,0.544663182461,-0.123977892928,-1.36022184444,0.0792218648372,1.89570239702,0.15864399363,-0.00420899575896,-0.0228910161438,-5.18050611271e-05,-0.042766193008,-0.00242721097582,0.0105618455579,-0.0124325549265,0.573870101122,0.818931553014,0.00222832153346,0.0,0.81889205077,-0.573810439386,-0.0117531161741,0.0,-0.00834652421946,0.00856968175058,-0.999928445484,0.0,0.661187198968,0.260219602616,0.303471520062,1.0,-0.00482,-0.00633485714286,0.242
0.464609826004,0.544228710489,-0.123982857295,-1.36096414991,0.0791862026004,1.8959582617,0.158556978265,-0.00476678581959,-0.0255064915215,-0.00045201319279,-0.0463201756836,-0.00027838385706,0.0172789082933,-0.00453746067291,0.573891173856,0.818916897024,0.00218706200312,0.0,0.818876769474,-0.573831576717,-0.011785791439,0.0,-0.00839674017985,0.00855486065909,-0.999928151976,0.0,0.661100214467,0.260099891843,0.30344800274,1.0,-0.00516,-0.00678171428571,0.259
0.464554501121,0.543797762732,-0.123983094509,-1.36166207036,0.079152279599,1.89620438493,0.15846657112,-0.00175744779461,-0.0284924328398,-0.000141005056913,-0.0495301053551,-0.00530710467327,0.0180088128968,-0.00233904317052,0.57389241808,0.818916061153,0.00217351267807,0.0,0.818875662115,-0.573832776429,-0.0118043039593,0.0,-0.00841966339295,0.00855440187506,-0.999927963144,0.0,0.661016418962,0.259997209515,0.303442076542,1.0,-0.00546,-0.007176,0.274
0.464477065424,0.54328838961,-0.12398354144,-1.36250548372,0.0790987616693,1.89649688729,0.158368128924,-0.0037507609898,-0.0289595249755,-0.0037947495546,-0.0460979274738,-0.00113043390533,0.0184658238248,-0.00145327370306,0.573908154744,0.818905131366,0.00213603424149,0.0,0.818864235645,-0.573848648795,-0.0118253439269,0.0,-0.0084582373059,0.0085359477022,-0.999927795302,0.0,0.660917241596,0.259863530388,0.303426342032,1.0,-0.0058,-0.00762285714286,0.291
0.464398593865,0.542739609292,-0.123984903982,-1.36338195928,0.0790422688389,1.89680474632,0.158246122961,-0.00707708140224,-0.0324324980071,0.000440016516738,-0.0488849297176,-0.0028934087131,0.016743823094,0.000583871383597,0.5739070636,0.818905945796,0.00211688244392,0.0,0.818864808274,-0.57384764095,-0.0118345953502,0.0,-0.00847681570676,0.00852556254643,-0.999927726578,0.0,0.660815067825,0.25972580086,0.303424044028,1.0,-0.00614,-0.00806971428571,0.308
0.464325294851,0.54214622236,-0.123993011997,-1.36429419104,0.0789968852507,1.89714965268,0.158129317489,-0.00349913028643,-0.0370765431156,0.00085783620299,-0.0542809194951,-0.00556014719523,0.0248067264717,-0.0116192842157,0.573915744429,0.818899796748,0.00214198128487,0.0,0.818858941702,-0.573856177046,-0.0118266039673,0.0,-0.00845577719348,0.00854161920066,-0.999927767678,0.0,0.660712667964,0.259588242778,0.303439663344,1.0,-0.00648,-0.00851657142857,0.325
0.46424696963,0.541523527243,-0.123998118016,-1.36525954621,0.078942140733,1.89749477629,0.157997041879,-0.00181820643547,-0.0461767941283,-0.000967231973471,-0.0623885633831,5.27428557787e-06,0.02303520101,-0.0131674759668,0.57391403836,0.818900984265,0.00214509778649,0.0,0.818860137726,-0.573854426528,-0.0118287319176,0.0,-0.00845574914918,0.00854537489734,-0.999927735826,0.0,0.660599816806,0.259441688133,0.303450543745,1.0,-0.00682,-0.00896342857143,0.342
0.464163104803,0.540831045182,-0.12399704276,-1.36632615612,0.078866377263,1.8978955567,0.157849271838,-0.000870554775965,-0.0397161576187,0.0005984258473,-0.0569324256085,-0.0128570346465,0.0175256271973,-0.0084262880764,0.573899883934,0.818910860946,0.0021614686745,0.0,0.818870320846,-0.57384030419,-0.0118088876085,0.0,-0.0084302507851,0.00854724633589,-0.999927935129,0.0,0.660477560722,0.259284341308,0.303467067371,1.0,-0.00718,-0.00943657142857,0.36
0.464077192103,0.540162503189,-0.123996493627,-1.36733211264,0.0788146350152,1.89827053532,0.157729046606,-0.00647806495402,-0.0385066344246,0.000568588168583,-0.0618779078855,-0.000667018634117,0.0243572911316,-0.00494424614457,0.573913269003,0.81890138154,0.0021986075914,0.0,0.818861238654,-0.573853455719,-0.0117995800968,0.0,-0.00840117562746,0.00857245516818,-0.999927964036,0.0,0.660362656714,0.259134364843,0.303493250477,1.0,-0.0075,-0.00985714285714,0.376
0.463977456948,0.539471875675,-0.124000233155,-1.36839594692,0.0787569897155,1.89867398987,0.157602658298,-0.00498938420506,-0.0444326535236,0.00114658408809,-0.0642943876147,-0.00452293589005,0.0283572396218,-0.00702688823876,0.573937564806,0.818884278637,0.00222638903188,0.0,0.81884446217,-0.573877605499,-0.0117892994602,0.0,-0.00837655845231,0.00858955352788,-0.999928023829,0.0,0.660245346219,0.25896717899,0.303509997717,1.0,-0.00782,-0.0102777142857,0.392
0.463863741347,0.538589290715,-0.124000654231,-1.3697712885,0.0786805674253,1.89920261478,0.157431947443,-0.00448415522909,-0.0460525022442,0.000907001831913,-0.0717534410129,-0.00254141428941,0.0285552424468,-0.00933377668278,0.573946864341,0.818877671148,0.00225909484302,0.0,0.818838236766,-0.573886734075,-0.0117773241533,0.0,-0.00834788393621,0.00860955726671,-0.999928091593,0.0,0.660089676506,0.258763698565,0.303524702271,1.0,-0.00822,-0.0108034285714,0.412
0.463758805819,0.537917745811,-0.124014004907,-1.37084696491,0.0786190012713,1.89961593578,0.157288222231,-0.00916076092208,-0.043805289219,-0.000978007202974,-0.0744417218,-0.00115592230969,0.0299995069392,-0.0114673722929,0.573967489716,0.818863200843,0.00226405746385,0.0,0.818823874255,-0.573907382635,-0.0117697071878,0.0,-0.00833858135114,0.00860945935215,-0.999928170056,0.0,0.65997439256,0.258585905045,0.303523265749,1.0,-0.00852,-0.0111977142857,0.427
0.463655857501,0.5371026669,-0.124019769037,-1.37212400166,0.0785357719221,1.90007794942,0.157131561583,-0.011111563919,-0.0463724715127,-0.000229509871176,-0.076015130844,-0.00451415697809,0.024143035245,-0.0102964688236,0.573975554142,0.818857561747,0.00225914087292,0.0,0.818818225205,-0.573915520461,-0.0117658976119,0.0,-0.00833819875655,0.00860332896257,-0.99992822601,0.0,0.659824666843,0.258391628262,0.303531167446,1.0,-0.00886,-0.0116445714286,0.444
0.46355703588,0.536357513021,-0.124022639157,-1.37327276335,0.0784746524075,1.90051738512,0.15699484065,-0.00898450952548,-0.0542508383184,-0.000100968283594,-0.0824672471013,-0.00313062715739,0.0214686060328,-0.00867988953769,0.573993454712,0.81884492103,0.00229262992523,0.0,0.818805969892,-0.573933240364,-0.0117544109191,0.0,-0.00830938314026,0.00862434004638,-0.999928284884,0.0,0.659695123942,0.258218109821,0.303548598981,1.0,-0.00916,-0.0120388571429,0.459
0.463439466534,0.535492479952,-0.124026904959,-1.37465039073,0.0783930863445,1.90101093068,0.156821664295,-0.00346295398524,-0.0527671025302,-0.000803997218918,-0.0851930741988,-0.00401684265364,0.0259251422059,-0.00900146966021,0.574005095314,0.818836791055,0.00228190066518,0.0,0.818797653024,-0.573944870917,-0.0117658595406,0.0,-0.00832479376557,0.00862224424104,-0.999928174777,0.0,0.659522442686,0.25799692269,0.303548047067,1.0,-0.00952,-0.012512,0.477
0.463317618473,0.534590091117,-0.124027572372,-1.37608510082,0.0783188153174,1.90153654897,0.156648788351,-0.0107788722604,-0.0562295136195,0.000164920385233,-0.0870008200192,-0.00121580911138,0.0437019222071,-0.00993537548755,0.57402214504,0.818824855056,0.00227610355503,0.0,0.818785525966,-0.573961820844,-0.0117829361306,0.0,-0.00834192503632,0.00862747302462,-0.999927986905,0.0,0.659363417763,0.257790656037,0.303545678951,1.0,-0.00984,-0.0129325714286,0.493
0.463192469972,0.533678931589,-0.124032985129,-1.3775607678,0.0782230779153,1.90207837672,0.156468062351,-0.010179520412,-0.0518419603838,0.00109299090872,-0.0898856805457,-0.0087098768406,0.0315123080976,-0.00999934736363,0.574035574915,0.818815510887,0.00225050315172,0.0,0.81877590631,-0.573975406279,-0.0117896197332,0.0,-0.00836195103763,0.00861048467779,-0.99992796607,0.0,0.659191091118,0.257563083666,0.303533111073,1.0,-0.01018,-0.0133794285714,0.51
0.463072051475,0.532811780606,-0.124036453516,-1.37895699066,0.0781538942279,1.90260697307,0.156280842462,-0.00818261549679,-0.0599033871773,-0.00049189431152,-0.0903697763798,-0.0039637077587,0.0370629235818,-0.0117011798351,0.574041235715,0.818811527069,0.00225604478171,0.0,0.818771872855,-0.573980919711,-0.0118013105511,0.0,-0.00836828357046,0.00862179089918,-0.999927815671,0.0,0.659029964383,0.257352009345,0.303525976093,1.0,-0.0105,-0.0138,0.526
0.46294059835,0.531840496863,-0.124037259265,-1.38051115472,0.0780569471598,1.90318269031,0.156087994653,-0.0136456262021,-0.0573922013714,-0.0011903813204,-0.0886095146355,-0.00693984057033,0.0267650419814,-0.017793704422,0.574050330959,0.818805175914,0.00224684718105,0.0,0.818765411234,-0.573990058724,-0.0118051155969,0.0,-0.00837658308278,0.00861653716662,-0.999927791465,0.0,0.658847575205,0.25711657444,0.303520854212,1.0,-0.01084,-0.0142468571429,0.543
0.462816646268,0.530832521425,-0.124034753736,-1.38212547195,0.0779588396399,1.90375834907,0.155883423088,-0.00818198698761,-0.0545569657794,0.000227566026074,-0.0851765202108,-0.00557296653738,0.0314949302494,-0.0143551318228,0.574043993173,0.818809690353,0.00222076275692,0.0,0.818769523713,-0.573983758695,-0.011826186802,0.0,-0.00840887649594,0.00860721007605,-0.999927600745,0.0,0.65864905316,0.256881189028,0.303512631878,1.0,-0.01118,-0.0146937142857,0.56
0.462674808122,0.529811754168,-0.124039775116,-1.38377461767,0.0778670041581,1.90434787965,0.155661124831,-0.00837043266255,-0.059320457255,-0.000820674823597,-0.0954394758219,-0.0088429652014,0.0343569935982,-0.0163174390422,0.574046544257,0.81880798359,0.00219041920608,0.0,0.818767319778,-0.573986324236,-0.0118542209857,0.0,-0.00844922278742,0.00859848380171,-0.999927335715,0.0,0.658451009841,0.256627656355,0.303498084931,1.0,-0.01152,-0.0151405714286,0.577
0.462523831254,0.528629534656,-0.124040376732,-1.38563444735,0.0777400652448,1.9050461531,0.155412140955,-0.0128385994689,-0.0639702342569,-0.000464117581493,-0.103388229115,-0.00743400109023,0.0409626819291,-0.0172739228176,0.574034899558,0.8188161035,0.00220672609199,0.0,0.818775756277,-0.573974723192,-0.0118332147368,0.0,-0.00842278394957,0.00859965762782,-0.999927548675,0.0,0.658244831868,0.256367153068,0.303510927196,1.0,-0.01188,-0.0156137142857,0.595
0.462396375953,0.52757647619,-0.124035087162,-1.38724448598,0.0776538324157,1.90567980606,0.155189973776,-0.00460854873372,-0.0674294415542,0.000555195664876,-0.102049648438,-0.00734615895006,0.0368771601067,-0.0138710735799,0.574016330735,0.818828947174,0.00227029067794,0.0,0.818789346811,-0.573955827372,-0.0118093469875,0.0,-0.00836694968588,0.00863781415211,-0.999927688545,0.0,0.658045862739,0.256120451373,0.303535704789,1.0,-0.01222,-0.0160605714286,0.612
0.462239371056,0.526425681129,-0.124041095827,-1.38903708924,0.0775427386654,1.90635560681,0.154941399115,-0.00588584772009,-0.0694152012224,-0.00120141794231,-0.109263194671,-0.00810404547338,0.0446503776244,-0.0129492212088,0.57401254206,0.818831532392,0.00229565244362,0.0,0.818792304599,-0.573951986048,-0.0117909517024,0.0,-0.00833736929175,0.00864798321535,-0.999927847727,0.0,0.657838518606,0.25584386612,0.303551094163,1.0,-0.01256,-0.0165074285714,0.629
0.462103458872,0.525393027492,-0.124044280306,-1.3906615609,0.077423948177,1.90693721577,0.154733187012,-0.00982057836049,-0.0676923331313,-0.00164082550779,-0.111699386233,-0.0027747677941,0.0417795820619,-0.0149887385161,0.574010891981,0.81883274636,0.00227514324221,0.0,0.818793394223,-0.573950561929,-0.0117846060509,0.0,-0.00834396224226,0.00862753059527,-0.999927969411,0.0,0.657642558309,0.2555936455,0.303554826825,1.0,-0.01286,-0.0169017142857,0.644
0.46195136866,0.524213563597,-0.124056700528,-1.39252890218,0.0773169592811,1.90760668303,0.154470198784,-0.00483707539618,-0.0704270339129,-0.00144017925763,-0.117436945016,-0.00639353551098,0.0450058932551,-0.00951032431975,0.574000349273,0.818840178172,0.00226020926075,0.0,0.818800574876,-0.573940018979,-0.0117991566471,0.0,-0.00836456002888,0.0086235467086,-0.999927831685,0.0,0.657416030544,0.255308382214,0.303553914648,1.0,-0.0132,-0.0173485714286,0.661
0.46178327064,0.522956700056,-0.124058538999,-1.39455108829,0.0771884404167,1.90836687161,0.154194505747,-0.00780612594306,-0.0677110627388,0.000506178951334,-0.117345989133,-0.00380347965117,0.049916900489,-0.0142292954957,0.573985155789,0.818850843806,0.00225464684126,0.0,0.818811223042,-0.573924905323,-0.01179537922,0.0,-0.00836481930113,0.00861666861441,-0.99992788881,0.0,0.657162512479,0.254986941827,0.303542283422,1.0,-0.01358,-0.017848,0.68
0.461625479219,0.521717404528,-0.12406204841,-1.39651381043,0.0770721822464,1.90913215894,0.153928945727,-0.00315759923057,-0.0727191895501,0.00117992269792,-0.112855646384,-0.00680252523021,0.0505578157953,-0.0201448825395,0.573975639535,0.818857432674,0.00228409196075,0.0,0.818818192131,-0.573915274795,-0.0117801737618,0.0,-0.00833556806323,0.0086319550106,-0.999928001237,0.0,0.656945830638,0.254714782318,0.303544019702,1.0,-0.0139,-0.0182685714286,0.696
0.461454407627,0.520465829592,-0.12406346115,-1.39852508764,0.0769425382243,1.90988400748,0.153662042539,-0.0120668424134,-0.0755962241226,0.000688611423136,-0.117690732795,-0.00437108812245,0.0467919818454,-0.0150542567959,0.573970560802,0.818861028489,0.00227117962288,0.0,0.818821666469,-0.573910293952,-0.0117813376889,0.0,-0.00834398557951,0.00862199808413,-0.999928016936,0.0,0.656705346148,0.254409368653,0.303531052805,1.0,-0.01424,-0.0187154285714,0.713
0.461303772157,0.519300729821,-0.124068462535,-1.40032637704,0.0768284225226,1.91053098846,0.153411568335,-0.0165114112523,-0.0774843032089,-0.000328984690801,-0.11948401402,-0.00127040263789,0.0467375666832,-0.0244982336095,0.573957222938,0.818870359628,0.00227755593158,0.0,0.818831089383,-0.573896942599,-0.0117768092853,0.0,-0.00833675817742,0.0086244844051,-0.999928055778,0.0,0.656485350893,0.254134530753,0.303547954794,1.0,-0.01454,-0.0191097142857,0.728
0.461118131135,0.517855769395,-0.124076965887,-1.40255602376,0.076674984138,1.91133644847,0.153105303926,-0.0149433859422,-0.0800133312678,-0.00171092536699,-0.128392615887,-0.0127100555286,0.0505685055431,-0.0214293294537,0.573941089087,0.818881648873,0.00228435935336,0.0,0.818842600979,-0.573880923585,-0.0117570092937,0.0,-0.00831680902512,0.00861852740629,-0.999928273264,0.0,0.65621423494,0.253791974299,0.303570859388,1.0,-0.0149,-0.0195828571429,0.746
0.460936627373,0.516527436372,-0.124084008954,-1.4046836353,0.0765516048739,1.91210814191,0.152808719506,-0.00896880900391,-0.0771537243902,-0.00138511496083,-0.127739877715,-0.00445293558395,0.0534111087776,-0.0227871538542,0.573931146442,0.818888679218,0.00226209956054,0.0,0.818849259155,-0.573870981121,-0.0117785699672,0.0,-0.00834734502159,0.00861257253273,-0.999928070126,0.0,0.655953618979,0.25346614788,0.303557186325,1.0,-0.01524,-0.0200297142857,0.763
0.460741062938,0.515059328042,-0.124089753525,-1.40698609553,0.0763981365667,1.91298576987,0.152502536046,-0.00967629040399,-0.0786536419903,6.97257941429e-05,-0.128501712451,-0.0111793991702,0.0447996640705,-0.00927601896574,0.573924743042,0.818893093803,0.00228848154437,0.0,0.818854155436,-0.573864622024,-0.0117479621812,0.0,-0.00830720643944,0.00861654469355,-0.999928370174,0.0,0.65568044711,0.253115317416,0.303566965632,1.0,-0.0156,-0.0205028571429,0.781
0.460560670107,0.513728760911,-0.124090532345,-1.40911781777,0.0762784041616,1.91372981173,0.152204279885,-0.0106788319253,-0.0812416967533,0.000886995361147,-0.13251784326,-0.0035642382299,0.0471750056613,-0.0192637576242,0.57390843427,0.818904640792,0.00224616656288,0.0,0.818864961859,-0.573848279578,-0.0117929286625,0.0,-0.00836848631183,0.00860753404273,-0.999927936801,0.0,0.655409846122,0.252792276477,0.303549469449,1.0,-0.01592,-0.0209234285714,0.797
0.460389952272,0.512490476577,-0.124095079727,-1.41113294453,0.0761654747678,1.9144274575,0.151931223463,-0.00889283867528,-0.0866245499488,-0.000221967727802,-0.132185490127,-0.0106811986876,0.0437978072166,-0.015801835799,0.573902945957,0.818908656184,0.00218365502756,0.0,0.818867985935,-0.573842853515,-0.0118468553732,0.0,-0.00844858024288,0.00858723572428,-0.999927437805,0.0,0.655152564517,0.252484016545,0.3035185543,1.0,-0.01622,-0.0213177142857,0.812
0.460184302641,0.511048926368,-0.124109465221,-1.41342674024,0.076020887172,1.91529173592,0.151600166775,-0.0113657809993,-0.0877016782816,-0.000498809767576,-0.130967305662,-0.00508017559939,0.0570247843338,-0.0190023930104,0.573891531913,0.818916647766,0.00218643788002,0.0,0.818876097577,-0.573831515176,-0.011835366887,0.0,-0.00843769446643,0.0085828037979,-0.999927567772,0.0,0.654879532216,0.252122934476,0.30351168379,1.0,-0.01656,-0.0217645714286,0.829
0.459961290352,0.509390678231,-0.124104985894,-1.41605896708,0.0758566718304,1.91627540134,0.151232541232,-0.0128882332189,-0.0909941192266,0.00116357281992,-0.139468487667,-0.00328645642381,0.0470239729915,-0.0277075390295,0.573862820311,0.818936752005,0.00219239188949,0.0,0.818896248828,-0.573802752731,-0.0118356036729,0.0,-0.00843477272413,0.00858751973443,-0.999927551933,0.0,0.654555454576,0.251729209513,0.303504650794,1.0,-0.01694,-0.022264,0.848
0.459709266372,0.507624103436,-0.124118482276,-1.41883911957,0.0756773099453,1.91726977703,0.150837047054,-0.0133767164393,-0.0897031303497,-0.0015125569684,-0.140060177282,-0.00269254075905,0.0522075362855,-0.015054622597,0.573850555775,0.818945409171,0.0021687176423,0.0,0.818904640037,-0.5737906258,-0.0118429376244,0.0,-0.00845449232065,0.00857221431969,-0.999927516724,0.0,0.65421192511,0.2512883234,0.303503803942,1.0,-0.01734,-0.0227897142857,0.868
0.459524947257,0.506344624122,-0.124116148847,-1.42085658515,0.075547850045,1.91800639253,0.150567520491,-0.0105576000845,-0.0945224166886,0.000164398465441,-0.148014346599,-0.0135130806969,0.0575700504301,-0.0155107879771,0.573848410812,0.81894692321,0.00216454959673,0.0,0.818906088636,-0.573788486238,-0.0118464322472,0.0,-0.00845976848012,0.00857078417692,-0.999927484359,0.0,0.653962314505,0.250975693481,0.303501949057,1.0,-0.01762,-0.0231577142857,0.882
0.459343366954,0.505039294473,-0.124114589647,-1.42287689657,0.0754252522713,1.9187881761,0.150298620025,-0.00736338236844,-0.0875149871742,0.00290436200882,-0.138218378815,-0.0162893197573,0.0545195102045,-0.0254932583087,0.573846382372,0.818948185345,0.00222397382777,0.0,0.818908173361,-0.57378627552,-0.0118093407379,0.0,-0.00839531414378,0.00859814334647,-0.999927792709,0.0,0.653704754443,0.250642997073,0.303522054035,1.0,-0.01792,-0.023552,0.897
0.459112831327,0.503394360941,-0.12411784552,-1.4253514783,0.0752682948625,1.91972956963,0.149947343297,-0.011572066965,-0.0957618744883,0.00124088987497,-0.143032262076,-0.0033080022048,0.0491536401987,-0.0233264062418,0.573835433984,0.818955612093,0.00231236400991,0.0,0.818916757164,-0.573774998212,-0.0117619370604,0.0,-0.00830588762312,0.00864321630262,-0.99992815094,0.0,0.653424121347,0.250282563941,0.303573224893,1.0,-0.01824,-0.0239725714286,0.913
0.458853585597,0.501483783215,-0.12413168416,-1.42817134568,0.0750857297668,1.92076803174,0.149556604824,-0.0140769752526,-0.105278635007,0.000289996503259,-0.154545554939,-0.0100920604771,0.0556330036835,-0.0177620709124,0.573832439,0.818957410239,0.00241641616736,0.0,0.818920009646,-0.573771725851,-0.0116949269466,0.0,-0.00819133351896,0.0086899473132,-0.999928690893,0.0,0.653081175034,0.249836770811,0.303655191055,1.0,-0.01862,-0.024472,0.932
0.458619810115,0.499773232217,-0.124129862286,-1.43077163005,0.0749224332195,1.92167937338,0.149190783854,-0.014916500566,-0.103160066447,0.000677777985633,-0.15259976831,-0.0103211602844,0.0563899740042,-0.0186206502488,0.573811098819,0.818972303084,0.00243650460323,0.0,0.818935072127,-0.573750218462,-0.0116953562111,0.0,-0.008180385261,0.00870643189736,-0.999928637124,0.0,0.652748216897,0.249434868692,0.303689895787,1.0,-0.01896,-0.0249188571429,0.949
0.458395452316,0.498315844309,-0.124132371309,-1.43308139841,0.0747803491312,1.9225510887,0.148851787974,-0.0131150114378,-0.0943801998902,0.000241906025836,-0.152995940562,-0.0145503608746,0.0640448693465,-0.0216281772393,0.573798257809,0.81898125709,0.00245087177847,0.0,0.81894420045,-0.573737314015,-0.0116892240309,0.0,-0.00816725604507,0.00871455139523,-0.999928673718,0.0,0.652467225205,0.249068428787,0.303682552103,1.0,-0.01926,-0.0253131428571,0.964
0.458119030909,0.496536340305,-0.124129865687,-1.43590474967,0.0746075171136,1.92356119913,0.148433964065,-0.0181933163052,-0.0954031036349,-5.13618076902e-05,-0.159500825787,-0.00848196610861,0.0599464128334,-0.0269741709032,0.573776862938,0.818996326286,0.00242404374003,0.0,0.818958792312,-0.573715882242,-0.0117187823011,0.0,-0.00820708527209,0.00870932576156,-0.999928393134,0.0,0.652110574572,0.248618938178,0.303666580492,1.0,-0.01962,-0.0257862857143,0.982
0.457868999255,0.494971233766,-0.124129865691,-1.43847786723,0.074441662515,1.92444715876,0.148075416553,-0.0167911035535,-0.0917129208015,-0.000805734864714,-0.160329819522,-0.0120630120853,0.061187512275,-0.0110346767526,0.573772650862,0.818999587664,0.00231677144797,0.0,0.81896056112,-0.573711968014,-0.0117866021084,0.0,-0.008324223027,0.00866034111982,-0.999927850299,0.0,0.651776370458,0.248204979863,0.303609087139,1.0,-0.01994,-0.0262068571429,0.998
0.457573601377,0.493126955722,-0.124132271724,-1.44145125969,0.0742583439953,1.92553060527,0.147654604892,-0.0173721602836,-0.107555838963,0.0012014487987,-0.167481514983,-0.00946268233764,0.0608341858492,-0.0298943271135,0.573771613034,0.8190004281,0.00227634556694,0.0,0.81896079069,-0.573710997244,-0.0118178616559,0.0,-0.00837303047691,0.00864515775638,-0.999927574181,0.0,0.651403319867,0.247726880677,0.303572016649,1.0,-0.02166,-0.0284674285714,1.016
0.45731575201,0.491445609361,-0.124131530817,-1.44412384346,0.0740888265207,1.926506041,0.147277295688,-0.0159816145558,-0.110114639699,0.00204993428595,-0.181533436425,-0.0140527405577,0.0588483300567,-0.0235454778012,0.57376110471,0.819007834728,0.00226014995487,0.0,0.818967942321,-0.573700507426,-0.0118314889305,0.0,-0.00839359455729,0.00863960485615,-0.999927449767,0.0,0.651065328974,0.247303656691,0.303554476457,1.0,-0.02334,-0.0306754285714,1.031
0.457005585422,0.489548025252,-0.124142647789,-1.44722512928,0.0739082464673,1.92758527253,0.146835553787,-0.023092331556,-0.121198078125,-0.00169805687269,-0.205730791359,-0.0124661661016,0.0751348325138,-0.0216796127267,0.573767102779,0.819003906621,0.00215861279799,0.0,0.818962459138,-0.57370667031,-0.0119119211594,0.0,-0.00851766339553,0.00860265696535,-0.999926719167,0.0,0.650664125761,0.246796960617,0.303492098802,1.0,-0.025132,-0.0330306285714,1.047
0.456653697453,0.487290962951,-0.124160709281,-1.45069808858,0.073689136044,1.9289065937,0.146315992928,-0.0240093786299,-0.136803309802,-0.00382841732969,-0.209014419814,-0.00845832446166,0.0829152606701,-0.0324196942887,0.573756009852,0.819011456578,0.0022409937405,0.0,0.818971188269,-0.573695358142,-0.0118564637409,0.0,-0.00842509414092,0.00863819294548,-0.999927197056,0.0,0.650242178648,0.246229974651,0.303522630478,1.0,-0.027036,-0.0355330285714,1.064
0.456192960514,0.484424190228,-0.124192764932,-1.45505417189,0.0734238373055,1.93053421422,0.145664025983,-0.0244130599889,-0.150313170872,-0.000708533442739,-0.226837186465,-0.00428088681532,0.0838773320838,-0.0333674930042,0.573765814047,0.819004267731,0.00235520086277,0.0,0.818965536155,-0.573704772327,-0.0117911704532,0.0,-0.00830598886399,0.00869436624448,-0.999927706659,0.0,0.64971127553,0.245501071174,0.303581712412,1.0,-0.029276,-0.0384770285714,1.084
0.455847207927,0.482310113844,-0.124232736193,-1.45835020377,0.0732114293095,1.9316421558,0.145156480567,-0.0228735860724,-0.150488034373,-0.00318740702988,-0.239254025661,-0.0182768094658,0.0899533740699,-0.0366486661515,0.573765603781,0.819004614972,0.00228461648646,0.0,0.818964969035,-0.573704836748,-0.0118273702416,0.0,-0.00837613654904,0.00865732577825,-0.999927442891,0.0,0.649284497967,0.244931819369,0.303576814661,1.0,-0.030844,-0.0405378285714,1.098
0.455423258677,0.47973691703,-0.124263378741,-1.46232651645,0.0729682005136,1.93309750665,0.144581137019,-0.0280203824729,-0.166960978743,-0.000792118382072,-0.247619778715,-0.0116049805923,0.0937480400482,-0.0372485566247,0.573792035758,0.818985981593,0.00232563020242,0.0,0.818946865913,-0.573731103981,-0.0118066945547,0.0,-0.00833539142787,0.00867932197351,-0.999927592689,0.0,0.648788534166,0.244261399927,0.30359505329,1.0,-0.032636,-0.0428930285714,1.114
0.454941159281,0.476867435356,-0.124286715118,-1.46671215873,0.0726996440018,1.93470144077,0.143951187301,-0.0268892545257,-0.166174824201,-0.000969942321735,-0.263960663051,-0.0208249378683,0.0953091221114,-0.0280758499108,0.573827806242,0.818960705331,0.00239975177352,0.0,0.818922508102,-0.573766541449,-0.0117740620989,0.0,-0.00826575606715,0.00872166288503,-0.99992780233,0.0,0.648240052964,0.243519413808,0.30363459277,1.0,-0.03454,-0.0453954285714,1.131
0.454420116983,0.473841246858,-0.124307713625,-1.47135603985,0.0724186791218,1.93640405541,0.143273337068,-0.0289225331461,-0.174948341571,-0.00234538044562,-0.284554086623,-0.0126471034355,0.10325657406,-0.0396483340416,0.573862346699,0.818936281464,0.00247403386704,0.0,0.818898954831,-0.573800700699,-0.0117475340116,0.0,-0.00820103734878,0.00876761998763,-0.999927933316,0.0,0.64765762117,0.242730250631,0.303666180493,1.0,-0.036444,-0.0478978285714,1.148
0.453817594415,0.470308601222,-0.124317005855,-1.4768230101,0.0720699054353,1.93830549635,0.142450043129,-0.0348172958179,-0.191312844495,-0.00127043898815,-0.284915156579,-0.0161069327362,0.106794609334,-0.034878171862,0.573854174476,0.818942089255,0.00244699511292,0.0,0.818904209419,-0.573792414884,-0.0117858948661,0.0,-0.00824805693101,0.00876740836703,-0.999927548429,0.0,0.64694045087,0.241808169467,0.30367060817,1.0,-0.038572,-0.0506946285714,1.167
0.453296646796,0.46713682202,-0.124312405273,-1.48157349923,0.0717567242649,1.94014483188,0.141680799011,-0.0353347139939,-0.2054657899,0.000523372087211,-0.303472413081,-0.02474457164,0.109293380293,-0.0473009781847,0.573787723488,0.818987983077,0.00266061097982,0.0,0.818953042173,-0.57372537889,-0.0116555237258,0.0,-0.00801942822427,0.00886688259561,-0.999928531028,0.0,0.646350276288,0.241028567388,0.303758064725,1.0,-0.040364,-0.0530498285714,1.183
0.452704444047,0.463670098927,-0.124319072105,-1.486951814,0.0713971758932,1.94197930297,0.140867450303,-0.0382167717837,-0.208049416191,-0.000575147558469,-0.32368043443,-0.0204277360778,0.103366477435,-0.0483751808497,0.57376537574,0.819003866618,0.00258978151645,0.0,0.818967862214,-0.573703125753,-0.0117094433016,0.0,-0.00810446962507,0.00883959115728,-0.999928087014,0.0,0.645627705618,0.240119740482,0.303747808739,1.0,-0.042268,-0.0555522285714,1.2
0.452110006976,0.460298529624,-0.124324781187,-1.49223306441,0.0710367992838,1.94382524478,0.140092944856,-0.0363464618151,-0.213527355133,-0.00131947422672,-0.335114899836,-0.0267371795544,0.114192666591,-0.0487895959706,0.573769187504,0.819001402561,0.00252368300693,0.0,0.818964506778,-0.57370714094,-0.0117473390189,0.0,-0.0081733895334,0.00880723753988,-0.99992781153,0.0,0.644924550217,0.239221607703,0.303716525546,1.0,-0.04406,-0.0579074285714,1.216
0.451488444654,0.456854493535,-0.12432585739,-1.4976534676,0.0706755548398,1.94575567667,0.139248581001,-0.0396171621586,-0.209755749682,-0.000470398079407,-0.348688844806,-0.0217682242819,0.122696639196,-0.0629825141889,0.573739134268,0.819022598549,0.00247705010397,0.0,0.818985008026,-0.573677168786,-0.0117817461875,0.0,-0.00822864771432,0.00878848496263,-0.999927523318,0.0,0.644205722889,0.238299552522,0.303673457658,1.0,-0.045852,-0.0602626285714,1.232
0.450688947525,0.452536348164,-0.124372555137,-1.50433498541,0.0702115934879,1.9481024845,0.138180713583,-0.0376680607658,-0.236966578973,-0.0036569881338,-0.355145800539,-0.0286788377142,0.132435192855,-0.0552796396655,0.573731422691,0.819028118006,0.00243791598257,0.0,0.818990210697,-0.573669808794,-0.0117784617959,0.0,-0.00824849141116,0.00875447151821,-0.999927658192,0.0,0.643326571357,0.237111944456,0.303664693084,1.0,-0.04798,-0.0630594285714,1.251
0.449995638559,0.448689571422,-0.124429375148,-1.5101026652,0.069829930053,1.95024386589,0.137317506968,-0.0461279551659,-0.236757868115,-0.00378124949679,-0.365673412129,-0.0244324727652,0.126599820631,-0.0543984161812,0.573792097176,0.818985103464,0.00260315657816,0.0,0.818949644065,-0.573730202343,-0.0116568566467,0.0,-0.00805343745013,0.00882063619947,-0.999928666717,0.0,0.642541317797,0.23602379122,0.30374621275,1.0,-0.049884,-0.0655618285714,1.268
0.449216378295,0.444482346533,-0.124443763566,-1.51655708778,0.0693937226631,1.95236787916,0.136353490259,-0.0426239922296,-0.243885723399,-0.000120069623647,-0.379942521415,-0.0261443051233,0.134378738015,-0.0590491545782,0.573818750663,0.818966748796,0.00250053103335,0.0,0.818929661899,-0.57375690072,-0.0117462606487,0.0,-0.00818525754969,0.00878815284327,-0.999927882364,0.0,0.641693848469,0.234950235294,0.303739942589,1.0,-0.051676,-0.0679170285714,1.284
0.448422879925,0.440223716402,-0.124449401342,-1.52316126553,0.0689292386961,1.95467594801,0.135283534907,-0.0499023065749,-0.248995019686,0.000503482168747,-0.391918492961,-0.0209917506159,0.13602433851,-0.0599980081613,0.573760741686,0.819007537414,0.00245190969396,0.0,0.818969824431,-0.573699085039,-0.0117700211476,0.0,-0.00823323620267,0.00876138479867,-0.999927723367,0.0,0.640792103227,0.233800631999,0.303710090712,1.0,-0.05358,-0.0704194285714,1.301
0.447566204549,0.435807772226,-0.124453618189,-1.52990680762,0.0684893848516,1.95710224317,0.134190991572,-0.0533797983861,-0.272324690555,-0.00192919378829,-0.392219769382,-0.0296908692684,0.146261624229,-0.0669792352584,0.57374602383,0.81901759507,0.00253495698986,0.0,0.818980793703,-0.573683882769,-0.0117477273589,0.0,-0.00816748868993,0.00881646269301,-0.999927778449,0.0,0.63988732876,0.232609888746,0.303725978669,1.0,-0.055484,-0.0729218285714,1.318
0.446718605589,0.431495916609,-0.124489093456,-1.5363589122,0.068011562649,1.95946723854,0.13314048457,-0.0548059374486,-0.26156657087,-0.00335753714368,-0.412682578456,-0.0375842195968,0.14400094672,-0.0719206135423,0.573750843854,0.819013811558,0.00266318520049,0.0,0.818979170121,-0.57368878947,-0.011620612946,0.0,-0.00798975683532,0.00884860005222,-0.999928930506,0.0,0.638979799736,0.231357682741,0.303786725408,1.0,-0.057388,-0.0754242285714,1.335
0.445781458183,0.426831037836,-0.124535084128,-1.54363801469,0.0674912774733,1.96179905891,0.131984505532,-0.0521329157824,-0.284737167624,-0.00296046819093,-0.430033557687,-0.0295816215875,0.140397849141,-0.0684397741054,0.573773404303,0.818998729935,0.00243059262978,0.0,0.818960934287,-0.573712031931,-0.0117575265829,0.0,-0.00823509765328,0.00873688467672,-0.999927922409,0.0,0.638001320577,0.230090935152,0.303716357413,1.0,-0.05918,-0.0777794285714,1.351
0.444933121175,0.422575581928,-0.124577580193,-1.55012945777,0.0670145529614,1.96398642084,0.13090322524,-0.0527119599583,-0.286679786535,0.000562940516391,-0.433793539758,-0.0337006326589,0.14008789554,-0.0719237150696,0.573754939681,0.819011862185,0.002363407162,0.0,0.818973343424,-0.57369397947,-0.0117740215316,0.0,-0.00828735039733,0.00869113781036,-0.999927889374,0.0,0.637093553787,0.228894809771,0.303710154468,1.0,-0.06086,-0.0799874285714,1.366
0.44373101144,0.416716661242,-0.124604952603,-1.55884759966,0.0664232040945,1.96714102537,0.129506881463,-0.0614011047803,-0.29686250627,0.000348132974416,-0.435812460538,-0.0290927852526,0.167721569668,-0.075658038469,0.573816659438,0.818967891389,0.00260405968492,0.0,0.818932560757,-0.573754886606,-0.0116420758246,0.0,-0.00804054912574,0.00881313600493,-0.99992883657,0.0,0.635915459285,0.22729162134,0.303809630578,1.0,-0.0631,-0.0829314285714,1.386
0.442857193095,0.412568491225,-0.124614625408,-1.56511897496,0.0659892246224,1.96938402929,0.128417783956,-0.0616007645562,-0.296717688806,-0.000349948734132,-0.452703005722,-0.028032217632,0.150057412086,-0.0793922446507,0.573785263622,0.818989586186,0.00269738223866,0.0,0.818955460987,-0.573723169523,-0.0115941611259,0.0,-0.00794809956082,0.00886176532926,-0.999929145904,0.0,0.635052733106,0.226136785405,0.303828870265,1.0,-0.064668,-0.0849922285714,1.4
0.441634148232,0.40676094854,-0.124665494023,-1.57403501275,0.0653506648626,1.97221443656,0.126984233203,-0.0647859388952,-0.308312493793,-0.00320836643263,-0.468487351017,-0.0277973102462,0.151663336429,-0.0816242996324,0.57383242399,0.818957324874,0.00244869653766,0.0,0.818919642597,-0.573770847374,-0.0117635272673,0.0,-0.00822899456816,0.00875574763518,-0.99992780766,0.0,0.633743759074,0.224461702682,0.303758648042,1.0,-0.066796,-0.0877890285714,1.419
0.440559075443,0.40181189771,-0.124715362468,-1.58160690337,0.0648291064694,1.97479049226,0.125695159217,-0.0666042008503,-0.317097410545,-0.0039236170921,-0.469722580035,-0.0337821022639,0.164198816985,-0.0861717565923,0.573851632463,0.81894400609,0.00240118937359,0.0,0.818905536014,-0.573790051754,-0.0118087465658,0.0,-0.0082930833121,0.00874298409472,-0.999927389863,0.0,0.632664493851,0.223029093533,0.303719131631,1.0,-0.068588,-0.0901442285714,1.435
0.439440005562,0.396621699186,-0.124714227559,-1.58911346209,0.0642743666721,1.97753067961,0.124384732345,-0.0692092159339,-0.320477782025,0.000489013349491,-0.481320315943,-0.0374988564822,0.161203077118,-0.0949292634277,0.573833399072,0.818955726415,0.00273773310334,0.0,0.818921997664,-0.573771021498,-0.0115898029992,0.0,-0.00792085611594,0.00889277712517,-0.999929086762,0.0,0.631632272515,0.22161713064,0.303877853351,1.0,-0.07038,-0.0924994285714,1.451
0.438135853777,0.390754409195,-0.124726965021,-1.59799975242,0.0636049618513,1.98042415649,0.122910436464,-0.0762818299744,-0.330315360958,-0.00272254863138,-0.498991491901,-0.036840869846,0.160972674074,-0.0756119461193,0.573856931658,0.818939654986,0.00260967047254,0.0,0.818904139321,-0.573794851503,-0.0116715848309,0.0,-0.00806106337376,0.00883505991317,-0.999928477929,0.0,0.630317915617,0.219927275479,0.30384306239,1.0,-0.072396,-0.0951490285714,1.469
0.43703829105,0.385799123358,-0.124738849008,-1.60559990874,0.0630386359677,1.98287415863,0.121553452132,-0.0728277747499,-0.330256734508,-0.000762464968348,-0.506285052269,-0.0381333261809,0.170913641933,-0.100227474248,0.573781454297,0.818993086122,0.00243197242114,0.0,0.818954999477,-0.573719748153,-0.0117943338701,0.0,-0.00826436640475,0.00875921465539,-0.999927485574,0.0,0.62917169272,0.218494635399,0.303762861064,1.0,-0.074076,-0.0973570285714,1.484
0.435753974586,0.379954915677,-0.124732423624,-1.61408177295,0.0624449198156,1.98586521733,0.120051648537,-0.0783699840522,-0.337935187449,0.00184401009358,-0.50204206045,-0.0330572843929,0.175767325455,-0.084900321022,0.573749457764,0.819014548701,0.00273416030599,0.0,0.818980284299,-0.573686554537,-0.0116523806163,0.0,-0.00797507179107,0.00892494227776,-0.999928369252,0.0,0.627947407812,0.216898931743,0.303895653434,1.0,-0.07598,-0.0998594285714,1.501
0.434043867964,0.372717107021,-0.12476348514,-1.62499927601,0.0615812171615,1.98943566921,0.118101998641,-0.0761823322028,-0.352354287961,-0.00160409216946,-0.529163198673,-0.0401664417652,0.167583109315,-0.0915597537507,0.57372820184,0.819029889322,0.00259571033184,0.0,0.818993984278,-0.573665959776,-0.0117032991988,0.0,-0.00809643707018,0.00884055415969,-0.999928143573,0.0,0.626313067081,0.21475659609,0.303843006747,1.0,-0.078332,-0.102950628571,1.522
0.43285426696,0.367766452827,-0.12482525695,-1.63243343223,0.0610279218019,1.99179358129,0.116855479746,-0.0851863473437,-0.357558970757,-0.00757132725242,-0.532183055723,-0.0368441593263,0.168361240405,-0.0899996098188,0.573837357832,0.81895378653,0.0024757192481,0.0,0.818916144333,-0.573775348161,-0.0117875058942,0.0,-0.0082330744245,0.00879168696609,-0.999927458732,0.0,0.625185364277,0.213263176259,0.303808934724,1.0,-0.0799,-0.105011428571,1.536
0.431400500844,0.361613889567,-0.124865460527,-1.64135422744,0.0603145460465,1.99489773903,0.115190741432,-0.0893497667754,-0.354701263198,-0.0024730105478,-0.536295319376,-0.0454760169691,0.190578588395,-0.0953215427046,0.573804171627,0.818976289736,0.00271226394908,0.0,0.81894233911,-0.57374200454,-0.0115889749798,0.0,-0.00793510875126,0.00887116076838,-0.999929165769,0.0,0.623880612319,0.211490859621,0.303921712263,1.0,-0.081804,-0.107513828571,1.553
0.429841797239,0.355448848003,-0.124885754165,-1.65060573117,0.0596416638416,1.997835664,0.113456126225,-0.0904769568365,-0.366510888388,0.000754183221202,-0.549818607057,-0.0451160853032,0.175402318357,-0.100796134879,0.573803231712,0.818977331508,0.00259396488895,0.0,0.818941252498,-0.573740821242,-0.0117235616955,0.0,-0.0081132239322,0.00885149286181,-0.999927910737,0.0,0.622452664962,0.209629725406,0.303862787764,1.0,-0.083708,-0.110016228571,1.57
0.428339003402,0.349543683806,-0.124940176121,-1.65949172058,0.0589574015171,2.00063112045,0.111833894221,-0.0972349417358,-0.371542065836,0.00150737088731,-0.557411267436,-0.0452023556439,0.172663613947,-0.10940427661,0.573849992499,0.818945100872,0.00241966250019,0.0,0.818906505682,-0.573787955836,-0.0118432930449,0.0,-0.00831079362607,0.00877791999012,-0.999926936746,0.0,0.621070106735,0.20781589341,0.303785042806,1.0,-0.0855,-0.112371428571,1.586
0.426700785499,0.343027376259,-0.124968412578,-1.6687638234,0.0582527358103,2.00382394875,0.110085743345,-0.094299696568,-0.38222419678,-0.00254606071776,-0.558892805185,-0.0499137479575,0.180215196345,-0.0947671741065,0.573886176642,0.818918629433,0.00277155705823,0.0,0.818884854926,-0.573823133287,-0.0116341298956,0.0,-0.00793717496874,0.0089464246703,-0.999928478812,0.0,0.619685390449,0.20592422167,0.303948067793,1.0,-0.087404,-0.114873828571,1.603
0.425021738356,0.336520380385,-0.124964687805,-1.67843708895,0.0574780024406,2.00681877152,0.108216002144,-0.0955047419029,-0.382762717349,-0.0018153191373,-0.581364535708,-0.051349683045,0.177285921671,-0.116300063075,0.573813257522,0.818970252764,0.00261103059387,0.0,0.818934046122,-0.573750402552,-0.0117580004783,0.0,-0.00813152932652,0.00888532947529,-0.999927461945,0.0,0.618136706752,0.203966517036,0.303887880465,1.0,-0.089308,-0.117376228571,1.62
0.423306553807,0.329862247686,-0.124960749086,-1.68815407125,0.0566566471357,2.00988089803,0.106361864786,-0.100359628488,-0.400346598898,0.00169260492653,-0.563111645876,-0.0409978057502,0.187246088015,-0.106985945802,0.573759749076,0.819007858449,0.00257391551977,0.0,0.818971305368,-0.573697184435,-0.0117596112095,0.0,-0.00815472290986,0.00885532502235,-0.999927539231,0.0,0.616585215811,0.20198754439,0.303899705878,1.0,-0.091212,-0.119878628571,1.637
0.421536260515,0.323111531648,-0.12495585816,-1.69787437227,0.0559036617782,2.01313033784,0.104428281605,-0.107290045113,-0.393538879058,0.000134939132975,-0.582960292396,-0.0364144101243,0.184423677253,-0.111510659119,0.573702680661,0.819047090998,0.00280068396943,0.0,0.819013444581,-0.573639279576,-0.0116490954618,0.0,-0.0079347281843,0.00897708795545,-0.999928223414,0.0,0.615063658915,0.200003771836,0.303974460325,1.0,-0.093116,-0.122381028571,1.654
0.419679670389,0.316277660467,-0.125008870655,-1.70791397285,0.0550804549475,2.01618003638,0.102503020019,-0.105509722221,-0.400195077634,-0.00630717193032,-0.595784562583,-0.049165031488,0.181228719444,-0.119164500112,0.573744649406,0.8190182135,0.00264388632438,0.0,0.818982322821,-0.573681562297,-0.0117544411961,0.0,-0.00811050874446,0.00890951544203,-0.999927417457,0.0,0.613426329028,0.197885065058,0.303924964917,1.0,-0.09502,-0.124883428571,1.671
0.417882766056,0.309692125274,-0.125056149788,-1.71729200564,0.0542701950823,2.0191750976,0.100542042049,-0.114519773744,-0.416018749257,-0.000749930709956,-0.586043798386,-0.060352643563,0.196428828837,-0.116894214812,0.573678176844,0.819064374735,0.00276520411669,0.0,0.819030550032,-0.573615217981,-0.0116312817681,0.0,-0.00794075825082,0.00893757124369,-0.999928529535,0.0,0.611928301886,0.195880953479,0.304009412439,1.0,-0.096812,-0.127238628571,1.687
0.415875526932,0.302691556574,-0.125058829828,-1.72743539548,0.0534465624899,2.02234436852,0.0984365817955,-0.12494192474,-0.407324006362,-0.00142261204959,-0.601094313618,-0.055191376654,0.184956292799,-0.130747770304,0.573643733781,0.819088460126,0.00277634356953,0.0,0.819054517923,-0.573580446239,-0.0116582702021,0.0,-0.00795685139807,0.00896184293532,-0.999928184365,0.0,0.610272664928,0.193713606276,0.304002937168,1.0,-0.098716,-0.129741028571,1.704
0.413803806851,0.295620092637,-0.12513616225,-1.73779328506,0.0526054867216,2.02538083901,0.0964217222597,-0.123015270862,-0.416778281363,-0.00318517714299,-0.605069233523,-0.0397743037159,0.177344577251,-0.12504736814,0.573785553077,0.818989834012,0.00255690556086,0.0,0.818952490961,-0.573722432386,-0.011837864127,0.0,-0.00822829471883,0.00888655068721,-0.999926659502,0.0,0.608537240158,0.191440234221,0.303918320562,1.0,-0.10062,-0.132243428571,1.721
0.411808936955,0.288744161264,-0.125211028076,-1.7473594326,0.0517949263291,2.02855860042,0.0943435679491,-0.131412317527,-0.422472583372,-0.0016470097643,-0.602323079272,-0.0524303087076,0.204583967216,-0.130146532469,0.573789172695,0.818986075378,0.00292241963587,0.0,0.818954187331,-0.573725561144,-0.0115657444406,0.0,-0.00779566689349,0.00902980058376,-0.999928842608,0.0,0.607018662826,0.189317523091,0.304079013365,1.0,-0.102412,-0.134598628571,1.737
0.409360494197,0.280615514628,-0.125246045033,-1.75920105489,0.0507616034299,2.03195247226,0.0918397921864,-0.135201225702,-0.430189408722,-0.00397553918094,-0.641463699988,-0.0575963007271,0.187893331736,-0.134925388957,0.573763248929,0.819005241751,0.0026258452609,0.0,0.818969063774,-0.573700167122,-0.0117702050173,0.0,-0.00813356833701,0.00890396853519,-0.999927279561,0.0,0.604980779903,0.186710023782,0.303971319054,1.0,-0.10454,-0.137395428571,1.756
0.407225832238,0.273595247532,-0.125300923134,-1.76909879632,0.0498996406065,2.03497578632,0.089730439538,-0.130135028261,-0.448897803833,-0.00772908942972,-0.614206834165,-0.0505557427492,0.196404542839,-0.132532629094,0.573812176663,0.818970674125,0.00271435789825,0.0,0.818935832705,-0.57374897716,-0.0117029919997,0.0,-0.00802720172801,0.00893837634992,-0.999927832126,0.0,0.603321602389,0.184485711841,0.304026333692,1.0,-0.106332,-0.139750628571,1.772
0.404596894164,0.265245436745,-0.125397895874,-1.78091429781,0.0488799996496,2.03859705593,0.0871189573023,-0.140096008385,-0.438701595626,-0.0105066607617,-0.621975095379,-0.054953654379,0.179816545679,-0.133583755038,0.573877494066,0.818924589315,0.00280815268629,0.0,0.818891139801,-0.573814158385,-0.0116344184522,0.0,-0.00791650599982,0.00897647508521,-0.999928373349,0.0,0.601337495921,0.181777924251,0.304057127226,1.0,-0.10846,-0.142547428571,1.791
0.402742519327,0.259480235003,-0.125465715492,-1.78923136558,0.0481268119976,2.04091307446,0.0853090406864,-0.1445177849,-0.44610011887,-0.00668125455129,-0.629815004108,-0.0525189609685,0.186500099072,-0.141181441768,0.573936727364,0.818883855995,0.0025710454707,0.0,0.818847112432,-0.57387398438,-0.0117814861389,0.0,-0.00817237003391,0.00886729148048,-0.999927289111,0.0,0.599764511295,0.179708876848,0.303974209024,1.0,-0.110028,-0.144608228571,1.805
0.40013947308,0.251280335417,-0.125475231257,-1.80053696739,0.0471155435802,2.04433970334,0.0827815229334,-0.15293949369,-0.448749869551,0.00134767071615,-0.628955573643,-0.0552168308102,0.194073826928,-0.135578019231,0.573938888908,0.818881528137,0.00281808008973,0.0,0.818848254231,-0.573875564984,-0.0116240852473,0.0,-0.00790167351854,0.0089792674119,-0.999928465598,0.0,0.597932971863,0.177284367415,0.30410228469,1.0,-0.111932,-0.147110628571,1.822
0.397784032713,0.244028289568,-0.125474517471,-1.81086998513,0.0462222204663,2.0473112205,0.0804001314131,-0.146199594134,-0.453642768656,-0.00157131581076,-0.652758993551,-0.0549516725357,0.186289300457,-0.144216283131,0.573865149418,0.818933511217,0.0027278910735,0.0,0.818898460361,-0.57380146596,-0.0117446235264,0.0,-0.00805295292975,0.00897386870975,-0.999927307173,0.0,0.59608934448,0.174955586653,0.304036758,1.0,-0.113724,-0.149465828571,1.838
0.395201369177,0.236126634495,-0.125486107485,-1.82175834794,0.045257701635,2.05045540384,0.0778578187993,-0.145929651382,-0.477030868457,-0.000454924987065,-0.63673996676,-0.0523104355637,0.192261945773,-0.142628684677,0.573833039479,0.818955592103,0.0028509413422,0.0,0.818921926543,-0.573768686287,-0.0117098148538,0.0,-0.00795419063126,0.00905435135004,-0.999927372149,0.0,0.594154230214,0.172447789133,0.304113381244,1.0,-0.115628,-0.151968228571,1.855
0.392427155422,0.227735619046,-0.125454676233,-1.83344481863,0.0441457916864,2.05383343154,0.0751019676264,-0.16125896993,-0.475642574307,0.000665798112621,-0.656034754989,-0.0658019345083,0.183403241731,-0.159063399233,0.57370213257,0.819047219689,0.00287435312016,0.0,0.819014004912,-0.573637883143,-0.0116784280609,0.0,-0.00791649861146,0.0090542488664,-0.999927672198,0.0,0.5920454844,0.169784097795,0.304121036144,1.0,-0.117644,-0.154617828571,1.873
0.389803826884,0.220213141374,-0.125505567152,-1.84399546815,0.0431550733708,2.05667617317,0.0725725959913,-0.163463545067,-0.472044375302,-0.00757282682922,-0.644027370213,-0.0613704221536,0.177941308933,-0.156759119319,0.573703737922,0.819046704125,0.0026952655793,0.0,0.819010809692,-0.573639728281,-0.0118111238388,0.0,-0.00812790712503,0.00898371050408,-0.999926612343,0.0,0.590107756721,0.167267687934,0.304062334185,1.0,-0.119436,-0.156973028571,1.889
0.387141936151,0.212537923157,-0.125584962247,-1.85437763074,0.0422321105873,2.05975309605,0.0700410773822,-0.171623533217,-0.476836892733,-0.00434749678975,-0.64907677324,-0.065827636748,0.182690778938,-0.154139338139,0.573770534268,0.8189989014,0.00298670615662,0.0,0.818966949452,-0.573705670186,-0.0116484592457,0.0,-0.00782673575692,0.00912973209043,-0.999927692485,0.0,0.588137098965,0.164603746138,0.304179455651,1.0,-0.12134,-0.159475428571,1.906
0.384363247692,0.204871496134,-0.125612148278,-1.86508932687,0.0412053946162,2.0625550699,0.0673866197138,-0.174901255439,-0.477005172237,-0.00262522396202,-0.678144512811,-0.0702823185129,0.172407459924,-0.171130062759,0.573747928075,0.819015508285,0.00276751140265,0.0,0.818980218383,-0.573683274746,-0.0118173209672,0.0,-0.0080910499119,0.0090468746936,-0.999926341772,0.0,0.586246618879,0.162178873954,0.304097814639,1.0,-0.12302,-0.161683428571,1.921
0.380998311751,0.19557741381,-0.12569552732,-1.87761132474,0.0400016055243,2.06609397179,0.0641743620996,-0.177027925071,-0.487920577848,-0.00235085994212,-0.657756179184,-0.0622959252777,0.197821009438,-0.15863196992,0.573759480511,0.819006635003,0.0029895225419,0.0,0.818974601721,-0.57369447095,-0.0116620169444,0.0,-0.00783634757593,0.00913971178462,-0.999927526036,0.0,0.583829256571,0.1589325149,0.304206440219,1.0,-0.12526,-0.164627428571,1.941
0.377825301046,0.187266089869,-0.125797831175,-1.88905666406,0.0389308912074,2.06912463456,0.0612200057681,-0.191647581496,-0.49455148945,-0.00319900192932,-0.67456543194,-0.0653887809668,0.170686288995,-0.175810214512,0.573844209214,0.818947631177,0.00288926318052,0.0,0.818913841888,-0.573779010927,-0.0117691581848,0.0,-0.00798067929915,0.00911989646932,-0.999926565427,0.0,0.581800925081,0.15621222436,0.304153589786,1.0,-0.127052,-0.166982628571,1.957
0.374958700314,0.179835624611,-0.125926420781,-1.89909095308,0.0379555627966,2.07177660272,0.0585778448953,-0.191680215806,-0.499388739972,-0.00804373600228,-0.665672996081,-0.0673929213496,0.18812401783,-0.179093118421,0.573956621579,0.818868800582,0.00290359772942,0.0,0.818835189305,-0.573891348134,-0.0117643611868,0.0,-0.00796727211394,0.00912997677858,-0.999926580354,0.0,0.579914315356,0.153626920443,0.304178586478,1.0,-0.128732,-0.169190628571,1.972
0.371135909687,0.169842370925,-0.125947441279,-1.91258878617,0.0365551414812,2.07535227868,0.0549905735814,-0.189445535955,-0.500871208017,-0.00182569074153,-0.677766941322,-0.0678985213826,0.164936590803,-0.187360152133,0.573881147,0.818921722698,0.00289622384446,0.0,0.818888362793,-0.573816307283,-0.0117235523602,0.0,-0.00793892407235,0.00909978487671,-0.999927081041,0.0,0.577319515923,0.150267993887,0.304185006966,1.0,-0.130972,-0.172134628571,1.992
0.367747776095,0.161256683978,-0.12597360259,-1.92416367825,0.0354321176881,2.07829777379,0.0517806151829,-0.199356367727,-0.51857934189,-0.0025113715213,-0.668442675909,-0.0592491260035,0.183473251758,-0.191108488127,0.573820303481,0.818964473747,0.00286303254326,0.0,0.818930084622,-0.573754907604,-0.0118139494995,0.0,-0.00803268061641,0.00912388323307,-0.999926112669,0.0,0.575055296452,0.147346883002,0.304167158033,1.0,-0.132876,-0.174637028571,2.009
0.364902763126,0.154101848971,-0.125987405585,-1.93358141887,0.0344196028253,2.08088072732,0.0491796119416,-0.204468091327,-0.508997435993,-0.000222734958265,-0.685732200905,-0.0783557788618,0.170989724056,-0.18413585054,0.57379737871,0.818979822075,0.00306041180483,0.0,0.818948865711,-0.573732314398,-0.0116074832712,0.0,-0.00775058665923,0.00916684074073,-0.999927946123,0.0,0.573250368278,0.144936096542,0.30425245546,1.0,-0.134444,-0.176697828571,2.023
0.361342633196,0.145395905264,-0.126003915227,-1.94536573057,0.0332356512668,2.08360490125,0.0459013311132,-0.209748740424,-0.505326754573,-0.000626312081916,-0.689594809107,-0.070474938061,0.163487505453,-0.196526331211,0.573768220821,0.819001254673,0.00277858278501,0.0,0.818965509239,-0.57370285355,-0.0118860173118,0.0,-0.00814073895329,0.00909555758879,-0.999925496825,0.0,0.570851909084,0.141925825517,0.304150267958,1.0,-0.136348,-0.179200228571,2.04
0.357693410653,0.136508149386,-0.126103520057,-1.9568677066,0.0320824234945,2.08662499119,0.0425423767909,-0.216483244784,-0.513695487794,-0.0027978044719,-0.677272352548,-0.0652416713404,0.182561433752,-0.20848216621,0.573809339519,0.818971318384,0.00309329054236,0.0,0.818940026297,-0.573743262303,-0.0116897045266,0.0,-0.00779892827422,0.00924105899072,-0.999926887101,0.0,0.568603958397,0.138883935641,0.304288688591,1.0,-0.138252,-0.181702628571,2.057
0.353925549201,0.127630042786,-0.126167190783,-1.96865342282,0.0308020151103,2.0894003893,0.0390579968363,-0.222075455854,-0.524196913228,-0.00188435741463,-0.704453308485,-0.0671255861643,0.157182157102,-0.198957047703,0.573754353001,0.819010400254,0.00294169834776,0.0,0.818977005826,-0.573688651659,-0.0117788703675,0.0,-0.00795955162152,0.00916753795517,-0.999926298177,0.0,0.566200627533,0.135766652041,0.304246035127,1.0,-0.140156,-0.184205028571,2.074
0.350008673194,0.11857675477,-0.126301728888,-1.9803298991,0.0295518111434,2.09228308277,0.0356100289202,-0.235154898389,-0.536689420788,-0.00664799862945,-0.677071934643,-0.0617973679193,0.17520258123,-0.208245608342,0.57390638875,0.818903247541,0.00311046955807,0.0,0.81887251344,-0.573840639476,-0.0116393350276,0.0,-0.00774672456152,0.00922714440927,-0.999927421398,0.0,0.563858136547,0.132569696979,0.304341456913,1.0,-0.14206,-0.186707428571,2.091
0.345995570446,0.109596004096,-0.126364689438,-1.99213012795,0.0282760774441,2.09507873045,0.0319261037266,-0.238659765439,-0.543098761462,-0.0112818811727,-0.687036861335,-0.079920208744,0.158735555767,-0.211580803622,0.573863674032,0.818933367975,0.00306093868013,0.0,0.818901873735,-0.573797955844,-0.0116779263523,0.0,-0.00780723351448,0.00920832343092,-0.999927124287,0.0,0.561429266045,0.129366963275,0.304306184648,1.0,-0.143964,-0.189209828571,2.108
0.342194263559,0.1010103743,-0.126364641924,-2.00323685049,0.0270268572157,2.09761012777,0.0284696196591,-0.24007912169,-0.544984387426,0.00210534296505,-0.679949861661,-0.0723730796349,0.166497353249,-0.212059611118,0.573770416997,0.818998829315,0.00302870631576,0.0,0.8189669786,-0.573704892644,-0.0116846489296,0.0,-0.00783228095826,0.00918489318696,-0.999927143902,0.0,0.559095180527,0.126387201708,0.304317775683,1.0,-0.145756,-0.191565028571,2.124
0.337797319247,0.0913015462094,-0.126368912212,-2.0157547044,0.0257486157012,2.10051957215,0.0244676300408,-0.247229889198,-0.534608904871,-0.00207298042921,-0.697488482186,-0.0767881414368,0.151664132188,-0.21691579809,0.573713944769,0.81903796763,0.00314070996177,0.0,0.819006880839,-0.573647232225,-0.0117187456437,0.0,-0.00779658814689,0.00929564983047,-0.999926399345,0.0,0.556456342342,0.123012551448,0.304328292644,1.0,-0.147772,-0.194214628571,2.142
0.333457816358,0.0820552614992,-0.126468542206,-2.02766513806,0.0244135176801,2.10303836224,0.0205344947243,-0.258363409344,-0.552689605925,-0.0107858983215,-0.68731940507,-0.0810506959752,0.167797416847,-0.233802800558,0.573698007979,0.819049641453,0.00300455955772,0.0,0.819016332095,-0.573631242345,-0.0118402900158,0.0,-0.00797442959281,0.00925371230712,-0.999925385857,0.0,0.553896188882,0.119665490823,0.304296013813,1.0,-0.149676,-0.196717028571,2.159
0.329294922031,0.0732443546151,-0.126574195593,-2.03870963793,0.0231612538018,2.10563037187,0.0168169760173,-0.259668698442,-0.542407299575,-0.00211518750071,-0.705052592903,-0.0822565556611,0.160411256552,-0.23324793786,0.573720213372,0.819033155878,0.00324857527641,0.0,0.81900382581,-0.573653573341,-0.01162144584,0.0,-0.00765494002798,0.00932823356425,-0.999927190325,0.0,0.551722165185,0.11671719438,0.304401957351,1.0,-0.151356,-0.198925028571,2.174
0.32469174435,0.0638724967595,-0.126722413491,-2.05078669904,0.0217966496461,2.10799591109,0.0127117922345,-0.279270766113,-0.559821952747,-0.00954640074411,-0.702307876542,-0.0802713897191,0.130946378088,-0.253263581407,0.573792629156,0.818983455744,0.0029773888865,0.0,0.818949524954,-0.573725640124,-0.0118874868288,0.0,-0.00802760525462,0.00925946180908,-0.999924907141,0.0,0.548902358632,0.113035301858,0.304296513834,1.0,-0.153372,-0.201574628571,2.192
0.319663364479,0.0537977877183,-0.126847308395,-2.06322589831,0.0203377239833,2.11075150184,0.00829660991063,-0.277491083232,-0.552376672448,-0.00384631396297,-0.694787492265,-0.0780806009744,0.149020258019,-0.247059113094,0.573876793227,0.818923482389,0.00324084687292,0.0,0.818893855397,-0.573809917691,-0.0116524183696,0.0,-0.00768295687278,0.00934114192371,-0.999926854946,0.0,0.54622570192,0.109352985383,0.304425037191,1.0,-0.155388,-0.204224228571,2.21
0.315731552835,0.0459903378706,-0.126863146505,-2.0731644365,0.0192319794659,2.11271359392,0.00483061032107,-0.280691659528,-0.551603088662,-0.00234833709908,-0.710600005619,-0.0803127749228,0.137419846388,-0.25402304583,0.573869541985,0.818929005763,0.00312717169751,0.0,0.818897011656,-0.573801985981,-0.0118199867367,0.0,-0.00788550447624,0.00934414183655,-0.999925250122,0.0,0.543984854177,0.106526684009,0.304351549238,1.0,-0.156956,-0.206285028571,2.224
0.310531656107,0.0357438896157,-0.126887866855,-2.08571554861,0.0177518949738,2.11526877756,0.000173218538461,-0.295467448764,-0.571442099786,-0.00445943063343,-0.692032007968,-0.0858978986561,0.158480323354,-0.273434424754,0.573772030279,0.818996697772,0.00328834441479,0.0,0.818967053364,-0.573704239533,-0.0117114451038,0.0,-0.0077052460842,0.00941292659853,-0.999926010261,0.0,0.54132984022,0.103061928921,0.3044459402,1.0,-0.15886,-0.208787428571,2.241
0.306064083231,0.0272710893436,-0.12700341537,-2.09625070248,0.0164610103971,2.11733617907,-0.0037316773541,-0.300956704438,-0.572159384766,-0.00560894623448,-0.720635343041,-0.0780736178324,0.131661264981,-0.267384004532,0.573830450635,0.818955843993,0.00326900818309,0.0,0.818926162174,-0.573762976993,-0.0116933331435,0.0,-0.00770083591163,0.00938724768626,-0.999926285637,0.0,0.538792365064,0.0996885266429,0.304433006867,1.0,-0.15998,-0.210259428571,2.257
0.30087424092,0.0176246149909,-0.127103698078,-2.10811427727,0.015019579451,2.1194881261,-0.00830574714409,-0.307060242667,-0.58219627227,-0.00982255293236,-0.674860813932,-0.0884459704435,0.132273392943,-0.263774702868,0.573842963789,0.81894733704,0.00320296212041,0.0,0.818916491785,-0.573775341772,-0.0117636541501,0.0,-0.00779618265541,0.00937362913685,-0.999925674544,0.0,0.536054127976,0.096082949884,0.304428622751,1.0,-0.15998,-0.210259428571,2.274
0.295270538905,0.00746853006001,-0.127243738842,-2.12051985707,0.0135128430265,2.12177300571,-0.0131956928229,-0.309977969146,-0.561079244434,-0.0100481364554,-0.690151153611,-0.0799072081259,0.126950875322,-0.278817933727,0.573927097196,0.818888314083,0.00321917120288,0.0,0.818857544823,-0.57385924566,-0.0117743092909,0.0,-0.00779464319762,0.00939381864048,-0.999925497079,0.0,0.533183053918,0.092241746452,0.304433629382,1.0,-0.15998,-0.210259428571,2.292
0.289949035048,-0.00207905505517,-0.127254441249,-2.13212048438,0.0121414226431,2.12378811472,-0.0178848073382,-0.31677431672,-0.555480288853,-0.00114112403386,-0.678759159668,-0.0803037525965,0.118993420109,-0.268803251684,0.57388005894,0.818921282585,0.00321835064594,0.0,0.818889784154,-0.573811352733,-0.0118659084361,0.0,-0.00787067035257,0.00944526454907,-0.999924416906,0.0,0.530435657064,0.0887105549041,0.304426118398,1.0,-0.15998,-0.210259428571,2.309
0.284914744548,-0.0110686269777,-0.127249012543,-2.1427707682,0.0107815865012,2.12579363106,-0.0223312922234,-0.318270207201,-0.556541830255,-0.00106844436743,-0.678638803639,-0.0769016640994,0.122905158218,-0.276508416081,0.573774589516,0.818994265843,0.00344381237931,0.0,0.81896664217,-0.573706294285,-0.0116393217963,0.0,-0.00755694646574,0.00949889742965,-0.99992632904,0.0,0.527936857244,0.0854247847966,0.304526911922,1.0,-0.15998,-0.210259428571,2.325
0.27942039316,-0.0204946858714,-0.127275639136,-2.15424078239,0.00932605454697,2.12748079967,-0.0271765410275,-0.325089851042,-0.554305538365,-0.00412719821054,-0.665622860703,-0.0849372891534,0.0863782515383,-0.286418838094,0.573687732944,0.819056245594,0.00316204432971,0.0,0.819023766728,-0.573618963187,-0.0119206336981,0.0,-0.0079500139543,0.00942869231054,-0.999923945628,0.0,0.524951367539,0.081641206586,0.304429454611,1.0,-0.15998,-0.210259428571,2.343
0.273803164305,-0.0299901752741,-0.127432521096,-2.1652517798,0.0078996660035,2.12941604488,-0.0319896398135,-0.332094313394,-0.547937422826,-0.0129421874056,-0.647915331325,-0.0816006709624,0.109011889104,-0.285349741022,0.57383930116,0.818948855159,0.00346063266111,0.0,0.818921431696,-0.573770920741,-0.0116346947871,0.0,-0.00754275480911,0.00951061448804,-0.999926324817,0.0,0.522496390177,0.0782210082868,0.304576106746,1.0,-0.15998,-0.210259428571,2.359
0.268102632114,-0.0393131786666,-0.127539866856,-2.17640278622,0.00650390646829,2.13106386657,-0.0369239747164,-0.336360377288,-0.548672251803,-0.00285976096192,-0.664213735112,-0.0834937892888,0.0988299854574,-0.294263718563,0.573916909744,0.818894938182,0.00334780987969,0.0,0.81886514901,-0.5738477726,-0.0118045974349,0.0,-0.00774574097369,0.00951644613769,-0.999924717541,0.0,0.519731757632,0.0745990018038,0.304513823169,1.0,-0.15998,-0.210259428571,2.376
0.263085968154,-0.0475213380434,-0.127552367654,-2.18604247357,0.00532069461724,2.13249317916,-0.0413330085674,-0.334229437907,-0.552905462142,-0.00266437936404,-0.625381607111,-0.0831064800658,0.103685665169,-0.293539668813,0.573873104291,0.818925481193,0.00338575335149,0.0,0.818895576855,-0.573803091271,-0.0118656460478,0.0,-0.00777447384271,0.00958213806157,-0.999923867195,0.0,0.517321042206,0.0715002315379,0.304515967593,1.0,-0.15998,-0.210259428571,2.391
0.257290597686,-0.0567861100999,-0.127562957062,-2.19674713982,0.00382292743384,2.13417812432,-0.0464146948851,-0.340857262845,-0.549695589864,0.0039921592133,-0.644233536698,-0.0849511549605,0.0915459918776,-0.301011588304,0.573761343916,0.81900331053,0.00349920985097,0.0,0.818976063546,-0.573692441615,-0.0116591883682,0.0,-0.00754158882751,0.00955554467025,-0.999925905257,0.0,0.514658884614,0.0679606202635,0.304579147689,1.0,-0.15998,-0.210259428571,2.408
0.250735540851,-0.0670422786309,-0.127610761373,-2.20886591293,0.00226033522304,2.13567108417,-0.0521638620369,-0.344721455277,-0.535356624463,-0.0031228876901,-0.630385452909,-0.0837857407356,0.0827150673695,-0.303551999971,0.573705493437,0.819043428764,0.00325814359637,0.0,0.819011535588,-0.57363556974,-0.0119617976778,0.0,-0.00792839737219,0.00953118973408,-0.999923145515,0.0,0.511514902239,0.063990298544,0.304463502764,1.0,-0.15998,-0.210259428571,2.427
0.245025930392,-0.0757041573518,-0.127782866047,-2.21859742572,0.000950508553961,2.13710237425,-0.0570476772392,-0.350103259735,-0.531876031262,-0.00756906141972,-0.610166476667,-0.0733278712456,0.0868974507832,-0.306856156694,0.573880608682,0.818919649104,0.0035216743499,0.0,0.818892082914,-0.573810842217,-0.011731189009,0.0,-0.00758627232139,0.00961635827751,-0.999924984249,0.0,0.509058957257,0.0605460414829,0.304582961401,1.0,-0.15998,-0.210259428571,2.443
0.238970567158,-0.0847979026937,-0.127835220111,-2.22911931761,-0.000409489425677,2.13834674993,-0.0623345653754,-0.349054011303,-0.534934569143,0.000827494256089,-0.623405189337,-0.0797728117866,0.0733974880786,-0.306921914555,0.57387207025,0.818926017756,0.00343093721495,0.0,0.818896194515,-0.57380126928,-0.0119110403685,0.0,-0.00778573462706,0.00964518052366,-0.999923173463,0.0,0.506285990765,0.056987807605,0.304522633575,1.0,-0.15998,-0.210259428571,2.46
0.233247367665,-0.0933706753838,-0.12784265672,-2.23881365264,-0.00168486116296,2.13947525044,-0.0673970982492,-0.363103386398,-0.541236143738,-0.00164823504777,-0.596306121586,-0.0810759726513,0.0735862827562,-0.31486943839,0.573771339826,0.818996430486,0.00347035263106,0.0,0.818966698262,-0.573699886063,-0.0119471657993,0.0,-0.00779389529161,0.00969723126558,-0.999922606456,0.0,0.503711921104,0.0536918337419,0.304540339057,1.0,-0.15998,-0.210259428571,2.476
0.227381754909,-0.101872444382,-0.127916162997,-2.24830177146,-0.00306926907337,2.14061560383,-0.072482427361,-0.364912156184,-0.527819370088,-0.00495486105912,-0.603685108169,-0.0839814156521,0.059455880172,-0.313746833355,0.573765799849,0.819000025893,0.00353714756845,0.0,0.818971998839,-0.573695159171,-0.0118100111124,0.0,-0.00764330212683,0.00967319152539,-0.999924001761,0.0,0.501196695423,0.0503193191363,0.304593382336,1.0,-0.15998,-0.210259428571,2.492
0.219914659998,-0.112418984242,-0.128093958223,-2.26030782948,-0.00472965697264,2.14175460297,-0.0789456369996,-0.38302927371,-0.527068251467,-0.00894355931532,-0.59610792032,-0.0920798867314,0.0518701988039,-0.332908100252,0.573867725047,0.818929463626,0.00333386518134,0.0,0.818897470893,-0.573796179338,-0.0120674621862,0.0,-0.00796959467141,0.0096554067337,-0.99992162627,0.0,0.497911179519,0.0460443718184,0.304496029564,1.0,-0.15998,-0.210259428571,2.512
0.214224894365,-0.12039407923,-0.128174374752,-2.26886905037,-0.00594207462241,2.1427862316,-0.08386352611,-0.377607545918,-0.521383607969,-0.00431457555411,-0.579483520319,-0.0779817029809,0.0747382791473,-0.324447930131,0.573931402975,0.818883515827,0.0036440482882,0.0,0.818856854871,-0.573860346391,-0.0117686436072,0.0,-0.0075461187268,0.00973853555385,-0.999924105629,0.0,0.495769324326,0.04308470787,0.304646682545,1.0,-0.15998,-0.210259428571,2.526
0.207815933608,-0.129229978159,-0.128175087232,-2.27871579108,-0.00727996686049,2.14362849287,-0.0895369675936,-0.381443177279,-0.521373256216,-0.000525174835405,-0.583811717005,-0.07830151073,0.0495068661113,-0.337822702184,0.573809178559,0.818969463783,0.0035764359051,0.0,0.818941020248,-0.573737219004,-0.0119145199332,0.0,-0.00770584197211,0.0097657389855,-0.999922622177,0.0,0.492855179014,0.0393852297649,0.304605110812,1.0,-0.15998,-0.210259428571,2.544
0.201997408065,-0.136998738484,-0.128234414934,-2.28733520937,-0.00854911776849,2.14435648658,-0.0945945860193,-0.389079498463,-0.518271542443,-0.0109450495711,-0.564282219485,-0.084459569913,0.0467752995333,-0.33185732784,0.573797920136,0.818977784913,0.00347585494135,0.0,0.818947785001,-0.573726020188,-0.0119885821143,0.0,-0.00782434464483,0.00972575443866,-0.999922091631,0.0,0.490425617852,0.0362193789557,0.304561929159,1.0,-0.15998,-0.210259428571,2.559
0.195355726386,-0.145884702373,-0.128352627637,-2.29674779018,-0.00988767375483,2.14529789426,-0.100436559512,-0.3987958079,-0.512468491762,-0.0106814592398,-0.564398390091,-0.0755888677919,0.0472054042243,-0.342244737122,0.573814974253,0.818964436327,0.00379133942874,0.0,0.818939651893,-0.57374340267,-0.0117090286554,0.0,-0.00741416481386,0.00982388330862,-0.99992425787,0.0,0.487799112132,0.0326451389341,0.304700181707,1.0,-0.15998,-0.210259428571,2.576
0.187765306163,-0.155620056722,-0.128501370562,-2.307418079,-0.0114434136088,2.14596940993,-0.107049652759,-0.395059933086,-0.51084947573,-0.00256291200082,-0.569410375366,-0.0824967395895,0.0422309382986,-0.35115003039,0.57387479335,0.818923235614,0.00363354237793,0.0,0.818895364639,-0.573802402313,-0.0119135122666,0.0,-0.00767146436702,0.00981254432248,-0.999922428296,0.0,0.484696597941,0.0285951278651,0.304629174809,1.0,-0.15998,-0.210259428571,2.595
0.181383059375,-0.16380176583,-0.128513182739,-2.31615897504,-0.0127124104107,2.14652802462,-0.112645109494,-0.412197003725,-0.507448928427,0.000466890634248,-0.532289192805,-0.0704580507455,0.0395080882476,-0.349501105288,0.573816190119,0.818964207913,0.00365417786195,0.0,0.818936475464,-0.573743567256,-0.0119212033167,0.0,-0.00766662539602,0.00983330832946,-0.99992226143,0.0,0.482136636146,0.0252934328789,0.304649286482,1.0,-0.15998,-0.210259428571,2.611
0.174473382634,-0.172454508137,-0.128552074354,-2.3252688819,-0.0139852207512,2.14719368834,-0.118760195829,-0.413162146778,-0.508135694625,-0.000774828170843,-0.552732131519,-0.0726714588297,0.0352677481715,-0.357268184921,0.573769647851,0.818995891686,0.0038558406615,0.0,0.818971049588,-0.573696680415,-0.011801937112,0.0,-0.00745379852965,0.00992960634999,-0.999922918932,0.0,0.479469507525,0.0217641624593,0.30471433809,1.0,-0.15998,-0.210259428571,2.628
0.16741589996,-0.181025451736,-0.12873412109,-2.33445037264,-0.0154044816372,2.14757990345,-0.124907370526,-0.430629679588,-0.506730789802,-0.0191650415339,-0.540401250711,-0.0840056968869,0.0230942466203,-0.374001448712,0.573856308877,0.818935858767,0.00370714022923,0.0,0.818908372381,-0.573782918257,-0.0119577281287,0.0,-0.00766566620273,0.00989801646532,-0.999921630345,0.0,0.476694142957,0.0181183030456,0.304658435173,1.0,-0.15998,-0.210259428571,2.645
0.160689807158,-0.189059552724,-0.128824259276,-2.34284093171,-0.0166194862345,2.1480054756,-0.130803753188,-0.410799253159,-0.506947972251,-0.006637849529,-0.508143687667,-0.074497650607,0.0321994519266,-0.37315392106,0.57390093544,0.818904127088,0.0038070776143,0.0,0.818877835258,-0.57382703903,-0.011931768595,0.0,-0.00758651653511,0.00996537649798,-0.999921564943,0.0,0.474155660459,0.0147424569823,0.304688783008,1.0,-0.15998,-0.210259428571,2.661
0.153585474479,-0.197572049503,-0.128838392221,-2.35159185676,-0.0179887958765,2.1484533711,-0.137164398858,-0.425203627868,-0.50076057295,-0.00358447292233,-0.525445964503,-0.0891530463689,0.019213571578,-0.382545278247,0.57372899939,0.819024012627,0.00393050890198,0.0,0.819000365363,-0.573656092175,-0.0117403724982,0.0,-0.00736102833884,0.00995507205863,-0.999923352964,0.0,0.471486609255,0.0112450470245,0.304761915732,1.0,-0.15998,-0.210259428571,2.678
0.145860597112,-0.206453782212,-0.128942378806,-2.36098531956,-0.0193743035308,2.14865484081,-0.143935942442,-0.428845379456,-0.492184843926,-0.00935524645284,-0.516674489685,-0.0795673632192,0.017066328527,-0.380363718571,0.573771564298,0.818994874266,0.00378613665467,0.0,0.818967866254,-0.573697182932,-0.0119968012578,0.0,-0.00765337015587,0.00998433991119,-0.99992086631,0.0,0.468526561874,0.00745975597256,0.304670609886,1.0,-0.15998,-0.210259428571,2.696
0.138380531615,-0.214822142255,-0.129125706062,-2.36946256317,-0.0206403010164,2.14890710683,-0.150468668619,-0.446605392024,-0.496142338277,-0.00321923711309,-0.489534348981,-0.0768470752277,0.0253697285565,-0.376959449487,0.573936613614,0.818878440522,0.00395096231606,0.0,0.818853694133,-0.573861764612,-0.0119184572121,0.0,-0.00749260570454,0.0100758930519,-0.999921165512,0.0,0.465855310778,0.00381031200978,0.304734473893,1.0,-0.15998,-0.210259428571,2.713
0.131435948408,-0.222621542085,-0.129155258718,-2.37736937624,-0.0219040952348,2.14910821217,-0.156662842077,-0.432661689786,-0.480398239206,0.000496663241096,-0.498553698427,-0.0822458851937,0.00827023037989,-0.393776410084,0.573823602122,0.81895737977,0.00400383178726,0.0,0.818933937212,-0.573749421976,-0.0118133046268,0.0,-0.00737753887044,0.0100578203876,-0.999922203058,0.0,0.46333043267,0.000514316287159,0.304769828445,1.0,-0.15998,-0.210259428571,2.729
0.124299408751,-0.230340170662,-0.129217360592,-2.3853591465,-0.0231415539709,2.149155006,-0.162958683925,-0.448581769542,-0.484096117337,-0.00569313441485,-0.488357501324,-0.0708155559568,0.000313232514841,-0.392312928004,0.57381381097,0.818964797673,0.00388811188366,0.0,0.818938964378,-0.573738847617,-0.0119772392576,0.0,-0.00757832239995,0.0100570252516,-0.999920709493,0.0,0.460716919033,-0.00284210937053,0.304697567134,1.0,-0.15998,-0.210259428571,2.745
0.117539962986,-0.237591992138,-0.129327906466,-2.3926535094,-0.0242914569117,2.14917216017,-0.168960036285,-0.455097129809,-0.479295942456,-0.0136888191402,-0.479689154985,-0.0770796895807,0.0013362496107,-0.402775681866,0.573832783996,0.818951345337,0.00392133699648,0.0,0.818925883612,-0.573757615566,-0.0119725783278,0.0,-0.00755520762496,0.0100817364229,-0.999920635565,0.0,0.458154025003,-0.0062229444125,0.304715039796,1.0,-0.15998,-0.210259428571,2.761
0.109288790654,-0.246250464159,-0.1294815192,-2.40109727982,-0.02562724706,2.14926061395,-0.176272400714,-0.456874600507,-0.480384857918,-0.000519845659651,-0.466442302981,-0.064774853824,0.00411048045864,-0.411572032685,0.573896335731,0.81890570753,0.00414546868953,0.0,0.818884112082,-0.573821683808,-0.0117572561932,0.0,-0.00724946395252,0.0101422999652,-0.999922286492,0.0,0.455509817347,-0.00983415464808,0.304817503764,1.0,-0.15998,-0.210259428571,2.778
0.101502980603,-0.254249208484,-0.129515501618,-2.4092382728,-0.0268726433091,2.14919393332,-0.183236860966,-0.469020238034,-0.460988543492,-0.00314680174339,-0.476496955406,-0.0736822354006,-0.0117903345872,-0.418022715449,0.573819479896,0.818959959529,0.00406645812107,0.0,0.818936379381,-0.573743783464,-0.0119173975362,0.0,-0.00742690932728,0.0101688011274,-0.999920715108,0.0,0.452743927205,-0.0133445143601,0.304734818799,1.0,-0.15998,-0.210259428571,2.795
0.09401936138,-0.261782761219,-0.129606768764,-2.4166960206,-0.0280841394347,2.14907847415,-0.189887913079,-0.464974194809,-0.47532100929,-0.00645117068969,-0.461255538375,-0.0757195662386,-0.00716381297905,-0.412633184001,0.573823169909,0.818957378442,0.00406557152669,0.0,0.818933711934,-0.573747373634,-0.0119278500847,0.0,-0.00743593301481,0.0101741062104,-0.999920594079,0.0,0.450174078137,-0.0167122668833,0.304727462567,1.0,-0.15998,-0.210259428571,2.811
0.0873702576789,-0.268379168741,-0.129761727649,-2.42293645607,-0.0290914497718,2.14901681626,-0.195803656181,-0.476463489364,-0.471518773348,-0.00791803398118,-0.439737129063,-0.0740415976369,0.00066508207658,-0.433092667982,0.573915604264,0.818891421279,0.0042972362777,0.0,0.818871798641,-0.573840464602,-0.0116980971336,0.0,-0.00711368028629,0.0102328030983,-0.999922339631,0.0,0.448011301763,-0.0197043515165,0.30483917292,1.0,-0.15998,-0.210259428571,2.825
0.0778846256613,-0.277608050936,-0.129820949466,-2.43199081761,-0.0305610612351,2.14876717681,-0.204350360049,-0.477337391559,-0.462022595644,0.00571845703046,-0.459933729914,-0.0659570325642,-0.018438574309,-0.429052413151,0.573806064428,0.818968254666,0.00428312678816,0.0,0.81894828434,-0.573730750643,-0.0117251969605,0.0,-0.007145340113,0.0102358455291,-0.999922082755,0.0,0.44480317906,-0.0238502332332,0.30481415671,1.0,-0.15998,-0.210259428571,2.845
0.0701180075173,-0.284904726205,-0.129887227232,-2.43912002053,-0.031770590517,2.14847531672,-0.21129619703,-0.486155887195,-0.463794405161,-0.00565271210124,-0.446820044527,-0.0772436637245,-0.0159059498053,-0.436024694911,0.57377173552,0.818992688415,0.00420936371788,0.0,0.818971560633,-0.573696383801,-0.0117808738583,0.0,-0.00723369208106,0.0102070781308,-0.999921741565,0.0,0.442222941974,-0.027215946717,0.304779854278,1.0,-0.15998,-0.210259428571,2.861
0.0612710076192,-0.293119802053,-0.130062807112,-2.44690415058,-0.032958315592,2.14816504898,-0.219215273396,-0.487991251067,-0.454437946143,-0.00774750071836,-0.420732724771,-0.0583269085972,-0.0152747789689,-0.444830908093,0.57389409956,0.818905899067,0.00440883931297,0.0,0.818887281443,-0.573817964933,-0.0117179482518,0.0,-0.00706616179162,0.0103354027885,-0.999921621332,0.0,0.439372761642,-0.0310301978469,0.304830432453,1.0,-0.15998,-0.210259428571,2.879
0.0533984403695,-0.300331015184,-0.130141182849,-2.45362368911,-0.0340637496407,2.14788082048,-0.226353933526,-0.492478036114,-0.452410579605,-0.0015266625107,-0.412036001344,-0.0707694991165,-0.025850773526,-0.447488114204,0.573845149181,0.818939285316,0.00457587463172,0.0,0.818923696542,-0.573769801116,-0.011530024741,0.0,-0.00681702279248,0.0103639404738,-0.999923055509,0.0,0.436880726923,-0.0343637385441,0.304908382244,1.0,-0.15998,-0.210259428571,2.895
0.0443639115536,-0.308275031439,-0.130206790421,-2.46134205915,-0.0354111727607,2.14729984356,-0.234403175295,-0.506661245606,-0.436285406818,-0.00442974787811,-0.43411821085,-0.0698267686703,-0.0348025458534,-0.446081813115,0.573845939998,0.818939902511,0.00436120667647,0.0,0.818920506711,-0.573769734459,-0.0117576531567,0.0,-0.00712662014272,0.0103187617774,-0.999921364129,0.0,0.433925997001,-0.0381372981364,0.304809295661,1.0,-0.15998,-0.210259428571,2.913
0.0362630463184,-0.315344737711,-0.130369305165,-2.46798021481,-0.0364658612161,2.14685449893,-0.241750923901,-0.513437794682,-0.446945208633,-0.0151124588792,-0.409122490511,-0.0731392666589,-0.0293353838366,-0.461692836402,0.573893182598,0.818906287786,0.00445574839363,0.0,0.818887697044,-0.573816042385,-0.0117828702843,0.0,-0.00709242320604,0.0104110669136,-0.999920650461,0.0,0.431361217596,-0.0415125529277,0.304812929011,1.0,-0.15998,-0.210259428571,2.929
0.0275958855065,-0.322749401403,-0.130471328098,-2.47472741927,-0.0376403922402,2.14640426749,-0.249657838476,-0.509460819657,-0.434944003405,-0.00540637671458,-0.381775737125,-0.0722093898669,-0.0270642690258,-0.461010686817,0.573835483379,0.818945922243,0.00460014753415,0.0,0.81893030449,-0.57375954355,-0.0115710619733,0.0,-0.00683682709973,0.010407286534,-0.999922470086,0.0,0.428717804098,-0.0450740462321,0.304894929549,1.0,-0.15998,-0.210259428571,2.946
0.0187792734206,-0.330067944549,-0.130539033052,-2.4814871669,-0.0387824870668,2.14586574551,-0.257636813426,-0.519199193036,-0.426410902407,-0.0103866920046,-0.401648853669,-0.0645566678906,-0.0389579956091,-0.471382723231,0.573823963049,0.81895368785,0.00465440544242,0.0,0.818938982497,-0.573748187976,-0.0115198368597,0.0,-0.00676388641673,0.0104222331579,-0.999922810469,0.0,0.426015964131,-0.0486341747616,0.3049102131,1.0,-0.15998,-0.210259428571,2.963
0.00771288625014,-0.338984733874,-0.130728937018,-2.4897897045,-0.0401435799723,2.14499586586,-0.267641123284,-0.526563365146,-0.435056731517,-0.010148795382,-0.385286575745,-0.0610579296788,-0.0336391591787,-0.469469886526,0.573931286847,0.818878587676,0.00463503230725,0.0,0.818862240565,-0.573853428563,-0.0117311723436,0.0,-0.00694671040521,0.0105285424867,-0.999920443339,0.0,0.422596385947,-0.0530758924807,0.304855254854,1.0,-0.15998,-0.210259428571,2.984
0.00141477079089,-0.344041467491,-0.130794369763,-2.49441304354,-0.0409130813074,2.14453493682,-0.273423373372,-0.518494070773,-0.417412297481,-0.00620293783148,-0.382635444943,-0.0636934649291,-0.0328123604447,-0.484612563914,0.573889168991,0.818907888679,0.00467316542142,0.0,0.818891878221,-0.57381095341,-0.0117400354586,0.0,-0.00693262761911,0.0105644998018,-0.999920161822,0.0,0.420675319253,-0.0555609024486,0.304854842325,1.0,-0.15998,-0.210259428571,2.996
-0.00877050468122,-0.351950555728,-0.130886720914,-2.50138963331,-0.0421949932199,2.14378977063,-0.282714850396,-0.538303843333,-0.416020908916,0.00180990887582,-0.36091718025,-0.061238093004,-0.0345311092448,-0.497787311303,0.573855120918,0.818931127017,0.00478082634002,0.0,0.818917796265,-0.573778569564,-0.0115127308093,0.0,-0.00668512662743,0.0105219458814,-0.999922295849,0.0,0.417706358856,-0.0595636027263,0.304950980456,1.0,-0.15998,-0.210259428571,3.015
-0.016918886004,-0.358055905726,-0.131045399566,-2.50689961711,-0.0431505083688,2.14315341384,-0.29013487073,-0.550021621487,-0.398142771471,-0.0138358863236,-0.373046109191,-0.0616343576861,-0.0429757285652,-0.496385405714,0.573934819355,0.818874998759,0.00482767447364,0.0,0.818862059049,-0.573857779329,-0.0115292781405,0.0,-0.00667076750321,0.0105704571408,-0.999921880097,0.0,0.415311698221,-0.0627519023519,0.304948412089,1.0,-0.15998,-0.210259428571,3.03
-0.0271828159972,-0.365739394306,-0.131126515956,-2.5139023467,-0.0444159045429,2.14220877947,-0.299687754556,-0.539053735423,-0.403184652629,-0.00195449195293,-0.360685503357,-0.0597443542596,-0.052080433809,-0.493187645047,0.573740149599,0.819012088303,0.00471029223245,0.0,0.818996814406,-0.573662229428,-0.0116880889107,0.0,-0.00687070164604,0.0105638436002,-0.999920596181,0.0,0.412217929583,-0.0666703959021,0.304887204191,1.0,-0.15998,-0.210259428571,3.049
-0.0349671783132,-0.371302322422,-0.131203186639,-2.5188701414,-0.0452984380423,2.14155565543,-0.306787951885,-0.554180345236,-0.391093248528,-0.00877709396116,-0.35045331592,-0.0685613344795,-0.0490818956603,-0.50451022569,0.573767075998,0.818993181141,0.00471790705436,0.0,0.81897790493,-0.573688971685,-0.0117005087313,0.0,-0.00687615800761,0.0105774319658,-0.999920415025,0.0,0.409973283287,-0.0696265644123,0.304879788204,1.0,-0.15998,-0.210259428571,3.063
-0.0462189076849,-0.379130096252,-0.131379527917,-2.52565803097,-0.0464737170425,2.14059103809,-0.316988071301,-0.556105851454,-0.39472126075,-0.00401501141061,-0.329611758429,-0.0604834018877,-0.0444516667857,-0.511771771126,0.573962082632,0.818855654374,0.00486743268185,0.0,0.818842578033,-0.573883886556,-0.0116130983479,0.0,-0.00671623937035,0.0106513443105,-0.999920717354,0.0,0.406816188092,-0.0738849104002,0.304939072337,1.0,-0.15998,-0.210259428571,3.083
-0.0539661552063,-0.384531179158,-0.131445254038,-2.53031480062,-0.0473191591092,2.13994125246,-0.324299238295,-0.554380979261,-0.380625203359,-0.00550294362999,-0.334140252069,-0.058803038106,-0.0507129819036,-0.521179435671,0.573799585647,0.818969052388,0.00494708428703,0.0,0.818957647153,-0.573722206766,-0.0114868853321,0.0,-0.0065692779601,0.0106428274593,-0.999921784347,0.0,0.404630888463,-0.0767656431652,0.304983271063,1.0,-0.15998,-0.210259428571,3.097
-0.0648742579388,-0.391761577342,-0.131577032237,-2.53676165547,-0.0485273732148,2.13886047799,-0.334293569491,-0.57504500513,-0.376952303017,-0.00983457573684,-0.332418429519,-0.066483917343,-0.0596876448694,-0.528814015126,0.573839507765,0.818941783828,0.00482917475592,0.0,0.81892784787,-0.573760877721,-0.0116782739112,0.0,-0.00679316571174,0.0106564058114,-0.999920143769,0.0,0.401511319625,-0.0807900217645,0.304912544386,1.0,-0.15998,-0.210259428571,3.116
-0.0729632728125,-0.397030074704,-0.131700243937,-2.54127704445,-0.0493543792793,2.13809685261,-0.341735490521,-0.577216743611,-0.366768719196,-0.00741642595081,-0.315389540774,-0.0587586253776,-0.055076370671,-0.539702940498,0.573901515978,0.818898027444,0.00488031836548,0.0,0.818884800151,-0.573822786143,-0.0116550884041,0.0,-0.00674402086536,0.0106854971623,-0.99992016598,0.0,0.399269252619,-0.0837606278716,0.304934589751,1.0,-0.15998,-0.210259428571,3.13
-0.0837935702407,-0.403961645897,-0.131769030107,-2.54729622378,-0.0504381149266,2.13705730339,-0.351939339955,-0.583074231641,-0.362180185355,-0.00530244303092,-0.31644631135,-0.0529928688398,-0.0550632633608,-0.538906737812,0.57372402216,0.819022407624,0.00487740785704,0.0,0.819008774558,-0.573644749757,-0.0117079107654,0.0,-0.00679127260675,0.0107119557258,-0.999919563075,0.0,0.396245819261,-0.0876524102482,0.30491375883,1.0,-0.15998,-0.210259428571,3.149
-0.0938980132457,-0.410056871848,-0.131926352543,-2.55241442046,-0.0514606134729,2.13614078581,-0.361207158153,-0.601917493679,-0.356240614526,-0.0133802151766,-0.297326480505,-0.0584315155439,-0.0430062179909,-0.556613011727,0.573847443345,0.818935653743,0.00492480412818,0.0,0.818923343601,-0.573769128492,-0.0115884164747,0.0,-0.00666459516302,0.0106832259148,-0.999920722785,0.0,0.393554239282,-0.0913161649455,0.30495968275,1.0,-0.15998,-0.210259428571,3.166
-0.105058763053,-0.416784432092,-0.132008207448,-2.55807373249,-0.0524322155625,2.13509487989,-0.371673539188,-0.582902765698,-0.352932471459,0.000301749921103,-0.302106922304,-0.0548862849044,-0.0629116716192,-0.556833376333,0.573793035756,0.818973031054,0.00504712048668,0.0,0.818962406928,-0.573714530611,-0.0115308415182,0.0,-0.00654796793646,0.0107499254707,-0.999920778471,0.0,0.390547593009,-0.095254602775,0.304991470273,1.0,-0.15998,-0.210259428571,3.185
-0.11338322522,-0.421679473268,-0.132114889329,-2.56227072753,-0.0531988678038,2.13417903752,-0.37949384482,-0.600295324459,-0.347929520618,-0.00734295701609,-0.296385336098,-0.0553121097941,-0.0709928270304,-0.561092378567,0.57375570214,0.818999368493,0.00501752647621,0.0,0.818987361379,-0.57367566703,-0.0116909307229,0.0,-0.00669656096059,0.0108172372003,-0.99991906845,0.0,0.388252814157,-0.0981724891241,0.304955383142,1.0,-0.15998,-0.210259428571,3.199
-0.124977913539,-0.428091838878,-0.132285328951,-2.56768803552,-0.0542774508172,2.13305169992,-0.390153675291,-0.61224094937,-0.330025555411,-0.00671009914521,-0.27939504317,-0.0559421182239,-0.0577731019711,-0.566002374556,0.573922027524,0.818882946115,0.00499737796551,0.0,0.818870415367,-0.573841607035,-0.011738814796,0.0,-0.00674514170623,0.0108295778617,-0.999918608341,0.0,0.385182934305,-0.102243756345,0.304938740729,1.0,-0.15998,-0.210259428571,3.218
-0.132689514756,-0.432334543701,-0.132296598975,-2.57123324881,-0.0549281100455,2.13235547104,-0.397543626445,-0.599720562332,-0.322162535458,-0.00223595086497,-0.272457134733,-0.0459783893096,-0.0553126255781,-0.574526176916,0.573741195506,0.819009442109,0.00503201919541,0.0,0.818997614286,-0.573661102227,-0.011687364444,0.0,-0.00668551687184,0.0108269426167,-0.999919037311,0.0,0.383160334031,-0.104884851428,0.304944991031,1.0,-0.15998,-0.210259428571,3.231
-0.144988574956,-0.438779754232,-0.132458306535,-2.57659462836,-0.0559642117145,2.13111704673,-0.409045933259,-0.626360538103,-0.32401717336,-0.0128633696735,-0.259077635176,-0.0563612514615,-0.0565293966993,-0.580481207194,0.573803299962,0.818965858072,0.00504412193739,0.0,0.818953649999,-0.573722287429,-0.0117644788102,0.0,-0.00674091109098,0.01088160834,-0.999918072003,0.0,0.379947518855,-0.109118542656,0.304935891015,1.0,-0.15998,-0.210259428571,3.251
-0.153707317231,-0.443272380727,-0.132560923716,-2.58014189358,-0.0567002768483,2.1303073827,-0.417171692043,-0.609183692373,-0.321555687898,-0.00622159285612,-0.250803276927,-0.0527695052923,-0.0557541787285,-0.585199759745,0.573869940606,0.818918679938,0.00512189599946,0.0,0.818908530911,-0.57379038492,-0.0115827059001,0.0,-0.0065465255897,0.0108415398086,-0.999919798793,0.0,0.377739960643,-0.112110521971,0.305012754392,1.0,-0.15998,-0.210259428571,3.265
-0.167285555108,-0.450144853085,-0.13268071423,-2.5857825116,-0.0577871798286,2.12897051686,-0.430068425721,-0.623429936424,-0.30492258643,-0.00796930836938,-0.2629715499,-0.0458677969856,-0.0673912686841,-0.594677355179,0.573765012643,0.818992002621,0.00515333013809,0.0,0.818982073759,-0.573685068393,-0.0115996579957,0.0,-0.00654376456667,0.0108761723199,-0.999919440766,0.0,0.374207424408,-0.116669471062,0.305013549471,1.0,-0.15998,-0.210259428571,3.287
-0.175555877356,-0.454001052242,-0.132823878767,-2.58901261164,-0.0584019676839,2.12814752223,-0.437779085074,-0.636828917715,-0.293888374986,-0.00963171960658,-0.246673525075,-0.0502257322983,-0.0586560642233,-0.586289929822,0.573900637283,0.818896945229,0.00515737555631,0.0,0.818886085187,-0.573819029233,-0.0117493862915,0.0,-0.00666226457659,0.0109664944985,-0.999917671726,0.0,0.372080996202,-0.119449575364,0.304970040547,1.0,-0.15998,-0.210259428571,3.3
-0.188032190454,-0.459757435979,-0.132881644867,-2.59364726709,-0.0592666710659,2.12700884596,-0.449766737118,-0.628755141146,-0.283490573204,-0.00297670496933,-0.229959240467,-0.0481234689087,-0.0569296107053,-0.604553569156,0.573733799592,0.819013329978,0.00523826551915,0.0,0.819003704995,-0.573652261124,-0.0116945035135,0.0,-0.00657313795885,0.0109999025853,-0.99991789463,0.0,0.368952403864,-0.123569577827,0.304992737727,1.0,-0.15998,-0.210259428571,3.32
-0.196381399212,-0.463376401271,-0.132983244536,-2.59664700302,-0.0598803202932,2.12625205284,-0.457638125684,-0.646229784623,-0.27720192489,-0.0079936731236,-0.235739700005,-0.0403167822819,-0.0612580539698,-0.609320806617,0.573780912136,0.818980413695,0.00522434235313,0.0,0.81897013647,-0.573698625605,-0.0117707030605,0.0,-0.0066429051308,0.0110325975201,-0.999917073363,0.0,0.366854016104,-0.126330357651,0.304957657094,1.0,-0.15998,-0.210259428571,3.333
-0.209844213578,-0.469158915957,-0.133117315858,-2.60130689348,-0.0608413990704,2.12498979397,-0.470403805627,-0.629438521365,-0.270325249996,-0.00265177713096,-0.211208609521,-0.0406340592448,-0.0605136510914,-0.615620090804,0.573793409757,0.818971614413,0.0052311189709,0.0,0.818961114421,-0.573710582037,-0.0118155840316,0.0,-0.00667560814622,0.0110640002881,-0.999916508591,0.0,0.363480905325,-0.130734364396,0.304949727465,1.0,-0.15998,-0.210259428571,3.354
-0.218197879093,-0.472691972872,-0.133195777071,-2.60398947144,-0.0614045364298,2.12425671255,-0.478415064321,-0.648646964719,-0.27202496193,-0.00669194751107,-0.208649654178,-0.0404677109301,-0.0545496788724,-0.62374859935,0.573746893906,0.819003682371,0.00531195787381,0.0,0.818995139199,-0.573665326406,-0.0116534179253,0.0,-0.00649703123351,0.0110367925088,-0.999917985535,0.0,0.361439816935,-0.13345930441,0.305017853221,1.0,-0.15998,-0.210259428571,3.367
-0.228760163735,-0.476876532905,-0.133350560681,-2.6072113674,-0.0621071982747,2.12335481736,-0.488329451734,-0.661800924154,-0.2598913243,-0.00419776374107,-0.19973740431,-0.0458723794717,-0.0545452050456,-0.631565447303,0.573916676045,0.818884240262,0.00538487789888,0.0,0.81887728193,-0.573835949057,-0.0115346265883,0.0,-0.00635560977597,0.0110296810839,-0.999918972897,0.0,0.358876273117,-0.136908897124,0.305068940122,1.0,-0.15998,-0.210259428571,3.383
-0.239691527568,-0.481067236579,-0.133373753951,-2.61061747436,-0.0627612538907,2.12239093228,-0.498984356116,-0.643629582218,-0.244889376144,-0.00376103568887,-0.200380245714,-0.0358628242212,-0.0567698562295,-0.629909690889,0.573698191495,0.819037319233,0.00538532076021,0.0,0.819029717569,-0.573616380648,-0.0116325617419,0.0,-0.0064385179432,0.0110845307866,-0.999917835957,0.0,0.356177595599,-0.140372971297,0.305031253746,1.0,-0.15998,-0.210259428571,3.4
-0.250294710541,-0.484868563449,-0.133495031286,-2.61370030531,-0.0634500910922,2.12146280747,-0.509032150024,-0.668222202793,-0.237687859674,-0.00899483947699,-0.193131207483,-0.0408314202652,-0.0583096560496,-0.625436446427,0.573779920956,0.818980333643,0.00534437228132,0.0,0.818971463187,-0.573696971079,-0.0117590289521,0.0,-0.00656448965119,0.011124197265,-0.999916576376,0.0,0.353578425143,-0.143760924026,0.304988359161,1.0,-0.15998,-0.210259428571,3.416
-0.261587999126,-0.488753386108,-0.133562765371,-2.61679521015,-0.0641065488104,2.1205088159,-0.519851222441,-0.652843955772,-0.222447034854,0.000302640654862,-0.179479909294,-0.0323012237453,-0.0558260279483,-0.64883821587,0.573768465802,0.818988406695,0.00533706401746,0.0,0.818978919303,-0.57368466204,-0.0118399822316,0.0,-0.00663514416306,0.0111645663139,-0.999915660104,0.0,0.350848682898,-0.147328423716,0.304966136591,1.0,-0.15998,-0.210259428571,3.433
-0.273534731071,-0.492652785419,-0.133676972161,-2.61987037363,-0.0647425333769,2.11959789025,-0.531391811336,-0.677281367,-0.213089993093,-0.0107844583831,-0.170536981964,-0.0363905725192,-0.0507612241784,-0.648174901251,0.573743645067,0.819005400271,0.00539731174162,0.0,0.818996484052,-0.573659272337,-0.0118551791824,0.0,-0.0066133651731,0.0112224291233,-0.999915156644,0.0,0.347995922204,-0.15109759059,0.304956331873,1.0,-0.15998,-0.210259428571,3.451
-0.285009426596,-0.496286026123,-0.13379437395,-2.62265792392,-0.0653454066516,2.11869035261,-0.542361092273,-0.664901048542,-0.211612751692,0.00178013660785,-0.163783639131,-0.0356608307176,-0.0546170217389,-0.650271094574,0.573830590122,0.818944104117,0.00545482107078,0.0,0.818935886464,-0.573745910444,-0.0118486712612,0.0,-0.00657384475629,0.011266495666,-0.999914921701,0.0,0.345260188244,-0.154698093306,0.304972970452,1.0,-0.15998,-0.210259428571,3.468
-0.296316445874,-0.499754473622,-0.133811924349,-2.62530202162,-0.0658990692788,2.11782456788,-0.553372667678,-0.674000631657,-0.201479749328,0.000269272109623,-0.150605478175,-0.0296553451454,-0.0555630874065,-0.654361848951,0.573701958451,0.819033955229,0.00549453847053,0.0,0.819026409312,-0.573617428407,-0.0118124332339,0.0,-0.00652314647545,0.0112772053158,-0.999915132999,0.0,0.342578520243,-0.158188979139,0.304995225748,1.0,-0.15998,-0.210259428571,3.485
-0.306645264373,-0.502648581553,-0.133956342615,-2.62749704759,-0.0664030448989,2.11711166742,-0.563220682116,-0.693735269632,-0.187878548537,-0.00806390411791,-0.145374169856,-0.0424019473476,-0.0502752988142,-0.65211529176,0.57386157286,0.81892166164,0.00556364926723,0.0,0.818915194029,-0.573777083197,-0.0117690563718,0.0,-0.00644576485241,0.0113101838759,-0.999915262338,0.0,0.340156042378,-0.161419807237,0.305013684726,1.0,-0.15998,-0.210259428571,3.5
-0.318758153112,-0.505882931273,-0.133971018891,-2.62995704073,-0.0669614213883,2.11634368182,-0.575042703503,-0.679746580551,-0.173526223489,-0.00861201692947,-0.13224998573,-0.0303949067123,-0.042143751939,-0.649753029504,0.573734165806,0.819010743654,0.00559067680915,0.0,0.819005172577,-0.573650570522,-0.0116746363116,0.0,-0.00635467997357,0.0112771480703,-0.999916218477,0.0,0.337344212908,-0.165142437351,0.305034255949,1.0,-0.158076,-0.207757028571,3.518
-0.331060858256,-0.50891495049,-0.13404647114,-2.63224651461,-0.0674980337458,2.11557740332,-0.58682584376,-0.695509116546,-0.16423263316,-0.00283505152529,-0.120997692287,-0.0258125111992,-0.0391669772025,-0.653587278212,0.573855700898,0.818925299335,0.00563343215813,0.0,0.818920581568,-0.573772474982,-0.0116178715133,0.0,-0.00628198154225,0.0112805325246,-0.999916639672,0.0,0.334498949668,-0.168926909317,0.305052703825,1.0,-0.15606,-0.205107428571,3.536
-0.341088375519,-0.511293515843,-0.134002068644,-2.63407578717,-0.067874019587,2.11494492212,-0.596634580132,-0.663824648417,-0.159060744483,0.00647565455655,-0.125686140749,-0.0262821472893,-0.0401641654362,-0.648450657141,0.573739836967,0.819006360413,0.00565048512367,0.0,0.819001761153,-0.573656392726,-0.0116277777052,0.0,-0.00628190793104,0.011299294099,-0.999916428301,0.0,0.332174969347,-0.171946457074,0.30505006964,1.0,-0.15438,-0.202899428571,3.551
-0.351773688103,-0.51359011774,-0.134010876118,-2.63587326641,-0.0682648166295,2.11427544562,-0.60699046047,-0.671033923359,-0.141309941827,-0.00151328139352,-0.107469501891,-0.0256358762694,-0.0438144698894,-0.636105182307,0.573747940829,0.819000591823,0.00566373456136,0.0,0.818995537118,-0.573663325004,-0.0117237633498,0.0,-0.00635281463283,0.0113652772267,-0.999915232517,0.0,0.329700668951,-0.17517163838,0.305025350359,1.0,-0.152588,-0.200544228571,3.567
-0.363210895613,-0.515827263656,-0.13399955027,-2.63763777966,-0.068654797678,2.1136241498,-0.61796714065,-0.657274008796,-0.126001314521,0.00991332791453,-0.106438727729,-0.0205199018051,-0.0382444888453,-0.651341895254,0.573851163669,0.818928224681,0.00567024497566,0.0,0.818922628428,-0.573765388309,-0.0118217903876,0.0,-0.00642793126197,0.0114276601077,-0.999914041448,0.0,0.327076155548,-0.17861130075,0.304994137986,1.0,-0.150684,-0.198041828571,3.584
-0.375609465889,-0.518108049852,-0.133968960954,-2.63941621397,-0.0690028456047,2.11298390123,-0.630097217551,-0.660010457944,-0.117432568694,0.000100825754161,-0.0886949138366,-0.0277933532924,-0.0364346360445,-0.638861038199,0.573800314318,0.818963445233,0.00572901063626,0.0,0.818958154272,-0.573713513698,-0.0118782428049,0.0,-0.00644115984096,0.0115077809919,-0.999913037437,0.0,0.324246015527,-0.182314443329,0.304972648054,1.0,-0.148556,-0.195245028571,3.603
