nelsonifechukwu/NELSON_IML_WORK/CNN-GradCAM/train2dof/data_sample_2022-02-22-16-29-14/robot_state.csv
position_joint1,position_joint2,position_joint3,position_joint4,position_joint5,position_joint6,position_joint7,velocity_joint1,velocity_joint2,velocity_joint3,velocity_joint4,velocity_joint5,velocity_joint6,velocity_joint7,ee_T_00,ee_T_10,ee_T_20,ee_T_30,ee_T_01,ee_T_11,ee_T_21,ee_T_31,ee_T_02,ee_T_12,ee_T_22,ee_T_32,ee_T_03,ee_T_13,ee_T_23,ee_T_33,v_x,v_y,time
0.465078362853,0.547761564284,-0.123922528321,-1.35585652801,0.0795400270735,1.89410231869,0.159157954661,0.00187027049902,4.70113558061e-05,0.000862355626497,-0.00105507782072,-0.000184414185236,-0.000117281045696,0.00149880330171,0.573766667835,0.819004657874,0.00198195944969,0.0,0.818961196067,-0.57370725154,-0.0119706210509,0.0,-0.00866709675828,0.00849165472443,-0.999926383907,0.0,0.661653931211,0.260935834058,0.303215126066,1.0,0.0,0.0,0.0
0.465073367299,0.547761510841,-0.123923237856,-1.35585218562,0.0795402439842,1.89410383922,0.159158916706,-0.000662089238183,2.86946943784e-05,0.000880195436539,0.000729127230299,-5.75697915736e-05,0.000344213892432,0.00106557810463,0.573771873923,0.819000999044,0.00198674628306,0.0,0.818957608782,-0.573712445788,-0.0119670993808,0.0,-0.00866141203831,0.00849360955066,-0.999926416562,0.0,0.661656686602,0.260932773952,0.303217386605,1.0,-0.00014,-0.000184,0.008
0.465075758276,0.5477657851,-0.123922865125,-1.35585473848,0.0795399743651,1.89410186733,0.159154088596,0.000827348109923,0.00216523129187,0.000711608749631,-0.000671767716221,-0.000146367197346,-0.000367354372622,0.000330343044159,0.573765762845,0.819005298344,0.00197928611708,0.0,0.818961804614,-0.573706360802,-0.0119716774215,0.0,-0.00866950511789,0.00849006181857,-0.999926376555,0.0,0.661654899262,0.260934032948,0.303212959575,1.0,-0.00044,-0.000578285714286,0.023
0.465075461296,0.547751702267,-0.123923320818,-1.35586429756,0.0795402292957,1.89410236802,0.159150108634,-7.00910066469e-05,-0.00292193964482,0.000825989859576,0.000350059055582,3.15280083583e-06,6.75880762863e-05,-0.000977065537271,0.573763632819,0.819006778445,0.0019842923184,0.0,0.818963341015,-0.573704201158,-0.0119700688406,0.0,-0.00866533751408,0.00849321637042,-0.999926385891,0.0,0.661653348967,0.260932699533,0.303218445381,1.0,-0.00076,-0.000998857142857,0.039
0.465077611941,0.547715505519,-0.123921107884,-1.35590821508,0.0795409413725,1.89410810737,0.159157598573,0.00137436871767,-0.00231726676701,0.00203978295685,-0.0114649706295,0.000109537962682,0.00127440271359,0.00095363244635,0.573769020627,0.819003001024,0.00198549336598,0.0,0.818959523945,-0.573709529023,-0.0119758652633,0.0,-0.0086693400383,0.0084975827899,-0.9999263141,0.0,0.661644273008,0.260931170456,0.303223611499,1.0,-0.00106,-0.00139314285714,0.054
0.465069054878,0.547557678707,-0.123923900353,-1.35608696383,0.0795374732482,1.89414111336,0.159148359003,-0.00110735940316,-0.00810075027842,0.000187331304996,-0.00706659679092,0.000225571693334,0.000348322886401,-0.00291856946987,0.573779199324,0.81899583111,0.00200148634546,0.0,0.818952468488,-0.573719546698,-0.0119784388058,0.0,-0.00866216637988,0.0085122650979,-0.999926251389,0.0,0.661617118317,0.260906430285,0.303253290756,1.0,-0.00146,-0.00191885714286,0.074
0.465053852572,0.547424191271,-0.123929219293,-1.35626964325,0.0795343662227,1.89418134449,0.159143277628,-0.000836770780894,-0.011658288517,-0.00260461218981,-0.0143488526287,-0.000253927896154,8.84576158404e-05,-5.22340757607e-05,0.573803973459,0.818978489434,0.00199519123013,0.0,0.818934983724,-0.57374428442,-0.0119889711782,0.0,-0.00867414694496,0.00851341510692,-0.999926137741,0.0,0.661591334773,0.260873025741,0.303262729696,1.0,-0.00178,-0.00233942857143,0.09
0.465033647014,0.547241519151,-0.123921359231,-1.35649749782,0.0795318559349,1.89432069432,0.159134918158,-0.0028188008335,-0.0115542420302,0.00050161566383,-0.0114927930966,0.000189557465987,0.00917178881442,-0.00390286537964,0.573817017211,0.818969126823,0.00208493908498,0.0,0.81892671245,-0.573756873155,-0.0119514453006,0.0,-0.00859178201039,0.00856551991705,-0.999926403867,0.0,0.661576129431,0.260851198412,0.303297346753,1.0,-0.00212,-0.00278628571429,0.107
0.465012662033,0.547043127987,-0.12392381621,-1.35673631731,0.0795304176848,1.89444861887,0.159116469632,-0.000607618590485,-0.00727411750992,0.000281433344392,-0.0135217831054,0.000487739793712,0.00296241305933,-0.00632757299574,0.57383399218,0.818957024145,0.00216539227766,0.0,0.818915616208,-0.573773474597,-0.0119147086087,0.0,-0.00851535360164,0.00861050413687,-0.999926671297,0.0,0.661558237868,0.260818620281,0.303335387279,1.0,-0.00246,-0.00323314285714,0.124
0.464987024721,0.546826952626,-0.123927382999,-1.35703459839,0.0795254093915,1.89457202537,0.159106823282,0.00213911057766,-0.00915215383866,-0.00119909602826,-0.0192414578007,9.68492763814e-05,0.00376716990468,-0.0035083116841,0.573864993064,0.818935191476,0.00220653531764,0.0,0.818894244596,-0.573804229745,-0.011902478571,0.0,-0.00848140256256,0.00863750115339,-0.999926727008,0.0,0.661527925654,0.260774602765,0.303357349999,1.0,-0.00278,-0.00365371428571,0.14
0.464951341896,0.546559663563,-0.123926680354,-1.35741843984,0.0795147742742,1.89471488761,0.159040544568,-0.00203535569278,-0.0140111290916,-0.00101900088105,-0.022260847687,0.000348730986397,0.00675981150821,-0.00885583995684,0.573858073384,0.818939958779,0.00223661111139,0.0,0.818899289636,-0.573797074104,-0.0119003396629,0.0,-0.00846246569007,0.00866083198974,-0.999926685644,0.0,0.661485146315,0.26071733311,0.303376313543,1.0,-0.00312,-0.00410057142857,0.157
0.464907247216,0.546258286507,-0.123927354223,-1.357885595,0.0795020749461,1.89488109076,0.158933243327,-0.0034505209995,-0.0205156658601,0.00046772028193,-0.0294007083208,-0.00228030659083,0.0109608158581,-0.000823459975668,0.573829502743,0.818959952667,0.00224602091072,0.0,0.818919255614,-0.573768315305,-0.0119130196964,0.0,-0.00846775344312,0.00867551897149,-0.999926513561,0.0,0.661431393862,0.260645507992,0.303381813117,1.0,-0.00348,-0.00457371428571,0.175
0.46487599727,0.546035361395,-0.123930334411,-1.35828153172,0.0794908067822,1.89502024055,0.158919440102,0.000288625350178,-0.0139418345023,-0.00180828763492,-0.0316927919493,-0.000820495495791,0.0153703570472,0.000458888391551,0.573865039078,0.818935116852,0.00222220847595,0.0,0.818893996373,-0.573803827497,-0.0119388925115,0.0,-0.00850223029925,0.0086712331454,-0.999926258179,0.0,0.661383588666,0.260586658434,0.303363372609,1.0,-0.00374,-0.00491542857143,0.188
0.464806238235,0.545641343288,-0.123927121355,-1.35894928028,0.0794503453716,1.89523726823,0.158820471974,-0.00395805930032,-0.018334775526,-0.000750153040323,-0.032434994969,-1.55498831752e-06,0.00841788093207,-0.00605573655374,0.573865313265,0.818935052147,0.00217474069982,0.0,0.818893243098,-0.573804224781,-0.0119714215094,0.0,-0.00855610602824,0.00865103057841,-0.99992597362,0.0,0.661303612143,0.260476465736,0.303343184368,1.0,-0.00414,-0.00544114285714,0.208
0.464748505508,0.545251999238,-0.123929249744,-1.35961365172,0.0793616105938,1.89546125756,0.158732480456,-0.00405111470899,-0.0216032579116,0.000719000862531,-0.0364829210353,-0.0053907335784,0.0135570426689,-0.000658916754485,0.573855461789,0.818942141535,0.00210349563397,0.0,0.818899809635,-0.573795076973,-0.0119606990402,0.0,-0.00858831039865,0.00858642996066,-0.999926254353,0.0,0.661226393172,0.260364135334,0.303321952959,1.0,-0.00448,-0.005888,0.225
0.464688023535,0.544856125636,-0.123930231791,-1.36027708202,0.0793424671236,1.8956731952,0.158678814295,-0.00507892839924,-0.0261585857428,-0.000612322047634,-0.0418052866362,-0.00381594779787,0.0117452075236,-0.00766011208173,0.57389349284,0.818915582979,0.0020673003663,0.0,0.818872539837,-0.573833016181,-0.0120074952768,0.0,-0.00864700627183,0.00858404417567,-0.999925768979,0.0,0.661143635174,0.260261303968,0.303304804033,1.0,-0.0048,-0.00630857142857,0.241
0.464617549688,0.544426251418,-0.123931270548,-1.36100697291,0.0793168442172,1.89593306903,0.158561767183,-0.0101647864599,-0.0248129575727,-0.000895608877788,-0.0422846925756,-0.000109693860614,0.0165514271548,-0.0068233170182,0.573889979829,0.818918107537,0.00204232735712,0.0,0.818874547045,-0.573829420068,-0.0120424153425,0.0,-0.00868997176842,0.00858359664831,-0.999925400347,0.0,0.661058945837,0.260146602003,0.303284205747,1.0,-0.00514,-0.00675542857143,0.258
0.464543334528,0.543927640451,-0.123928520344,-1.36180445607,0.0792890110167,1.89622225764,0.158467793117,-0.00661963798321,-0.0271261083526,0.000340490197616,-0.0495216819053,6.74152538047e-05,0.0140722420347,-0.0113268582898,0.573908902543,0.818904838697,0.00204539549047,0.0,0.818861103135,-0.573848114746,-0.0120657314465,0.0,-0.00870710715665,0.00859969107122,-0.999925112995,0.0,0.660966497135,0.260026143574,0.30328244706,1.0,-0.00548,-0.00720228571429,0.275
0.464465745336,0.543450608176,-0.123931715625,-1.36258954633,0.0792477261658,1.8964927289,0.158389931516,-0.00541811631477,-0.0307204460397,-0.00442171018663,-0.0479062711488,-0.000250282489759,0.0234987022353,-0.00908025042416,0.573943553192,0.818880627827,0.00201544564211,0.0,0.818836423077,-0.573882813735,-0.0120902954181,0.0,-0.00874404743659,0.00858963278895,-0.9999248771,0.0,0.660875474806,0.259897754402,0.303269813326,1.0,-0.0058,-0.00762285714286,0.291
0.464387807646,0.542903514269,-0.123936944626,-1.36346583172,0.0791915824417,1.89681225097,0.158256763813,0.00103570083932,-0.0395945097158,-0.00302774076501,-0.0523317483798,-0.00516654129241,0.0203494060643,-0.00382880375584,0.573929412542,0.818890556355,0.0020082412834,0.0,0.818846335216,-0.573868782509,-0.0120849769284,0.0,-0.00874397484875,0.00858052992603,-0.999924955889,0.0,0.660769842524,0.259753569282,0.303272274203,1.0,-0.00616,-0.008096,0.309
0.464304480766,0.542276244035,-0.123938785907,-1.36444188406,0.0791344108076,1.89716038167,0.15814451288,-0.00342920865069,-0.0363748162029,0.000787723115853,-0.0545648062105,-0.00102010086165,0.0133585892461,-0.00540962993111,0.573952301266,0.818874524964,0.00200378097984,0.0,0.81883017347,-0.573891617045,-0.0120956935298,0.0,-0.00875507074886,0.00858327271876,-0.999924835258,0.0,0.660662586995,0.259609617232,0.303276866306,1.0,-0.0065,-0.00854285714286,0.326
0.464235222193,0.541730240941,-0.123944153181,-1.36528540084,0.0790793934555,1.89747797903,0.158016832968,-0.00403288915735,-0.0340768853471,-0.000173126523764,-0.055965578573,-0.00376431634257,0.0247227225143,-0.00677597416986,0.573940414305,0.81888282371,0.00201711736795,0.0,0.81883871197,-0.573879737919,-0.0120812700253,0.0,-0.00873572991573,0.00858578821415,-0.999924982818,0.0,0.66056804577,0.259480448316,0.303289150257,1.0,-0.0068,-0.00893714285714,0.341
0.464145249751,0.541043553081,-0.123946631728,-1.36635204321,0.0790218457559,1.89787388281,0.157887280915,-0.00172586943859,-0.0423160071783,-0.00216177643851,-0.0598028668669,-0.00919183301901,0.0215419151415,-0.00670699592094,0.57395355776,0.818873571293,0.0020333898662,0.0,0.818829616389,-0.573892754396,-0.0120794320439,0.0,-0.00872474792434,0.0085981983834,-0.999924972065,0.0,0.660446043025,0.259319543032,0.303301328529,1.0,-0.00716,-0.00941028571429,0.359
0.464046452465,0.540325050019,-0.123946985555,-1.36742425155,0.0789592617684,1.89827023717,0.157757192044,-0.00856205561319,-0.0412194341471,0.000356563162411,-0.0620422445555,0.000352665401033,0.0248267486588,-0.00606071068076,0.573970814674,0.818861380788,0.00207119699432,0.0,0.818817900268,-0.573909827161,-0.0120624786008,0.0,-0.00868898486363,0.00861960979761,-0.999925099129,0.0,0.660325568912,0.259153029943,0.303333190208,1.0,-0.0075,-0.00985714285714,0.376
0.463958503972,0.539630338273,-0.123954840321,-1.36850622858,0.0788995254905,1.89867510935,0.157615677673,-0.00925092694704,-0.0422784849697,-0.00127300189327,-0.0646015348287,-0.000901942459551,0.0297827760431,-0.00969785063586,0.573976411783,0.81885741787,0.00208681971178,0.0,0.818814127448,-0.573915342919,-0.0120561501047,0.0,-0.00867477711001,0.00862882937014,-0.999925142971,0.0,0.660202448849,0.258988901651,0.303344475105,1.0,-0.00782,-0.0102777142857,0.392
0.463861209967,0.538875109223,-0.123948396575,-1.36967030575,0.0788318786387,1.89911469067,0.157471010219,-0.00722764751977,-0.0407681557783,0.00055834207296,-0.0699144145092,-0.00373239693379,0.0261516910455,-0.0107284558775,0.573979391054,0.818855256178,0.002115414069,0.0,0.818812288095,-0.573918149215,-0.0120474796961,0.0,-0.00865123410863,0.00864729858112,-0.999925187389,0.0,0.660068230715,0.258819033001,0.303361857196,1.0,-0.00816,-0.0107245714286,0.409
0.463749369626,0.538045022807,-0.123955875872,-1.37095351134,0.078755849282,1.89961247678,0.157315941281,-0.00434776417291,-0.0448533759497,-0.000694824299603,-0.0765425930921,-0.00370014087986,0.0263477866438,-0.00303151352793,0.573999872759,0.818840806134,0.00215108891327,0.0,0.818798353986,-0.573938528133,-0.0120236573005,0.0,-0.00861103422098,0.00866305261268,-0.999925398022,0.0,0.65992718486,0.258620932259,0.303380777714,1.0,-0.00852,-0.0111977142857,0.427
0.463656756427,0.537341907236,-0.123956150497,-1.37206430667,0.0786963980722,1.90002168119,0.157176975634,-0.00216637887823,-0.042317595452,-0.000456876187137,-0.0783688682442,0.000305479124896,0.0239723775653,-0.0103571201919,0.574007432557,0.81883549401,0.0021559268457,0.0,0.81879302261,-0.57394598373,-0.0120308265287,0.0,-0.00861404807676,0.00867120865341,-0.999925301368,0.0,0.659797255477,0.258455182376,0.303384057975,1.0,-0.00882,-0.011592,0.442
0.463537526684,0.536442243433,-0.123961441926,-1.37344245277,0.0786126934052,1.90054832014,0.157006745518,-0.00563576334399,-0.04495033183,-0.000644015053386,-0.0734395367657,-0.00785453222964,0.0239243519062,-0.0157383158535,0.574022900639,0.818824547906,0.00219458182638,0.0,0.818782628297,-0.57396133615,-0.0120057946869,0.0,-0.00857119931153,0.00868865384996,-0.999925518145,0.0,0.65964306366,0.258243865568,0.303409037677,1.0,-0.00918,-0.0120651428571,0.46
0.463417510874,0.5355788265,-0.123962958113,-1.3748109163,0.0785344491326,1.90104120575,0.156841573647,-0.00822793467854,-0.0501506013192,0.000484392309054,-0.0767489677061,-0.00379183875038,0.023178702461,-0.00688737330583,0.574041155746,0.818811773374,0.0021859081031,0.0,0.818769672346,-0.573979555926,-0.0120183162899,0.0,-0.00858623762369,0.00868893072338,-0.99992538672,0.0,0.659482124092,0.258033508456,0.303409831654,1.0,-0.00952,-0.012512,0.477
0.463308612542,0.53473050517,-0.123965453904,-1.37616953152,0.078459949941,1.90153310693,0.156675991266,-0.0110549808412,-0.0499525360613,0.000268494728848,-0.0862404342959,-0.00738832136344,0.0331800240483,-0.017913570428,0.574051038545,0.818804878833,0.00217311893344,0.0,0.818762519579,-0.573989398739,-0.0120355128119,0.0,-0.00860755510177,0.00868843424168,-0.999925207756,0.0,0.659319700478,0.257831439092,0.303404454536,1.0,-0.00984,-0.0129325714286,0.493
0.463177103955,0.533820254393,-0.123969360478,-1.3776551457,0.0783733838734,1.90207398182,0.156503545153,-0.00889769711572,-0.0539276506839,0.000506060576508,-0.0876889940902,-0.00580566991884,0.0359956595439,-0.00693665716638,0.574078432772,0.818785751613,0.00214310146718,0.0,0.81874295299,-0.574016868416,-0.0120564756559,0.0,-0.00864166046759,0.00867617891643,-0.999925020001,0.0,0.659145618761,0.257600771841,0.303386439324,1.0,-0.01018,-0.0133794285714,0.51
0.463040045295,0.532903430053,-0.12396726318,-1.3791524298,0.078295843437,1.9026436688,0.156309347705,-0.00597307109033,-0.0556011463159,0.00119298430965,-0.0958208406272,-0.0071546122559,0.0340652233466,-0.00363452388815,0.574091440269,0.818776641403,0.00213929966372,0.0,0.818733662814,-0.574029759659,-0.0120735786421,0.0,-0.00865770918619,0.00868302197645,-0.999924821775,0.0,0.658973916498,0.25737205941,0.30336964703,1.0,-0.01052,-0.0138262857143,0.527
0.462911574038,0.532002293646,-0.123971607253,-1.38059988032,0.0782169000237,1.90318298584,0.156118547137,-0.00919373343419,-0.0546483428339,0.00333934902571,-0.092445718406,0.000516431258809,0.0340316107645,-0.0151352032056,0.574101364486,0.818769692117,0.00213575914659,0.0,0.818726593908,-0.57403962418,-0.0120839232289,0.0,-0.00866810661173,0.00868616686115,-0.999924704382,0.0,0.658806306969,0.257148717317,0.30336288877,1.0,-0.01084,-0.0142468571429,0.543
0.462765585866,0.530922100828,-0.123978277205,-1.38231621097,0.0781111414464,1.90379135085,0.155908255145,-0.00874482644278,-0.0631678593661,-0.00182335034602,-0.0942445580685,-0.00153424855552,0.0378899141126,-0.0107572843091,0.574118332609,0.818757862524,0.00210941206242,0.0,0.81871440501,-0.574056688288,-0.0120991140884,0.0,-0.00869549010176,0.00867349623973,-0.999924576613,0.0,0.658600557804,0.256883314369,0.303360172387,1.0,-0.0112,-0.01472,0.561
0.462624361153,0.529884562671,-0.123980380677,-1.38396009389,0.0780042216914,1.9043796908,0.155686158053,-0.00766900622214,-0.0615034051812,0.000925445778633,-0.0958879232079,-0.00509061034759,0.0372687435582,-0.0192847232388,0.574114074962,0.818760898927,0.00208955011739,0.0,0.818717203835,-0.574052538925,-0.0121065931947,0.0,-0.00871306133035,0.00866148294267,-0.99992452779,0.0,0.658403907887,0.256630230663,0.303359737787,1.0,-0.01154,-0.0151668571429,0.578
0.462501011358,0.528953153668,-0.123982125845,-1.38542473091,0.0779151489744,1.9049315996,0.1554822343,-0.0104424720772,-0.0644924294823,0.00148619718752,-0.0972848968248,-0.00947969873022,0.0339851252609,-0.00953932851802,0.574101919842,0.818769377387,0.00210693817607,0.0,0.818725883247,-0.574040284012,-0.0121007162488,0.0,-0.00869839599102,0.00867221621605,-0.999924562441,0.0,0.65821935049,0.256402130741,0.303365465121,1.0,-0.01186,-0.0155874285714,0.594
0.462358399595,0.527784072952,-0.12397708576,-1.3872470096,0.0777939915405,1.90563711819,0.155233780963,-0.00279788523056,-0.0682923944725,0.000875892527828,-0.102790578245,-0.00648248004335,0.0493110970669,-0.0153240671231,0.574080918496,0.818784011395,0.00214210253223,0.0,0.818741107147,-0.574019265141,-0.0120677096819,0.0,-0.00865140618664,0.00868183640942,-0.999924886623,0.0,0.658020066468,0.256145822481,0.303383198267,1.0,-0.0122,-0.0160342857143,0.611
0.462210672631,0.526633481231,-0.123979905383,-1.38903100927,0.0776951143366,1.90631473303,0.154984211198,-0.0139521811587,-0.0695021977829,0.00075947113531,-0.10455896849,-0.00531128955343,0.03976636354,-0.0146018039658,0.574069421823,0.81879196308,0.00218335152825,0.0,0.818749533797,-0.574007530918,-0.0120541386225,0.0,-0.008616737505,0.00870769808563,-0.999924961099,0.0,0.657811336225,0.25588030794,0.303402676585,1.0,-0.01254,-0.0164811428571,0.628
0.462070723045,0.525519488071,-0.123987840627,-1.39075554167,0.0775795166671,1.9069356092,0.154758857867,-0.00898850601907,-0.0717893146467,-0.000711130049759,-0.102768244864,-0.00847725864483,0.0369018708206,-0.0147751329978,0.57406672458,0.818793850514,0.00218471756924,0.0,0.818751530106,-0.574004920289,-0.0120428540831,0.0,-0.00860674193819,0.00870231019721,-0.99992509409,0.0,0.65760381243,0.255617033157,0.303419618749,1.0,-0.01286,-0.0169017142857,0.644
0.461906750772,0.524329722212,-0.123993549737,-1.39262285641,0.0774638723525,1.90760547247,0.154504327827,-0.00591442475946,-0.072144733734,-0.00102588101006,-0.110340901648,-0.00816418205291,0.0411942138372,-0.0127015905892,0.574065723329,0.818794575972,0.00217590404233,0.0,0.818752129813,-0.574003945491,-0.0120485429805,0.0,-0.00861647002922,0.00869834908024,-0.999925044775,0.0,0.657379601511,0.255326649861,0.303425802074,1.0,-0.0132,-0.0173485714286,0.661
0.461749461869,0.523141706299,-0.123992792875,-1.39453020187,0.0773410203585,1.90831177882,0.154237822898,-0.00930903180368,-0.0676800232128,0.000309352389611,-0.116572187695,-0.0104033082243,0.0409019629246,-0.0198944033116,0.57404498739,0.818809156235,0.00215986545965,0.0,0.81876652439,-0.57398330388,-0.0120537258273,0.0,-0.00863014051859,0.00868797369647,-0.999925017083,0.0,0.657149803512,0.255040990132,0.303414353931,1.0,-0.01354,-0.0177954285714,0.678
0.461599617431,0.521978541415,-0.123997399691,-1.39636669405,0.0772360509372,1.90903749934,0.153998748587,-0.00860230212208,-0.0733255499044,0.000373309314224,-0.116838793077,-0.00870395105569,0.0488802690225,-0.0180786775001,0.574045552911,0.818808641797,0.00220413304565,0.0,0.818766594854,-0.573983690189,-0.0120305215853,0.0,-0.00858572392198,0.00871090563557,-0.999925199936,0.0,0.656937663189,0.254769373652,0.303420724065,1.0,-0.01386,-0.018216,0.694
0.461423864977,0.520655418906,-0.124001306275,-1.39849754463,0.0770957356236,1.90983767645,0.153710923458,-0.00794197475874,-0.0720075239203,-0.000230102031337,-0.119613734424,-0.00727559222351,0.043833606157,-0.0151067102828,0.574032531704,0.818817811829,0.00218871619522,0.0,0.818775655155,-0.573970827846,-0.0120275603849,0.0,-0.00859228685767,0.00869644590821,-0.999925269425,0.0,0.65668288167,0.254447739944,0.303405447623,1.0,-0.01422,-0.0186891428571,0.712
0.461257310281,0.519336959858,-0.12400920408,-1.40055378377,0.0769722750105,1.91057059647,0.153429495324,-0.0104465257823,-0.0732224809921,-0.000822691055199,-0.121514430129,-0.00828565955672,0.0442602538686,-0.0191091418069,0.574020033602,0.818826584735,0.00218450375839,0.0,0.818784323103,-0.573958298436,-0.0120353977009,0.0,-0.00860125513607,0.00869736427502,-0.999925184334,0.0,0.656429046784,0.254136844438,0.303416286453,1.0,-0.01456,-0.019136,0.729
0.461094694347,0.51807780363,-0.124012703726,-1.40252896682,0.0768454760038,1.91128981158,0.15317136147,-0.0127391132423,-0.0774634028614,-0.00104645172255,-0.125084827919,-0.00965483272404,0.0416044772265,-0.0130653424356,0.574014820645,0.818830244182,0.00218261152154,0.0,0.818787985061,-0.573953121596,-0.0120331471523,0.0,-0.00860055371233,0.00869446828981,-0.999925215552,0.0,0.656187556305,0.253838516147,0.303422365151,1.0,-0.01488,-0.0195565714286,0.745
0.460912624816,0.516729376795,-0.124008392282,-1.40466045747,0.0767037171294,1.91205948742,0.15286414661,-0.0100131072721,-0.0706158326102,0.00142090440089,-0.123299213936,-0.00494929357831,0.0538640500754,-0.0182564073657,0.573983651183,0.818852138186,0.00216584014212,0.0,0.818809677752,-0.573922044381,-0.0120393312004,0.0,-0.00861557457014,0.00868395734214,-0.999925177581,0.0,0.655924732254,0.253515677685,0.303420430661,1.0,-0.01522,-0.0200034285714,0.762
0.460724311531,0.51535595724,-0.124016232526,-1.40683602717,0.0765709748011,1.9128888427,0.152563164115,-0.0151130263851,-0.080591312224,0.00199841444219,-0.126974729245,-0.00559676571053,0.0482674035223,-0.0190254293938,0.573976175211,0.81885732735,0.00218509421442,0.0,0.818815156084,-0.573914526769,-0.0120251000831,0.0,-0.00859294944405,0.00869147655032,-0.999925306938,0.0,0.65566709271,0.253182253646,0.30342022382,1.0,-0.01556,-0.0204502857143,0.779
0.460538444897,0.51397254133,-0.124017297026,-1.40908553435,0.0764357807136,1.91368189429,0.152279334835,-0.00536949029694,-0.0862611081416,0.000267937824926,-0.132847267977,-0.00888034636568,0.0474909669667,-0.00586497377492,0.573978450255,0.818855895139,0.00212333235692,0.0,0.818812792752,-0.573916937148,-0.0120708981293,0.0,-0.00866587653498,0.00866721396931,-0.999924888172,0.0,0.655382013521,0.252843014018,0.303388083438,1.0,-0.0159,-0.0208971428571,0.796
0.460343790648,0.512571544869,-0.124022013442,-1.41137016703,0.0763039532716,1.9144689641,0.151944891137,-0.0126362517633,-0.0817590341447,0.000201221333855,-0.13517337697,-0.00263901118565,0.0454515333876,-0.016207692896,0.573951396109,0.818875057256,0.00204509398311,0.0,0.81883073569,-0.573890029835,-0.0121328828798,0.0,-0.00876182480821,0.00863843719514,-0.999924301049,0.0,0.655089819372,0.252492165964,0.303350725612,1.0,-0.01624,-0.021344,0.813
0.460136087914,0.511042024143,-0.124023600033,-1.41380446488,0.0761510108285,1.91539817409,0.151598428522,-0.0101510895665,-0.0849034357245,0.00132323446133,-0.136116034471,-0.00567829714976,0.0531677918885,-0.0301441207978,0.573925110298,0.818893440883,0.00206086106764,0.0,0.818849366894,-0.57386371931,-0.0121199380714,0.0,-0.00874245271267,0.00864363799178,-0.999924425666,0.0,0.65479655568,0.252124754203,0.303343845028,1.0,-0.0166,-0.0218171428571,0.831
0.459955263724,0.509740501456,-0.124028694452,-1.41587781292,0.076014077833,1.91618041912,0.151311694882,-0.0106126449066,-0.0894701797859,-0.00167412292086,-0.143047266371,-0.0160393334654,0.0553833103836,-0.0233897643289,0.573913160127,0.818901815189,0.00206121649107,0.0,0.818857844081,-0.57385186626,-0.0121084135103,0.0,-0.00873293700858,0.00863718744651,-0.999924564557,0.0,0.654546289672,0.251805441622,0.303336035549,1.0,-0.0169,-0.0222114285714,0.846
0.459733343508,0.508141829941,-0.124029358308,-1.41839810773,0.0758596907184,1.91707142416,0.150950590194,-0.0133185495706,-0.0905591764722,-0.000133812739819,-0.144376591585,-0.00924252142128,0.0546147141675,-0.0243002573551,0.57388865662,0.818919050144,0.00203617669767,0.0,0.81887464057,-0.57382736569,-0.0121336028831,0.0,-0.00876819345223,0.00863087669109,-0.999924310511,0.0,0.654228160841,0.251417386161,0.303332249199,1.0,-0.01726,-0.0226845714286,0.864
0.459516073819,0.506615192912,-0.124034849925,-1.42080847567,0.075710536408,1.91795418263,0.150623075598,-0.012861971346,-0.086804297381,-0.000926834073978,-0.144252446768,-0.00941772746996,0.0576816628307,-0.0156025087995,0.573886785388,0.818920369952,0.00203276562768,0.0,0.818875895176,-0.573825489425,-0.0121376639799,0.0,-0.00877349646259,0.00863039389842,-0.999924268163,0.0,0.653931381473,0.251041985095,0.30332928674,1.0,-0.0176,-0.0231314285714,0.881
0.459308693042,0.505101962467,-0.124033032234,-1.42311686849,0.0755666116488,1.91885271328,0.150311433464,-0.0194744605371,-0.0914412499451,0.00114397393185,-0.140417425811,-0.00512731482353,0.0602895765703,-0.0183340960641,0.573880582818,0.818924499904,0.00211825940017,0.0,0.818881199063,-0.573818971856,-0.0120878559201,0.0,-0.00868371112152,0.00867175555617,-0.999924694073,0.0,0.653656487172,0.250691169555,0.303366016354,1.0,-0.01792,-0.023552,0.897
0.459081547122,0.503437040097,-0.12404179461,-1.42559541191,0.0754091280835,1.919787008,0.149962269399,-0.0132645087353,-0.0932193718309,-0.00201876516491,-0.1466367502,-0.00513199812321,0.0532102837989,-0.0171269245386,0.573871777606,0.818930409303,0.00221686459773,0.0,0.818888494624,-0.573809849525,-0.0120265066426,0.0,-0.00857697839945,0.00871720549179,-0.999925220089,0.0,0.653358960888,0.250303427173,0.303430525606,1.0,-0.01826,-0.0239988571429,0.914
0.4588506323,0.501744447923,-0.124045965167,-1.42810801246,0.0752402093729,1.92070157302,0.149609649996,-0.0160174315672,-0.0935393245349,0.000545506661797,-0.148451935056,-0.00050774395503,0.0543847170014,-0.0147118035746,0.573857755567,0.818940031638,0.0022908205446,0.0,0.818899188798,-0.573795633871,-0.0119764785638,0.0,-0.0084937184379,0.0087489146376,-0.999925653856,0.0,0.653049445864,0.249909222397,0.303495608089,1.0,-0.0186,-0.0244457142857,0.931
0.458624804638,0.500124586074,-0.124051729478,-1.43055630806,0.0750822297559,1.92156147367,0.149269275783,-0.0178248058773,-0.0971503060408,2.45619786729e-05,-0.154790335452,-0.0068745046026,0.0531279969273,-0.0237351117092,0.573849902129,0.818945466076,0.00231523666817,0.0,0.818904934832,-0.573787675311,-0.0119648765105,0.0,-0.00847029018418,0.00876217064637,-0.999925736517,0.0,0.652739986114,0.249522275673,0.303535270686,1.0,-0.01892,-0.0248662857143,0.947
0.458367414564,0.498349139171,-0.124054370077,-1.43333923032,0.0749141792422,1.92259976327,0.148868817594,-0.0124190041516,-0.0913581596624,-0.00177452775098,-0.159978986052,-0.0117321217,0.056439906647,-0.0183068950612,0.573830946563,0.818958672874,0.00234174995093,0.0,0.81891843365,-0.573768559533,-0.011957676253,0.0,-0.00844938285551,0.00877955591844,-0.999925760908,0.0,0.652396085811,0.249089395837,0.303539045717,1.0,-0.01928,-0.0253394285714,0.965
0.458122152893,0.496770019672,-0.124047774942,-1.4358433996,0.0747660989976,1.92349862384,0.148499798389,-0.0178838761975,-0.0942340464438,0.00120537312598,-0.155661012937,-0.0164931193291,0.0561288151206,-0.0252062451351,0.573811735561,0.818972181409,0.00232488974525,0.0,0.818931540766,-0.573749230967,-0.0119874269473,0.0,-0.00848362882924,0.0087826208954,-0.999925444027,0.0,0.652079108577,0.248694260126,0.303525627949,1.0,-0.0196,-0.02576,0.981
0.457886017375,0.495285104562,-0.12405244984,-1.43825148112,0.0746137123394,1.92432147588,0.148142908151,-0.0185561368702,-0.0945260196306,0.000861986882269,-0.165428460209,-0.00698170056969,0.0593271647186,-0.0268897754454,0.57379419737,0.818984755171,0.00222188282266,0.0,0.818942646556,-0.573731994559,-0.0120535045543,0.0,-0.00859703673244,0.00873599376531,-0.999924883865,0.0,0.651745775023,0.248276692823,0.303474690994,1.0,-0.01992,-0.0261805714286,0.997
0.457552096141,0.493203820854,-0.124106306633,-1.44148044725,0.0744154476132,1.92548278093,0.147686729962,-0.0197753673964,-0.14543437336,-0.0093362975919,-0.215464098493,-0.016755805035,0.0778855445092,-0.0375828090118,0.573843536231,0.818950137962,0.00223927653117,0.0,0.818908392123,-0.573781392421,-0.0120293774821,0.0,-0.00856677007936,0.00873691106927,-0.999925135615,0.0,0.65137582485,0.247745355154,0.303500161909,1.0,-0.033084,-0.0434818285714,1.014
0.457193237934,0.489871445814,-0.124187400026,-1.44654586911,0.0741550239872,1.92746172467,0.146923121441,-0.0205977339152,-0.219605051966,-0.00238892175243,-0.34099555444,-0.018741198269,0.141494771008,-0.0548106097338,0.573755144939,0.819011444456,0.00245650306488,0.0,0.818972533943,-0.573692136355,-0.0119192379642,0.0,-0.00835287662938,0.00885070304886,-0.999925944512,0.0,0.650747307685,0.246999480696,0.30358135633,1.0,-0.05022,-0.0660034285714,1.031
0.456588028629,0.485483776324,-0.124223998459,-1.45345347897,0.0738012265823,1.93013222662,0.14587161548,-0.0439256607834,-0.296653348326,-0.00401134595497,-0.472151710326,-0.0225385729823,0.182719944699,-0.0724127194719,0.573665606722,0.819073684709,0.00261104990656,0.0,0.819036354277,-0.57360154575,-0.0118938634236,0.0,-0.00824440700773,0.00896181771622,-0.999925855039,0.0,0.64988537585,0.245947203603,0.30357484175,1.0,-0.066348,-0.0872002285714,1.047
0.455675297425,0.479428407616,-0.124403982876,-1.46316953182,0.0732177685346,1.93350339887,0.144382243577,-0.0596177504028,-0.387844046303,-0.0104149972948,-0.625538897219,-0.0321876896391,0.201418973522,-0.0952661509193,0.573641923558,0.819091082241,0.00234295364236,0.0,0.819050223566,-0.573578896868,-0.0120302637147,0.0,-0.00851017680738,0.00882023013954,-0.999924887395,0.0,0.648627012903,0.244312869361,0.303448268606,1.0,-0.083484,-0.109721828571,1.064
0.454491441284,0.471884614666,-0.124571358505,-1.4751065606,0.0725043473996,1.93760843395,0.142654900757,-0.0719694456034,-0.467126902034,-0.0096211242368,-0.733994615496,-0.0379494533511,0.252406618986,-0.10839260188,0.57370277269,0.819049134739,0.0020953260413,0.0,0.819004596881,-0.573640352718,-0.0122050368098,0.0,-0.00879473059492,0.00871831297287,-0.999923318926,0.0,0.646958650815,0.242171331615,0.30334909749,1.0,-0.101628,-0.133568228571,1.082
0.453080082027,0.462899663764,-0.124716266705,-1.48879890348,0.0716896921745,1.94269482106,0.140453795894,-0.0911028594023,-0.544352813095,-0.00839452875537,-0.844114567018,-0.0613832610606,0.310304857634,-0.138029815977,0.573589410939,0.819127650802,0.00241376302467,0.0,0.819087361984,-0.573525730449,-0.0120364801044,0.0,-0.00847522164429,0.00888125131282,-0.999924644157,0.0,0.645311426676,0.24001375576,0.30347563954,1.0,-0.117756,-0.154765028571,1.098
0.451336076065,0.452712979961,-0.124881859907,-1.50465689846,0.0706805518454,1.94822454222,0.137993511921,-0.11184104832,-0.628932020205,-0.0100666759139,-0.963621592869,-0.0651926332644,0.33157416958,-0.163313606003,0.573582965177,0.81913256387,0.00227415202961,0.0,0.819090229116,-0.573519641447,-0.012131131126,0.0,-0.00863289989532,0.00882111570298,-0.999923827577,0.0,0.643199363356,0.237268503532,0.303418188999,1.0,-0.134892,-0.177286628571,1.115
0.449291498432,0.441086582139,-0.125056124984,-1.52238380008,0.0694780188136,1.9545343952,0.135227837008,-0.131356830195,-0.690933425527,-0.00488284281794,-1.09205633304,-0.0625163397428,0.376782050218,-0.173885832364,0.573589115479,0.819127908818,0.00239635161244,0.0,0.819087742718,-0.573525872538,-0.012003756116,0.0,-0.00845840484631,0.00884821644157,-0.99992507942,0.0,0.64084128404,0.234153741539,0.303497993209,1.0,-0.152028,-0.199808228571,1.132
0.44706678139,0.428916521649,-0.125219426957,-1.54081183098,0.0682632677187,1.96087321316,0.132236202237,-0.14534435828,-0.779244331715,-0.00888196139292,-1.19061749838,-0.080991398192,0.398335124347,-0.191963005772,0.573553111009,0.819152954581,0.00245209181495,0.0,0.819113235008,-0.573489351574,-0.0120091118219,0.0,-0.0084312132128,0.00889657559162,-0.999924879972,0.0,0.638305683184,0.230866590094,0.303583517887,1.0,-0.168156,-0.221005028571,1.148
0.444162139673,0.413982356429,-0.125437261086,-1.56315817805,0.0666657896797,1.96868386918,0.128510254184,-0.171219335878,-0.8641147739,-0.0156861365334,-1.26792967269,-0.0967045355392,0.470230913534,-0.217617521102,0.573540349271,0.819161082797,0.00270833711889,0.0,0.81912561021,-0.57347659195,-0.0117720043165,0.0,-0.0080901556224,0.00897036046973,-0.999927038346,0.0,0.635236242693,0.226745250312,0.303768478117,1.0,-0.1863,-0.244851428571,1.166
0.440651321098,0.396827304691,-0.125651437767,-1.58866256395,0.0649393610206,1.97749683176,0.124186949599,-0.196157892,-0.965112033146,-0.0174115837092,-1.37810283524,-0.0963814619725,0.489697556024,-0.227850957956,0.573586505849,0.819127415372,0.00308943279203,0.0,0.819096662923,-0.573521170527,-0.0116133822663,0.0,-0.00774113372919,0.00919200041999,-0.999927788381,0.0,0.6316367118,0.221974024265,0.303976449752,1.0,-0.205452,-0.270022628571,1.185
0.437976857604,0.384490106022,-0.125792814888,-1.60724609241,0.0635903003536,1.98375941077,0.120925842882,-0.209865573561,-0.950239704056,-0.0106221331867,-1.44008954855,-0.106191701665,0.475521710695,-0.260528745284,0.573551791309,0.819151826686,0.00306176825966,0.0,0.819120693713,-0.573486525423,-0.0116293246094,0.0,-0.00777044926129,0.0091781544102,-0.999927688185,0.0,0.62892980325,0.218427092162,0.303959840517,1.0,-0.218556,-0.287245028571,1.198
0.434102046674,0.36721264288,-0.126014206901,-1.63280530383,0.0616492065847,1.99224966206,0.116342987035,-0.237610005163,-1.02200813048,-0.0119420869614,-1.54550292013,-0.118943316331,0.500803743621,-0.272903667943,0.573530854561,0.819166131499,0.00315511856428,0.0,0.81913666426,-0.573465836644,-0.0115241645601,0.0,-0.00763099951468,0.00919411425955,-0.999928615507,0.0,0.625138522761,0.213423569008,0.304068071834,1.0,-0.235692,-0.309766628571,1.215
0.429199774424,0.346870820398,-0.126287783807,-1.66282025274,0.0593771563664,2.00201463507,0.1107353022,-0.262865221677,-1.07975583809,-0.0198195892179,-1.56209505119,-0.111372860335,0.50002669346,-0.304310517667,0.5735547863,0.819149309354,0.00317222292429,0.0,0.819119915539,-0.573489533364,-0.0115354232589,0.0,-0.00763014425496,0.0092148056095,-0.999928431567,0.0,0.620568417389,0.207360276535,0.304115169946,1.0,-0.254844,-0.334937828571,1.234
0.425215200939,0.331041231296,-0.126504207204,-1.68603001686,0.0575773892177,2.00954859198,0.106311846406,-0.291407694533,-1.13811002088,-0.0133733596978,-1.67116702707,-0.132294940521,0.535921839743,-0.333040788462,0.573599667999,0.819117581132,0.00324900800535,0.0,0.819089193225,-0.573534187145,-0.0114968091092,0.0,-0.00755396674012,0.00925597144008,-0.999928629743,0.0,0.616960876784,0.202584255552,0.304141971004,1.0,-0.268956,-0.353485028571,1.248
0.419702082611,0.309858400759,-0.126709527456,-1.7167516634,0.0550546271285,2.01926635994,0.100178342575,-0.319523568856,-1.18698372876,-0.00905067547778,-1.69367308553,-0.138271051835,0.536714437232,-0.359042722653,0.573443767771,0.819226496935,0.00330738960845,0.0,0.819199041815,-0.573378351856,-0.011443007177,0.0,-0.00747817305939,0.00927151005367,-0.999929055498,0.0,0.612022724586,0.196192623801,0.304200440373,1.0,-0.2871,-0.377331428571,1.266
0.413530720581,0.287520239861,-0.126978484134,-1.74883515484,0.0523737483552,2.02918173373,0.0935329747808,-0.354532682606,-1.26485038136,-0.0187281632649,-1.79387949296,-0.148791766814,0.573218020588,-0.363462289049,0.573362256777,0.81928330837,0.00336601115246,0.0,0.819256603046,-0.573296670931,-0.0114145681031,0.0,-0.00742218503114,0.00930248849202,-0.999929184931,0.0,0.606726588911,0.189298255396,0.304253327379,1.0,-0.305244,-0.401177828571,1.284
0.407493859053,0.266890981091,-0.127253816154,-1.77819835973,0.0499012649245,2.03804082947,0.0871948901255,-0.388640421111,-1.32715183699,-0.0176019735139,-1.84805949545,-0.158872717524,0.564456806337,-0.404587320693,0.573333972409,0.819302863175,0.00342364955106,0.0,0.819276471199,-0.573267680028,-0.0114445478878,0.0,-0.00741402595979,0.00936664396265,-0.999928646554,0.0,0.60174718459,0.182806008137,0.304282824079,1.0,-0.321372,-0.422374628571,1.3
0.399948279122,0.242899277766,-0.127670499879,-1.81199375456,0.0468473976393,2.0479744139,0.0796262406545,-0.434224612999,-1.35144893235,-0.0231840042095,-1.91380488807,-0.183462966087,0.547740451075,-0.431588650538,0.573473450798,0.81920533043,0.00340216493493,0.0,0.819179101963,-0.573407758765,-0.0113968415184,0.0,-0.0073856677486,0.00932294794549,-0.999929264775,0.0,0.595894889441,0.174985102961,0.304306573001,1.0,-0.339516,-0.446221028571,1.318
0.392760986935,0.220817491361,-0.127951014922,-1.84260493484,0.0441015198475,2.05679870871,0.0723319655805,-0.463797278521,-1.38770527565,-0.0125248461918,-1.93793664626,-0.179471491632,0.532498692079,-0.465099188798,0.573371346667,0.81927592757,0.00360558281193,0.0,0.81925192865,-0.57330459111,-0.0113520975133,0.0,-0.00723354230846,0.00946303030392,-0.999929060945,0.0,0.590416724815,0.16785760853,0.304389206447,1.0,-0.355644,-0.467417828571,1.334
0.384900409427,0.198046001286,-0.128279201101,-1.8737745363,0.0410731332308,2.06540235071,0.0645574850486,-0.505717139885,-1.43851527797,-0.0201442119174,-1.93413818061,-0.188548844339,0.511942659028,-0.498859542812,0.573281662808,0.819338445068,0.00365983922123,0.0,0.819315511168,-0.573215255776,-0.0112743339317,0.0,-0.00713975701991,0.00946211412076,-0.999929743665,0.0,0.584681625864,0.160326873594,0.304474050043,1.0,-0.371772,-0.488614628571,1.35
0.375712487283,0.17305196446,-0.128794208124,-1.90769022269,0.0377782969956,2.07451887273,0.055674519245,-0.55814682193,-1.47259262351,-0.0388103000999,-2.02175011295,-0.194987164511,0.55329319055,-0.534047887651,0.573381537793,0.819268190396,0.00374048457414,0.0,0.819246176613,-0.573314750659,-0.0112536964004,0.0,-0.00707545672871,0.00951722266998,-0.99992967772,0.0,0.578296793244,0.151814069702,0.304509555858,1.0,-0.388908,-0.511136228571,1.367
0.365234483348,0.145873113695,-0.129279882093,-1.94415698391,0.0339996343917,2.08380668666,0.0456645388526,-0.594152884218,-1.53433830037,-0.0267168575127,-2.051615312,-0.224306072904,0.520875113525,-0.56303707483,0.573331857488,0.81930350356,0.00361899765865,0.0,0.819279877805,-0.573265333312,-0.0113175239303,0.0,-0.00719797969209,0.00945385099261,-0.999929404403,0.0,0.571154262766,0.14249677575,0.304480886754,1.0,-0.407052,-0.534982628571,1.385
0.35502528638,0.121058357414,-0.129764122698,-1.97673801492,0.0305282869573,2.09179762612,0.0360911830278,-0.656862774775,-1.59093873195,-0.0346516353509,-2.03402084715,-0.223175670657,0.492154023826,-0.607417366384,0.573357623086,0.819285054341,0.00371250377937,0.0,0.819262709161,-0.573290949861,-0.0112626412438,0.0,-0.00709910550517,0.00949922000668,-0.999929681288,0.0,0.564615315808,0.133828055789,0.304554716061,1.0,-0.42318,-0.556179428571,1.401
0.342511431231,0.0923368766346,-0.130454313418,-2.01390766182,0.0263396350214,2.10049295872,0.0245049238668,-0.71238883766,-1.61794620174,-0.0339903552115,-2.09405031617,-0.236836431847,0.495096235579,-0.666468355991,0.573441404359,0.819226184049,0.00376324808334,0.0,0.819205131439,-0.57337545621,-0.0111483515059,0.0,-0.00697540167408,0.00947598092657,-0.999930772382,0.0,0.556934896258,0.123570909687,0.304615205902,1.0,-0.43998,-0.578259428571,1.419
0.331488230834,0.0682629689468,-0.130882953311,-2.04476484567,0.0229091894007,2.10722469314,0.0142896145558,-0.748526502934,-1.61190896017,-0.0304341473379,-2.06106476049,-0.238297080202,0.455493537898,-0.688262468636,0.573337309684,0.81929921432,0.00372473348413,0.0,0.81927643849,-0.573269820747,-0.011339173532,0.0,-0.00715503642562,0.00955294155378,-0.999928770844,0.0,0.550289521677,0.114986864217,0.304564197394,1.0,-0.43998,-0.578259428571,1.434
0.318881859088,0.0428135018937,-0.131492043712,-2.07686538763,0.0190098164085,2.11365465542,0.00317668998836,-0.796975689988,-1.5773418733,-0.0351260304102,-2.00228509761,-0.24522421852,0.390592280459,-0.706316981917,0.573651584398,0.819080405074,0.00344915098213,0.0,0.819053652475,-0.573584300408,-0.0115287290592,0.0,-0.0074647209337,0.00943869512487,-0.999927591866,0.0,0.543193460907,0.105507617032,0.304499648427,1.0,-0.43998,-0.578259428571,1.45
0.304217853133,0.0144197349096,-0.131966817331,-2.1114629839,0.0147343448005,2.12032045523,-0.00984007459649,-0.837171227045,-1.57902385828,-0.0245039866835,-1.87218951258,-0.237777530493,0.36568076919,-0.734511774555,0.573704839003,0.819042043024,0.00369274482429,0.0,0.819018462649,-0.573636866353,-0.0114127254428,0.0,-0.00722934658125,0.0095721462952,-0.999928052693,0.0,0.535753131799,0.0956731678086,0.304676525643,1.0,-0.43998,-0.578259428571,1.467
0.289732958859,-0.0119764817124,-0.132493437835,-2.143162927,0.0106859174117,2.12607106381,-0.0226314176297,-0.859728176502,-1.56432266115,-0.018366004618,-1.85196496194,-0.245225534008,0.346390015577,-0.764070530061,0.573835004664,0.81894913321,0.00405604960145,0.0,0.818930945195,-0.573767061559,-0.0111450873661,0.0,-0.00680016290088,0.00971725288182,-0.999929663917,0.0,0.527923385298,0.085183987036,0.304849563031,1.0,-0.43998,-0.578259428571,1.485
0.275694664077,-0.0364655464039,-0.132868499843,-2.17210164719,0.00678352074079,2.13075680179,-0.0350542674299,-0.893287486545,-1.53812644865,-0.0345129927519,-1.80541797001,-0.262370372759,0.287852281167,-0.781178790061,0.573724550219,0.819026006462,0.00415789809731,0.0,0.819009616488,-0.573657106393,-0.0110235786714,0.0,-0.00664351773332,0.00973004357464,-0.999930592553,0.0,0.520892238037,0.0759917849066,0.304946872368,1.0,-0.43998,-0.578259428571,1.501
0.260974371973,-0.0605532959121,-0.133359272806,-2.20018669027,0.00301635528731,2.13484662319,-0.0479427571491,-0.921193369508,-1.49344258192,-0.0198748160508,-1.73067998859,-0.240141775969,0.234893566502,-0.817729059395,0.573856497521,0.818933105364,0.00424689218176,0.0,0.818917291008,-0.573788009919,-0.0110696459752,0.0,-0.00662861136172,0.00983043097505,-0.999929709599,0.0,0.513863813779,0.0666862194877,0.304987211072,1.0,-0.43998,-0.578259428571,1.517
0.243836832725,-0.0872513790567,-0.13393623851,-2.23088565849,-0.00131358058935,2.13878499488,-0.0630384491411,-0.973335231707,-1.47074230821,-0.0426608518788,-1.70036736674,-0.237110294206,0.203108179749,-0.856936372542,0.573877257709,0.818918887471,0.00418278959214,0.0,0.818901527017,-0.573807852955,-0.0112064194589,0.0,-0.00677716152191,0.00985659182192,-0.99992845628,0.0,0.505455368083,0.0556489214538,0.304951385757,1.0,-0.43998,-0.578259428571,1.536
0.228108232844,-0.110599203319,-0.134351591939,-2.25721240072,-0.00513634153725,2.14168540148,-0.0768969799083,-1.0007456923,-1.43782186818,-0.0312262657408,-1.66297309476,-0.23057215925,0.154493290496,-0.86350601099,0.573778515503,0.818988338865,0.00413072039987,0.0,0.818969925925,-0.573708701553,-0.0112841966875,0.0,-0.00687192756933,0.00985775519622,-0.99992779803,0.0,0.498840244129,0.0470639112117,0.304944274384,1.0,-0.43998,-0.578259428571,1.551
0.210663081422,-0.134927985119,-0.134915085193,-2.28431622171,-0.00919379189147,2.14425874574,-0.0922198831649,-1.03266418504,-1.41516462152,-0.0286110423639,-1.57994444423,-0.234731178479,0.131615277983,-0.919182539261,0.573817465814,0.818961715413,0.00399643797486,0.0,0.818940688761,-0.573746764117,-0.011469344227,0.0,-0.00710014716659,0.00985434543331,-0.999926237173,0.0,0.49133699868,0.0372091702955,0.304850866652,1.0,-0.43998,-0.578259428571,1.568
0.192661380032,-0.158923886023,-0.13547312859,-2.31052085775,-0.0132662744931,2.14628242309,-0.108201491934,-1.08463078409,-1.40069123696,-0.0421645309273,-1.52693154638,-0.24108436941,0.095714005171,-0.958061475338,0.573689080981,0.819052272516,0.00386783526629,0.0,0.819028898797,-0.573617845424,-0.0116179709106,0.0,-0.00729720663829,0.00983316123227,-0.999925027047,0.0,0.483823983504,0.0274131484616,0.304768294941,1.0,-0.43998,-0.578259428571,1.585
0.174013585963,-0.182499338004,-0.135988561783,-2.33583347889,-0.017223836947,2.1476656292,-0.124725632737,-1.11501422505,-1.38171666269,-0.0307818961365,-1.48992935821,-0.240035836471,0.0679271065358,-0.984022981991,0.573597267981,0.819117367693,0.00369580980284,0.0,0.819089968696,-0.573524260006,-0.0119286741542,0.0,-0.00765149490594,0.00986964566246,-0.99992201932,0.0,0.476278455123,0.0176686990336,0.304651589996,1.0,-0.43998,-0.578259428571,1.602
0.154555408963,-0.205751117591,-0.136661485352,-2.36022656293,-0.0211952362853,2.14858655725,-0.141973440224,-1.14588371238,-1.36643796856,-0.0342312297675,-1.43782473209,-0.22777317133,0.040783250563,-1.03140794748,0.573639034187,0.819088461861,0.00361897833847,0.0,0.819058766808,-0.573564656039,-0.0121271908734,0.0,-0.00785767533786,0.00992097700458,-0.99991991237,0.0,0.468753469241,0.00779737615922,0.304579934189,1.0,-0.43998,-0.578259428571,1.619
0.134449929116,-0.228630261427,-0.137393158942,-2.38360838913,-0.0251540022808,2.1489894532,-0.159783637102,-1.19176059514,-1.33184272726,-0.0367471838657,-1.36156176883,-0.231562474002,-0.00199259227043,-1.04881906291,0.573753096333,0.819008557392,0.00362136265881,0.0,0.818978181409,-0.573677793935,-0.0122177749076,0.0,-0.00792911952058,0.00997599525688,-0.999918800994,0.0,0.461256841304,-0.0020691904579,0.304575199035,1.0,-0.43998,-0.578259428571,1.636
0.11485506897,-0.249915390708,-0.138096832364,-2.40474142198,-0.0287370891716,2.14912492636,-0.177267920838,-1.24724759244,-1.33218661111,-0.0546995311504,-1.30252126639,-0.211401708523,-0.0021275929483,-1.09164408093,0.573856587609,0.818934585819,0.00393800800989,0.0,0.818908777485,-0.573780602057,-0.0120408372739,0.0,-0.00760125182665,0.010134778241,-0.9999197504,0.0,0.454255302494,-0.0113514436294,0.304678172588,1.0,-0.43998,-0.578259428571,1.652
0.0933394464588,-0.271920041251,-0.138777914338,-2.42626191526,-0.0326514843614,2.14888965614,-0.196544989018,-1.28393213552,-1.30090611476,-0.038451938496,-1.24441480825,-0.23910894045,0.0013719429268,-1.159010227,0.573827208086,0.818954359696,0.00410352243043,0.0,0.818932180924,-0.573752651099,-0.011778170682,0.0,-0.00729151774026,0.0101193362008,-0.999922213377,0.0,0.446835768596,-0.0212002320566,0.304746738893,1.0,-0.43998,-0.578259428571,1.669
0.0712370634027,-0.293362122357,-0.139544971381,-2.44684708437,-0.0363084086957,2.14796947614,-0.216557710288,-1.30945342398,-1.24814725341,-0.0443903525775,-1.16861751227,-0.212383533052,-0.0605079668148,-1.17438397976,0.57382903856,0.818952360545,0.00424412100032,0.0,0.818931034887,-0.573752643566,-0.0118579509618,0.0,-0.00727616137654,0.0102802769299,-0.999920683545,0.0,0.439362127467,-0.0309918014833,0.30477621637,1.0,-0.43998,-0.578259428571,1.686
0.0496447715881,-0.313114209837,-0.140264456674,-2.46536601305,-0.0398482811112,2.14695231613,-0.236083309855,-1.35686253916,-1.21831555357,-0.0402874100456,-1.14437710004,-0.217688223958,-0.0817502683404,-1.22132712874,0.573844969646,0.818940275789,0.00441841639343,0.0,0.818922485075,-0.573769844736,-0.0116135959267,0.0,-0.00697582166926,0.0102829421135,-0.999922796527,0.0,0.432367582234,-0.0402777752646,0.304857826786,1.0,-0.43998,-0.578259428571,1.702
0.026133548707,-0.333370396494,-0.141016138259,-2.4840090286,-0.0434172388675,2.14541867225,-0.257516948655,-1.39118661607,-1.16388967384,-0.0340661933669,-1.0968279111,-0.217786870827,-0.0958307014862,-1.27288332067,0.573829475741,0.818950231667,0.00458232744249,0.0,0.818934917488,-0.573754402594,-0.011499274957,0.0,-0.00678833404222,0.0103514501635,-0.999923380065,0.0,0.424955545734,-0.050063984635,0.304926389298,1.0,-0.43998,-0.578259428571,1.719
0.000380556026536,-0.354149438894,-0.141880353327,-2.50279861292,-0.0471419161965,2.14334851242,-0.281131450191,-1.44511473693,-1.16480796116,-0.046816343213,-1.01393534661,-0.202499715743,-0.124990149867,-1.32164504121,0.573825905783,0.818952254519,0.00466707312697,0.0,0.818937820198,-0.57375025943,-0.0114992762794,0.0,-0.00673975357814,0.0104208259534,-0.999922988089,0.0,0.417048348618,-0.0604726991695,0.304966624396,1.0,-0.43998,-0.578259428571,1.737
-0.0232564975993,-0.371837851171,-0.142705475253,-2.51876008921,-0.0504433312378,2.14133045007,-0.302882071813,-1.48064049707,-1.09535602973,-0.047407432596,-0.992078984062,-0.216104191242,-0.120627753309,-1.37201681284,0.57385004635,0.818935758968,0.00459280839873,0.0,0.818919499683,-0.573773297331,-0.0116534634109,0.0,-0.00690834009098,0.010448682044,-0.999921546863,0.0,0.409964994548,-0.0697652135776,0.304883200882,1.0,-0.43998,-0.578259428571,1.753
-0.0490081369989,-0.390075672766,-0.143556548333,-2.53463638759,-0.0536846109977,2.13892566375,-0.326672475066,-1.53160178432,-1.04551017553,-0.0481684245052,-0.910675421741,-0.198461982908,-0.137765511258,-1.42526784005,0.573946735765,0.818866989109,0.00476922982918,0.0,0.818852706981,-0.573868949252,-0.0116370208895,0.0,-0.00679239012173,0.0105845306944,-0.999920912446,0.0,0.402489857746,-0.0795844122128,0.304927818781,1.0,-0.43998,-0.578259428571,1.77
-0.0754920706014,-0.407395369115,-0.144426359656,-2.54968626014,-0.0569200838154,2.1362421103,-0.351324298766,-1.56076056813,-1.00674671005,-0.0448643598446,-0.864579485495,-0.198318623454,-0.157700165226,-1.46051686546,0.57395744287,0.818859821467,0.0047109938713,0.0,0.818843103048,-0.573877263469,-0.0118998304825,0.0,-0.0070408963524,0.010687766887,-0.999918095355,0.0,0.39493137482,-0.0894082354281,0.304848855431,1.0,-0.43998,-0.578259428571,1.787
-0.101030173782,-0.422972354625,-0.145223450176,-2.56259102226,-0.0597646191119,2.13381803908,-0.375264269411,-1.61629054428,-0.946390299137,-0.0484282313808,-0.810922896914,-0.179535100165,-0.143442668236,-1.49904937875,0.573966738706,0.818851703911,0.00498164255797,0.0,0.818840050704,-0.573888104008,-0.0115828469593,0.0,-0.0066258561346,0.0107275438774,-0.999920505757,0.0,0.387988760759,-0.0986650764141,0.304981243689,1.0,-0.43998,-0.578259428571,1.803
-0.128799601545,-0.438455067833,-0.146034442509,-2.57565124375,-0.0627504571911,2.13088513259,-0.401452253454,-1.63456225508,-0.884595061984,-0.0421495804608,-0.749986506363,-0.183736062586,-0.164109449687,-1.56311979233,0.573878379635,0.81891427424,0.00487480603132,0.0,0.818899287899,-0.573797021856,-0.0119029781697,0.0,-0.006950503365,0.0108230453897,-0.999917272674,0.0,0.380444003207,-0.108442000576,0.304885906356,1.0,-0.43998,-0.578259428571,1.82
-0.158923666386,-0.453918155342,-0.146827788087,-2.58803896252,-0.0656511456939,2.12800005093,-0.42998830842,-1.67866181072,-0.847486360903,-0.0253555597135,-0.686686263069,-0.154598799507,-0.169600592174,-1.5971122694,0.573827700086,0.818948423512,0.00509873932328,0.0,0.818938043016,-0.573748335415,-0.0115791282304,0.0,-0.00655744186152,0.0108201844468,-0.999919958579,0.0,0.372630115498,-0.118813397826,0.305017366445,1.0,-0.436284,-0.573401828572,1.838
-0.184248391571,-0.465495201885,-0.147268973219,-2.59754547282,-0.0678301841705,2.12551614309,-0.454118848156,-1.68304511218,-0.749450056955,-0.00838708233795,-0.617581381171,-0.145908865734,-0.155723230032,-1.60811740628,0.573652529249,0.819071456098,0.00504701820959,0.0,0.819058927201,-0.573570955642,-0.0118143775996,0.0,-0.00678212698275,0.0109113629894,-0.99991746905,0.0,0.366134872708,-0.127246164049,0.304938176774,1.0,-0.421164,-0.553529828572,1.853
-0.214625238447,-0.47792811564,-0.147589179555,-2.60733487128,-0.0700158278003,2.12277268016,-0.482730442181,-1.68442283559,-0.661293688768,-0.0116089718793,-0.511268854621,-0.11626257501,-0.158758379203,-1.58565318951,0.573823481783,0.818950848706,0.00518324799275,0.0,0.8189403279,-0.573741806574,-0.0117399160552,0.0,-0.00664069600388,0.0109816217477,-0.999917649179,0.0,0.358671066887,-0.137147807508,0.304995224679,1.0,-0.40302,-0.529683428572,1.871
-0.242752242268,-0.488182661651,-0.147682895797,-2.61544644706,-0.0716266724015,2.12040837848,-0.509375325817,-1.63361707645,-0.573732220049,0.000637802118242,-0.455095232292,-0.0830308510007,-0.131926119571,-1.56743700345,0.573935233153,0.81887132856,0.00537050365902,0.0,0.818862430766,-0.573851542591,-0.0118098876392,0.0,-0.00658903343134,0.0111760294696,-0.99991583696,0.0,0.351877059515,-0.146055104346,0.304985831213,1.0,-0.385884,-0.507161828572,1.888
-0.268669671057,-0.496548792626,-0.147581149587,-2.6220110596,-0.072809318438,2.11836800579,-0.533956881768,-1.59636910261,-0.497278792511,0.00019195219466,-0.383951387804,-0.0734254465838,-0.111393485913,-1.53645067183,0.57405619164,0.818785217524,0.00556806122711,0.0,0.818777952532,-0.57397015584,-0.0119025859791,0.0,-0.00654988658538,0.0113919782798,-0.999913657181,0.0,0.345747258623,-0.154079871042,0.304974043019,1.0,-0.369756,-0.485965028572,1.904
-0.296881415,-0.504523685193,-0.147288180351,-2.6281967904,-0.0739474995054,2.11639028622,-0.560859923518,-1.54487093064,-0.412812277005,0.0136771950688,-0.318949032682,-0.0516441782411,-0.0976619793926,-1.47345655592,0.574055760475,0.818784578402,0.00570481704983,0.0,0.818778926059,-0.57396891795,-0.0118953087407,0.0,-0.00646543216263,0.011499775889,-0.999912972884,0.0,0.33921538635,-0.162672702752,0.304978313007,1.0,-0.351612,-0.462118628572,1.922
-0.322803076533,-0.510852914948,-0.146924908026,-2.63295714679,-0.0747288541122,2.11486872286,-0.585501918907,-1.49155469164,-0.344376594001,0.0210004738293,-0.269875815342,-0.0291485360455,-0.0786220857181,-1.42898455353,0.574218479091,0.8186689327,0.00592146977637,0.0,0.818667167369,-0.574132773933,-0.0116779223012,0.0,-0.00616076093173,0.0115536141141,-0.999914275839,0.0,0.33336377369,-0.170477748309,0.305043617468,1.0,-0.334476,-0.439597028572,1.939
-0.344936257959,-0.515481555928,-0.146422992589,-2.63660869745,-0.0752435250245,2.11349071321,-0.606615163859,-1.4584049565,-0.282529759268,0.030191792707,-0.229416587768,-0.0246725417807,-0.0880747863335,-1.4006729805,0.574252748721,0.818644538989,0.00597044979704,0.0,0.818641938009,-0.574164108687,-0.0119038031673,0.0,-0.00631708709347,0.0117236779988,-0.99991132096,0.0,0.328351090256,-0.176982371726,0.304990266604,1.0,-0.319356,-0.419725028572,1.954
-0.368999596758,-0.519803456565,-0.145674323324,-2.64002352914,-0.0756644250369,2.11225306012,-0.629612054293,-1.39310931581,-0.226169208031,0.0473475204965,-0.186287745078,-0.0286432276107,-0.0621716016072,-1.34415992022,0.574225194234,0.81866367491,0.00599671503571,0.0,0.818660646359,-0.574135029257,-0.0120192006709,0.0,-0.00639688198802,0.0118112298497,-0.999909783306,0.0,0.322686645953,-0.184361813354,0.304943240501,1.0,-0.301212,-0.395878628572,1.972
-0.393256388946,-0.523350761896,-0.144793559257,-2.64275950877,-0.0759240132694,2.11121185985,-0.65288863046,-1.31521859134,-0.177498873655,0.0672263945742,-0.142074210199,-0.0136201369716,-0.0551871736179,-1.2726274545,0.574104782566,0.818748135147,0.00599472509875,0.0,0.818744896237,-0.574014310797,-0.0120462768797,0.0,-0.00642193237686,0.0118242034003,-0.999909469401,0.0,0.317685928414,-0.190924811619,0.304937913159,1.0,-0.284076,-0.373357028572,1.989
-0.413842504388,-0.525725961688,-0.144017996656,-2.64461086531,-0.0759803078089,2.11050756567,-0.672613952581,-1.25750753556,-0.135074715165,0.0518060181858,-0.108023470593,-0.0160732265697,-0.043224707826,-1.22562726112,0.574123556502,0.818734516228,0.00605645998432,0.0,0.818731946702,-0.574032569857,-0.0120563300454,0.0,-0.00639445137121,0.0118806690968,-0.999908976204,0.0,0.31323017637,-0.196807424215,0.304927320295,1.0,-0.267948,-0.352160228572,2.005
-0.434591525701,-0.527577704576,-0.14308403444,-2.64609585369,-0.0759750600604,2.10992240646,-0.692537095785,-1.19760578643,-0.0957921041348,0.0433622379033,-0.0756909219825,-2.51462634448e-05,-0.0279760291251,-1.1470375509,0.574051766491,0.818785035662,0.00603172170497,0.0,0.818781948895,-0.573960540063,-0.0120898931202,0.0,-0.0064371772579,0.011879118065,-0.999908720485,0.0,0.30877275259,-0.202675037178,0.304904844377,1.0,-0.250812,-0.329638628572,2.022
-0.454080258764,-0.528878548193,-0.142085868371,-2.64718048268,-0.0759140468355,2.10946209956,-0.711273216755,-1.11227466063,-0.0699466784708,0.0663891360752,-0.0595896841116,-0.000895609679338,-0.0246082233735,-1.07674140287,0.573924015937,0.818875219385,0.00594524260827,0.0,0.818870667476,-0.573832574476,-0.0121553822572,0.0,-0.00654229340019,0.0118448786338,-0.999908444432,0.0,0.30459980637,-0.208130317043,0.30487464086,1.0,-0.233676,-0.307117028572,2.039
-0.471505726086,-0.52966328547,-0.141174787093,-2.64784229284,-0.0758121531089,2.10913664027,-0.727845631362,-1.05603852154,-0.0456994343013,0.0637367414934,-0.0347750112286,0.0147077706828,-0.0184752915205,-1.01561810271,0.573983578524,0.818834111513,0.00585630500867,0.0,0.818828193503,-0.573892146049,-0.0122041439342,0.0,-0.00663240960026,0.0118005130555,-0.99990837532,0.0,0.300881594361,-0.212998470736,0.304856976538,1.0,-0.217548,-0.285920228572,2.055
-0.488747045406,-0.530118671109,-0.140200076656,-2.64821638909,-0.0755067975028,2.10891862642,-0.744302500713,-0.995888488001,-0.0200593512284,0.0583700902804,-0.0165170467605,0.0217153550538,-0.015574127372,-0.942945203825,0.574046228161,0.818790066282,0.00587385670728,0.0,0.818784413706,-0.573954770266,-0.012196411869,0.0,-0.00661510016678,0.0118109539482,-0.99990836671,0.0,0.297238454575,-0.217779341198,0.304860744343,1.0,-0.200412,-0.263398628572,2.072
-0.504582861305,-0.530275762086,-0.139035472611,-2.64833400811,-0.0750562739459,2.10880237754,-0.759560707572,-0.907731779531,-0.00631324147868,0.0679529090852,-0.00458929995502,0.0292132082345,-0.00448096616036,-0.871505223672,0.573882777668,0.818904641873,0.00587298184376,0.0,0.818899390704,-0.573792095854,-0.0121311805053,0.0,-0.00656453585381,0.0117714834558,-0.999909165398,0.0,0.293954692521,-0.222089100346,0.304885947292,1.0,-0.183276,-0.240877028572,2.089
-0.518530530111,-0.530227075077,-0.138042799583,-2.64831857767,-0.0746019830539,2.10877869265,-0.772754869205,-0.845935387984,0.00358758018502,0.0667117294353,0.00179870363396,0.0346263885626,-0.00196440639248,-0.795847886401,0.573984243759,0.818833295723,0.00590496678175,0.0,0.818828812598,-0.57389403794,-0.0120729357529,0.0,-0.00649702162911,0.0117650583502,-0.999909681977,0.0,0.290879846416,-0.226097790899,0.304898564903,1.0,-0.16614,-0.218355428572,2.106
-0.53183921819,-0.529993541348,-0.136810406065,-2.64819757914,-0.0740197160368,2.10878266603,-0.785540369145,-0.757414181537,0.0136476153012,0.0696610663724,0.0074990134698,0.0351759807038,-0.000749185970468,-0.716054611529,0.573808989711,0.818956005352,0.00592043296792,0.0,0.818951815508,-0.573718921428,-0.0120527994197,0.0,-0.00647417269724,0.0117647804944,-0.999909833449,0.0,0.288322859583,-0.22940230439,0.304902578236,1.0,-0.150012,-0.197158628572,2.122
-0.544777892149,-0.529581193687,-0.1356420289,-2.64796822504,-0.0734218064942,2.10881329913,-0.797678204368,-0.688451714701,0.0288774906178,0.0713957813626,0.0156732688975,0.0357189876789,0.00775710226647,-0.651386418097,0.573909157582,0.818885618048,0.00594729346319,0.0,0.818881524737,-0.573818494357,-0.0120884605801,0.0,-0.00648652441851,0.0118080343084,-0.999909243545,0.0,0.28565709905,-0.232825798108,0.304889744871,1.0,-0.131868,-0.173312228572,2.14
-0.554823318041,-0.529092918828,-0.134481706131,-2.64769239715,-0.0727954673892,2.10891842706,-0.807280548559,-0.610250696596,0.0283403080897,0.0659184774827,0.0205113153187,0.0361610223444,0.00409134916627,-0.570513621831,0.573736581259,0.819006407555,0.00596545136124,0.0,0.819002463617,-0.573645717157,-0.012095564387,0.0,-0.00648441395671,0.011825614801,-0.999909049469,0.0,0.28365618138,-0.235416590517,0.304876158649,1.0,-0.11574,-0.152115428572,2.156
-0.564554514677,-0.528549527587,-0.133413479663,-2.64737500609,-0.0722033282274,2.10898892364,-0.816212692046,-0.549722201348,0.0356147537764,0.0653979290475,0.021706018009,0.035188807406,0.00538764398469,-0.494276638637,0.57390802026,0.818886104457,0.00598991735949,0.0,0.818882056727,-0.573816243346,-0.0121590683979,0.0,-0.0065199058054,0.0118834515127,-0.999908132984,0.0,0.281688764805,-0.237931313832,0.304855655278,1.0,-0.0986040000001,-0.129593828572,2.173
-0.57332732665,-0.52795808939,-0.132224184395,-2.6469792045,-0.0715383026285,2.10911807568,-0.824315571509,-0.44235037372,0.0408117503413,0.0663095338962,0.0174609700222,0.03888251369,0.0129644226661,-0.421579932326,0.573911430281,0.818883679502,0.00599470927194,0.0,0.818879790751,-0.57381980762,-0.0121434584574,0.0,-0.00650432225067,0.0118784445829,-0.999908293968,0.0,0.279906840106,-0.240256333214,0.304856385428,1.0,-0.0794520000001,-0.104422628572,2.192
-0.579827430972,-0.527454577276,-0.13115565007,-2.64669572085,-0.070918458082,2.10920442837,-0.830197478653,-0.389159330294,0.0237274436579,0.0612734428372,0.0151180997401,0.043125078359,-0.000670128100275,-0.342935330664,0.573955394462,0.818852710373,0.00601587769212,0.0,0.818848736839,-0.573863009768,-0.0121958639935,0.0,-0.0065344524161,0.0119262053948,-0.999907529003,0.0,0.278758695216,-0.241727173288,0.304840351184,1.0,-0.0643320000001,-0.0845506285716,2.207
-0.585635645634,-0.527024436237,-0.130006627314,-2.64640145463,-0.0702837001216,2.10928610595,-0.835264618153,-0.308382494297,0.0262545873284,0.0662350414134,0.0149375623233,0.0418224883915,0.000580953654813,-0.260215152301,0.574037708441,0.818795130963,0.00599914165137,0.0,0.818791065316,-0.573945611501,-0.0121808578536,0.0,-0.00653057181162,0.0119045445122,-0.999907812477,0.0,0.277710395443,-0.243087794635,0.304852717679,1.0,-0.0471960000001,-0.0620290285716,2.224
-0.590031218841,-0.526609380895,-0.128844255213,-2.64614832337,-0.0695707568453,2.10940453807,-0.839012140095,-0.230929414694,0.0260033657522,0.0707769576073,0.015927564999,0.0435633122168,0.00475248103972,-0.196472044907,0.574065300322,0.818775567145,0.00602897283113,0.0,0.818771994756,-0.573973255493,-0.0121601596627,0.0,-0.00649609753127,0.0119173092652,-0.999907884986,0.0,0.277006355352,-0.244036392035,0.304855097687,1.0,-0.0300600000001,-0.0395074285716,2.241
-0.592993188539,-0.526328092729,-0.127750201525,-2.64601003925,-0.0689263381918,2.10942486605,-0.841400092577,-0.158514932802,0.0151382505084,0.063488173811,0.0107845445462,0.0404852350087,-0.00149223076849,-0.136818998907,0.574044963219,0.818789763157,0.00603745422879,0.0,0.818785834062,-0.573952028923,-0.0122300178248,0.0,-0.00654873037735,0.0119641924765,-0.999906981788,0.0,0.276589488542,-0.24457060423,0.304843834282,1.0,-0.01986,-0.0261017142857,2.257
-0.595413314766,-0.526163436998,-0.126880182435,-2.64588249948,-0.0684450245247,2.10943667132,-0.843397327359,-0.119541539287,0.00921561591274,0.0462347549457,0.00882319948033,0.0173107907896,0.000841991684076,-0.112270315589,0.573988474502,0.818829499443,0.00601904332993,0.0,0.818825445162,-0.573895845891,-0.0122145537926,0.0,-0.00654745906347,0.0119397888101,-0.999907281813,0.0,0.276243746876,-0.245020715919,0.304863891299,1.0,-0.0195,-0.0256285714286,2.275
-0.5971334617,-0.525992777187,-0.126308918684,-2.64571985858,-0.0682391250607,2.10949067395,-0.844934068237,-0.100564819464,0.00819016674308,0.0281537503998,0.0121711260477,0.01621914856,-9.33793240901e-05,-0.086212544049,0.573831264229,0.818940509406,0.00590501048696,0.0,0.818935529547,-0.573740191882,-0.0121465043016,0.0,-0.00655944886009,0.0118060941133,-0.999908790727,0.0,0.276000209119,-0.245388227162,0.304893801574,1.0,-0.01918,-0.025208,2.291
-0.598452878601,-0.525818247443,-0.126014915269,-2.64554739012,-0.0680975167913,2.10960398955,-0.846186587541,-0.0937862273146,0.0131253424369,0.0140923387684,0.00831819932067,0.0112665675973,0.00941978515002,-0.0895931005137,0.573747551462,0.81899943092,0.00586738830798,0.0,0.818994821944,-0.573658207571,-0.0120203750363,0.0,-0.00647892959379,0.0117022466918,-0.999910536445,0.0,0.275804630545,-0.245724849109,0.304925087,1.0,-0.0189,-0.02484,2.305
-0.600299033582,-0.52557803645,-0.125845327997,-2.64538633295,-0.0679542943387,2.10963603631,-0.847984327337,-0.0963402828046,0.0089541153701,0.0102898272285,0.0047066090302,0.00506911050133,0.00019621395132,-0.0835058824611,0.573737090125,0.819006486875,0.00590531727835,0.0,0.819002130262,-0.573647154373,-0.0120498882815,0.0,-0.00648149300508,0.0117501614968,-0.999909957923,0.0,0.275435960882,-0.246219899766,0.30491718792,1.0,-0.0185,-0.0243142857143,2.325
-0.6018322732,-0.525432894335,-0.125774387863,-2.64527982958,-0.067925439519,2.10963755775,-0.84938761535,-0.0901148794408,0.00687902882186,0.0064279365074,0.0110776626893,-0.000217209498959,4.79845273169e-05,-0.0831112761196,0.573811390981,0.8189544765,0.00589914420575,0.0,0.818949875423,-0.573721168956,-0.0120776131004,0.0,-0.0065066766781,0.0117616018325,-0.99990965986,0.0,0.275097686868,-0.246646826741,0.304914264389,1.0,-0.01816,-0.0238674285714,2.342
-0.60309125284,-0.525290327363,-0.125722181025,-2.64515799302,-0.0678899693387,2.10964502499,-0.850666319061,-0.0804967031186,0.0127445878136,0.00228047506632,0.0134927428051,0.000860739533437,0.0017050306085,-0.0821421464072,0.573774816545,0.818980070179,0.00590351159226,0.0,0.818975499575,-0.573684535794,-0.0120802064273,0.0,-0.00650682027667,0.0117663761214,-0.999909602756,0.0,0.274812282724,-0.247030703628,0.304920645791,1.0,-0.01784,-0.0234468571429,2.358
-0.604537459798,-0.525117332639,-0.125716269487,-2.64500512458,-0.067851099117,2.10967701045,-0.852063703933,-0.0805562834929,0.00349685864781,-0.00201351500285,0.00471181620605,0.00136456134685,0.000541952177062,-0.0830163271114,0.573840246386,0.818934014842,0.00593277885025,0.0,0.81892992049,-0.573750001102,-0.0120610307808,0.0,-0.00647338112124,0.0117798617859,-0.999909661016,0.0,0.274512956178,-0.247436900983,0.304928298911,1.0,-0.0175,-0.023,2.375
-0.605979960341,-0.524998147203,-0.125724013475,-2.64486800845,-0.067833427714,2.10969086419,-0.853533061267,-0.0765300357693,0.00581197569755,0.00291150051011,0.00912721125213,-0.000158810617449,-0.000705867641859,-0.0834495029198,0.573838276345,0.818935243697,0.00595366557915,0.0,0.818931655962,-0.573748372531,-0.0120205982271,0.0,-0.00642830936674,0.0117737512603,-0.999910023762,0.0,0.274188077386,-0.247866215976,0.304947951619,1.0,-0.01714,-0.0225268571429,2.393
-0.607180644063,-0.524937431276,-0.125726544446,-2.64479308294,-0.0678099115918,2.10969898806,-0.854647568925,-0.0781600598474,-0.000599837668455,-0.000881581976911,0.00749264658225,-0.000271027137692,-0.00079718764147,-0.0742096000843,0.573924464366,0.818874654349,0.00597967967305,0.0,0.818871572859,-0.573834743456,-0.0119908826776,0.0,-0.00638780494184,0.0117786773931,-0.999910225324,0.0,0.273909642879,-0.248211927781,0.304960403484,1.0,-0.01684,-0.0221325714286,2.408
-0.60856101412,-0.524823502139,-0.12572352271,-2.64470795074,-0.0677892608001,2.10972789686,-0.856014457954,-0.0788851374559,0.00956251224697,-0.000329466211167,0.0088147135268,0.00399019444523,0.00253613119699,-0.0762273939923,0.573946706656,0.818858910872,0.00600074217235,0.0,0.818856135974,-0.573856954658,-0.0119821145611,0.0,-0.00636821625866,0.0117910667539,-0.999910204252,0.0,0.273591637655,-0.248609986871,0.304959891307,1.0,-0.01648,-0.0216594285714,2.426
-0.609707513401,-0.524688785641,-0.125702121229,-2.64461836667,-0.0677629255566,2.10974319724,-0.857182861477,-0.0669217078575,0.010269778293,0.003937164859,0.01329533835,2.12614669557e-05,-0.00048569486848,-0.0693367680452,0.573931581395,0.818869371598,0.00601988680298,0.0,0.818866592241,-0.57384128352,-0.0120180007204,0.0,-0.00638683609447,0.0118272220614,-0.999909658491,0.0,0.273316582207,-0.248957332316,0.304947251311,1.0,-0.01614,-0.0212125714286,2.443
-0.61081024027,-0.524521463184,-0.125639939235,-2.64452138872,-0.0677426275097,2.1097731969,-0.858291495635,-0.0681114734598,0.0138702856863,0.00558378381227,0.00398689240188,0.00244284623148,0.000999933476878,-0.0656869131307,0.573894916141,0.818895198454,0.00600217274058,0.0,0.818892081482,-0.573804502505,-0.0120373873121,0.0,-0.00641340840643,0.011823554751,-0.999909531781,0.0,0.273098137603,-0.249248403172,0.304939845508,1.0,-0.01584,-0.0208182857143,2.458
-0.611966456002,-0.524336495504,-0.125532233585,-2.6444183268,-0.0677169931803,2.10981163409,-0.859526896434,-0.0692669998412,0.0123439841047,0.00497412659271,0.00616554328495,-6.61134302843e-05,0.0011525566301,-0.0714100166711,0.57377054296,0.81898257543,0.00597093573926,0.0,0.818978847123,-0.573679911701,-0.0120728528783,0.0,-0.00646217467225,0.0118173449395,-0.999909291215,0.0,0.272860988149,-0.249564808074,0.304924726439,1.0,-0.0155,-0.0203714285714,2.475
-0.613160820798,-0.524135320882,-0.12544107356,-2.64431419378,-0.0676914863192,2.10983529509,-0.860801260084,-0.0691090980183,0.0129638223315,0.0036148002023,0.00601813002722,0.000883598491386,0.00172118522647,-0.0708986757499,0.573657260626,0.819062084144,0.00594950006574,0.0,0.819057666183,-0.573565998037,-0.0121380502585,0.0,-0.0065295115125,0.0118362921847,-0.999908629659,0.0,0.272607959401,-0.249893132297,0.304902483353,1.0,-0.01514,-0.0198982857143,2.493
-0.61420741553,-0.523969361493,-0.125397732886,-2.64421459633,-0.0676712290415,2.10986275332,-0.861851769703,-0.0651345431218,0.0146151682826,0.000452201178543,0.00460731174206,0.00207229769719,0.00514905573031,-0.0667230098059,0.573637484707,0.819075966448,0.00594510108604,0.0,0.819071282468,-0.573545867864,-0.0121703982903,0.0,-0.00655881885733,0.0118510864042,-0.999908262615,0.0,0.272381439782,-0.250192183287,0.30489026743,1.0,-0.01482,-0.0194777142857,2.509
-0.615334914628,-0.523805497655,-0.125399261206,-2.6441246796,-0.0676475636347,2.1098740274,-0.863011796475,-0.0679294540717,0.0117247913115,-0.000711857122828,0.00353583403779,0.000592174547233,0.0038849164807,-0.0688885515103,0.573627011305,0.819083121762,0.00596979460631,0.0,0.819078368007,-0.57353457839,-0.012225438807,0.0,-0.00658989382623,0.011902800714,-0.999907444034,0.0,0.272120360038,-0.250518198042,0.304871967937,1.0,-0.01448,-0.0190308571429,2.526
-0.616531866872,-0.523680026178,-0.125407047611,-2.64403840904,-0.0676201332309,2.10989400441,-0.864138903185,-0.0641250265661,0.00300498656881,0.000607059094164,0.00499650181655,0.00176876140585,-0.00076564923313,-0.0622937399121,0.573706057862,0.819027536372,0.00600006155018,0.0,0.81902307665,-0.573613288228,-0.0122369270527,0.0,-0.00658079188204,0.0119348178329,-0.999907122338,0.0,0.271841917006,-0.250864723209,0.304866685199,1.0,-0.01412,-0.0185577142857,2.544
-0.617591670188,-0.523616035621,-0.125409432964,-2.64397084937,-0.0676004791933,2.10990446526,-0.865110331898,-0.0628780978482,0.00292010184557,-0.00163169497546,0.00406514738865,0.00123964266479,0.00100785287907,-0.065318606888,0.573791967859,0.818967193589,0.00602165647691,0.0,0.818963136282,-0.573699301232,-0.0122163856271,0.0,-0.00655032505383,0.0119414085322,-0.9999072437,0.0,0.271593365104,-0.251168355194,0.304874761506,1.0,-0.0138,-0.0181371428571,2.56
-0.618599885756,-0.523544716017,-0.125407343243,-2.64385774751,-0.0675754336585,2.10991870145,-0.86614673826,-0.0605820640447,0.00670686738968,-0.000330926094227,0.0108206803052,0.00459712143176,-0.000672697720221,-0.0653987164165,0.57378370267,0.818972843159,0.00604082930625,0.0,0.818969423649,-0.573691661391,-0.0121535048433,0.0,-0.006487941928,0.0119209670203,-0.999907894336,0.0,0.27137009628,-0.251467921657,0.304901276845,1.0,-0.01348,-0.0177165714286,2.576
-0.619847881757,-0.523387097047,-0.125377268053,-2.64367785686,-0.0675372559638,2.1099857152,-0.867422759213,-0.0603226936034,0.0115136110026,0.0023343107401,0.00850861141126,0.000967630362969,0.00417487527522,-0.0603489376154,0.573764879,0.818985973943,0.00604855445345,0.0,0.818983273523,-0.573673949366,-0.0120558869583,0.0,-0.00640382749456,0.0118711380044,-0.9999090294,0.0,0.271115549676,-0.251847085678,0.304931655878,1.0,-0.01306,-0.0171645714286,2.597
-0.620767331226,-0.523239835447,-0.125320557484,-2.64352415525,-0.0675194536744,2.1100370161,-0.868348813393,-0.0583388492539,0.00569740931489,0.00243782702906,0.010638258578,0.00141682940679,0.00233214908001,-0.0584645375158,0.573734796008,0.819007218252,0.00602554578637,0.0,0.819004642566,-0.573644756423,-0.0119931557681,0.0,-0.00636608096553,0.0118160682471,-0.999909922715,0.0,0.270938664324,-0.252124670389,0.304953204033,1.0,-0.01274,-0.016744,2.613
-0.621723830247,-0.52308614729,-0.125265202238,-2.64339363918,-0.0674925362819,2.11004519353,-0.869321357005,-0.0505213775335,0.00604596522137,0.00200799743136,0.00487565434767,0.00719854500744,-0.000902037994202,-0.0526136557532,0.573700786439,0.81903109835,0.0060178464131,0.0,0.819028372033,-0.573610692347,-0.0120019303259,0.0,-0.00637817592933,0.0118145312839,-0.999909863799,0.0,0.270740039004,-0.252399769637,0.304958140545,1.0,-0.0124,-0.0162971428571,2.63
-0.6226012016,-0.52294077233,-0.125236070928,-2.64333940643,-0.0674771170431,2.11005182492,-0.870230323383,-0.0544585016704,0.0132077478463,0.00235533493746,0.00279722319976,-8.52972748746e-05,0.000589527676922,-0.0554586609362,0.573661140643,0.819058830671,0.00602283288816,0.0,0.819055665117,-0.573570102382,-0.012078989785,0.0,-0.00643901034362,0.0118625108451,-0.999908905842,0.0,0.270524573855,-0.252654856415,0.304930796936,1.0,-0.01206,-0.0158502857143,2.647
-0.623386449688,-0.522840277776,-0.125219032879,-2.64330029572,-0.0674593101888,2.11006566145,-0.870996440701,-0.049558759161,0.00232503537637,0.000312504418296,0.00106748022941,-0.000199575338171,-0.000413632283197,-0.0449626192042,0.573677604325,0.81904722364,0.00603312886937,0.0,0.819043899767,-0.573585979616,-0.0121227531541,0.0,-0.00646871372386,0.0118961784226,-0.999908314138,0.0,0.270352383026,-0.252857936968,0.304913168573,1.0,-0.01178,-0.0154822857143,2.661
-0.624339249107,-0.522713121168,-0.125196573227,-2.64325774737,-0.0674390450336,2.11007859214,-0.871932957714,-0.0504463228438,0.00628197841802,0.000885385527261,0.00274401723451,0.000173385395491,0.000182971849924,-0.0635408039398,0.573686278716,0.819041053875,0.00604587315335,0.0,0.819037459843,-0.573593794418,-0.0121879152972,0.0,-0.00651465309423,0.0119440663225,-0.999907445004,0.0,0.270127067794,-0.253118641279,0.30488747159,1.0,-0.01142,-0.0150091428571,2.679
-0.625214176911,-0.522617219921,-0.125179962423,-2.64320002785,-0.067427310533,2.11008579465,-0.872841051666,-0.0502035890249,0.00881954404217,8.87316009965e-05,0.00186988485855,-0.000640744042713,-0.000425474333167,-0.0531324220328,0.573655513043,0.819062555094,0.00605228047052,0.0,0.819058868977,-0.573562684359,-0.0122132371714,0.0,-0.00653216877492,0.0119635951687,-0.999907097265,0.0,0.269922613932,-0.253363848571,0.304879507618,1.0,-0.01108,-0.0145622857143,2.696
-0.625969171109,-0.522522861633,-0.1251646473,-2.64312060637,-0.0674175858541,2.11009213251,-0.873565245485,-0.0478096757623,0.00506405774077,0.000319183184279,0.00545288915764,-0.000124752268585,0.000123450489521,-0.0364143249154,0.57367820133,0.819046660242,0.00605281480431,0.0,0.819042954366,-0.57358531645,-0.0122176330765,0.0,-0.00653513169399,0.0119667354841,-0.999907040327,0.0,0.269752909256,-0.253582389637,0.304881863463,1.0,-0.01078,-0.014168,2.711
-0.626792084303,-0.522394026579,-0.125151866938,-2.64299996549,-0.0674092624103,2.1101165485,-0.874367696223,-0.0522774606763,0.00403424040574,0.000267373084177,0.00728345443303,0.000127506632772,0.000553881974613,-0.0423551414207,0.573695694736,0.819034441089,0.00604822727893,0.0,0.819030815141,-0.573603083034,-0.0121972900478,0.0,-0.0065208443695,0.0119514474087,-0.999907316452,0.0,0.269576964462,-0.253832085499,0.304891768587,1.0,-0.01044,-0.0137211428571,2.728
-0.627595239785,-0.522266124879,-0.125144594756,-2.64288135126,-0.0673980651544,2.11015791195,-0.875170174934,-0.0507673221904,0.00456067291437,0.00846441919734,0.00775781267435,-0.000262791104597,-0.000579965120699,-0.0494831118927,0.573701996293,0.819030032357,0.0060475158985,0.0,0.819026635404,-0.573609823757,-0.0121609000253,0.0,-0.0064913527912,0.0119300389104,-0.999907764002,0.0,0.269407176924,-0.254079089257,0.304902408022,1.0,-0.0101,-0.0132742857143,2.745
-0.628351774653,-0.522160629322,-0.125145627634,-2.64277909512,-0.0673937432494,2.11020363033,-0.875915546782,-0.0472549388858,0.00815096896073,0.000232231255521,0.00235068020043,0.00315902751611,0.00296676866529,-0.0428378059925,0.573718961486,0.819018162441,0.00604563678428,0.0,0.819015043672,-0.573627350883,-0.0121147620195,0.0,-0.0064543917817,0.011902165313,-0.999908335443,0.0,0.269244031471,-0.254312839086,0.304914009297,1.0,-0.00978,-0.0128537142857,2.761
-0.629167952451,-0.522025412655,-0.125135463115,-2.64267321059,-0.067385440442,2.11023338366,-0.876705668809,-0.0474744685494,0.0112541721174,-0.000613605008287,0.00273504390605,0.000577425310522,0.000429562200742,-0.0408482077662,0.573742213272,0.81900188949,0.0060435604364,0.0,0.818998778156,-0.573650670465,-0.012110183992,0.0,-0.00645149528646,0.0118980214536,-0.999908403452,0.0,0.269065835128,-0.254557875644,0.30491524375,1.0,-0.00942,-0.0123805714286,2.779
-0.62986855329,-0.521931057536,-0.125118036436,-2.64259396558,-0.0673756017386,2.11025371089,-0.877340054408,-0.0446551053776,0.00150863973959,-0.000108005262772,0.00251503401912,0.00146718204383,-0.000564751383022,-0.0411519675683,0.573800102663,0.818961350667,0.00604112566061,0.0,0.818958202398,-0.573708548727,-0.0121124210501,0.0,-0.00645388352488,0.0118977669224,-0.999908391069,0.0,0.268901639108,-0.254772870737,0.304914847472,1.0,-0.00908,-0.0119337142857,2.796
-0.630543044,-0.52185432061,-0.125105790291,-2.64254837399,-0.0673672729412,2.11027336485,-0.877991700155,-0.0415487596398,0.00651526280304,0.00435913843512,0.00302799391619,-0.000376820437562,-0.000717975453098,-0.0405315204169,0.573808501578,0.818955448719,0.00604346188007,0.0,0.818952351389,-0.573716973482,-0.0121089799148,0.0,-0.00644960259533,0.0118977720067,-0.99990841863,0.0,0.268755253873,-0.254953277235,0.3049132459,1.0,-0.00878,-0.0115394285714,2.811
-0.631216024778,-0.521770642991,-0.125093834089,-2.64250928244,-0.0673602894709,2.1102866858,-0.878663611862,-0.0359420508999,0.00642828235711,-0.00110030120353,0.00106270199049,0.000565205021076,0.000261226766589,-0.038973894852,0.573806105704,0.818957101347,0.00604699193231,0.0,0.818953869916,-0.573714230645,-0.0121362022767,0.0,-0.00646990827955,0.0119162638358,-0.999908067246,0.0,0.268596172749,-0.255141014442,0.304901691177,1.0,-0.00844,-0.0110925714286,2.828
-0.631817824366,-0.521729389243,-0.125084154065,-2.64247680902,-0.0673480498616,2.11029493396,-0.879310161946,-0.0346723892952,0.00295482574287,0.000810360307849,0.00210655308299,0.000420948330562,-0.000200465597416,-0.0348535185714,0.573769525083,0.818982661779,0.00605629357639,0.0,0.818979562108,-0.57367763609,-0.012132337001,0.0,-0.00646193788063,0.0119213754238,-0.999908057857,0.0,0.268453707929,-0.255307844383,0.30490223144,1.0,-0.00812,-0.010672,2.844
-0.632419300753,-0.521671080322,-0.125068314996,-2.64242807199,-0.067337072514,2.11030508193,-0.87988016587,-0.0385220511018,0.00917935788225,0.00245893638822,0.000238750244841,5.12661388773e-05,-0.000445563254243,-0.0298625527333,0.573791305751,0.818967384952,0.00605860797845,0.0,0.818964342315,-0.573699451556,-0.012128157429,0.0,-0.0064568696142,0.011921044703,-0.999908094541,0.0,0.268316148201,-0.255477357736,0.304904201915,1.0,-0.0078,-0.0102514285714,2.86
-0.633110612863,-0.521589804425,-0.125047384213,-2.64235558993,-0.0673286561962,2.1103190159,-0.880541402666,-0.0371187277511,0.00558278070388,0.000644427955752,0.00375317720217,-0.00060367308561,-0.000218255424007,-0.0320948821376,0.573808455788,0.818955400161,0.00605437974271,0.0,0.818952365727,-0.573716733452,-0.0121193782476,0.0,-0.00645185551166,0.0119126796867,-0.9999082266,0.0,0.268162015427,-0.255676161288,0.304908963772,1.0,-0.00742,-0.00975200000001,2.879
-0.633666301253,-0.521502197813,-0.125037796092,-2.64227969272,-0.0673218101548,2.11034026243,-0.881061684947,-0.0375012703649,0.00875574535373,0.000475925226448,0.0031905139475,0.00017974969818,0.00256652924614,-0.034672425019,0.573837518412,0.818935055809,0.00605175444163,0.0,0.818932072339,-0.573745958763,-0.0121071301042,0.0,-0.00644290765917,0.0119037304839,-0.999908390875,0.0,0.268041706324,-0.255842956313,0.304913303693,1.0,-0.0071,-0.00933142857143,2.895
-0.634215761899,-0.521406745827,-0.125025746422,-2.64220185394,-0.0673082731042,2.11035980125,-0.881608153276,-0.0337045103286,0.00496032362498,0.000597996566579,0.00284500354869,0.00488231497361,-0.000143314251187,-0.0296505619021,0.573841272428,0.818932408922,0.00605397193548,0.0,0.818929486284,-0.573749761357,-0.0121018485291,0.0,-0.00643725495218,0.0119025454466,-0.999908441389,0.0,0.267924006301,-0.256006920491,0.304915557081,1.0,-0.00676,-0.00888457142858,2.912
-0.634750960077,-0.521307519486,-0.125000952544,-2.64213567701,-0.0673025610712,2.11037233671,-0.882124934599,-0.0288484152916,0.00781616097289,-0.00124947469658,0.00369887677432,0.000618832366901,0.00370030933812,-0.0355048579068,0.573843959694,0.818930589718,0.00604533270593,0.0,0.818927515312,-0.573752413308,-0.0121094917149,0.0,-0.00644843311433,0.0118998770772,-0.999908401123,0.0,0.267801629658,-0.256170170035,0.304915458049,1.0,-0.0064,-0.00841142857143,2.93
-0.635263149906,-0.521226384383,-0.124969314408,-2.64207056459,-0.0672835227657,2.1103944683,-0.882664193704,-0.0287279618913,0.00925965985928,0.00408599824208,0.00492428046858,-0.000449734613851,0.000981363963166,-0.0267297725747,0.573811713974,0.81895319925,0.00604328104995,0.0,0.818950093141,-0.573720174145,-0.0121100629678,0.0,-0.00645054674724,0.0118982706452,-0.999908406606,0.0,0.267702078086,-0.25630738897,0.304913234365,1.0,-0.00606,-0.00796457142858,2.947
-0.635693687579,-0.52113048705,-0.12494047931,-2.64202597784,-0.0672723930915,2.11040240664,-0.883088003458,-0.0284999157629,0.00862505212951,0.00357796855847,0.00317536951977,0.000146957258782,-9.22193144312e-05,-0.0286385253949,0.573804071125,0.818958584613,0.00603916793611,0.0,0.818955165044,-0.573712072614,-0.0121508142229,0.0,-0.00648639494758,0.0119182239052,-0.999907937072,0.0,0.267608357539,-0.256425892402,0.304899611062,1.0,-0.00574,-0.00754400000001,2.963
-0.636117369899,-0.521052595233,-0.124914311949,-2.64198166815,-0.0672557078173,2.11040973859,-0.883508770481,-0.0228527252655,0.00106509239075,9.18796240774e-05,0.00053954346416,0.00175063486464,-0.000336987513022,-0.0165118342054,0.573797462797,0.818963203115,0.00604073937563,0.0,0.818959651019,-0.573705177749,-0.0121739857324,0.0,-0.00650456812593,0.0119327536788,-0.999907645727,0.0,0.267516507401,-0.256542692725,0.304892367126,1.0,-0.0054,-0.00709714285715,2.98
-0.636520092138,-0.520994910683,-0.124889476947,-2.64195327287,-0.0672426857336,2.11041596463,-0.883888804021,-0.0244810564422,0.00242489321724,0.00102580978652,0.00106686034732,0.00481972929583,-0.00109432547841,-0.0282024315449,0.573805593939,0.818957503316,0.0060411114833,0.0,0.818953824092,-0.573713063564,-0.0121943266205,0.0,-0.00652089625479,0.0119447941545,-0.999907395615,0.0,0.267425949523,-0.256650678563,0.304885190439,1.0,-0.00508,-0.00667657142858,2.996
-0.636962893083,-0.520958413474,-0.124871938966,-2.64192946452,-0.0672267075396,2.1104267816,-0.884280303526,-0.0267225240237,-0.00227414145015,0.00110390866515,0.00171516634488,0.000607806931683,0.000365434481699,-0.0227699073332,0.573843268466,0.818931058881,0.00604739092962,0.0,0.81892746723,-0.573750712184,-0.0121930547805,0.0,-0.00651570185714,0.0119495070102,-0.999907373166,0.0,0.267323899595,-0.256770479512,0.304883938776,1.0,-0.00472,-0.00620342857143,3.014
-0.637347497887,-0.520951156112,-0.124870711714,-2.64187590437,-0.0672164866866,2.1104428138,-0.884645511207,-0.0260590754647,-0.0018443107742,0.00156401715389,0.00319819669023,0.0004120817869,0.00031139073516,-0.0210958701201,0.573865148629,0.818915697478,0.00605132327544,0.0,0.818912575001,-0.573773338817,-0.0121283580784,0.0,-0.00646013923271,0.0119157761525,-0.99990813622,0.0,0.267241161651,-0.25688762778,0.304907011243,1.0,-0.00438,-0.00575657142858,3.031
-0.63767914781,-0.520952968671,-0.124869784846,-2.64177656682,-0.067203883442,2.11045887169,-0.884958065467,-0.0166961342885,0.000180089597145,-0.000942941676675,0.00773521712665,0.000673347242952,0.00129911851226,-0.0243975352589,0.573890085551,0.818898229193,0.0060503579532,0.0,0.818895860682,-0.573799695152,-0.0120094172387,0.0,-0.0063629194672,0.0118469266601,-0.999909577704,0.0,0.267182988355,-0.257002185246,0.304954218565,1.0,-0.00406,-0.00533600000001,3.047
-0.638009936294,-0.52096177008,-0.124858037225,-2.64161341337,-0.0671869355684,2.1104988122,-0.885285660339,-0.0210151027997,0.00153789698328,0.00120765881037,0.00539604587241,-0.000397002502017,0.00540036763016,-0.0251778628897,0.573899092252,0.818892018345,0.00603664678039,0.0,0.818890827561,-0.573811298499,-0.0117963194277,0.0,-0.00619613499236,0.0117134772099,-0.999912197327,0.0,0.267146511117,-0.257133269529,0.305035301168,1.0,-0.00372,-0.00488914285715,3.064
-0.638281545012,-0.520971343091,-0.124845980347,-2.64147038429,-0.0671708663026,2.11057006103,-0.885536308196,-0.0201625391483,-0.00100538359839,0.00158807192991,0.00501459563943,3.43612579505e-05,0.00290059734933,-0.0148358810875,0.573921099181,0.818876713266,0.00602057205056,0.0,0.818876709571,-0.573836018385,-0.0115717512477,0.0,-0.00602113246001,0.0115716012152,-0.999914918385,0.0,0.267125525278,-0.25724780324,0.305110214856,1.0,-0.00342,-0.00449485714286,3.079
-0.638557764237,-0.520974484201,-0.124821603152,-2.64130852875,-0.0671546967539,2.11059750371,-0.885812370731,-0.0156675070568,0.000228888484309,-0.0032496569069,0.0116206661347,0.00242864344668,0.00131644161654,-0.016289534115,0.573918314066,0.818878811419,0.00600065743905,0.0,0.81887972722,-0.573835574794,-0.0113785917385,0.0,-0.0058744100684,0.0114444192544,-0.999917254864,0.0,0.267103186778,-0.257359443119,0.305187881417,1.0,-0.00308,-0.00404800000001,3.096
-0.638838744184,-0.520979058973,-0.124761320238,-2.64113791116,-0.0671323138075,2.11060696097,-0.886087927949,-0.0124601606963,0.0013978478742,0.00124594025625,0.00879020822777,0.000383072202539,0.00138426343294,-0.0095741986784,0.573897457505,0.818893662653,0.00596862106756,0.0,0.818895288559,-0.573817013632,-0.0111932186792,0.0,-0.00574127006181,0.0113116531971,-0.999919538923,0.0,0.26708703788,-0.257463549723,0.30526938472,1.0,-0.00268,-0.00352228571429,3.116
-0.639016623175,-0.521005030068,-0.124708639525,-2.6409819375,-0.0671148735645,2.1106680948,-0.886264919629,-0.00755295037723,-0.00544698375644,0.00526794408993,0.0127198173974,0.00203895917681,0.00319702016459,-0.0111376252846,0.573875356304,0.818909423208,0.00593118100565,0.0,0.818911999129,-0.573797849836,-0.0109504386855,0.0,-0.00556422564841,0.0111415167056,-0.999922449992,0.0,0.267100660367,-0.257546090773,0.305356352671,1.0,-0.00238,-0.00312800000001,3.131
-0.639184000866,-0.52106555594,-0.124627600963,-2.64072086403,-0.0670917452802,2.11080446954,-0.886455054347,-0.00789463331478,-0.00214967232849,0.00588381471671,0.0240490554488,0.00500521501206,0.0102149207696,-0.0159293363729,0.573820892101,0.818948088145,0.00586170741744,0.0,0.818952358897,-0.573748771142,-0.0104942065321,0.0,-0.00523116366463,0.0108224624368,-0.999927752007,0.0,0.267160729094,-0.257656602871,0.305510982074,1.0,-0.00206,-0.00270742857143,3.147
-0.639368120741,-0.521222013609,-0.124530940377,-2.64047137423,-0.0670707243202,2.11086928338,-0.886643445695,-0.011068298573,-0.00810548437873,0.00371351596299,0.0114659016563,-0.000256685373002,0.00186347148779,-0.0124959266162,0.573768661581,0.818985202686,0.00578858102807,0.0,0.818991063353,-0.573701909726,-0.0100251596617,0.0,-0.00488963156763,0.0104931205978,-0.999932990717,0.0,0.267207596386,-0.25775704979,0.305689952418,1.0,-0.0017,-0.00223428571429,3.165
-0.639515047538,-0.521340025733,-0.124497839823,-2.64032671061,-0.0670535373389,2.11085811174,-0.886779450943,-0.0128152339024,-0.00372973100943,-0.000663410954427,0.00457267221481,0.000617976374393,-0.000721269171186,-0.00867564806268,0.573767635935,0.818986079284,0.00576617672667,0.0,0.818992912774,-0.57370361162,-0.0097735224245,0.0,-0.00469639281802,0.0103303876212,-0.99993561142,0.0,0.267212692529,-0.257824256601,0.305799082726,1.0,-0.00138,-0.00181371428572,3.181
-0.639673423499,-0.521387634813,-0.124482189369,-2.6402221333,-0.0670405762185,2.11086097741,-0.886894882189,-0.0136912920319,-0.00156224968068,0.00279344576111,0.00496919925899,0.00011145093261,0.0001182238938,-0.00601531540847,0.573801861882,0.818962181209,0.00575464596984,0.0,0.818969619091,-0.573739488781,-0.00961815573985,0.0,-0.00457532625628,0.0102319928869,-0.999937184383,0.0,0.267202092108,-0.257889447011,0.305864842545,1.0,-0.00104,-0.00136685714286,3.198
-0.639805106,-0.52159884722,-0.124560169018,-2.64021988454,-0.067040081033,2.11099330034,-0.886971448253,0.00486561239886,-0.0337367342479,-0.0196267404952,-0.0186817393294,-0.0111713357449,0.0335626729403,0.000599073418165,0.573901513771,0.818892209117,0.00577488013399,0.0,0.818901393905,-0.573842566852,-0.00927159271305,0.0,-0.00427864537665,0.0100502319826,-0.999940341236,0.0,0.267177585977,-0.257964109295,0.305953186899,1.0,-0.000680000000005,-0.000893714285721,3.216
-0.639983825407,-0.521236860062,-0.124494837709,-2.6401634003,-0.0669321933971,2.11085317226,-0.887027872335,-0.0175948413156,0.0269277872026,-0.00134307864057,0.0136385744702,0.02089680512,-0.00565849470072,-0.00375151742237,0.574005592205,0.818818715987,0.00585127060113,0.0,0.818826750521,-0.57394184769,-0.00970850155336,0.0,-0.00459130211273,0.0103641106176,-0.999935750514,0.0,0.26713795739,-0.257975436568,0.305835145001,1.0,-0.000360000000005,-0.000473142857149,3.232
-0.639928878164,-0.521381553251,-0.124467391394,-2.6402009897,-0.0669003314848,2.11093734348,-0.887054228614,0.0132578325603,-0.00896909782705,-0.00475987276365,-0.00614106356966,-0.00031268946432,0.0101599720544,-0.000854182205526,0.573930654371,0.818871200281,0.00585732228013,0.0,0.818880164947,-0.573868878394,-0.00951487093781,0.0,-0.00443020411323,0.0102575186275,-0.999937576353,0.0,0.267168743614,-0.25795592021,0.305879225329,1.0,-2.00000000049e-05,-2.62857142922e-05,3.249
-0.639932145028,-0.521277678125,-0.124386586787,-2.64018213995,-0.0668926463134,2.11085820113,-0.887059333165,-0.00345958401434,-0.0116620512196,-0.000314329191203,0.000757775070075,0.00264450360105,-0.0028294471492,0.00171028785994,0.573868286382,0.818915121173,0.00582761532055,0.0,0.818922882549,-0.573804609956,-0.00971230828042,0.0,-0.00460973232798,0.0103461524419,-0.999935851691,0.0,0.267175715186,-0.257929035099,0.305830480328,1.0,0.0,0.0,3.266
-0.639932880984,-0.521334237801,-0.124378035596,-2.64020068589,-0.0668898499845,2.11086353456,-0.887071451485,-0.000446588676621,-0.00460928711894,-0.000986023537441,-0.00286613410566,0.000731421293649,-0.00319850730207,-6.56773155163e-05,0.573861255525,0.818920026176,0.00583069778088,0.0,0.81892817007,-0.573798357192,-0.00963558252922,0.0,-0.00454521419855,0.0103046085475,-0.999936576024,0.0,0.267175167718,-0.257925272226,0.305857712848,1.0,0.0,0.0,3.281
-0.639941576449,-0.521211732082,-0.124365051088,-2.64016540514,-0.0668922196563,2.1108570477,-0.887068365778,-0.000904983582173,-0.00203575642372,-0.00210318682294,0.00518350334437,0.000405237709894,0.00936747293018,0.00173804251019,0.573857456332,0.818922757681,0.00582096765613,0.0,0.81893040212,-0.573793704439,-0.00972255778683,0.0,-0.004622078229,0.0103465288667,-0.999935790805,0.0,0.267181537987,-0.257931001284,0.305826417585,1.0,0.0,0.0,3.299
-0.639965177582,-0.521244999984,-0.124400926661,-2.640195718,-0.0668855696271,2.1108476067,-0.887076250242,0.000769568220505,0.00793273992378,-0.00123493952816,0.0010715556392,-0.000155711194324,-0.00568031226954,-0.00187390844469,0.573902464289,0.818891014982,0.00584927051385,0.0,0.818898898759,-0.573838453202,-0.00973499560567,0.0,-0.00461545295012,0.0103770989416,-0.999935504626,0.0,0.267158945801,-0.257936123112,0.305825201226,1.0,0.0,0.0,3.319
-0.639980450733,-0.521295580759,-0.124397880588,-2.6401870921,-0.0668869017105,2.11088645844,-0.887072739727,-9.33001364928e-06,-0.0126214601349,-0.00297160713136,-0.00109701416409,0.000267672063246,-0.000928652167172,0.00069533236793,0.573915266484,0.818882108685,0.00584002343221,0.0,0.818890344442,-0.573852307194,-0.00963743783363,0.0,-0.00454070191746,0.0103136100714,-0.999936503721,0.0,0.267164843679,-0.257948054035,0.305851164081,1.0,0.0,0.0,3.332
-0.639956227336,-0.521302414266,-0.124381646777,-2.64018709515,-0.0668866323467,2.11085502703,-0.887075934414,-0.00087758066902,-0.000910645794362,4.80839545678e-06,0.00173909163952,2.44049200938e-05,-0.00875231752815,0.000435291539744,0.573881410993,0.818905869745,0.00583519620267,0.0,0.818913940948,-0.573818219174,-0.00966206841727,0.0,-0.00456407051974,0.0103236037363,-0.999936294204,0.0,0.267169748923,-0.257933726271,0.305851364329,1.0,0.0,0.0,3.349
-0.63995373053,-0.521342862767,-0.124370598777,-2.64018254696,-0.0668853053747,2.11085836383,-0.887074761754,4.92555392871e-05,-0.00213086014616,0.00199165769811,-0.00257828979517,0.00200064854664,-0.0030775883402,0.00040400215022,0.573873084194,0.818911751339,0.00582869259721,0.0,0.818919973975,-0.573810418614,-0.00961387624267,0.0,-0.00452843887836,0.0102905757259,-0.999936796649,0.0,0.267175358388,-0.25793275331,0.305868881025,1.0,0.0,0.0,3.366
-0.639944862458,-0.521321554091,-0.12437262936,-2.6401739301,-0.0668839250931,2.11088600973,-0.887073779146,0.000655851716612,0.00124066727273,-0.000334860164931,-2.28447403496e-05,-0.00210740241745,-0.000616497004379,0.00182592384262,0.573869137832,0.818914525336,0.00582749859426,0.0,0.818922802606,-0.573806630484,-0.00959901479166,0.0,-0.00451700227557,0.0102810477655,-0.999936946386,0.0,0.267183272721,-0.257936357386,0.305867281376,1.0,0.0,0.0,3.382
-0.63995297523,-0.521258375733,-0.124364574255,-2.64020068976,-0.0668814038634,2.11085287918,-0.88707983181,0.00132906000558,0.00294368756463,0.000736171143283,0.00171793068577,0.000564136656886,-0.00406319684565,-0.000660728405862,0.573865261263,0.818917192033,0.00583450163591,0.0,0.818924982318,-0.573801458449,-0.0097214463522,0.0,-0.00461330282162,0.0103570189045,-0.999935722732,0.0,0.267170280332,-0.257924097239,0.305829177257,1.0,0.0,0.0,3.4
-0.639962628279,-0.521296596394,-0.124381884006,-2.64018961111,-0.0668859201071,2.1108762926,-0.887076832362,-0.00021107605886,-7.45491763105e-05,0.00242564337064,-0.000814878774937,0.000348461872229,0.00931534610015,0.000895215070359,0.573886288979,0.81890245782,0.00583427787314,0.0,0.818910578828,-0.573823234732,-0.00964914844087,0.0,-0.00455395485035,0.0103154644653,-0.999936424323,0.0,0.267170793441,-0.257937629782,0.305849896662,1.0,0.0,0.0,3.417
-0.639972118977,-0.521260227923,-0.124375980433,-2.64018458644,-0.0668905994693,2.11086806747,-0.887082228671,0.00137568881567,-0.00431150545327,-0.000757562644613,0.0013687815574,0.000563428337488,0.00056586408178,-0.00017143196063,0.573885771879,0.81890283984,0.0058315211147,0.0,0.818910825854,-0.573822489387,-0.00967248021774,0.0,-0.00457465163186,0.0103265933667,-0.999936214982,0.0,0.26717036755,-0.257940129855,0.305844223166,1.0,0.0,0.0,3.434
-0.639953093701,-0.521285339108,-0.124365267338,-2.64018888043,-0.0668834383626,2.11087254368,-0.887078363111,-0.000968647539672,0.00179118077084,0.000998641356617,-0.00183123231739,0.00013438675893,-0.000419789226696,0.000392234326784,0.573866599071,0.818916295645,0.00582873046613,0.0,0.818924292761,-0.573803422604,-0.00966342773571,0.0,-0.00456908092263,0.0103190060576,-0.999936318779,0.0,0.267176380617,-0.257930642244,0.305846154416,1.0,0.0,0.0,3.45
-0.639941303719,-0.521294335453,-0.124356390014,-2.64019736957,-0.0668853097538,2.11086764268,-0.887088587886,-0.000962162628885,-0.00507478591569,-0.00142427383418,-0.00239747543167,0.000522166164451,0.00168139115642,-0.000192415865632,0.573841053315,0.818934228696,0.00582421675914,0.0,0.818942156681,-0.573777850789,-0.00966792923941,0.0,-0.0045756796962,0.0103177499805,-0.999936301567,0.0,0.267178617896,-0.257923040038,0.305845391235,1.0,0.0,0.0,3.467
-0.639949438974,-0.521280047569,-0.124356034449,-2.64019810475,-0.0668872410754,2.11085597448,-0.887083663598,0.000207082883278,0.00147409009639,2.16282695728e-05,-0.00104182040511,-0.000230091315202,-0.0058099181999,-0.000721025331083,0.573850713627,0.818927460662,0.00582404878335,0.0,0.818935264678,-0.573787235109,-0.0096947404911,0.0,-0.0045976128819,0.0103330516244,-0.999936042955,0.0,0.267174082165,-0.257923298611,0.305838799434,1.0,0.0,0.0,3.484
-0.639952695242,-0.521296246561,-0.124371574813,-2.64018491611,-0.0668852966125,2.11086763897,-0.8870753707,0.000245800884003,0.00155925633985,-0.000335255358217,0.000610843581945,0.000139503574761,-0.0020862681466,0.00163156292137,0.573872536784,0.81891212628,0.00582991063032,0.0,0.818920181037,-0.573809456713,-0.00965356814395,0.0,-0.00456025396251,0.0103143476918,-0.999936407136,0.0,0.267175332231,-0.257932620438,0.305851405535,1.0,0.0,0.0,3.501
-0.63997421137,-0.521285713716,-0.124380514251,-2.6401767536,-0.066882820997,2.1108629684,-0.887085452228,-0.00148479315492,0.00227146491555,-0.000235626504855,0.00628044437899,0.000474095816474,-0.000591309081081,-0.00146813864509,0.573889714915,0.81890004305,0.0058362239123,0.0,0.818908133679,-0.573826536984,-0.00966027681824,0.0,-0.00456190877655,0.0103234634996,-0.999936305516,0.0,0.267168989654,-0.257941339771,0.305850631305,1.0,0.0,0.0,3.516
-0.63997063169,-0.521282166234,-0.124375130749,-2.6401764707,-0.0668861590263,2.11086925841,-0.887079363424,0.00245524213779,0.000273381211728,0.00109491117007,0.000183086132678,-0.000306583219576,0.000749737552483,0.00105496077524,0.57388656423,0.81890229483,0.00583007886353,0.0,0.818910333649,-0.57382344112,-0.00965767906761,0.0,-0.00456334749431,0.0103169227186,-0.999936366458,0.0,0.267171770393,-0.257940421243,0.305850118165,1.0,0.0,0.0,3.533
-0.639962219149,-0.521288175634,-0.124370489832,-2.64018957302,-0.066885919891,2.11086774871,-0.887076837747,-0.00186593939587,0.00101200011087,0.00117221368194,-0.0009302151731,0.000289747453698,-0.000184600246059,0.00111005869394,0.573877923091,0.818908353097,0.00582970995663,0.0,0.818916348572,-0.57381471375,-0.00966618985019,0.0,-0.00457063825989,0.0103214564664,-0.999936286371,0.0,0.267171817775,-0.257933693908,0.30584634755,1.0,0.0,0.0,3.55
-0.639965885723,-0.521280438503,-0.124364117184,-2.64018996438,-0.0668866321842,2.1108652732,-0.887083084336,-0.00139406419576,-5.32530549555e-05,0.00329185651376,0.000570059430187,4.93824087237e-05,0.000374757019338,-0.00128675315979,0.573871012265,0.818913218748,0.00582652068712,0.0,0.818921131809,-0.57380770701,-0.00967688758844,0.0,-0.00458131689174,0.0103249449787,-0.999936201488,0.0,0.267171528843,-0.257932771568,0.305843256855,1.0,0.0,0.0,3.566
-0.639955884984,-0.521282288257,-0.124353887205,-2.6401870921,-0.0668868876667,2.1108604885,-0.887085424373,-0.000429731458548,-0.00129451100771,0.000528099349006,0.000246140920199,-0.00014398360596,-0.00804257498459,-0.00163164695954,0.573853677084,0.818925403771,0.00582127627154,0.0,0.81893326032,-0.573790393374,-0.00967711292383,0.0,-0.00458472947695,0.0103206822963,-0.999936229853,0.0,0.267176233338,-0.257927961378,0.305845075895,1.0,0.0,0.0,3.585
-0.639944901909,-0.521290316294,-0.12435308592,-2.64019714029,-0.0668871184048,2.11086763032,-0.887077626623,0.000706548646224,-0.00212745852773,-0.00337423309953,0.000121984316294,-6.10659529512e-05,0.000626633816333,0.00117670069059,0.573849896602,0.818928054732,0.00582101745734,0.0,0.818935931773,-0.573786666853,-0.00967199533197,0.0,-0.00458073431137,0.0103175125206,-0.999936280874,0.0,0.267178205817,-0.25792344788,0.305844090882,1.0,0.0,0.0,3.601
