nelsonifechukwu/NELSON_IML_WORK/CNN-GradCAM/train2dof/data_sample_2022-02-21-15-22-02/robot_state.csv
position_joint1,position_joint2,position_joint3,position_joint4,position_joint5,position_joint6,position_joint7,velocity_joint1,velocity_joint2,velocity_joint3,velocity_joint4,velocity_joint5,velocity_joint6,velocity_joint7,ee_T_00,ee_T_10,ee_T_20,ee_T_30,ee_T_01,ee_T_11,ee_T_21,ee_T_31,ee_T_02,ee_T_12,ee_T_22,ee_T_32,ee_T_03,ee_T_13,ee_T_23,ee_T_33,v_x,v_y,time
0.465063082004,0.547863374451,-0.123923938658,-1.35585781298,0.0794734633951,1.89409091783,0.159176822213,-0.000334663312635,-0.00107528922619,0.000473541874528,-0.00108604131767,-8.10067197478e-05,-4.22183350186e-06,0.00103299608073,0.573778143003,0.818996939201,0.00184474761731,0.0,0.818952286232,-0.573719887652,-0.0119745684573,0.0,-0.00874893496312,0.00838166730446,-0.999926599201,0.0,0.661656695467,0.26091182702,0.303141325045,1.0,0.0,0.0,0.0
0.465060610536,0.547871649563,-0.123927003243,-1.35585538996,0.0794734634492,1.89409353899,0.159171624324,0.00113531887169,-0.000314506268094,-5.82724683907e-05,-0.000334530059631,-0.000259357708182,0.000136880629259,0.00120190573191,0.573777951806,0.818997081836,0.00184088739227,0.0,0.818952399907,-0.573719733501,-0.0119741796564,0.0,-0.00875083325254,0.00837828073354,-0.999926610972,0.0,0.661658902472,0.260908774196,0.303136945137,1.0,-0.00016,-0.000210285714286,0.009
0.465063080872,0.547868134336,-0.123926773888,-1.35586012082,0.0794715306693,1.89408914875,0.159173521111,-0.000373789192885,0.00140043239785,0.000953356456423,-0.00054441329816,-0.000571944277499,9.40911933051e-05,7.43118388268e-05,0.573777030149,0.818997739635,0.00183549681437,0.0,0.818952993273,-0.573718840694,-0.0119763743751,0.0,-0.00875573301279,0.0083751153781,-0.999926594597,0.0,0.661656445854,0.260909413434,0.303136791473,1.0,-0.00036,-0.000473142857143,0.019
0.46505470875,0.547862370555,-0.123927083425,-1.3558661145,0.0794734634492,1.89408764001,0.15917659352,-0.00147531145591,-0.00148624360103,0.00141097694758,0.000595564597732,-8.41118463068e-05,-0.00717598303982,0.00179094185484,0.573787437713,0.818990448452,0.0018353661135,0.0,0.818945676533,-0.573729224729,-0.0119792521065,0.0,-0.00875805849718,0.0083767707942,-0.999926560365,0.0,0.661657070191,0.260903269623,0.303137904871,1.0,-0.00066,-0.000867428571429,0.034
0.465062428834,0.547827342864,-0.123930413296,-1.35589431788,0.0794717884744,1.89409790005,0.159169742124,0.000366302206974,-0.00619061180894,0.000177461428677,-0.00321114146686,-0.000221601336209,0.00435219448616,-0.00733040283904,0.57377893748,0.818996371605,0.00184962239754,0.0,0.818951802225,-0.57372068035,-0.011969689768,0.0,-0.00874213418209,0.00838286886915,-0.99992664861,0.0,0.661652425638,0.260903992757,0.303150293876,1.0,-0.001,-0.00131428571429,0.051
0.465064509675,0.547723089688,-0.123924694658,-1.35601820494,0.0794694301371,1.89412301399,0.159170747341,0.00106842911623,-0.0109750536228,0.0012010062331,-0.00821559226879,-6.23786723185e-05,0.00536829625581,0.00128631314635,0.573780187054,0.81899547305,0.00185983050704,0.0,0.818950932865,-0.573721786371,-0.0119761556484,0.0,-0.00874156028186,0.0083949523857,-0.999926552252,0.0,0.661630066604,0.26089666876,0.303167172029,1.0,-0.00132,-0.00173485714286,0.067
0.465054885992,0.54758477857,-0.123926646706,-1.35621163108,0.0794698766788,1.89416602838,0.159168252543,-0.00257962708061,-0.00590249182693,-0.000845193527314,-0.0131233720062,-0.000428260326207,0.00392461977673,0.00155147700993,0.573798114815,0.818982919259,0.00185695919938,0.0,0.818938201735,-0.573739589965,-0.0119938128879,0.0,-0.00875748549106,0.00840292383428,-0.999926345947,0.0,0.661600884684,0.260871020724,0.303176890983,1.0,-0.00166,-0.00218171428571,0.084
0.465033367016,0.547433888159,-0.123933447255,-1.35641032318,0.0794618501264,1.89426275754,0.159156430958,-0.00123385251358,-0.00645684125504,-0.0014160201388,-0.0151276195184,-0.000117872057008,0.00224896471572,-0.00161042099054,0.573824930204,0.818964023323,0.00190391188749,0.0,0.818919906443,-0.573766189951,-0.011970505503,0.0,-0.00871118079552,0.00842828810023,-0.999926536946,0.0,0.661583317674,0.260835623418,0.303198416139,1.0,-0.002,-0.00262857142857,0.101
0.465011623264,0.547234379933,-0.123927721383,-1.35664086371,0.0794602890974,1.89439106347,0.15913968092,-0.00126776355345,-0.0103310284368,0.000408384497528,-0.0142903098478,-0.000240379992929,0.0112759921312,-0.00183100790675,0.573832726607,0.818958358129,0.00198907696721,0.0,0.818915315045,-0.573773592098,-0.0119297400139,0.0,-0.00862884659025,0.00847472399582,-0.999926858355,0.0,0.661568682146,0.26080918977,0.303240358385,1.0,-0.00232,-0.00304914285714,0.117
0.464982150739,0.547026155949,-0.123929340398,-1.35692078008,0.0794536088456,1.89452316686,0.159131984442,-0.000734960843076,-0.00794472365171,-0.000460443243615,-0.02063897453,-0.000283672123363,0.00763103848457,0.000120085769661,0.573865734672,0.8189350913,0.00204492254432,0.0,0.81889273382,-0.57380632433,-0.0119054423125,0.0,-0.00857656012379,0.00850686139545,-0.999927035301,0.0,0.661544762599,0.260766164112,0.303266126771,1.0,-0.00266,-0.003496,0.134
0.464941669438,0.546753961604,-0.123930077956,-1.35734844019,0.079445851315,1.89466681535,0.159058281323,-0.00613688063955,-0.0141917548113,0.00263588417985,-0.0298493934457,-0.000334456983021,0.00792170870598,-0.0051462436225,0.573860820876,0.818938533908,0.00204520048939,0.0,0.81889599528,-0.573801226785,-0.0119267747598,0.0,-0.00859392234585,0.0085192792669,-0.999926780509,0.0,0.661493636863,0.260700265025,0.30326784203,1.0,-0.00304,-0.00399542857143,0.153
0.464909374903,0.546513847946,-0.123925304398,-1.35769056477,0.0794317506383,1.89480174611,0.158958915805,-0.00221915905738,-0.0174538580004,0.000704821296234,-0.025713627482,-0.00499499186776,0.00786415728676,-0.00390723629553,0.573817974685,0.818968471654,0.00207876561686,0.0,0.81892629325,-0.573758171361,-0.0119177985187,0.0,-0.00856775743519,0.00854116727378,-0.999926818319,0.0,0.661456489314,0.260651093454,0.30328658274,1.0,-0.00332,-0.00436342857143,0.167
0.464868118748,0.546234021016,-0.123925312193,-1.35816818813,0.0794099367324,1.89497013849,0.158946070513,-0.00112819774638,-0.0127238326913,0.00750104629736,-0.0301989379443,-0.0052205691663,0.00758290318362,-0.00433834151096,0.573862153596,0.818937572032,0.00205637688915,0.0,0.818895025031,-0.573802360415,-0.0119388468086,0.0,-0.0085973818316,0.0085353734775,-0.99992661352,0.0,0.661399789899,0.260578676564,0.303271991289,1.0,-0.00366,-0.00481028571429,0.184
0.464807763061,0.545861728408,-0.123930185584,-1.35878887882,0.0793487195348,1.89517578412,0.158857354054,-0.00337667574386,-0.0224814423261,-0.000287898657771,-0.0310278228575,-0.00635457720381,0.00938859239549,-0.0109456629648,0.573860640826,0.818938757685,0.00200573495022,0.0,0.818895750358,-0.573801255286,-0.0119422099632,0.0,-0.00862921149817,0.00849581566025,-0.999926676224,0.0,0.661328358081,0.260471191084,0.303258079147,1.0,-0.00404,-0.00530971428571,0.203
0.46475392672,0.545562779762,-0.123928499362,-1.35930206964,0.0792799831957,1.89534978012,0.158768208652,-0.00507241819574,-0.021766455114,0.000601024707685,-0.0416116674693,-0.000507504873691,0.0137861581968,-0.00226489417874,0.573840875986,0.818952739803,0.0019508761407,0.0,0.818909323889,-0.573782022034,-0.0119355493678,0.0,-0.00865543984309,0.00844685939417,-0.999926864289,0.0,0.661270527293,0.260380251322,0.303240401365,1.0,-0.00432,-0.00567771428571,0.217
0.4646921283,0.545151640122,-0.123933510056,-1.36003660049,0.079265965999,1.89559189691,0.158722881252,-0.00311391074695,-0.0217754887887,-0.000717132512174,-0.0388724363553,5.27558578935e-06,0.0130972619799,-7.47209530145e-05,0.573895033201,0.818914918546,0.0018957720826,0.0,0.818870483862,-0.573836114479,-0.0119996367189,0.0,-0.00873898729298,0.00843908619431,-0.99992620324,0.0,0.661178849435,0.260268851754,0.303203015523,1.0,-0.00468,-0.00615085714286,0.235
0.464617213159,0.544716985984,-0.123928538732,-1.36074698601,0.0792424137055,1.89583729326,0.15860127665,-0.00302152043601,-0.020417271421,0.00045595195626,-0.0393484206466,-0.00405081625378,0.0139690527661,-0.00237583642697,0.573886590091,0.818920867148,0.00188201084143,0.0,0.818876013763,-0.573827501256,-0.0120341093411,0.0,-0.00877520262832,0.00844751015097,-0.999925814944,0.0,0.661095572585,0.260156429437,0.303193661018,1.0,-0.00502,-0.00659771428571,0.252
0.464555296022,0.544282551555,-0.123934087662,-1.36148361962,0.079210081879,1.89610491901,0.158522808555,-0.00871434110258,-0.0321510422388,0.00397357025235,-0.0501812293271,-0.00224412233277,0.0188360149733,-0.000790598352758,0.57390940067,0.818904939594,0.00185651080989,0.0,0.818859653497,-0.573850324443,-0.0120590178958,0.0,-0.00880999961071,0.00844116805036,-0.999925562524,0.0,0.66101011421,0.260043478502,0.303173881249,1.0,-0.00534,-0.00701828571429,0.268
0.464482047506,0.543764083153,-0.123931050833,-1.36231079641,0.0791667331464,1.89638925858,0.158429614154,-0.00671453359324,-0.0315107685397,0.00140314831967,-0.0472612148105,-0.000392231464536,0.0137518638718,-0.00799754661485,0.573925325795,0.818893815458,0.00184019473707,0.0,0.818848200992,-0.573866209174,-0.0120807533658,0.0,-0.008836998779,0.0084404529661,-0.999925330315,0.0,0.660910859777,0.25991772891,0.303171567973,1.0,-0.00568,-0.00746514285714,0.285
0.464410687832,0.543220804914,-0.123945487427,-1.36316463568,0.079117073412,1.89669231755,0.158290294164,-0.00342468352899,-0.028889784601,-9.86140361924e-05,-0.0497144682621,0.000252986277339,0.0203921057227,-0.0130289954832,0.573913976639,0.818901788452,0.00183171771761,0.0,0.818856091383,-0.573854925794,-0.0120819141125,0.0,-0.00884293109357,0.00843405496617,-0.999925331856,0.0,0.660813602434,0.259780522712,0.303176243754,1.0,-0.00602,-0.007912,0.302
0.464333873725,0.542681673871,-0.123941339967,-1.36401887071,0.0790734474944,1.89699828637,0.158203958502,-0.00149465110321,-0.0281446975978,2.11565646914e-05,-0.0518716974238,-0.00515519189216,0.0171857786974,-0.00110597857424,0.573939073197,0.81888420569,0.00182888770673,0.0,0.818838355097,-0.573879920662,-0.0120967675037,0.0,-0.00885646043098,0.00844053343763,-0.999925157451,0.0,0.660713414241,0.259651558596,0.30317738516,1.0,-0.00634,-0.00833257142857,0.318
0.464257243307,0.542042628437,-0.123941284554,-1.36499955861,0.0790119924843,1.89736348089,0.158059095635,-0.00259046802465,-0.0340955040255,0.00110311249163,-0.0600044179661,-0.00513976974621,0.0139575678839,-0.0107599552335,0.573921224074,0.818896673161,0.00184774070148,0.0,0.818851083159,-0.573862003762,-0.0120851623273,0.0,-0.00883632116965,0.00844911830255,-0.999925263121,0.0,0.660600269118,0.259507794364,0.303194172324,1.0,-0.0067,-0.00880571428571,0.336
0.464168427604,0.541394757764,-0.123938263117,-1.36598643334,0.0789508931592,1.8977367276,0.157920835286,-0.000537320415046,-0.0390883948816,0.0054276161572,-0.0622338193144,-0.00659616859559,0.0225510780298,-0.00905896757825,0.573917080185,0.818899511664,0.00187663756407,0.0,0.818854301404,-0.573857735235,-0.0120697839619,0.0,-0.00880718677552,0.00846391086789,-0.999925395054,0.0,0.660489830887,0.259357695032,0.303214763937,1.0,-0.00704,-0.00925257142857,0.353
0.464093847937,0.54073901488,-0.123943825649,-1.36698892394,0.0788889926658,1.89810408098,0.157808710262,-0.00187676255192,-0.0431700879992,-0.000196927259143,-0.0636877512495,-0.00518527726325,0.031766682766,-0.00429010918121,0.573929200108,0.818890982079,0.00189199206068,0.0,0.818846001872,-0.573869814833,-0.0120585132867,0.0,-0.00878901987009,0.00847014609614,-0.999925502102,0.0,0.660372962891,0.259209749857,0.303233163315,1.0,-0.00736,-0.00967314285714,0.369
0.463990332865,0.540017929942,-0.12394090761,-1.36809569518,0.078832290378,1.89851228223,0.157666476258,-0.00666907285307,-0.0442502525677,0.000867383967181,-0.064662682902,0.000397409126673,0.023055966892,-0.0107718866941,0.573941525608,0.818882284306,0.00191742912085,0.0,0.818837517228,-0.573881912899,-0.012058910756,0.0,-0.00877461943297,0.00849133602175,-0.999925448854,0.0,0.66024694919,0.259039714245,0.303251290668,1.0,-0.0077,-0.01012,0.386
0.463901462525,0.539267418414,-0.123955166578,-1.3692526178,0.078764830355,1.89895996783,0.15752304436,-0.00419013124797,-0.0472138231543,-0.000437207023166,-0.0727082359353,-0.00552077593511,0.0301957484831,-0.00543786138167,0.573952891209,0.818874242864,0.00194934548838,0.0,0.818829961706,-0.573893206019,-0.0120344837362,0.0,-0.00873618082437,0.00850357294636,-0.999925681434,0.0,0.660118511427,0.258864767247,0.303270196061,1.0,-0.00804,-0.0105668571429,0.403
0.463787436045,0.538555201563,-0.12394980937,-1.37037809177,0.0786986870441,1.8993928198,0.157382208097,-0.00373465581753,-0.0455739221815,-0.000919796125025,-0.0712541702016,-0.005520463811,0.0294424868715,-0.00848244115509,0.573971740015,0.818860989257,0.00196693616748,0.0,0.818816906021,-0.573911945941,-0.0120291156077,0.0,-0.0087214932588,0.00851509694522,-0.99992571158,0.0,0.65999509395,0.258687038459,0.303274970879,1.0,-0.00836,-0.0109874285714,0.419
0.463679308827,0.537723990317,-0.123956459929,-1.37169046959,0.0786245258149,1.89988946137,0.15721384423,-0.00715348719687,-0.0466126130622,0.000764908362981,-0.0729392149711,-0.00677895683503,0.02432876892,-0.0107341023679,0.573979680636,0.818855391606,0.00198008961946,0.0,0.818811467717,-0.573919817155,-0.0120237561977,0.0,-0.00870947260185,0.0085228759217,-0.99992575008,0.0,0.659845663887,0.258488659477,0.303280628852,1.0,-0.00872,-0.0114605714286,0.437
0.463566280664,0.536897906878,-0.123961467908,-1.3729929645,0.0785522518949,1.90037478465,0.157059007173,-0.00504680739376,-0.049047239834,-0.00103247945136,-0.0764449824387,-0.00567807040696,0.0278963631216,-0.00617900717711,0.574001347829,0.818840181876,0.00198900393997,0.0,0.818796332041,-0.5739414021,-0.0120241628709,0.0,-0.00870446358995,0.00853063906613,-0.999925727497,0.0,0.659696616712,0.258288657982,0.303286182539,1.0,-0.00906,-0.0119074285714,0.454
0.463463814602,0.536146886376,-0.123963254684,-1.37417181545,0.0784851431686,1.90081488894,0.156909359343,-0.00681266473564,-0.0539202880135,-7.69714718514e-05,-0.0823253955772,-1.53678891075e-05,0.0278862546322,-0.0160316682987,0.574010820871,0.818833513064,0.00200057665191,0.0,0.818789778099,-0.573950789057,-0.0120223925612,0.0,-0.00869627281861,0.00853919954185,-0.999925725697,0.0,0.659561230196,0.258108968035,0.303293426042,1.0,-0.00936,-0.0123017142857,0.469
0.463347297732,0.535199346162,-0.123965789427,-1.37566752244,0.0783990964101,1.90135529554,0.15673158029,-0.00592358118666,-0.057544176855,0.00128399721416,-0.0877279897032,-0.00329748750646,0.0294101390939,-0.0176257823081,0.57402138327,0.818826121421,0.00199532649906,0.0,0.81878225411,-0.573961309936,-0.0120325372616,0.0,-0.00870748325165,0.0085408360493,-0.999925614161,0.0,0.659381999418,0.257888308017,0.303297112717,1.0,-0.00972,-0.0127748571429,0.487
0.463227513816,0.534306608221,-0.123973306841,-1.37713781545,0.0783186934657,1.90188415963,0.156554562821,-0.0019392071725,-0.053253473221,-0.00126251049084,-0.0887128689589,-0.0021155056022,0.0336920868454,-0.0148659339572,0.574038785173,0.818814018292,0.00195536872813,0.0,0.818769542371,-0.573978796988,-0.0120633326222,0.0,-0.0087554542378,0.00852598131387,-0.999925322043,0.0,0.659206205899,0.257665038268,0.303273228105,1.0,-0.01006,-0.0132217142857,0.504
0.463101492658,0.533439285917,-0.123968403733,-1.37853926367,0.0782309616112,1.90240722331,0.15638037095,-0.00507257441087,-0.0537484450466,-0.000596815929694,-0.0888200168015,-0.00585283278112,0.035167269955,-0.00558143849494,0.574049055567,0.818806845286,0.00194391802417,0.0,0.818762207966,-0.573989104356,-0.0120706995979,0.0,-0.00876795250274,0.00852094437235,-0.999925255465,0.0,0.659043422843,0.257451155846,0.303263077895,1.0,-0.01038,-0.0136422857143,0.52
0.462966525867,0.532430786458,-0.123966145023,-1.38017698668,0.0781451449268,1.90302203002,0.156159065502,-0.0062329770567,-0.0538919686608,1.15522029721e-06,-0.0915724840787,-0.00461277523191,0.0365142546904,-0.0153811219395,0.57404329236,0.818810900692,0.00193760323941,0.0,0.818766031972,-0.573983224872,-0.0120908790034,0.0,-0.0087881609704,0.00852729588338,-0.999925023915,0.0,0.658850041281,0.257210194883,0.303247903664,1.0,-0.01074,-0.0141154285714,0.538
0.462834092799,0.53144058175,-0.123969360965,-1.38176322068,0.0780561037074,1.90360084297,0.155964045099,-0.00695803602869,-0.0593774738587,-0.000383927422272,-0.100635499506,-0.00218234519907,0.0388054822878,-0.0105467790808,0.574056817168,0.818801448354,0.00192502920495,0.0,0.818756331463,-0.573996722003,-0.0121070111858,0.0,-0.00880844743069,0.0085264063163,-0.999924853001,0.0,0.658661323044,0.256970667888,0.303241153714,1.0,-0.01108,-0.0145622857143,0.555
0.462711611183,0.530537325714,-0.123967841324,-1.38320847272,0.0779583386188,1.90410219536,0.155771028122,-0.0057741416204,-0.0626550167924,0.00152911652665,-0.097181213966,-0.00922536684784,0.0385519515255,-0.0140780458986,0.574050060313,0.818806277309,0.00188557549284,0.0,0.818760657865,-0.57399015359,-0.0121258243103,0.0,-0.00884656961992,0.00850482895194,-0.99992470021,0.0,0.658484192833,0.256749425778,0.303233125394,1.0,-0.01138,-0.0149565714286,0.57
0.462578304625,0.529480117748,-0.123977267518,-1.38484283426,0.0778606639991,1.90470842822,0.155551315939,-0.00713517651986,-0.0631170094568,-4.7796278895e-05,-0.0997735832614,-0.00278465796325,0.0239680476244,-0.0129535935387,0.574048399271,0.818807388425,0.00190862695894,0.0,0.818762088023,-0.573988407471,-0.0121119035094,0.0,-0.00882195618279,0.00851569416937,-0.999924825195,0.0,0.658292745952,0.256501400834,0.30325278488,1.0,-0.01172,-0.0154034285714,0.587
0.462428883189,0.528313214462,-0.123970538135,-1.38665154344,0.0777485995952,1.90540722753,0.155307389505,-0.0080870359157,-0.0688096635553,0.00171153500797,-0.103289230153,-0.00404123251058,0.0452362443505,-0.0129161910006,0.574034249679,0.818817196561,0.00195594316287,0.0,0.818772524772,-0.573974061573,-0.012086199645,0.0,-0.00877389639369,0.00853952947887,-0.99992504478,0.0,0.658082618313,0.256236880799,0.30327393735,1.0,-0.01208,-0.0158765714286,0.605
0.462288365817,0.527246111872,-0.123978701593,-1.3883010868,0.0776402595376,1.90604724719,0.155059751335,-0.00902937665296,-0.0647272214177,-0.000538154738503,-0.113531700829,-0.0105041948481,0.0437977566584,-0.0122414924952,0.57401243429,0.818832389981,0.00199732325433,0.0,0.818788397565,-0.573952205242,-0.0120487763936,0.0,-0.00871972816609,0.00855169722139,-0.999925414626,0.0,0.657895789378,0.255983788885,0.303295678146,1.0,-0.0124,-0.0162971428571,0.621
0.462139487261,0.526064324779,-0.12397894241,-1.39010582049,0.077519196534,1.90671816436,0.154825599588,-0.0065756730854,-0.0727405324491,-6.93324700764e-05,-0.110214707127,-0.00871614390769,0.0356912391632,-0.0194092393056,0.574007400763,0.818835833833,0.00203174852557,0.0,0.818792382787,-0.573947115686,-0.012020365487,0.0,-0.00867675684495,0.00856352384027,-0.999925687214,0.0,0.657682273783,0.255712984112,0.303326380509,1.0,-0.01274,-0.016744,0.638
0.461980909889,0.524899698013,-0.12398474958,-1.39193782165,0.0774153125167,1.90737191935,0.154578987717,-0.0144217880279,-0.0644255409125,-0.000122128712759,-0.107390184055,-0.00637251589687,0.0402695574361,-0.0171875799374,0.57400987527,0.818834120374,0.00202319156608,0.0,0.818790456476,-0.573949526588,-0.0120364535383,0.0,-0.00869481640605,0.0085657780579,-0.999925511033,0.0,0.657460694816,0.255430742358,0.303330472075,1.0,-0.01308,-0.0171908571429,0.655
0.461835610634,0.523765353416,-0.123991013651,-1.39372632488,0.0772946237364,1.9080179358,0.154333451477,-0.00609826034633,-0.0722571081693,0.000616238171603,-0.107144996419,-0.0109497371268,0.0449568459407,-0.0127446605526,0.57399553246,0.818844211715,0.00200812280607,0.0,0.818800439471,-0.573935336951,-0.0120339611642,0.0,-0.00870157433621,0.00855185643189,-0.999925571408,0.0,0.657244057969,0.25515854333,0.303332985215,1.0,-0.0134,-0.0176114285714,0.671
0.461677596576,0.522557248608,-0.123994224177,-1.39567199452,0.077178906623,1.90877159499,0.1540769539,-0.00874182394383,-0.0680567567017,-0.00103023296906,-0.110867082137,-0.00841841822526,0.0417574272718,-0.00667993806027,0.573990459081,0.818847740282,0.00201941085597,0.0,0.81880412298,-0.573930223482,-0.0120272052577,0.0,-0.00868961622538,0.00855716775421,-0.999925629959,0.0,0.65701555181,0.254870166494,0.303321530622,1.0,-0.01374,-0.0180582857143,0.688
0.4615156492,0.521310828161,-0.123994603843,-1.39766099234,0.0770546291374,1.90953800095,0.153799966016,-0.0120985094874,-0.0743798540541,-0.000231427277464,-0.118262700959,-0.00685441616308,0.0494232621767,-0.0139710981105,0.573969468165,0.818862414563,0.0020353207828,0.0,0.818819046358,-0.573909208457,-0.0120140197961,0.0,-0.00866990684198,0.00856240482811,-0.999925756213,0.0,0.656780549553,0.254575747743,0.303317034573,1.0,-0.01408,-0.0185051428571,0.705
0.461350314435,0.52007996272,-0.124000270602,-1.39957807188,0.0769372677666,1.91023363423,0.153546131718,-0.00832470463524,-0.0730959615439,0.000233890531183,-0.119047749055,-0.00976657644603,0.0404406738871,-0.0143856734544,0.573971368988,0.818861066084,0.00204179695207,0.0,0.818817768397,-0.573911067783,-0.0120122992837,0.0,-0.00866476115213,0.00856674042469,-0.999925763681,0.0,0.656548994938,0.254280751042,0.303329498664,1.0,-0.0144,-0.0189257142857,0.721
0.461164704133,0.518645926438,-0.123998145491,-1.40177825561,0.0767981875639,1.91101897661,0.153249298153,-0.0135938388942,-0.0809712846634,-0.000769623482588,-0.120808493674,-0.00477992434778,0.0402724473987,-0.0126096353565,0.573957839142,0.818870510776,0.00205727255007,0.0,0.818827379073,-0.573897438631,-0.0120083351647,0.0,-0.0086527746956,0.00857699432678,-0.999925779575,0.0,0.656277647113,0.25394870626,0.303356963172,1.0,-0.01476,-0.0193988571429,0.739
0.460993901422,0.517312632292,-0.1240013165,-1.40393001244,0.076651022745,1.91178625721,0.152950169632,-0.00619096221668,-0.0807489989281,0.000785286149381,-0.1227806303,-0.0107084837015,0.0451598165995,-0.0198947474621,0.573928997416,0.818890858235,0.00200377769341,0.0,0.818847101555,-0.57386889985,-0.0120273422584,0.0,-0.00869934241314,0.00854379253487,-0.999925659762,0.0,0.656008542871,0.253625258217,0.303335001645,1.0,-0.0151,-0.0198457142857,0.756
0.460828353798,0.516113287058,-0.124009852882,-1.40581493109,0.0765378776532,1.91249857995,0.152698578388,-0.0144557000291,-0.078924819857,0.000229684278656,-0.128921739896,-0.00814188174991,0.0494414961368,-0.0113505087088,0.573933761316,0.818887469178,0.00202419041506,0.0,0.818843995691,-0.573873592739,-0.012014873233,0.0,-0.00867736677457,0.00855340223334,-0.999925768553,0.0,0.65578551299,0.253333783796,0.303341116082,1.0,-0.0154,-0.02024,0.771
0.460625659555,0.51465343789,-0.124013314454,-1.40816691054,0.0763897470564,1.91337509717,0.152369861996,-0.0140752675364,-0.0838397657362,-0.000107998835134,-0.132780042625,-0.00479212612414,0.0458237279257,-0.0158764568473,0.573916991991,0.818899267744,0.00200561547525,0.0,0.818855571564,-0.573856923955,-0.0120220899977,0.0,-0.00869411175717,0.00854215559819,-0.99992571924,0.0,0.655500677692,0.252974468499,0.303321315527,1.0,-0.01576,-0.0207131428571,0.789
0.460427188054,0.513176294986,-0.124016603938,-1.41057764756,0.0762466797066,1.91419778771,0.152037019189,-0.0148281665369,-0.0744400194329,-0.000577605135491,-0.135921194783,-0.0136374330797,0.0513371741217,-0.0156572404135,0.573896897826,0.818913570251,0.00191364201836,0.0,0.818868490637,-0.573837052905,-0.0120904365568,0.0,-0.00880307335696,0.00850584894848,-0.99992507541,0.0,0.655189189862,0.252608585574,0.303280550006,1.0,-0.01612,-0.0211862857143,0.807
0.4602398466,0.511814557648,-0.124015048721,-1.41272117184,0.0761306820337,1.91498103193,0.151745493616,-0.0126698975171,-0.0785506768804,0.00035041034825,-0.134420775183,-0.0064261345888,0.053104337993,-0.0175087607878,0.573891443193,0.818917370279,0.00192327486736,0.0,0.818872216978,-0.573831363581,-0.0121080689533,0.0,-0.00881204220586,0.00852379762991,-0.999924843569,0.0,0.654924147158,0.25228469725,0.303282037459,1.0,-0.01644,-0.0216068571429,0.823
0.460037078832,0.510349287324,-0.124017287786,-1.41503678254,0.0759727546523,1.91587116751,0.151402864341,-0.0114271323798,-0.0864289757822,8.66105212526e-05,-0.13801337228,-0.0121809131204,0.0605397903072,-0.0211303405634,0.573856752905,0.818941627418,0.00194548905051,0.0,0.818896930013,-0.5737967407,-0.0120774698491,0.0,-0.00877459647524,0.00852405675625,-0.999925170657,0.0,0.654648324724,0.251929990153,0.303283014282,1.0,-0.01678,-0.0220537142857,0.84
0.459829183526,0.508838438401,-0.124023235714,-1.41741698594,0.0758253452104,1.91672441768,0.151078071232,-0.0105394418344,-0.0917743215712,-0.00183692356906,-0.14265706401,-0.00882837785801,0.0477201849062,-0.0220860607631,0.573849044846,0.818947065572,0.00192987610164,0.0,0.818902121831,-0.573789060863,-0.0120903017256,0.0,-0.00879414463866,0.00851855174017,-0.999925045839,0.0,0.654351499865,0.251562018444,0.303281581712,1.0,-0.01712,-0.0225005714286,0.857
0.459646390813,0.507501328096,-0.124026266713,-1.41952553956,0.0756947365253,1.91748066163,0.150785189647,-0.0114380971608,-0.0923085360303,-0.00152541364666,-0.134818744226,-0.0161916387103,0.0483584184027,-0.0202652998249,0.573834922801,0.818956993885,0.00191583986675,0.0,0.818911816393,-0.573774953678,-0.0121031568129,0.0,-0.00881287366434,0.00851428188688,-0.999924917312,0.0,0.654086917844,0.251238325789,0.303278929788,1.0,-0.01742,-0.0228948571429,0.872
0.459410264679,0.505842882157,-0.124031123641,-1.42211218408,0.0755302533309,1.91845624999,0.150435829157,-0.012761059058,-0.089729679606,0.00215428545466,-0.142998208875,-0.00342651441534,0.0573255771669,-0.0158565647379,0.573834936513,0.818956902601,0.00195044094322,0.0,0.818912238325,-0.57377487477,-0.0120783237539,0.0,-0.00877268150347,0.00852836830056,-0.999925150695,0.0,0.65377482533,0.250835633152,0.303291968628,1.0,-0.01778,-0.023368,0.89
0.459191513187,0.504197330513,-0.12403898277,-1.42459593394,0.0753738334534,1.91940496317,0.150081483758,-0.0131872381115,-0.0983708862311,-0.000771796575322,-0.141297588683,-0.00965674562105,0.0515057346457,-0.0253587422237,0.57381519659,0.818970515042,0.00204023426664,0.0,0.81892710952,-0.573754835236,-0.0120218649698,0.0,-0.00867512569366,0.00856929694728,-0.999925651908,0.0,0.653476489429,0.25045413475,0.303342021699,1.0,-0.01812,-0.0238148571429,0.907
0.458955772485,0.502522496344,-0.124042847816,-1.42707373632,0.0752140495547,1.92033463956,0.1497375924,-0.0151755552967,-0.0978208123426,-0.000895113782285,-0.143027514987,-0.00630037189233,0.0456392116395,-0.0144883738785,0.573813161699,0.81897167505,0.00214425473255,0.0,0.818929708954,-0.57375244787,-0.0119585641416,0.0,-0.00856361878078,0.00861814132945,-0.999926193313,0.0,0.65317900605,0.250063255661,0.303412880578,1.0,-0.01846,-0.0242617142857,0.924
0.458710131097,0.500703642029,-0.12404891365,-1.42981456912,0.0750427571977,1.92129702669,0.149352109309,-0.0138292671054,-0.102863634852,-0.000931961258384,-0.156126002523,-0.00627790880154,0.0539850035859,-0.0259279020534,0.573796277386,0.818983412168,0.00217934682913,0.0,0.818941842508,-0.573735360167,-0.011947467716,0.0,-0.00853457385589,0.00864033716063,-0.999926250092,0.0,0.652830914024,0.249635886294,0.303461336738,1.0,-0.01882,-0.0247348571429,0.942
0.458497426607,0.499214183834,-0.124052718275,-1.43210699889,0.0748961667584,1.92213809606,0.149018672378,-0.0109607990486,-0.09600490007,-0.00124654261889,-0.153585501743,-0.00646716230249,0.0505774620223,-0.0319337628542,0.573777094732,0.818996773495,0.00220849870232,0.0,0.818955601805,-0.573716079652,-0.0119301769326,0.0,-0.0085038889238,0.00865409126191,-0.99992639258,0.0,0.65254685456,0.249275989193,0.30348223282,1.0,-0.01912,-0.0251291428571,0.957
0.458253162224,0.497634925963,-0.124055527758,-1.43459314636,0.0747486863783,1.92306239305,0.148655248744,-0.0148932961278,-0.0985886724077,0.00091182847262,-0.154176144432,-0.0073131630937,0.0608984741233,-0.0233590967094,0.573768006631,0.819003095684,0.00222502301626,0.0,0.818962060015,-0.573706845016,-0.0119309320439,0.0,-0.00849512290106,0.00866796341422,-0.999926346936,0.0,0.652241708209,0.248879846993,0.30348028699,1.0,-0.01944,-0.0255497142857,0.973
0.457977620331,0.495862154568,-0.124055266384,-1.43745288311,0.0745715821969,1.92405089096,0.148238941021,-0.0175686100108,-0.0981793047867,0.00204487741321,-0.161696687142,-0.0037952452337,0.0521625648438,-0.0227020919789,0.573748883712,0.819016712729,0.00214233757655,0.0,0.818974427028,-0.57368788967,-0.0119933323413,0.0,-0.00859387196424,0.00863584699888,-0.999925781001,0.0,0.651871505378,0.248423225147,0.303440313711,1.0,-0.0198,-0.0260228571429,0.991
0.457704656055,0.494168542538,-0.124053531597,-1.44018705506,0.0743929518068,1.92502946885,0.147862002645,-0.0220773046918,-0.099768551366,0.00384162089617,-0.15918188927,-0.0112643776332,0.0590730497314,-0.0198761613899,0.573751578262,0.819014975378,0.00208409438317,0.0,0.818971891992,-0.573690790787,-0.0120276179437,0.0,-0.00865534010136,0.00860784522568,-0.999925492268,0.0,0.651525404474,0.24798219024,0.303403361586,1.0,-0.021744,-0.0285778285714,1.008
0.457462138951,0.492405866971,-0.124105729293,-1.44292971779,0.0742226521124,1.92604779305,0.147478527899,-0.0148030661054,-0.118637588028,-0.00235537181868,-0.196387589343,-0.0141422600363,0.0681294352274,-0.0259955251008,0.573765297868,0.819005313441,0.0021039055644,0.0,0.818962691688,-0.57370462771,-0.0119940263615,0.0,-0.00861631685188,0.00860494194383,-0.99992585428,0.0,0.651189835263,0.247533348739,0.303414770692,1.0,-0.025524,-0.0335458285714,1.023
0.457078238759,0.48985097912,-0.124108180358,-1.4470759834,0.073984074783,1.92754284895,0.146877309096,-0.0240685707121,-0.14134342856,0.000725847142271,-0.230441676147,-0.0231282204867,0.0771707545346,-0.0292894010811,0.573731821162,0.819028950868,0.00203025306557,0.0,0.8189850438,-0.57367114693,-0.0120689731557,0.0,-0.00872030871009,0.00858726617551,-0.999925104733,0.0,0.650654359801,0.246887260254,0.303348347009,1.0,-0.030312,-0.0398386285714,1.042
0.456668861671,0.487277922339,-0.124134510175,-1.45111136902,0.0737431902728,1.92903531878,0.146289399782,-0.0284568202883,-0.166774336466,-0.000757254138774,-0.260673646327,-0.0187584955083,0.0981672674958,-0.0354541718139,0.57373995859,0.819023190211,0.00205443772108,0.0,0.818979551678,-0.573679132523,-0.0120620786877,0.0,-0.00870070163323,0.00860320464892,-0.999925138528,0.0,0.650154751264,0.24622368085,0.303346113388,1.0,-0.034344,-0.0451378285714,1.058
0.456150597496,0.483985339017,-0.124196901394,-1.45617612301,0.0734290868666,1.93090386836,0.145511971982,-0.0291718667942,-0.188215426115,-0.0093762607984,-0.299456820519,-0.0176079877735,0.105954847789,-0.0466097375478,0.573737491264,0.81902474085,0.0021241219493,0.0,0.818982191769,-0.573676548909,-0.0120055694614,0.0,-0.00861446532273,0.00862782946608,-0.999925673011,0.0,0.649532641987,0.245369836898,0.303385291698,1.0,-0.03888,-0.0510994285714,1.076
0.455656739285,0.480924989976,-0.124249661292,-1.46094617615,0.0731493509839,1.93256567806,0.144799178973,-0.0348152345532,-0.211593767046,-0.00825540964915,-0.324374730398,-0.012732355701,0.121270113841,-0.0419648155165,0.573746543767,0.819018504488,0.00208320006653,0.0,0.818975290374,-0.573685642358,-0.0120417776703,0.0,-0.0086675036469,0.00861518356753,-0.999925323708,0.0,0.648880477032,0.244505177745,0.303382506691,1.0,-0.042912,-0.0563986285714,1.092
0.455006858944,0.476883656211,-0.124310850327,-1.46716449164,0.0727602370796,1.93481438368,0.143890010846,-0.0357880721659,-0.236409413471,-0.000750965536988,-0.351562727006,-0.023497966281,0.132031117769,-0.0525422827239,0.57378224219,0.818993358907,0.00213623850134,0.0,0.818950875049,-0.573721150314,-0.012010530385,0.0,-0.00861110520236,0.00864106981154,-0.999925587621,0.0,0.648136658111,0.243511350578,0.303419660171,1.0,-0.047196,-0.0620290285714,1.109
0.454313322417,0.472731003378,-0.124352846764,-1.4735827708,0.0723863732238,1.93714558433,0.142954803376,-0.0391509529984,-0.249531612437,-0.00476284048931,-0.379698809272,-0.0206645627366,0.136189845457,-0.061714002169,0.573822833274,0.818964748944,0.00220065934368,0.0,0.818922851963,-0.57376121158,-0.0120075609535,0.0,-0.00857128119416,0.00869255023153,-0.999925483578,0.0,0.6473207752,0.242430798298,0.303440805089,1.0,-0.05148,-0.0676594285714,1.126
0.453596153007,0.46847670396,-0.124376622291,-1.48001306963,0.0719848996382,1.9395109238,0.141946149676,-0.0473811237278,-0.278382850366,-0.00113546773358,-0.407413086949,-0.0248683294929,0.162342116225,-0.0630993510582,0.573798804783,0.81898113585,0.00236170532476,0.0,0.818941306956,-0.573736498411,-0.0119295034805,0.0,-0.00841520378601,0.00877940191475,-0.999926050489,0.0,0.646507215989,0.241344504725,0.303524407199,1.0,-0.055512,-0.0729586285714,1.142
0.452778297792,0.463618087397,-0.12439372325,-1.48742000596,0.0714961246571,1.94215273287,0.140780557011,-0.0511099033721,-0.293690769203,-0.00299675078676,-0.453359387828,-0.0255533061048,0.154127517798,-0.0626673244545,0.573741629205,0.819020983599,0.00243274398041,0.0,0.818982061684,-0.573679030747,-0.0118953445479,0.0,-0.00834708329036,0.00881739780373,-0.999926287131,0.0,0.645540330251,0.240095979482,0.3035791858,1.0,-0.059796,-0.0785890285714,1.159
0.451948965665,0.458764256552,-0.124418469006,-1.49490253841,0.0709929275036,1.94471755246,0.139685781497,-0.0513712137584,-0.311457242243,-4.13540933582e-05,-0.471886497345,-0.0313560338119,0.159659353309,-0.0709728752207,0.573752015953,0.81901390024,0.00236691858367,0.0,0.818974010332,-0.573689560232,-0.0119417663242,0.0,-0.00842275829576,0.00879022654624,-0.999925891784,0.0,0.644534242823,0.238821016956,0.303582835163,1.0,-0.063828,-0.0838882285714,1.175
0.450943123481,0.453006404767,-0.124456159947,-1.50378262679,0.0703979534601,1.9478848547,0.138253276304,-0.0557856487959,-0.333570844279,-0.000836201919432,-0.495703548502,-0.0371979634287,0.188756602843,-0.0879129878087,0.573675055104,0.819067749626,0.00238737842735,0.0,0.819028179443,-0.573612583362,-0.0119244450015,0.0,-0.0083976597067,0.0087962562055,-0.99992604986,0.0,0.643358918021,0.237299492369,0.30358918085,1.0,-0.068364,-0.0898498285714,1.193
0.449895204744,0.447147548605,-0.12450841435,-1.51250516547,0.0698141098637,1.95115164377,0.136919051661,-0.0599367688373,-0.343352813663,-0.00434252331089,-0.523092266214,-0.0407860017899,0.190519506288,-0.0810600092348,0.573714420062,0.819039185231,0.00270632044559,0.0,0.819004194712,-0.573651211733,-0.0117116703899,0.0,-0.00803998776554,0.00893581402497,-0.999927752302,0.0,0.642244885713,0.235772428322,0.303740068456,1.0,-0.072648,-0.0954802285714,1.21
0.44885792955,0.441433894942,-0.124527864066,-1.52137864189,0.0692154079813,1.954127131,0.135552418497,-0.0656035388618,-0.366756033693,-0.00292451489008,-0.565940307185,-0.0479266529511,0.194238419421,-0.0874879696477,0.573689333782,0.819057276729,0.00254413894094,0.0,0.81901981776,-0.573626327836,-0.0118372729564,0.0,-0.00823617804533,0.0088747883151,-0.999926699065,0.0,0.64100728481,0.234233877963,0.303686390954,1.0,-0.07668,-0.100779428571,1.226
0.447595475364,0.434632132523,-0.124553470333,-1.5317542433,0.0685150994827,1.9577012469,0.133874689952,-0.0752257265045,-0.394106827081,-0.00159452691807,-0.582389763523,-0.0426090764118,0.205529591477,-0.0910453590038,0.573630035046,0.819098828363,0.00253755168816,0.0,0.819061039439,-0.573566798941,-0.0118696136328,0.0,-0.00826709038789,0.00888734771646,-0.99992633242,0.0,0.639576880451,0.232412452627,0.303704004515,1.0,-0.081216,-0.106741028571,1.244
0.446375960032,0.42836399438,-0.12458688547,-1.54130269639,0.0678253111405,1.96114515597,0.13232756539,-0.0787982048364,-0.394183905557,-0.00255786781999,-0.615173920873,-0.0426628388418,0.211604817713,-0.0916486757491,0.573606874897,0.819114735583,0.00263627062104,0.0,0.819078661623,-0.57354374065,-0.0117673504085,0.0,-0.00812695007396,0.00890931763754,-0.999927285727,0.0,0.638292536664,0.230699933665,0.30372986433,1.0,-0.085248,-0.112040228571,1.26
0.445060603031,0.421817165128,-0.12467464469,-1.55137516805,0.0671047136875,1.96447472262,0.130635783576,-0.0839567336166,-0.416590249526,-0.00921529368689,-0.641859130065,-0.0524243642764,0.203002375007,-0.110582845778,0.573589058992,0.819127824204,0.00243842583568,0.0,0.81908918772,-0.57352668153,-0.0118657083948,0.0,-0.00832118983111,0.00880349824415,-0.999926625417,0.0,0.63687459737,0.228829087081,0.303678002821,1.0,-0.08928,-0.117339428571,1.276
0.443585023512,0.414507886006,-0.124776215626,-1.56230078986,0.0663355143321,1.9683571313,0.128914953911,-0.0843493764389,-0.427000466852,-0.00265465537214,-0.643637147985,-0.0381403229158,0.241189116657,-0.100412834592,0.573704638646,0.819046297504,0.00262622217111,0.0,0.819010551208,-0.57364203062,-0.0117168518531,0.0,-0.00809028847274,0.00887308676084,-0.999927905183,0.0,0.635387561224,0.226791179273,0.303773331394,1.0,-0.093564,-0.122969828571,1.293
0.441993155651,0.406984513311,-0.124815595163,-1.57375321506,0.0655749617467,1.97221323695,0.126974301238,-0.0978744095001,-0.446344486099,-0.00396015682753,-0.685230709454,-0.0422914457613,0.21604361952,-0.115578697058,0.573704372942,0.819046641535,0.0025765012754,0.0,0.819009609688,-0.573641249945,-0.0118204272762,0.0,-0.00820365179568,0.00889178131666,-0.999926815483,0.0,0.63375253548,0.224663724166,0.303746330428,1.0,-0.097848,-0.128600228571,1.31
0.44040846108,0.399644920293,-0.12491180216,-1.58480151001,0.0647895910698,1.97598626823,0.125096140857,-0.100763644189,-0.475016812689,-0.00813122379524,-0.694256024833,-0.044983545043,0.255955404652,-0.1162488789,0.573757040931,0.819009661267,0.00260377329017,0.0,0.818973089781,-0.573693924601,-0.0117943203489,0.0,-0.008166050618,0.00889966594587,-0.999927053121,0.0,0.632191011682,0.22254811,0.303767733639,1.0,-0.10188,-0.133899428571,1.326
0.43862791757,0.391557932012,-0.124972910511,-1.59687181679,0.0638695167153,1.98018058037,0.123029464887,-0.106033773969,-0.473182873391,-0.00279625579675,-0.711798066883,-0.056316429215,0.244672814786,-0.127172225646,0.573778677832,0.818994103357,0.00272661582335,0.0,0.818959695123,-0.57371574554,-0.0116622461436,0.0,-0.0079871621712,0.0089247084645,-0.999928274837,0.0,0.630480312901,0.220234567985,0.303826406189,1.0,-0.106164,-0.139529828571,1.343
0.436755283979,0.383259465448,-0.125018230071,-1.60946812968,0.0629210730332,1.98421505648,0.120799924867,-0.108880974912,-0.500196545485,-0.0038002096726,-0.750478572603,-0.0535431006788,0.237178523424,-0.134210552645,0.573723615994,0.819033371881,0.0025090030458,0.0,0.818995904963,-0.573661220669,-0.0118007820291,0.0,-0.00822607492364,0.00882542047403,-0.999927219174,0.0,0.62848894354,0.217668123749,0.303770539231,1.0,-0.1107,-0.145491428571,1.361
0.434783184428,0.374636461398,-0.125065464135,-1.62224163693,0.0620087946023,1.98858715116,0.118516213781,-0.122465677454,-0.514279823201,-0.0011419601281,-0.746910311746,-0.0465865833846,0.255509257204,-0.143966256716,0.57372581738,0.819031369772,0.00265493914616,0.0,0.818995571303,-0.573662636131,-0.0117550412169,0.0,-0.00810486416398,0.00891872574638,-0.999927381117,0.0,0.626724168811,0.215339458526,0.303810212929,1.0,-0.114732,-0.150790628571,1.377
0.432660638523,0.36579374991,-0.125165604783,-1.6354595036,0.0609778368276,1.99285039138,0.116240218557,-0.12714955063,-0.524631605152,-0.00551965797425,-0.779084980298,-0.0609054678365,0.26164001416,-0.134644544046,0.573855451088,0.81894100553,0.00250950587825,0.0,0.818903465267,-0.573792951348,-0.0118114545175,0.0,-0.00823310616786,0.008833280688,-0.9999270919,0.0,0.624736233479,0.212682333753,0.303781912717,1.0,-0.119016,-0.156421028571,1.394
0.430200070109,0.355606612999,-0.125273782131,-1.65053467668,0.0598227970431,1.99780957155,0.113409096154,-0.133331876781,-0.532513103301,-0.00402823172479,-0.823261764526,-0.0538866525444,0.262200601934,-0.1506852752,0.573828842069,0.818959593395,0.00252810145102,0.0,0.818922397874,-0.573766386865,-0.011789252149,0.0,-0.008204539474,0.00883550192264,-0.999927307077,0.0,0.62245764438,0.209654070215,0.303800458174,1.0,-0.123804,-0.162713828571,1.413
0.428385089414,0.348457187531,-0.125323518708,-1.6611842588,0.0590306334855,2.00116159097,0.111436862895,-0.147913604305,-0.560769813935,-0.00892016316243,-0.822822333941,-0.0617231678618,0.263148537202,-0.148435055903,0.573871466358,0.81893010208,0.00240310403529,0.0,0.818890706782,-0.573808875699,-0.0119218881117,0.0,-0.00838443204994,0.00880968058801,-0.999926042679,0.0,0.620800131823,0.207485905546,0.303753282568,1.0,-0.12708,-0.167019428571,1.426
0.425680100877,0.337717052731,-0.125394226707,-1.67674374253,0.0577999943188,2.00634622612,0.108480470709,-0.145577275725,-0.552898609908,-0.00190170284158,-0.851666801368,-0.0762786338925,0.266727305506,-0.167762331928,0.57387363893,0.818927775672,0.00266302011725,0.0,0.818892162577,-0.573810498056,-0.0117424568479,0.0,-0.0080883108926,0.00891958447371,-0.999927507492,0.0,0.618419966082,0.204309886025,0.303876525674,1.0,-0.131868,-0.173312228571,1.445
0.423330340933,0.328445344487,-0.125391573633,-1.69030431149,0.0566795121563,2.01058072674,0.105836925678,-0.149093331541,-0.587697589126,0.00098548425644,-0.836258997953,-0.0811146835279,0.273517006807,-0.16323165635,0.57372965938,0.819028917328,0.00258019943332,0.0,0.818992091257,-0.573666690372,-0.0117995642988,0.0,-0.00818416747379,0.00888309396285,-0.999927052362,0.0,0.616236601398,0.201574287508,0.303876297806,1.0,-0.1359,-0.178611428571,1.461
0.420843454355,0.319001861991,-0.125397610463,-1.70402337493,0.0555704309104,2.01498516904,0.103179866053,-0.155947642672,-0.605508966741,-0.00102441149999,-0.841616602812,-0.0671091299216,0.27626119114,-0.163607082047,0.573688009296,0.819057834869,0.00266045673473,0.0,0.819021961492,-0.573624651531,-0.0117699894328,0.0,-0.0081143547204,0.00893144625853,-0.999927190607,0.0,0.614041777606,0.198759306061,0.303904920302,1.0,-0.139932,-0.183910628571,1.477
0.418056454135,0.30869859289,-0.125457737635,-1.71884252933,0.0543391929059,2.01967619674,0.100136505703,-0.165499849448,-0.617026332042,-0.00120406455183,-0.85508128684,-0.0800054864361,0.284031302357,-0.174577596209,0.573594734248,0.819122822001,0.0027622855978,0.0,0.819088451085,-0.57353122492,-0.011695736117,0.0,-0.00799614128154,0.00897134160774,-0.99992778577,0.0,0.611652053871,0.195634402173,0.303970588246,1.0,-0.144216,-0.189541028571,1.494
0.414926185626,0.297628778481,-0.125512730733,-1.73498540834,0.0529836459617,2.02456508236,0.0968719959395,-0.178505932551,-0.62448392114,-0.00334550910763,-0.919150758318,-0.0775097349768,0.263355463059,-0.173111580326,0.573576172506,0.819136448628,0.00256900037444,0.0,0.819099212047,-0.573512978176,-0.0118360293139,0.0,-0.00822212626374,0.00889330179758,-0.999926650221,0.0,0.608969394916,0.192183608278,0.303893320799,1.0,-0.148752,-0.195502628571,1.512
0.412160220329,0.288097445783,-0.125624997229,-1.74841007046,0.0519244248137,2.02876709146,0.094058011807,-0.183258333207,-0.64351317734,-0.00958192327242,-0.898878596897,-0.0741834513342,0.289937900858,-0.195075929014,0.573673042918,0.819067762137,0.00282626217273,0.0,0.819033661655,-0.573608667206,-0.0117347723662,0.0,-0.00799055910608,0.00904690060825,-0.999927149624,0.0,0.606777661736,0.189214459484,0.304023530101,1.0,-0.152532,-0.200470628571,1.527
0.408740086138,0.276676156292,-0.125747389013,-1.7649694616,0.0504920336997,2.03362949319,0.0905058994992,-0.196011385475,-0.638919733006,-0.0075023827236,-0.922988041784,-0.0792687088635,0.270164733676,-0.194847578423,0.573652081044,0.819083354411,0.00254859615384,0.0,0.819045285532,-0.573588343859,-0.011915491525,0.0,-0.00829809548477,0.00892293396863,-0.999925758674,0.0,0.603955247518,0.185540169267,0.303911430207,1.0,-0.157068,-0.206432228571,1.545
0.405279274671,0.265505359857,-0.125882465885,-1.78068004571,0.0491191306479,2.03844565755,0.0870718908208,-0.209783977693,-0.650181047704,-0.015914311679,-0.934084091876,-0.0845285898127,0.277248002617,-0.197082076924,0.573745114886,0.81901762667,0.00272346275644,0.0,0.818982259135,-0.573681174503,-0.0117777818368,0.0,-0.00808396725598,0.00898808552248,-0.999926929226,0.0,0.601322181581,0.181950753529,0.304000106404,1.0,-0.161352,-0.212062628571,1.562
0.401851349049,0.254852927745,-0.126046404052,-1.79571730631,0.0477711012518,2.04287152288,0.0837504212105,-0.217523419699,-0.679104373962,-0.00428443678279,-0.928477375027,-0.0869892022414,0.280308276484,-0.20576206203,0.573893976781,0.81891340648,0.00269870401144,0.0,0.818877947379,-0.573830362269,-0.0117630580812,0.0,-0.00808448331471,0.00896082990654,-0.999927169676,0.0,0.598745773788,0.178434724688,0.30401332401,1.0,-0.165384,-0.217361828571,1.578
0.397912612695,0.242699525021,-0.12612286104,-1.81292838896,0.0462159020422,2.04788533265,0.079836364667,-0.219907547426,-0.690065067814,-0.00307926488525,-0.967318302883,-0.0916447635498,0.272934144916,-0.222260244525,0.573867452391,0.818932267002,0.00261458432421,0.0,0.818895536769,-0.573803955271,-0.011826566533,0.0,-0.00818505570276,0.00892812493449,-0.999926644034,0.0,0.59571383181,0.17449215037,0.303960124045,1.0,-0.16992,-0.223323428571,1.596
0.394056213068,0.230917518281,-0.126165017405,-1.82911043727,0.0447942888621,2.05267037495,0.076048054766,-0.226809085843,-0.68963140367,-0.00259201558078,-0.955532339115,-0.0811961031374,0.277464949359,-0.227297006722,0.573846657647,0.81894578953,0.00292475961661,0.0,0.81891293279,-0.573781876327,-0.0116924680863,0.0,-0.00789747549877,0.00910498250546,-0.999927361949,0.0,0.592854113424,0.170755623286,0.30409700177,1.0,-0.174204,-0.228953828571,1.613
0.390522008252,0.220478199369,-0.126185059923,-1.84377847328,0.0433642860035,2.0567164471,0.0725210645458,-0.241458390128,-0.707718805826,0.000502999376097,-0.973960298919,-0.0882363565257,0.256873604477,-0.235335687258,0.573692708057,0.819054381905,0.00270981661066,0.0,0.819018673103,-0.573628642384,-0.0118042639289,0.0,-0.00811406189345,0.00899158366062,-0.999926654022,0.0,0.590160017514,0.167345733582,0.304015687265,1.0,-0.177984,-0.233921828571,1.628
0.386026012588,0.207607764249,-0.126306912783,-1.86130497313,0.0417589467196,2.06167470425,0.0682069172369,-0.257886648106,-0.718753904984,-0.00877164305239,-0.973385416401,-0.0929740352501,0.264183560685,-0.241647704641,0.573742939178,0.819018413046,0.00293696014208,0.0,0.818985570731,-0.573677963501,-0.0117036758665,0.0,-0.00790080883682,0.00912040496505,-0.999927195066,0.0,0.586978594281,0.163113991468,0.304131729728,1.0,-0.18252,-0.239883428571,1.646
0.381368531377,0.194539621032,-0.126431419261,-1.87912757093,0.0400465685053,2.06652551215,0.0636913043983,-0.263143964961,-0.72986535079,-0.00849348647121,-0.989225509493,-0.0894836184215,0.282280015618,-0.244744565977,0.573698500233,0.819049418417,0.0029711819094,0.0,0.819016958215,-0.573633341079,-0.0116944029733,0.0,-0.00787407654872,0.00914268584166,-0.999927202457,0.0,0.583656557348,0.158781189989,0.304173542538,1.0,-0.187056,-0.245845028571,1.664
0.377214264047,0.183553290477,-0.126585313714,-1.89417193121,0.0386607695612,2.07048020474,0.0597903866112,-0.278461929287,-0.731545517258,-0.0124367973049,-1.0080946935,-0.0846763086388,0.262377414899,-0.257496046001,0.573810118433,0.818971495385,0.00289562298025,0.0,0.818937159777,-0.573744183679,-0.0118442784283,0.0,-0.00803893434751,0.00916787657695,-0.999925660024,0.0,0.580812721402,0.155001308348,0.304133296987,1.0,-0.190836,-0.250813028571,1.679
0.372352598531,0.170878838562,-0.126723684518,-1.91119227099,0.0369458753427,2.07499684966,0.0552857204672,-0.287247315726,-0.730252418893,-0.00772749501014,-1.01173519799,-0.103596215892,0.25072706359,-0.263446380189,0.573881574842,0.818921139955,0.00297514604727,0.0,0.818888136465,-0.573815687714,-0.0117695960256,0.0,-0.00793133822177,0.00919084305699,-0.999926308424,0.0,0.577577940797,0.150676516387,0.30419498915,1.0,-0.19512,-0.256443428571,1.696
0.367382293082,0.158000039713,-0.126768750879,-1.92835213061,0.0352123640652,2.07944964893,0.0505128171163,-0.292396984347,-0.762088607958,-0.00822599991046,-0.998740722431,-0.104149538445,0.27697950366,-0.283895662282,0.573714137635,0.81903806131,0.00308047135536,0.0,0.819006370349,-0.57364784183,-0.0117245807095,0.0,-0.007835922975,0.00924966145927,-0.999926518337,0.0,0.574233907703,0.146371477277,0.304260052859,1.0,-0.199404,-0.262073828571,1.713
0.36218739626,0.14509050362,-0.126843082448,-1.9457830499,0.0333707277533,2.08378733827,0.0456867395608,-0.314883879637,-0.7711057869,-0.00838581720455,-1.04087858405,-0.106281924572,0.25057632216,-0.284532000569,0.573643124061,0.81908857968,0.00286561623289,0.0,0.819053882613,-0.573577354671,-0.011853374458,0.0,-0.00806546635608,0.00914687696211,-0.999925638682,0.0,0.570759885335,0.141924947482,0.304160679433,1.0,-0.203688,-0.267704228571,1.73
0.357064516968,0.132621936514,-0.126986402643,-1.96206061895,0.0317175915912,2.08791264825,0.0409166235872,-0.32388447678,-0.76511588599,-0.0112979232259,-1.02359482524,-0.112227104507,0.25195321077,-0.30361949465,0.573641305067,0.819088984946,0.00310399125643,0.0,0.819057446459,-0.573574757562,-0.011732168933,0.0,-0.00782947005172,0.00927258237626,-0.999926356596,0.0,0.567327797165,0.137367394949,0.304269771355,1.0,-0.207972,-0.273334628571,1.747
0.350973537249,0.118496015733,-0.127204228446,-1.98052849963,0.0296734685372,2.09239646006,0.0354338761844,-0.352329903148,-0.779232277094,-0.0133602826086,-1.01196541104,-0.116288544238,0.253787749804,-0.313957160715,0.573759392927,0.819006192533,0.00312450340681,0.0,0.818975583949,-0.573693549748,-0.0116383320792,0.0,-0.00773950760245,0.00923667218513,-0.999927389318,0.0,0.563808031164,0.132611665183,0.304313895737,1.0,-0.212256,-0.278965028571,1.764
0.345341330028,0.105788314581,-0.127336513548,-1.9971583535,0.0278729034789,2.09625848631,0.0303040115371,-0.352437224378,-0.825427956609,-0.0049701202988,-1.04509667078,-0.113289157954,0.235118900515,-0.324343148409,0.573761706251,0.819004880085,0.00304265328027,0.0,0.818972866298,-0.573695731819,-0.0117217089907,0.0,-0.00785473089394,0.00921749569413,-0.999926667799,0.0,0.560364319108,0.12809099454,0.304279155366,1.0,-0.216288,-0.284264228571,1.78
0.339256744446,0.0921306863979,-0.127445036708,-2.01474841102,0.0259498313488,2.10034129062,0.0246732807206,-0.371607292352,-0.776191515541,-0.0073072950879,-1.04883730592,-0.117026918053,0.231488547635,-0.327313101559,0.573637625402,0.819091447671,0.00313400321724,0.0,0.819060541704,-0.573571265199,-0.0116867301992,0.0,-0.00777507626125,0.00927106502973,-0.999926795092,0.0,0.556673988302,0.123314005563,0.304312699545,1.0,-0.220572,-0.289894628571,1.797
0.332831032202,0.0782374836723,-0.127615245669,-2.0324160961,0.0240255226958,2.10419108683,0.0188184239041,-0.384427944478,-0.822064581215,-0.0131125340037,-1.0347224279,-0.121863650738,0.239629118304,-0.350301235391,0.573627982777,0.819097947011,0.00319960611135,0.0,0.819067306811,-0.57356070062,-0.011731006698,0.0,-0.00777382484999,0.00935010648713,-0.999926068845,0.0,0.552897179544,0.118363254381,0.304367721877,1.0,-0.224856,-0.295525028571,1.814
0.326102404655,0.0642907486111,-0.127807103476,-2.05026866939,0.0219708551795,2.10798436751,0.0128286275565,-0.405923092592,-0.805652906522,-0.0134595816416,-1.05382620724,-0.124071175896,0.210530767372,-0.351525218858,0.573689440431,0.819055406968,0.00306808653226,0.0,0.81902270542,-0.57362219196,-0.0118378967269,0.0,-0.00793612359451,0.00930428801763,-0.999925221287,0.0,0.54901937853,0.113269013811,0.304305117278,1.0,-0.22914,-0.301155428571,1.831
0.318623501577,0.0493410180945,-0.128026042415,-2.06892742551,0.01978013849,2.11191491029,0.00624331541649,-0.408183701222,-0.812717781569,-0.00699515940289,-1.02187656778,-0.125866841449,0.216495410788,-0.364175230481,0.573814701236,0.818967166123,0.003196304018,0.0,0.818936475788,-0.573747396156,-0.0117354560327,0.0,-0.00777723179845,0.00935172719507,-0.999926027196,0.0,0.544943686947,0.107764476487,0.304380185627,1.0,-0.22998,-0.302259428571,1.849
0.311517540414,0.0353316115555,-0.128136173448,-2.08644162954,0.0178031493705,2.11538033307,-9.62049100638e-05,-0.426191167723,-0.836204549676,-0.00491336199304,-1.02571919667,-0.124023104296,0.215169801443,-0.377748428802,0.573796218035,0.818980097863,0.00320099575823,0.0,0.818948388282,-0.573727603505,-0.0118710239136,0.0,-0.00788578452707,0.00943318056087,-0.999924411897,0.0,0.540993512765,0.102681158725,0.304356766178,1.0,-0.22998,-0.302259428571,1.866
0.30551378543,0.0238541344276,-0.128264119285,-2.10066501561,0.0159855033055,2.11808319326,-0.0054036147451,-0.428602264282,-0.828824516776,-0.00731003292931,-1.01602092687,-0.124180490057,0.18664448739,-0.373864753416,0.573758577119,0.819006903125,0.00308783378526,0.0,0.818974090052,-0.573690815373,-0.011875819175,0.0,-0.00795506916236,0.00934288885607,-0.999924710817,0.0,0.537744991314,0.0984312774354,0.304338562785,1.0,-0.22998,-0.302259428571,1.88
0.297548315633,0.00915427624879,-0.12846636771,-2.1185111763,0.0137711764132,2.12141922748,-0.0123817897413,-0.452794601782,-0.798346911821,-0.00812337900385,-1.00532348833,-0.128827606724,0.179540543727,-0.391602942105,0.573836563268,0.81895184775,0.00319634559082,0.0,0.818920767075,-0.573768785544,-0.0117857918815,0.0,-0.00781818323496,0.00938085270221,-0.999925435027,0.0,0.533640933451,0.0929293867802,0.304414959086,1.0,-0.22998,-0.302259428571,1.898
0.289449769179,-0.00540352413808,-0.128584026242,-2.13601765544,0.0116952246446,2.12453541879,-0.0195316041566,-0.450276618914,-0.792358760884,-0.00666076341197,-0.949027730856,-0.11862420955,0.183933228548,-0.40814060399,0.57383972393,0.818948922819,0.00337341890423,0.0,0.818919502493,-0.573770553528,-0.0117875884619,0.0,-0.00771801303724,0.00952692846243,-0.999924832129,0.0,0.529526196447,0.0875181234907,0.304485278663,1.0,-0.22998,-0.302259428571,1.916
0.282612104178,-0.0173822303892,-0.128640855537,-2.15050149184,0.00980854398801,2.12700375898,-0.0255257117828,-0.462008462543,-0.798212386511,-0.00342501197882,-0.977885872976,-0.125875758767,0.153295457758,-0.399843080843,0.573759437978,0.819005484442,0.00329707245965,0.0,0.818975139093,-0.573690625905,-0.0118124594136,0.0,-0.00778311933063,0.00947791292972,-0.999924793282,0.0,0.526051799937,0.0830302621441,0.30444972151,1.0,-0.22998,-0.302259428571,1.931
0.274643520909,-0.0310190117652,-0.128806132759,-2.16648599514,0.00773717785867,2.12960436412,-0.0324822985692,-0.474759001301,-0.788651280947,-0.0137381195401,-0.938833901259,-0.127208554622,0.155230195481,-0.403758386064,0.573798613127,0.818977320873,0.00347078815978,0.0,0.818949654908,-0.573729733975,-0.0116791257934,0.0,-0.00757379060379,0.00954405070108,-0.999925771641,0.0,0.522184409047,0.0778759572224,0.304566645962,1.0,-0.22998,-0.302259428571,1.948
0.266423588042,-0.0443906008081,-0.128985858742,-2.18244919102,0.00574049505647,2.13196389702,-0.0396340742634,-0.480504628386,-0.793678386004,-0.00377910669262,-0.943944046503,-0.115368828944,0.131780566556,-0.425179448013,0.57390157368,0.818905692826,0.00334617483038,0.0,0.818874965778,-0.573831321542,-0.0119227404882,0.0,-0.00784361114863,0.00958276282632,-0.999923321271,0.0,0.518218889839,0.072666347373,0.30447678574,1.0,-0.22998,-0.302259428571,1.965
0.257696415071,-0.0585356474966,-0.129099999663,-2.19875104336,0.00353615690988,2.13444420806,-0.0472819378394,-0.487570390212,-0.761474147486,-0.00639145284342,-0.920849047093,-0.116624765552,0.129745945155,-0.433243488466,0.573832429549,0.818953301694,0.0035467370667,0.0,0.818926233096,-0.57376280643,-0.0116967348644,0.0,-0.00754423907314,0.00961666696145,-0.999925299297,0.0,0.514379775309,0.0675778416086,0.304584476826,1.0,-0.22998,-0.302259428571,1.982
0.249242905359,-0.071728319787,-0.129253517374,-2.21409949192,0.00147183596151,2.13646691022,-0.0546902272473,-0.503814184014,-0.778691216093,-0.00919380699224,-0.899115022613,-0.121498254806,0.126442011792,-0.433885028806,0.573819740582,0.818962575804,0.00345711625201,0.0,0.818933572068,-0.573749449619,-0.011837250709,0.0,-0.00771089524282,0.00962378197996,-0.999923959566,0.0,0.510202397736,0.0621427602955,0.304539724145,1.0,-0.22998,-0.302259428571,2.0
0.240517485796,-0.0848497259175,-0.129438139679,-2.2291314567,-0.000529352780133,2.13838327768,-0.062266214525,-0.511864675782,-0.759170821103,-0.00574550341279,-0.893597971342,-0.117158576629,0.104629557448,-0.441455042105,0.573915886524,0.818895020045,0.00349974899318,0.0,0.818865999378,-0.573844716377,-0.0118938408597,0.0,-0.00773164343889,0.00969207628052,-0.99992313972,0.0,0.506294537774,0.0569513953865,0.304537501973,1.0,-0.22998,-0.302259428571,2.017
0.232832736922,-0.0963747362826,-0.12949958433,-2.24215775117,-0.00231335852475,2.13990470786,-0.0690607676638,-0.519378831784,-0.76275965935,-0.00550391332337,-0.851490265489,-0.128260019148,0.107813705706,-0.458237840336,0.573789402897,0.818983511958,0.00353201988935,0.0,0.818954648603,-0.573717805583,-0.0119125979728,0.0,-0.00772998745037,0.00972807388071,-0.999922802957,0.0,0.502833823322,0.0525006130071,0.304557524689,1.0,-0.22998,-0.302259428571,2.032
0.223878231207,-0.109295479946,-0.12963846881,-2.25676831808,-0.00439291114368,2.14148362567,-0.0768226806882,-0.532072314001,-0.754231830787,-0.0113631376892,-0.88909006156,-0.121491134911,0.0934742161453,-0.4542371623,0.573806435377,0.818971960347,0.0034423519517,0.0,0.818941568009,-0.573734713786,-0.0119972199125,0.0,-0.00785054104597,0.00970335391705,-0.99992210393,0.0,0.498889999381,0.0473719492462,0.304515523183,1.0,-0.22998,-0.302259428571,2.049
0.214647901411,-0.122205221784,-0.129842440304,-2.27096294025,-0.00643255861741,2.14293799363,-0.0848365630685,-0.54540980809,-0.767537881097,-0.00885352004148,-0.810366515403,-0.111382547685,0.0878975820806,-0.480995608406,0.573894326633,0.818909817677,0.00357201232085,0.0,0.81888147912,-0.573822576502,-0.0118962495356,0.0,-0.00769240232758,0.00975243261398,-0.999922855527,0.0,0.495018796279,0.0421742584957,0.304592461669,1.0,-0.22998,-0.302259428571,2.066
0.20539295515,-0.134922483485,-0.129958846563,-2.28507992073,-0.00844325004215,2.1441741311,-0.0930333227391,-0.546830930073,-0.73327023732,-0.00653155988329,-0.816319482468,-0.124067972499,0.0720259894623,-0.480790515805,0.573773181822,0.818995064097,0.00348822415217,0.0,0.818964761991,-0.57370066315,-0.012042201586,0.0,-0.00786145850792,0.0097664130164,-0.999921404235,0.0,0.491059528535,0.037094963637,0.30453937333,1.0,-0.22998,-0.302259428571,2.083
0.195852824489,-0.147600707475,-0.130138526801,-2.29869374643,-0.0104270085668,2.1454048208,-0.101373966396,-0.568695107845,-0.747467391886,-0.0171865643301,-0.779025181743,-0.116685095133,0.0694527955184,-0.49445703458,0.573816025372,0.818964023828,0.0037206992923,0.0,0.818937481991,-0.573743588014,-0.0118508524871,0.0,-0.00757084023884,0.0098474187744,-0.999922852385,0.0,0.487227615286,0.0319452617045,0.304642707047,1.0,-0.22998,-0.302259428571,2.1
0.186148146954,-0.16014300881,-0.130294414929,-2.31229191077,-0.0124859971143,2.14626525899,-0.109878703646,-0.566880014076,-0.733805250271,-0.00333740201572,-0.809485930862,-0.119415997043,0.0374049330224,-0.504745526245,0.573784884487,0.818986443568,0.00358587322753,0.0,0.818957539378,-0.57371215532,-0.0119857596868,0.0,-0.00775906502736,0.00981411460446,-0.99992173697,0.0,0.483264369511,0.0268000407136,0.304604614753,1.0,-0.22998,-0.302259428571,2.117
0.176923993546,-0.171886417798,-0.130427650831,-2.32467027797,-0.0142092329146,2.14709760054,-0.118044559179,-0.587868295321,-0.713012799969,-0.00850173382104,-0.776685963229,-0.10751043067,0.0554013854739,-0.515202642332,0.573771451829,0.818994735178,0.00383297774313,0.0,0.818968785878,-0.573697489665,-0.0119191027937,0.0,-0.00756285833539,0.00997812215281,-0.999921617054,0.0,0.479632010655,0.0220337825336,0.304686080312,1.0,-0.22998,-0.302259428571,2.133
0.166804778186,-0.184146307533,-0.130643408361,-2.33779887406,-0.0162821585916,2.14773148667,-0.126861085456,-0.602504448815,-0.710185681679,-0.0159494621447,-0.762945178802,-0.113920529105,0.0257097153386,-0.526400002906,0.573835494821,0.818950664821,0.00365791935263,0.0,0.818921878509,-0.573761445411,-0.0120626514448,0.0,-0.00778009311618,0.0099177186952,-0.999920551347,0.0,0.47567478406,0.0168352053268,0.304609387889,1.0,-0.22998,-0.302259428571,2.15
0.156594297718,-0.196477793413,-0.130769265401,-2.35042531003,-0.0182397184348,2.14837284517,-0.135908037936,-0.600296446791,-0.709918111486,-0.00561483776437,-0.744120047743,-0.116909602878,0.0372220636777,-0.533574998361,0.573754792828,0.819006040961,0.00391017612021,0.0,0.818981780357,-0.573681478205,-0.0117962667546,0.0,-0.00741816093872,0.00997071955562,-0.999922774838,0.0,0.471839240044,0.0117422624622,0.304746880682,1.0,-0.22998,-0.302259428571,2.167
0.146776532405,-0.207832232722,-0.130963417367,-2.36235562758,-0.0200102899091,2.14867455543,-0.144608743441,-0.623624487163,-0.702551896083,-0.0114226469439,-0.733159746952,-0.112879508324,0.0107716751794,-0.551395013197,0.573772901752,0.818993756194,0.00382510534302,0.0,0.818966737432,-0.573697697424,-0.0120491432024,0.0,-0.00767386666827,0.0100462993244,-0.999920088627,0.0,0.468091767219,0.00690566185619,0.304666896503,1.0,-0.22998,-0.302259428571,2.183
0.136054504877,-0.219876791424,-0.131192442959,-2.37449255373,-0.0219459586962,2.14901093791,-0.153939373057,-0.625548313883,-0.712498282993,-0.000393318271923,-0.708715917774,-0.122224999718,0.016164449414,-0.559128136226,0.573946590246,0.818871111571,0.00402008452887,0.0,0.818847506523,-0.57387182626,-0.0118589623273,0.0,-0.00740409096445,0.0100984416104,-0.999921597384,0.0,0.46424880033,0.0017008754515,0.304772126367,1.0,-0.22998,-0.302259428571,2.2
0.124788297001,-0.232409492483,-0.131332733253,-2.38732463101,-0.0239477177637,2.14915219924,-0.164117738497,-0.634817090962,-0.699038367358,-0.0148778845893,-0.710841733747,-0.106414346459,0.00464613682675,-0.56619900402,0.573737362744,0.819017906489,0.00398175121101,0.0,0.818992968606,-0.573661636866,-0.0119829322028,0.0,-0.0075302031088,0.0101362773193,-0.999920272783,0.0,0.460071659145,-0.00361927163505,0.304723573001,1.0,-0.22998,-0.302259428571,2.218
0.114292757648,-0.243447062891,-0.131554741829,-2.39828777774,-0.0257812026835,2.14922470861,-0.173318988041,-0.662432946626,-0.697897441693,-0.0141121645021,-0.673636120921,-0.110629762982,0.0101399224985,-0.574401389379,0.573846104086,0.818941321242,0.00406301476411,0.0,0.818918200627,-0.573771107107,-0.0118509169043,0.0,-0.00737410704258,0.010128074232,-0.999921519249,0.0,0.456669817734,-0.00822688485121,0.304778441383,1.0,-0.22998,-0.302259428571,2.233
0.103206787333,-0.25502182223,-0.131669425974,-2.40986974947,-0.0275649412671,2.14919999732,-0.183329505694,-0.656412634137,-0.685737797749,-0.0146200926826,-0.686435216437,-0.109484690722,-0.00465788896561,-0.595984352741,0.573724608832,0.819025934051,0.00416406936174,0.0,0.819003627714,-0.573648590981,-0.0118784998192,0.0,-0.00734022820956,0.0102255724495,-0.999920776221,0.0,0.452535709732,-0.0135732604474,0.30476369196,1.0,-0.22998,-0.302259428571,2.251
0.091815960386,-0.266475549552,-0.131903423599,-2.42114935027,-0.0294604938494,2.14904806527,-0.193472150216,-0.685868472913,-0.672805432801,-0.0194758527635,-0.637375044263,-0.113457712159,-0.00707028156868,-0.598114096103,0.573759974281,0.819000931615,0.00420866101546,0.0,0.818979441231,-0.573684128712,-0.0118297170434,0.0,-0.00727424730343,0.0102344220377,-0.999921167859,0.0,0.448640143228,-0.0187246503565,0.304768326573,1.0,-0.22998,-0.302259428571,2.268
0.0808434536528,-0.277123149707,-0.132066112384,-2.43145400419,-0.0311987199971,2.14881860156,-0.203259215361,-0.678814271453,-0.659625657405,-0.00173452309663,-0.644394828655,-0.0994911672708,-0.0266297100872,-0.6177717841,0.573772324677,0.818991759866,0.00430855048742,0.0,0.818972196826,-0.573697045937,-0.0117041535573,0.0,-0.00711393959813,0.0102442996873,-0.999922220069,0.0,0.445005309917,-0.0235779275068,0.304809889516,1.0,-0.22998,-0.302259428571,2.284
0.0692209959933,-0.288282127438,-0.132239255741,-2.44233301033,-0.032969138226,2.14836429539,-0.213862107219,-0.690137658713,-0.645025797135,-0.0119658240141,-0.640718342423,-0.0992663603604,-0.0282461221928,-0.630458391769,0.573612458999,0.819103812355,0.00429399214025,0.0,0.819083117869,-0.573535903506,-0.0118389320796,0.0,-0.00723469502908,0.010308293879,-0.999920695988,0.0,0.441065069517,-0.0286182548393,0.304760082529,1.0,-0.22998,-0.302259428571,2.301
0.0570686854909,-0.299394835963,-0.132518664804,-2.45268480425,-0.0347797414754,2.14792225817,-0.224642497175,-0.716005882399,-0.656680977334,-0.00850132631219,-0.601358269203,-0.106969893314,-0.0238569733964,-0.640944616779,0.573807786855,0.818965716045,0.00453062787798,0.0,0.818949532751,-0.57373256309,-0.0115479763746,0.0,-0.00685816003648,0.0103368733667,-0.999923054385,0.0,0.437235742445,-0.0338660753757,0.304887560512,1.0,-0.22998,-0.302259428571,2.318
0.0457494615206,-0.309601081791,-0.132675931844,-2.46244005123,-0.0364137201411,2.1472650966,-0.234972288417,-0.717099106136,-0.642869512125,-0.0137967896584,-0.605811396538,-0.101084029786,-0.0526658288064,-0.656317116526,0.573691538624,0.81904748989,0.00446930845127,0.0,0.819029461486,-0.573614955142,-0.0117205527586,0.0,-0.00703616261821,0.0103846771769,-0.999921322353,0.0,0.433285817595,-0.0389142887,0.304828288183,1.0,-0.22998,-0.302259428571,2.335
0.0325112019824,-0.320946481192,-0.132974408365,-2.47305143315,-0.0382953475746,2.14645773018,-0.246823785148,-0.739637387342,-0.639651823151,-0.012781559019,-0.565766244002,-0.105072455946,-0.0428388797577,-0.661351400307,0.573838315854,0.818944443428,0.00450918370268,0.0,0.818926866159,-0.57376148269,-0.0117173275827,0.0,-0.00700877932939,0.0104167437595,-0.999921181125,0.0,0.429372225782,-0.0441356595332,0.304839643975,1.0,-0.22998,-0.302259428571,2.352
0.0200649498583,-0.33148056602,-0.133108145852,-2.48272099622,-0.0399291441797,2.14575866554,-0.258287147472,-0.739568500861,-0.615040646216,-0.01086720419,-0.570546641125,-0.0963426807585,-0.0419788260046,-0.672051597953,0.573667770818,0.819062884111,0.00469334607733,0.0,0.819048357971,-0.573591406054,-0.0115513248703,0.0,-0.00676932881857,0.0104709017837,-0.99992226518,0.0,0.425532990228,-0.0491726356113,0.304894277687,1.0,-0.22998,-0.302259428571,2.369
0.0079627250993,-0.341219398868,-0.133370878098,-2.49170758428,-0.0415595211192,2.14480517796,-0.269214001117,-0.761463101795,-0.605948705559,-0.0172541799769,-0.562600581644,-0.103925015795,-0.0560861209303,-0.688473781246,0.573770248966,0.81899140415,0.00463985253066,0.0,0.818975472228,-0.57369293716,-0.0116763282931,0.0,-0.00690109474527,0.0104996573601,-0.999921062928,0.0,0.421813023178,-0.0540575934488,0.304862744157,1.0,-0.22998,-0.302259428571,2.385
-0.00498065687749,-0.351449389063,-0.13353763041,-2.50088416398,-0.0431949078741,2.14379266683,-0.281065759705,-0.763567173993,-0.607296599905,-0.0143212522766,-0.521108525152,-0.0975227679114,-0.0494490034948,-0.708928601649,0.573709871268,0.819033164332,0.00473352248162,0.0,0.819018778812,-0.573632791604,-0.0115934141155,0.0,-0.00678021747339,0.0105283026246,-0.999921588673,0.0,0.41793199852,-0.0591562181788,0.30491727385,1.0,-0.22998,-0.302259428571,2.402
-0.0182074881279,-0.361400936196,-0.133813099945,-2.50981688938,-0.0448975368688,2.14275055882,-0.293129494453,-0.785823063247,-0.575105858038,-0.0164862630581,-0.532687496356,-0.0984602796842,-0.0725886504542,-0.716282490845,0.573761318308,0.81899703529,0.00474896836584,0.0,0.818983178555,-0.573684696474,-0.0115398949909,0.0,-0.00672685882243,0.0105106729332,-0.999922134531,0.0,0.414038572474,-0.064342744189,0.304928401765,1.0,-0.22998,-0.302259428571,2.419
-0.030697004274,-0.370618165069,-0.13397012698,-2.51813126833,-0.0463404478402,2.14162400763,-0.304736289883,-0.792025516665,-0.56913487233,-0.0241702806291,-0.512203018924,-0.0927846689126,-0.0770404313148,-0.727051868943,0.573624474917,0.819092912987,0.00474432005476,0.0,0.819077904305,-0.57354619408,-0.0117002921951,0.0,-0.00686267183369,0.010597745734,-0.999920292584,0.0,0.410323612903,-0.0690961301912,0.30488041247,1.0,-0.22998,-0.302259428571,2.435
-0.0451541805454,-0.380755331786,-0.134250642005,-2.52698208607,-0.0480567810129,2.14031877468,-0.317890901025,-0.814835139523,-0.563082495027,-0.0129791246729,-0.469511574434,-0.0924939072624,-0.0706983419313,-0.731134744183,0.573771269913,0.818989885764,0.00477951256631,0.0,0.818975675727,-0.573693385247,-0.0116399824483,0.0,-0.00679118390297,0.0105931959966,-0.999920828876,0.0,0.40620359864,-0.0745955454703,0.304921111098,1.0,-0.22998,-0.302259428571,2.453
-0.0580453121345,-0.389530032313,-0.134421172059,-2.53465762145,-0.0494821369907,2.13921431438,-0.329890180305,-0.809681462355,-0.545136367499,-0.0183704341665,-0.480270684786,-0.0792233455519,-0.0693282697431,-0.754940733102,0.573669615764,0.819060722627,0.00484267489404,0.0,0.819047563414,-0.573591920268,-0.0115820883158,0.0,-0.00670884359978,0.0106108775185,-0.999921197243,0.0,0.40255942799,-0.0793852453538,0.304927401977,1.0,-0.22998,-0.302259428571,2.469
-0.0712429992967,-0.398143860112,-0.134700421854,-2.54218463322,-0.0509715384191,2.13789094264,-0.342086641549,-0.831474790963,-0.534225633622,-0.0166420476202,-0.465138515928,-0.101260481496,-0.0832583996923,-0.754003446516,0.573710260347,0.819032641699,0.00477659971199,0.0,0.819017853062,-0.573631553927,-0.0117193688821,0.0,-0.00685866938989,0.0106358473865,-0.999919915496,0.0,0.398828335482,-0.084265310711,0.304890339284,1.0,-0.22998,-0.302259428571,2.485
-0.0852642923701,-0.407063256443,-0.134862817375,-2.54987867003,-0.0523755216978,2.13650113875,-0.355228895073,-0.817815020748,-0.519747548588,-0.0130118842352,-0.44148828794,-0.0803619669755,-0.0703586156076,-0.777111783633,0.573565459206,0.819133838061,0.00481313311674,0.0,0.819118852739,-0.573485615925,-0.011802555496,0.0,-0.00690774296785,0.010712272484,-0.999918761853,0.0,0.394694411663,-0.089604697908,0.304874576556,1.0,-0.22998,-0.302259428571,2.503
-0.100563736467,-0.416251485051,-0.135153265324,-2.55752157668,-0.0538949205284,2.13515137074,-0.369358760398,-0.845918757114,-0.508072893214,-0.00605987371526,-0.417405671087,-0.101825986833,-0.0782233596266,-0.791382239427,0.57373863562,0.819011547436,0.00498097017681,0.0,0.818999998764,-0.573660225007,-0.0115626627773,0.0,-0.00661269717627,0.010713567204,-0.999920742716,0.0,0.390850158141,-0.0948313072984,0.30496295572,1.0,-0.22998,-0.302259428571,2.52
-0.11413447006,-0.42418673557,-0.135302086587,-2.56430102595,-0.0552363262488,2.13370008521,-0.382186476851,-0.856276794628,-0.488866741755,-0.010421852191,-0.42888323471,-0.0794984439369,-0.0969526375747,-0.806076453853,0.573548971755,0.819144912462,0.00489247251167,0.0,0.81913120023,-0.573469246888,-0.011740808532,0.0,-0.00681187220012,0.0107417123529,-0.999919103734,0.0,0.387132630981,-0.0995870692543,0.304915375027,1.0,-0.22998,-0.302259428571,2.536
-0.128895649,-0.432363186935,-0.135577731454,-2.57121031569,-0.0566070411309,2.1322278294,-0.39588952013,-0.869470193062,-0.47084743872,-0.00521735429467,-0.404494888292,-0.0820155803813,-0.0831715122706,-0.803792688096,0.573687199014,0.819048064877,0.00490020502313,0.0,0.819033639485,-0.573606145311,-0.0118589356219,0.0,-0.00690238345036,0.0108169605746,-0.999917671844,0.0,0.383184304372,-0.10474595048,0.304879498618,1.0,-0.22998,-0.302259428571,2.553
-0.143708382341,-0.440229604151,-0.135786881012,-2.57769936933,-0.0579120817589,2.13080197617,-0.409941972106,-0.88179190957,-0.463283344201,-0.0242731430231,-0.364352781766,-0.0719931938143,-0.0797210358702,-0.827767546778,0.573597235005,0.819110535727,0.00498890334662,0.0,0.819097481161,-0.573516236908,-0.0117978498,0.0,-0.00680265696868,0.010853821159,-0.999917955847,0.0,0.379091682807,-0.110160168949,0.304910245507,1.0,-0.22998,-0.302259428571,2.571
-0.157966449446,-0.4475103382,-0.135985390942,-2.58345879772,-0.0591042819984,2.12949146568,-0.423306833532,-0.884777310594,-0.445219477405,-0.00732580159033,-0.365770503507,-0.0706085299924,-0.0833773857549,-0.843703159108,0.573642923893,0.819077756279,0.0051158515731,0.0,0.819067734548,-0.573563766289,-0.0115498538118,0.0,-0.00652608689689,0.0108159291096,-0.99992020975,0.0,0.375697793134,-0.114721503237,0.305009258416,1.0,-0.22998,-0.302259428571,2.586
-0.173182801483,-0.454840992048,-0.136264814076,-2.58960751577,-0.0603185161681,2.12790323369,-0.437706208217,-0.913400087402,-0.427444684232,-0.0197860971947,-0.355127375323,-0.0748425525115,-0.0999594532583,-0.845867835528,0.573676623827,0.819054280038,0.00509553985349,0.0,0.819041959346,-0.573594195953,-0.0118622974604,0.0,-0.00679322421143,0.0109787950793,-0.999916655609,0.0,0.371716461396,-0.119834401443,0.304921691768,1.0,-0.22998,-0.302259428571,2.603
-0.189414131614,-0.4622925955,-0.136459461412,-2.59565659264,-0.0616236541322,2.12637878713,-0.453219232888,-0.908649882988,-0.39946183611,-0.0127638506026,-0.3329685531,-0.0631179626535,-0.0864458491965,-0.878647708741,0.573526829321,0.819159206349,0.00509093341498,0.0,0.819146806867,-0.573444413775,-0.0118642324339,0.0,-0.0067994588074,0.0109748887616,-0.999916656115,0.0,0.367598346911,-0.125226474478,0.304916520873,1.0,-0.22998,-0.302259428571,2.621
-0.204211065106,-0.468619725075,-0.136704732826,-2.60077501458,-0.0627247167773,2.12506590392,-0.46715424894,-0.923708092346,-0.398202181721,-0.00851083685299,-0.310912350583,-0.0683813832016,-0.091007945114,-0.86162200876,0.573665235582,0.819062019226,0.0051335219285,0.0,0.819049997143,-0.573582358772,-0.0118796795737,0.0,-0.00678582737101,0.0110197824671,-0.999916254964,0.0,0.363905717101,-0.130118841997,0.304903231698,1.0,-0.22998,-0.302259428571,2.637
-0.219857301302,-0.475135234816,-0.13686214805,-2.6057585335,-0.0638310985082,2.12366438667,-0.482131077102,-0.922215262385,-0.382827392946,-0.0092413660925,-0.288306335449,-0.0584215127563,-0.0769722702052,-0.892826376242,0.573581552913,0.819120020456,0.0052288763811,0.0,0.819110543789,-0.573500524113,-0.0116538748159,0.0,-0.006547284888,0.0109676865522,-0.999918418128,0.0,0.360077571847,-0.135222487064,0.305005033705,1.0,-0.22998,-0.302259428571,2.654
-0.23669692376,-0.481643454621,-0.137115326269,-2.61092684647,-0.0649718836967,2.12219254246,-0.498250225238,-0.923445920776,-0.354176604166,-0.000621065094979,-0.282424293951,-0.0561873681907,-0.0853355928221,-0.902683786955,0.573574529677,0.819124686642,0.00526816296274,0.0,0.819115465563,-0.573492949025,-0.0116806847186,0.0,-0.00654680894277,0.0110151890782,-0.999917899081,0.0,0.356158173596,-0.140365025862,0.304997263683,1.0,-0.22914,-0.301155428571,2.671
-0.2507731825,-0.486700940257,-0.137278383467,-2.61500527707,-0.0657657575982,2.12095223306,-0.511719262012,-0.948426083065,-0.328537887107,-0.0138725869671,-0.267892592141,-0.058780322414,-0.0818755522615,-0.902184492186,0.573633043009,0.819083237014,0.00534132121789,0.0,0.819073604719,-0.573548912278,-0.0118668521061,0.0,-0.00665655882096,0.0111823690037,-0.999915318839,0.0,0.352477489332,-0.145132988402,0.304949371992,1.0,-0.225108,-0.295856228571,2.687
-0.267617591534,-0.492283233674,-0.137358306727,-2.61946385977,-0.0666639796326,2.11960893851,-0.527817240697,-0.928528929874,-0.300737429414,-0.00283276864247,-0.242742341484,-0.0463914659332,-0.0702645982905,-0.893557673321,0.573668958311,0.819057765871,0.00538974374269,0.0,0.819047943119,-0.573583263302,-0.011977221436,0.0,-0.00671869878217,0.0112856359545,-0.999913743034,0.0,0.348440240156,-0.15042265639,0.30490995288,1.0,-0.220572,-0.289894628571,2.705
-0.283475121136,-0.497181554394,-0.137426023574,-2.62326213241,-0.0675099572352,2.11844110628,-0.542945972632,-0.922175582127,-0.280870777815,-0.00191634395037,-0.221759603097,-0.0469789479988,-0.0770331687935,-0.887576870126,0.573738171614,0.819009057638,0.00542409823527,0.0,0.818999914745,-0.573652726443,-0.0119346551392,0.0,-0.00666317020431,0.0112899205766,-0.999914066236,0.0,0.344702717279,-0.155383536388,0.304920230981,1.0,-0.216288,-0.284264228571,2.722
-0.298064254589,-0.50146610225,-0.137392918047,-2.62653670941,-0.0681072051255,2.11732107115,-0.556993734741,-0.908489460242,-0.260085154638,0.000732498921636,-0.200478861656,-0.0389676207997,-0.0677463844699,-0.873404519951,0.573716437008,0.819023609602,0.00552482788423,0.0,0.81901545649,-0.573630066831,-0.0119572304011,0.0,-0.00662417415137,0.0113851982542,-0.999913245026,0.0,0.341277963722,-0.159858111561,0.304938970211,1.0,-0.212256,-0.278965028571,2.738
-0.313605004143,-0.505573035634,-0.137375316023,-2.62965705961,-0.0687819452646,2.11629744943,-0.571816931013,-0.897957680778,-0.233385204616,0.00527443449711,-0.174863101492,-0.033312909379,-0.0574062960912,-0.879164403294,0.573824596954,0.81894750738,0.00557305909519,0.0,0.818940381917,-0.573738716573,-0.0118862472241,0.0,-0.00653685861845,0.0113848433601,-0.999913823697,0.0,0.337694876866,-0.164634652331,0.304963949373,1.0,-0.207972,-0.273334628571,2.755
-0.329737899516,-0.509567164155,-0.137347516111,-2.63265850897,-0.0693390966462,2.1153213904,-0.587324371749,-0.902686602037,-0.21617677834,-0.00209477492213,-0.159913535422,-0.0314097417094,-0.056714798516,-0.861739705352,0.573906483271,0.818889133018,0.00571692092849,0.0,0.818884373212,-0.573820939977,-0.011775357952,0.0,-0.00636234621819,0.0114396717318,-0.99991432356,0.0,0.333995932889,-0.169543469374,0.305000496255,1.0,-0.203436,-0.267373028571,2.773
-0.343816036324,-0.512727027333,-0.137260008809,-2.63512093669,-0.0698482243951,2.11441057848,-0.601001195374,-0.864361190484,-0.187344033974,0.00724626302891,-0.146863727013,-0.0226749775933,-0.0563100087181,-0.853275435053,0.573813652196,0.818954176113,0.00571811875423,0.0,0.818948740673,-0.573726884955,-0.0118814364598,0.0,-0.00644983772567,0.0115007980271,-0.99991306184,0.0,0.330745520468,-0.17377051294,0.304975784588,1.0,-0.199404,-0.262073828571,2.789
-0.35872900738,-0.515704519647,-0.137185383997,-2.63748521685,-0.0702877857804,2.11357066147,-0.615289051093,-0.871982106399,-0.16325224486,0.00469906742742,-0.131033876999,-0.0231911836886,-0.0508914680268,-0.846235979064,0.573948842375,0.818859050893,0.00577304147475,0.0,0.81885344884,-0.573860263378,-0.012007261942,0.0,-0.00651946153626,0.0116190527164,-0.999911243179,0.0,0.327333644704,-0.178231355496,0.304931193362,1.0,-0.19512,-0.256443428571,2.806
-0.373190024377,-0.518321915481,-0.137009943355,-2.63957794543,-0.0706615574412,2.11285730962,-0.629324646183,-0.848331591315,-0.147696746826,0.000744215916696,-0.116295567269,-0.0219409188345,-0.0386472437492,-0.813506651323,0.573892539714,0.818898306143,0.00580206497042,0.0,0.818892507089,-0.573802828954,-0.0120881023315,0.0,-0.00656981171921,0.0116887643222,-0.99991010114,0.0,0.324057556374,-0.182507743814,0.304888235091,1.0,-0.190836,-0.250813028571,2.823
-0.38592577536,-0.520395865109,-0.136941077789,-2.64115696954,-0.0709716769826,2.11225502302,-0.641569630277,-0.850230609738,-0.130686786257,0.00457688579338,-0.101222307357,-0.0315725607111,-0.04071490937,-0.803126847281,0.574021540462,0.818807434087,0.00586548120489,0.0,0.818802245012,-0.5739311491,-0.012110596902,0.0,-0.00654999051425,0.0117546389815,-0.999909458944,0.0,0.321188839019,-0.186298341901,0.304883741239,1.0,-0.187056,-0.245845028571,2.838
-0.399071268078,-0.522381026921,-0.136733555928,-2.6426279961,-0.0712130509639,2.11167588606,-0.654463876867,-0.813006774765,-0.118232397692,0.0167413344565,-0.0852201821421,-0.0171486802279,-0.0358771956099,-0.787945065749,0.573878207919,0.818907449238,0.00592781227216,0.0,0.818903177322,-0.57378777064,-0.0120800387548,0.0,-0.00649125251174,0.0117870022328,-0.999909461011,0.0,0.317893346237,-0.190631257048,0.304902856915,1.0,-0.18252,-0.239883428571,2.856
-0.414665253179,-0.524436606502,-0.136573049094,-2.6441129926,-0.0715223731092,2.11104667163,-0.669490829583,-0.805914699546,-0.101114603995,0.0191529148813,-0.068172674972,-0.012158744313,-0.0295465201342,-0.780169835008,0.574019021788,0.818808419234,0.00597345104806,0.0,0.818805130939,-0.573929075566,-0.0120133537728,0.0,-0.00640842135647,0.011787212889,-0.999909992823,0.0,0.314609487241,-0.194980214987,0.304935486252,1.0,-0.177984,-0.233921828571,2.874
-0.427283784091,-0.525868355613,-0.136361285427,-2.64513014432,-0.0716784654729,2.11063154018,-0.681878725338,-0.785984708799,-0.0895119334786,0.0158547756727,-0.0617405637042,-0.0102871643032,-0.0309121540727,-0.758402039574,0.573936045916,0.818866088252,0.00604082864303,0.0,0.818864071669,-0.57384657329,-0.011936890503,0.0,-0.00630832747033,0.01179785642,-0.999910503789,0.0,0.312002000253,-0.198436185684,0.304961065394,1.0,-0.174204,-0.228953828571,2.889
-0.44067911962,-0.527140293637,-0.136206501996,-2.64609064153,-0.0718772603625,2.11020563175,-0.694795366577,-0.777825061713,-0.0678794968182,0.0150379164511,-0.0500044078708,-0.0149525033309,-0.0293637447255,-0.745115886009,0.57407794638,0.818766349979,0.00607639064078,0.0,0.818764647252,-0.573988020522,-0.0119562372528,0.0,-0.00630171062662,0.0118391739089,-0.999910057157,0.0,0.309019980095,-0.202352029893,0.304957260302,1.0,-0.16992,-0.223323428571,2.906
-0.453490351583,-0.528147989078,-0.135944465766,-2.64688622166,-0.071980568273,2.10987869591,-0.707423345322,-0.751814907747,-0.0580659610644,0.0145217637781,-0.0417234475798,-0.00640545537212,-0.0159526685389,-0.737810362281,0.573952874802,0.818853779456,0.00611001455358,0.0,0.818852347065,-0.573862521619,-0.0119744264703,0.0,-0.00629911729067,0.0118761849079,-0.999909634594,0.0,0.306190518539,-0.206049228819,0.304942706127,1.0,-0.165636,-0.217693028571,2.923
-0.465586442158,-0.528858240095,-0.135794873806,-2.6474593334,-0.0720935375012,2.10959027131,-0.719083378068,-0.744756369944,-0.0354130384736,0.0150266633491,-0.0281075053261,-0.00436595839204,-0.0145840629297,-0.722464650007,0.574123134852,0.81873414093,0.00614649529843,0.0,0.818732740055,-0.574031755174,-0.0120412339582,0.0,-0.00633040773617,0.0119457179171,-0.999908608704,0.0,0.303505821225,-0.209567789798,0.30492074183,1.0,-0.161604,-0.212393828571,2.939
-0.47783228191,-0.52938128446,-0.135507828098,-2.64789824873,-0.0721397335357,2.10937595254,-0.731211163936,-0.721327029857,-0.0289438790018,0.0172522575703,-0.0206783376504,-0.00196713388469,-0.0108751537498,-0.709878016335,0.573976830612,0.818836590837,0.00616298053875,0.0,0.818835119229,-0.573884872125,-0.0120808925233,0.0,-0.00635555791388,0.0119808479742,-0.999908028853,0.0,0.300664326069,-0.213298035721,0.304900218599,1.0,-0.157068,-0.206432228571,2.957
-0.49074746066,-0.52975992922,-0.135329032701,-2.64820394556,-0.0721671176481,2.10916623181,-0.743710743996,-0.715540213368,-0.0137550407081,0.0138259338168,-0.0125936812451,-0.00196782624358,-0.0097316942063,-0.697119214546,0.574157349699,0.818709490572,0.00623335655672,0.0,0.81870859656,-0.574064396901,-0.0121263774802,0.0,-0.00634975450932,0.0120659836615,-0.999907042007,0.0,0.29796717113,-0.216830312614,0.304887113862,1.0,-0.152784,-0.200801828572,2.974
-0.501669456504,-0.529939112986,-0.135034776735,-2.64834574738,-0.0721794633325,2.10904289527,-0.754585882191,-0.677295378929,-0.0080816635675,0.0163873927615,-0.00715622363369,-0.000795124119273,-0.002938237446,-0.676801529129,0.573973718867,0.818838299169,0.00622549320193,0.0,0.818837251046,-0.573880743391,-0.0121324179427,0.0,-0.00636192029298,0.0120615870082,-0.999907017722,0.0,0.295430236564,-0.220153742047,0.304882780975,1.0,-0.1485,-0.195171428572,2.991
-0.513928980082,-0.530018757843,-0.134831477186,-2.64842177544,-0.0721873370519,2.10892271355,-0.766468417314,-0.678431886348,-0.000885516954637,0.0110971563148,-0.000447648694812,-0.00103065867605,-0.00741838869957,-0.652203236106,0.574132547375,0.818726642515,0.00626496462024,0.0,0.818725916686,-0.574038992157,-0.0121595942071,0.0,-0.00635917219676,0.0121107408681,-0.999906441066,0.0,0.292859578181,-0.223486746266,0.304874472123,1.0,-0.144216,-0.189541028572,3.008
-0.524957806499,-0.529944283867,-0.134511163007,-2.64838006887,-0.0721795166678,2.10888749735,-0.777402932029,-0.637130651271,0.00416390967881,0.0146540139279,0.0026627707612,-0.000309248180779,0.0103388862189,-0.648251437444,0.573989826155,0.818826936484,0.0062349387306,0.0,0.818825928763,-0.573896647494,-0.0121442694945,0.0,-0.00636596711579,0.012076249138,-0.999906814993,0.0,0.290440717215,-0.226630074567,0.304871445727,1.0,-0.139932,-0.183910628572,3.025
-0.535117867415,-0.529785341912,-0.134296516827,-2.64826353463,-0.0721788148066,2.1088820008,-0.78735942378,-0.634211807898,0.00769630850624,0.012200096139,0.00638429168223,-0.000341461646263,-0.00012698446914,-0.621927777054,0.574012244811,0.818811248966,0.00623123386094,0.0,0.81881034627,-0.573919369091,-0.0121211189232,0.0,-0.00634880495241,0.0120601016324,-0.999907118999,0.0,0.288188951501,-0.229542484421,0.304871427155,1.0,-0.1359,-0.178611428572,3.041
-0.546292606642,-0.529467365535,-0.134024031914,-2.64800794593,-0.072159534826,2.10890159341,-0.798274185692,-0.60107372186,0.0266014445669,0.0179153500869,0.013335064761,0.00078567820355,0.00225614514317,-0.600389705065,0.574055797365,0.818780889633,0.00620831580762,0.0,0.818779936727,-0.573963486267,-0.0120862958372,0.0,-0.00633280339923,0.0120216840728,-0.999907683095,0.0,0.285720041995,-0.232740314209,0.30488018256,1.0,-0.131364,-0.172649828572,3.059
-0.555100339761,-0.529069398574,-0.133716422374,-2.64772267042,-0.0721106893205,2.10893043267,-0.807127360552,-0.590328654965,0.0295753208249,0.0173192661372,0.0193217272255,0.00130947412052,0.00160882958237,-0.580269825099,0.573846178695,0.81892820417,0.00615682659791,0.0,0.818926482837,-0.573753956157,-0.0121062134041,0.0,-0.00638173885263,0.0119893234833,-0.999907760512,0.0,0.283658962058,-0.235402984697,0.304873804291,1.0,-0.127332,-0.167350628572,3.075
-0.565054691601,-0.528555034757,-0.133484901643,-2.64735177003,-0.0720456151462,2.10899183268,-0.816832746467,-0.578121899239,0.0322361933924,0.0113320758332,0.0298346859994,0.000483164346225,0.00111160925631,-0.563564856338,0.573928455557,0.818870472633,0.00616634841856,0.0,0.818868775849,-0.573835986057,-0.0121217138388,0.0,-0.0063877638994,0.0120066578485,-0.999907514043,0.0,0.281574752579,-0.238077585773,0.304866786681,1.0,-0.1233,-0.162051428572,3.091
-0.574535035249,-0.527873500093,-0.133193680656,-2.64682421907,-0.0719453093815,2.10913425702,-0.826217171633,-0.542219743883,0.0423048945051,0.0261333340474,0.032773361415,0.00853404056379,0.00513885156607,-0.550399376416,0.573874123336,0.818908700174,0.00614640105814,0.0,0.81890709569,-0.573782415645,-0.0120687624063,0.0,-0.00635664007319,0.0119595121428,-0.999908277392,0.0,0.279508518869,-0.240793947372,0.304877157069,1.0,-0.119016,-0.156421028572,3.108
-0.583695330032,-0.527085001911,-0.132913213403,-2.64625221044,-0.071793272685,2.10924742727,-0.83525009967,-0.536715799599,0.0461377728548,0.017312852188,0.0412075203564,0.00975786700329,0.00403593700903,-0.517992279477,0.573877736085,0.818906019869,0.00616616160547,0.0,0.81890439333,-0.573785414945,-0.0121094625574,0.0,-0.00637858099764,0.0119990788058,-0.999907663643,0.0,0.277499646605,-0.243405869524,0.304865723572,1.0,-0.114732,-0.150790628572,3.125
-0.592151590279,-0.526300083363,-0.1326830551,-2.64565640794,-0.0716428033452,2.10937796648,-0.843472295341,-0.524998986961,0.052334197915,0.0143847287428,0.0417899450866,0.0070074355652,0.00710271736289,-0.51527682904,0.574004559962,0.818816885825,0.00619834904107,0.0,0.818815645352,-0.57391200538,-0.0121118086838,0.0,-0.00636016899291,0.0120277701559,-0.999907436214,0.0,0.275637883267,-0.245826806915,0.304866419712,1.0,-0.1107,-0.145491428572,3.141
-0.600580469835,-0.52532781228,-0.132339535783,-2.64495696802,-0.0714321674009,2.10953929887,-0.851919881857,-0.486512774268,0.0580488865074,0.0295801784944,0.0403755030034,0.0103610397459,0.00939566866407,-0.495113992007,0.573875817723,0.818907006567,0.00621347964886,0.0,0.818905607601,-0.573782550641,-0.0121629486425,0.0,-0.0063952607912,0.0120685077815,-0.999906721529,0.0,0.273815954206,-0.248220940164,0.30485092607,1.0,-0.106416,-0.139861028572,3.158
-0.608749329134,-0.524349829016,-0.132029941134,-2.64426345183,-0.0712584920907,2.10970301825,-0.860005201179,-0.485069950121,0.0546915776726,0.0165079714199,0.0423771697782,0.010869793047,0.00332499358138,-0.458666021175,0.573838514837,0.81893315766,0.00621201059938,0.0,0.818931316035,-0.5737444657,-0.012228433913,0.0,-0.00645028748336,0.0121045894216,-0.999905931929,0.0,0.272027192263,-0.250541115425,0.304829659086,1.0,-0.102132,-0.134230628572,3.175
-0.616727349421,-0.523404368108,-0.131741252815,-2.64350130105,-0.0710533361041,2.10988364259,-0.867776936519,-0.46272244151,0.0574774961781,0.0134608589603,0.0438692722357,0.00704680783602,0.0107161076558,-0.455419824383,0.573932871271,0.818866850278,0.00623599964157,0.0,0.8188656392,-0.573839288675,-0.0121771348072,0.0,-0.00639311351375,0.0120955366529,-0.999906408667,0.0,0.27028518382,-0.252818314876,0.304852129574,1.0,-0.0978480000001,-0.128600228572,3.192
-0.624649615843,-0.522273027465,-0.131420076337,-2.6426228488,-0.0708301726565,2.11008954929,-0.875654805429,-0.417870974604,0.0600691379536,0.0232876385679,0.0467061801492,0.00823777705284,0.00936448760607,-0.437662801488,0.573885695336,0.818899838858,0.00624575924323,0.0,0.818898786218,-0.57379213712,-0.0121699716653,0.0,-0.00638234317142,0.0120990502589,-0.999906434962,0.0,0.268574049744,-0.255089281719,0.304861896691,1.0,-0.0933120000001,-0.122638628572,3.21
-0.631350706305,-0.521300980764,-0.131111820633,-2.64187106299,-0.0706097687448,2.1102792657,-0.88236607183,-0.42369838711,0.0692992787041,0.018767971374,0.0450871000801,0.0118686219622,0.0107678309067,-0.413922105222,0.573794501618,0.818963620255,0.00626143051537,0.0,0.818962855772,-0.573701050528,-0.0121528757825,0.0,-0.00636069634595,0.0121013653077,-0.999906544883,0.0,0.267126846578,-0.256994053887,0.304870511437,1.0,-0.0892800000001,-0.117339428572,3.226
-0.637926237162,-0.520342671764,-0.130842192022,-2.64109039907,-0.0704134059181,2.1104733738,-0.888745887412,-0.401987582373,0.0638180586778,0.0234219254484,0.0501770698386,0.0154856981853,0.018740253303,-0.388212434498,0.573890112989,0.818896576628,0.00626752753312,0.0,0.818896275485,-0.573797346047,-0.0120930793434,0.0,-0.00630681203607,0.0120727860627,-0.999907231676,0.0,0.265696069035,-0.258876500241,0.304896382095,1.0,-0.0852480000001,-0.112040228572,3.242
-0.644532852908,-0.519272185041,-0.130600025264,-2.64025913879,-0.0701853248886,2.11069135536,-0.895248569944,-0.381601573177,0.0599792796777,0.0124206494264,0.0477321956455,0.0164749864156,0.0110924075257,-0.369550216396,0.573946297609,0.818856879493,0.00630914174696,0.0,0.818857245135,-0.573853572131,-0.0120680049411,0.0,-0.00626156589377,0.0120929060115,-0.999907272909,0.0,0.264253877234,-0.260776536613,0.304905043195,1.0,-0.0809640000001,-0.106409828572,3.259
-0.650716515301,-0.518186098216,-0.130298306934,-2.63946353646,-0.0699407240512,2.11090144765,-0.901417960887,-0.351251400391,0.0598420645354,0.0201537294766,0.046568214705,0.0157361058003,0.0148639064813,-0.35820347488,0.573891980386,0.818894722104,0.0063384430916,0.0,0.818895216263,-0.573798645398,-0.0121031492376,0.0,-0.00627433577198,0.0121366546793,-0.999906662806,0.0,0.262914313765,-0.262532292678,0.30489219591,1.0,-0.0766800000001,-0.100779428572,3.276
-0.656932795896,-0.517090592938,-0.129917788684,-2.63866027788,-0.0696972000078,2.11111494805,-0.907552555015,-0.343800577891,0.059541422522,0.0240651359952,0.0421842803549,0.0110990592178,0.0154856632755,-0.342352548116,0.573836606235,0.818933611601,0.00632740355526,0.0,0.8189337401,-0.573742905983,-0.0121389481156,0.0,-0.00631081122088,0.01214773093,-0.999906298758,0.0,0.261574138173,-0.264275177559,0.304881189573,1.0,-0.0721440000001,-0.0948178285715,3.294
-0.662230334679,-0.516131174561,-0.129644605626,-2.6379158627,-0.0694880924954,2.11132303885,-0.912731892825,-0.324186844218,0.0601687874927,0.0180763836765,0.0408709398981,0.00542038728037,0.0233580360346,-0.315563440375,0.573868867761,0.818910960133,0.00633315806562,0.0,0.818911346656,-0.573775486971,-0.0121096560931,0.0,-0.00628304021288,0.0121358832846,-0.999906617511,0.0,0.260428914052,-0.26578491135,0.304890142109,1.0,-0.0681120000001,-0.0895186285715,3.31
-0.667159006806,-0.515155549572,-0.129386577871,-2.63718154814,-0.0692593379008,2.11152535734,-0.917588811951,-0.304184678482,0.0605216386858,0.01410486525,0.0371656417844,0.0167225568563,0.010157505196,-0.304461746296,0.573881620851,0.818901794593,0.0063626223351,0.0,0.818902526428,-0.573788027841,-0.0121119039693,0.0,-0.00626778404911,0.0121614007311,-0.999906403228,0.0,0.259368694513,-0.267191668167,0.304887372778,1.0,-0.0640800000001,-0.0842194285715,3.326
-0.671902538279,-0.514233628416,-0.129177952398,-2.6365006417,-0.0690490902977,2.11170920415,-0.922219908109,-0.291583951445,0.0513949535635,0.0134757176751,0.03797686222,0.0149703990651,0.0119626279936,-0.287671649155,0.57395191598,0.818852182042,0.00640695011516,0.0,0.818853327575,-0.573857783592,-0.0121333849676,0.0,-0.00625889106666,0.0122105670621,-0.999905859736,0.0,0.258324440605,-0.268543102078,0.304877088377,1.0,-0.0600480000001,-0.0789202285715,3.342
-0.677026385086,-0.513196347899,-0.12879118977,-2.63572840866,-0.0688037151963,2.1119176415,-0.92723636237,-0.260391509655,0.054347981762,0.0250189408822,0.0404306020205,0.0155493821053,0.0135695254732,-0.248645032957,0.573911060936,0.818880974292,0.00638678162791,0.0,0.81888173409,-0.573816792726,-0.0121548698403,0.0,-0.00628867018407,0.012206068065,-0.999905727821,0.0,0.257235785041,-0.269972578754,0.304871793082,1.0,-0.0552600000001,-0.0726274285715,3.361
-0.681047558123,-0.512364798922,-0.128450169056,-2.63509582867,-0.0686091534814,2.11209642367,-0.931209694247,-0.245958983046,0.0493174648913,0.0144236041919,0.0447237602856,0.0118303092804,0.0124279899317,-0.236250257727,0.573824410951,0.818941984891,0.00634962048331,0.0,0.818942317243,-0.573730445408,-0.0121492362713,0.0,-0.00630667050183,0.0121717356027,-0.999906032965,0.0,0.256392615462,-0.271092150338,0.304875156708,1.0,-0.0512280000001,-0.0673282285715,3.377
-0.684841651888,-0.511565753137,-0.128164899486,-2.63447656192,-0.0684054382288,2.11227541657,-0.934896757378,-0.232164702922,0.050523487405,0.0144942258462,0.0356693212359,0.0052108060856,0.00518021318858,-0.221505266173,0.573828826958,0.818938931125,0.0063443944258,0.0,0.818939364678,-0.573735211558,-0.0121231555622,0.0,-0.00628824264805,0.0121525244494,-0.999906382695,0.0,0.255592514964,-0.272159104329,0.304882945526,1.0,-0.0471960000001,-0.0620290285715,3.393
-0.688549727658,-0.510780828324,-0.127909103391,-2.63390120238,-0.0681934415982,2.11244900895,-0.93842511653,-0.210039352114,0.0439471029325,0.0128347097026,0.0304183356766,0.00733174424078,0.00221331957665,-0.203179431783,0.573915000873,0.818878368946,0.00636675321504,0.0,0.818879038918,-0.57382115708,-0.0121303837506,0.0,-0.00628005207414,0.0121756443735,-0.999906152911,0.0,0.254795538743,-0.273195028354,0.304874647591,1.0,-0.0429120000001,-0.0563986285715,3.41
-0.691928537632,-0.510086047429,-0.127642068827,-2.63337791526,-0.0679797074813,2.11260329574,-0.941726682058,-0.195471733569,0.0417825054485,0.0172923335874,0.0297030233412,0.012738037174,0.0143927224564,-0.188109335673,0.573906993899,0.818883811889,0.00638841775577,0.0,0.818884813237,-0.573813147122,-0.0121194777878,0.0,-0.00625880657284,0.0121870659844,-0.999906146977,0.0,0.254075207833,-0.274127349045,0.304874528323,1.0,-0.0386280000001,-0.0507682285715,3.427
-0.695004075645,-0.509456746725,-0.127389124144,-2.63288692539,-0.0677765931013,2.11275174767,-0.944598468699,-0.17733241332,0.0316618756507,0.00845156914048,0.0282027690971,0.017937953522,0.0047896243507,-0.169813292429,0.574006126144,0.818814199339,0.00640476471859,0.0,0.818815630948,-0.573912606648,-0.0120842602593,0.0,-0.00621910841128,0.0121809954048,-0.999906468647,0.0,0.253424255012,-0.274976630822,0.30488301451,1.0,-0.0343440000001,-0.0451378285715,3.444
-0.697893534377,-0.508827924545,-0.127068745,-2.63238744159,-0.0675602263384,2.11290218362,-0.947418842074,-0.150388350808,0.0347638467053,0.011626256233,0.0266218500106,0.0119875130793,0.0082296755278,-0.145699205027,0.573952829955,0.818851619724,0.00639693393365,0.0,0.818853226671,-0.57385990148,-0.0120396654728,0.0,-0.00618787483216,0.0121485839601,-0.999907056737,0.0,0.252840961076,-0.27576448552,0.304897175654,1.0,-0.0298080000001,-0.0391762285715,3.462
-0.700141571142,-0.508324264366,-0.126759512972,-2.63201546013,-0.067377817111,2.11300113144,-0.949562088924,-0.136736874628,0.0342176207294,0.0219332673269,0.0202521921926,0.0110704481538,0.00377077200926,-0.127531694241,0.573915612312,0.818877832994,0.00638055456859,0.0,0.818879144643,-0.573822604811,-0.0120545252231,0.0,-0.00620999661145,0.0121434170904,-0.999906982356,0.0,0.252394194348,-0.276355248402,0.304895077125,1.0,-0.0257760000001,-0.0338770285715,3.478
-0.701983808899,-0.507913742128,-0.126485727762,-2.63171188631,-0.0671996120938,2.11306426551,-0.951237872982,-0.121254714637,0.0223903340629,0.0188991978646,0.0153912582792,0.00826545026903,0.000797614020049,-0.122154938549,0.573942375883,0.818859053592,0.00638329206371,0.0,0.818860282341,-0.57384911843,-0.012073697992,0.0,-0.00622373021376,0.0121568653101,-0.999906733555,0.0,0.252011105008,-0.276858804203,0.304895037207,1.0,-0.0217440000001,-0.0285778285715,3.494
-0.703896161431,-0.507498500576,-0.126172170654,-2.63139700661,-0.0670003156618,2.11318293637,-0.953049733522,-0.101108045245,0.0215676077578,0.0133336161702,0.0195676938105,0.0127256888066,0.00465192925998,-0.088983563972,0.573908850262,0.818882607983,0.0063759575166,0.0,0.818883926684,-0.573815995708,-0.0120442762128,0.0,-0.00620434135821,0.0121337194528,-0.999907135188,0.0,0.251670798712,-0.277320463,0.304898921715,1.0,-0.01978,-0.0259965714286,3.511
-0.70553487469,-0.507120317295,-0.125981054569,-2.63113209015,-0.0668431806958,2.11322505885,-0.954611068494,-0.0893827554163,0.0159606337348,0.00831049918193,0.0155657617514,0.00432093003983,0.00368412592997,-0.0861528236168,0.573916943177,0.818876679998,0.00640875889506,0.0,0.818878070943,-0.573823243706,-0.0120969753685,0.0,-0.00622855612949,0.0121908859586,-0.999906289303,0.0,0.251330960586,-0.277748307537,0.304886917028,1.0,-0.01944,-0.0255497142857,3.528
-0.706977908614,-0.506784070212,-0.125826169419,-2.63086448238,-0.0667585115479,2.11329632708,-0.956004143792,-0.0926993432386,0.0184524989689,0.0106157375653,0.0178420723965,0.00895482696428,0.0016266076307,-0.0854095911515,0.573897273518,0.818890634561,0.0063870946622,0.0,0.818891826527,-0.573803840214,-0.012086203068,0.0,-0.00623245904893,0.0121668128509,-0.999906558194,0.0,0.251035335638,-0.278146970857,0.30489325398,1.0,-0.01912,-0.0251291428572,3.544
-0.708520342468,-0.506408965742,-0.125721614699,-2.63057860289,-0.0667072677943,2.11338009311,-0.957512787437,-0.0848503054127,0.0181966769359,0.0019015908774,0.0132382176616,0.00086129956545,0.00160704878252,-0.0857637582527,0.573886956037,0.818898067742,0.00636107226106,0.0,0.818898945303,-0.573793691169,-0.0120857047002,0.0,-0.00624713737059,0.0121451374791,-0.999906730106,0.0,0.250701407562,-0.278590048685,0.304893268117,1.0,-0.01876,-0.024656,3.562
-0.709813098133,-0.506091479151,-0.125690050052,-2.63033190943,-0.0666440503532,2.11340893112,-0.958919336541,-0.0842675125629,0.0179182540474,0.000366355545232,0.0144210114669,0.00187929605089,-0.000473609900029,-0.0861029723846,0.573811004083,0.818951056702,0.00639102659306,0.0,0.81895210211,-0.573717186172,-0.012115760032,0.0,-0.00625569312871,0.0121863357169,-0.999906175361,0.0,0.250404986537,-0.278966539983,0.304890479124,1.0,-0.01844,-0.0242354285714,3.578
-0.711167170927,-0.505751411783,-0.125665653533,-2.63005925753,-0.0666030203168,2.11350168742,-0.960239239623,-0.081614736866,0.0211842978301,-0.00080566999023,0.0152461873972,0.000772026176318,0.0068687237392,-0.0802954126517,0.573853051074,0.818921597124,0.00639065244552,0.0,0.818922844902,-0.573759629843,-0.0120833836484,0.0,-0.00622876537746,0.0121677721227,-0.999906569537,0.0,0.250101712306,-0.279377868993,0.304896314254,1.0,-0.0181,-0.0237885714286,3.595
