nelsonifechukwu/NELSON_IML_WORK/CNN-GradCAM/train2dof/data_sample_2022-02-21-10-51-30/robot_state.csv
position_joint1,position_joint2,position_joint3,position_joint4,position_joint5,position_joint6,position_joint7,velocity_joint1,velocity_joint2,velocity_joint3,velocity_joint4,velocity_joint5,velocity_joint6,velocity_joint7,ee_T_00,ee_T_10,ee_T_20,ee_T_30,ee_T_01,ee_T_11,ee_T_21,ee_T_31,ee_T_02,ee_T_12,ee_T_22,ee_T_32,ee_T_03,ee_T_13,ee_T_23,ee_T_33,v_x,v_y,time
0.465065946704,0.547664987288,-0.123960484192,-1.35574116098,0.0794912014637,1.89409314535,0.159174436106,0.000865763663895,0.000847254851655,-0.000258752349823,-0.00134283106324,0.00142919884084,-0.000399963570969,0.00446961073697,0.573797374415,0.818982804552,0.00211798603203,0.0,0.818941875067,-0.573738155751,-0.0118101988837,0.0,-0.00845734323423,0.00851133243275,-0.999928012692,0.0,0.661695826646,0.260912118505,0.303338822347,1.0,0.0,0.0,0.0
0.465068018052,0.547665585955,-0.123960720955,-1.35575113719,0.0794891654982,1.89408770071,0.159172228074,0.00660132689913,0.0014438996496,-0.000470155402638,-0.00191570613194,-0.000342913564009,-0.000133572003993,-0.000706374077579,0.573794005388,0.818985201832,0.00210367847683,0.0,0.818944087552,-0.573734844853,-0.0118176209714,0.0,-0.00847166615775,0.0085038388473,-0.999927955203,0.0,0.661692064741,0.260911457255,0.303333180569,1.0,-0.00016,-0.000210285714286,0.009
0.465060234024,0.547661369401,-0.123961221774,-1.35575238258,0.0794898731939,1.89409080189,0.159169994921,-0.000524728821281,0.0011691826153,-0.000473275775657,0.00162636127158,-0.000103862871696,6.13102032231e-05,-0.00204703225147,0.57379917039,0.818981569,0.00210917007738,0.0,0.818940525572,-0.573739986961,-0.0118148143561,0.0,-0.00846616298598,0.0085067793094,-0.999927976801,0.0,0.661694616008,0.260906250784,0.303335862266,1.0,-0.0005,-0.000657142857143,0.026
0.465059895101,0.547652249957,-0.123961165947,-1.35577232724,0.079490550222,1.894094337,0.159171739536,0.000535728739113,-0.00119601175415,1.31274089881e-06,-0.00301634122618,-8.34223953085e-05,-0.00118897295362,-0.00275989998748,0.573802114963,0.818979519231,0.00210400719438,0.0,0.818938386388,-0.573742929208,-0.0118202109234,0.0,-0.00847351454988,0.00850567804452,-0.999927923899,0.0,0.661691026977,0.260904159689,0.303333135835,1.0,-0.00084,-0.001104,0.043
0.465059484292,0.547568605922,-0.123961069596,-1.35585856388,0.0794873520253,1.89411504511,0.159176366594,-5.71551637183e-05,-0.00767066791964,0.000300558722594,-0.00566628001947,-0.000108130163086,0.00429639622504,0.000269975845068,0.57381002705,0.818973930311,0.00212161001807,0.0,0.818932995384,-0.573750739642,-0.0118145983163,0.0,-0.00845873555793,0.00851695540438,-0.999927953036,0.0,0.661677864313,0.260895696735,0.303353133085,1.0,-0.00118,-0.00155085714286,0.06
0.465056386653,0.547444372826,-0.123957679514,-1.35602854059,0.0794884569495,1.89413944132,0.159171221468,-0.00122762695898,-0.00446623253636,0.00061661476496,-0.0109344136614,0.000163983921439,-0.000421854809364,0.000539709165287,0.57381550258,0.818970117979,0.00211228721651,0.0,0.81892889238,-0.573756081025,-0.0118395782367,0.0,-0.00848448650268,0.0085237106747,-0.999927677307,0.0,0.661647008579,0.260878895691,0.303362241246,1.0,-0.0015,-0.00197142857143,0.076
0.465052347407,0.547300170563,-0.123963680491,-1.35622951966,0.0794842787473,1.89423118347,0.159163573163,4.50078707528e-05,-0.00234439183074,-0.00133979455802,-0.0136687147317,0.000236789783327,0.00398564811479,-0.000124488997881,0.57382698026,0.818961992581,0.00214437271959,0.0,0.818921167378,-0.57376741312,-0.011824726764,0.0,-0.00845379336598,0.00854158391415,-0.999927784753,0.0,0.661625703896,0.260856347007,0.303376887163,1.0,-0.00184,-0.00241828571429,0.093
0.465027518667,0.547120718684,-0.12395588642,-1.35644645016,0.0794786631581,1.89435515041,0.159147680813,-0.000887978977202,-0.00672143707339,0.000792274457444,-0.0136571179608,-0.00252729898838,0.00853526612744,-0.00101797138645,0.573839731033,0.818952848157,0.00222316984619,0.0,0.818913004007,-0.573779810755,-0.011788449423,0.0,-0.00837873557336,0.00858542863948,-0.999928041014,0.0,0.661610431513,0.260828560669,0.303411245435,1.0,-0.00218,-0.00286514285714,0.11
0.464996725304,0.546906776202,-0.123951110027,-1.35670361203,0.0794789986212,1.89447648025,0.159128542626,-0.00422804043219,-0.0128456504077,0.00185767255311,-0.017603833372,-1.15500163226e-05,0.00378983195623,-0.00138712768532,0.573860502111,0.818938082315,0.00229964198332,0.0,0.818899108683,-0.573800159795,-0.0117632189138,0.0,-0.00831397307132,0.00863378770988,-0.999928165201,0.0,0.661588219493,0.260791541568,0.303450757752,1.0,-0.00252,-0.003312,0.127
0.464959917905,0.546700215288,-0.123958419902,-1.35702091861,0.0794708383232,1.89460513868,0.159101507304,-0.00222139976538,-0.013990692595,3.08626570993e-05,-0.0206857141834,-0.00268298862379,0.00428767132323,-0.00294141917693,0.573894319455,0.818914312722,0.00232495526429,0.0,0.818875603417,-0.573833810126,-0.0117580349446,0.0,-0.00829484486941,0.00865188518322,-0.999928167636,0.0,0.661557296437,0.260728227221,0.303462243564,1.0,-0.00286,-0.00375885714286,0.144
0.464913032061,0.546428030259,-0.123958020216,-1.35741651947,0.079457597545,1.89474286212,0.158966794889,-0.00422698722687,-0.0178373819211,0.0005022707198,-0.0237007125009,-0.000735281853624,0.00732860775222,-0.0116438220105,0.573835609698,0.818955415358,0.00233828981152,0.0,0.818916784966,-0.573774958942,-0.0117619170858,0.0,-0.00829099317914,0.00866443845423,-0.999928090884,0.0,0.661515038561,0.26066846326,0.303473806078,1.0,-0.00318,-0.00417942857143,0.16
0.464870248531,0.546133628646,-0.123964354563,-1.35787193422,0.0794456070951,1.89490938082,0.158935863693,-0.00159258859317,-0.020232509161,-0.000305463103049,-0.0275500141301,-0.000663911981745,0.0141566800035,-0.000876212471522,0.57387202062,0.818929869015,0.00234957118307,0.0,0.818891278442,-0.573811211122,-0.0117692388829,0.0,-0.0082901305813,0.00867824733194,-0.999927978286,0.0,0.661464773538,0.260595667953,0.303480160011,1.0,-0.00352,-0.00462628571429,0.177
0.464817461624,0.545819971865,-0.123961579734,-1.35837858603,0.0794250159199,1.89507523676,0.158894934532,-0.000947914113347,-0.0228216074678,-0.00142539572117,-0.0252029916426,7.00318552973e-06,0.0013013973726,-0.00401754425362,0.573902532197,0.818908535143,0.00233270435887,0.0,0.818869592753,-0.573841644291,-0.0117942461828,0.0,-0.00831996614488,0.00867909551751,-0.99992772312,0.0,0.661404077069,0.260514260634,0.303475363787,1.0,-0.00386,-0.00507314285714,0.194
0.464765176207,0.54545870299,-0.123964061252,-1.35900750227,0.0793389129995,1.89528947609,0.158792998135,0.000163033077238,-0.0166704961247,0.000422864336621,-0.0358022330199,-0.00408715275223,0.0155868394358,-0.00309665760341,0.573875843209,0.818927443602,0.00225955697795,0.0,0.818887949035,-0.573815651721,-0.0117843823572,0.0,-0.00835414580149,0.00861326217332,-0.99992800739,0.0,0.661330898227,0.260408930261,0.303450312369,1.0,-0.00422,-0.00554628571429,0.212
0.464711303382,0.545113137541,-0.123962299714,-1.35960189821,0.0792950471106,1.89547986823,0.158728433615,-0.000744798979848,-0.0225440033678,0.000310345207038,-0.0402585670619,-8.06666514897e-05,0.0108409382335,-0.0015161922495,0.57388725671,0.81891959236,0.00220561450106,0.0,0.81887941185,-0.573827287994,-0.0118109822647,0.0,-0.00840676485035,0.00858446979397,-0.999927813986,0.0,0.661257483782,0.260314124033,0.303428415463,1.0,-0.00452,-0.00594057142857,0.227
0.464650908202,0.544633415504,-0.123965755499,-1.36039400386,0.0792756809653,1.89575664283,0.15864041268,-0.00174731355009,-0.027806838796,-0.000207307050962,-0.0399725463429,-0.000545021561965,0.0199022094233,0.000688388373037,0.573906048593,0.818906466218,0.00218949202784,0.0,0.818865809738,-0.573845869461,-0.0118511875364,0.0,-0.0084487458141,0.00859453384388,-0.999927373704,0.0,0.661160839179,0.260200114945,0.303415060925,1.0,-0.0049,-0.00644,0.246
0.46458531757,0.544216053773,-0.123962968331,-1.36109513374,0.0792482446938,1.89600453377,0.158520412501,-0.00180021832658,-0.0260432003405,0.00143199085302,-0.0463526319365,-0.000992093408372,0.0142241439044,-0.00885961086679,0.573892841267,0.818915771677,0.00217083899978,0.0,0.818874718253,-0.573832581454,-0.0118790222428,0.0,-0.00848238383176,0.00859509648296,-0.999927084082,0.0,0.661083613466,0.260101387642,0.30340028941,1.0,-0.0052,-0.00683428571429,0.261
0.464530170463,0.543709746057,-0.123967979711,-1.36190057111,0.0792080399169,1.89629470554,0.158448581807,0.00118188671486,-0.0319384579617,0.000376800093057,-0.053826305907,-0.0049464898022,0.0172868645159,-0.00277525901164,0.573915314816,0.818900043807,0.00216253853628,0.0,0.818858795201,-0.573854997311,-0.0118938002454,0.0,-0.00849901362838,0.00859701333172,-0.999926926395,0.0,0.660981598102,0.259977875094,0.303398291604,1.0,-0.00556,-0.00730742857143,0.279
0.464448158147,0.54321306217,-0.123966164662,-1.36270123119,0.0791642244464,1.89656429866,0.158333833642,-0.00708443301245,-0.0358248930487,0.0011577874063,-0.0457381961753,-0.00646854186177,0.0175474346787,-0.00683420948311,0.573919991428,0.818896834243,0.00213663458683,0.0,0.818855152064,-0.573859681084,-0.011918610025,0.0,-0.00853414788424,0.00859008818871,-0.999926686665,0.0,0.660887458524,0.259847407897,0.303391873188,1.0,-0.00588,-0.007728,0.295
0.464377577787,0.542663874002,-0.123973625447,-1.36359908382,0.0791101360195,1.8968784032,0.158205334288,-0.00531938854023,-0.0307771087894,-0.000202126429669,-0.0589906895362,-0.000376944543676,0.0165307446971,-0.00919752555655,0.573913240935,0.818901646614,0.00210522047705,0.0,0.818859553136,-0.573853057794,-0.0119351246447,0.0,-0.00856577093364,0.00857377103655,-0.999926556312,0.0,0.66078079874,0.259709639287,0.303380431278,1.0,-0.00622,-0.00817485714286,0.312
0.464300102449,0.542069585829,-0.12397200464,-1.36452359112,0.0790624062542,1.89722102263,0.158108570032,-0.00179773028894,-0.0354354024028,-0.000945823414203,-0.0509985724718,-0.00543030624421,0.018890512882,-0.00740832078865,0.573934959682,0.818886386803,0.00212001558771,0.0,0.818844400422,-0.573874627242,-0.0119376298852,0.0,-0.00855910423779,0.00858755135662,-0.999926495147,0.0,0.660674088174,0.259572980197,0.303390314556,1.0,-0.00656,-0.00862171428571,0.329
0.464213985996,0.541496128339,-0.123980243127,-1.36543452188,0.0790055060201,1.89754805632,0.15797944905,-0.0117647005542,-0.0346795318024,-0.00146187822681,-0.0546137962281,-0.00568803285183,0.0190340661261,-0.00691961140671,0.573940856896,0.818882284716,0.00210795293994,0.0,0.818840175288,-0.573880607465,-0.0119399585451,0.0,-0.00856787217724,0.00857907176725,-0.999926492845,0.0,0.660571712345,0.259423701256,0.303390808739,1.0,-0.00688,-0.00904228571429,0.345
0.464111245079,0.540776709164,-0.123977594817,-1.36652178882,0.0789437181531,1.8979508726,0.157836043768,-0.00893938753777,-0.0433249849529,-0.00114880430734,-0.0650779636926,-0.00402762111026,0.0203966857713,-0.00700465017872,0.573949459422,0.818876170245,0.0021407324074,0.0,0.818834434883,-0.573889021401,-0.011929219021,0.0,-0.00854017478443,0.00859983979306,-0.999926551388,0.0,0.660449527065,0.259255103309,0.303416687092,1.0,-0.00724,-0.00951542857143,0.363
0.464021541481,0.540098284687,-0.123980520219,-1.36754352171,0.0788801378749,1.89833438361,0.157698770044,-0.00137520826381,-0.0457096126431,-3.4085036157e-05,-0.0644891770533,-0.00144165924925,0.0202112749429,-0.00529063806205,0.573952153721,0.818874195985,0.0021733132408,0.0,0.818832918552,-0.573891616962,-0.0119084162362,0.0,-0.00850441225722,0.00861460742795,-0.999926729071,0.0,0.660335343539,0.259097536693,0.303443172021,1.0,-0.00756,-0.009936,0.379
0.463912488345,0.539375589049,-0.123983953715,-1.36869521676,0.078810936125,1.89877674121,0.157566825058,-0.00788379358549,-0.0472689193914,0.000655967761146,-0.0654557644534,-0.00289229720903,0.025299104493,-0.00213393484302,0.573981170904,0.818853833103,0.00218228368887,0.0,0.818812698577,-0.573920620794,-0.0119009485843,0.0,-0.00849284326986,0.00861796792219,-0.999926798442,0.0,0.660209263396,0.258915143222,0.303444105093,1.0,-0.0079,-0.0103828571429,0.396
0.463801752131,0.538632799268,-0.123993121097,-1.36985892161,0.0787452630794,1.89923058024,0.157419942631,-0.0108945389572,-0.046105810178,-3.73725815356e-05,-0.0704795283908,-0.00155449880974,0.0299876406413,-0.00731272230804,0.574007252261,0.81883549602,0.00220265991083,0.0,0.818794641241,-0.573946631823,-0.0118889105647,0.0,-0.00847101583585,0.00862801313309,-0.999926896968,0.0,0.660091313358,0.258736967813,0.303450699984,1.0,-0.00822,-0.0108034285714,0.412
0.463709604755,0.537902645286,-0.124003704464,-1.37101685299,0.0786782525859,1.89967804422,0.157284548436,-0.00302966811485,-0.0427868963368,-0.00220158419861,-0.0739875919953,-0.00722275705753,0.0344000744418,-0.011720870958,0.574023039964,0.818824373149,0.0022231576315,0.0,0.818783838399,-0.573962390206,-0.0118721315619,0.0,-0.00844534441515,0.00863532884571,-0.999927050966,0.0,0.659954899892,0.258553211967,0.303458266152,1.0,-0.00856,-0.0112502857143,0.429
0.463590087559,0.536983326067,-0.124008417816,-1.37243714067,0.0785993590942,1.90019904782,0.157101063565,-0.00885309564865,-0.0504810103012,-0.000127114871331,-0.0734958300716,-0.00223048708265,0.0227106007893,-0.0110033306199,0.574031058972,0.818818697842,0.00224283329843,0.0,0.8187783618,-0.57397027153,-0.0118688057332,0.0,-0.00843124274569,0.00864961302952,-0.999927046509,0.0,0.659790236077,0.258337681212,0.303476676967,1.0,-0.00894,-0.0117497142857,0.448
0.463498134172,0.53628216356,-0.124005916544,-1.37353433231,0.0785347590667,1.9006190963,0.156969975943,-0.00790001690732,-0.0444553902118,-0.00104279570003,-0.0802610213228,-0.0066324186724,0.0339070492662,-0.0114565503241,0.574037317474,0.818814281638,0.00225327204789,0.0,0.818774070879,-0.573976477181,-0.0118647124123,0.0,-0.00842183296494,0.00865587506563,-0.999927071619,0.0,0.65965580334,0.258164325449,0.303478208937,1.0,-0.00924,-0.012144,0.463
0.463367832941,0.535290042239,-0.124011953023,-1.37509191275,0.0784501519596,1.90117384568,0.156780705918,-0.00950951690591,-0.0600811950722,-0.00152118648812,-0.0834213628644,-0.00375966704204,0.0378673925799,-0.00897497318981,0.574059129765,0.818798975286,0.00225842976505,0.0,0.81875872239,-0.573998154032,-0.0118752085867,0.0,-0.00842723635638,0.00866634783016,-0.999926935382,0.0,0.659479626202,0.2579381335,0.303492794742,1.0,-0.0096,-0.0126171428571,0.481
0.46325770585,0.534452705038,-0.124008485317,-1.37643601912,0.0783773002721,1.90166596636,0.156611382868,-0.00862570661137,-0.0547505796508,-0.00154773322,-0.091267614408,-0.00989443377768,0.0266735731765,-0.0131672967043,0.574062413542,0.818796694868,0.00225049592477,0.0,0.818756221106,-0.574001348071,-0.0118932633837,0.0,-0.00844653967717,0.00867024995109,-0.999926738683,0.0,0.659319116963,0.257740579297,0.303486342462,1.0,-0.00992,-0.0130377142857,0.497
0.463121159637,0.533475497123,-0.124012358211,-1.37799982218,0.0782918549523,1.90223861323,0.156418434772,-0.00814501983885,-0.0568198580227,0.00120177204504,-0.0875485598034,-0.0038563552635,0.0320387257737,-0.0128810594288,0.574081664296,0.818783221956,0.00224166529852,0.0,0.818742541743,-0.57402053787,-0.0119087927563,0.0,-0.00846412074278,0.00867213327497,-0.999926573687,0.0,0.659136087205,0.25750054891,0.303481023093,1.0,-0.01028,-0.0135108571429,0.515
0.463004312153,0.532650417247,-0.124009889078,-1.3793464383,0.0782022617585,1.90275587697,0.156242240784,-0.0116192732162,-0.0580433310778,0.00125636279153,-0.0941772166215,-0.00937550058765,0.0376220639654,-0.0071646035907,0.574081043171,0.818783684245,0.00223185749167,0.0,0.818742941383,-0.574020022748,-0.0119061463375,0.0,-0.00846759050259,0.00866257725851,-0.999926627141,0.0,0.658981893661,0.257296565482,0.303466591127,1.0,-0.01058,-0.0139051428571,0.53
0.462856288873,0.531559596446,-0.124012711988,-1.38108408399,0.0781024211684,1.90339380394,0.156025989761,-0.00914780897817,-0.0592642701996,0.00142599329385,-0.0921972655799,-0.00330372051593,0.0410719998226,-0.0112272896899,0.574095147207,0.818773812548,0.00222547535886,0.0,0.818732922258,-0.574034084892,-0.0119171429126,0.0,-0.00848010909456,0.00866381066389,-0.999926510367,0.0,0.658777039517,0.257032593039,0.303463823785,1.0,-0.01096,-0.0144045714286,0.549
0.462752104429,0.530743223017,-0.124013022805,-1.38243793104,0.0780227453959,1.90386768485,0.155854075511,-0.0114705343394,-0.0623638807234,0.000586012013544,-0.102573037249,-0.00362727366483,0.0320650698796,-0.0116451600064,0.574092119161,0.818776079805,0.00217180976398,0.0,0.818734404804,-0.574031188286,-0.0119547549825,0.0,-0.00854174533513,0.00864143237077,-0.999926179392,0.0,0.658608366349,0.256833079539,0.303435813679,1.0,-0.01124,-0.0147725714286,0.563
0.462578189757,0.529532482179,-0.124020931519,-1.38437872219,0.0779016398709,1.90457247286,0.15559516375,-0.0119918635801,-0.0587125557809,-0.000894166631933,-0.100081679556,-0.010190219067,0.0389998871024,-0.0179726025142,0.574100939986,0.818769964021,0.00214560594857,0.0,0.818727967922,-0.574040136401,-0.0119659201458,0.0,-0.00856583699476,0.00862647968818,-0.999926102412,0.0,0.658380554629,0.256527729418,0.303426303288,1.0,-0.01164,-0.0152982857143,0.583
0.462472708356,0.528641122526,-0.124024367181,-1.38574773872,0.0778185749392,1.9050789344,0.155394923722,-0.00878466960004,-0.066791168241,-0.000160231345634,-0.104412802076,-0.00421181625064,0.0410697432402,-0.0129271812575,0.574077629958,0.81878624494,0.00216951136177,0.0,0.81874456123,-0.574016731821,-0.0119533236544,0.0,-0.00854204562886,0.00863857766101,-0.999926201493,0.0,0.658217279891,0.256326429318,0.303446390092,1.0,-0.01192,-0.0156662857143,0.597
0.462329265098,0.527521601423,-0.124022555165,-1.38747489868,0.0777187774055,1.90575551491,0.155163554838,-0.00801612130752,-0.0700534950715,-0.000936622760001,-0.104700667154,-0.00376258634341,0.0420056875122,-0.0092384947457,0.574071213386,0.818790582184,0.00222966123706,0.0,0.818749665585,-0.574010054627,-0.0119243110273,0.0,-0.00848382893973,0.00867110503811,-0.999926415585,0.0,0.65801919674,0.256072512462,0.303471022451,1.0,-0.01226,-0.0161131428571,0.614
0.46217405931,0.52637028426,-0.124025492941,-1.38926899855,0.0775939538388,1.90642456509,0.154920863299,-0.00757857193818,-0.0655759437253,-0.000360135780348,-0.110727253638,-0.00860815645585,0.0427839626415,-0.0128871880142,0.574064867829,0.818794997757,0.00224189090959,0.0,0.818754381017,-0.574003804649,-0.0119013744904,0.0,-0.00845809483198,0.00866788586145,-0.999926661504,0.0,0.657809681132,0.255796080759,0.303485345619,1.0,-0.0126,-0.01656,0.631
0.462026566497,0.525248634413,-0.124033974948,-1.3909934431,0.0774874303248,1.90704617157,0.154682583149,-0.0128247942388,-0.0745832176112,-0.00305682487876,-0.114039992522,-0.00742752247578,0.0409248267883,-0.0167189589433,0.574060578429,0.818797967167,0.00225569454047,0.0,0.818757543355,-0.573999474284,-0.0118926709861,0.0,-0.00844308990287,0.00867414751007,-0.999926734015,0.0,0.657603994121,0.255529149104,0.303507734312,1.0,-0.01292,-0.0169805714286,0.647
0.461871238889,0.524076415121,-0.124048823157,-1.39286078893,0.0773751123288,1.90771726097,0.154413409617,-0.010369917006,-0.0716687039819,-0.00151177830041,-0.111089104709,-0.00750280890338,0.0419568911458,-0.0157457904357,0.574047895908,0.818806922967,0.00223226472349,0.0,0.818766194481,-0.573986887312,-0.011904573516,0.0,-0.0084664195344,0.00866166503517,-0.999926644959,0.0,0.657379153502,0.255239515357,0.303501907706,1.0,-0.01326,-0.0174274285714,0.664
0.461712525751,0.522878225329,-0.124046076717,-1.39479185149,0.0772503031856,1.9084549221,0.154172803069,-0.0153650946157,-0.0744432836276,0.00213086048335,-0.118602754457,-0.00305408782409,0.0474948702051,-0.0140035215309,0.574048977978,0.818806170234,0.0022301055442,0.0,0.818765467145,-0.57398803263,-0.0118993743425,0.0,-0.00846339018617,0.00865692376018,-0.999926711663,0.0,0.65715022848,0.254953195965,0.303488907632,1.0,-0.0136,-0.0178742857143,0.681
0.461554123559,0.521657320797,-0.124051305312,-1.39674792339,0.0771272213758,1.90921702615,0.153899704532,-0.0123867189789,-0.0721046328367,0.000736761210928,-0.110708769232,-0.00375198990478,0.0448223447502,-0.0146693419456,0.574030491703,0.81881908523,0.00224658827765,0.0,0.818778679102,-0.573969567406,-0.0118809612512,0.0,-0.00843904699933,0.00865965933669,-0.999926893721,0.0,0.656921883962,0.254661726528,0.303482020295,1.0,-0.01394,-0.0183211428571,0.698
0.46138860829,0.520386790914,-0.124057422672,-1.39878461587,0.0770051492015,1.90995910768,0.153629700538,-0.013166811356,-0.0758128171007,-0.000423035492103,-0.119500456815,-0.00703889084501,0.0413751934643,-0.0215386060885,0.574024991373,0.818823000921,0.00222471199998,0.0,0.818782269636,-0.573964113588,-0.0118969804479,0.0,-0.00846477935441,0.00865088539594,-0.999926752164,0.0,0.656673093939,0.254355030095,0.303469570773,1.0,-0.01428,-0.018768,0.715
0.461228621081,0.519131986737,-0.124057343751,-1.40071686287,0.0768827593093,1.91065691787,0.153363395816,-0.0108019954563,-0.0783652073337,0.000993032743259,-0.118461021802,-0.00270573170193,0.0430334148913,-0.0195191254914,0.57400747093,0.81883524062,0.00224029810334,0.0,0.818794702874,-0.573946523535,-0.0118898935181,0.0,-0.0084502152046,0.00865939864811,-0.99992680166,0.0,0.656436236347,0.254064772545,0.303491330586,1.0,-0.0146,-0.0191885714286,0.731
0.461058052173,0.517770626091,-0.124065259438,-1.40283945395,0.0767470191594,1.91141323326,0.15308061986,-0.0104513569853,-0.0825061516882,-0.00150764217936,-0.128392378259,-0.00745141832111,0.0475827699252,-0.0174885681678,0.573996952669,0.81884263787,0.00223150938682,0.0,0.818802005559,-0.573936061966,-0.0118919875609,0.0,-0.00845708557931,0.00865329558527,-0.99992679641,0.0,0.656173375222,0.25374359206,0.303502239407,1.0,-0.01494,-0.0196354285714,0.748
0.460870223354,0.516425376917,-0.124069855049,-1.40497818797,0.0766144148533,1.91220167939,0.15278349498,-0.00647682726,-0.0792682208728,-0.00097348203094,-0.119373862197,-0.0158817387053,0.0447096033873,-0.0178567203672,0.573988096786,0.818848866081,0.00222399801982,0.0,0.818808134838,-0.573927236037,-0.0118959219641,0.0,-0.00846471214675,0.00864931180422,-0.999926766345,0.0,0.655915355829,0.253413606371,0.303496467516,1.0,-0.01528,-0.0200822857143,0.765
0.46069088818,0.515051829519,-0.12407299226,-1.40715787252,0.0764836700701,1.91302330253,0.152486204245,-0.00719198503494,-0.0794086718152,0.000292742267552,-0.125330225106,-0.00354215818598,0.0479476538244,-0.025414035421,0.573973600216,0.818858995009,0.00223594488172,0.0,0.818818397592,-0.573912671364,-0.0118921955347,0.0,-0.00845495696801,0.00865680576101,-0.999926784028,0.0,0.655651609767,0.253088137826,0.303493473669,1.0,-0.01562,-0.0205291428571,0.782
0.460498161647,0.513642309196,-0.124074047083,-1.40941928843,0.0763480840816,1.91380854034,0.152182802013,-0.0139617353425,-0.0769096685581,0.000882411377813,-0.134744239418,-0.00595295741835,0.0439659583248,-0.0161484959356,0.573965804221,0.81886460745,0.00218108948899,0.0,0.818823157583,-0.57390495687,-0.0119366656784,0.0,-0.00852293907889,0.00863733079355,-0.999926375303,0.0,0.655364439227,0.252742765797,0.303473147388,1.0,-0.01596,-0.020976,0.799
0.460292632146,0.512159157337,-0.124079146779,-1.41181308932,0.0761998090328,1.9146655692,0.151832548035,-0.0163117294566,-0.0834862805664,-0.000104178814908,-0.134257074527,-0.00338928812771,0.0447471935317,-0.0248590575464,0.573936274345,0.818885431905,0.00213291020097,0.0,0.818843300486,-0.573875574304,-0.011967513024,0.0,-0.0085761621227,0.00861527493754,-0.999926110511,0.0,0.655065962755,0.252374779254,0.30344729849,1.0,-0.01632,-0.0214491428571,0.817
0.460125287857,0.510890513558,-0.124080236617,-1.4138379441,0.0760739191344,1.91544789808,0.151545268847,-0.011708964305,-0.0816483366329,0.000223762364574,-0.131288140935,-0.0110184436922,0.0542761336344,-0.0206338822616,0.573912877704,0.818901813343,0.00213911447343,0.0,0.8188597778,-0.573852170056,-0.011962362796,0.0,-0.00856863007561,0.00861715476572,-0.999926158885,0.0,0.654804948539,0.252050206959,0.303429168957,1.0,-0.01664,-0.0218697142857,0.833
0.459876131411,0.509058091511,-0.124088230498,-1.41676385621,0.0758933351064,1.91651969245,0.151151006842,-0.0104662833633,-0.0909192990791,-0.000561126161992,-0.141123312656,-0.00839130563718,0.0546950828222,-0.0141342253905,0.573901453661,0.81890984643,0.00212880396294,0.0,0.818867670329,-0.573840783874,-0.0119682978875,0.0,-0.00857952763281,0.00861199810488,-0.999926109867,0.0,0.654460239195,0.2516263449,0.303422826134,1.0,-0.01704,-0.0223954285714,0.853
0.459713871152,0.507892356702,-0.124091096179,-1.41858953695,0.07576796434,1.91716640148,0.150896686935,-0.0109626647229,-0.0876172289583,-0.00693403593669,-0.135955903523,-0.0127246235703,0.0451749336653,-0.0178604756215,0.573888677095,0.818918848115,0.00211030944287,0.0,0.818876489279,-0.573828144073,-0.0119709347019,0.0,-0.00859243453692,0.00859823221016,-0.999926117506,0.0,0.654231708102,0.251340904622,0.303425465882,1.0,-0.0173,-0.0227371428571,0.866
0.459484840254,0.506235909974,-0.124103182179,-1.42116152675,0.0756151598615,1.91812300097,0.150538057103,-0.0141068743636,-0.100610377574,-0.000912035546515,-0.141182345154,-0.00804958424888,0.0556861585226,-0.0196711378958,0.573883122344,0.818922651326,0.00214474575695,0.0,0.818880719425,-0.573822425667,-0.0119556705337,0.0,-0.0085602310101,0.0086176143998,-0.999926226862,0.0,0.653918909364,0.250940875695,0.303442799744,1.0,-0.01766,-0.0232102857143,0.884
0.459292278324,0.504819744892,-0.124107481253,-1.42332723447,0.0754770932414,1.91896309723,0.15024209799,-0.0136792441705,-0.0988875854215,-0.000869459694161,-0.144609635214,-0.010071366356,0.056658942961,-0.0262657608741,0.573877724781,0.818926209938,0.00222858215001,0.0,0.818885495193,-0.573816815433,-0.0118976884416,0.0,-0.00846469396183,0.00865293856638,-0.999926735121,0.0,0.653644904588,0.250582573769,0.303481724613,1.0,-0.01798,-0.0236308571429,0.9
0.45906266611,0.503152114546,-0.124116031637,-1.42579612209,0.075329002891,1.9199003979,0.149888291419,-0.0138501251239,-0.102276636869,-0.00177302321783,-0.146078035686,-0.000679096565258,0.0628076026795,-0.0189016823648,0.5738674929,0.81893308883,0.00233313388894,0.0,0.818893724909,-0.573806162557,-0.0118449152499,0.0,-0.00836158741543,0.00870816817831,-0.999927123176,0.0,0.653366644444,0.250222450305,0.303545746922,1.0,-0.0183,-0.0240514285714,0.916
0.458793099112,0.501138626253,-0.124119565683,-1.42878797439,0.0751303862356,1.92097711916,0.149463320453,-0.0154631452638,-0.10916576227,4.58338150518e-05,-0.148672321593,-0.00906705803142,0.0530954110507,-0.0227453416691,0.573841713263,0.818950926551,0.00241141494717,0.0,0.818912649043,-0.573780157953,-0.0117962060875,0.0,-0.00827705121477,0.00874406166388,-0.999927513277,0.0,0.652993513558,0.249756981373,0.303620557064,1.0,-0.0187,-0.0245771428571,0.936
0.458589743531,0.49973723042,-0.124113914197,-1.43093660625,0.0749903580497,1.92173232759,0.14916605645,-0.0148716388382,-0.104192025018,0.000610818883577,-0.153671747698,-0.0105288606814,0.0544173421839,-0.0208643753761,0.573832113613,0.818957635685,0.00241727970988,0.0,0.818919385996,-0.573770486156,-0.0117989557988,0.0,-0.00827604052967,0.00875034543153,-0.999927466673,0.0,0.652720243611,0.249419855864,0.303640843866,1.0,-0.01898,-0.0249451428571,0.95
0.458324852977,0.497967198673,-0.124119203914,-1.43372905571,0.0748190627446,1.92277882749,0.148765960715,-0.0166017686821,-0.105234395549,0.000330971006972,-0.154863716201,-0.0126078849845,0.0570068918849,-0.0277970220789,0.573821028421,0.818965348942,0.00243546220095,0.0,0.818927319483,-0.573759316663,-0.0117914735431,0.0,-0.00825959813944,0.00876083068016,-0.999927510815,0.0,0.652377973178,0.24897937513,0.303636949148,1.0,-0.01934,-0.0254182857143,0.968
0.458080577814,0.496394436381,-0.124114650353,-1.43625664849,0.0746627050277,1.92366386158,0.1483908222,-0.0188822430155,-0.0993537500733,-0.000176282851051,-0.162531031199,-0.00754344667361,0.0585921435908,-0.0230409804937,0.57379611219,0.818982975777,0.00237779828612,0.0,0.818944046395,-0.573734464951,-0.0118388978809,0.0,-0.00833179140176,0.00874056560959,-0.999927089224,0.0,0.652052847917,0.248578632353,0.303606689853,1.0,-0.01966,-0.0258388571429,0.984
0.457828470421,0.494838741852,-0.124117412818,-1.43882961008,0.0745096555438,1.92454837552,0.148018514399,-0.0147571262621,-0.0987024639735,-0.000371990282262,-0.163575533387,-0.0063520663319,0.0593716513584,-0.0287042399967,0.573787985985,0.818988980818,0.00226789320048,0.0,0.818948407351,-0.573726550505,-0.0119204968001,0.0,-0.00846176789759,0.00869729282529,-0.99992637508,0.0,0.651718446402,0.248163543596,0.303542679821,1.0,-0.01998,-0.0262594285714,1.0
0.457513771,0.49283184575,-0.12413334485,-1.44202931686,0.0742980651594,1.9257228376,0.147575661948,-0.0178150113698,-0.109498846315,0.000377797952189,-0.17636277233,-0.0105255675816,0.0715159906318,-0.0229159229706,0.57379789447,0.818982116363,0.00223970565712,0.0,0.818941285731,-0.573736683868,-0.0119220389028,0.0,-0.00847909860431,0.00867519527509,-0.99992642023,0.0,0.651322008725,0.247641915431,0.303519269847,1.0,-0.0229525714286,-0.0301662367347,1.019
0.457215571773,0.490779419654,-0.124134933657,-1.44529000241,0.0741086143183,1.92690563914,0.147099667232,-0.0172024732376,-0.129341736179,0.00203962464894,-0.2027145472,-0.0149853645937,0.0660499393844,-0.0295097711869,0.5737654742,0.819004871585,0.00222437346165,0.0,0.818963629104,-0.573704113243,-0.0119545620795,0.0,-0.00851487631421,0.00868096307849,-0.999926066148,0.0,0.65090331602,0.247137095261,0.303497891394,1.0,-0.02576,-0.033856,1.036
0.456873071058,0.488663150808,-0.124148320255,-1.44870934949,0.0739005341518,1.92811490816,0.146605785371,-0.0224942534343,-0.138128934666,-0.000404901836786,-0.220549249976,-0.0145193547413,0.0774744112979,-0.0345338996385,0.573764966037,0.819005441912,0.00214400760169,0.0,0.818963002656,-0.573703786806,-0.0120130007404,0.0,-0.00860885344714,0.00864866837867,-0.999925541317,0.0,0.650465553032,0.246577670362,0.303447134871,1.0,-0.0284022857143,-0.0373287183673,1.052
0.456470830324,0.486084184795,-0.124176238894,-1.45264246589,0.0736608938819,1.92964571854,0.146034403507,-0.0244409460747,-0.164129463403,-0.0012497197355,-0.234929094647,-0.0185915751784,0.0961794559933,-0.031051319363,0.573777082846,0.818996563918,0.00228787934228,0.0,0.818956149343,-0.573715464175,-0.0119221860812,0.0,-0.00845180039942,0.00871451778861,-0.99992630941,0.0,0.649996179936,0.245932762505,0.30350014835,1.0,-0.0312097142857,-0.0410184816327,1.069
0.455995641917,0.483139973693,-0.124216862653,-1.45718575824,0.0733728908521,1.9312592306,0.14533390323,-0.029125280746,-0.171906428861,-0.00662401371106,-0.256477246345,-0.0194576195558,0.090438458638,-0.0375694152413,0.57376701957,0.819003602465,0.00229200864268,0.0,0.818963282693,-0.573705427965,-0.0119151342568,0.0,-0.0084437626495,0.00871374975894,-0.999926384009,0.0,0.649423667649,0.245164082958,0.303522160209,1.0,-0.0341822857143,-0.0449252897959,1.087
0.455565368981,0.480466122659,-0.124264998263,-1.46136123196,0.0731222292115,1.93271625628,0.1447213235,-0.0298734511867,-0.1769801066,-0.00267362165507,-0.284356267429,-0.0165521399811,0.106838203009,-0.042817592676,0.573788635514,0.818988568578,0.00225237526033,0.0,0.818947639851,-0.573727105462,-0.0119464865667,0.0,-0.0084919506906,0.00869950312217,-0.999926099979,0.0,0.648888328418,0.244455984225,0.303516626276,1.0,-0.0366594285714,-0.0481809632653,1.102
0.455021939208,0.477203848462,-0.124300858072,-1.46633204408,0.0728081350881,1.93454018615,0.143983877699,-0.0348640944753,-0.20088941867,-0.0009598998226,-0.296321266072,-0.0222199931815,0.10166138429,-0.0488987163398,0.573819883127,0.818966401306,0.0023499278975,0.0,0.818926760507,-0.573757976865,-0.0118950329956,0.0,-0.00839350409055,0.0087501937522,-0.999926488897,0.0,0.648231585231,0.243559888271,0.303572153829,1.0,-0.039632,-0.0520877714286,1.12
0.454396921624,0.473528081413,-0.124330302445,-1.47197198289,0.072469439771,1.93662612644,0.143176481412,-0.0361185478869,-0.20345073038,-0.00322696309987,-0.319893312814,-0.0207651872849,0.116026160939,-0.048962259268,0.573864309379,0.818934983528,0.00244828015725,0.0,0.818896610356,-0.573802001959,-0.0118469825813,0.0,-0.00829724017707,0.00880361829614,-0.999926823378,0.0,0.64756572025,0.242656119099,0.303609915532,1.0,-0.0424394285714,-0.0557775346939,1.137
0.453838346099,0.470269702966,-0.1243482745,-1.47698636615,0.0721618887646,1.9383673289,0.142425511559,-0.0431060904822,-0.222004783191,-0.000328857476079,-0.336341274959,-0.012164515436,0.118554597426,-0.0501232606262,0.573875613451,0.818927081043,0.0024419502942,0.0,0.818888373284,-0.573813061686,-0.0118806245923,0.0,-0.00832830258919,0.00881785520119,-0.999926439697,0.0,0.64691042648,0.241802954522,0.303626423102,1.0,-0.0449165714286,-0.0590332081633,1.152
0.453144495463,0.466084961931,-0.124359514396,-1.48325401816,0.0717576390114,1.94073798241,0.141401458177,-0.0364535894962,-0.233849970183,-0.00452615903034,-0.354048435403,-0.0292253169567,0.133166746675,-0.053910924954,0.573800573408,0.818978915836,0.00268034967159,0.0,0.818943453119,-0.573737297082,-0.011742292399,0.0,-0.0080790288689,0.00893296091448,-0.99992746312,0.0,0.646124477862,0.240757812166,0.303736922207,1.0,-0.0478891428571,-0.0629400163265,1.17
0.452438901299,0.461976972319,-0.124367008792,-1.48966708908,0.0713305506962,1.94293456899,0.140445773848,-0.0413843409766,-0.240287349905,-0.000998275122841,-0.388133321059,-0.0294505114241,0.134945915152,-0.0593855894897,0.573784534768,0.818990468939,0.00258192748409,0.0,0.818953531861,-0.573721407403,-0.011815508492,0.0,-0.00819563956206,0.00889420591622,-0.999926859622,0.0,0.645261275731,0.23967559995,0.303706522621,1.0,-0.0506965714286,-0.0666297795918,1.187
0.451737643348,0.457910925167,-0.124379873743,-1.49594237284,0.0709115528287,1.94512633686,0.139506025594,-0.0400276035016,-0.258310802969,-0.00100334036052,-0.397383286487,-0.0176804736689,0.143689277046,-0.0582393103255,0.573774803933,0.818997358574,0.00255889078952,0.0,0.818960034838,-0.5737116701,-0.0118375601739,0.0,-0.00822702340165,0.00888789417749,-0.999926658022,0.0,0.644423147458,0.238610716312,0.303708482697,1.0,-0.0533388571429,-0.0701024979592,1.203
0.450927190992,0.453458726763,-0.124397251201,-1.50292395433,0.0704412617894,1.94761347061,0.138396253851,-0.0448793086602,-0.275894377324,-0.00442696639387,-0.40937670496,-0.0279601054168,0.15169306047,-0.0589316452324,0.573734105609,0.819026026326,0.00250821899321,0.0,0.818988025788,-0.573671151002,-0.011864696572,0.0,-0.00827876180194,0.00886155300991,-0.999926464787,0.0,0.643498435129,0.237407641687,0.3036615936,1.0,-0.0561462857143,-0.0737922612245,1.22
0.450074386846,0.448654849829,-0.124457171023,-1.51009383431,0.0699431700746,1.95029345131,0.137286859486,-0.0504203528152,-0.282318912602,-0.00744268537275,-0.431166698074,-0.0212990895139,0.149013543783,-0.0659101856901,0.573756702131,0.819009448308,0.00274175909488,0.0,0.818975045256,-0.573693506129,-0.0116783206925,0.0,-0.00799187946785,0.00894611928628,-0.999928045817,0.0,0.642585894479,0.236144336643,0.303778518042,1.0,-0.0589537142857,-0.0774820244898,1.237
0.449172976149,0.443717247235,-0.124478209202,-1.5177589062,0.0694288048718,1.952811253,0.136146568686,-0.0543899023866,-0.290569209739,-0.00299046298386,-0.451816580154,-0.0396922746066,0.154717679003,-0.0710635915558,0.573777677022,0.818995338152,0.00256131549477,0.0,0.818958203929,-0.57371470446,-0.0118171487338,0.0,-0.00820888340755,0.00887819741959,-0.99992689325,0.0,0.641512389062,0.234805824351,0.303731317183,1.0,-0.0617611428571,-0.0811717877551,1.254
0.448329082919,0.439203085171,-0.124485371051,-1.52478196457,0.068935893442,1.95521316782,0.134994125024,-0.0549540612155,-0.302843015924,-0.00127206452372,-0.47291908682,-0.0301680626318,0.163483239643,-0.077087112286,0.573704436283,0.819046967898,0.0024558230137,0.0,0.819008358511,-0.5736417655,-0.011881938551,0.0,-0.00832326334227,0.00882823040441,-0.999926390108,0.0,0.64054107716,0.233579423142,0.303684176939,1.0,-0.0642382857143,-0.0844274612245,1.269
0.447316473615,0.433834098214,-0.124503117166,-1.53280832184,0.0684069858666,1.95814689414,0.133695677953,-0.06001637183,-0.315869811884,7.31114179241e-05,-0.472699058523,-0.0358207117073,0.178388290523,-0.0744433296123,0.573689355188,0.819056807787,0.00268631020252,0.0,0.819021224816,-0.573625853121,-0.0117626881736,0.0,-0.00809352867027,0.00894844635119,-0.999927207401,0.0,0.639475293517,0.232163412105,0.303783240034,1.0,-0.0670457142857,-0.0881172244898,1.286
0.446211476005,0.428372215446,-0.124548719802,-1.54121679117,0.0677942133155,1.96107451619,0.132358979,-0.0638991666425,-0.321711040286,-0.00314390962344,-0.500730933086,-0.0371126990274,0.167145972831,-0.0809801179996,0.573724796399,0.819032157167,0.00263256998035,0.0,0.818996159667,-0.573661797025,-0.0117549983268,0.0,-0.00811767310176,0.00890037008541,-0.999927440765,0.0,0.638331596845,0.230618120432,0.303757633228,1.0,-0.0698531428571,-0.0918069877551,1.303
0.445071860633,0.422651722157,-0.124658604556,-1.55001196424,0.0671551055427,1.96394144762,0.130889704275,-0.0730551261408,-0.342684875419,-0.000452908276522,-0.530453567963,-0.0380352904698,0.176786803808,-0.0884485520128,0.573730177475,0.819029047643,0.00241856821893,0.0,0.818990427392,-0.573668148817,-0.0118440607393,0.0,-0.00831333429206,0.00877624825927,-0.9999269303,0.0,0.637091877178,0.22896652605,0.303712930095,1.0,-0.0726605714286,-0.0954967510204,1.32
0.44393747672,0.417065520271,-0.124693240359,-1.55836259599,0.0665702816584,1.9669044309,0.129557518469,-0.0701783030376,-0.357139836375,0.000902082488644,-0.517732830212,-0.0314207911428,0.197455952615,-0.0896656043626,0.573780381678,0.818993421174,0.00256838021608,0.0,0.818956900635,-0.573717948047,-0.0117498039245,0.0,-0.00814964319278,0.00884536998265,-0.999927668757,0.0,0.635950363958,0.227429679489,0.303786267692,1.0,-0.0753028571429,-0.0989694693877,1.336
0.442657989282,0.410995123016,-0.124701191751,-1.56747264469,0.0659563199143,1.97016427015,0.127981563289,-0.0770930290532,-0.356344117525,-0.00314030406594,-0.543278631776,-0.0313702070284,0.182937305038,-0.0954210869292,0.573748514407,0.819015140696,0.00275471007007,0.0,0.818980903985,-0.573685272554,-0.0116719263502,0.0,-0.00797930143083,0.00895297771966,-0.999928084883,0.0,0.634697467795,0.225752611061,0.303843219257,1.0,-0.0781102857143,-0.102659232653,1.353
0.441333079144,0.404799184438,-0.124778232983,-1.57704460662,0.0652517406738,1.9732836404,0.126457086955,-0.0808527654337,-0.364222327496,-0.0120932643395,-0.567022683038,-0.0383390608689,0.192544240572,-0.0875952839667,0.573830573723,0.818958455799,0.00250344497535,0.0,0.818920927555,-0.573768197328,-0.0118032643222,0.0,-0.00823014446784,0.00882336729625,-0.999927203806,0.0,0.63331124686,0.223936038513,0.303746706316,1.0,-0.0809177142857,-0.106348995918,1.37
0.440005982827,0.398699418216,-0.124838746387,-1.5860921215,0.0646272516962,1.97647428707,0.124892370982,-0.0879228206574,-0.393544021039,-0.00828519963827,-0.564227595709,-0.0400962976343,0.2071330023,-0.0949889812752,0.573866770014,0.818932476118,0.00269754232767,0.0,0.818897545004,-0.57380376577,-0.0116959854524,0.0,-0.00803051699355,0.00892111994256,-0.999927959613,0.0,0.632052935586,0.222207236628,0.303829855368,1.0,-0.08356,-0.109821714286,1.386
0.438526380002,0.392087768022,-0.124864871068,-1.59601869106,0.0638650311212,1.97983053024,0.123202075341,-0.0859289562837,-0.38848148334,-0.000574641537021,-0.596016159393,-0.0448743637087,0.190025059185,-0.0959373632886,0.573883638729,0.818920672274,0.00269232678809,0.0,0.818885923098,-0.573820927938,-0.0116676695949,0.0,-0.00801013659265,0.00890076455707,-0.999928304481,0.0,0.630624102264,0.220302690533,0.303843047163,1.0,-0.0863674285714,-0.113511477551,1.403
0.437018127936,0.385358160989,-0.124930352358,-1.60632499572,0.0630973531227,1.98311641425,0.121394998408,-0.0913660336434,-0.397586039809,-0.0015960505604,-0.60982081163,-0.0413580414916,0.196005121088,-0.104309771935,0.573863075922,0.818935926038,0.00242199060644,0.0,0.818897411398,-0.573801081771,-0.0118361761127,0.0,-0.0083034888835,0.00877587523204,-0.99992701538,0.0,0.629078435832,0.21831554203,0.303739663302,1.0,-0.0891748571428,-0.117201240816,1.42
0.435446940822,0.378336424797,-0.124934486822,-1.61653748274,0.0623784768588,1.98668092763,0.119579260356,-0.0981286736808,-0.406268796804,0.000195291385352,-0.612254654807,-0.0403599947734,0.210602131547,-0.113878112616,0.573845603576,0.818947165795,0.0027404003806,0.0,0.818912663643,-0.573782309716,-0.0116900506012,0.0,-0.00800129459768,0.00895260508361,-0.999927912475,0.0,0.627601518381,0.216369320084,0.303884900199,1.0,-0.0919822857143,-0.120891004082,1.437
0.433758839122,0.371243608641,-0.124958962959,-1.62721871291,0.0615515705322,1.99015151633,0.117679982764,-0.0992890643237,-0.418655302415,-0.0014517643171,-0.630762868065,-0.0527370879474,0.197282485185,-0.114211962008,0.573843922296,0.818948771347,0.00260953139257,0.0,0.818912498856,-0.57378101821,-0.0117647464796,0.0,-0.00813758176886,0.00888827726508,-0.999927386509,0.0,0.625994783471,0.214270257095,0.303836187872,1.0,-0.0947897142857,-0.124580767347,1.454
0.432153906275,0.364356201578,-0.125045987836,-1.63735849764,0.0607656979055,1.99347553846,0.115913513816,-0.0990812511416,-0.438150680812,-0.00376957828122,-0.629227658306,-0.0528006864629,0.222141538329,-0.116559841159,0.57391380723,0.818899727954,0.00263141174472,0.0,0.818863988691,-0.573851087682,-0.011723655239,0.0,-0.00809061536342,0.00888330696123,-0.999927811795,0.0,0.624473453207,0.212248156938,0.303883561769,1.0,-0.097432,-0.128053485714,1.47
0.430371155422,0.356939790147,-0.125047192397,-1.64836012066,0.0599376844937,1.99711580007,0.113837807407,-0.109226239695,-0.439567135733,0.00152490584921,-0.646960478301,-0.0436279669344,0.20424133466,-0.12745340542,0.573821265068,0.818964459941,0.00266758494866,0.0,0.818928931913,-0.573758142946,-0.0117364722321,0.0,-0.00808136064816,0.00891937156202,-0.999927565587,0.0,0.622795399414,0.210095799703,0.303885198176,1.0,-0.100239428571,-0.13174324898,1.487
0.42821991453,0.348489883785,-0.125102923767,-1.66096263921,0.0589799467713,2.0011490757,0.11148346305,-0.11089201317,-0.442700124947,-0.00361565820679,-0.655610747301,-0.0568344435916,0.218686328119,-0.12260684361,0.573849352309,0.818945151988,0.00255064525542,0.0,0.818907728727,-0.573786248392,-0.0118414478808,0.0,-0.00823412969493,0.00888412135657,-0.999926633057,0.0,0.62085082945,0.207529857704,0.303829640363,1.0,-0.103377142857,-0.135867102041,1.506
0.426265290113,0.340657276724,-0.125144761148,-1.67222698875,0.0581065409584,2.00497675698,0.109375197396,-0.118692680631,-0.453826895664,-0.00202373631338,-0.677999214319,-0.0509728808818,0.21563538214,-0.129699817096,0.573874901694,0.818926241546,0.00285569860946,0.0,0.818893106031,-0.573811060667,-0.0116487961744,0.0,-0.00790102554083,0.00902363739661,-0.999928071295,0.0,0.61914580198,0.205244393061,0.303965352536,1.0,-0.106184571429,-0.139556865306,1.523
0.424341462544,0.333239005817,-0.125144818828,-1.68329857555,0.0572163397055,2.00835337385,0.107252200646,-0.120582454447,-0.461494702951,-0.000223848231329,-0.702125965014,-0.0576733854101,0.20778436968,-0.132563360879,0.573805745133,0.818975533658,0.00260557523973,0.0,0.818938638472,-0.573742237691,-0.0118363004347,0.0,-0.0081988697502,0.00892571527751,-0.999926552374,0.0,0.61735508042,0.202999053013,0.303867668516,1.0,-0.108826857143,-0.143029583673,1.539
0.422237791465,0.325093363323,-0.125154923606,-1.69494244576,0.0562459710267,2.01218158262,0.104941741674,-0.130463083616,-0.477301543164,0.00105319952339,-0.681218803143,-0.0475558321356,0.229577413966,-0.137908291162,0.573714949346,0.819038329042,0.00284944877778,0.0,0.819005040046,-0.573651067686,-0.0116594949625,0.0,-0.00791513632874,0.00902311319504,-0.999927964428,0.0,0.615422183069,0.200466832985,0.303996622381,1.0,-0.111799428571,-0.146936391837,1.557
0.420289488357,0.317867552637,-0.125165075075,-1.70551378411,0.0554026200276,2.01552518118,0.102931830096,-0.131975511202,-0.49335946915,0.000330170900589,-0.699934248419,-0.0584899952698,0.2203093203,-0.131268663444,0.573750108745,0.81901380028,0.00282038419633,0.0,0.818979913512,-0.573686072067,-0.0117020887958,0.0,-0.00796631046071,0.00902408646594,-0.999927549256,0.0,0.613830056313,0.198415925311,0.303976364171,1.0,-0.114111428571,-0.149975020408,1.571
0.417737893443,0.308482538211,-0.125258600175,-1.71899503242,0.054254514182,2.01976062113,0.100138532242,-0.135204953516,-0.506262745106,-0.00500843083861,-0.715524515469,-0.0727205588475,0.232135148381,-0.146171662772,0.573676619504,0.819065084625,0.00287581006202,0.0,0.819032364805,-0.573612913649,-0.0116171252155,0.0,-0.00786573129864,0.00902002830129,-0.999928382116,0.0,0.611659218003,0.195535890433,0.304040165496,1.0,-0.117249142857,-0.154098873469,1.59
0.415621828604,0.301008402948,-0.125280220497,-1.72987546332,0.0533732842411,2.02310550348,0.0978980204569,-0.143199056087,-0.509115069974,-0.00128662986923,-0.744301148286,-0.0587450941622,0.220024322826,-0.154556933691,0.573638023468,0.819092328309,0.00281471825983,0.0,0.819058419514,-0.573574079407,-0.0116973397199,0.0,-0.00796690517917,0.00901563110489,-0.999927620789,0.0,0.609863342358,0.193221058689,0.304003541219,1.0,-0.119726285714,-0.157354546939,1.605
0.413084920954,0.292352181978,-0.12536220934,-1.74229467146,0.0523879751338,2.02684069316,0.0953893079302,-0.150640322241,-0.52395440167,-0.00668804180055,-0.716023763851,-0.0536492268997,0.238544411496,-0.156455735433,0.573772715618,0.818998053452,0.00279394987039,0.0,0.818963291188,-0.573708169127,-0.0117818192735,0.0,-0.00804653010697,0.00904840303054,-0.999926687191,0.0,0.607805568861,0.190483560623,0.30401704524,1.0,-0.122533714286,-0.161044310204,1.622
0.410212405089,0.282560443758,-0.125446846566,-1.75629300221,0.0511982107467,2.03119535482,0.09239559069,-0.152832558732,-0.520712820953,-0.00050717235675,-0.730468867516,-0.0624004058992,0.218481007762,-0.169300309517,0.573749452805,0.819014071177,0.00287463404924,0.0,0.818980531685,-0.573684820952,-0.0117201463926,0.0,-0.00794998395378,0.00907887169801,-0.999927183271,0.0,0.605484854753,0.187408671726,0.30404268062,1.0,-0.125671428571,-0.165168163265,1.641
0.40779929966,0.274676732379,-0.125479764845,-1.76757347767,0.0502016802668,2.03450551307,0.0899851648426,-0.163298949437,-0.530095110958,-0.00611612929074,-0.728261710528,-0.0578441893091,0.228924019767,-0.161916103726,0.573757663269,0.819008687349,0.00276781275405,0.0,0.818973632388,-0.57369326603,-0.01178867537,0.0,-0.00806730732237,0.00903078236881,-0.999926679073,0.0,0.603559801721,0.184889345042,0.304022393693,1.0,-0.128148571429,-0.168423836735,1.656
0.404655587979,0.264541453581,-0.12563451838,-1.78185874435,0.0489363975271,2.03890103382,0.0868361960905,-0.166602612382,-0.532762879542,-0.00720135962927,-0.758829946446,-0.0640631365033,0.224210304722,-0.167197951969,0.573833837932,0.818954840108,0.00290572017521,0.0,0.81892219235,-0.573769648446,-0.011643895421,0.0,-0.00786876196736,0.00906139439406,-0.999927984265,0.0,0.601168349919,0.181610246404,0.304087244929,1.0,-0.131286285714,-0.172547689796,1.675
0.40203970342,0.25645422654,-0.125757027789,-1.79336164149,0.047900318242,2.04218874479,0.0843050562555,-0.177042293602,-0.550497809053,-0.0109610992797,-0.769397215079,-0.0690498300997,0.226090586341,-0.1783477286,0.573945789924,0.81887690333,0.00275577982451,0.0,0.818842281386,-0.573882071357,-0.0117231945532,0.0,-0.00801851500023,0.00898520018971,-0.999927482168,0.0,0.599175408183,0.178919243309,0.304051321687,1.0,-0.133763428571,-0.175803363265,1.69
0.399212684816,0.247677135743,-0.125775272465,-1.80564267938,0.0467628046267,2.04586221259,0.0815119724637,-0.176078563305,-0.544194189729,-0.00180441660882,-0.778511059378,-0.0781949791392,0.23332545399,-0.188023529385,0.573905744661,0.818904668407,0.00284380161268,0.0,0.818871535851,-0.573842119408,-0.011635147987,0.0,-0.00789633588851,0.0090063598643,-0.999928264108,0.0,0.597043270866,0.17611357477,0.304093938519,1.0,-0.136405714286,-0.179276081633,1.706
0.395946836098,0.237680421262,-0.125785308224,-1.8196557408,0.045576773973,2.04985421408,0.0782592492558,-0.180498572449,-0.569856161391,-0.00191516071392,-0.788228857059,-0.0640682174392,0.223077451184,-0.18166107281,0.573855401152,0.818939937169,0.00284688937012,0.0,0.818905861167,-0.573790652475,-0.0117568950065,0.0,-0.00799482627389,0.0090782668763,-0.999926831235,0.0,0.594534140702,0.172920410955,0.304088409028,1.0,-0.139378285714,-0.183182889796,1.724
0.393166479361,0.229226867225,-0.125786569938,-1.83131077956,0.0445009631128,2.05331055007,0.0755481152677,-0.185653076195,-0.554234044646,-0.000218399231449,-0.79667259089,-0.073829690614,0.216699875944,-0.185490086013,0.573808612697,0.818972087784,0.00302362808379,0.0,0.81894053967,-0.573743532686,-0.0116403645269,0.0,-0.00779849672609,0.00915568931058,-0.999927675786,0.0,0.592462648613,0.170243768439,0.304159759639,1.0,-0.141855428571,-0.186438563265,1.739
0.389648935304,0.218964635567,-0.125807907597,-1.84564279224,0.0431408149133,2.05720169286,0.0720884805391,-0.200493885093,-0.580841838988,-0.00371734410952,-0.777465504667,-0.0786408644585,0.219645281999,-0.197173602808,0.573711439814,0.819040824916,0.00283863493348,0.0,0.819006486531,-0.573646563608,-0.0117788786508,0.0,-0.00801916370556,0.00908271272392,-0.999926595977,0.0,0.589823081588,0.166879750724,0.304108581252,1.0,-0.144828,-0.190345371429,1.757
0.386196208444,0.209104335176,-0.125906131768,-1.85908732206,0.041916061455,2.06105987335,0.0687843850651,-0.203941632226,-0.574484377605,-0.00745491505293,-0.809227820275,-0.0744621424496,0.226028216284,-0.195685674882,0.573763615945,0.819003534517,0.00304472781902,0.0,0.818971923668,-0.573698075986,-0.0116727355036,0.0,-0.00781340757554,0.00919111448691,-0.999927234391,0.0,0.587394962312,0.163632226452,0.304194965781,1.0,-0.147635428571,-0.194035134694,1.774
0.382616748385,0.199163825691,-0.125976476187,-1.87279017152,0.0406010263912,2.06466826538,0.0653220222232,-0.215258457325,-0.604076659896,-0.00336172997728,-0.819537910446,-0.0717771454923,0.222426339843,-0.20370197426,0.573720362779,0.819034394486,0.00289013530154,0.0,0.819000329132,-0.57365484961,-0.011803444499,0.0,-0.00800964109676,0.00913907417872,-0.99992615876,0.0,0.58482048726,0.160302095114,0.304160535274,1.0,-0.150442857143,-0.197724897959,1.791
0.379333236234,0.190309532599,-0.12610098981,-1.88486812583,0.0394572068775,2.06803984333,0.0622505074352,-0.222342017112,-0.592042027001,-0.0119632100589,-0.788345651106,-0.0773752331369,0.225263218484,-0.205363443267,0.573814293036,0.818968260304,0.00298205031069,0.0,0.818935487056,-0.573748553671,-0.0117478552615,0.0,-0.00791032583139,0.00918337089354,-0.999926543524,0.0,0.582591043572,0.157289586716,0.304180201152,1.0,-0.15292,-0.200980571429,1.806
0.375416870059,0.180144455594,-0.126278466394,-1.8986885683,0.0381588853869,2.07166289538,0.058600450136,-0.231014497847,-0.599680686501,-0.00864500033217,-0.76763694287,-0.0762770704379,0.215667772223,-0.223008686653,0.573956008038,0.818869068905,0.00294885227643,0.0,0.818835351739,-0.573889775338,-0.0118295987381,0.0,-0.00799473025706,0.00920447097397,-0.999925678239,0.0,0.579985129714,0.153746094187,0.304175475192,1.0,-0.155727428571,-0.204670334694,1.823
0.371477975167,0.169870550895,-0.126321793565,-1.91257110941,0.036711334359,2.07534976037,0.05494722556,-0.23052516501,-0.606623522289,-0.00161047129802,-0.800857589867,-0.0880516627057,0.213362114067,-0.215730326557,0.573929870691,0.818887420105,0.00294000398687,0.0,0.818854026308,-0.573864178079,-0.0117786085107,0.0,-0.00795834458708,0.00916770586823,-0.999926306245,0.0,0.577323473962,0.150273475089,0.304180891129,1.0,-0.158534857143,-0.208360097959,1.84
0.367394868738,0.15944018809,-0.126346905671,-1.92652507595,0.0353246602567,2.07894472199,0.0510517524616,-0.244189113176,-0.625476482645,-0.0048218863716,-0.773166732344,-0.0795950919452,0.226156799179,-0.229134272204,0.573815309414,0.818967542753,0.00298353817292,0.0,0.818934400164,-0.573749113832,-0.0117961648465,0.0,-0.00794902679887,0.00921231939102,-0.999925970332,0.0,0.574601628029,0.146757115359,0.304207409166,1.0,-0.161342285714,-0.212049861224,1.857
0.363184518644,0.148951746817,-0.126407054309,-1.94054488803,0.0338435981329,2.08255266849,0.0471754744824,-0.245783778919,-0.613779684888,-0.00465723652316,-0.796108036652,-0.0834437114159,0.21085932875,-0.227284979923,0.573793610964,0.818982749846,0.00298234342681,0.0,0.818949915374,-0.573727797845,-0.011755721574,0.0,-0.00791683227795,0.00918792472444,-0.999926450198,0.0,0.571849211347,0.143161303637,0.304207796053,1.0,-0.164149714286,-0.21573962449,1.874
0.359054775193,0.138883698252,-0.126485391791,-1.95381180595,0.0325459594531,2.08580448646,0.0434070996288,-0.262980056037,-0.643467715763,-0.00727760876265,-0.838124088096,-0.0741403704472,0.212563333153,-0.243513078523,0.57385123341,0.818942147885,0.00304421304776,0.0,0.818909409837,-0.573784369291,-0.0118162151172,0.0,-0.00793022740582,0.0092738628802,-0.999925550709,0.0,0.569197464311,0.139701700514,0.304248462922,1.0,-0.166792,-0.219212342857,1.89
0.353980266441,0.126864578342,-0.126648253183,-1.96966779431,0.030828148972,2.08970210486,0.038694418016,-0.26756767614,-0.63308732822,-0.0115566421216,-0.867190247769,-0.0963346927488,0.195524685522,-0.250572010891,0.573829108441,0.818957732474,0.0030221892885,0.0,0.818925069399,-0.573762747474,-0.0117807988452,0.0,-0.00791410905058,0.00923528967885,-0.999926035416,0.0,0.56601454951,0.135466685201,0.304251880672,1.0,-0.169929714286,-0.223336195918,1.909
0.349792303519,0.1172004191,-0.126789195443,-1.98212504452,0.0294863184549,2.09273816778,0.0349873324258,-0.280862649525,-0.659612109975,-0.00441473670092,-0.803993380232,-0.094864160075,0.204304938476,-0.258823962341,0.573968825475,0.818859232622,0.00317670163949,0.0,0.818828999322,-0.573902420998,-0.0116545245974,0.0,-0.00772044694925,0.00929068809379,-0.999927036245,0.0,0.563504515489,0.132052703546,0.30435004966,1.0,-0.172406857143,-0.226591869388,1.924
0.344366066224,0.104995738294,-0.126867363287,-1.99814841374,0.0277708437296,2.09642391751,0.0300225246831,-0.286899060774,-0.649939657688,-0.000755023527566,-0.86753921304,-0.0919085795926,0.182473502064,-0.267073415999,0.573917882407,0.818895411891,0.00305213674647,0.0,0.818862924091,-0.573851153501,-0.0117945782491,0.0,-0.00790720605898,0.00926857944241,-0.99992578201,0.0,0.560165553393,0.127730501751,0.304287099139,1.0,-0.175544571429,-0.230715722449,1.943
0.340009772754,0.0951684120763,-0.126884069899,-2.01066557762,0.0263835665808,2.099389922,0.0260015978815,-0.293450551037,-0.649395256526,-0.00199830562899,-0.836846173479,-0.0883497525696,0.192381293206,-0.266109100341,0.573784099783,0.818988438703,0.00323898248745,0.0,0.818958778819,-0.573717232316,-0.0116534475233,0.0,-0.00768592670234,0.00933933585025,-0.999926848993,0.0,0.557554887897,0.124347903233,0.304381035211,1.0,-0.178021714286,-0.233971395918,1.958
0.335189662478,0.0846977114236,-0.126916947227,-2.02433038947,0.0249668904095,2.10231417965,0.0216077261786,-0.30780707929,-0.663367974735,-0.000732338826728,-0.867957166031,-0.0972782271288,0.167319774948,-0.28404109868,0.573721731087,0.819032790243,0.00306768426425,0.0,0.818999357349,-0.57365362998,-0.0119294749726,0.0,-0.00801099719562,0.0093568106208,-0.999924134132,0.0,0.55460134625,0.120644739915,0.304278768813,1.0,-0.180664,-0.237444114286,1.974
0.329845559087,0.0733645040284,-0.127068795346,-2.0385272222,0.0232805635324,2.10557839133,0.0168118982276,-0.312711609206,-0.649701361425,-0.00801215607702,-0.823913441259,-0.0908655393246,0.187704109943,-0.284959043131,0.57372989179,0.819026177735,0.00329823474071,0.0,0.818997042277,-0.573662540018,-0.011656835868,0.0,-0.00765532739529,0.00938930045165,-0.999926615807,0.0,0.551608103385,0.116571925486,0.304412732191,1.0,-0.183471428571,-0.241133877551,1.991
0.323935695013,0.0613597289968,-0.127272111977,-2.05390255057,0.0215528829872,2.1086910246,0.0115686771079,-0.332521896594,-0.681209154804,-0.0117952758481,-0.853845888212,-0.0976013405979,0.170142814298,-0.303591653273,0.573847800121,0.81894437564,0.00309173179895,0.0,0.818911568203,-0.573779958931,-0.0118806183981,0.0,-0.00795574504435,0.00934970167849,-0.99992464176,0.0,0.548234899303,0.112117298666,0.304328348448,1.0,-0.186444,-0.245040685714,2.009
0.318540139819,0.05049795972,-0.12738442619,-2.06738757994,0.0199921479609,2.11160206101,0.00678658375313,-0.338317934354,-0.661095263001,-0.00575826480249,-0.822560013316,-0.0952938223457,0.185652408692,-0.292548534456,0.573882415231,0.818919336476,0.00329252741302,0.0,0.818889567647,-0.573814376901,-0.0117338723647,0.0,-0.00771994403808,0.0094302609241,-0.999925733564,0.0,0.545295023254,0.108179287657,0.304417824808,1.0,-0.189086285714,-0.248513404082,2.025
0.312720271754,0.0389884488564,-0.127449444465,-2.08186314076,0.0183360115615,2.11445700305,0.00160818583039,-0.356219423414,-0.680146830241,-0.00449425063039,-0.816343417492,-0.0923456274276,0.172481129381,-0.305641555137,0.57384727303,0.818944269386,0.00321524149852,0.0,0.818912673303,-0.573778513968,-0.011874229013,0.0,-0.00787964702214,0.00944717783676,-0.999924328134,0.0,0.542028648274,0.104006435683,0.304368369733,1.0,-0.18998,-0.249688,2.042
0.307051340846,0.0281213589285,-0.127511729103,-2.09523860154,0.0166835032474,2.11715032449,-0.00338886673314,-0.357299688538,-0.669240186509,-0.00827571815485,-0.822232763838,-0.0989538156986,0.158151928163,-0.308346520108,0.5738099719,0.81897005624,0.00330303375099,0.0,0.818940224003,-0.573741663734,-0.0117541357112,0.0,-0.00773134595716,0.00944980942019,-0.999925460918,0.0,0.539018230132,0.100025297857,0.3044181302,1.0,-0.18998,-0.249688,2.058
0.300894220267,0.0166214698911,-0.127651241514,-2.1093360355,0.014994876805,2.11973037773,-0.00880584004625,-0.366281220359,-0.680034669196,-0.00632385823129,-0.824934392128,-0.0974748266839,0.152082278713,-0.327750745812,0.57386748859,0.818929702013,0.00331596178713,0.0,0.818899704664,-0.573798720852,-0.0117918849249,0.0,-0.00775417946784,0.00948260208522,-0.999924973665,0.0,0.535584956215,0.0954800613868,0.304451121104,1.0,-0.18998,-0.249688,2.076
0.294580270758,0.00521849098332,-0.127812089368,-2.12321943488,0.0132887724408,2.12225326465,-0.0143088008143,-0.376168269883,-0.666153213007,-0.000196317013918,-0.843338632834,-0.0902786262777,0.150954368961,-0.327656483633,0.573973376775,0.818855481351,0.00331817961735,0.0,0.818825204932,-0.573904210195,-0.0118316605216,0.0,-0.00778425269003,0.00950825031092,-0.999924496443,0.0,0.532358326867,0.0911648663415,0.304454429491,1.0,-0.18998,-0.249688,2.093
0.28829580499,-0.00618831171691,-0.127835478258,-2.13685172898,0.0116478998553,2.12469646923,-0.0199026846376,-0.362238491766,-0.676050027677,-0.0033002017715,-0.794699577698,-0.0997426137513,0.150076370686,-0.333758180082,0.573847848025,0.81894273737,0.00349100672994,0.0,0.81891474016,-0.573778147034,-0.0117487546378,0.0,-0.00761864059344,0.0096010192844,-0.999924885551,0.0,0.529333588053,0.0872628544559,0.304537017099,1.0,-0.18998,-0.249688,2.109
0.281832035942,-0.0173935992792,-0.127879176562,-2.15042749769,0.00987539732156,2.12699624166,-0.0255342769064,-0.38099542548,-0.665765227003,-0.00127346837276,-0.818953907139,-0.104870150383,0.130183107356,-0.330085694,0.573796605194,0.818979088657,0.00338454002736,0.0,0.818949780705,-0.573727362924,-0.0117862893319,0.0,-0.00771106973309,0.00953488469577,-0.999924809862,0.0,0.526076177934,0.0830326200219,0.304489761229,1.0,-0.18998,-0.249688,2.126
0.275641464903,-0.028003693025,-0.127993538284,-2.16285671828,0.00830147501735,2.12899206101,-0.0309582946724,-0.387463561649,-0.676874942218,-0.00529130018973,-0.758325446816,-0.097382221112,0.144597714206,-0.341589324222,0.573822987042,0.818959912244,0.0035480389051,0.0,0.818932877975,-0.573753383245,-0.0116937370813,0.0,-0.00754114775867,0.00961592598976,-0.999925329741,0.0,0.522884011562,0.078777718222,0.304597626586,1.0,-0.18998,-0.249688,2.143
0.268874167152,-0.039083557955,-0.128165304819,-2.17604465242,0.0065969412095,2.13105333428,-0.0367811880679,-0.401793417758,-0.652061206707,-0.00510140355805,-0.749666594207,-0.0963911135565,0.117563708375,-0.350079008615,0.573955706917,0.818867197366,0.00347943616518,0.0,0.818838933878,-0.573885883662,-0.0117702931156,0.0,-0.00764165476301,0.00960490963008,-0.999924672575,0.0,0.519833766485,0.0747025976918,0.304554734227,1.0,-0.18998,-0.249688,2.159
0.262115874887,-0.0501445465103,-0.12820813102,-2.18896801743,0.00497203229362,2.13300061419,-0.0426912437571,-0.401903844529,-0.669036457427,0.000282570942467,-0.728627580105,-0.105969381632,0.122378725639,-0.34271192972,0.573926885128,0.818886980333,0.00357643254791,0.0,0.818859606063,-0.573856268389,-0.0117760642702,0.0,-0.00759105362564,0.00968738254509,-0.999924262394,0.0,0.516610286977,0.0705199681649,0.304585067366,1.0,-0.18998,-0.249688,2.176
0.255208771876,-0.0610536637504,-0.128263950946,-2.20179935017,0.00324341504154,2.13482534053,-0.0487756031422,-0.404009766525,-0.642326138903,-0.00529523085476,-0.781755861282,-0.0960912001364,0.0991959069534,-0.362528526482,0.573824953008,0.818958829279,0.003479389637,0.0,0.818929985286,-0.573754421041,-0.0118444263622,0.0,-0.00770393068485,0.00964618962397,-0.999923797335,0.0,0.513358305601,0.0662954451101,0.304530267189,1.0,-0.18998,-0.249688,2.193
0.248185476598,-0.0719924340645,-0.128409695184,-2.2144120457,0.00155872443062,2.13647901707,-0.0548862001563,-0.418315011072,-0.654273992393,-0.013691363346,-0.719521353744,-0.100763084742,0.102509708555,-0.349527757026,0.573872368524,0.818925629513,0.00347345253756,0.0,0.818896372336,-0.573801430724,-0.0118910207962,0.0,-0.00774493876958,0.00966851209981,-0.999923264954,0.0,0.510116075109,0.0620326008083,0.30453754992,1.0,-0.18998,-0.249688,2.21
0.240962009371,-0.0828015306546,-0.128569096027,-2.22682649293,-9.74599350545e-05,2.1380742666,-0.0611706034432,-0.41725975336,-0.637848532709,-0.00113768690238,-0.724299325438,-0.0909544078666,0.0814290446481,-0.374277560579,0.573949699905,0.818871368703,0.00348860977953,0.0,0.818841903727,-0.573878190491,-0.0119375910866,0.0,-0.00777346414776,0.00970838361143,-0.99992265728,0.0,0.506895595907,0.0577273724207,0.304526441624,1.0,-0.18998,-0.249688,2.227
0.233769507696,-0.0936059557913,-0.128609657942,-2.23910800852,-0.00170282019479,2.1394787693,-0.0674928637815,-0.428953459147,-0.642120722587,-0.00349159332488,-0.69471854162,-0.0992728827279,0.0891370342355,-0.376000381689,0.573880113669,0.818920120548,0.00349259207497,0.0,0.818889782785,-0.573807447564,-0.0120533676494,0.0,-0.00786682140525,0.00977742420808,-0.999921254448,0.0,0.503629068527,0.0535621593317,0.304520697725,1.0,-0.18998,-0.249688,2.244
0.226816573857,-0.103693659679,-0.128701898295,-2.25040739551,-0.00336924302728,2.14080963553,-0.0735536533896,-0.432385660844,-0.621653820353,-0.00576785795521,-0.700513365142,-0.102149987923,0.0718967210169,-0.377656322909,0.573837004067,0.818950202932,0.00352204240938,0.0,0.818921100017,-0.573765297965,-0.0119315421538,0.0,-0.00775066237998,0.00973122260384,-0.999922612275,0.0,0.50062151586,0.0495629153347,0.304559151244,1.0,-0.18998,-0.249688,2.26
0.21923746604,-0.114336603888,-0.128898904179,-2.26246465137,-0.0050368266591,2.14198316371,-0.0800690139555,-0.452992562043,-0.622213237255,-0.00949539787376,-0.700982982898,-0.0969328325701,0.0768591654816,-0.397093752644,0.573996356815,0.818839103353,0.00338409281047,0.0,0.818807022764,-0.573923692946,-0.0121408833272,0.0,-0.00799937298726,0.00973992928107,-0.99992056875,0.0,0.497326372259,0.0452330999743,0.304482626605,1.0,-0.18998,-0.249688,2.277
0.211614493024,-0.124980426725,-0.128979825614,-2.27404859457,-0.0066332763012,2.14322861376,-0.0867569544911,-0.449299364187,-0.616638072117,-0.00260816266654,-0.68433440519,-0.0876923398879,0.0558947149487,-0.39949235428,0.573977282018,0.818851370553,0.00364136947449,0.0,0.818823203263,-0.573904338442,-0.0119632360597,0.0,-0.00770646287779,0.00984845314832,-0.999921806143,0.0,0.494165963057,0.0410206281729,0.304592195106,1.0,-0.18998,-0.249688,2.294
0.20436755119,-0.13486352399,-0.129016521891,-2.28499045804,-0.00820454331835,2.14414719865,-0.0931278165316,-0.460503403222,-0.603913069155,-0.00484162706992,-0.678382968827,-0.101002833075,0.046449721884,-0.406764276326,0.573879951165,0.818920018408,0.00354288052215,0.0,0.818890029319,-0.5738067098,-0.0120717260957,0.0,-0.00785300073548,0.00982914035835,-0.999920856058,0.0,0.490890074776,0.0368244958272,0.30455381276,1.0,-0.18998,-0.249688,2.311
0.19653305638,-0.145414288194,-0.129148657722,-2.29621513252,-0.00985132068643,2.14522034416,-0.100018352561,-0.464467085483,-0.612300688239,-0.0131021307578,-0.64986930347,-0.0936502352535,0.0620441902525,-0.40760215726,0.573862221918,0.818931123544,0.00383562872868,0.0,0.818906218248,-0.573789573979,-0.0117846260077,0.0,-0.00745009668031,0.00990396256404,-0.999923200843,0.0,0.487943810591,0.0328478103317,0.304699299089,1.0,-0.18998,-0.249688,2.327
0.188483968758,-0.15573364218,-0.129315473535,-2.30753155708,-0.0114955945331,2.14599721032,-0.107025353887,-0.473927409625,-0.604584193634,-0.00822693808809,-0.658209781062,-0.0950550379644,0.0356584437798,-0.416792870212,0.573939653536,0.818877411017,0.00371574029697,0.0,0.818849965634,-0.573866127463,-0.0119644654464,0.0,-0.0076652405737,0.00990970576007,-0.99992151783,0.0,0.484667766879,0.0285500191312,0.304626950222,1.0,-0.18998,-0.249688,2.344
0.180443669036,-0.166077493152,-0.129356330995,-2.31849257789,-0.0131064302088,2.14670901279,-0.114087228406,-0.476072272914,-0.603690276108,-0.00155756336852,-0.635408446143,-0.086336452112,0.0561109109162,-0.418914803505,0.573868915872,0.818926572481,0.00380567751153,0.0,0.818900474896,-0.573795308499,-0.0119039094531,0.0,-0.0075648935134,0.00994794626276,-0.999921902326,0.0,0.481459571279,0.0243851574084,0.304688791786,1.0,-0.18998,-0.249688,2.361
0.172708013685,-0.175668933237,-0.129455527994,-2.32876491039,-0.0145858528261,2.14734973894,-0.12091392593,-0.481403803761,-0.594633671829,-0.00273184839772,-0.648934806039,-0.101448236622,0.0324407607164,-0.429005125279,0.573847563249,0.818941415722,0.00383127536602,0.0,0.818915139001,-0.57377319338,-0.0119609604371,0.0,-0.00759718904172,0.0100014499588,-0.999921123748,0.0,0.478414426526,0.0204148937784,0.304664175741,1.0,-0.18998,-0.249688,2.377
0.163742019844,-0.186462424748,-0.129679124475,-2.34016899619,-0.0163171640948,2.14785651427,-0.128732445678,-0.505541865244,-0.601066353005,-0.0124707239465,-0.624529070616,-0.0880176280694,0.0272160554814,-0.437192589892,0.573973611899,0.818853226716,0.00379905792485,0.0,0.818825955834,-0.573898589106,-0.0120503268072,0.0,-0.00768732301088,0.0100275298997,-0.999920173668,0.0,0.474961943331,0.0158266810863,0.304651760373,1.0,-0.18998,-0.249688,2.395
0.155815513131,-0.195999760102,-0.129735614068,-2.34991637951,-0.0178105618489,2.14838501632,-0.135778445202,-0.496153906945,-0.595682283172,-0.00146126725343,-0.611701752774,-0.0928346949062,0.0229039275447,-0.447239312049,0.573872792052,0.818922801319,0.00402627906728,0.0,0.818899676671,-0.573798564765,-0.0118014203776,0.0,-0.00735432067851,0.010069826564,-0.999922253258,0.0,0.472004813573,0.0118998222182,0.304767299978,1.0,-0.18998,-0.249688,2.411
0.147199165938,-0.205961626182,-0.12984113567,-2.36043080282,-0.019392159352,2.1486423908,-0.143401386431,-0.509031332294,-0.594188161113,-0.00955534849119,-0.623867630057,-0.0919341938103,0.0209968877397,-0.445752938557,0.5738372556,0.818948395386,0.00388287029502,0.0,0.818922062876,-0.573761737182,-0.0120362278936,0.0,-0.0076293540029,0.0100867983362,-0.99992002153,0.0,0.468702616574,0.00767282505428,0.304680188438,1.0,-0.18998,-0.249688,2.428
0.13890459183,-0.215344494596,-0.130024152825,-2.36994936766,-0.0208289495139,2.14890499216,-0.150681582937,-0.522914784371,-0.595141497395,-0.00948369230505,-0.583358098634,-0.0904283378616,0.0159538852572,-0.457935897539,0.573953882868,0.818865821234,0.00405635995271,0.0,0.818841922879,-0.573877946091,-0.0119480218641,0.0,-0.00745611477088,0.0101793271086,-0.999920390657,0.0,0.465511421338,0.00338282555222,0.304751426317,1.0,-0.18998,-0.249688,2.445
0.12960000555,-0.22574361602,-0.130068073661,-2.38057038105,-0.0225248122598,2.14914068151,-0.158967477393,-0.522357959591,-0.576844515324,-0.000808605546695,-0.590677357162,-0.0934402137849,0.00294898272314,-0.46133954266,0.573813028197,0.81896458415,0.00404542711885,0.0,0.81894077685,-0.573737470715,-0.0119191279359,0.0,-0.00744047378249,0.0101525115891,-0.999920779791,0.0,0.462289720554,-0.000772606791294,0.304745818066,1.0,-0.18998,-0.249688,2.462
0.120574187773,-0.23545737581,-0.130186494582,-2.39051765454,-0.0241039766513,2.14915645844,-0.166986452357,-0.532123085995,-0.576571139508,-0.0144014509134,-0.581666727641,-0.0976950489385,0.000245268426913,-0.474890337863,0.573776863411,0.818990446814,0.00393775868472,0.0,0.818964386866,-0.57370056036,-0.0120725717308,0.0,-0.0076283734218,0.0101520419261,-0.999919368731,0.0,0.459013458567,-0.00501157930988,0.304685959741,1.0,-0.18998,-0.249688,2.479
0.111867786427,-0.244626613184,-0.130395807562,-2.39945657541,-0.025556509307,2.14924723421,-0.17464412576,-0.542852455514,-0.574933175062,-0.0134366161686,-0.55202485892,-0.0873826811371,0.00748126866547,-0.480593855419,0.573918290079,0.818890142393,0.00418065848125,0.0,0.818868470465,-0.573842770542,-0.0118173464005,0.0,-0.00727820795906,0.0102057971487,-0.99992143161,0.0,0.4560583006,-0.0090850408798,0.304810467008,1.0,-0.18998,-0.249688,2.495
0.102691395167,-0.254176063517,-0.1304849738,-2.40908924797,-0.0270204293778,2.14920203421,-0.182909228178,-0.54251541472,-0.561545593117,-0.00893691649912,-0.569606336034,-0.0866948450475,-0.00248662341953,-0.493371351222,0.573819851481,0.818959100973,0.00418519783109,0.0,0.818936623004,-0.573743122265,-0.011932479093,0.0,-0.00737112579648,0.0102747029792,-0.999920045295,0.0,0.452798835366,-0.0132470327041,0.304755314575,1.0,-0.18998,-0.249688,2.512
0.0926493032006,-0.264203656473,-0.130667160793,-2.41904028488,-0.0286463203725,2.14905051847,-0.191774884842,-0.563451226638,-0.565477911398,-0.0131243445599,-0.534730562795,-0.0897831379469,-0.0100235715543,-0.485301634527,0.573918841862,0.818889746328,0.00418248913161,0.0,0.818866946244,-0.57384170731,-0.0119735625686,0.0,-0.00740508348113,0.0102969535135,-0.999919565509,0.0,0.449363063762,-0.0177841050325,0.30472950523,1.0,-0.18998,-0.249688,2.53
0.0819351835587,-0.274731450072,-0.130848332088,-2.42907211539,-0.0303298874556,2.14886778965,-0.201348643737,-0.558370666959,-0.550189267382,-0.00367379339984,-0.532983282583,-0.0848004705376,-0.0196971157643,-0.499864871637,0.573946122412,0.818869436627,0.00440922087882,0.0,0.818850997692,-0.573870232655,-0.0116938681299,0.0,-0.00704556624496,0.0103223439219,-0.999921901556,0.0,0.44584661555,-0.0225501045769,0.304853483883,1.0,-0.18998,-0.249688,2.549
0.0728962507613,-0.283420501503,-0.130953595395,-2.43765091439,-0.0317309261915,2.14852517406,-0.209583091904,-0.577480765179,-0.543279475312,-0.00863873277698,-0.531266121134,-0.0854740339844,-0.0311578267859,-0.520475099237,0.573799841054,0.818972441851,0.00431610906327,0.0,0.818951849483,-0.573722915658,-0.0118588017042,0.0,-0.00723592042692,0.0103394630996,-0.999920365308,0.0,0.442757215086,-0.0264816074494,0.30477804255,1.0,-0.18998,-0.249688,2.565
0.0629195805885,-0.292621170376,-0.131141373653,-2.44644136993,-0.0331387416906,2.14814702847,-0.218436456268,-0.590706214455,-0.546587972923,-0.0107363410482,-0.505576857407,-0.078561133304,-0.0148090855421,-0.52968114355,0.57396034502,0.818859317265,0.00443709070322,0.0,0.818840100768,-0.573882695785,-0.0118443131639,0.0,-0.0071525943263,0.0104316347099,-0.999920007496,0.0,0.439535600961,-0.0307927452714,0.304801827465,1.0,-0.18998,-0.249688,2.582
0.0541660671077,-0.300701160564,-0.131241659292,-2.45393382252,-0.0344205770566,2.14783912606,-0.2263583507,-0.580879482669,-0.534539627579,-0.00112431766349,-0.504132031662,-0.0849290322955,-0.0323708398978,-0.528810327952,0.573902426624,0.818898854436,0.00462793906634,0.0,0.818883462152,-0.573826188253,-0.011581363919,0.0,-0.00682846448126,0.0104365165573,-0.999922222573,0.0,0.436760480658,-0.0345099200237,0.304906124515,1.0,-0.18998,-0.249688,2.597
0.044728382479,-0.30907637463,-0.131386381327,-2.46203089705,-0.0357949402085,2.14726350269,-0.234876445558,-0.603864127927,-0.518051103194,-0.0109461181962,-0.501037517915,-0.082423460619,-0.0491125807881,-0.532187109845,0.573884070048,0.818912431139,0.00450013017256,0.0,0.818894223194,-0.573806498742,-0.0117940714847,0.0,-0.00707624405397,0.0104537616153,-0.999920319645,0.0,0.43366617634,-0.0384724832756,0.304819785861,1.0,-0.18998,-0.249688,2.613
0.0343701169426,-0.317950577611,-0.131576097122,-2.47037421451,-0.0372136589787,2.14664270201,-0.244127366526,-0.605312872217,-0.519345869197,-0.0148243230605,-0.480233827166,-0.0830753209682,-0.034328402859,-0.552149136503,0.57401762234,0.818818717789,0.00451924146259,0.0,0.818800340614,-0.573939347873,-0.0118479565382,0.0,-0.00710769492827,0.0105014944769,-0.999919596411,0.0,0.430414632963,-0.042782421424,0.304808951175,1.0,-0.18998,-0.249688,2.63
0.0241724515447,-0.326739281003,-0.131650084251,-2.47829321061,-0.0385426274068,2.14613724419,-0.253544908376,-0.604328811645,-0.515961876992,-0.00300715608181,-0.471154691766,-0.0777027077216,-0.037450687746,-0.55451392057,0.573839487817,0.818942021739,0.00479104924319,0.0,0.818928774164,-0.573762832191,-0.0115161687911,0.0,-0.00668227722412,0.0105321632612,-0.999922207328,0.0,0.427306778371,-0.0469242769431,0.304940406074,1.0,-0.18998,-0.249688,2.647
0.0142471991244,-0.33479131815,-0.131807040629,-2.48591325236,-0.0398461721086,2.14538965701,-0.262553468597,-0.634219721811,-0.508647743933,-0.0157483570736,-0.47688874052,-0.0782289589915,-0.0540272635667,-0.581920795455,0.573853923495,0.818932536772,0.00468205165862,0.0,0.818916538461,-0.57377552743,-0.0117513428639,0.0,-0.00693724392561,0.0105779674046,-0.999919987425,0.0,0.424204522613,-0.0509309505143,0.304848056186,1.0,-0.18998,-0.249688,2.663
0.0035074027314,-0.343346635346,-0.131970421992,-2.49373535365,-0.0412157537553,2.1445688237,-0.272178125392,-0.621752865971,-0.503067281524,-0.00757164197874,-0.456980493624,-0.0761927900521,-0.049675710349,-0.573453098329,0.57399062211,0.818836639395,0.00469793730501,0.0,0.818820555516,-0.573911705739,-0.0117897744104,0.0,-0.00695783200507,0.0106141919383,-0.999919460508,0.0,0.420949636447,-0.0552171251025,0.304848970547,1.0,-0.18998,-0.249688,2.68
-0.0071082133588,-0.351761109725,-0.132109925349,-2.50122659351,-0.0425486420211,2.14377516684,-0.282022011861,-0.635914652821,-0.504131944483,-0.0104939321254,-0.440334617577,-0.0782242503246,-0.0443729759684,-0.582305110652,0.57384889024,0.818935248737,0.00482249396413,0.0,0.81892153359,-0.573770762235,-0.0116353396103,0.0,-0.00676171388416,0.0106263754664,-0.999920676539,0.0,0.417780337203,-0.0593928855264,0.304920068937,1.0,-0.18998,-0.249688,2.697
-0.0181678976874,-0.35997631166,-0.132318646965,-2.50863652616,-0.0438912348236,2.14291412903,-0.29201114661,-0.659381951764,-0.483590607006,-0.00806760960493,-0.449703636343,-0.0861413364211,-0.0533069480367,-0.590648640352,0.57399781779,0.818830701464,0.00485122809644,0.0,0.818817283989,-0.573919458132,-0.0116386390581,0.0,-0.00674599066486,0.0106530279391,-0.999920499143,0.0,0.414548561612,-0.0637201730877,0.304915414917,1.0,-0.18998,-0.249688,2.714
-0.0284335502765,-0.367651909391,-0.132376541744,-2.51555332554,-0.0451186151202,2.14196143893,-0.301580399633,-0.639691540477,-0.481204284226,-0.00518190427068,-0.434270225558,-0.0738188142581,-0.0486262362679,-0.590073268941,0.57378950353,0.818977028479,0.00479367949879,0.0,0.818962227634,-0.573710365358,-0.0117487569463,0.0,-0.00687191074115,0.010667361236,-0.999919488882,0.0,0.411476321974,-0.0676161329976,0.304884564814,1.0,-0.18998,-0.249688,2.73
-0.0402719881997,-0.376066433537,-0.132576098854,-2.52306154271,-0.0464152278063,2.14090334482,-0.31241330266,-0.674424599515,-0.469780183128,-0.0155892957093,-0.403765217567,-0.0726698844381,-0.0629347730474,-0.595666288837,0.573881828338,0.818912066613,0.00483954136262,0.0,0.81889700701,-0.573801192922,-0.0118587441416,0.0,-0.00693446757536,0.0107688110399,-0.99991796957,0.0,0.408042202825,-0.0721083559482,0.304859105135,1.0,-0.18998,-0.249688,2.748
-0.0516334493171,-0.383906229572,-0.132704824811,-2.5297181194,-0.0477154190851,2.13999901382,-0.32285715658,-0.658285800276,-0.448555105628,0.00220926444757,-0.393408684451,-0.0769689372996,-0.0595179652062,-0.630082042555,0.573874004975,0.818916702205,0.00498077953372,0.0,0.818905363775,-0.573795917101,-0.0115324585536,0.0,-0.00658629877326,0.010697171207,-0.999921092485,0.0,0.404912045233,-0.0763824347636,0.304976521186,1.0,-0.18998,-0.249688,2.765
-0.0643882762436,-0.392462716868,-0.132903900192,-2.53730871628,-0.0490964543787,2.13875966725,-0.334718313354,-0.682636965101,-0.440518439073,-0.0148486220923,-0.403765729311,-0.0753417994713,-0.0748711306486,-0.620171724794,0.5738203766,0.818954559539,0.00493474515333,0.0,0.818941477542,-0.573740596631,-0.0117188327388,0.0,-0.00676605814298,0.0107659797811,-0.9999191538,0.0,0.401252558572,-0.0810957346952,0.304912363202,1.0,-0.18998,-0.249688,2.784
-0.0760492584792,-0.39999828912,-0.133072629447,-2.54382144555,-0.0503442357335,2.13762865352,-0.345482623596,-0.676421439963,-0.434468376671,-0.000704592698043,-0.380420141678,-0.0674898663326,-0.0648518776525,-0.646834237109,0.573844839015,0.818937463735,0.00492728406502,0.0,0.818924109034,-0.573764799876,-0.011747551593,0.0,-0.00679353874785,0.0107765510476,-0.999918853597,0.0,0.398001661515,-0.0853638243338,0.304911313586,1.0,-0.18998,-0.249688,2.801
-0.0876473975508,-0.407328382191,-0.133209979065,-2.55010642696,-0.0515288698224,2.13652360276,-0.356372502298,-0.688364285218,-0.426116146986,-0.011352395954,-0.355848632748,-0.0644818808705,-0.070506838286,-0.646229152384,0.573724536335,0.819021579558,0.0049553532987,0.0,0.819008589979,-0.5736444267,-0.0117366161308,0.0,-0.00677006142461,0.0107922693504,-0.999918843302,0.0,0.394795315728,-0.0895437520542,0.304916030584,1.0,-0.18998,-0.249688,2.818
-0.0989924767518,-0.414081196875,-0.133408351727,-2.55571726022,-0.0525553374392,2.13554400212,-0.366766345444,-0.710430981344,-0.421507346406,-0.00586317045533,-0.349486353579,-0.0751061553876,-0.0613722799034,-0.655386472071,0.573944250914,0.818866469827,0.00514279470601,0.0,0.818856703405,-0.573864804846,-0.0115599286203,0.0,-0.00651489449236,0.0108461753144,-0.999919955112,0.0,0.39180786716,-0.0936324113454,0.304988370707,1.0,-0.18998,-0.249688,2.834
-0.109439004653,-0.42033622984,-0.133495823892,-2.56101368937,-0.0535309165697,2.13446055115,-0.376657301665,-0.697401807191,-0.412581507954,-0.00623485812107,-0.354408712027,-0.0743475476553,-0.0800623228866,-0.668995980638,0.573790445589,0.818974169288,0.00515572408609,0.0,0.818964150272,-0.573710288158,-0.0116177765363,0.0,-0.00655689317718,0.0108887320125,-0.999919218071,0.0,0.388949810163,-0.097295914471,0.304984630733,1.0,-0.18998,-0.249688,2.849
-0.120858307694,-0.426785816064,-0.133712242236,-2.56654237948,-0.05462421825,2.13324597125,-0.387309938657,-0.717103744192,-0.403536716103,-0.0134425048318,-0.340492744076,-0.061590862721,-0.070621680952,-0.673799514103,0.573839974117,0.818939872299,0.00509083162445,0.0,0.818927783503,-0.573758007965,-0.0118228847869,0.0,-0.00676145652483,0.0109536782507,-0.999917146387,0.0,0.385847914354,-0.101313038743,0.304926073705,1.0,-0.18998,-0.249688,2.865
-0.133034402878,-0.433478564225,-0.133791530974,-2.57213816276,-0.0556817866641,2.13212223925,-0.39870373278,-0.704429283572,-0.39229394196,-0.00150080855179,-0.324401839073,-0.0519516539299,-0.06849294443,-0.67586508505,0.573790961175,0.818973886602,0.005143232318,0.0,0.818962638058,-0.573709083909,-0.0117826739663,0.0,-0.0066991121699,0.0109731181941,-0.999917352871,0.0,0.382457063771,-0.105755080871,0.304928816213,1.0,-0.18998,-0.249688,2.883
-0.145406195722,-0.439934554993,-0.133976920451,-2.57743259215,-0.0567601071821,2.13090561347,-0.410336736889,-0.747016684757,-0.378270143627,-0.0157108300014,-0.305234785058,-0.0589029772868,-0.0726254295376,-0.679351418165,0.573821750025,0.818952131365,0.00517229472563,0.0,0.818941418055,-0.573740028652,-0.0117507539329,0.0,-0.00665588060072,0.0109788559401,-0.999917578591,0.0,0.379441772992,-0.109779320335,0.304954788324,1.0,-0.18998,-0.249688,2.899
-0.157890129656,-0.446342531601,-0.134092497387,-2.58253467704,-0.0578093837525,2.12974370972,-0.422094940814,-0.730824901597,-0.371574584358,-0.00277836563734,-0.303914935314,-0.0523510821303,-0.0769546862875,-0.698791175774,0.573790525729,0.818973430291,0.00526307537799,0.0,0.818965133573,-0.573710597728,-0.0115328638045,0.0,-0.00642575062568,0.0109279336121,-0.999919641769,0.0,0.37626212059,-0.114028813101,0.305040745144,1.0,-0.18998,-0.249688,2.916
-0.16969535145,-0.452128320283,-0.134262875236,-2.58740195896,-0.0587483852379,2.12851916244,-0.433275544895,-0.751213257107,-0.359143855121,-0.0105914074601,-0.303198386792,-0.0613623272066,-0.0827509029814,-0.711860983399,0.573775668393,0.818984011956,0.00523616474961,0.0,0.818973950266,-0.573693445875,-0.0117577994325,0.0,-0.00662562391639,0.0110348342122,-0.99991716334,0.0,0.373162884098,-0.117988872323,0.304972691724,1.0,-0.18998,-0.249688,2.932
-0.182438053421,-0.458081141385,-0.134408036414,-2.59226073889,-0.0597170216165,2.12726562451,-0.445293002282,-0.737781504499,-0.340263277933,-0.0036246282726,-0.273442376511,-0.0588528389071,-0.0743749409229,-0.710291772095,0.573808403254,0.818960970216,0.00525285810875,0.0,0.818950591468,-0.573725229236,-0.0118337218906,0.0,-0.00667778770628,0.0110923338794,-0.999916180127,0.0,0.369913805529,-0.122233650279,0.304960623472,1.0,-0.18998,-0.249688,2.949
-0.195211509724,-0.463761312906,-0.134562895545,-2.59686191526,-0.0606419393503,2.12616184417,-0.457465808095,-0.766279649125,-0.331658660878,-0.0124350820193,-0.270215508624,-0.0624539303994,-0.0669086480606,-0.71490202457,0.573775807066,0.818983345421,0.00532447643274,0.0,0.818974085518,-0.573692704679,-0.0117845131377,0.0,-0.00659683371748,0.0111224908963,-0.999916382495,0.0,0.366722115857,-0.126464873586,0.304962337903,1.0,-0.18998,-0.249688,2.966
-0.20821588235,-0.469249472786,-0.134708477589,-2.6013092805,-0.0616082279132,2.12495968224,-0.469704584898,-0.756913729275,-0.314949037063,-0.00592114471283,-0.257461970372,-0.0519608924857,-0.0772285427647,-0.716861384584,0.573858734283,0.818925430042,0.00529528266525,0.0,0.818915458949,-0.573775161801,-0.0118440574355,0.0,-0.00666122641,0.0111334189956,-0.99991583398,0.0,0.3634784338,-0.130734187622,0.304942084062,1.0,-0.18998,-0.249688,2.983
-0.220380973781,-0.474372237093,-0.134857055439,-2.60520907831,-0.0624258206673,2.12387692842,-0.481412316496,-0.766593249311,-0.310367776946,-0.0170154358789,-0.23814378418,-0.0495355896246,-0.0697186302868,-0.738738098011,0.573811038668,0.818957951547,0.00543253181346,0.0,0.818950775987,-0.573728733676,-0.0116496165843,0.0,-0.00642387021562,0.011133869098,-0.999917382012,0.0,0.360302171979,-0.134960043766,0.305031077594,1.0,-0.18998,-0.249688,3.0
-0.23361343197,-0.47949604071,-0.135014956504,-2.60926874189,-0.0633188803472,2.1227159096,-0.493953803364,-0.775997995661,-0.288746344789,-0.00182727153,-0.238502045642,-0.058929380399,-0.0668683408233,-0.74346559454,0.573859323458,0.81892407814,0.00543856819202,0.0,0.818916981616,-0.573776991347,-0.011648533082,0.0,-0.0064188625044,0.0111385696138,-0.999917361821,0.0,0.357251467323,-0.138983609586,0.305034792699,1.0,-0.18998,-0.249688,3.016
-0.24674725898,-0.484395420387,-0.135118322995,-2.61320264473,-0.0641457712741,2.12156387842,-0.506624903547,-0.788297599167,-0.277118845848,-0.00668669862068,-0.219025124049,-0.0495628570146,-0.0704933813927,-0.74065762371,0.573745157946,0.819004077714,0.00543703243701,0.0,0.818996368581,-0.573661827272,-0.0117389558305,0.0,-0.00649535978631,0.0111882942982,-0.999916312684,0.0,0.354019002518,-0.143159894642,0.30500383913,1.0,-0.18998,-0.249688,3.033
-0.260178095377,-0.488982950296,-0.135274885066,-2.61689345596,-0.0649329585132,2.12042541008,-0.519444357681,-0.783075189719,-0.257790340881,-0.00154659103103,-0.213048293087,-0.0452998688844,-0.0608024814956,-0.756831616318,0.573819834759,0.818951691763,0.00544708146822,0.0,0.81894310713,-0.573734729802,-0.0118909210897,0.0,-0.00661303745011,0.0112843134552,-0.999914462344,0.0,0.350761348522,-0.147426505895,0.304958259113,1.0,-0.18998,-0.249688,3.05
-0.272750211259,-0.49312808787,-0.135405199955,-2.62014568053,-0.065596079187,2.11947788641,-0.531619302561,-0.793679595548,-0.25052863152,-0.0115195348382,-0.19767725783,-0.0500811118675,-0.0573715527012,-0.772197481455,0.573796264383,0.818967531459,0.00554763885237,0.0,0.818960189641,-0.573710682081,-0.0118746768258,0.0,-0.00654236105772,0.0113571592305,-0.999914102534,0.0,0.347562665699,-0.151647358211,0.304956188045,1.0,-0.188794857143,-0.248130383674,3.067
-0.287038114739,-0.497570299331,-0.135503465531,-2.62359375557,-0.0663538928456,2.11836598895,-0.545311858272,-0.774805952942,-0.239149280614,0.00914535378946,-0.185892338638,-0.0351920767457,-0.0574815702086,-0.759243114437,0.573817398289,0.818952549393,0.00557334411038,0.0,0.818945364062,-0.573731407538,-0.011895780233,0.0,-0.00654460299156,0.0113904892876,-0.99991370874,0.0,0.34435430157,-0.155852610163,0.304958069452,1.0,-0.185987428571,-0.244440620408,3.084
-0.299578515544,-0.501268372226,-0.135520327912,-2.62639068225,-0.0669260158816,2.11742339353,-0.557381382161,-0.790579643672,-0.219014330129,-0.00555601714968,-0.167003578877,-0.0424817505334,-0.0575213155664,-0.749647498964,0.573813248171,0.818955009283,0.00563878478892,0.0,0.818948830182,-0.573727287427,-0.0118558047684,0.0,-0.00647437065456,0.0114211139422,-0.999913816627,0.0,0.341409039851,-0.159722698715,0.304988548754,1.0,-0.183345142857,-0.240967902041,3.1
-0.31297707303,-0.504854884038,-0.135529126231,-2.62911616713,-0.0675065010191,2.11654581115,-0.570176755998,-0.767770414168,-0.208192838398,0.00728100081759,-0.159230622233,-0.0309399797223,-0.0425567529677,-0.756799069085,0.573911588999,0.818885710036,0.0056946301549,0.0,0.81888065598,-0.57382611604,-0.011781626108,0.0,-0.0063802005954,0.0114250542051,-0.999914376923,0.0,0.338313201779,-0.163849384444,0.305011587667,1.0,-0.180537714286,-0.237278138776,3.117
-0.326126474186,-0.508187782479,-0.135502757553,-2.63162534025,-0.0680071239158,2.11574892889,-0.582872702588,-0.77965462318,-0.193105673653,-0.00200402493334,-0.144049055247,-0.0292706600194,-0.0444003672932,-0.741211421189,0.573907959532,0.81888767096,0.00577782278771,0.0,0.818884279784,-0.573823252035,-0.0116687037924,0.0,-0.00624002874982,0.0114283502673,-0.999915223832,0.0,0.335293409121,-0.167861274312,0.30504274171,1.0,-0.177730285714,-0.23358837551,3.134
-0.339203789793,-0.511271446934,-0.135448815714,-2.63399981794,-0.0685163582922,2.11491774866,-0.59549382502,-0.752523926643,-0.175530953451,0.0100019049583,-0.14057222904,-0.0220292319355,-0.0441760480322,-0.740504872232,0.573916261493,0.818881803285,0.00578480279291,0.0,0.818878356541,-0.573831260866,-0.0116905150752,0.0,-0.00625376979006,0.0114466468943,-0.999914928701,0.0,0.33261574821,-0.171361397113,0.305038444795,1.0,-0.175253142857,-0.230332702041,3.149
-0.351299941312,-0.513862416661,-0.135380330488,-2.63604958683,-0.0688870903852,2.11415607691,-0.607263321081,-0.758716446384,-0.148918455834,0.00304962140209,-0.126026977333,-0.0249207606867,-0.0507394202717,-0.722007023626,0.573834868504,0.818938586586,0.00582082390794,0.0,0.818934685246,-0.573748070809,-0.011827064114,0.0,-0.0063460748629,0.0115538788236,-0.999913113834,0.0,0.329478651263,-0.175426799619,0.305000648407,1.0,-0.172280571429,-0.226425893878,3.167
-0.365695863739,-0.516647156086,-0.135314064571,-2.6382360952,-0.0693436184745,2.11337487379,-0.621108090435,-0.742323143991,-0.134437575115,0.0133343083298,-0.108597177247,-0.0274441421079,-0.0386968794653,-0.717685907029,0.573919696234,0.818878995298,0.00584125298322,0.0,0.818874839564,-0.573831858627,-0.0119055472341,0.0,-0.00639742867182,0.0116163068015,-0.999912063295,0.0,0.326192896851,-0.17973731291,0.304969636254,1.0,-0.169142857143,-0.222302040816,3.186
-0.376778183123,-0.518582794922,-0.13521135695,-2.63974287407,-0.0696441546849,2.11285754485,-0.631850368688,-0.745847711461,-0.127899142133,0.00593613925606,-0.0978335480614,-0.0217738086734,-0.0307194039645,-0.710380079667,0.573910926293,0.818884990612,0.00586239990975,0.0,0.818881039884,-0.573822880899,-0.0119117914747,0.0,-0.0063905310823,0.0116371394644,-0.999911865165,0.0,0.323697977214,-0.183035495838,0.304956287171,1.0,-0.166665714286,-0.219046367347,3.201
-0.390038024817,-0.520760331283,-0.135135258258,-2.64135756166,-0.0699880825167,2.11221591301,-0.644693401422,-0.714136395371,-0.11106700485,0.0118772154669,-0.0885901692703,-0.015028806749,-0.0327337391756,-0.704129543566,0.573930067511,0.818871237429,0.00590940090514,0.0,0.818867916021,-0.573841868004,-0.0118993083488,0.0,-0.00635306201409,0.0116686143051,-0.999911737126,0.0,0.320548903037,-0.187188025233,0.304969828678,1.0,-0.163528,-0.214922514286,3.22
-0.401500074708,-0.52249395649,-0.134984086903,-2.64264260104,-0.0702505888757,2.11168680529,-0.65598450613,-0.720610826863,-0.103633281044,0.00547437680287,-0.0801145682266,-0.0189479975937,-0.0312695211405,-0.709196528345,0.573805354994,0.818958535796,0.00592267919895,0.0,0.818955409866,-0.573717170877,-0.0118908112876,0.0,-0.00634026071714,0.0116736461168,-0.999911759647,0.0,0.318135245378,-0.190351195366,0.304981511785,1.0,-0.161050857143,-0.211666840816,3.235
-0.413093626649,-0.524079037231,-0.134951775372,-2.64375183826,-0.0704921366415,2.11121141434,-0.667095714502,-0.702875591401,-0.0914326209037,0.0101854383194,-0.0659885080156,-0.0161335824507,-0.020062233503,-0.703316049575,0.57397548438,0.818838776296,0.00599572061825,0.0,0.818836958884,-0.573887651693,-0.0118213747549,0.0,-0.00623905013367,0.0116949221018,-0.999912147666,0.0,0.315382894339,-0.193999176832,0.305016025007,1.0,-0.158243428571,-0.207977077551,3.252
-0.424930829888,-0.52546316623,-0.134788067221,-2.64478209362,-0.0706869263726,2.1108216531,-0.678799497733,-0.697573125992,-0.0783019101918,0.00615164135648,-0.0611758107177,-0.0181442760024,-0.0204438246765,-0.680694613467,0.573860963804,0.818918736214,0.00603693634031,0.0,0.818917737018,-0.573773532262,-0.011765227302,0.0,-0.00617104959726,0.0116955841015,-0.999912561907,0.0,0.312913864447,-0.197264406625,0.305028409996,1.0,-0.155601142857,-0.204504359184,3.268
-0.43755499797,-0.526717069151,-0.134714198129,-2.64575824638,-0.0709098293444,2.11038232004,-0.690993400893,-0.701709638362,-0.0588521096922,0.0047157546636,-0.0482689466151,-0.00656120188305,-0.025378359901,-0.679910787227,0.574010037838,0.818813975224,0.00607431812532,0.0,0.818812965916,-0.573921493789,-0.0118403005254,0.0,-0.00620894135019,0.0117704084096,-0.999911449346,0.0,0.3100789627,-0.200973458719,0.305007803282,1.0,-0.152628571429,-0.20059755102,3.286
-0.447001318809,-0.52752997968,-0.134559402883,-2.64640742589,-0.0710188391122,2.11011978635,-0.700336885521,-0.666641237422,-0.0578472055414,0.00880919597464,-0.0461398616657,-0.0126785054746,-0.011517801706,-0.656450947328,0.573901308718,0.818890032061,0.00609509177272,0.0,0.818889080089,-0.573812302413,-0.0118685724292,0.0,-0.00622173680128,0.0118028205854,-0.999910987747,0.0,0.307981014799,-0.203713267743,0.304991433244,1.0,-0.150316571429,-0.197558922449,3.3
-0.459845412391,-0.528443324797,-0.134429561383,-2.64713226419,-0.0711775903722,2.10980372077,-0.712813565654,-0.680938848234,-0.0443541872805,0.00483191819619,-0.0366574947944,-0.00194056024729,-0.00956908785835,-0.647612507245,0.574001375467,0.818819612638,0.00613268474952,0.0,0.818818880629,-0.573911687192,-0.0119064239274,0.0,-0.00622971391783,0.0118560900396,-0.999910307874,0.0,0.30512039874,-0.20746095147,0.304971912847,1.0,-0.147178857143,-0.193435069388,3.319
-0.471047962848,-0.529043433324,-0.13426382662,-2.64760083156,-0.0712816161985,2.10956001883,-0.723834680326,-0.650371512983,-0.033823921631,0.0145176957081,-0.0232751835795,-5.69600878986e-05,-0.0176712846133,-0.639273679111,0.57396181406,0.818847214725,0.00614994628532,0.0,0.818846492732,-0.573871655434,-0.0119369732658,0.0,-0.00624539769858,0.0118874576466,-0.999909837615,0.0,0.302644582606,-0.210716492515,0.304961411627,1.0,-0.144371428571,-0.189745306123,3.336
-0.481388807909,-0.529462841425,-0.13414004627,-2.64795664715,-0.0713583124376,2.10935993252,-0.734040907434,-0.649236181592,-0.0275619652281,0.00652363622321,-0.0212719635839,-0.00689874905272,-0.0109953187603,-0.636888988912,0.573931875449,0.818867947475,0.00618335206965,0.0,0.818867220835,-0.573840747193,-0.0120007667953,0.0,-0.00627890479037,0.011951197016,-0.99990886797,0.0,0.300346099396,-0.213718356575,0.304938777027,1.0,-0.141729142857,-0.186272587755,3.352
-0.492365144972,-0.529772922804,-0.134001168677,-2.64819905958,-0.0714391826079,2.10918057222,-0.744657271189,-0.634582851393,-0.0120709616474,0.0159849865358,-0.0135012165814,-0.00454960781951,-0.00776754129085,-0.61555013947,0.574080388538,0.818763706069,0.00620064690624,0.0,0.818762980248,-0.573988727328,-0.012036194466,0.0,-0.00629581897568,0.0119868341197,-0.999908335034,0.0,0.297913362526,-0.216907373987,0.304929895317,1.0,-0.138921714286,-0.18258282449,3.369
-0.502808457855,-0.529947272647,-0.133801256568,-2.64831660111,-0.0714575644181,2.10908213319,-0.755164995214,-0.619529893385,-0.013312253329,0.0124079106054,-0.00875088843072,-0.00143471373384,-0.00372899476221,-0.616411640777,0.573872013594,0.818909566481,0.00622742653148,0.0,0.818909357766,-0.573780603495,-0.0120012381515,0.0,-0.00625487260413,0.0119871033539,-0.999908588783,0.0,0.295623385095,-0.219924883443,0.304936744845,1.0,-0.136114285714,-0.178893061225,3.386
-0.513379048964,-0.530044639012,-0.133668522634,-2.64838453328,-0.0714671713176,2.10899878642,-0.765423085854,-0.61861249036,-0.00628316680323,0.0105537678071,-0.000722708544777,-0.000820344177284,-0.00534877423329,-0.593346565478,0.574026295251,0.818800993437,0.00628429858801,0.0,0.818801591235,-0.573934735935,-0.011984155363,0.0,-0.00620598055045,0.0120250455078,-0.999908437851,0.0,0.293276275083,-0.222982701061,0.304937632876,1.0,-0.133306857143,-0.175203297959,3.403
-0.523536183086,-0.529998931059,-0.133467758102,-2.64833669851,-0.0714754789209,2.10895651258,-0.775510410507,-0.583514249555,0.00886452059194,0.0187018412822,0.00583716825393,-0.000354301831815,-0.00145285142766,-0.597185849128,0.573941039274,0.818860705151,0.00629093777531,0.0,0.818861576976,-0.573849834277,-0.0119512490061,0.0,-0.00617647350503,0.0120109507506,-0.999908789959,0.0,0.291037191425,-0.225908199693,0.304944169394,1.0,-0.130499428571,-0.171513534694,3.42
-0.534125260024,-0.529855453342,-0.133330798295,-2.64823102175,-0.0714868706913,2.10895129595,-0.785934663546,-0.585212329764,0.00871723877571,0.0151760660202,0.00774437221529,4.95561635966e-05,0.000255189680932,-0.582235189128,0.573980671504,0.818832691084,0.00632136491305,0.0,0.818834109596,-0.573889624093,-0.0119225509372,0.0,-0.00613492685117,0.0120196944194,-0.999908940663,0.0,0.288676418348,-0.228967875367,0.304942858531,1.0,-0.127526857143,-0.167606726531,3.438
-0.542323965323,-0.52967852506,-0.133226138439,-2.64806693263,-0.0714902144815,2.10895614393,-0.793910310217,-0.585182972796,0.0169655001977,0.013632557506,0.0106462394249,-5.34353808535e-05,0.000302907644837,-0.567000574037,0.574097260062,0.818750802509,0.00634084231476,0.0,0.818752751031,-0.574006650523,-0.0118762256522,0.0,-0.00608410076277,0.0120099219241,-0.99990936864,0.0,0.286847315653,-0.231338986995,0.304955932948,1.0,-0.125214857143,-0.164568097959,3.452
-0.55286326904,-0.529237491595,-0.132978063788,-2.64773745376,-0.0714886903818,2.10897728323,-0.804519327552,-0.55818293319,0.0292099056751,0.0023519477488,0.0200396459742,0.0024860227462,4.09492140406e-05,-0.555087684767,0.573884724732,0.818900119466,0.00629793290346,0.0,0.818901434139,-0.573794188902,-0.0118918816219,0.0,-0.00612466389754,0.0119821861921,-0.999909453754,0.0,0.284517097149,-0.234365052387,0.304952765816,1.0,-0.122077142857,-0.160444244898,3.471
-0.562849671338,-0.52874765806,-0.132810473138,-2.64739751454,-0.0714857645872,2.10901277923,-0.814348684205,-0.555471806574,0.0285754283575,0.0027232593681,0.020035155424,-0.000659850378075,0.00765026300864,-0.538947696175,0.573915917373,0.818878356212,0.00628525382517,0.0,0.81887922284,-0.573824875474,-0.0119405857957,0.0,-0.00617137109308,0.0119999870556,-0.9999089531,0.0,0.282274298203,-0.237233663932,0.304935654791,1.0,-0.119104571429,-0.156537436735,3.489
-0.570476861039,-0.528256936576,-0.132680759364,-2.64701201638,-0.0714770549744,2.10909882519,-0.821778782447,-0.539216745699,0.0406750765842,0.0111392809308,0.0275555932828,0.00480020191946,0.00428674802397,-0.531473533832,0.573983896218,0.818830911126,0.00625881513357,0.0,0.818831667085,-0.573893403211,-0.0119083848663,0.0,-0.00615917949635,0.0119603674472,-0.999909502964,0.0,0.280470108821,-0.239593298384,0.304942314044,1.0,-0.116627428571,-0.153281763265,3.504
-0.581347344052,-0.527335677192,-0.132445337022,-2.64637394709,-0.0714408758798,2.10923472702,-0.832738850708,-0.524243212018,0.0452307166408,0.00295223364668,0.0327567457342,0.0010391043156,0.00664428930766,-0.517086464051,0.573823651484,0.818943520617,0.00621883731965,0.0,0.818943287397,-0.573732455641,-0.0119878385305,0.0,-0.00624953420702,0.0119720108556,-0.999908802981,0.0,0.278168254699,-0.242581599551,0.304913034986,1.0,-0.113324571429,-0.148940865306,3.524
-0.587584638781,-0.526791952173,-0.132310501669,-2.64596789422,-0.0714119419931,2.10933550542,-0.838835572422,-0.514306227121,0.0490883890179,0.0110111058592,0.0373244198397,0.00774282866555,0.00679583917698,-0.516409181332,0.573878811595,0.818905059153,0.00619359326696,0.0,0.818904539605,-0.573787791827,-0.0119863199783,0.0,-0.0062619704291,0.0119508867989,-0.999908977873,0.0,0.276781899491,-0.244382042523,0.304910736493,1.0,-0.111342857143,-0.146336326531,3.536
-0.598574654442,-0.525615193701,-0.13207259239,-2.6450909792,-0.0713359806752,2.10953356945,-0.849738835853,-0.481843129994,0.0554399591075,0.0103915364844,0.0407048568014,0.00427821770205,0.0137342381881,-0.488171066138,0.573863509192,0.818916092792,0.00615245354198,0.0,0.818914861014,-0.573772331913,-0.012021166499,0.0,-0.00631434065499,0.0119370742546,-0.999908813523,0.0,0.27435014368,-0.247571515405,0.304901531284,1.0,-0.107709714286,-0.141561338776,3.558
-0.604747954915,-0.524870364122,-0.131907614893,-2.64453964104,-0.071259005093,2.10964565783,-0.856054560613,-0.477960268081,0.0536485417306,0.00986296123855,0.0473457352306,0.00716632677772,0.00945732977993,-0.494704127892,0.573694000666,0.819034952229,0.00613901695243,0.0,0.819033274606,-0.573602406645,-0.012063211873,0.0,-0.00635895969143,0.0119488814907,-0.999908389735,0.0,0.272989793453,-0.249355271831,0.304893044948,1.0,-0.105562857143,-0.138739755102,3.571
-0.613371792715,-0.523856455776,-0.13172210703,-2.6437406154,-0.0711524370408,2.10982430973,-0.86448811159,-0.469273702818,0.0582664543758,0.00371763402689,0.0483162987695,0.0146127048821,0.0162616896202,-0.46728879293,0.573808452973,0.818954812399,0.00613363244939,0.0,0.81895317828,-0.573717071558,-0.0120482566726,0.0,-0.00634813035737,0.0119367791311,-0.999908603096,0.0,0.271071722778,-0.251855409888,0.304904505763,1.0,-0.102590285714,-0.134832946939,3.589
