nelsonifechukwu/NELSON_IML_WORK/CNN-GradCAM/train2dof/data_sample_2022-02-21-17-39-45/robot_state.csv
position_joint1,position_joint2,position_joint3,position_joint4,position_joint5,position_joint6,position_joint7,velocity_joint1,velocity_joint2,velocity_joint3,velocity_joint4,velocity_joint5,velocity_joint6,velocity_joint7,ee_T_00,ee_T_10,ee_T_20,ee_T_30,ee_T_01,ee_T_11,ee_T_21,ee_T_31,ee_T_02,ee_T_12,ee_T_22,ee_T_32,ee_T_03,ee_T_13,ee_T_23,ee_T_33,v_x,v_y,time
0.465032220728,0.547884703017,-0.12402508854,-1.35591563393,0.0794724964592,1.89409161991,0.159161581417,0.000726906206846,0.00018167651472,0.00146582219191,-0.0010694782016,0.000140329569111,-0.0002073024782,0.00091120155961,0.573864537712,0.818936605734,0.00175358090482,0.0,0.818891240535,-0.573807117642,-0.0119697460703,0.0,-0.008796415372,0.00830516473782,-0.99992682098,0.0,0.661674333023,0.260825596652,0.303102107402,1.0,0.0,0.0,0.0
0.465027300179,0.547886228342,-0.124025193583,-1.35591310275,0.0794732467728,1.89409231325,0.159157361433,-0.000574843189113,0.000110453492044,0.000317407834773,7.61405909803e-05,8.02039616791e-05,4.51985282928e-05,-0.000633627642219,0.573865253491,0.818936100425,0.00175532261531,0.0,0.818890754918,-0.573807822949,-0.0119691575797,0.0,-0.00879492671481,0.00830626103137,-0.999926824969,0.0,0.661676276954,0.260822729525,0.303102296523,1.0,-0.0003,-0.000394285714286,0.016
0.465026496788,0.547873796004,-0.124025117763,-1.35592478061,0.0794724964412,1.89409150238,0.159162055323,-0.00121338386806,-0.00212622977003,0.000342834306395,-0.00233267948975,4.85601656716e-05,2.2582807477e-05,0.00115533698604,0.573870113449,0.818932694342,0.00175554246374,0.0,0.818887345495,-0.573812675503,-0.0119697836452,0.0,-0.00879526398924,0.00830685253911,-0.999926817088,0.0,0.661674001527,0.26082084262,0.303105471591,1.0,-0.00064,-0.000841142857143,0.033
0.465027953432,0.547843639734,-0.12402545263,-1.35594981268,0.0794715306693,1.89409071367,0.159157361378,0.000574095859343,-0.00112086311009,0.000347106228273,-0.0028268193931,-0.000231591868842,-0.00041544116773,-0.000123418090817,0.57386680573,0.818934980255,0.00177039458584,0.0,0.818889806727,-0.573809286717,-0.0119638546267,0.0,-0.0087819192771,0.00831557721968,-0.99992686186,0.0,0.66166958515,0.260821652716,0.30312042209,1.0,-0.00098,-0.001288,0.05
0.465031132794,0.547730861919,-0.124025796957,-1.35607479456,0.0794684617297,1.8941235218,0.159149738865,-0.000443033384534,-0.00528138290041,0.000589981236263,-0.0100639617098,1.85856377836e-05,0.000292623149375,-0.00558718297188,0.573863801196,0.818937061501,0.00178153817663,0.0,0.818891976219,-0.57380618048,-0.0119643398641,0.0,-0.00877595267892,0.00832494915247,-0.999926836262,0.0,0.661648954416,0.260809116393,0.303138124423,1.0,-0.00132,-0.00173485714286,0.067
0.465022577341,0.547599230508,-0.124020271105,-1.35626817674,0.0794686727442,1.89416237669,0.159152450972,-0.00101967835994,-0.0131254811757,0.00145381289107,-0.0152745601153,-0.000410879190573,0.00116255980621,0.000532530784352,0.573879812728,0.818925863918,0.00177111569521,0.0,0.818880459972,-0.573822061978,-0.0119908450309,0.0,-0.00880347736002,0.00833179634883,-0.99992653728,0.0,0.661616788695,0.260788097067,0.303142523768,1.0,-0.00164,-0.00215542857143,0.083
0.465007431114,0.547445071908,-0.124025823375,-1.35645960928,0.079462974693,1.89425801445,0.159141038905,-0.000629478365317,-0.00580472429275,-0.00196390940364,-0.0110882950613,0.000320309876948,0.00779344856237,-0.00228716655386,0.573896089819,0.818914344857,0.00182230084922,0.0,0.81886961678,-0.573838124301,-0.0119626382409,0.0,-0.00875083883731,0.00835769902001,-0.999926783163,0.0,0.661601592428,0.260759748423,0.303169088519,1.0,-0.00196,-0.002576,0.099
0.464990257918,0.547229401709,-0.124023672143,-1.35670358696,0.0794596953765,1.89439764322,0.159124844823,-0.000210062064253,-0.0123229360908,-0.000147626738418,-0.0115616693086,-0.000976092289169,0.0137933753145,0.00389835515671,0.573908432411,0.818905464029,0.00192330237527,0.0,0.818862002973,-0.573849991245,-0.0119144674896,0.0,-0.00865330207986,0.00841289456957,-0.999927169132,0.0,0.661583368806,0.260732477626,0.303217777168,1.0,-0.00234,-0.00307542857143,0.118
0.464964085727,0.547029989812,-0.124023292068,-1.35697891064,0.079458248416,1.89452216946,0.159114523136,-0.00468385584504,-0.0120983617019,0.00110053131334,-0.0145554641364,0.000373580303308,0.0119947724189,-0.000715537775606,0.573936298204,0.818885817392,0.00197245522387,0.0,0.818842887644,-0.573877543461,-0.0119011498273,0.0,-0.00861390089006,0.00844579541526,-0.999927231978,0.0,0.661557139601,0.260693550891,0.303238774382,1.0,-0.00266,-0.003496,0.134
0.464935599583,0.546812001843,-0.124020508328,-1.35731964818,0.0794463478492,1.89464071846,0.15908219136,-0.000617775974998,-0.0146539609939,0.00200396663292,-0.0179712359174,-0.00315047788601,0.0093427443094,0.000763597380096,0.573947069495,0.818878263398,0.00197434903211,0.0,0.818835253197,-0.573888202533,-0.0119124312183,0.0,-0.00862194137077,0.00845393434235,-0.999927093903,0.0,0.661515814231,0.260644854271,0.30324116732,1.0,-0.00298,-0.00391657142857,0.15
0.464901216594,0.546544862423,-0.124025432023,-1.35770914472,0.0794376909295,1.89479471104,0.158940384417,-0.00312277588094,-0.0203152349599,0.000889235180318,-0.026775426922,0.000109971967981,0.0102091649775,-0.0104276222134,0.573886080117,0.818920928093,0.00200685825473,0.0,0.818878210843,-0.573826958118,-0.0119098633692,0.0,-0.00860181260765,0.008478440537,-0.999927059773,0.0,0.661472234423,0.260579661128,0.303256479934,1.0,-0.00332,-0.00436342857143,0.167
0.46484907378,0.546225744721,-0.124030435536,-1.35824710754,0.0794179274129,1.89497860427,0.158920771177,-0.00164838497205,-0.0164155938269,-0.00115142449825,-0.0273517920285,0.000312492542018,0.0139297406239,-0.00130377619417,0.57393701078,0.818885289252,0.00198433989716,0.0,0.818842189707,-0.573877888255,-0.0119325030201,0.0,-0.00863274860454,0.00847352948272,-0.999926834798,0.0,0.661412211381,0.26049781473,0.303244515954,1.0,-0.00368,-0.00483657142857,0.185
0.464804312973,0.545946133,-0.124023374609,-1.35874537889,0.0793802170621,1.89513707017,0.158861917765,0.00012491225265,-0.0144017137491,-0.000379284841336,-0.0343294146444,-0.00477223402583,0.0132276377039,-0.00746775641204,0.573938264103,0.818884540092,0.00193025853019,0.0,0.818840727,-0.573879359698,-0.011962074218,0.0,-0.0086879893859,0.00844622902597,-0.999926587333,0.0,0.661348908084,0.260421463018,0.303218803475,1.0,-0.00398,-0.00523085714286,0.2
0.464737581523,0.545584211096,-0.124022677664,-1.35936335639,0.0792960055754,1.89534888456,0.158766239041,-0.00272052132904,-0.0199376976348,0.0010601979922,-0.0338977577008,-0.000975632506814,0.0166925828713,-6.59850823624e-05,0.573926156639,0.818893173608,0.00186650587769,0.0,0.818848926999,-0.573867908168,-0.0119501309309,0.0,-0.00871492060868,0.00838704052823,-0.99992685118,0.0,0.661280652713,0.260309866306,0.303199129092,1.0,-0.00432,-0.00567771428571,0.217
0.464666229586,0.545156486205,-0.124028991406,-1.36009007282,0.0792822638538,1.8955854171,0.158694437235,-0.0021301188507,-0.0216603598285,4.7040614859e-06,-0.0387088385502,-0.000258908929587,0.0175019323034,-0.0108954119496,0.57396696499,0.818864658019,0.00182807255972,0.0,0.818819613623,-0.573908591909,-0.0120048065415,0.0,-0.00878133432245,0.00838738552611,-0.999926267248,0.0,0.661192855781,0.260192204749,0.303176760829,1.0,-0.00468,-0.00615085714286,0.235
0.464597304306,0.544721729965,-0.124034693821,-1.36080482858,0.0792590658185,1.89583225053,0.158584310251,-0.00273590277631,-0.0244976913639,-0.000838852768685,-0.0392087807463,-0.000122985482574,0.00832552075697,-0.0102343566775,0.573970846141,0.818861979023,0.0018094173822,0.0,0.818816501108,-0.573912372649,-0.012036317308,0.0,-0.00881780535812,0.0083902375777,-0.999925922367,0.0,0.661109719603,0.260077191705,0.303165876771,1.0,-0.00502,-0.00659771428571,0.252
0.464528049316,0.544247622402,-0.12403762382,-1.36158462617,0.079222650934,1.89611522437,0.158510197995,-0.00592969782358,-0.0263552599564,-0.000119367405544,-0.0477070332984,-0.00319935468632,0.0194193050685,-0.00723355393314,0.574002711324,0.818839676324,0.00179409326715,0.0,0.81879389966,-0.573944207511,-0.0120558469191,0.0,-0.00884226659164,0.00838924296035,-0.999925714703,0.0,0.661019960475,0.259956681785,0.303154864432,1.0,-0.00536,-0.00704457142857,0.269
0.46445441632,0.543768700425,-0.124030034844,-1.36236330728,0.079179075227,1.89638110987,0.158410840201,-0.00330424523276,-0.0312856335125,0.0034507003435,-0.0514566238017,-0.000585150756943,0.0148620971298,-0.00170867990042,0.574007983791,0.818836034848,0.001769033546,0.0,0.818789818885,-0.57394948447,-0.0120817494219,0.0,-0.00887780682423,0.00838364869429,-0.999925446711,0.0,0.660926193846,0.259837255756,0.303145896014,1.0,-0.00568,-0.00746514285714,0.285
0.46438713213,0.543255999223,-0.124038568747,-1.36316641847,0.0791297197421,1.89666035149,0.158294020284,-0.00528432889568,-0.0302193600942,0.00125815062401,-0.0555259282366,-0.00442216623384,0.0250644793298,-0.0110818533946,0.574004827418,0.818838272355,0.00175747806132,0.0,0.818791923557,-0.573946397173,-0.0120857764126,0.0,-0.00888776919345,0.00837646411925,-0.999925418423,0.0,0.660832622175,0.259710210569,0.303150822371,1.0,-0.006,-0.00788571428571,0.301
0.464303140502,0.542647621076,-0.124044376774,-1.3641178333,0.0790776897503,1.89700897689,0.158180700367,-0.00759938084054,-0.0299630734328,-0.000969693794523,-0.0555520414094,-0.00309287152993,0.0177353503601,-0.00661401365162,0.574023901283,0.818824888492,0.00176341805325,0.0,0.818778583584,-0.573965410343,-0.0120865915413,0.0,-0.00888483206505,0.00838200274519,-0.999925398112,0.0,0.660724974869,0.259561639721,0.303158706925,1.0,-0.00636,-0.00835885714286,0.319
0.464227411075,0.542078543766,-0.124044974416,-1.36499709415,0.0790245008121,1.89733978608,0.158071021302,-0.00207602377472,-0.036803119063,-0.000550609405597,-0.0592149839539,-0.0039588945523,0.01553923119,-0.0112133621342,0.574031212005,0.81881972679,0.00178032708674,0.0,0.818773646686,-0.573972648488,-0.0120773002889,0.0,-0.0088674433955,0.0083905937686,-0.999925480415,0.0,0.660625954041,0.259428209147,0.30317133543,1.0,-0.00668,-0.00877942857143,0.335
0.464155957766,0.541471274508,-0.124049857888,-1.36591615703,0.078966047641,1.89767965808,0.157936304469,-0.00018072511584,-0.0369361509251,-0.00127766498477,-0.0598854350145,-0.0026879777052,0.0192950242067,-0.0125016539935,0.574018209678,0.818828794948,0.00180178340497,0.0,0.818783038248,-0.573959593623,-0.0120610143483,0.0,-0.00884192520825,0.00839867325422,-0.999925638558,0.0,0.660520593231,0.259290668664,0.303192865166,1.0,-0.007,-0.0092,0.351
0.464062696475,0.540746333412,-0.124050914535,-1.36704181324,0.0789103969623,1.89808984281,0.157796820153,-0.0030504565084,-0.0379668950876,-0.00132313955468,-0.0587679280991,-0.00261761489315,0.018424599812,-0.0111384441093,0.574028605379,0.818821475196,0.00181627788877,0.0,0.81877577817,-0.573969800765,-0.0120681313243,0.0,-0.00883932662028,0.00841473894516,-0.999925526464,0.0,0.660389104203,0.259123191974,0.303205153611,1.0,-0.00736,-0.00967314285714,0.369
0.463975236266,0.540012975423,-0.124053530636,-1.3681465531,0.0788362660993,1.89851179192,0.157674042558,-0.00192062457356,-0.0448202723633,-0.000707746870119,-0.0634359786584,-0.00358376899491,0.0237836695183,-0.00556544405878,0.574042925124,0.818811351417,0.00185413248401,0.0,0.81876624246,-0.573984042233,-0.0120377061951,0.0,-0.00879253730314,0.00842842343623,-0.999925823732,0.0,0.660264691761,0.258959059998,0.303234258389,1.0,-0.0077,-0.01012,0.386
0.463873605967,0.53930754443,-0.124048208612,-1.36924014267,0.0787719145316,1.89892757421,0.15753263095,-0.00745561830958,-0.0497566239506,0.00175175664781,-0.0721368444265,-0.00298576707241,0.030080052985,-0.00249371714253,0.574049955592,0.818806365449,0.00187917155928,0.0,0.818761545049,-0.573990926217,-0.0120289596683,0.0,-0.00877093018985,0.00844397974544,-0.999925882248,0.0,0.660141980311,0.25879230218,0.303248047405,1.0,-0.00802,-0.0105405714286,0.402
0.463770821959,0.538550215926,-0.124057069046,-1.370435301,0.0787094217602,1.89938640864,0.157383028348,-0.00898672584333,-0.040137138903,-0.000294869471636,-0.0738382542097,-0.00749452580301,0.0331054694042,-0.0115187255263,0.574067273297,0.818794178678,0.0018988401063,0.0,0.818749580668,-0.574008123602,-0.0120226908907,0.0,-0.00875432821483,0.0084566707352,-0.999925920485,0.0,0.66000893404,0.258608409102,0.303254255539,1.0,-0.00836,-0.0109874285714,0.419
0.463657550209,0.537764375367,-0.124055183578,-1.37166571828,0.0786445971413,1.89986019565,0.157239165328,-0.00766565438808,-0.0456840748682,0.0003926101704,-0.0736928723128,-0.00177575336588,0.025721095973,-0.0115400628017,0.574091555913,0.818777085206,0.00192797079793,0.0,0.818732784319,-0.574032197361,-0.0120171201404,0.0,-0.00873279342085,0.00847758331819,-0.999925931707,0.0,0.659871583607,0.258420669011,0.30326462893,1.0,-0.0087,-0.0114342857143,0.436
0.463556348851,0.536978346753,-0.124065856903,-1.37289661915,0.0785705435008,1.9003107712,0.157083445522,-0.00457908718481,-0.0517521712875,-0.000428521426647,-0.0734516984195,-0.00690101237754,0.0202607781232,-0.0139448110526,0.574102345571,0.818769514849,0.00193009484812,0.0,0.818725271662,-0.574043005676,-0.0120126632289,0.0,-0.00872781303353,0.00847687877129,-0.999925981164,0.0,0.659729489351,0.258230503799,0.303273145833,1.0,-0.00902,-0.0118548571429,0.452
0.463435525249,0.536079898037,-0.124072065334,-1.37430279205,0.078493032234,1.90084234307,0.156906685707,-0.000674268653034,-0.0508969317138,-0.00242563070812,-0.0772346977751,-0.00734545514722,0.0281914445902,-0.0167786240837,0.574117564462,0.818758791669,0.00195195844865,0.0,0.818714796449,-0.574058092847,-0.0120056242457,0.0,-0.00870934053808,0.00849090049189,-0.999926023262,0.0,0.659569797466,0.258015599788,0.303284334506,1.0,-0.00938,-0.012328,0.47
0.463317039511,0.535231677671,-0.12407122372,-1.37563499293,0.0784134023851,1.90131550841,0.156750900206,-0.00367529510756,-0.0561476944458,0.00171917219973,-0.0823135815242,-0.00222563034812,0.025277950412,-0.00790618140038,0.574138091747,0.818744417496,0.00194353409007,0.0,0.818700256445,-0.574078599139,-0.0120166138824,0.0,-0.00872296214964,0.00849053109066,-0.999925907662,0.0,0.659411868362,0.257810176663,0.303289802146,1.0,-0.0097,-0.0127485714286,0.486
0.463195620197,0.534386967575,-0.124074080478,-1.37702384456,0.0783403001083,1.90182486814,0.156578688008,-0.0108663644927,-0.0520808343352,0.00190670549175,-0.0940691914692,-0.00282805763752,0.0343456528887,-0.0131620291371,0.574155104413,0.818732548265,0.00191765192035,0.0,0.81868793455,-0.574095609704,-0.0120434065888,0.0,-0.00875958206694,0.00848490521807,-0.999925635288,0.0,0.659248812147,0.2575974168,0.303268968068,1.0,-0.01002,-0.0131691428571,0.502
0.463066905022,0.533411905463,-0.124080047292,-1.37859020244,0.0782481048522,1.90240912633,0.156382298051,-0.00233297479334,-0.0518280095442,0.000476607257818,-0.0827741265529,-0.00172096984237,0.0372795890662,-0.0112611181644,0.574164948791,0.818725662266,0.00191008597739,0.0,0.818680939719,-0.574105475944,-0.0120485822105,0.0,-0.00876806144282,0.00848178787149,-0.999925587418,0.0,0.659066112187,0.257360700229,0.303261983043,1.0,-0.01038,-0.0136422857143,0.52
0.462931774307,0.532463866876,-0.124080156917,-1.3801457602,0.0781564165834,1.90298968924,0.156189146318,-0.0106697369132,-0.0560375001408,-0.000920645970502,-0.0929322259117,-0.00293251794079,0.0227030765765,-0.0111259187766,0.574177980339,0.818716578272,0.00188633453161,0.0,0.818671504371,-0.574118569644,-0.0120657706866,0.0,-0.00879563615082,0.00847235129181,-0.999925425243,0.0,0.658884332327,0.257123937867,0.303240377599,1.0,-0.01072,-0.0140891428571,0.537
0.462802297874,0.53153257044,-0.124082881784,-1.38162599427,0.0780737446975,1.90352522342,0.156005019238,-0.0113196125494,-0.0623829437315,-0.00152569047644,-0.0931222785319,-0.00769403696381,0.0346020221157,-0.0110966944847,0.574193604425,0.818705640655,0.00187763122714,0.0,0.818660363626,-0.574134143883,-0.0120805942064,0.0,-0.00881260809215,0.00847390534307,-0.999925262641,0.0,0.6587089313,0.256896539469,0.303238794893,1.0,-0.01104,-0.0145097142857,0.553
0.462661277883,0.53052356235,-0.12408332396,-1.38326961091,0.0779717517579,1.90409624687,0.15579511988,-0.0105189053799,-0.0646383352776,-0.000965937678279,-0.0922074767717,-0.00325930641538,0.0359795285258,-0.0177133849743,0.574199334151,0.818701748004,0.00182191598517,0.0,0.818655683896,-0.57414006358,-0.0121163326684,0.0,-0.00887379862358,0.00844887469442,-0.99992493329,0.0,0.658507597604,0.256643817363,0.303217004684,1.0,-0.01138,-0.0149565714286,0.57
0.462518193986,0.529476041612,-0.124083561273,-1.38491043053,0.0778619147525,1.9047178641,0.155569256912,-0.0157683272412,-0.0624511613922,-0.00385077759735,-0.0981109877298,-0.00210671518955,0.0366370373543,-0.0119289923275,0.574191349959,0.818707309054,0.00183919435111,0.0,0.818661566065,-0.574132094284,-0.0120965061849,0.0,-0.00884772786918,0.0084515496624,-0.999925141708,0.0,0.6583184968,0.256392877407,0.303227786156,1.0,-0.01172,-0.0154034285714,0.587
0.46238542747,0.528434755075,-0.124081237636,-1.38651032241,0.0777740057817,1.90532340469,0.155351991486,-0.00716583692694,-0.0647727167799,0.0015471548639,-0.105421921708,-0.00151087231484,0.0369659143763,-0.0141571925014,0.574183677938,0.818712587179,0.00188427312155,0.0,0.818667336658,-0.574124131441,-0.0120838936742,0.0,-0.00881159883445,0.00848113065965,-0.999925210278,0.0,0.658130709205,0.256157464553,0.303251956404,1.0,-0.01204,-0.015824,0.603
0.46223774459,0.527310972733,-0.124084735286,-1.38824939,0.0776583552138,1.90599366897,0.15509219981,-0.00671344507603,-0.0696559531509,0.00101465814319,-0.104740640482,-0.00442121363135,0.0405373037377,-0.00981300932675,0.574157396658,0.818730926684,0.00192365693912,0.0,0.81868631558,-0.57409780219,-0.0120489461745,0.0,-0.00876064631566,0.00849302669702,-0.999925557016,0.0,0.657931611182,0.255893356024,0.303273471214,1.0,-0.01238,-0.0162708571429,0.62
0.462087858488,0.526069690344,-0.124092596465,-1.39016864244,0.0775399478901,1.90670721841,0.154855342818,-0.0113809652426,-0.0748759391509,0.000444463933988,-0.101830708366,-0.00668670131128,0.0413839796536,-0.00444551926548,0.574163396147,0.818726655841,0.00195049771795,0.0,0.818682432376,-0.574103721214,-0.0120307567473,0.0,-0.00873028132585,0.00850462210868,-0.999925724037,0.0,0.657703127516,0.255607944324,0.303295507811,1.0,-0.01274,-0.016744,0.638
0.461936377974,0.524964780098,-0.124098266331,-1.39189421673,0.0774175859256,1.9073175876,0.154600289748,-0.0105077252971,-0.0701638072809,-0.000184633699975,-0.109091172507,-0.0132883746078,0.0370226095263,-0.016460620123,0.574142223906,0.818741547651,0.00193178131414,0.0,0.818697200092,-0.574082749051,-0.0120265832319,0.0,-0.00873782927112,0.00848667659064,-0.999925810578,0.0,0.657495451045,0.255336392303,0.303304438089,1.0,-0.01306,-0.0171645714286,0.654
0.461784575421,0.523775186053,-0.124108085988,-1.39378888654,0.0773121347583,1.90801107952,0.154349574185,-0.0102182058062,-0.0692072027655,0.000108693156633,-0.108507929867,-0.00683716809875,0.0402128533082,-0.012762184389,0.574141559039,0.818742031899,0.00192413265674,0.0,0.81869750073,-0.574082035971,-0.0120401484934,0.0,-0.0087533341776,0.00848819564829,-0.999925662075,0.0,0.65726638741,0.255051614893,0.303299557505,1.0,-0.0134,-0.0176114285714,0.671
0.461624595613,0.522547105524,-0.124108169421,-1.39573026445,0.0771926541861,1.90875734771,0.154098344779,-0.0120701892318,-0.0690726342163,-0.000268168435503,-0.114484002592,-0.010347534915,0.040555469699,-0.0179386982224,0.574138901945,0.8187438359,0.00194919227276,0.0,0.818699654885,-0.574079293629,-0.012024417657,0.0,-0.00872609491823,0.00849965263579,-0.999925802834,0.0,0.657037895639,0.254763433266,0.303303410879,1.0,-0.01374,-0.0180582857143,0.688
0.461475689587,0.521380055677,-0.124117024083,-1.39759928264,0.0770727270314,1.90948620449,0.153837245883,-0.0109322310809,-0.0758490802184,3.86605857215e-05,-0.121366846439,-0.00897893708949,0.0459317050248,-0.0103464341251,0.574121121334,0.8187562693,0.00196377741751,0.0,0.818712398493,-0.574061569823,-0.0120028958151,0.0,-0.00870028455874,0.00849904855726,-0.999926032876,0.0,0.656819939393,0.254483984998,0.303297275731,1.0,-0.01406,-0.0184788571429,0.704
0.461306571907,0.520079181409,-0.124117079028,-1.39963709859,0.0769500321143,1.91022950916,0.153563740296,-0.0106801971345,-0.0760977921867,-0.000481604830714,-0.121189846295,-0.0102157669258,0.0391625636968,-0.0191299496291,0.57411057776,0.818763639673,0.00197325998508,0.0,0.818719819454,-0.574050915697,-0.0120062617503,0.0,-0.00869770632603,0.00850863274648,-0.999925973797,0.0,0.656584924995,0.254201084896,0.303307978078,1.0,-0.01438,-0.0188994285714,0.72
0.461135941601,0.518737009414,-0.124116102824,-1.40171834664,0.0768120016722,1.91096398229,0.153280504034,-0.0121742970164,-0.0799327631052,0.000855540460394,-0.120152872061,-0.011329037506,0.0362514510048,-0.0198359455017,0.574091268952,0.8187772071,0.00196136371533,0.0,0.818733256095,-0.57403168389,-0.0120095027103,0.0,-0.00870738981584,0.00850054801339,-0.999925958282,0.0,0.656311754336,0.253865470894,0.303320637422,1.0,-0.01474,-0.0193725714286,0.738
0.460973346155,0.517472204318,-0.124121067839,-1.40372257803,0.0766793469947,1.91168641038,0.153021577606,-0.010666173025,-0.0784884899734,-0.00358182499905,-0.12809367535,-0.00753137763372,0.0413950859582,-0.00935158573157,0.574081419251,0.818784163395,0.00194029530339,0.0,0.818740022139,-0.574022007965,-0.0120107210617,0.0,-0.00872058388847,0.00848389255424,-0.999925984753,0.0,0.65605214933,0.253539591859,0.303316046123,1.0,-0.01508,-0.0198194285714,0.755
0.460786465519,0.516107483209,-0.124119519028,-1.40586619951,0.0765444066075,1.9124909992,0.152718481044,-0.0060219347271,-0.0833400931455,0.000540305892759,-0.129039921562,-0.00544857376658,0.0402122965479,-0.0182801930437,0.574066830659,0.818794348189,0.00195862535265,0.0,0.818750426747,-0.574007324051,-0.0120032303094,0.0,-0.00870407942039,0.00849444526913,-0.999926038965,0.0,0.65580710234,0.253236866861,0.303323678714,1.0,-0.0154,-0.02024,0.771
0.460583100004,0.514557002856,-0.124125815353,-1.4083515333,0.0763934735282,1.91340539715,0.152367392951,-0.0113921319499,-0.0885491806495,-0.00122587213701,-0.137695463518,-0.00711826175634,0.0508253527335,-0.0207112249605,0.574040597837,0.818812786512,0.0019389638631,0.0,0.818768573206,-0.573981144162,-0.0120173448852,0.0,-0.00872719498084,0.00848616990307,-0.999925907749,0.0,0.655501439141,0.252862933763,0.303307301706,1.0,-0.01578,-0.0207394285714,0.79
0.460418267871,0.513338486085,-0.124125557922,-1.41035590702,0.0762779890218,1.91409720349,0.152098267079,-0.00987268523303,-0.0794154502414,0.00084090869729,-0.133611508111,-0.00484006770317,0.0433635536056,-0.0262392460377,0.574028949924,0.818821128916,0.00186289841042,0.0,0.818775736159,-0.573969648509,-0.0120782188,0.0,-0.00882082343547,0.00845870612841,-0.999925318894,0.0,0.655242832201,0.252561527918,0.303267263624,1.0,-0.01608,-0.0211337142857,0.805
0.4602194568,0.511903726637,-0.124137497448,-1.41264141935,0.0761405133448,1.91491512894,0.151780045458,-0.0130082124767,-0.0844165329721,-0.000832246865072,-0.133691213593,-0.00361068864218,0.0430925085622,-0.0174797083877,0.574022146866,0.81882596435,0.00183355242494,0.0,0.818780137506,-0.573962927736,-0.01209921117,0.0,-0.00885492762096,0.00844665410207,-0.999925119342,0.0,0.65495995301,0.252205268227,0.303255791158,1.0,-0.01642,-0.0215805714286,0.822
0.460022232568,0.510439571972,-0.124136593106,-1.41495698089,0.0759912283492,1.91581623164,0.151444253135,-0.0142541448336,-0.0922504421876,0.000194630226788,-0.136962197633,-0.00431174054937,0.0571700574048,-0.0243166453136,0.573988878138,0.818849205212,0.00186917076494,0.0,0.818803928927,-0.573929587273,-0.0120706970668,0.0,-0.00881147794213,0.00845909309766,-0.999925398017,0.0,0.654683739314,0.251858108142,0.303256904713,1.0,-0.01676,-0.0220274285714,0.839
0.459830999555,0.509043889241,-0.124142594799,-1.41719294106,0.0758419820742,1.9166229254,0.151138052262,-0.00909055092742,-0.0883348917901,-0.00167717608547,-0.137461438047,-0.0140448113424,0.0518279587702,-0.0252151426478,0.573974847308,0.818859124335,0.00183195338185,0.0,0.818813425869,-0.573915783566,-0.0120827931984,0.0,-0.00884288875035,0.00843540981349,-0.999925320801,0.0,0.654404988612,0.251513148315,0.303239560719,1.0,-0.01708,-0.022448,0.855
0.459621213377,0.507528415088,-0.124140166345,-1.41957784726,0.0756996121365,1.91747550008,0.15080053513,-0.00866253675443,-0.092397818129,-0.00201862477478,-0.142185776332,-0.00456907562371,0.0537781283718,-0.0208575886819,0.5739536359,0.818874016268,0.0018210487687,0.0,0.81882803478,-0.57389448936,-0.0121041910427,0.0,-0.00886688839466,0.008438532711,-0.999925081922,0.0,0.654104417927,0.251149159572,0.303238357612,1.0,-0.01742,-0.0228948571429,0.872
0.459382981914,0.505869828448,-0.12414323694,-1.42215842536,0.0755374543548,1.91844746902,0.15045279102,-0.0117336385481,-0.0902788695498,0.0014145419563,-0.14286020289,-0.00820108158347,0.059408165194,-0.0215132602797,0.573955816939,0.81887240094,0.00185959186207,0.0,0.818826953294,-0.573896528024,-0.0120806698061,0.0,-0.00882548369383,0.00845661746263,-0.999925295439,0.0,0.653793011178,0.250746970125,0.303254014778,1.0,-0.01778,-0.023368,0.89
0.459179954428,0.504319078106,-0.124152449286,-1.42449677189,0.0753905875761,1.91934911432,0.15012646044,-0.00819010447449,-0.0994554354411,-0.000646597706433,-0.145309985701,-0.00771530050727,0.054024605231,-0.0169690770922,0.573942351771,0.818881623397,0.00195207779048,0.0,0.818837478457,-0.573882754067,-0.0120214541423,0.0,-0.0087240520701,0.00849821973489,-0.999925832838,0.0,0.653513522229,0.250389282627,0.303303020386,1.0,-0.0181,-0.0237885714286,0.906
0.458949493862,0.502631876562,-0.124157950967,-1.42697569324,0.0752313183144,1.92028346806,0.149789758425,-0.0132851598314,-0.0990498350699,-0.00101868938319,-0.145934274921,-0.00796721379492,0.0551167147286,-0.0222165137492,0.573943372143,0.818880619401,0.00206969626102,0.0,0.818838096622,-0.573883365291,-0.0119499566622,0.0,-0.00859798919592,0.00855350925221,-0.999926453326,0.0,0.653216074712,0.250001298104,0.303382459833,1.0,-0.01844,-0.0242354285714,0.923
0.458714010415,0.500918089964,-0.124154325731,-1.42954725049,0.0750707317212,1.92117907313,0.149421432352,-0.00926895277721,-0.102862155053,0.00159746007179,-0.150806331307,-0.00539230710433,0.0507723199225,-0.0174041084305,0.573919596199,0.818897191987,0.00210545881792,0.0,0.818855019982,-0.573859329583,-0.0119445804325,0.0,-0.00857331125273,0.00857945948219,-0.999926442899,0.0,0.652887407104,0.249602109778,0.303432109669,1.0,-0.01878,-0.0246822857143,0.94
0.458481173002,0.499317172475,-0.124164556318,-1.43199125774,0.0749103823624,1.92207558027,0.149076317996,-0.01816855194,-0.0944707149037,-0.00340667336897,-0.153572814555,-0.0107734330308,0.0559308011754,-0.0219241441583,0.573915962442,0.81889963855,0.00214404715178,0.0,0.818858054764,-0.573855624324,-0.0119145071479,0.0,-0.0085265762431,0.0085937615734,-0.999926719695,0.0,0.652588048986,0.24921033238,0.303463637787,1.0,-0.0191,-0.0251028571429,0.956
0.458214134872,0.49753642599,-0.124160020142,-1.43479654281,0.0747440379432,1.92311271386,0.14866557258,-0.0141038665333,-0.0975430954561,-0.000140166651414,-0.156237003565,-0.0102076952483,0.0590987248154,-0.0198201891319,0.57389264784,0.818915938972,0.00215883148012,0.0,0.81887440944,-0.573832113014,-0.0119228579043,0.0,-0.00852517568214,0.00861041812314,-0.999926588345,0.0,0.652238607663,0.248773050101,0.30345983321,1.0,-0.01946,-0.025576,0.974
0.45796864566,0.495957803323,-0.124162156084,-1.43732857983,0.0745906410584,1.92399068265,0.148287264822,-0.0120196392838,-0.0990088710482,-0.000631403925131,-0.157765919901,-0.00938748751567,0.0540669399079,-0.0286674546805,0.573871767133,0.818930731721,0.00209724380968,0.0,0.818888234193,-0.57381132217,-0.0119738611604,0.0,-0.0086025062632,0.00858903450906,-0.999926109956,0.0,0.65191229875,0.248367202281,0.303431003238,1.0,-0.01978,-0.0259965714286,0.99
0.457714801933,0.494385560128,-0.124162812594,-1.43990585714,0.074424799699,1.92489678245,0.147938351878,-0.0153934900539,-0.0951838194939,0.000310867715943,-0.158186657841,-0.0101654511874,0.048451356558,-0.0179604737443,0.573879141417,0.818925785598,0.0020088878821,0.0,0.818882057774,-0.573818991103,-0.0120286244627,0.0,-0.00869798018307,0.00854818350081,-0.999925634085,0.0,0.651581731428,0.247951370399,0.303378090539,1.0,-0.0220628571429,-0.0289968979592,1.006
0.457401733737,0.492106562681,-0.12423292511,-1.44339481402,0.0742203417926,1.92619940983,0.147431358066,-0.0202929474027,-0.133809496938,-0.00458325153771,-0.209757359451,-0.0107574859289,0.0839828305696,-0.0233556980157,0.573890910284,0.818917364993,0.00207829453284,0.0,0.818874724197,-0.573830645293,-0.0119717790975,0.0,-0.00861147449749,0.00857252311401,-0.999926174452,0.0,0.651158495648,0.247378111849,0.303418791558,1.0,-0.0295611428571,-0.0388517877551,1.024
0.457021386681,0.489424404939,-0.124247048968,-1.44771449623,0.0739805679324,1.9277905952,0.146791297299,-0.0235161550483,-0.179926365986,-0.00179913946217,-0.28111644811,-0.0139899785509,0.100122801813,-0.0408644648708,0.573839866525,0.818953207507,0.00204900007951,0.0,0.818909876459,-0.573779425373,-0.0120221527784,0.0,-0.00867007341656,0.0085769020796,-0.999925630523,0.0,0.650604732213,0.246714843124,0.30336679149,1.0,-0.0366428571429,-0.0481591836735,1.041
0.456568979668,0.486511094222,-0.124285201213,-1.45230762458,0.0737084713396,1.92950108132,0.146131306797,-0.0331146120009,-0.207949424775,-0.00341294714714,-0.318764553046,-0.0247028039261,0.120838933447,-0.0455440424044,0.573852086054,0.8189445876,0.00207187668434,0.0,0.818901529952,-0.573791521606,-0.0120133624375,0.0,-0.00864961940378,0.00859072147998,-0.999925689033,0.0,0.650035621175,0.245964476561,0.303354458178,1.0,-0.0428914285714,-0.0563715918367,1.056
0.455933438699,0.482386475809,-0.124399654,-1.45874112117,0.0733116661733,1.93180626591,0.145127844632,-0.0368169348034,-0.244888613558,-0.00139491939228,-0.380927709328,-0.0190589985581,0.130388348805,-0.0600620240941,0.573842507608,0.818951357098,0.00204891925687,0.0,0.818908230806,-0.573782270131,-0.011998454213,0.0,-0.00865068337074,0.00856326476609,-0.999925915343,0.0,0.649230113935,0.244869271912,0.303358255833,1.0,-0.0503897142857,-0.0662264816326,1.074
0.455216130475,0.47784320285,-0.124492184034,-1.46583077902,0.0729002822863,1.93430597014,0.144077111314,-0.0437063547494,-0.282283356705,-0.00384123777835,-0.430422677955,-0.0222372157067,0.153166851706,-0.056326156121,0.573870780987,0.818931637709,0.00201156393345,0.0,0.818887810588,-0.573810488349,-0.0120425924259,0.0,-0.00870797111003,0.00855830187971,-0.999925460576,0.0,0.64832105971,0.243673482314,0.30335194821,1.0,-0.0574714285714,-0.075533877551,1.091
0.454428590607,0.473050825778,-0.124571406042,-1.47324396668,0.0724525412813,1.93699058858,0.143016705178,-0.0551454629329,-0.314325941917,-0.0044577757103,-0.480763105594,-0.0261350921819,0.170107226106,-0.0674933892736,0.573941276193,0.818882111429,0.00206057414235,0.0,0.818838886156,-0.573880728339,-0.0120222735195,0.0,-0.00866246771355,0.00858752257849,-0.999925605287,0.0,0.64738244023,0.242412725044,0.303374534412,1.0,-0.0641365714286,-0.0842937795918,1.107
0.453485733721,0.46735998723,-0.124621593172,-1.48183628418,0.0719221024046,1.94019364816,0.141650648417,-0.0563959127543,-0.346086855591,-0.000417346162592,-0.525201687618,-0.0352785603203,0.197979891149,-0.0827391778986,0.57389722017,0.818912307436,0.00231523487441,0.0,0.818872428892,-0.573835663399,-0.0118879566436,0.0,-0.00840679152241,0.00871851513476,-0.999926653985,0.0,0.646302894385,0.240964053829,0.30349414343,1.0,-0.0712182857143,-0.0936011755102,1.124
0.45236630419,0.460790779863,-0.124663638542,-1.49200435718,0.0712727524702,1.94374285779,0.140085747423,-0.062200662938,-0.371333238076,-0.00529772046049,-0.583434066619,-0.0349926746988,0.19939398435,-0.0889123282823,0.573859083695,0.818939149823,0.0022732901707,0.0,0.818898429239,-0.573797393939,-0.0119440445686,0.0,-0.00847720094123,0.00871596003098,-0.999926081821,0.0,0.645032215017,0.239338080385,0.303491886425,1.0,-0.0783,-0.102908571429,1.141
0.451315906274,0.454841768026,-0.124739643602,-1.50127571777,0.0706493126325,1.94686177649,0.138696002404,-0.0699712979305,-0.401196664339,0.000336412151957,-0.624389592539,-0.04807418306,0.213030897628,-0.0918096396443,0.573897321405,0.818912872131,0.00207827925169,0.0,0.81886948504,-0.573836313842,-0.0120581212372,0.0,-0.00868212574776,0.00862212894251,-0.99992513699,0.0,0.643699824724,0.237614460666,0.303442439655,1.0,-0.0849651428571,-0.111668473469,1.157
0.44996352198,0.447013474903,-0.124842467954,-1.51285457018,0.0698644408397,1.95123304006,0.136851319321,-0.0757606425396,-0.438239906119,-0.000770368656729,-0.664984332281,-0.0457931660248,0.239700635346,-0.104820831678,0.573881518583,0.818922572852,0.00256304561626,0.0,0.818886324429,-0.573819462127,-0.0117115092497,0.0,-0.00812025016983,0.00882003153011,-0.999928131708,0.0,0.642230087055,0.235593096319,0.303682897139,1.0,-0.0924634285714,-0.121523363265,1.175
0.448545888396,0.43925469827,-0.124865624174,-1.52482834715,0.0690808755513,1.95531595548,0.134974741016,-0.0906006731397,-0.462884044792,-0.00198995981055,-0.721550030971,-0.0589127261364,0.240549790879,-0.113578602608,0.573840811024,0.818951423656,0.00245686738126,0.0,0.818913198369,-0.573778512153,-0.0118380500577,0.0,-0.00828524975424,0.00880528690028,-0.999926908108,0.0,0.640573142993,0.233516417254,0.303647294376,1.0,-0.0995451428571,-0.130830759184,1.192
0.447098404634,0.431349616362,-0.124908877765,-1.53666159874,0.0682902794458,1.9595268825,0.133017798701,-0.0944036300607,-0.504975398031,-0.00314311108761,-0.766623928539,-0.0520409022396,0.274687903623,-0.125064869676,0.573754779253,0.819010969706,0.0026891795327,0.0,0.818975721318,-0.573691587492,-0.0117250685856,0.0,-0.00806035530382,0.00892985881306,-0.999927641529,0.0,0.638968229395,0.2314389169,0.303774372679,1.0,-0.106210285714,-0.139590661224,1.208
0.445411600567,0.422632843172,-0.124947372605,-1.55002954295,0.0673293988567,1.96410967625,0.130819528274,-0.100553088543,-0.526739959097,-0.00922235979181,-0.808981667719,-0.0645284975659,0.267423286104,-0.133698855615,0.573667351444,0.819072516895,0.0025940040415,0.0,0.819036072291,-0.573604559132,-0.011767282191,0.0,-0.00815048181859,0.00887525936609,-0.999927397073,0.0,0.637097267567,0.229047480457,0.303740289085,1.0,-0.113292,-0.148898057143,1.225
0.443350581539,0.412234949017,-0.125084973303,-1.56566686424,0.0662176329489,1.96958028654,0.128258103196,-0.115915973461,-0.557894798017,-0.00495405125925,-0.83461481626,-0.0543214979155,0.297596246866,-0.150100882059,0.573700963498,0.819048508267,0.00273724114569,0.0,0.819014406377,-0.573638193104,-0.0116349671479,0.0,-0.00795956966772,0.00891700347503,-0.999928563598,0.0,0.634934446482,0.226159890853,0.30382427062,1.0,-0.121206857143,-0.159300440816,1.244
0.441562989117,0.403719032937,-0.125134176174,-1.5787750079,0.0653506749778,1.97392151952,0.126073312287,-0.125276732033,-0.583557446117,-0.00263109843358,-0.893404923458,-0.0621866993066,0.285217668953,-0.144557312745,0.573703363801,0.819047452458,0.00254320410905,0.0,0.819009883508,-0.573640254219,-0.0118497407988,0.0,-0.00824677453782,0.00888131645036,-0.999926553767,0.0,0.633029099066,0.223741035588,0.303717564029,1.0,-0.127455428571,-0.16751284898,1.259
0.439478472221,0.394058142615,-0.125265588358,-1.59306240145,0.0643390047136,1.97888875975,0.123642620747,-0.134547327244,-0.600088501949,-0.00540855885559,-0.908456913319,-0.0740184318765,0.319849336087,-0.151924314724,0.573799596586,0.818979203236,0.00279902238028,0.0,0.818945273748,-0.573735893056,-0.0116837719005,0.0,-0.00796301990965,0.00899656296428,-0.99992782348,0.0,0.631023976376,0.220990788247,0.303855541913,1.0,-0.134120571429,-0.17627275102,1.275
0.437142064543,0.38357396523,-0.125373095795,-1.60901657519,0.0631166983547,1.98413199103,0.12082877303,-0.137271249957,-0.633051666142,-0.00219022429805,-0.937591777888,-0.0689436395715,0.306280378487,-0.177919810822,0.573752389159,0.819013109149,0.00254359535752,0.0,0.818976030248,-0.573689794673,-0.0117910249476,0.0,-0.00819792713949,0.0088484427227,-0.999927246879,0.0,0.628669161007,0.217913646419,0.303753482144,1.0,-0.141202285714,-0.185580146939,1.292
0.43477251753,0.373139064005,-0.125468717625,-1.62442573945,0.0620112308752,1.989323267,0.118052005018,-0.154596629932,-0.651400084639,-0.00400590593546,-0.963502875129,-0.072498738825,0.322177556455,-0.176082683853,0.573764172309,0.819004339208,0.00270441014214,0.0,0.818969221277,-0.573700850367,-0.0117258599163,0.0,-0.00805216278321,0.00894287915575,-0.999927591172,0.0,0.626259760658,0.214714188256,0.3038415109,1.0,-0.148284,-0.194887542857,1.309
0.431880204253,0.361019645603,-0.12564062331,-1.64233058347,0.0605872124261,1.99529796375,0.114896304219,-0.161297488347,-0.689459781751,-0.0131902389618,-1.01234148916,-0.0809850207882,0.341165928382,-0.186735538245,0.57389571953,0.81891191901,0.00277829273067,0.0,0.818878593952,-0.573833061074,-0.0115850458462,0.0,-0.00789300786836,0.00892386447859,-0.999929030016,0.0,0.623752206135,0.211293562042,0.303906266012,1.0,-0.155365714286,-0.204194938775,1.326
0.428945660608,0.349252681924,-0.125754081432,-1.65994134155,0.0592906125342,2.00089868327,0.111578385828,-0.178509475804,-0.697721644943,-0.000992150771234,-1.03408061098,-0.078183749685,0.325105288762,-0.200831264471,0.573903108371,0.818907417873,0.00257100290621,0.0,0.818870547772,-0.573840233197,-0.0117965951107,0.0,-0.00818513192373,0.00887559204302,-0.999927111084,0.0,0.6210289518,0.207729354928,0.303806563819,1.0,-0.162447428571,-0.213502334694,1.343
0.42620022695,0.338379624276,-0.125871267974,-1.67568529151,0.0580680503628,2.00610877946,0.108597689868,-0.188673960619,-0.713816506818,-0.00221707749812,-1.06636741997,-0.0843087720946,0.348628538338,-0.204943059933,0.57395671686,0.818869069383,0.0028073617837,0.0,0.818835566887,-0.573893325233,-0.0116409859998,0.0,-0.007921469696,0.00898036268287,-0.999928299131,0.0,0.618462473202,0.204263421666,0.303928169584,1.0,-0.169112571429,-0.222262236735,1.359
0.422777087118,0.325050564784,-0.125923810455,-1.69517998925,0.0564395663723,2.0123421317,0.104770247888,-0.195737722723,-0.749186968603,-0.00185128535889,-1.09395557319,-0.0927234340788,0.354800814744,-0.217011225689,0.573812753419,0.818969996498,0.00279566633348,0.0,0.818936638632,-0.573749755495,-0.011608052273,0.0,-0.00790278580723,0.00895049435125,-0.999928714773,0.0,0.615531405716,0.200496298416,0.303943036563,1.0,-0.176194285714,-0.231569632653,1.376
0.419308348675,0.312090602801,-0.125957087125,-1.71408163588,0.0549465097093,2.01821764065,0.101017688196,-0.210629798145,-0.753074289669,2.03175266518e-05,-1.10517755731,-0.0842350920067,0.34644074759,-0.234709118518,0.573736287865,0.819023771019,0.00273521372779,0.0,0.818988799388,-0.573672577189,-0.0117417017438,0.0,-0.00804777067654,0.00897692261228,-0.999927321483,0.0,0.612452114127,0.196580847073,0.303915795226,1.0,-0.183276,-0.240877028571,1.393
0.415837638541,0.29949069029,-0.126068387234,-1.73226528235,0.0533805336623,2.02389229666,0.0972701255343,-0.223249936438,-0.813243135835,-0.00773091633908,-1.15395554287,-0.0953461246198,0.345916409911,-0.238936587046,0.573645948461,0.819087060039,0.00273144504225,0.0,0.819052476741,-0.5735827508,-0.0116882518123,0.0,-0.00800714021517,0.00894228729037,-0.999927958007,0.0,0.609480872831,0.192697013414,0.303935754192,1.0,-0.189941142857,-0.249636930612,1.409
0.411895389108,0.285690042342,-0.126218717528,-1.75186708424,0.0517961274653,2.02992380548,0.0932174693799,-0.236663423004,-0.787438278739,-0.00822003468229,-1.17477855732,-0.0986122161806,0.358836403955,-0.239952644403,0.573731514156,0.819026509838,0.00291079854281,0.0,0.81899385059,-0.573667231769,-0.0116501841597,0.0,-0.00787213149196,0.00906817849557,-0.999927896243,0.0,0.606235471249,0.188415455412,0.304041291398,1.0,-0.197022857143,-0.258944326531,1.426
0.407180891829,0.269935532561,-0.126391003784,-1.77428983291,0.049865005688,2.03662143538,0.0883332405364,-0.25350296764,-0.850059280078,-0.00816502255586,-1.18289789955,-0.104670234798,0.363926554873,-0.262403573775,0.573709359075,0.819042135467,0.00288071869269,0.0,0.819008910704,-0.573644980895,-0.011687043355,0.0,-0.00791982360846,0.00906447495043,-0.99992755322,0.0,0.602433064288,0.183409517784,0.304061659963,1.0,-0.204937714286,-0.269346710204,1.445
0.403469373217,0.258131506955,-0.126554908267,-1.79111078109,0.048365331989,2.04154651944,0.084663901891,-0.270973594383,-0.83701169013,-0.0107162708779,-1.20302094772,-0.104607532395,0.350231228607,-0.264855485756,0.573810835265,0.818971511062,0.00274523266692,0.0,0.818936511565,-0.573746902672,-0.0117570660672,0.0,-0.00805378848334,0.00899467633936,-0.999927113488,0.0,0.599535537528,0.179549324982,0.304015991631,1.0,-0.210769714286,-0.27701162449,1.459
0.398415845555,0.242511074105,-0.126710218227,-1.81306407326,0.0463779113342,2.04797346644,0.0796959315714,-0.285843543101,-0.862589089693,-0.00994509090369,-1.24499089042,-0.113518389867,0.357771711589,-0.283123198998,0.573872588221,0.818928207449,0.00275507435201,0.0,0.818893400532,-0.573808684757,-0.0117447334813,0.0,-0.00803736269062,0.00899626601173,-0.999927231352,0.0,0.595703439396,0.174464689,0.304031058403,1.0,-0.218268,-0.286866514286,1.477
0.393213287293,0.226478267267,-0.126835714881,-1.83521718231,0.0443918739738,2.05440625506,0.0744654354651,-0.287848973366,-0.884591519067,-0.00708452497136,-1.25551433623,-0.114725951734,0.344792510664,-0.298395565738,0.573779586235,0.818992570223,0.00298383000866,0.0,0.818960514955,-0.573714653643,-0.0116583892959,0.0,-0.00783641808945,0.00913316058841,-0.999927585343,0.0,0.5917482373,0.169349619584,0.304138865294,1.0,-0.225766285714,-0.296721404082,1.495
0.388570225748,0.212838104915,-0.126943348007,-1.85399555416,0.0425879434084,2.05967713833,0.0699056444622,-0.311042554175,-0.924526529624,-0.0109627965015,-1.25877510191,-0.114073771883,0.345036653206,-0.305146872727,0.573707093013,0.819043206633,0.00302390397052,0.0,0.819011903128,-0.573642308584,-0.0116082401136,0.0,-0.00777316060888,0.00913651894266,-0.999928048409,0.0,0.588327488001,0.164895961519,0.304188811024,1.0,-0.232014857143,-0.304933812245,1.51
0.382959252915,0.19718847975,-0.127120254628,-1.87550075775,0.04053769043,2.06553784821,0.0644931480616,-0.338030491843,-0.931783200351,-0.00758303085076,-1.25970829348,-0.122256147532,0.360241164605,-0.325868769476,0.573716956939,0.819036462071,0.00297892934435,0.0,0.819004289863,-0.573651986948,-0.0116669600513,0.0,-0.00784694802424,0.00913346457708,-0.999927499988,0.0,0.584343786922,0.159642071116,0.304185183637,1.0,-0.239096571429,-0.314241208163,1.527
0.376213021985,0.179309492945,-0.12740745063,-1.89981272728,0.0382074742416,2.07205603574,0.058149376811,-0.36575168311,-0.954308287708,-0.0136042760505,-1.26157574768,-0.123412671556,0.352415045252,-0.340917973649,0.573887495252,0.818916870902,0.00300803038717,0.0,0.818884706458,-0.573821972552,-0.0117016343563,0.0,-0.00785674312793,0.00917882843261,-0.999927007684,0.0,0.579786108184,0.153490375991,0.304201329251,1.0,-0.247011428571,-0.324643591837,1.546
0.371027672613,0.165945522127,-0.127555200622,-1.91803041721,0.0363719900792,2.07676934633,0.0533238978517,-0.374662862127,-0.936801991236,-0.00809137825508,-1.30667039107,-0.135768347435,0.329006504712,-0.348829578125,0.573934096731,0.818884954056,0.0027984871636,0.0,0.818849505635,-0.573868675332,-0.0118733944417,0.0,-0.00811713622037,0.0091062610682,-0.999925591286,0.0,0.575997123931,0.148550291109,0.304100846169,1.0,-0.25326,-0.332856,1.561
0.36412654994,0.148329054162,-0.12774018668,-1.94144781633,0.0339561104083,2.08280733355,0.0467930570498,-0.389785659306,-0.976495999568,-0.0123537957766,-1.32926340896,-0.139682955313,0.334318863929,-0.362559445504,0.573850389319,0.81894302152,0.00296733609106,0.0,0.818910183373,-0.573784842868,-0.0117393595769,0.0,-0.00791140644898,0.00916679429523,-0.999926687078,0.0,0.571683825059,0.142896451581,0.304191778142,1.0,-0.260341714286,-0.342163395918,1.578
0.357208762179,0.131426058649,-0.127928739584,-1.9637346168,0.0316681954133,2.08830093277,0.0403411579937,-0.412803332464,-0.997392516288,-0.011872355247,-1.31684832903,-0.133268321848,0.319698591341,-0.392509551572,0.573825959482,0.818959889219,0.00303561804184,0.0,0.818927422714,-0.573759577485,-0.0117715960317,0.0,-0.0078989021353,0.0092409761643,-0.999926103122,0.0,0.567217991635,0.137069989932,0.304235920746,1.0,-0.267423428571,-0.351470791837,1.595
0.350263220927,0.115247265313,-0.128198899466,-1.9848367684,0.0293496545083,2.09341861622,0.0340196936651,-0.445546434848,-1.00181766655,-0.016651348175,-1.32861616405,-0.151626770825,0.320863366402,-0.407139708368,0.573919948818,0.818893769074,0.00310390427624,0.0,0.818862746612,-0.573853977735,-0.0116688195144,0.0,-0.00777448546026,0.00923881775518,-0.999927098154,0.0,0.562948982017,0.13133669878,0.304294294244,1.0,-0.274088571429,-0.360230693878,1.611
0.343946165544,0.100961544247,-0.128397619579,-2.00339556612,0.0273094992256,2.09769227661,0.0282240653395,-0.449789413804,-1.04036143146,-0.0102401451998,-1.30789042369,-0.150207971428,0.308242942367,-0.411517694045,0.573910984338,0.818900209909,0.00306188975551,0.0,0.818868419092,-0.573844892504,-0.0117174425952,0.0,-0.00783851731893,0.00923223158632,-0.999926659084,0.0,0.559090138362,0.126259970856,0.304294341761,1.0,-0.279920571429,-0.367895608163,1.625
0.334070024518,0.0790299698637,-0.128636658623,-2.03147016999,0.0242669217674,2.10395073732,0.0190651192393,-0.492604509315,-1.06605809294,-0.00543361125823,-1.3256505086,-0.142990787316,0.306694053778,-0.454603259755,0.573741095915,0.819018848344,0.00316667286626,0.0,0.818987365612,-0.573673415427,-0.0118006059505,0.0,-0.00784843376324,0.00936413794764,-0.999925354718,0.0,0.553105587284,0.118567945276,0.304341773937,1.0,-0.288668571429,-0.379392979592,1.646
0.32658181517,0.0633370308164,-0.128869136276,-2.05159561578,0.021919692114,2.10829443227,0.0122738524296,-0.506862898543,-1.03965919469,-0.0207851724987,-1.33143438054,-0.154817955669,0.262712660326,-0.463578421848,0.573700588636,0.819047723583,0.00303446739169,0.0,0.81901433766,-0.573633172369,-0.0118846609604,0.0,-0.00799358725019,0.00930368841454,-0.999924769143,0.0,0.54873734177,0.112868975665,0.304259188311,1.0,-0.28998,-0.381116571429,1.661
0.317153351818,0.0444891089757,-0.129161278942,-2.07525141278,0.0191255592741,2.11315350367,0.00397022600289,-0.525472311548,-1.01502928755,-0.00964023587,-1.32035157231,-0.148934979699,0.261479436459,-0.458536258975,0.57384939986,0.818943490969,0.0030284948345,0.0,0.818909830045,-0.573781755926,-0.0119135940788,0.0,-0.00801901963193,0.0093168523808,-0.999924442938,0.0,0.543516183222,0.105925313973,0.304267381741,1.0,-0.28998,-0.381116571429,1.679
0.308086176865,0.026732601981,-0.129350022702,-2.09701978546,0.0165401268467,2.11742288726,-0.00407084649389,-0.54037197051,-1.03515123118,-0.013576793314,-1.29094124994,-0.165296428595,0.253503088232,-0.483670018959,0.573855184017,0.818938689361,0.00322455353507,0.0,0.818907432619,-0.573786652493,-0.011842344517,0.0,-0.00784809941926,0.0094365833322,-0.999924676278,0.0,0.538597253739,0.0994825243489,0.304386279203,1.0,-0.28998,-0.381116571429,1.696
0.298702700973,0.00924860832179,-0.129587746344,-2.11832266702,0.0138598260778,2.12140351022,-0.0123593745875,-0.555362083602,-1.00933700532,-0.0122519969888,-1.25475889953,-0.154139810587,0.221308632315,-0.493709578573,0.573865665611,0.818931082274,0.00329047406041,0.0,0.818901045336,-0.573797341918,-0.0117658512724,0.0,-0.00774750521036,0.00944677259928,-0.99992536454,0.0,0.53369406212,0.0929680998171,0.304449745142,1.0,-0.28998,-0.381116571429,1.713
0.289051563787,-0.00811679583229,-0.129790503816,-2.13916794455,0.0112923625505,2.12513967895,-0.0208636473545,-0.559068897684,-1.01528534763,-0.0100595965806,-1.2098983404,-0.162472294888,0.229638214607,-0.499774562388,0.573890260871,0.818912985194,0.00349829388868,0.0,0.818885516896,-0.573821078275,-0.0116887658018,0.0,-0.00756483297111,0.00957295536357,-0.999925563143,0.0,0.528800787162,0.0864854605489,0.304543837392,1.0,-0.28998,-0.381116571429,1.73
0.279807999026,-0.0241888150304,-0.129963811412,-2.15850158923,0.00876880518793,2.12825429445,-0.0290189878873,-0.58282994548,-1.01486997776,-0.0151178061205,-1.1857884452,-0.157919471034,0.176941330172,-0.521985033148,0.573824211871,0.818959750232,0.00338352951027,0.0,0.818930487717,-0.573755041621,-0.0117794483603,0.0,-0.00770572533111,0.00953039163323,-0.999924893896,0.0,0.523838736494,0.080030298098,0.304523031218,1.0,-0.28998,-0.381116571429,1.747
0.270210487938,-0.0402356301842,-0.130238670804,-2.17739520073,0.0062533622596,2.13131685305,-0.0373079120837,-0.59719734685,-0.991313774637,-0.017404921032,-1.18929231991,-0.148980730202,0.181821367554,-0.528258591778,0.573972033013,0.818855783881,0.00347238018577,0.0,0.818828039735,-0.573902999848,-0.0116933746112,0.0,-0.00758252401532,0.00955513622509,-0.999925599583,0.0,0.519515696358,0.074231441325,0.304557104066,1.0,-0.28998,-0.381116571429,1.762
0.259255595972,-0.0581052367356,-0.130397174331,-2.1981365811,0.00355542924573,2.13440043118,-0.0469408373378,-0.613736808151,-0.975684808111,-0.011113402759,-1.14692943272,-0.157048556568,0.17090506802,-0.54236780442,0.573914773718,0.818895164272,0.00364545491803,0.0,0.818869280155,-0.57384469647,-0.0116667584629,0.0,-0.00746207078504,0.00968106247826,-0.999925294474,0.0,0.514028432594,0.06705693527,0.304617850928,1.0,-0.28998,-0.381116571429,1.781
0.247961654547,-0.0757173559145,-0.130652871297,-2.21847363339,0.000775540216928,2.137119852,-0.0568355419812,-0.634568913633,-0.999520065376,-0.0164088874124,-1.11811169058,-0.153772227529,0.154857429199,-0.562692427497,0.573916848399,0.818893662419,0.00365618317745,0.0,0.818867757424,-0.573846528722,-0.0116835022973,0.0,-0.00746960177438,0.00969947608096,-0.999925059799,0.0,0.50910272286,0.0605720562694,0.304632943712,1.0,-0.28998,-0.381116571429,1.798
0.23831752146,-0.0902044661208,-0.130843272313,-2.23522629832,-0.00149112065872,2.1391064728,-0.0652979708818,-0.635792677752,-0.970752894776,-0.00463450803542,-1.11088083307,-0.149056240596,0.12085935039,-0.552539591637,0.573905497929,0.818902305459,0.00349863704522,0.0,0.818873103556,-0.573834124349,-0.0119157419561,0.0,-0.00775034045196,0.00970363642104,-0.999922882858,0.0,0.504980277801,0.055232617608,0.304530224177,1.0,-0.28998,-0.381116571429,1.812
0.226572023056,-0.10753644689,-0.131038726467,-2.25465325032,-0.00425243529111,2.14131718147,-0.0756542329384,-0.661745680278,-0.952952457412,-0.0119745400901,-1.07139820197,-0.148052253323,0.123668366403,-0.57492661716,0.573782326452,0.818988269484,0.00357815585141,0.0,0.818960044972,-0.573710614066,-0.0118879329061,0.0,-0.00768339953705,0.00975164022587,-0.999922932473,0.0,0.499482659326,0.0480871839569,0.304575565249,1.0,-0.28998,-0.381116571429,1.831
0.215637523562,-0.122763676751,-0.131339892121,-2.27163500175,-0.00671697613686,2.14301397511,-0.085080460962,-0.684909329502,-0.934868932578,-0.0100834042952,-1.04805023369,-0.143308150325,0.11184716021,-0.604262551532,0.573965961181,0.818859722769,0.00354636905646,0.0,0.818830692981,-0.573893841417,-0.0119541589952,0.0,-0.00775368924238,0.00976534420298,-0.999922256156,0.0,0.494837142126,0.0418863062149,0.304557397384,1.0,-0.28998,-0.381116571429,1.847
0.204661782309,-0.137839016472,-0.131507638098,-2.28835858782,-0.00911372156658,2.14442365649,-0.0948021400515,-0.692285943617,-0.939379276925,-0.00789594916354,-1.03447837193,-0.148198670483,0.0848984159152,-0.604733860084,0.573833964751,0.818952722361,0.00343020934113,0.0,0.818920810696,-0.573760612222,-0.0121742586273,0.0,-0.00800217730066,0.00979526149964,-0.999920005806,0.0,0.490126631265,0.0358630901868,0.304484711208,1.0,-0.28998,-0.381116571429,1.863
0.191821274209,-0.154719600993,-0.131887870331,-2.30653952696,-0.0118606946016,2.1459401233,-0.106006997787,-0.72107815603,-0.926406237336,-0.0293196596938,-1.01735271348,-0.155377639371,0.0650169158018,-0.626043123637,0.573973742622,0.818854044814,0.0035976343589,0.0,0.818824892494,-0.573900433874,-0.0120347136403,0.0,-0.00779014000739,0.00985363190962,-0.999921106716,0.0,0.484956006851,0.0289062480976,0.304556923875,1.0,-0.28998,-0.381116571429,1.881
0.179577109748,-0.170515545386,-0.13207489024,-2.3232871439,-0.0143268924581,2.14699276911,-0.116830293423,-0.725014073362,-0.915252800285,-0.0124874313916,-0.972857544318,-0.140273283981,0.0555828879818,-0.648295615544,0.573894093764,0.818909189219,0.00374911410069,0.0,0.818881668114,-0.573819790937,-0.0120169903508,0.0,-0.0076896560053,0.00996675248676,-0.999920763378,0.0,0.480037500752,0.0225226551931,0.304631951229,1.0,-0.28998,-0.381116571429,1.898
0.167677826626,-0.185153596881,-0.132366183153,-2.3388512912,-0.0167705967009,2.14775750357,-0.127297442654,-0.75880773607,-0.904620755682,-0.0229404126986,-0.952535631803,-0.153600233723,0.0452320651443,-0.656974641911,0.573909117457,0.818899085766,0.00365501469278,0.0,0.818869735239,-0.573834398374,-0.0121320589516,0.0,-0.00783770972689,0.00995587184103,-0.999919722239,0.0,0.475350739152,0.0163936280765,0.304590438638,1.0,-0.28998,-0.381116571429,1.914
0.154789814714,-0.200528257551,-0.132594662853,-2.35476006553,-0.019271879779,2.14850402267,-0.138725575876,-0.75710742227,-0.886478204557,-0.018465390529,-0.947163178135,-0.140558624149,0.0349788473491,-0.683245521663,0.573834212003,0.818950776883,0.00383002339558,0.0,0.818924408443,-0.57375974946,-0.0119712178376,0.0,-0.00760647133265,0.0100061866482,-0.999921005791,0.0,0.470485925082,0.00995532721279,0.304667174298,1.0,-0.28998,-0.381116571429,1.931
0.14158672803,-0.215715581796,-0.132925944984,-2.37036694007,-0.02167735291,2.14887013371,-0.150432598738,-0.785800707231,-0.885488435183,-0.0290517842109,-0.904194623819,-0.14616786813,0.0287307496956,-0.6957160085,0.573891145709,0.81891049508,0.00391162699161,0.0,0.818884229838,-0.573815103639,-0.0120661451806,0.0,-0.00763668930589,0.0101280185342,-0.999919548872,0.0,0.46555357615,0.00347537675772,0.304683903437,1.0,-0.28998,-0.381116571429,1.948
0.128921567333,-0.229822892005,-0.133141010966,-2.38473973494,-0.0240577642947,2.14909266227,-0.161656155076,-0.796505778892,-0.893276955061,-0.0132716456673,-0.878072902329,-0.146896504463,0.00402464694715,-0.702070186672,0.573823766927,0.818957822488,0.00388798114646,0.0,0.818931355384,-0.573747965444,-0.0120604402613,0.0,-0.00764641783941,0.0101047514793,-0.999919709923,0.0,0.460909302279,-0.00257533991134,0.304680038438,1.0,-0.28998,-0.381116571429,1.964
0.115087708056,-0.244679332584,-0.133481715134,-2.3995590823,-0.0264946688462,2.14921872145,-0.173970512027,-0.820768282151,-0.892120591193,-0.0314340028176,-0.85579136105,-0.136810555011,0.013763336854,-0.727283044649,0.573857916501,0.818933078453,0.0040560554032,0.0,0.818909291778,-0.573782153672,-0.0119314235593,0.0,-0.00744388853901,0.0101686791009,-0.999920590091,0.0,0.456017069012,-0.00907899113202,0.304738963517,1.0,-0.28998,-0.381116571429,1.981
0.100156720735,-0.260131555498,-0.133777648256,-2.41500466009,-0.0290260720259,2.14910635381,-0.187334788062,-0.8434709295,-0.87767894904,-0.0182400078183,-0.843595163919,-0.142735530352,-0.0121177803359,-0.734680263182,0.573808673893,0.818967486465,0.00407538708732,0.0,0.818943299051,-0.573731958102,-0.0120108323069,0.0,-0.00749844569939,0.0102296276566,-0.99991956078,0.0,0.450762144029,-0.0159017826756,0.30469033751,1.0,-0.28998,-0.381116571429,1.999
0.0873617924162,-0.272841874156,-0.134151395986,-2.42725600855,-0.0311432179928,2.14891782114,-0.198726514383,-0.860377114428,-0.839905397291,-0.0280853817009,-0.797357952285,-0.144397041307,-0.0183135917629,-0.761263682014,0.573939594544,0.818874622295,0.0042943773052,0.0,0.818854398892,-0.573863651649,-0.011778354391,0.0,-0.00718074671288,0.0102767315494,-0.999921409744,0.0,0.446491120408,-0.0216886229982,0.304787175134,1.0,-0.28998,-0.381116571429,2.014
0.0718202905335,-0.287775678775,-0.134436850956,-2.44184189777,-0.0335794588589,2.14833823635,-0.212749744215,-0.868842823617,-0.812077900354,-0.0228020434566,-0.792810102597,-0.127433332304,-0.0382357043796,-0.789715649543,0.573859636635,0.818930814198,0.00426449285532,0.0,0.81890898129,-0.573782075354,-0.0119564738412,0.0,-0.0073447767066,0.010353768576,-0.999919423619,0.0,0.441228418996,-0.028480835216,0.304719810187,1.0,-0.28998,-0.381116571429,2.032
0.0557970998926,-0.302531716844,-0.134833225775,-2.45568214153,-0.0360568692699,2.14768672639,-0.227155365733,-0.887705339151,-0.793661864719,-0.0175735422027,-0.756847406034,-0.129608324357,-0.0390804398022,-0.806474599357,0.573926421434,0.818882875936,0.00447718447298,0.0,0.818865127579,-0.573850038223,-0.0116954421714,0.0,-0.00700809976734,0.0103787333299,-0.999921581141,0.0,0.436088729734,-0.0353941708804,0.304832421478,1.0,-0.28998,-0.381116571429,2.05
0.0423231245609,-0.314584848068,-0.135053281489,-2.46713117575,-0.038087365982,2.14687037372,-0.239361968407,-0.905505334719,-0.791869906475,-0.0178865822306,-0.74918874927,-0.1410645154,-0.0566953601567,-0.821647834655,0.573830717727,0.818950347878,0.00440249986939,0.0,0.818930931657,-0.573753570216,-0.0118201836244,0.0,-0.00715433121629,0.01038832778,-0.999920445931,0.0,0.431692150738,-0.0410291778861,0.30478488879,1.0,-0.28998,-0.381116571429,2.065
0.02664115922,-0.32796963272,-0.135421650722,-2.47941327529,-0.0402824714407,2.14595369598,-0.253614533811,-0.917573475736,-0.764658038985,-0.00893996823672,-0.712687626011,-0.125663530732,-0.0531538389879,-0.838763883609,0.573861419766,0.818927682426,0.00461180675769,0.0,0.818911733441,-0.573784707218,-0.0116374179107,0.0,-0.00688415203005,0.0104551291245,-0.999921646293,0.0,0.426840073929,-0.0475185578138,0.304869628382,1.0,-0.28998,-0.381116571429,2.082
0.0106717676682,-0.341069783456,-0.13577135227,-2.49150821019,-0.0424651593485,2.14479756031,-0.268216451606,-0.957404417679,-0.755987415466,-0.0295182410993,-0.700658558281,-0.130912040399,-0.0703288465658,-0.852353047643,0.57382100431,0.818955900485,0.00462979208315,0.0,0.818939545585,-0.573743272255,-0.0117228461154,0.0,-0.00694431563665,0.0105185376705,-0.999920565268,0.0,0.42188962759,-0.0539748360503,0.304841458705,1.0,-0.28998,-0.381116571429,2.099
-0.00465519000139,-0.353167240114,-0.136061431912,-2.50234968153,-0.0445070036858,2.14354728079,-0.282228805319,-0.960428324494,-0.750336131586,-0.0164113013999,-0.654643740554,-0.128049864402,-0.0793001729064,-0.885330407403,0.573784029263,0.818981462876,0.00469021622594,0.0,0.818966239636,-0.573706642876,-0.011650457415,0.0,-0.0068508323513,0.0105261778055,-0.999921129728,0.0,0.417280107553,-0.0600496712595,0.304899770425,1.0,-0.28998,-0.381116571429,2.115
-0.0213165669392,-0.365681145364,-0.136495179987,-2.5135999535,-0.046596116143,2.14220123898,-0.297518696243,-0.982308915875,-0.725628060664,-0.0189754067087,-0.665300878444,-0.125706159906,-0.0810617020817,-0.915855560754,0.573851948028,0.818933381828,0.00477543434284,0.0,0.8189188447,-0.573773635709,-0.0116827934117,0.0,-0.00682754264421,0.0106150913061,-0.999920349077,0.0,0.412342292101,-0.0665668887679,0.304887761671,1.0,-0.28998,-0.381116571429,2.132
-0.0391528717333,-0.378551989496,-0.13681864897,-2.5250592472,-0.0487834910823,2.14053523393,-0.314004499799,-1.00722162681,-0.711190470421,-0.0311844810765,-0.618618932661,-0.117303882071,-0.0902589719623,-0.914681992432,0.573748603488,0.819006060702,0.00472857589998,0.0,0.818990064868,-0.573669151079,-0.0118205604033,0.0,-0.00696860665613,0.0106548918466,-0.999918952616,0.0,0.40710230908,-0.0733518871236,0.304852268721,1.0,-0.28998,-0.381116571429,2.15
-0.0543885469138,-0.389025911712,-0.13714274893,-2.53410343478,-0.0505947244444,2.13925185857,-0.328049165363,-1.01804783227,-0.692803924104,-0.0146726718661,-0.60594970452,-0.116117284305,-0.0972140304439,-0.944495124638,0.573771486719,0.818989343932,0.00484586998693,0.0,0.818976037703,-0.573693466768,-0.0116104589449,0.0,-0.00672892775442,0.0106306063635,-0.999920852738,0.0,0.402812017669,-0.0790889430545,0.304916678753,1.0,-0.28998,-0.381116571429,2.165
-0.0740089608738,-0.401838106371,-0.137571883032,-2.54531800619,-0.0527692949216,2.13727902669,-0.346289941943,-1.03661968425,-0.666536435527,-0.0192608716307,-0.586285274206,-0.112921307231,-0.106123076717,-0.961046371424,0.573758449303,0.81899872623,0.00480366401003,0.0,0.818983204055,-0.573677965663,-0.0118680280022,0.0,-0.00696427770357,0.0107437083346,-0.999918032424,0.0,0.397241942528,-0.0863134704446,0.304844492579,1.0,-0.28998,-0.381116571429,2.184
-0.0917834391758,-0.413009253329,-0.137898183217,-2.55467908814,-0.0545812032228,2.13560904163,-0.362927777093,-1.0600346092,-0.65134354965,-0.0317796103771,-0.543718130876,-0.109276081254,-0.0891034444791,-0.984759592326,0.573698445597,0.819039512992,0.00501164424877,0.0,0.819027509976,-0.573618569064,-0.0116799841217,0.0,-0.00669172514061,0.0108056712878,-0.999919225879,0.0,0.392384188456,-0.0927313246125,0.304933543787,1.0,-0.28998,-0.381116571429,2.201
-0.107883463258,-0.42244637917,-0.138201774499,-2.56264470062,-0.0562612060051,2.13406168855,-0.377954517779,-1.07100386506,-0.625851739529,-0.0163040054096,-0.533288974133,-0.115364178503,-0.104247163083,-1.01684137672,0.57368401574,0.8190496144,0.00501259772605,0.0,0.819037856529,-0.57360451504,-0.0116446038884,0.0,-0.00666238790847,0.0107860380822,-0.999919633756,0.0,0.388045974576,-0.0984738223389,0.304939623759,1.0,-0.28998,-0.381116571429,2.216
-0.126297325154,-0.432780172378,-0.138574204375,-2.57140494193,-0.0580670694247,2.13209319198,-0.395215441661,-1.09036699315,-0.590926599685,-0.01873570613,-0.5015797662,-0.0977736285896,-0.111915089692,-1.01993346186,0.573710179127,0.819031769968,0.00493325964914,0.0,0.819017221604,-0.573628137562,-0.0119288479866,0.0,-0.00694038255938,0.0108843356837,-0.999916677692,0.0,0.382758899493,-0.105300108547,0.304860210334,1.0,-0.28998,-0.381116571429,2.234
-0.146102250411,-0.443283991572,-0.138968050498,-2.57994987497,-0.0597527861067,2.13021288427,-0.413922839492,-1.12199784211,-0.573812785512,-0.0362673662635,-0.453070271234,-0.0894940709947,-0.0963189984673,-1.05725470997,0.573683566589,0.81904896053,0.0051684215906,0.0,0.819037935333,-0.573601452219,-0.0117890372691,0.0,-0.00669131341936,0.0109965220128,-0.999917147982,0.0,0.378189796402,-0.11135730183,0.304937863757,1.0,-0.28998,-0.381116571429,2.25
-0.16402356748,-0.452200640717,-0.139245437889,-2.58720919077,-0.0613845933451,2.12848915494,-0.430810886969,-1.11759134842,-0.548449206103,-0.0128594582832,-0.455731469949,-0.0969204798131,-0.126163351494,-1.06538816208,0.573669200728,0.819058998004,0.00517231336836,0.0,0.819048573443,-0.573587982892,-0.0117050041915,0.0,-0.00662043967688,0.010951387133,-0.999918115097,0.0,0.373283375781,-0.117843798749,0.304964210525,1.0,-0.28998,-0.381116571429,2.267
-0.183294328397,-0.46122372455,-0.139613471763,-2.59458483619,-0.0630055357522,2.12656388218,-0.449154015601,-1.13031193952,-0.523918757524,-0.0175675272798,-0.425195435912,-0.0884807178301,-0.102459183595,-1.08131494693,0.573605215214,0.819103885628,0.00516028380713,0.0,0.819092337288,-0.57352245918,-0.0118523715903,0.0,-0.00674891490196,0.0110255433574,-0.99991644128,0.0,0.368320628547,-0.124298091559,0.304929026291,1.0,-0.28998,-0.381116571429,2.284
-0.202887933294,-0.469709166734,-0.140032765798,-2.60144603715,-0.0645355428562,2.12480388477,-0.467789441838,-1.15651843863,-0.491217851992,-0.0173240644864,-0.392104166294,-0.0927678569201,-0.0970268108012,-1.09232149867,0.573663594693,0.819062535073,0.00523360915393,0.0,0.819051632446,-0.573580062278,-0.0118778131448,0.0,-0.00672690739489,0.0111006788293,-0.999915758275,0.0,0.363392872241,-0.130802812148,0.304909437373,1.0,-0.288437142857,-0.379088816327,2.301
-0.221380434331,-0.477208810154,-0.140181721109,-2.6072411017,-0.0657515655958,2.12318035852,-0.485384579855,-1.16400286723,-0.452459872828,-0.0131667980999,-0.353519897567,-0.0719095141239,-0.0965189993154,-1.08392937718,0.573662005674,0.819062700495,0.00537985173011,0.0,0.819054622955,-0.573579524085,-0.0116961988356,0.0,-0.00649427244367,0.0111162713358,-0.999917123034,0.0,0.358890963273,-0.136800041011,0.304995483141,1.0,-0.281772,-0.370328914286,2.317
-0.240958859683,-0.484491317302,-0.140346537652,-2.61305615003,-0.0669620724448,2.12147381316,-0.504020579306,-1.13660534676,-0.407371143371,-0.00551330064119,-0.326411585169,-0.0544232623321,-0.0916877291219,-1.08087873403,0.573707589435,0.819030407894,0.00543504104839,0.0,0.819022202848,-0.573623465313,-0.0118109349811,0.0,-0.00655597403769,0.0112276584962,-0.999915475872,0.0,0.354110206266,-0.143053731815,0.30496567336,1.0,-0.274690285714,-0.361021518367,2.334
-0.260401381177,-0.491136294233,-0.14040741741,-2.61840222778,-0.0680902184973,2.11979762582,-0.522528662563,-1.13201290432,-0.383696203895,0.00240312378855,-0.30649078951,-0.062840924369,-0.088673900053,-1.08546933811,0.573729981989,0.819014904439,0.00540749243103,0.0,0.819004854533,-0.573643437617,-0.0120416623174,0.0,-0.0067604585249,0.0113376435411,-0.999912873224,0.0,0.349397614943,-0.149155394276,0.304898163329,1.0,-0.267608571429,-0.351714122449,2.351
-0.278527336783,-0.496821880875,-0.140422435358,-2.62279286016,-0.0689277821899,2.11849213504,-0.539756402915,-1.13581568113,-0.33761200398,-0.0127040642348,-0.263944422078,-0.0505631597515,-0.0822441507383,-1.07801253549,0.573865717891,0.81891875338,0.00556417950043,0.0,0.818911103994,-0.573779154011,-0.0119512793597,0.0,-0.00659464355535,0.0114152176653,-0.999913097965,0.0,0.345148323141,-0.154801539928,0.304925205521,1.0,-0.260943428571,-0.342954220408,2.367
-0.298380485034,-0.502570185511,-0.140225367945,-2.62718985569,-0.0698156775078,2.11700376605,-0.55877985972,-1.09688186772,-0.307004548494,0.0105173372815,-0.227253846041,-0.0511878400481,-0.0766690446599,-1.05648093997,0.57376888768,0.818986518762,0.00557606661194,0.0,0.818979128191,-0.573682477626,-0.0119310248189,0.0,-0.00657258331491,0.0114125527388,-0.999913273634,0.0,0.340524736824,-0.160862135095,0.304952686649,1.0,-0.253445142857,-0.333099330612,2.385
-0.315906702259,-0.507089770914,-0.140140930047,-2.63059948947,-0.0704765347718,2.11591783453,-0.575475422396,-1.08316749164,-0.273903936112,0.0133156070889,-0.201537484476,-0.0291923848275,-0.0628166940476,-1.04702620544,0.573907269381,0.818888749919,0.00569282969471,0.0,0.818883592814,-0.573821661168,-0.0117944688333,0.0,-0.00639181190884,0.0114309163161,-0.999914235769,0.0,0.336521992911,-0.166218317582,0.304994348405,1.0,-0.24678,-0.324339428572,2.401
-0.333060252437,-0.511174529423,-0.140023665542,-2.63367992897,-0.071018593445,2.11486279872,-0.59191246498,-1.07074729493,-0.246513898316,0.00360561811058,-0.187918177797,-0.0419377009892,-0.0682996816741,-1.01618770791,0.573974545864,0.818840747507,0.00581358951879,0.0,0.81883737826,-0.573888890686,-0.0117318375705,0.0,-0.00627027292819,0.011494381844,-0.999914277758,0.0,0.332363111695,-0.171705221147,0.305026586541,1.0,-0.239698285714,-0.315032032653,2.418
-0.352846683286,-0.515317877549,-0.139705218014,-2.63698282822,-0.0715494219124,2.11362201425,-0.611072711561,-1.0425846658,-0.205152638448,0.00766657040698,-0.164024437527,-0.0233614546442,-0.0690463339713,-1.00761426826,0.573864356003,0.818917741436,0.00584641527736,0.0,0.818913138427,-0.573775577548,-0.0119835396402,0.0,-0.00645912727245,0.0116648571263,-0.99991110144,0.0,0.3280751942,-0.177237109177,0.304954677127,1.0,-0.2322,-0.305177142857,2.436
-0.369230506574,-0.518272414044,-0.139456605602,-2.63937339496,-0.0719685866712,2.1127806752,-0.626800498604,-1.01306046564,-0.169566218501,0.0173526598801,-0.13957126817,-0.0223757907711,-0.0501116593917,-0.969528350123,0.573906130768,0.81888842721,0.00585181597518,0.0,0.818882919591,-0.573815569912,-0.012132709081,0.0,-0.00657759857747,0.0117552145994,-0.999909270947,0.0,0.324370048761,-0.182070803719,0.304891685569,1.0,-0.225534857143,-0.296417240816,2.452
-0.385232281782,-0.520873710104,-0.139227068096,-2.64137260877,-0.0722744830419,2.11204405566,-0.642227973751,-0.988494224672,-0.151684597979,0.0166153727305,-0.114174745387,-0.0203914955508,-0.0457320743612,-0.962134405313,0.573965193446,0.818846403137,0.00593899684635,0.0,0.81884178695,-0.573873801841,-0.0121546043033,0.0,-0.00654464532067,0.0118396465504,-0.999908491007,0.0,0.320792244887,-0.186782715665,0.304882726198,1.0,-0.218869714286,-0.287657338776,2.468
-0.402662835782,-0.523347613104,-0.138844953523,-2.64325530044,-0.0725519098529,2.11129613624,-0.659187235536,-0.963221483147,-0.132658994444,0.0238196942762,-0.0971093391495,-0.00543577125769,-0.0402012416956,-0.928460288612,0.573850824326,0.818926280196,0.00597711683706,0.0,0.818921973052,-0.573758947715,-0.0121745172949,0.0,-0.00654073382406,0.0118813778521,-0.999908021601,0.0,0.316926838485,-0.191857732365,0.304881043805,1.0,-0.211371428571,-0.27780244898,2.486
-0.417904725549,-0.525203681153,-0.138603342419,-2.64462101006,-0.0727677618616,2.1107417336,-0.673853617479,-0.924675344501,-0.102739474689,0.0179719892132,-0.0765835322008,-0.0105653548832,-0.0334791828427,-0.916150067316,0.573978050216,0.818836583207,0.00604936133452,0.0,0.818833443785,-0.573886241168,-0.0121293214125,0.0,-0.00646041124725,0.0119156130415,-0.999908136407,0.0,0.313556797449,-0.196316694962,0.304899252022,1.0,-0.204706285714,-0.269042546939,2.502
-0.432627231285,-0.526719844895,-0.138309368493,-2.64574210387,-0.0729275608508,2.11030130857,-0.688143822961,-0.923645680246,-0.0844296205277,0.0114452051709,-0.0664946032057,-0.012617039557,-0.0273947872363,-0.886722692507,0.57398965746,0.81882805204,0.00610255865801,0.0,0.818825964829,-0.573898280959,-0.0120643829629,0.0,-0.00637653004527,0.0119219940607,-0.999908598784,0.0,0.310320764073,-0.200595366151,0.304914486193,1.0,-0.198041142857,-0.260282644898,2.518
-0.447806034728,-0.528005536034,-0.137952960907,-2.64670347951,-0.0730272206105,2.10988278649,-0.702872323085,-0.868824736753,-0.0627893650186,0.0265503048741,-0.0493319769923,-0.000584728378609,-0.014177242226,-0.853985208361,0.574007303507,0.818815321377,0.0061507642096,0.0,0.818813945437,-0.573915872201,-0.0120433091487,0.0,-0.00633134674303,0.0119495089847,-0.999908557461,0.0,0.306989525443,-0.204972218626,0.304920987212,1.0,-0.190959428571,-0.25097524898,2.535
-0.464289200949,-0.529024002654,-0.137597923776,-2.6474933332,-0.0730703808108,2.10950577493,-0.718777563644,-0.860756117954,-0.0445994094869,0.0141792781296,-0.0385347099341,-0.00299562585311,-0.0181749206778,-0.826680377579,0.574165062107,0.818704107232,0.00623002073256,0.0,0.818703521593,-0.574072792427,-0.012071438537,0.0,-0.00630657233266,0.0120317698195,-0.999907727573,0.0,0.30337407669,-0.209722280518,0.304910964354,1.0,-0.183044571429,-0.240572865306,2.554
-0.47672395635,-0.52957047705,-0.137192793828,-2.64790661896,-0.0730776958331,2.10929282658,-0.730936740991,-0.828035977467,-0.0284166841667,0.0197751229135,-0.028252424016,-0.00102618997663,-0.0082839842726,-0.80247666531,0.574077474089,0.818765582354,0.00622268407874,0.0,0.818765031994,-0.573985505128,-0.0120502775382,0.0,-0.00629474323523,0.0120129403064,-0.999908028507,0.0,0.30068000326,-0.213272145851,0.304914933661,1.0,-0.176796,-0.232360457143,2.569
-0.490461068638,-0.529936770673,-0.136828505086,-2.64819798296,-0.073084920103,2.10907914228,-0.744238990754,-0.799716000126,-0.0171207339825,0.0206566795292,-0.0174478058967,-0.000510608480784,-0.00985501592292,-0.771943468603,0.574156550234,0.818710090169,0.00622824062208,0.0,0.818709399999,-0.574064135187,-0.0120844505894,0.0,-0.00631837371353,0.012037717368,-0.999907581487,0.0,0.297681901972,-0.217209964468,0.304907354003,1.0,-0.169714285714,-0.223053061225,2.586
-0.503467856203,-0.530092103188,-0.136316124955,-2.64834607236,-0.073079255926,2.1089528905,-0.757095843124,-0.761258092473,-0.009133641428,0.023663435752,-0.00507748972235,-0.00214673331634,-0.00383141499802,-0.741684985333,0.573901489647,0.818889591434,0.00613711032037,0.0,0.818887650069,-0.573809411621,-0.0121046520297,0.0,-0.00639096493898,0.0119727121918,-0.999907900624,0.0,0.294704460604,-0.221104816303,0.304895731616,1.0,-0.162216,-0.213198171429,2.604
-0.5155145382,-0.530116873475,-0.135946224921,-2.64839938083,-0.0730629238088,2.10887668064,-0.76870524561,-0.749065337647,-0.00152282096792,0.0194945110419,-0.00156787367874,0.00124621924524,-0.00508534178535,-0.717143244542,0.574021080466,0.818805982324,0.00610814150961,0.0,0.818803656119,-0.573929090983,-0.0121127267898,0.0,-0.00641245651319,0.0119545592817,-0.999907980223,0.0,0.292069284252,-0.224525337385,0.304887096417,1.0,-0.155550857143,-0.204438269388,2.62
-0.528247077569,-0.529978397105,-0.135407769081,-2.64833240542,-0.0729906576223,2.1088367935,-0.781230632067,-0.700643594189,0.0110797106999,0.0298368652081,0.0060224136305,0.00218957794661,-0.000223712199214,-0.688042088478,0.573838397192,0.818934507377,0.00604263487128,0.0,0.818931322898,-0.57374672562,-0.0121214734189,0.0,-0.00645987526407,0.0119044990457,-0.99990827225,0.0,0.289465414638,-0.227892862313,0.304877545945,1.0,-0.148469142857,-0.195130873469,2.637
-0.54058006921,-0.52970929404,-0.135007456355,-2.64814713074,-0.0729185352895,2.1088381704,-0.793140094015,-0.673754461815,0.018243875215,0.0197708286593,0.00830536815049,0.0103409134449,0.000257521856127,-0.648474851235,0.573944530603,0.818860304486,0.00601867339762,0.0,0.818856879176,-0.573853072935,-0.0121164767883,0.0,-0.00646799217685,0.0118828464796,-0.99990847733,0.0,0.286755978301,-0.231382873837,0.30487403482,1.0,-0.140970857143,-0.185275983674,2.655
-0.550247291106,-0.529338802832,-0.134538441475,-2.64787014802,-0.072761950578,2.10886983347,-0.802634339338,-0.628124743611,0.0272852236099,0.0319964331733,0.0157464468841,0.0195299901938,-0.000567491191808,-0.636013679929,0.573838044413,0.818935126885,0.0059919645592,0.0,0.818931448753,-0.573746899524,-0.0121047276094,0.0,-0.00647524022123,0.0118533896513,-0.999908780048,0.0,0.2846752735,-0.23408132292,0.304879557585,1.0,-0.134722285714,-0.17706357551,2.67
-0.560766432545,-0.528799417335,-0.134070111802,-2.64749066008,-0.0725734886339,2.10894282769,-0.812920681536,-0.615297543835,0.0344711940555,0.0204828741869,0.0183912790277,0.0100752499008,0.00638956221901,-0.609744913836,0.573800493282,0.818961477345,0.00598660461696,0.0,0.818957667599,-0.573709266444,-0.0121145853513,0.0,-0.006486933067,0.0118543590376,-0.999908692767,0.0,0.28239823439,-0.23702548074,0.304873442765,1.0,-0.127640571429,-0.167756179592,2.687
-0.570857462863,-0.528146696051,-0.133638508711,-2.64699927889,-0.0723537258282,2.10905489274,-0.822654252957,-0.569757529523,0.040681602408,0.0296872647553,0.0314795119862,0.0154746387516,0.0108136595276,-0.569228204273,0.57391027407,0.81888440334,0.00600651194385,0.0,0.8188809886,-0.573819186787,-0.0120919099114,0.0,-0.00645534891944,0.0118585180831,-0.999908847855,0.0,0.280220118756,-0.239862797278,0.304879063309,1.0,-0.120558857143,-0.158448783674,2.704
-0.579596343557,-0.527396564429,-0.133143164908,-2.64650344568,-0.0720773104788,2.10917266953,-0.831342333527,-0.538978659843,0.0480783422829,0.0259362153669,0.0286737327082,0.0116479320624,0.00740185599763,-0.532045446244,0.573748513774,0.818997599101,0.00602681603147,0.0,0.81899396334,-0.573656480569,-0.0121604776122,0.0,-0.00650220508227,0.0119132112709,-0.999907894121,0.0,0.278358786295,-0.242283610685,0.304853062317,1.0,-0.113893714286,-0.149688881633,2.72
-0.588622097384,-0.526611665972,-0.132680609505,-2.6459460694,-0.0718105056383,2.10930034139,-0.840025634813,-0.52406118928,0.051799539203,0.0266867185514,0.0317650362246,0.0173999618157,0.00309996648632,-0.493182179067,0.57384766072,0.818927957684,0.00605056290253,0.0,0.818924396992,-0.573755070091,-0.0121941977014,0.0,-0.00651475370617,0.0119527955301,-0.999907340039,0.0,0.276414683094,-0.244793549833,0.304842094875,1.0,-0.106812,-0.140381485714,2.737
-0.597069681065,-0.525743767367,-0.132235322547,-2.64529716415,-0.0715272647986,2.10945385658,-0.848214894655,-0.479482968938,0.053266483079,0.0260483205108,0.0395190969096,0.0208892181029,0.00761076575556,-0.469927439526,0.573901785356,0.818889806242,0.0060805344146,0.0,0.818886591654,-0.573808965116,-0.0121970677986,0.0,-0.0064991144546,0.0119794177288,-0.999907123218,0.0,0.274613147541,-0.247156002372,0.304843881759,1.0,-0.0997302857144,-0.131074089796,2.754
-0.604289486757,-0.524882558058,-0.131711531779,-2.64469699253,-0.0712083228201,2.1095983975,-0.855419121649,-0.445213815793,0.05199774873,0.0254214741071,0.0390842596336,0.0182608905124,0.012296163917,-0.447341245931,0.573714081066,0.819021204931,0.00609638912501,0.0,0.819017784153,-0.573620467671,-0.01225459961,0.0,-0.00653988927064,0.0120239189643,-0.999906323223,0.0,0.273104165697,-0.249135525195,0.304826915583,1.0,-0.0930651428572,-0.122314187755,2.77
-0.612117591763,-0.524003001406,-0.131213845282,-2.64402527511,-0.0709116142784,2.1097669738,-0.862905779948,-0.415719400973,0.0457019324613,0.0294095455521,0.0391836786798,0.0172673941887,0.0153716614518,-0.406859848512,0.573805520329,0.818957105839,0.00610168303841,0.0,0.818953882595,-0.573712099255,-0.012235695832,0.0,-0.00652002619227,0.0120181382146,-0.999906522437,0.0,0.271441356402,-0.251299970141,0.304836824732,1.0,-0.0855668571429,-0.112459297959,2.788
-0.618960483021,-0.523135973463,-0.130766188125,-2.64334524902,-0.0705990478599,2.10992887713,-0.869465865644,-0.389927349214,0.0507016135447,0.0275683501279,0.0412772453059,0.0231608115572,0.00659556001672,-0.372778810269,0.573891087563,0.818896902639,0.006134277981,0.0,0.818894263215,-0.573797791339,-0.0122076709219,0.0,-0.00647711345392,0.0120294301934,-0.99990666555,0.0,0.270003170351,-0.253198311193,0.304853007929,1.0,-0.0784851428572,-0.103151902041,2.805
-0.624744371974,-0.522319703252,-0.130275168218,-2.64273365125,-0.0702778311179,2.11009617484,-0.875119866086,-0.346339448905,0.0506718116248,0.0379505340931,0.0378370860155,0.0183572701582,0.00539559422224,-0.34183303428,0.573820525205,0.818946235065,0.00614945752014,0.0,0.818943841906,-0.573727264274,-0.0121965952258,0.0,-0.00646036868312,0.0120349487554,-0.999906707471,0.0,0.268817923627,-0.254777716939,0.304857986458,1.0,-0.0718200000001,-0.0943920000001,2.821
-0.630431202938,-0.521582333354,-0.129755883403,-2.64215786562,-0.0699655111268,2.1102573337,-0.880659450097,-0.327351613306,0.0426449172551,0.0295855940056,0.035970072282,0.0197382741076,0.00536812115209,-0.316991659165,0.57373794646,0.819004115891,0.00614604322886,0.0,0.81900197204,-0.573645266921,-0.012150079632,0.0,-0.00642544032813,0.012004814392,-0.999907294777,0.0,0.267646264904,-0.256311681036,0.304875574166,1.0,-0.0647382857144,-0.0850846040817,2.838
-0.635693173906,-0.520855432194,-0.129266151986,-2.64157860396,-0.0696479500309,2.1104190886,-0.885606702456,-0.29742219163,0.0494116875262,0.0279335617712,0.0350733207636,0.017585953617,0.0130920414409,-0.27705856851,0.57381551547,0.818949710652,0.00615406614296,0.0,0.818948041254,-0.573723476854,-0.0120923419318,0.0,-0.00637241039047,0.0119788644626,-0.999907945359,0.0,0.266570809584,-0.257734141783,0.3048976882,1.0,-0.0576565714287,-0.0757772081634,2.855
-0.640057771123,-0.520159057424,-0.128824752253,-2.64107211894,-0.0693343132228,2.11057237877,-0.889783831247,-0.260678551142,0.0399222994735,0.0246552775087,0.024794366004,0.0132730915655,0.0139649162142,-0.25630396435,0.573817553151,0.818948058794,0.00618381713197,0.0,0.818946767454,-0.573725364985,-0.0120890260621,0.0,-0.00635259399238,0.0120013434688,-0.999907801902,0.0,0.265692181771,-0.258905505134,0.304895841671,1.0,-0.0509914285715,-0.0670173061226,2.871
-0.644482253591,-0.519488732763,-0.128375045095,-2.64059349916,-0.069001432239,2.11069460734,-0.893919177649,-0.231838642372,0.0377882388703,0.0283822535097,0.0214116111339,0.0193990147312,0.00598760278151,-0.215904220467,0.573903516031,0.818887452617,0.00623226564271,0.0,0.818886578044,-0.573810687089,-0.0121167067831,0.0,-0.00634620070518,0.0120575714568,-0.999907166045,0.0,0.264785754107,-0.260074932159,0.304888287719,1.0,-0.0434931428572,-0.0571624163266,2.889
-0.648087594181,-0.518941764363,-0.127840006028,-2.64021140776,-0.0687115821421,2.11082655056,-0.897266347017,-0.198317753362,0.033447829135,0.0369452666564,0.0240529982932,0.0152385130016,0.0135344833295,-0.185519278551,0.573879863128,0.818904260145,0.00620179929886,0.0,0.818903013747,-0.573787223754,-0.0121170473009,0.0,-0.00636431098578,0.0120326332485,-0.99990735135,0.0,0.264085179856,-0.260989337065,0.304884964355,1.0,-0.0364114285715,-0.0478550204083,2.906
-0.650913069558,-0.518501189127,-0.127313766404,-2.6399049819,-0.0684272025372,2.11090725982,-0.899973307537,-0.170551542614,0.0275854633496,0.0328350656152,0.0200669597654,0.0171093496783,0.00496226999044,-0.159092040116,0.573741498989,0.819001396078,0.00617676788592,0.0,0.818999678078,-0.573648727836,-0.0121413039253,0.0,-0.00640057305601,0.0120249723419,-0.999907212048,0.0,0.263560301078,-0.261673945342,0.30488170398,1.0,-0.0297462857144,-0.0390951183675,2.922
-0.653167459514,-0.51813979425,-0.126841329186,-2.63965101353,-0.0681635642693,2.11097977875,-0.902055957875,-0.139073543911,0.0260455075984,0.0288948362379,0.0163996229416,0.0127052947565,0.000555229674298,-0.131942107266,0.573673053506,0.819049471831,0.00615932432113,0.0,0.819047472205,-0.57358027397,-0.0121513163288,0.0,-0.00641978589034,0.0120158931014,-0.999907198025,0.0,0.263158352713,-0.262207687916,0.304881660061,1.0,-0.0234977142858,-0.0308827102042,2.937
-0.655497201141,-0.517754730486,-0.126356715755,-2.63941338005,-0.0678592347615,2.11103803789,-0.904048620036,-0.11171410142,0.015349233179,0.0230136674937,0.016918669354,0.013422631547,0.00133540130161,-0.0971001936711,0.573747999345,0.818996857628,0.00617473431213,0.0,0.818994659847,-0.573654387057,-0.0122122173986,0.0,-0.00645972861686,0.0120640419978,-0.999906361014,0.0,0.262735434207,-0.262747211828,0.30486448554,1.0,-0.0197688888889,-0.025981968254,2.956
-0.657263556731,-0.51747153333,-0.126076895524,-2.63922743757,-0.0676550646001,2.11107308238,-0.905675107305,-0.100931330113,0.0189960752857,0.017421457219,0.0106536150801,0.00145972456261,0.0031998499259,-0.102382761014,0.573761078505,0.818987437072,0.00620883344367,0.0,0.818985389544,-0.573666753004,-0.0122529633772,0.0,-0.0064733463832,0.0121154506186,-0.999905651371,0.0,0.262392473435,-0.263177838379,0.304854370685,1.0,-0.0194288888889,-0.0255351111111,2.973
-0.658777022963,-0.517222575703,-0.125897638726,-2.63902337753,-0.0675286444572,2.11115585701,-0.907156032408,-0.0924115604579,0.0125829264312,0.0111701709472,0.0135133856118,0.00765015363721,0.00508393640191,-0.0955786452732,0.57372506034,0.819012621541,0.00621512638235,0.0,0.819010983882,-0.573631328213,-0.0122005932343,0.0,-0.0064273723943,0.0120902756382,-0.999906252665,0.0,0.262098650099,-0.263583400131,0.304866699852,1.0,-0.0191088888889,-0.0251145396825,2.989
-0.660288251256,-0.51693975281,-0.125753932736,-2.63879525012,-0.0674688213829,2.11124669117,-0.908618745005,-0.0878960028362,0.0190665590379,0.0104954523729,0.0128878874234,0.000494560742944,0.00203349303391,-0.0896302234391,0.573700182619,0.819030319077,0.00617930385128,0.0,0.81902853024,-0.573607213789,-0.0121563910277,0.0,-0.00641208300946,0.0120353816222,-0.999907013067,0.0,0.261796903647,-0.264009234798,0.304877252044,1.0,-0.0187688888889,-0.0246676825397,3.006
-0.661669489513,-0.516715406598,-0.125659895011,-2.63861584428,-0.0674349012527,2.1112510997,-0.909989884197,-0.0830794080068,0.015624367032,0.00338148747314,0.0124492750916,0.00266413784274,-0.000465418973754,-0.0836304552558,0.57366555131,0.819054717764,0.00616047488426,0.0,0.81905248431,-0.573572303096,-0.0121896664545,0.0,-0.00645065024503,0.0120387757691,-0.999906724145,0.0,0.261492249623,-0.26439015581,0.304878645345,1.0,-0.0184488888889,-0.0242471111111,3.022
-0.663052368059,-0.516472462252,-0.125635066945,-2.638415561,-0.0673886630272,2.11128330708,-0.91133520005,-0.0793145422129,0.016505544182,0.00291242927162,0.0117401985457,0.00102791277935,0.00149370209477,-0.0816917847169,0.573706995487,0.819025533364,0.00618109438529,0.0,0.819023547349,-0.573613603596,-0.0121905519888,0.0,-0.00643893748961,0.0120564989297,-0.999906586096,0.0,0.261165118844,-0.264816168812,0.304883571549,1.0,-0.0180888888889,-0.023773968254,3.04
-0.664490716663,-0.51618786341,-0.125609442995,-2.63818521148,-0.0673560156132,2.11139207859,-0.912834654431,-0.0844517566488,0.0180483746447,0.00184191914214,0.0150685127409,-4.60215170662e-05,0.00559964239807,-0.0786420528161,0.573666490017,0.819053932546,0.00617743588216,0.0,0.819052299657,-0.573573875584,-0.0121279254049,0.0,-0.00639033219014,0.012017258833,-0.999907370282,0.0,0.260871313797,-0.265231056176,0.304892937682,1.0,-0.0177488888889,-0.0233271111111,3.057
-0.665772001292,-0.515975692614,-0.125613706835,-2.63798963368,-0.067333119,2.11143559058,-0.914068357065,-0.0819738317702,0.0130410808318,3.8541300033e-05,0.00959085785955,0.000860789010468,0.00261420440222,-0.0746481602772,0.573728305268,0.819010554218,0.00618794913191,0.0,0.819009271723,-0.573636032972,-0.0120938583068,0.0,-0.0063554893651,0.0120068077108,-0.999907717904,0.0,0.260578624847,-0.265617193815,0.304907117517,1.0,-0.0174288888889,-0.0229065396825,3.073
-0.667109347634,-0.5157363489,-0.125617036379,-2.63781560657,-0.0673046125222,2.11144071056,-0.915412161003,-0.0739947511725,0.0132629641612,0.000695880628761,0.012344945235,0.000734418695101,-0.000293368101378,-0.0763255770906,0.57374675657,0.818997431085,0.00621402465864,0.0,0.818996139157,-0.573653703633,-0.012144927161,0.0,-0.00638208876067,0.0120576069177,-0.999906937199,0.0,0.260259748804,-0.266005265705,0.304898217436,1.0,-0.0170888888889,-0.0224596825397,3.09
-0.668388376133,-0.515480476437,-0.125604483307,-2.63762713797,-0.067265338349,2.11148617999,-0.916675227169,-0.068300102711,0.0147209569536,0.00145835700072,0.0150858760647,0.00229966645078,0.00356647999691,-0.0766069597244,0.573777591946,0.818975678299,0.00623379795066,0.0,0.81897454501,-0.573684254781,-0.0121580155817,0.0,-0.00638101018025,0.012081551351,-0.999906655056,0.0,0.259969529001,-0.266382574006,0.304893582503,1.0,-0.0167488888889,-0.0220128253968,3.107
-0.669575032258,-0.515260626568,-0.125579018988,-2.63743232699,-0.067233886105,2.11157424783,-0.917829564533,-0.0718496321767,0.0137666399574,-9.49900211315e-05,0.0173442760371,0.000821666396451,0.00455512966387,-0.0694010886267,0.573809381141,0.818953430405,0.00623055718826,0.0,0.818952702917,-0.573716902216,-0.0120885647405,0.0,-0.00632551737961,0.0120392952964,-0.999907517323,0.0,0.259714425084,-0.266741984284,0.30490904096,1.0,-0.0164288888889,-0.0215922539683,3.123
-0.670812524252,-0.515030115812,-0.125501443412,-2.63722512903,-0.0672138838317,2.11163670616,-0.919147037948,-0.0742216777542,0.0141580059429,0.0022310919733,0.0113762630836,0.00108457810012,0.00152402834104,-0.07591687044,0.57370917104,0.819023887054,0.00619728974744,0.0,0.819022993242,-0.57361736755,-0.0120498583994,0.0,-0.00631437040505,0.0119890678991,-0.999908191274,0.0,0.259437422165,-0.267125311043,0.304924175001,1.0,-0.0160688888889,-0.0211191111111,3.141
-0.672069664911,-0.514787322259,-0.125449387903,-2.63703526323,-0.0671817741962,2.11164856959,-0.920406834165,-0.0686059685251,0.011365496127,0.00167250597279,0.00505007526308,0.000342005863486,0.00226735992384,-0.0641231788029,0.57369235087,0.819035697176,0.00619356170235,0.0,0.819034574047,-0.573600224606,-0.0120787312711,0.0,-0.00634040577653,0.0120024479935,-0.999907866004,0.0,0.259172126066,-0.267462434684,0.304924049031,1.0,-0.0157288888889,-0.0206722539683,3.158
-0.673164970243,-0.514549736737,-0.12541465511,-2.63685777373,-0.0671572996136,2.11167940733,-0.921523055232,-0.0724831046433,0.0144750125841,0.00148206533206,0.0150627130959,0.00263590626468,0.000701039279235,-0.0666356669555,0.573670276172,0.819051178632,0.00619095461987,0.0,0.819049873132,-0.573577885577,-0.0121021238165,0.0,-0.0063613865917,0.0120135606063,-0.999907599292,0.0,0.258928354011,-0.267783067003,0.304920373385,1.0,-0.0154088888889,-0.0202516825397,3.174
-0.674329297902,-0.514318501682,-0.125395739645,-2.63666273646,-0.0671261834114,2.11176346723,-0.922713721853,-0.0659182818995,0.0120015271698,0.00456386284373,0.0139691226676,0.000432057702484,0.0078273888045,-0.0616698854905,0.573658566966,0.819059371927,0.0061919872993,0.0,0.819058423666,-0.573566825071,-0.0120475184016,0.0,-0.00631623596623,0.0119829922082,-0.999908252322,0.0,0.258675045705,-0.268136460008,0.304931167244,1.0,-0.0150688888889,-0.0198048253968,3.191
-0.675456835859,-0.514097647274,-0.125391069295,-2.63646755495,-0.0671040203203,2.11183935673,-0.923794511631,-0.0612656785795,0.0111785540446,-8.62948029926e-05,0.0102502486269,0.00260511101528,0.000133227530459,-0.0671457985756,0.573712983313,0.819021260689,0.00619146343788,0.0,0.819020663053,-0.57362191178,-0.0119917771483,0.0,-0.00627008206241,0.011951004827,-0.99990892563,0.0,0.258426114899,-0.268483095403,0.304944808405,1.0,-0.0147288888889,-0.019357968254,3.208
-0.676576108072,-0.513865064598,-0.125376220595,-2.63629590567,-0.0670730913317,2.11184589385,-0.924941024388,-0.0673218058676,0.0173604986996,0.000743789026909,0.00725092446002,0.000277961722368,-0.000393971034965,-0.0733193710243,0.573702334833,0.819028590718,0.00620850181067,0.0,0.819027902501,-0.57361059737,-0.0120384555261,0.0,-0.00629869810101,0.0119916571353,-0.999908259072,0.0,0.258165845663,-0.268807917982,0.304937740268,1.0,-0.0143888888889,-0.0189111111111,3.225
-0.677659928531,-0.513641574359,-0.125376907369,-2.6361279758,-0.0670416508516,2.11186708374,-0.926017429162,-0.0604005995856,0.0106145395158,-0.00224050957274,0.0117386096876,0.00065322938828,0.00264129669262,-0.0653901657091,0.573731109129,0.819008264831,0.00623084719417,0.0,0.819007680521,-0.573638911345,-0.0120650544792,0.0,-0.00630724436691,0.0120254403232,-0.999907799476,0.0,0.257912889377,-0.269127924655,0.304933212144,1.0,-0.0140488888889,-0.0184642539683,3.242
-0.678663737039,-0.513433611276,-0.12536480892,-2.63595241042,-0.0670170112275,2.11192574412,-0.926993500732,-0.0601738108995,0.0136620219319,0.000656435782204,0.00988851739793,0.0018383773744,0.00759887351222,-0.0610469076242,0.57376476396,0.81898467636,0.00623236924463,0.0,0.818984313437,-0.573672937151,-0.0120333879544,0.0,-0.00627993967766,0.0120087778524,-0.99990817159,0.0,0.257691178589,-0.269432733706,0.304941370851,1.0,-0.0137288888889,-0.0180436825397,3.258
-0.679614939563,-0.513222166592,-0.125348507328,-2.63578338097,-0.0669937071785,2.11201851905,-0.927971382242,-0.0552946939286,0.0140445352807,-0.00038506301062,0.0128821284438,0.00045638393568,0.00228101433721,-0.0587343285531,0.573749972755,0.81899507776,0.0062272200796,0.0,0.818994997226,-0.573658840635,-0.0119781459598,0.0,-0.00623786282872,0.0119727535225,-0.999908866968,0.0,0.25748786118,-0.26972622105,0.30494826881,1.0,-0.0134088888889,-0.0176231111111,3.274
-0.680606462373,-0.513008555248,-0.125318097275,-2.63561496958,-0.0669674734545,2.11202084192,-0.929018437438,-0.0621089868962,0.00948517255957,-0.000226143342318,0.0119255168192,0.000241952465345,-0.000405881993615,-0.0569017961781,0.573702818393,0.819028076885,0.00623156023064,0.0,0.819027813263,-0.573611218539,-0.0120149061502,0.0,-0.00626617326414,0.0119970376502,-0.999908398885,0.0,0.257262705714,-0.270013306963,0.304946688718,1.0,-0.0130688888889,-0.0171762539683,3.291
-0.681656696956,-0.512800499345,-0.125285278162,-2.63544477925,-0.0669434867896,2.11203145712,-0.930035383375,-0.0565444405676,0.00610751926538,0.00434587121754,0.0121757675048,7.2158882699e-05,0.00291035568151,-0.0544820177874,0.573725775219,0.819012002787,0.00623065343653,0.0,0.819011593966,-0.573633919216,-0.0120367178159,0.0,-0.00628422320605,0.0120089838727,-0.999908142204,0.0,0.257023498883,-0.27031677944,0.304948720255,1.0,-0.0127088888889,-0.0167031111111,3.309
-0.682515443899,-0.512603782552,-0.125253477344,-2.6352946916,-0.0669201886319,2.11206899155,-0.930877535031,-0.0546413710983,0.018070418767,0.00366571429843,0.00831272969982,0.00349937420874,0.00156108026735,-0.0538362129512,0.573733594984,0.819006555983,0.006226567748,0.0,0.819006088828,-0.573641745276,-0.012038332143,0.0,-0.00628777481736,0.0120066236409,-0.99990814822,0.0,0.256822341614,-0.270586883422,0.304949227378,1.0,-0.0123888888889,-0.0162825396825,3.325
-0.683511766766,-0.51239183053,-0.12524055305,-2.6351105293,-0.0668974892035,2.11213220111,-0.931906813688,-0.0567432089894,0.0150944120846,0.00039671798676,0.00983581304928,-0.000144054921839,0.00255295381399,-0.0485384090882,0.573717392551,0.819017921059,0.00622457793392,0.0,0.819017663495,-0.573626005203,-0.0120008307954,0.0,-0.00625843620904,0.0119833553448,-0.99990861141,0.0,0.256616586,-0.270874874652,0.30495900171,1.0,-0.0120488888889,-0.0158356825397,3.342
-0.684458939798,-0.512183038111,-0.125227743711,-2.63493273667,-0.0668791541062,2.11217989925,-0.932845438653,-0.0540032415831,0.00859275453124,0.000459094226357,0.003715945785,0.000312754217709,0.0027039768388,-0.0532764559366,0.573732213523,0.819007565506,0.00622106996995,0.0,0.819007399416,-0.57364110069,-0.0119797413009,0.0,-0.00624295752946,0.0119684962623,-0.999908886138,0.0,0.256406612412,-0.271163582226,0.304966862481,1.0,-0.0116888888889,-0.0153625396825,3.36
-0.685292410748,-0.511997552672,-0.125196938906,-2.63478425298,-0.0668599844371,2.11220279538,-0.933661186314,-0.0529267346515,0.0165684132639,0.00286412626031,0.0112215879499,0.000167591998917,0.00275603000924,-0.0467671383454,0.573740655915,0.819001695603,0.00621524347008,0.0,0.819001396414,-0.573649456332,-0.0119900301618,0.0,-0.00625460441578,0.0119696913042,-0.999908799048,0.0,0.256221601329,-0.271408128526,0.304968333788,1.0,-0.0113688888889,-0.014941968254,3.376
-0.686151144277,-0.511819939509,-0.125180413958,-2.6346337263,-0.0668417364459,2.11225779795,-0.934534046606,-0.0474304783197,0.0154600929177,0.00190932129156,0.0097465114261,0.00373653503098,0.00140371005712,-0.0517797580449,0.573744790998,0.818998803371,0.00621464252004,0.0,0.818998683994,-0.573653952584,-0.0119601505606,0.0,-0.0062304147065,0.0119520882438,-0.999909160634,0.0,0.256041184745,-0.271653653615,0.30497544724,1.0,-0.0110488888889,-0.0145213968254,3.392
-0.686980670307,-0.511618393925,-0.125160642552,-2.63447955574,-0.0668224464193,2.11230108088,-0.935367790897,-0.0491971798489,0.0137868423805,0.000391807378814,0.0115154192755,-0.000147150107499,0.00464280650699,-0.0435328646622,0.57373149518,0.819008170787,0.0062076182248,0.0,0.819007979205,-0.573640725857,-0.011958032379,0.0,-0.00623290360337,0.0119450186328,-0.999909229602,0.0,0.25584880921,-0.271917339162,0.304975605697,1.0,-0.0106888888889,-0.0140482539683,3.41
-0.68769442231,-0.511452486301,-0.125149629619,-2.6343433447,-0.0667998604374,2.11232138317,-0.936055388315,-0.0449407750335,0.0152296390844,-0.000857800037936,0.00762894845487,1.32244011311e-05,0.00641207811115,-0.0387782893793,0.573761729681,0.818986941824,0.00621398236821,0.0,0.818986798203,-0.573670860408,-0.0119630760883,0.0,-0.00623294249207,0.0119533548917,-0.999909129739,0.0,0.255688806042,-0.272131491058,0.30497803646,1.0,-0.0103888888889,-0.013653968254,3.425
-0.688510971625,-0.511269372154,-0.125131924184,-2.63419404222,-0.0667806295586,2.11235675271,-0.936864061081,-0.0389537837415,0.00307695467663,0.000664488598793,0.0110833674814,-0.000310518075393,0.00201190257662,-0.0388096538506,0.573771456499,0.818980139738,0.00621235247666,0.0,0.818980012708,-0.573680664495,-0.0119574608474,0.0,-0.00622913638901,0.0119488722895,-0.999909207034,0.0,0.255506661669,-0.272376100447,0.304981472012,1.0,-0.0100288888889,-0.0131808253968,3.443
-0.689268372323,-0.511103110181,-0.125107103343,-2.63406903527,-0.0667573843024,2.11238931786,-0.937633120761,-0.0470222695771,0.0101704597446,0.00182052743467,0.00344385145758,0.00167586424616,0.00319325144283,-0.0525719619832,0.573760638912,0.818987707523,0.00621378006316,0.0,0.818987570187,-0.573669787825,-0.0119616603086,0.0,-0.00623191484757,0.0119523686169,-0.999909147934,0.0,0.255337013614,-0.272597025525,0.30498003592,1.0,-0.00968888888889,-0.012733968254,3.46
-0.689953443522,-0.510943952923,-0.12509469222,-2.63395877504,-0.0667384580756,2.1124243614,-0.938342151161,-0.0439410714295,0.00960284296658,0.00105765994885,0.00528274973205,2.96418338919e-05,0.00100464047818,-0.0422973587384,0.573746028704,0.818997905215,0.00621873791415,0.0,0.818997765839,-0.573655032207,-0.0119712353201,0.0,-0.00623712643561,0.0119618114836,-0.99990900252,0.0,0.255180955462,-0.272799013989,0.304974443942,1.0,-0.00936888888889,-0.0123133968254,3.476
-0.690666507255,-0.510781259339,-0.125068288288,-2.63384362481,-0.0667157255193,2.11244963535,-0.939034180184,-0.0434510059716,0.0128292700478,0.00489611691509,0.00382547989004,0.000238202133336,0.000551172871746,-0.0397188098854,0.573760172323,0.818987981489,0.00622075022682,0.0,0.818987754614,-0.573668946363,-0.0119893566292,0.0,-0.00625060810046,0.0119739641218,-0.99990877288,0.0,0.255020175553,-0.273004523205,0.304969251887,1.0,-0.00902888888889,-0.0118665396825,3.493
-0.691397154145,-0.510616072302,-0.125048805624,-2.63373172429,-0.0666954444544,2.11248404582,-0.939759398234,-0.0429653014881,0.0101673257557,0.000763893942032,0.00793136185733,-9.72237897277e-05,0.00102152184428,-0.0405552309601,0.573765269634,0.818984386412,0.00622391169173,0.0,0.818984106613,-0.573673848929,-0.0120039606654,0.0,-0.00626068152197,0.0119849712322,-0.999908577987,0.0,0.254853237458,-0.27321655762,0.30496226763,1.0,-0.00866888888889,-0.0113933968254,3.511
-0.69197902792,-0.510470602371,-0.125037189566,-2.63365638428,-0.0666767455621,2.11252183994,-0.940338590443,-0.0400301618818,0.0119736213168,-0.00104873483451,0.00172986928197,0.00025790190742,0.000471621649975,-0.0455681987908,0.573771279114,0.818980109969,0.0062326270511,0.0,0.818979758292,-0.573679464872,-0.0120322065185,0.0,-0.00627872855127,0.0120083611187,-0.9999081842,0.0,0.254717769783,-0.273383534452,0.304946082825,1.0,-0.00836888888889,-0.0109991111111,3.526
-0.692642451091,-0.510303723465,-0.12501837724,-2.6335529785,-0.0666527787459,2.11254270369,-0.941009455276,-0.0366885786048,0.0115224515913,0.00399107148919,0.00565074380549,7.6773503233e-05,0.00161988508547,-0.0463599180798,0.573767518692,0.818982669576,0.0062424617731,0.0,0.818982197708,-0.573675187709,-0.0120700350362,0.0,-0.00630412546033,0.0120380908858,-0.999907666922,0.0,0.25456514896,-0.273573775212,0.304933430071,1.0,-0.00800888888889,-0.010525968254,3.544
-0.693229582849,-0.510162593414,-0.124999746101,-2.63345173925,-0.0666288212924,2.11256047096,-0.941624569062,-0.0352020153218,0.00617449273756,0.000903477010819,0.00835747530627,0.000253638614775,0.00275738543186,-0.0286569904981,0.573746839288,0.818997095282,0.00625053823949,0.0,0.818996606791,-0.573654244305,-0.0120877192661,0.0,-0.00631428074673,0.0120546924221,-0.999907402838,0.0,0.254432843291,-0.273743990549,0.304929060725,1.0,-0.00766888888889,-0.0100791111111,3.561
-0.693773613048,-0.510033689546,-0.124972169509,-2.6333709239,-0.0666067955162,2.1125862105,-0.942163865829,-0.0379074111291,0.0109993303141,0.00438232043987,0.00641334774413,-6.72980605694e-06,0.0045651736198,-0.0309987387627,0.573744752559,0.818998535422,0.00625338226477,0.0,0.818997962662,-0.573651913805,-0.0121064381073,0.0,-0.00632801220898,0.0120677450123,-0.999907158586,0.0,0.25431111584,-0.27389742608,0.30492083158,1.0,-0.00734888888889,-0.00965853968255,3.577
