nelsonifechukwu/NELSON_IML_WORK/CNN-GradCAM/train2dof/data_sample_2022-02-21-16-00-19/robot_state.csv
position_joint1,position_joint2,position_joint3,position_joint4,position_joint5,position_joint6,position_joint7,velocity_joint1,velocity_joint2,velocity_joint3,velocity_joint4,velocity_joint5,velocity_joint6,velocity_joint7,ee_T_00,ee_T_10,ee_T_20,ee_T_30,ee_T_01,ee_T_11,ee_T_21,ee_T_31,ee_T_02,ee_T_12,ee_T_22,ee_T_32,ee_T_03,ee_T_13,ee_T_23,ee_T_33,v_x,v_y,time
0.465057710933,0.547853842898,-0.123902481923,-1.35586012086,0.0795150571538,1.89409162011,0.159162856728,0.00095052507364,-0.000304716006543,0.000796129327836,-0.000312848053733,-0.00245003035713,-0.000275196959107,-0.00721838907866,0.573767251887,0.819004488564,0.0018802327213,0.0,0.818959799118,-0.573708365701,-0.0120127205211,0.0,-0.00875993544088,0.00843250300462,-0.99992607548,0.0,0.661650697958,0.260927333285,0.303146406954,1.0,0.0,0.0,0.0
0.465056641568,0.547856191638,-0.123904725494,-1.35585761532,0.0795163839693,1.89409314601,0.159166010211,0.000166260438245,0.00202476399899,-0.000357882271194,0.000333790979899,0.00155861249692,9.95301197483e-05,-0.000203520470951,0.573772507795,0.819000803275,0.00188160420797,0.0,0.818956136237,-0.573713619383,-0.0120115258918,0.0,-0.00875811601445,0.00843299700681,-0.999926087251,0.0,0.661652234643,0.260925912921,0.303146144722,1.0,-0.00016,-0.000210285714286,0.009
0.465056437161,0.547857640377,-0.123902561819,-1.35586296784,0.0795163795882,1.8940932637,0.159162144705,-0.00131048497261,0.000573975631787,-0.000136720368603,-0.00190752820117,0.000188533072414,-0.000320416664908,0.000321299982677,0.573768291458,0.819003768614,0.00187659670026,0.0,0.818959018584,-0.573709408206,-0.0120161440397,0.0,-0.00876481482021,0.00843150055999,-0.999926041175,0.0,0.661650547851,0.260926381132,0.303142509719,1.0,-0.0005,-0.000657142857143,0.026
0.465051009328,0.547831169952,-0.123903280985,-1.35587812103,0.0795162481554,1.89409668849,0.159161329391,-0.000627602663774,-0.00276153571374,0.000465939102954,-0.000353719519425,0.000179318934875,0.000701343741383,-0.00281126870975,0.573773342069,0.81900019958,0.00188995262182,0.0,0.818955619152,-0.573714396057,-0.0120096843047,0.0,-0.00875180931487,0.00843878649304,-0.999926093627,0.0,0.661650049436,0.260921137803,0.303154370603,1.0,-0.00082,-0.00107771428571,0.042
0.465054119355,0.547759880351,-0.12390292498,-1.35594868494,0.0795157101549,1.89411221949,0.159165681791,0.00117309406191,-0.0099803840298,0.000948699498829,-0.0105993644488,-0.000210843184654,0.00335053426058,0.0020199550532,0.573777694295,0.818997134806,0.00189673677849,0.0,0.818952603129,-0.57371868016,-0.0120106937587,0.0,-0.00874869889376,0.00844496828573,-0.999926068656,0.0,0.661636347226,0.260914141188,0.303167039616,1.0,-0.0012,-0.00157714285714,0.061
0.465055349506,0.547618843116,-0.123902953283,-1.35614779881,0.0795136249994,1.89414341974,0.159159554034,-0.00122582578389,-0.00405587223527,-0.00107943012393,-0.0096074349239,0.000214321995404,0.000583599776262,0.000564616135088,0.573782072755,0.818994079836,0.00189131698451,0.0,0.818949318592,-0.573722928278,-0.0120317100497,0.0,-0.00876897621234,0.00845263502625,-0.999925826258,0.0,0.661602094294,0.260897725883,0.303180474782,1.0,-0.00154,-0.002024,0.078
0.465040679857,0.547480016025,-0.123902939696,-1.35633615631,0.0795058845339,1.89420833344,0.159154786267,-0.000122521696037,-0.0086011954367,-0.00161624899604,-0.0131860022594,-0.00482969672353,0.00561815124264,-0.00201530287167,0.573798605402,0.818982460997,0.00190680870059,0.0,0.818937864224,-0.573739355392,-0.0120280304124,0.0,-0.00875690335085,0.00846338786754,-0.999925841105,0.0,0.66157978041,0.260870651888,0.303194789672,1.0,-0.00186,-0.00244457142857,0.094
0.465020463265,0.547298642073,-0.123903014951,-1.35655725344,0.0795066720432,1.89434649727,0.159136511197,-0.00280811909762,-0.00720352430684,0.0013941783878,-0.0189836221444,-0.000292064401949,0.00523560335019,-0.00123294215281,0.573813166843,0.818972043792,0.00199698432927,0.0,0.818928578246,-0.573753485548,-0.0119861776674,0.0,-0.00867073464053,0.00851337801213,-0.999926167652,0.0,0.661566685867,0.260842903107,0.303230034289,1.0,-0.0022,-0.00289142857143,0.111
0.46499523205,0.547094757776,-0.123905886161,-1.3568128484,0.0795016917679,1.89447873193,0.159123444391,-0.000710013007791,-0.0137986193316,-0.000881104974846,-0.0132940943338,0.000235306047396,0.00926747665982,-0.00339687791988,0.573838315569,0.818954241877,0.00206983044818,0.0,0.81891170474,-0.573778305253,-0.0119508645177,0.0,-0.00859975295603,0.00855303701772,-0.999926442198,0.0,0.661547351583,0.260805077078,0.30326436378,1.0,-0.00254,-0.00333828571429,0.128
0.464962929688,0.546872703176,-0.123902317538,-1.35713865478,0.0794970229647,1.8945910873,0.159104026573,-0.00159721960568,-0.0150760859459,0.000870753270811,-0.0243185292227,-0.000515087600315,0.00754703190265,0.00104120460582,0.573863289008,0.818936699959,0.00208659766594,0.0,0.818894218088,-0.573803043442,-0.0119613469222,0.0,-0.00859845543131,0.00857304570756,-0.999926282009,0.0,0.661508748418,0.26075689179,0.303276196552,1.0,-0.00286,-0.00375885714286,0.144
0.464922189856,0.546603814986,-0.123900976109,-1.35752703576,0.0794869387051,1.89473722178,0.158982906144,-0.00220764516817,-0.0187724338941,2.96269745848e-05,-0.0192095317838,0.000191855499888,0.010475561419,-0.00798221749605,0.573812817449,0.818972014944,0.00210622178673,0.0,0.818929648507,-0.573752356621,-0.0119670785934,0.0,-0.00859241818562,0.00859187597205,-0.999926172283,0.0,0.661462623536,0.260693761224,0.303284413749,1.0,-0.00322,-0.004232,0.162
0.464872952644,0.546308584604,-0.123898318273,-1.35800997327,0.0794735300397,1.89491456816,0.158944494734,-0.00100991919852,-0.015076777611,0.00640507917713,-0.0238291631524,-0.000414787142582,0.0150870734062,0.00177672530638,0.573846042719,0.818948704905,0.00211775619706,0.0,0.818906339456,-0.573785380305,-0.011978791646,0.0,-0.00859504384116,0.00860839189606,-0.999926007668,0.0,0.661412045091,0.260621835912,0.303288896268,1.0,-0.00356,-0.00467885714286,0.179
0.464826061227,0.546012211015,-0.123903570134,-1.35850328616,0.079456645075,1.8950854497,0.158891085726,-0.00256265020745,-0.0209637303383,0.000220418277964,-0.0281520526453,5.2209101919e-05,0.0180771104561,-0.0118266150273,0.57386743262,0.818933759669,0.00210094130272,0.0,0.818891062652,-0.573806725459,-0.0120006761748,0.0,-0.00862239061685,0.00860740500132,-0.999925780725,0.0,0.661355046884,0.260541980949,0.303278938808,1.0,-0.00388,-0.00509942857143,0.195
0.46476558555,0.545664352963,-0.123908261898,-1.3591036077,0.0794079879769,1.8952845898,0.158792594573,-0.001611148067,-0.0191416382493,-0.000445227394526,-0.0375861026884,-0.00568977606896,0.00650844098557,-0.00928148155224,0.573860108142,0.818939027876,0.00204739001893,0.0,0.818895723344,-0.573799718286,-0.0120176738553,0.0,-0.00866711719716,0.00857322760992,-0.999925687663,0.0,0.661285600256,0.260438211851,0.303256857885,1.0,-0.00422,-0.00554628571429,0.212
0.464708443253,0.545328962269,-0.123908379129,-1.35969724973,0.0793271115865,1.89547825392,0.158756412781,-0.00202561235793,-0.0191169345218,0.000294622593516,-0.0398512707752,-0.00176122613614,0.0108831275077,0.000454837430383,0.573888893966,0.818919054015,0.00196653370725,0.0,0.818875062422,-0.573829206578,-0.0120175173185,0.0,-0.0087130871911,0.00850722892495,-0.999925851835,0.0,0.661216084326,0.260334339371,0.303228419691,1.0,-0.00452,-0.00594057142857,0.227
0.464642089883,0.544907280154,-0.123909671365,-1.36039871339,0.0793142735783,1.8957178718,0.158636695522,-0.001878196609,-0.0236738390154,-5.82995356131e-05,-0.0432260894116,-9.72573862956e-06,0.0278282036461,-0.00855983478356,0.573881739487,0.818924111178,0.00194836221654,0.0,0.818879576969,-0.573821833768,-0.0120618579137,0.0,-0.00875990214647,0.00851771802109,-0.999925353511,0.0,0.661132015974,0.26022617759,0.303213872376,1.0,-0.00486,-0.00638742857143,0.244
0.464580939432,0.544457236903,-0.123917132843,-1.36113809938,0.0792891231015,1.89598945872,0.158566292577,-0.00373462102958,-0.0283148500175,-0.00072854233987,-0.0455578463843,-0.00396327770057,0.0148590257955,0.0014558224036,0.573913955362,0.818901551799,0.00194092830598,0.0,0.818856769233,-0.573853931049,-0.0120832198352,0.0,-0.00878132720323,0.008524234889,-0.999925110052,0.0,0.661047015474,0.260113936701,0.303204264477,1.0,-0.0052,-0.00683428571429,0.261
0.464514216842,0.543961045874,-0.123914744274,-1.36194736147,0.0792537745338,1.89627665405,0.158449606348,-0.00466378561547,-0.0285601081868,-0.00121651529144,-0.048568292801,-0.000187027908598,0.0148892525885,-0.00422540892025,0.573907006984,0.818906455254,0.00192659751411,0.0,0.818861318569,-0.573846884799,-0.0121095276402,0.0,-0.00881116801518,0.00852752312598,-0.999924819508,0.0,0.660949923351,0.25999544209,0.303195020124,1.0,-0.00554,-0.00728114285714,0.278
0.464439712856,0.543464812693,-0.123915639146,-1.36273601063,0.0792132207407,1.89654530403,0.158353671534,-0.00820516944347,-0.0325033129791,-0.00294002919816,-0.0492520066187,-0.0035033466707,0.0197850604822,-0.000662917147828,0.573923042862,0.81889525485,0.0019103289745,0.0,0.818849803257,-0.573862891953,-0.0121296267708,0.0,-0.00883679703155,0.00852590896017,-0.999924607105,0.0,0.660856834633,0.259870256875,0.30319404782,1.0,-0.00586,-0.00770171428571,0.294
0.464363676487,0.542905378768,-0.123918829822,-1.36362523481,0.0791583981589,1.89686826085,0.158249843927,-0.00426614803336,-0.0330210256313,0.000342935004866,-0.0523403666892,-0.00242700222279,0.0203388911644,-0.00439921964468,0.573937344666,0.81888524936,0.00190254544831,0.0,0.818839705977,-0.573877236225,-0.0121326237456,0.0,-0.00884356936378,0.00852140967545,-0.999924585585,0.0,0.660754679778,0.259733005674,0.303194622763,1.0,-0.0062,-0.00814857142857,0.311
0.464280584904,0.542241121066,-0.123918969181,-1.36466055693,0.0790948522106,1.89724141604,0.158102332126,-0.00328148503669,-0.0351801187947,6.57711827732e-05,-0.061879014901,-0.00702776484129,0.0226137034115,-0.00612223403961,0.573925198002,0.8188937594,0.00190389465894,0.0,0.818848219023,-0.573865070979,-0.0121334832071,0.0,-0.00884362530171,0.00852287659458,-0.999924572588,0.0,0.660633090895,0.259578901813,0.303203965584,1.0,-0.00658,-0.008648,0.33
0.464196766217,0.541609109006,-0.123919047593,-1.36562777972,0.0790395449652,1.89759954133,0.157978317454,-0.00507091885543,-0.0438887500217,0.000259596088893,-0.0625035992481,4.70107816371e-05,0.0231529867444,-0.00497854830618,0.57393124558,0.818889471495,0.00192502546382,0.0,0.818844173911,-0.573870991502,-0.012126453099,0.0,-0.0088256784194,0.00853621056575,-0.999924617414,0.0,0.66052290386,0.259432336713,0.303221527152,1.0,-0.00692,-0.00909485714286,0.347
0.464123663727,0.540984407684,-0.123922738664,-1.36659319528,0.0789886294721,1.8979625462,0.157860002499,-0.00229459798807,-0.0419987530355,0.0014003570551,-0.0595485635742,-0.00108434543884,0.0249175306552,-0.000622133591958,0.573936780392,0.818885541211,0.00194664085087,0.0,0.818840478744,-0.573876383905,-0.0121207783764,0.0,-0.00880856854065,0.0085507134712,-0.99992464437,0.0,0.660411554229,0.259291920617,0.303235243656,1.0,-0.00724,-0.00951542857143,0.363
0.464039219657,0.540375755929,-0.123919323066,-1.36754812687,0.0789292915889,1.89831298321,0.157734636728,-0.00724774008008,-0.0376603394765,-0.00101651754774,-0.0591303783688,-0.00582243166582,0.0223520708075,-0.00813291373599,0.573937894106,0.818884753182,0.00194977339914,0.0,0.818839716007,-0.573877468433,-0.0121209576844,0.0,-0.00880690597964,0.00855339350369,-0.999924636093,0.0,0.660301312324,0.259146960816,0.303241181801,1.0,-0.00754,-0.00990971428571,0.378
0.463935238045,0.539634823682,-0.123917793741,-1.36870698199,0.0788614121948,1.89875498798,0.157589573084,-0.00590803254064,-0.0436582701444,0.000577812494177,-0.0717036232009,-0.00298722477197,0.032556401581,-0.00662904456282,0.573949239155,0.818876751457,0.00197070994299,0.0,0.818831970663,-0.573888702944,-0.0121122811845,0.0,-0.00878766648589,0.0085656797924,-0.999924700189,0.0,0.660171474519,0.25897038013,0.303251451272,1.0,-0.00788,-0.0103565714286,0.395
0.463818742472,0.538787043042,-0.123922519328,-1.37001181031,0.0787908604138,1.89925905114,0.157438764653,-0.00759268825703,-0.0492831842506,0.000690661047115,-0.0686022306035,-0.00199556811651,0.0405171155377,-0.00424096926493,0.573977808306,0.818856624089,0.00201287325875,0.0,0.818812367452,-0.573917057743,-0.0120939918869,0.0,-0.0087481914998,0.00859001385968,-0.999924837579,0.0,0.660027630947,0.258769778841,0.303273189052,1.0,-0.00826,-0.010856,0.414
0.463704853103,0.538048661335,-0.123931005339,-1.37117110317,0.0787254540258,1.8996972789,0.157281699782,-0.00824038260429,-0.043438079429,-0.00233241738079,-0.0721638583549,-0.0015825471974,0.032729809597,-0.00814819154459,0.573994942534,0.818844578126,0.00202724462442,0.0,0.818800512466,-0.573934130514,-0.0120864187092,0.0,-0.00873356169625,0.00859761768059,-0.999924900115,0.0,0.659901083075,0.258580933458,0.303281191729,1.0,-0.00858,-0.0112765714286,0.43
0.463591178432,0.537237144673,-0.123933831513,-1.37244430804,0.0786497005734,1.90016550991,0.15713242376,-0.0118052537999,-0.0481258818645,0.000527569467221,-0.0781800757924,-0.00415397911261,0.022911013736,-0.0021883067447,0.574017616972,0.818828671178,0.00203213277209,0.0,0.818784657139,-0.57395676883,-0.0120855140549,0.0,-0.00872977712965,0.00860134271523,-0.999924901127,0.0,0.65975501473,0.25838333415,0.303288897028,1.0,-0.00892,-0.0117234285714,0.447
0.463487185891,0.536493683156,-0.123927102955,-1.37360627774,0.0785815030095,1.90060496171,0.156981247289,-0.012327869777,-0.0465446328919,0.00202977281724,-0.0791675070589,-0.00833710783139,0.0271069310072,-0.0133656935565,0.574019967451,0.818826974175,0.00205188506981,0.0,0.818783168669,-0.57395898472,-0.012081120123,0.0,-0.00871481695076,0.00861501900479,-0.999924913888,0.0,0.659621839576,0.258209261424,0.303298558065,1.0,-0.00922,-0.0121177142857,0.462
0.463369969031,0.53562186144,-0.123940456232,-1.37498213481,0.0785010527539,1.90111419237,0.156831716857,-0.0119341766518,-0.0533257115473,0.000846483183857,-0.0830450496854,-0.000574872024633,0.0345793368783,-0.00739983406117,0.574056928373,0.818801058368,0.00205346149048,0.0,0.818757302946,-0.573995963303,-0.0120772466294,0.0,-0.00871035141727,0.00861447955038,-0.999924957444,0.0,0.659464730001,0.257993874268,0.303303581465,1.0,-0.00956,-0.0125645714286,0.479
0.463252050899,0.534733695901,-0.123942021515,-1.37642255105,0.0784298279875,1.90163129213,0.156643200602,-0.00521888350682,-0.0471622118661,-0.00167144164389,-0.0846220440008,-0.00915341077012,0.0303632020334,-0.015582772312,0.574060097114,0.818798892403,0.00203115775016,0.0,0.818754660582,-0.573999045855,-0.0121098321107,0.0,-0.00874980296967,0.00861495713643,-0.999924608889,0.0,0.659291243936,0.257779458241,0.30328956794,1.0,-0.0099,-0.0130114285714,0.496
0.463133887162,0.533875165955,-0.1239444812,-1.37782477463,0.0783365736745,1.90214111914,0.156472616737,-0.0103196637015,-0.0503417017124,-9.92618990216e-06,-0.0850204517298,-0.0038614760366,0.0300081052413,-0.00955323747105,0.574070630292,0.818791594592,0.00199573618651,0.0,0.81874695189,-0.574009783999,-0.0121220272629,0.0,-0.00878001097738,0.00859306819391,-0.999924532445,0.0,0.659125540275,0.257564479411,0.303272014691,1.0,-0.01022,-0.013432,0.512
0.462994298394,0.532834066758,-0.123940168773,-1.37951643997,0.078249616047,1.9027925407,0.156256707869,-0.00642365303342,-0.054975511025,0.00146385878834,-0.0926991804597,-0.0104695371695,0.0353172065875,-0.00269489364133,0.574074491605,0.818788869267,0.00200313598615,0.0,0.818744170704,-0.574013462819,-0.0121356640847,0.0,-0.00878688882463,0.00860699681285,-0.999924352234,0.0,0.658928744602,0.257317976053,0.303257362391,1.0,-0.0106,-0.0139314285714,0.531
0.462862625544,0.531852954752,-0.123942656878,-1.38108636741,0.0781564825227,1.90335990559,0.156058107498,-0.00887930806556,-0.0612155324188,0.000472913242947,-0.0962237498784,-0.00713801588519,0.0288085451058,-0.003457119788,0.574081995637,0.818783652961,0.0019846488659,0.0,0.81873866319,-0.574020999326,-0.0121507461278,0.0,-0.0088097717908,0.00860059893307,-0.999924205937,0.0,0.658741351713,0.257079750093,0.303251027072,1.0,-0.01094,-0.0143782857143,0.548
0.462736033891,0.530838343168,-0.123944893458,-1.38272800608,0.078064496987,1.90393158349,0.155857137502,-0.00376497513565,-0.0601432784609,-0.000214047549233,-0.09791088554,-0.00796535193411,0.0329483957282,-0.0143621313118,0.574087138357,0.818780151961,0.00194093530624,0.0,0.818734448659,-0.574026199203,-0.0121890159214,0.0,-0.00886614729241,0.00858683319066,-0.999923825963,0.0,0.65853708989,0.256837452756,0.303234330754,1.0,-0.01128,-0.0148251428571,0.565
0.462608021216,0.529920882266,-0.123945604179,-1.38416495522,0.0779695563901,1.90445889304,0.155656653288,-0.0102353353488,-0.0627320165446,-0.000362498989074,-0.0980697227559,-0.00640816997863,0.0363697104633,-0.0117210775945,0.574080777843,0.818784606939,0.00194289797564,0.0,0.818738980097,-0.574019879853,-0.0121822372355,0.0,-0.00885953683748,0.00858447981286,-0.999923904761,0.0,0.658368999569,0.256614667979,0.303242456865,1.0,-0.01158,-0.0152194285714,0.58
0.46248022776,0.528927131829,-0.123952999675,-1.38573832832,0.0778789473555,1.90504976238,0.155438179369,-0.0102363142758,-0.0652991419028,-9.98649579121e-05,-0.0997327171991,-0.00762276689542,0.0407726894429,-0.0142247220347,0.574065859741,0.818795045331,0.00195174850571,0.0,0.818749530734,-0.574004920429,-0.012178019062,0.0,-0.00885115883641,0.00858914352354,-0.999923938908,0.0,0.65817218547,0.256361610092,0.303245107149,1.0,-0.01192,-0.0156662857143,0.597
0.462337052324,0.527745345959,-0.123946410787,-1.38755336793,0.0777575481878,1.90576208942,0.155183936654,-0.00445044118459,-0.0656520008436,0.00728074131196,-0.0993054530635,-0.00299780114141,0.0406460231035,-0.0127804362628,0.574042941926,0.818810963722,0.00201330932193,0.0,0.818766356649,-0.573981831618,-0.0121349533718,0.0,-0.00878079895043,0.00861458012935,-0.999924340427,0.0,0.657974699037,0.256116350299,0.303274568031,1.0,-0.01226,-0.0161131428571,0.614
0.462204202277,0.526632428865,-0.123948799222,-1.38923509989,0.077654566321,1.90639873344,0.154957328339,-0.00866146534315,-0.0746032709936,0.00102702266751,-0.103921751424,-0.0061862938462,0.038166870779,-0.0179163197477,0.574030955038,0.818819226136,0.00206989594396,0.0,0.818775389484,-0.573969629243,-0.0121026106238,0.0,-0.00872196078243,0.00864221938203,-0.999924616881,0.0,0.657777026127,0.255869102145,0.303312602365,1.0,-0.01258,-0.0165337142857,0.63
0.462023571444,0.525314435557,-0.123951722695,-1.39128003971,0.0775217881604,1.90713422144,0.154670626327,-0.0125784715174,-0.0731006113176,0.000972968467914,-0.11190111743,-0.00339076688754,0.0373280853817,-0.0166186208799,0.574020330226,0.818826668024,0.002072467556,0.0,0.818782899966,-0.573959029325,-0.0120972013781,0.0,-0.00871616744334,0.00864110689355,-0.999924677012,0.0,0.657532634744,0.255551651994,0.303330314878,1.0,-0.01296,-0.0170331428571,0.649
0.461880716596,0.524206705669,-0.12396018599,-1.3930559994,0.0774157011234,1.90776967187,0.154436364366,-0.0144323101548,-0.0711548706715,-0.00296213752409,-0.112512011845,-0.00590571052454,0.0401002598478,-0.0176013286766,0.574018218346,0.818828222158,0.00204316052796,0.0,0.818784031251,-0.573957005755,-0.0121166255619,0.0,-0.00874891711229,0.00862823715131,-0.999924502137,0.0,0.65731541966,0.255282536078,0.303319388706,1.0,-0.01328,-0.0174537142857,0.665
0.461720780416,0.522996776346,-0.123963740515,-1.39497474139,0.0772984868734,1.9085049447,0.154178076189,-0.0101163154656,-0.0732305615035,-0.000519475502699,-0.115391179212,-0.0139195033257,0.0488449557402,-0.0160609021108,0.574011661445,0.818832770428,0.00206240140652,0.0,0.818788862685,-0.57395039722,-0.0121031721148,0.0,-0.00872692586756,0.00863619950999,-0.999924625571,0.0,0.657090516608,0.25499442525,0.303320546489,1.0,-0.01362,-0.0179005714286,0.682
0.461569717859,0.521817577338,-0.123959431322,-1.39681374116,0.0771840077947,1.90922792574,0.15392838018,-0.0118224459332,-0.07347166411,0.000707901738097,-0.118476194643,-0.00786241033446,0.0534140012219,-0.00770364402643,0.573995578032,0.818843914609,0.00211348273991,0.0,0.818800718621,-0.573934139864,-0.0120720000639,0.0,-0.00867225085875,0.00865996257203,-0.999924895736,0.0,0.65687632746,0.254725423964,0.303336400964,1.0,-0.01394,-0.0183211428571,0.698
0.46139225273,0.520562393214,-0.123967153067,-1.3988433563,0.0770565059354,1.90997403099,0.153646982973,-0.0136697682151,-0.073359606789,0.000505935233712,-0.122505671445,-0.00596320749944,0.0456497400989,-0.0205982152788,0.573989827851,0.818848021139,0.00208391503348,0.0,0.818804464565,-0.573928542866,-0.0120840139833,0.0,-0.00869912010403,0.00864258643577,-0.999924812678,0.0,0.656633303641,0.254409989004,0.303317007635,1.0,-0.01428,-0.018768,0.715
0.461230118169,0.519239428221,-0.123971350873,-1.4009045474,0.0769288380412,1.91070644677,0.153375432358,-0.00666662465995,-0.07676426599,-0.000183845860402,-0.124294259731,-0.0106811064437,0.0460420442634,-0.0111881120026,0.573978166539,0.818856211255,0.00207762513458,0.0,0.818812536448,-0.573916874368,-0.0120912519243,0.0,-0.00870878028776,0.00864146649193,-0.999924738269,0.0,0.65637646034,0.254102935264,0.303328462485,1.0,-0.01462,-0.0192148571429,0.732
0.461062123826,0.517958248052,-0.123978941094,-1.40289864758,0.0767959549527,1.91142002229,0.153111433828,-0.00977962303426,-0.0832197286593,-0.000829393779731,-0.126134423606,-0.00836866909624,0.0433461696527,-0.0116376924331,0.57397459212,0.818858734152,0.00207074998709,0.0,0.818815044118,-0.573913404072,-0.0120861513278,0.0,-0.00870858707027,0.00863287123023,-0.999924814196,0.0,0.656132450901,0.253795408952,0.303340591745,1.0,-0.01494,-0.0196354285714,0.748
0.460858299574,0.516461348351,-0.123977164676,-1.40528117845,0.0766413275667,1.91230941304,0.152760522037,-0.01340929831,-0.0768355093844,0.000942497889244,-0.125165859695,-0.0115646291829,0.0524035849153,-0.0212382064279,0.573937179341,0.818884964469,0.00206785813252,0.0,0.81884127907,-0.57387605057,-0.012082432484,0.0,-0.00870759568536,0.00862797093282,-0.999924865125,0.0,0.655844569433,0.253435012321,0.303333760744,1.0,-0.01532,-0.0201348571429,0.767
0.460700744606,0.51523503647,-0.123988510925,-1.40723218824,0.0765330012103,1.91302882047,0.152506446102,-0.0123314759294,-0.0795809924259,0.00022641984211,-0.124093809397,-0.00822640139906,0.0460394590175,-0.0195495766336,0.573944396406,0.818879904901,0.00206835300324,0.0,0.818836117135,-0.573883156755,-0.0120947331159,0.0,-0.00871730878815,0.0086355127003,-0.99992471539,0.0,0.655592065792,0.253120919895,0.303328224523,1.0,-0.01564,-0.0205554285714,0.783
0.46049983105,0.513741213882,-0.123980638083,-1.40963075541,0.076386790872,1.91386513305,0.152178809368,-0.0103361192644,-0.0877566762874,0.0013531949071,-0.134881848011,-0.00688621249198,0.0481110939957,-0.0144308471087,0.573916961649,0.81889927842,0.00200993421886,0.0,0.818854583043,-0.573855839001,-0.0121406249667,0.0,-0.0087887057471,0.00861372028093,-0.99992427837,0.0,0.655299111089,0.252782011603,0.303305526836,1.0,-0.01598,-0.0210022857143,0.8
0.4603277456,0.512516305123,-0.12399172663,-1.4116302241,0.076264945392,1.91456774639,0.15188942466,-0.013669218503,-0.0851432187874,-0.000840491535279,-0.138101472894,-0.00793568779726,0.0548560640497,-0.0232756700976,0.573900565825,0.818910922832,0.00194625603638,0.0,0.818865336446,-0.573839672381,-0.0121794117476,0.0,-0.00885718491573,0.0085836581594,-0.999923932651,0.0,0.655048338106,0.252469645263,0.303273357838,1.0,-0.01628,-0.0213965714286,0.815
0.460131762689,0.511065059374,-0.123992417816,-1.41393581245,0.0761175725533,1.91544128338,0.15156972149,-0.0106451612202,-0.0857377549634,-0.00152872480117,-0.13341695329,-0.0108897391831,0.0542829178917,-0.017992114402,0.573880572721,0.818924908482,0.00195689123388,0.0,0.818879510738,-0.573819682138,-0.0121682449767,0.0,-0.00884214643688,0.00858574283458,-0.999924047849,0.0,0.654769031369,0.252121827303,0.303268060186,1.0,-0.01662,-0.0218434285714,0.832
0.459915071963,0.509488353176,-0.123998111383,-1.4164369368,0.0759659768357,1.91638037157,0.151228457169,-0.014563895194,-0.0878040212326,-0.000590810732192,-0.139337353516,-0.00344056483465,0.0492789769832,-0.0106693213503,0.57385964528,0.81893954574,0.00196846205667,0.0,0.81889422983,-0.57379863801,-0.0121700562952,0.0,-0.00883720967059,0.0085960319087,-0.999924003093,0.0,0.654447079339,0.251724190609,0.303261455465,1.0,-0.017,-0.0223428571429,0.851
0.459717367118,0.50807381601,-0.123998801596,-1.41867630732,0.0758252439834,1.91717641024,0.15090602901,-0.01349447814,-0.0932776511731,-0.000551097140205,-0.139272293638,-0.00612843808365,0.0533369331374,-0.0159782569083,0.573848509448,0.818947414102,0.00194114417887,0.0,0.818901736529,-0.573787622123,-0.0121843140937,0.0,-0.00886467868961,0.00858172204501,-0.999923882862,0.0,0.654183285614,0.251394274924,0.303255691916,1.0,-0.0173,-0.0227371428571,0.866
0.45948544457,0.506427168505,-0.124006638794,-1.42125083869,0.0756563150467,1.91812254674,0.150551575803,-0.0176493379902,-0.0981519991449,-0.00166456142943,-0.147278590325,-0.0128037529458,0.0563929252981,-0.020288065477,0.57384117684,0.818952534713,0.00194847411798,0.0,0.818907038176,-0.573780339981,-0.0121709152701,0.0,-0.00884957615015,0.00857995670149,-0.999924031787,0.0,0.653868141511,0.250991166169,0.303264003286,1.0,-0.01766,-0.0232102857143,0.884
0.459289170286,0.50501335641,-0.124013745351,-1.42340686234,0.0755243791023,1.91896515686,0.150263016898,-0.0102655116198,-0.0943068072558,-0.00140979715279,-0.141626381686,-0.00525696724345,0.0610321798911,-0.0210525842032,0.573846509494,0.81894859817,0.00203076318566,0.0,0.81890425513,-0.573785382812,-0.0121203260485,0.0,-0.00876087046883,0.00861837334118,-0.999924482543,0.0,0.653614454544,0.250657315377,0.303299169378,1.0,-0.01796,-0.0236045714286,0.899
0.459061193327,0.503353398123,-0.124014147583,-1.42589027685,0.0753689178983,1.91989537372,0.149914404575,-0.0138790098398,-0.0954660029662,7.44095018303e-05,-0.143069854595,-0.0135676941948,0.0558845666167,-0.0130198972536,0.573833574893,0.818957433236,0.00212079576126,0.0,0.818914291451,-0.573772084868,-0.0120716520982,0.0,-0.00866948272613,0.00866403604606,-0.999924884453,0.0,0.653312905092,0.250273350963,0.303357266544,1.0,-0.0183,-0.0240514285714,0.916
0.45880658536,0.50143141457,-0.124024369407,-1.42872420152,0.0751829089542,1.92092606252,0.149519761586,-0.0143361640865,-0.103508292797,0.000421869988689,-0.149683816391,-0.00981253116046,0.0459430071321,-0.0194667885223,0.573820585122,0.818966282575,0.00221607672794,0.0,0.818924493229,-0.573758804713,-0.0120106329885,0.0,-0.0085649748177,0.00870691559564,-0.999925412632,0.0,0.652963314827,0.249830177984,0.3034397069,1.0,-0.01868,-0.0245508571429,0.935
0.458580020725,0.499815770132,-0.124027815299,-1.43116815584,0.0750317852621,1.92179904832,0.149174232203,-0.0210880493898,-0.10054165228,-0.00244018638656,-0.153382402429,-0.00885886787106,0.0551378582279,-0.0290701725282,0.573809153926,0.81897418488,0.00225527661172,0.0,0.818932853111,-0.57374715799,-0.0119969868908,0.0,-0.00853142826989,0.0087310691078,-0.999925488806,0.0,0.652656455341,0.249446548224,0.303479463105,1.0,-0.019,-0.0249714285714,0.951
0.458329843512,0.498138792739,-0.124025438519,-1.43380168671,0.0748731273354,1.92278797482,0.148789969868,-0.0158761656703,-0.101878551391,0.00044616756188,-0.161597965962,-0.00831557879837,0.0567636075381,-0.0195921816155,0.573788807177,0.818988360398,0.00228411742693,0.0,0.818947336658,-0.573726625484,-0.0119902415803,0.0,-0.00850957314472,0.00875060677383,-0.999925504248,0.0,0.652332498587,0.249035918647,0.303481147879,1.0,-0.01934,-0.0254182857143,0.968
0.458101562927,0.496674207804,-0.124025502985,-1.43615454323,0.0747318436164,1.92361754933,0.148435737896,-0.0172798269161,-0.0940381912813,0.000774568786211,-0.159580967126,-0.00771241303855,0.0512478606975,-0.0279662279452,0.573766564587,0.819004073459,0.00223694450162,0.0,0.818962278563,-0.573704421395,-0.0120320431837,0.0,-0.008571112449,0.00873572543834,-0.999925108762,0.0,0.652031999432,0.248660842051,0.303454102223,1.0,-0.01964,-0.0258125714286,0.983
0.457838071468,0.494981146295,-0.124031151889,-1.43889645896,0.074560811426,1.92455897231,0.14805018753,-0.0174759410162,-0.0967195454566,-5.38876522881e-06,-0.16383344271,-0.00122031528624,0.0586978471942,-0.0223274259665,0.573762400172,0.819007237954,0.00214458146721,0.0,0.818964089822,-0.573700499972,-0.0120955700683,0.0,-0.0086761790165,0.00869648595749,-0.999924544678,0.0,0.651676106578,0.248219409089,0.303410422259,1.0,-0.01998,-0.0262594285714,1.0
0.457540863153,0.492989022486,-0.124069922242,-1.44203022609,0.0743588384129,1.92571145249,0.147608417442,-0.0150143959024,-0.121304504699,-0.00101296308208,-0.193184578446,-0.00894806811357,0.0696452532445,-0.0322493300776,0.573774663738,0.818998659058,0.00213977005004,0.0,0.818955629446,-0.573712964368,-0.0120771857555,0.0,-0.00866375192452,0.0086821270818,-0.999924777207,0.0,0.651291197373,0.247703449642,0.303406957495,1.0,-0.0255754285714,-0.0336134204082,1.018
0.457232556707,0.49078336747,-0.12409020958,-1.44548800409,0.0741650048655,1.9269956789,0.147095650703,-0.0225814260685,-0.149330428772,0.000503920729574,-0.235349873906,-0.0117678830166,0.0825841202037,-0.0319824909492,0.573742859564,0.819020852323,0.00217289248006,0.0,0.818978107053,-0.573680873914,-0.0120773330926,0.0,-0.00864520723345,0.0087090026699,-0.999924703997,0.0,0.650855784441,0.247165822494,0.303407763492,1.0,-0.0308417142857,-0.0405348244898,1.034
0.456741149271,0.487658244544,-0.124107143895,-1.45050470366,0.073876838299,1.92881971845,0.146365369412,-0.0321043212818,-0.185473493534,-0.000167263953655,-0.284988534276,-0.0130433005593,0.108329559083,-0.0406700249638,0.573731399988,0.819029010823,0.00212296942692,0.0,0.818985306542,-0.573669323678,-0.0121376126119,0.0,-0.00872334236733,0.00870257779481,-0.999924081337,0.0,0.650218986759,0.246360173086,0.303351266268,1.0,-0.0370954285714,-0.0487539918367,1.053
0.456295340593,0.48471542829,-0.124167733155,-1.45503990441,0.0736027650623,1.9305417168,0.14568223423,-0.0277990021819,-0.202833836653,0.000633180108056,-0.319215224609,-0.01726294753,0.125800043304,-0.0546598158865,0.573731121501,0.81902894215,0.00222239593782,0.0,0.818986745133,-0.573668828024,-0.0120637453364,0.0,-0.00860580299658,0.0087416272603,-0.999924759223,0.0,0.649668493788,0.245608853223,0.303387319494,1.0,-0.0420325714286,-0.0552428081633,1.068
0.45565541225,0.480715857501,-0.124250030184,-1.46132882759,0.0732215784531,1.93271927914,0.144735602581,-0.0399551465276,-0.237824802235,-0.00575809868714,-0.364763529858,-0.0240452615916,0.12788610865,-0.0587343237658,0.573743930423,0.819020238596,0.0021208427676,0.0,0.818976606706,-0.573681961715,-0.0121272986253,0.0,-0.0087159815839,0.00869505199857,-0.999924210996,0.0,0.648859780042,0.24453958738,0.30335959143,1.0,-0.0479571428571,-0.0630293877551,1.086
0.455050010059,0.476953379228,-0.124316153326,-1.46713015659,0.0728654696655,1.93479808766,0.143881121186,-0.0418813364155,-0.257554817122,-0.00406777446447,-0.396708310994,-0.0201679394828,0.140316033017,-0.0520659847244,0.573773020457,0.818999790163,0.00214746573942,0.0,0.818956534668,-0.573710961076,-0.0121109193137,0.0,-0.00868698299471,0.00870776750692,-0.999924352694,0.0,0.648125259313,0.243554785113,0.303386815188,1.0,-0.0528942857143,-0.0695182040816,1.101
0.4543219999,0.472557361745,-0.124357069146,-1.47391837242,0.0724679919778,1.93725375096,0.14291270638,-0.0475741644113,-0.284780046724,-0.00357808944574,-0.440332110581,-0.0258008610087,0.166000194655,-0.0566677128184,0.573827456039,0.818961499139,0.00220466005291,0.0,0.818918741105,-0.573764891754,-0.0121116208298,0.0,-0.00865416123457,0.00875558657653,-0.999924219727,0.0,0.647202613062,0.242338515061,0.303405905838,1.0,-0.0584897142857,-0.0768721959184,1.118
0.453466420678,0.46741143526,-0.124406407152,-1.4816611136,0.0719869719419,1.94015000329,0.141667681866,-0.0550525817711,-0.312158482877,-0.00287599500443,-0.462023856915,-0.0320892494385,0.178116070665,-0.0794918758353,0.573780640852,0.818993570025,0.002460760577,0.0,0.818954264864,-0.573717135368,-0.0119711130256,0.0,-0.00839264566935,0.00888421432152,-0.999925314328,0.0,0.64629028779,0.241105469893,0.303531679896,1.0,-0.063756,-0.0837936,1.134
0.452523329201,0.461861569332,-0.124439924489,-1.49023720505,0.0714346197786,1.94312034331,0.140340330203,-0.0624375901133,-0.336189025511,-0.00418488655617,-0.528525188928,-0.0370377737686,0.178648448127,-0.0803762363763,0.573742078159,0.819020733935,0.00241081646574,0.0,0.818980512861,-0.573678501112,-0.0120267957797,0.0,-0.00846732455212,0.00887486137837,-0.999924767795,0.0,0.645149121486,0.239650133007,0.303534093551,1.0,-0.0693514285714,-0.0911475918367,1.151
0.451482885205,0.455891752876,-0.124497633255,-1.49950520836,0.0708150444342,1.94627791255,0.138956177695,-0.0650507890146,-0.354845569144,-0.00598597079635,-0.561686562846,-0.0419763558387,0.186894029212,-0.0807285779341,0.57376148258,0.819007530634,0.00227437327772,0.0,0.81896539402,-0.573698334222,-0.0121099797206,0.0,-0.00861352626325,0.00881104256592,-0.999924083465,0.0,0.64390086516,0.238046152245,0.303505592659,1.0,-0.0749468571429,-0.0985015836735,1.168
0.450356545453,0.449389332378,-0.1245509981,-1.50913758229,0.0701440309228,1.94992409031,0.137405064579,-0.0666580699372,-0.388175660417,-8.26371076249e-05,-0.575357442927,-0.0325020035535,0.231811863295,-0.0811927930138,0.573708174841,0.819043670022,0.00267275503123,0.0,0.819007525761,-0.573644295094,-0.0118170366178,0.0,-0.00814561519271,0.00896870967058,-0.999926602906,0.0,0.642678985587,0.23637975212,0.303701492349,1.0,-0.0805422857143,-0.10585557551,1.185
0.449135281979,0.44260488085,-0.1245849288,-1.51950543001,0.0694814495047,1.95354439468,0.135828018784,-0.0709709563525,-0.399361437042,-0.00136059140249,-0.633220041813,-0.0463014075663,0.211149746459,-0.0996393666535,0.573725561212,0.819031368329,0.00271016713688,0.0,0.818995323671,-0.573661112987,-0.011846271701,0.0,-0.00814790749725,0.00901629668306,-0.999926156272,0.0,0.641272455031,0.234584655114,0.303728225301,1.0,-0.0861377142857,-0.113209567347,1.202
0.447894378392,0.435856884634,-0.124621057121,-1.52995469121,0.0687527985638,1.95706041525,0.134137130557,-0.0740058477954,-0.444618160678,-0.00179790912326,-0.645154557526,-0.0383567931402,0.233135922255,-0.117572577466,0.573633860128,0.819096034269,0.00257450211166,0.0,0.819058035998,-0.573569736946,-0.0119347152613,0.0,-0.00829918122669,0.00895499583956,-0.999925463042,0.0,0.639729504007,0.232637494721,0.303698134408,1.0,-0.0917331428571,-0.120563559184,1.219
0.446450647505,0.428250057916,-0.124647688294,-1.54139778362,0.0679663100639,1.9611950266,0.13227271726,-0.0871832125326,-0.450906533722,-0.00088100086131,-0.693710963637,-0.0540802438022,0.238096842448,-0.10939041551,0.573594945632,0.819122664646,0.00276505156114,0.0,0.819087332147,-0.573530309562,-0.0118183429695,0.0,-0.00809498756067,0.0090439346233,-0.999926336498,0.0,0.638269940988,0.230726880139,0.303768174867,1.0,-0.0969994285714,-0.127484963265,1.235
0.444876023413,0.420322324333,-0.124728351047,-1.55358075431,0.067081037639,1.96523407275,0.13025617549,-0.096335779747,-0.474226956314,-0.00387493029049,-0.716607263969,-0.0591312167468,0.242687746217,-0.118978378526,0.57356057199,0.819147460351,0.00254074016474,0.0,0.819109233008,-0.573496817021,-0.011925274354,0.0,-0.00831161182797,0.00892118266762,-0.999925662041,0.0,0.636546638151,0.228488611495,0.303710314414,1.0,-0.102594857143,-0.134838955102,1.252
0.443093299752,0.411430334107,-0.124847000907,-1.56688134987,0.0661478584092,1.97000282348,0.128047817782,-0.104477929855,-0.495254356947,-0.00118656446356,-0.766354762054,-0.0475505500439,0.253991759963,-0.13416423462,0.573591907288,0.819124664473,0.00280265016348,0.0,0.81909041059,-0.573527798639,-0.0117264815175,0.0,-0.00799820645014,0.00902201247426,-0.999927313351,0.0,0.63473249425,0.226023983912,0.303820771009,1.0,-0.108519428571,-0.142625534694,1.27
0.441229450651,0.40278916169,-0.124922648669,-1.58019880167,0.0652451520112,1.97434655724,0.125858509009,-0.11157980099,-0.510757445775,-0.01128801708,-0.801062227534,-0.0594710660396,0.258702212713,-0.133572722436,0.573668079384,0.819072221551,0.0025253673906,0.0,0.819033533046,-0.573604091404,-0.011965156537,0.0,-0.00835192707886,0.00893256092573,-0.999925224539,0.0,0.632797046217,0.223514574881,0.303698315838,1.0,-0.114114857143,-0.149979526531,1.287
0.439245862528,0.393593268626,-0.125055251632,-1.59370200113,0.0642641905842,1.9791233251,0.123544363638,-0.120376350043,-0.535575198217,-0.00368148971298,-0.804845379088,-0.061403084522,0.281202977526,-0.137811244929,0.573753084273,0.819011533364,0.00287287414104,0.0,0.81897811065,-0.573688617551,-0.0117034725948,0.0,-0.00793729665872,0.00906789911928,-0.999927383627,0.0,0.630923650022,0.220904877321,0.303878045998,1.0,-0.119710285714,-0.157333518367,1.304
0.437136532699,0.384237893144,-0.125104510327,-1.60797358269,0.0631863104874,1.98375914319,0.121038747436,-0.133904736005,-0.553618162915,-7.74218334648e-05,-0.85987787561,-0.0665549615162,0.270212688556,-0.157045676009,0.573704870755,0.819046225259,0.00259789578233,0.0,0.819008984243,-0.573641138068,-0.0118690921161,0.0,-0.00823123367853,0.00893722801362,-0.999926183649,0.0,0.628799917383,0.218166840212,0.303765835348,1.0,-0.125305714286,-0.164687510204,1.321
0.435188040654,0.375565996705,-0.125179043564,-1.62071173348,0.0622478200072,1.98811612786,0.118760606855,-0.136720970201,-0.569786168722,-0.00233458045669,-0.845641319674,-0.0561688069952,0.2893179559,-0.151035399177,0.573699433112,0.819049315626,0.00281530113126,0.0,0.819015121086,-0.573635147294,-0.0117343991462,0.0,-0.00799624986342,0.00903796634383,-0.999927184925,0.0,0.626945089051,0.215693734312,0.303879493822,1.0,-0.130242857143,-0.171176326531,1.336
0.432789863879,0.365539419504,-0.125277822708,-1.63571347016,0.0610949623998,1.99303529572,0.116136460437,-0.142773320486,-0.602737209932,-0.00883809468178,-0.888825599725,-0.0683848541552,0.29399120431,-0.150998569277,0.573800770639,0.818978652892,0.00271820221445,0.0,0.818943304203,-0.57373693903,-0.011770139978,0.0,-0.00808011593261,0.0089799417846,-0.999927033524,0.0,0.624700912399,0.212699804459,0.303848482947,1.0,-0.135838285714,-0.178530318367,1.353
0.430125800312,0.354540272081,-0.125394105143,-1.65201368946,0.0598315801291,1.99835995101,0.113072192711,-0.147742468895,-0.609025086411,-0.00120238426354,-0.923662777958,-0.0673531586228,0.297876229849,-0.176991169722,0.573766424463,0.819002815736,0.00268791319965,0.0,0.818967209846,-0.57370285825,-0.0117680301285,0.0,-0.00809614220135,0.00895358572748,-0.999927140238,0.0,0.622228157432,0.20941943921,0.303852911767,1.0,-0.141762857143,-0.186316897959,1.371
0.427562334286,0.3443853647,-0.125495434596,-1.6669223808,0.0587279435757,2.00319497384,0.110282476818,-0.165339975098,-0.648046365878,-0.00606089899731,-0.931321123427,-0.0699268616385,0.316294829624,-0.1732659485,0.573844392188,0.818947983606,0.00274965509099,0.0,0.818912781801,-0.573780149184,-0.0117874130152,0.0,-0.00807573609536,0.00901604214348,-0.999926744052,0.0,0.619941507363,0.206365405108,0.303888517768,1.0,-0.147029142857,-0.193238302041,1.387
0.424761871171,0.333391183876,-0.125560875817,-1.68316019253,0.0574260255741,2.00839856884,0.107201877122,-0.166443478875,-0.648699765431,-0.0027568962907,-0.983744069252,-0.0815211727354,0.310581236257,-0.182535033339,0.573811478683,0.818971312539,0.00266890828338,0.0,0.81893501674,-0.573747488064,-0.011832379274,0.0,-0.008159256852,0.00897539030134,-0.999926431742,0.0,0.617386280622,0.203058992252,0.303847910728,1.0,-0.152624571429,-0.200592293878,1.404
0.421995179426,0.322663057121,-0.125569097868,-1.6986467476,0.0561186617407,2.01335213455,0.10415460076,-0.17568082118,-0.671932111405,-0.0010944869564,-0.988306142197,-0.0859081093452,0.321453988158,-0.187270805106,0.573682483996,0.8190613361,0.00277167160371,0.0,0.819026747919,-0.5736185497,-0.0117342462114,0.0,-0.00802133957007,0.00900197801021,-0.99992730861,0.0,0.614919551472,0.199889278159,0.303934141388,1.0,-0.157890857143,-0.207513697959,1.42
0.418875179066,0.311088926232,-0.125628788835,-1.71548493708,0.0547899435761,2.01860725656,0.100780696434,-0.183757116657,-0.691919670513,-0.0108843096783,-0.978113864623,-0.0771691856033,0.312845797467,-0.202915456041,0.573632732994,0.819096237639,0.0027546370372,0.0,0.819060831654,-0.573568199349,-0.0118161604306,0.0,-0.00809875627294,0.00903452564653,-0.999926391037,0.0,0.612185761547,0.196370404563,0.303926098117,1.0,-0.163486285714,-0.214867689796,1.437
0.415171557692,0.297729106631,-0.125714958471,-1.73478735041,0.0531209825571,2.02456028964,0.0968309540548,-0.198315208474,-0.707579862918,-0.00298608460829,-1.03871777421,-0.0895609629618,0.308185951315,-0.20611656163,0.573543570433,0.819158911822,0.00268270355979,0.0,0.819122872093,-0.57347964792,-0.0118135827412,0.0,-0.00813888238881,0.00897324103258,-0.999926617077,0.0,0.60900810938,0.192253127214,0.303926127065,1.0,-0.16974,-0.223086857143,1.456
0.412045014082,0.286845051998,-0.125822949556,-1.75014382622,0.0519038987172,2.02933252344,0.0936182161907,-0.212354277907,-0.722833816984,-0.0140081176709,-1.0424720411,-0.0877636308207,0.324451801216,-0.22110420984,0.573610510693,0.81911117228,0.00293536542462,0.0,0.819078078129,-0.573545291439,-0.0117323270443,0.0,-0.00792666775382,0.00913425544084,-0.999926863983,0.0,0.606480767085,0.188889181542,0.304057903709,1.0,-0.174677142857,-0.229575673469,1.471
0.408128311716,0.27369377368,-0.125957584982,-1.76902428966,0.0502733443034,2.03494761883,0.0895590008092,-0.223724891767,-0.739883441434,-0.00355811733746,-1.0505296149,-0.0872866587035,0.33121987096,-0.227238345465,0.573586781671,0.819128302898,0.00278822251849,0.0,0.819093071643,-0.573521837576,-0.0118316825381,0.0,-0.00809271534532,0.00907048509081,-0.9999261144,0.0,0.603272783519,0.18470271381,0.30400982803,1.0,-0.180601714286,-0.237362253061,1.489
0.404138028903,0.260938769311,-0.126125622087,-1.78713936674,0.0486572634311,2.04035306205,0.0856033705162,-0.235159441408,-0.760345676653,-0.00918177070939,-1.08304013709,-0.097203905862,0.313274089624,-0.228295223509,0.573686636205,0.819058492001,0.00275263907973,0.0,0.819023096244,-0.573622143216,-0.0118131931363,0.0,-0.00809687731746,0.00903171990369,-0.9999264316,0.0,0.600188465731,0.180551820573,0.304007670408,1.0,-0.186197142857,-0.244716244898,1.506
0.399411654229,0.246364708582,-0.126313299541,-1.80763046682,0.0467781567723,2.04635834366,0.0809878872921,-0.252502466163,-0.758715819753,-0.00596617061637,-1.09883798333,-0.101569986928,0.318558981406,-0.248253387382,0.573801556976,0.818978039684,0.00273690129,0.0,0.818942882367,-0.573737600258,-0.0117672585042,0.0,-0.00806701843909,0.00899361023713,-0.999927016431,0.0,0.596642284106,0.175761610675,0.304032872109,1.0,-0.192450857143,-0.252935412245,1.525
0.395840381396,0.235376319238,-0.126399618752,-1.82287691425,0.0454698263147,2.05078365763,0.0774165768797,-0.258464928086,-0.817770631246,-0.00811810779686,-1.08730968657,-0.0910037750831,0.332340781417,-0.254324247548,0.573786699,0.818987951881,0.00288194817929,0.0,0.81895411896,-0.573721593024,-0.0117656975126,0.0,-0.0079826822992,0.00911135949113,-0.999926627264,0.0,0.593941646979,0.172239044252,0.304098341888,1.0,-0.197058857143,-0.258991640816,1.539
0.391041929105,0.221134680132,-0.126469983468,-1.84287027881,0.0435777229228,2.05641710197,0.0726768705063,-0.272771677373,-0.781691008143,-0.00404955798542,-1.11906509578,-0.106320811093,0.302020589668,-0.270079780416,0.573681633097,0.819062118759,0.00271594579205,0.0,0.819025968843,-0.573616969326,-0.0118651491163,0.0,-0.0081605386962,0.00903142213853,-0.999925916767,0.0,0.59031038258,0.167582316022,0.304015772049,1.0,-0.202983428571,-0.266778220408,1.557
0.387078837062,0.209692011833,-0.126598988592,-1.85844141725,0.0421152013032,2.06087105517,0.0688519509588,-0.294322810214,-0.796561036749,-0.00323377901067,-1.1209121886,-0.106732974982,0.308738449595,-0.276400054586,0.573713451131,0.819039061207,0.00293923624817,0.0,0.819006163043,-0.57364837291,-0.0117130720606,0.0,-0.00790752769738,0.00912737532737,-0.999927078354,0.0,0.5874997634,0.163822294062,0.304132446,1.0,-0.207591428571,-0.27283444898,1.571
0.381753362199,0.194877321291,-0.126764921613,-1.87872066514,0.0401813533533,2.06639442181,0.0637167342168,-0.304042406559,-0.819789090895,-0.0103343035724,-1.12869210487,-0.103493085065,0.318792118351,-0.281194820006,0.573716021474,0.819037249125,0.00294247373654,0.0,0.819004183516,-0.573650689921,-0.0117379826663,0.0,-0.00792604554515,0.00914434307247,-0.999926776715,0.0,0.58373353962,0.158859735371,0.304152418445,1.0,-0.213516,-0.280621028571,1.589
0.376355296285,0.180645942202,-0.126987682218,-1.89810856834,0.0383412892728,2.07155428084,0.0586566717225,-0.320554896573,-0.830904434635,-0.0156928762459,-1.1269682678,-0.106553531119,0.311155981912,-0.29944107463,0.573865658678,0.818932477243,0.0029241078282,0.0,0.818898644183,-0.57379976409,-0.0118147444974,0.0,-0.00799777957933,0.00917480071244,-0.999925926533,0.0,0.580088752792,0.15394982792,0.304144576824,1.0,-0.219111428571,-0.287975020408,1.606
0.37044841359,0.165342197526,-0.12712216943,-1.91889705285,0.0362237450179,2.07695859542,0.0531334768744,-0.328926998055,-0.841391359459,-0.00113544359386,-1.17461063099,-0.123217924358,0.295568325413,-0.315348532114,0.573862613378,0.818935088491,0.00278723977254,0.0,0.818899355215,-0.573797088568,-0.0118951283913,0.0,-0.00814218471737,0.00910881369054,-0.999925364385,0.0,0.576075281608,0.148713363928,0.304085922692,1.0,-0.225036,-0.2957616,1.624
0.365055779764,0.151384762765,-0.12723691831,-1.93732873567,0.0343294664511,2.08178672176,0.0479723985163,-0.34035677856,-0.861032190555,-0.00610858908582,-1.18338391007,-0.120586043158,0.299162069348,-0.328022088419,0.573725686436,0.819030196317,0.00302012343979,0.0,0.81899793055,-0.573659841881,-0.0117269974384,0.0,-0.00787239304718,0.0092017316642,-0.999926674093,0.0,0.5724827403,0.144043355808,0.304209122806,1.0,-0.230302285714,-0.302683004082,1.64
0.358963361435,0.136358534803,-0.127386904569,-1.95713275422,0.032322412456,2.08667732544,0.0423219402579,-0.361738447176,-0.885863131915,-0.00846147387849,-1.1612530703,-0.120690320478,0.298201905378,-0.346261130588,0.573732308215,0.819025256178,0.0031008312351,0.0,0.818993514645,-0.573665567587,-0.0117552726665,0.0,-0.00784917621759,0.00928411914026,-0.999926095051,0.0,0.568528751678,0.138892679989,0.304270505767,1.0,-0.235897714286,-0.310036995918,1.657
0.353320932505,0.12302893145,-0.127550469821,-1.97478959279,0.0304233440337,2.09092012054,0.0371036446486,-0.390635544689,-0.912604858892,-0.0137873895231,-1.16738027977,-0.121431562712,0.283034880376,-0.345876528694,0.573710399611,0.819041060734,0.00297743360685,0.0,0.819007537259,-0.573643891128,-0.0118358347776,0.0,-0.00798620183024,0.00922905975368,-0.999925519745,0.0,0.564943396605,0.134200872435,0.304220916785,1.0,-0.240834857143,-0.316525812245,1.672
0.346940503986,0.108478888033,-0.127765057905,-1.99359617985,0.0283258648578,2.09546008133,0.0313359230288,-0.39149192414,-0.894251622704,-0.00435637805589,-1.18306097472,-0.138068251982,0.271348692465,-0.368033022415,0.573786912321,0.818986938026,0.00311793094247,0.0,0.81895604848,-0.573720853906,-0.0116670198768,0.0,-0.00776646441053,0.00924800976801,-0.999927075514,0.0,0.561120410201,0.129029634852,0.304314600029,1.0,-0.246101142857,-0.323447216326,1.688
0.340055515767,0.0928672553502,-0.127871106297,-2.01369325,0.0261421126095,2.10010996721,0.0249445477599,-0.40224792598,-0.9128483853,-0.0051367413857,-1.1974053691,-0.131581921952,0.26930791818,-0.384663560469,0.573624253425,0.819100408691,0.003237787143,0.0,0.819070849795,-0.573557553036,-0.0116371505298,0.0,-0.00767508525312,0.00932750843475,-0.999927042665,0.0,0.556653322007,0.123285235505,0.304370744476,1.0,-0.252025714286,-0.331233795918,1.706
0.332751827989,0.0770320371003,-0.128069513636,-2.03384972559,0.0239260376335,2.104565691,0.0183000973734,-0.443566573667,-0.951167836245,-0.0115165944875,-1.18442564773,-0.143540878045,0.278914001232,-0.396832864874,0.573611894483,0.819108704021,0.00332752246496,0.0,0.819079858778,-0.573544353216,-0.011653614871,0.0,-0.0076372426948,0.00941033991263,-0.999926556316,0.0,0.552601117451,0.117975987524,0.304421273019,1.0,-0.257292,-0.3381552,1.722
0.325090403788,0.0611344751666,-0.128288419528,-2.05416685608,0.0215773452737,2.10883925399,0.0114001143887,-0.461666074794,-0.933708304628,-0.0197837854455,-1.17909712302,-0.137511521637,0.247251681014,-0.407328048603,0.573607820875,0.819112190758,0.00316759918763,0.0,0.819080785444,-0.573540233402,-0.0117904404661,0.0,-0.00784109890824,0.00935778865993,-0.999925471702,0.0,0.548168296667,0.112185021812,0.30434954123,1.0,-0.25998,-0.341688,1.739
0.317109953635,0.0452301085408,-0.128491835938,-2.07419366092,0.0192363322144,2.11298871653,0.00435685035317,-0.473990780151,-0.92153146478,-0.00274002109422,-1.19624241777,-0.134505252482,0.23051369056,-0.412832521836,0.573694276154,0.819051684916,0.00315623914201,0.0,0.819019875962,-0.573626411944,-0.0118291673618,0.0,-0.0078783490072,0.0093715286287,-0.999925050225,0.0,0.543745931085,0.106338390503,0.304327749834,1.0,-0.25998,-0.341688,1.756
0.308495027219,0.02838809128,-0.12868127392,-2.09492754636,0.0167638440779,2.11706927263,-0.00327350769071,-0.484303640297,-0.938681943582,-0.0134197255042,-1.14449477352,-0.146784380095,0.22467758276,-0.424413822521,0.573712538542,0.819038399355,0.00328182922188,0.0,0.819008178809,-0.573644178924,-0.0117773482847,0.0,-0.00776364773268,0.00944483919831,-0.9999252576,0.0,0.539069685898,0.100197421065,0.304410476178,1.0,-0.25998,-0.341688,1.774
0.299084867437,0.0108184118325,-0.128907149297,-2.11633118024,0.0141276777242,2.12105155489,-0.0115605531877,-0.503860889188,-0.912519680309,-0.0148701558285,-1.11961995446,-0.13649209273,0.203684804978,-0.447080722955,0.573759965884,0.819004844869,0.0033634105061,0.0,0.818975732,-0.573691380809,-0.0117344314533,0.0,-0.00768114448043,0.009487481235,-0.999925491084,0.0,0.534147384789,0.0936627909236,0.304483870762,1.0,-0.25998,-0.341688,1.793
0.291411128536,-0.00285539784833,-0.129062331121,-2.13295365265,0.012102965347,2.1239561726,-0.0182461078994,-0.505832036088,-0.913803325545,-0.007134378758,-1.08983071877,-0.127491147551,0.193039151675,-0.444289386272,0.573851600116,0.818940715306,0.00334555811244,0.0,0.818910632007,-0.573782154953,-0.0118390178757,0.0,-0.00777598193614,0.00953373601402,-0.999924318127,0.0,0.530239859938,0.0884875984578,0.304474606704,1.0,-0.25998,-0.341688,1.808
0.282704002023,-0.0182406584821,-0.129197369326,-2.15144931989,0.00970682697501,2.12718286295,-0.0259579655798,-0.519652990026,-0.905235551563,-0.0110088776878,-1.08695275378,-0.146234509777,0.175251622945,-0.458083759032,0.573740971849,0.819018072337,0.00338250021229,0.0,0.818988825284,-0.573671852444,-0.0117752569114,0.0,-0.00770385137716,0.00952636063144,-0.999924946747,0.0,0.52582894552,0.0827359409613,0.304486092265,1.0,-0.25998,-0.341688,1.825
0.274768672725,-0.0318411347644,-0.12936978325,-2.16736930203,0.00762036940805,2.12976510289,-0.0328854221137,-0.533861620381,-0.883532364233,-0.016920995704,-1.07134381894,-0.148350051429,0.181780033622,-0.452636942732,0.573774307794,0.818993987159,0.00355522340751,0.0,0.818967509588,-0.573705280114,-0.0116282719925,0.0,-0.00748397849186,0.0095838006913,-0.999926067682,0.0,0.521973227181,0.077600535298,0.304607597663,1.0,-0.25998,-0.341688,1.84
0.263307906043,-0.0505871176211,-0.129595990808,-2.18937832684,0.00481279742939,2.13309298929,-0.0428585110788,-0.543422845733,-0.903781266004,-0.0049561162648,-1.02727382352,-0.132198495234,0.170047331322,-0.469471514617,0.57387686441,0.81892171729,0.0036486088422,0.0,0.818895708568,-0.573806567778,-0.0116870939449,0.0,-0.00747736328898,0.00969496960849,-0.999925045492,0.0,0.516515922918,0.0703887893545,0.30463053013,1.0,-0.25998,-0.341688,1.861
0.255598745774,-0.0628781589087,-0.129729133999,-2.20380603981,0.00287598636927,2.13514723556,-0.0496627311943,-0.554259469307,-0.866914800522,-0.00925662737641,-1.02343838141,-0.141727167468,0.135593280881,-0.485921819464,0.573803482417,0.818973449452,0.00357764728288,0.0,0.818946150706,-0.573732955534,-0.0117662602425,0.0,-0.00758378659988,0.00968160797402,-0.999924373464,0.0,0.512856530473,0.065640079049,0.304576087464,1.0,-0.25998,-0.341688,1.875
0.244764987997,-0.0795858035925,-0.129977068308,-2.22291741442,0.000224493945071,2.13766744963,-0.0591235107936,-0.584051430776,-0.876785682718,-0.0123136049427,-1.00277031979,-0.139664456673,0.128499471004,-0.501716729604,0.573832894869,0.81895257085,0.00363900616287,0.0,0.818926342833,-0.573762513016,-0.0117034427751,0.0,-0.00749678356386,0.00969608513574,-0.999924889264,0.0,0.507937399873,0.0590956475353,0.304629616061,1.0,-0.25998,-0.341688,1.894
0.237254235376,-0.0908327661987,-0.130061999808,-2.23590734298,-0.00148108238853,2.13915089246,-0.0657054930182,-0.573245641622,-0.858849539083,-0.00783936483257,-0.981238519506,-0.121686553243,0.100969385416,-0.515354719659,0.573801065113,0.818975431832,0.0035109304204,0.0,0.818946022717,-0.573729202255,-0.0119566407169,0.0,-0.00777802143611,0.00973618313403,-0.999922351546,0.0,0.504487026372,0.0546989113611,0.304541547438,1.0,-0.25998,-0.341688,1.907
0.226065116321,-0.107204263256,-0.130259712208,-2.25429045216,-0.00411269690449,2.14123941931,-0.0754968768659,-0.600306976062,-0.834576133612,-0.0114452450047,-0.982278760083,-0.134639467659,0.0947905156682,-0.515820467421,0.573758062742,0.819005403512,0.00354702095311,0.0,0.818976710959,-0.573686385345,-0.01190903351,0.0,-0.00771883377742,0.00973801903674,-0.999922792315,0.0,0.499570098146,0.0482428917403,0.304573640167,1.0,-0.25998,-0.341688,1.926
0.215658767105,-0.121782377926,-0.130512849136,-2.2704627944,-0.0064745888514,2.14290590236,-0.0844984562964,-0.61256127283,-0.852132973652,-0.0120766706852,-0.956451259764,-0.130605651357,0.102825905452,-0.531219096851,0.573875539224,0.818922922827,0.00358592396697,0.0,0.818894979392,-0.573804014682,-0.0118622241699,0.0,-0.00765677713652,0.00974412302949,-0.999923209967,0.0,0.495161436986,0.04235054002,0.304602639292,1.0,-0.25998,-0.341688,1.943
0.205211366376,-0.136182079627,-0.130651348368,-2.28642340566,-0.00873244467531,2.14426360179,-0.0937432972498,-0.627215641111,-0.851242055567,-0.00547252380634,-0.92829493868,-0.142335314739,0.0783615595544,-0.544104313957,0.573754017349,0.819008446508,0.00349843174964,0.0,0.8189781092,-0.573681253447,-0.0120591457459,0.0,-0.00786970902861,0.00978431071529,-0.999921164364,0.0,0.490674682093,0.0366177905621,0.304547221253,1.0,-0.25998,-0.341688,1.96
0.195035692809,-0.149654931463,-0.130892783589,-2.30091945951,-0.0109030521227,2.14557792309,-0.10263408463,-0.647322287248,-0.830599677294,-0.0168141701785,-0.921391442042,-0.136213083476,0.0798812716305,-0.557802861727,0.573816447943,0.818963805509,0.00370354386323,0.0,0.818937088497,-0.573744132248,-0.0118516959344,0.0,-0.00758136940894,0.00983385682384,-0.999922906077,0.0,0.486588991187,0.0311072346386,0.304636249239,1.0,-0.25998,-0.341688,1.976
0.184720730922,-0.162943176533,-0.131065837282,-2.31526611604,-0.0130579544229,2.14645412343,-0.111682252488,-0.639454410684,-0.803178826203,-0.00305312468814,-0.875062339887,-0.124667732173,0.0528120060893,-0.572473969454,0.573793304838,0.818980471619,0.00360240622174,0.0,0.818951642483,-0.573720335515,-0.0119971159996,0.0,-0.00775877939378,0.00983425066993,-0.99992154135,0.0,0.482392488722,0.0256591667718,0.304609180646,1.0,-0.25998,-0.341688,1.992
0.174279649358,-0.176140341744,-0.131239245347,-2.32923588235,-0.0150853947327,2.14733473015,-0.120962046353,-0.656627452181,-0.797545082647,-0.0140470608671,-0.859952063774,-0.133075769804,0.043832440397,-0.584443041935,0.573725158489,0.819027490555,0.00376286233981,0.0,0.819000426094,-0.573651190919,-0.0119733084876,0.0,-0.00764804559032,0.00995136576395,-0.999921235757,0.0,0.478263376331,0.0202707449633,0.304653458283,1.0,-0.25998,-0.341688,2.008
0.162034298701,-0.190847770521,-0.131521938038,-2.3446609672,-0.0175558825826,2.14807227286,-0.131645060615,-0.673996293002,-0.8046025226,-0.00361473849179,-0.819788013159,-0.13713673748,0.0523744627941,-0.600339780462,0.573821508513,0.818959999494,0.0037606512179,0.0,0.818933287467,-0.573748031066,-0.0119253691154,0.0,-0.00760888054744,0.00992294680773,-0.999921816975,0.0,0.473596484817,0.0140256856878,0.304679469947,1.0,-0.25998,-0.341688,2.026
0.15184501639,-0.202989729989,-0.131661030832,-2.35727276307,-0.0194543886651,2.14857930891,-0.140769474242,-0.695778030617,-0.787920249651,-0.0167927400963,-0.869381153028,-0.128464337841,0.0276979202121,-0.602664626099,0.573675354281,0.819062015162,0.00384058722529,0.0,0.819035835172,-0.573600944519,-0.0119584301708,0.0,-0.00759187762115,0.0100060278776,-0.999921118289,0.0,0.469431630801,0.00865985596151,0.304684319445,1.0,-0.25998,-0.341688,2.042
0.1362850066,-0.22063477852,-0.132045788147,-2.37529698147,-0.0223104725092,2.14901094132,-0.154379875212,-0.711000944172,-0.817325289217,-0.016115077386,-0.814598083961,-0.137190928301,0.0168664794938,-0.626244356146,0.573895496301,0.818907181139,0.00396672485945,0.0,0.818882713163,-0.573820696712,-0.0119019750042,0.0,-0.00747056780975,0.0100789663186,-0.99992129943,0.0,0.463985882171,0.0013910416379,0.304745396763,1.0,-0.25998,-0.341688,2.063
0.127800906989,-0.23003224358,-0.132123829717,-2.38497506736,-0.0238420254182,2.149126931,-0.161998901975,-0.710998141945,-0.777742657228,-0.0113869189455,-0.827384311838,-0.119115504987,0.00655370614733,-0.644753899556,0.573741773323,0.819015246574,0.00389234179435,0.0,0.818989131242,-0.573666358437,-0.0120191100067,0.0,-0.00761107533961,0.010083845259,-0.999920190614,0.0,0.460839102034,-0.00261015686623,0.30468687019,1.0,-0.25998,-0.341688,2.075
0.114612083491,-0.244157380009,-0.132447828957,-2.39901744858,-0.0261406373165,2.14922790542,-0.173709664045,-0.746500686771,-0.770041081103,-0.0213325155714,-0.767427534226,-0.125104181599,0.0124693918335,-0.658366005046,0.57381387417,0.818963873095,0.00406930903927,0.0,0.818940654316,-0.573738613271,-0.0118724577108,0.0,-0.00738853647707,0.0101452988906,-0.999921238118,0.0,0.456201870037,-0.00881234241945,0.304764211804,1.0,-0.25998,-0.341688,2.093
0.102744297544,-0.256478155563,-0.132622784736,-2.41131269084,-0.0281447076563,2.14916254812,-0.184352587613,-0.737878478263,-0.766593197982,-0.00928587983309,-0.786897920343,-0.131562437509,-0.00359002809887,-0.680081716647,0.573718922664,0.819030256082,0.00409686473011,0.0,0.819007194758,-0.573643304375,-0.0118878585484,0.0,-0.00738651902322,0.0101758470057,-0.999920942612,0.0,0.452036907579,-0.0142282534072,0.304746537517,1.0,-0.25998,-0.341688,2.109
0.0898492335897,-0.269463349399,-0.13293186463,-2.42391500329,-0.0302643169423,2.14899906088,-0.195863036045,-0.764669618049,-0.762038216864,-0.0275731610807,-0.721448866339,-0.124675140147,-0.00907207785353,-0.695892375172,0.573780868173,0.818985863857,0.00429150579754,0.0,0.818966167187,-0.573705768142,-0.0116985257172,0.0,-0.00711900262317,0.0102271852018,-0.999922359228,0.0,0.447674967491,-0.0200580440723,0.304825779826,1.0,-0.25998,-0.341688,2.126
0.0775043121012,-0.281412426594,-0.133109140397,-2.43556543855,-0.0322565815496,2.14864709964,-0.206944929713,-0.768361205219,-0.761226403207,-0.0059885576253,-0.721766486205,-0.124293510946,-0.0298439615191,-0.699885817878,0.573707111247,0.81903757103,0.00428423226284,0.0,0.819017823955,-0.573632108874,-0.0116942128822,0.0,-0.00712056361922,0.0102181124065,-0.999922440869,0.0,0.443525501068,-0.0254853461872,0.304810832793,1.0,-0.25998,-0.341688,2.142
0.0641280163285,-0.293978135975,-0.133397647502,-2.44761466615,-0.0342319844073,2.14808993764,-0.21903059872,-0.808476880214,-0.733438455039,-0.0203112069488,-0.683102123463,-0.122672780176,-0.0275149822227,-0.713240524567,0.573721376805,0.819026997538,0.00439385964625,0.0,0.819008024228,-0.573645082564,-0.0117440368395,0.0,-0.0070983039164,0.0103366103042,-0.999921381194,0.0,0.439111048872,-0.0312830458233,0.30481941322,1.0,-0.25998,-0.341688,2.159
0.0497016071342,-0.307074650578,-0.133637138908,-2.45997322191,-0.0364008284233,2.14744692507,-0.232056302338,-0.797508089724,-0.718767659189,-0.0106431314338,-0.682318697462,-0.112291006408,-0.0470069101452,-0.731866128859,0.573671805418,0.819061182939,0.00449279113746,0.0,0.819044155694,-0.573596185325,-0.0116118088293,0.0,-0.00693386751631,0.0103413607624,-0.999922485865,0.0,0.434473858676,-0.0374030773689,0.304860177593,1.0,-0.25998,-0.341688,2.177
0.0357511916425,-0.31918782731,-0.13397171121,-2.4714443735,-0.0384090132706,2.14655558196,-0.244616401646,-0.833078333325,-0.709057886322,-0.0232845748165,-0.654842355287,-0.119102273309,-0.0527185668781,-0.760308287791,0.573772847251,0.818990685226,0.00444119029336,0.0,0.818971858651,-0.573695706221,-0.0117931464488,0.0,-0.0071107221927,0.0104039973943,-0.999920594081,0.0,0.430005724152,-0.0432421404389,0.30480300556,1.0,-0.25998,-0.341688,2.194
0.0233121252769,-0.329771061945,-0.134127736939,-2.48105115011,-0.040091116203,2.14586097613,-0.255980550341,-0.839524470954,-0.699166739805,-0.00878380048078,-0.642153008158,-0.10914449233,-0.0555910109437,-0.761398108481,0.573674048141,0.819058638441,0.00466692465646,0.0,0.819044047814,-0.573598188114,-0.0115201230161,0.0,-0.00675884687395,0.0104314133042,-0.999922748819,0.0,0.426199684836,-0.0483090949973,0.304912229527,1.0,-0.25998,-0.341688,2.209
0.00890839443965,-0.341464912249,-0.134464536401,-2.49190372411,-0.042053202508,2.14477080048,-0.269088260397,-0.860672557489,-0.678298634185,-0.021247773876,-0.629568286021,-0.114069614649,-0.0716269495641,-0.768680723456,0.573713203725,0.819031524011,0.00461188124174,0.0,0.819015225084,-0.573635982979,-0.011686188979,0.0,-0.00692594948583,0.0104819236812,-0.999921077135,0.0,0.421733638071,-0.0541335801267,0.304852850823,1.0,-0.25998,-0.341688,2.226
-0.00743031577739,-0.354357191536,-0.134714391362,-2.50340984519,-0.0441798160599,2.14350260677,-0.284088371819,-0.853279598372,-0.677357658875,-0.0145453823324,-0.590300360803,-0.110238448944,-0.0497604680717,-0.801326005729,0.573604436471,0.819106999177,0.00473510935905,0.0,0.819093181346,-0.573528221259,-0.0115102820701,0.0,-0.00671256299562,0.010481046442,-0.999922541582,0.0,0.416849599195,-0.060578404452,0.304940812368,1.0,-0.25998,-0.341688,2.245
-0.0215450951165,-0.364874296066,-0.135039424695,-2.51292444426,-0.0459240875837,2.1423294037,-0.297006045494,-0.88672799553,-0.652504855723,-0.0174457544548,-0.594392314405,-0.104911792809,-0.0753548651871,-0.814337531357,0.573674321597,0.819057999081,0.00474486918054,0.0,0.819043572722,-0.573596921613,-0.0116165571685,0.0,-0.00679312250391,0.01055057829,-0.999921266293,0.0,0.412665205313,-0.0660813613145,0.304901025688,1.0,-0.25998,-0.341688,2.261
-0.0366083792494,-0.375816153844,-0.135236361985,-2.522760305,-0.047776658037,2.14090430098,-0.310963805857,-0.898151653962,-0.643167136026,-0.0173282806589,-0.567290623963,-0.108926723006,-0.0893343937138,-0.830679356384,0.573497818766,0.819182267006,0.00462733124544,0.0,0.819165269532,-0.573419226071,-0.0118067465956,0.0,-0.00701861187061,0.0105618958154,-0.999919589489,0.0,0.408201431511,-0.0717939604799,0.304836025331,1.0,-0.25998,-0.341688,2.278
-0.0520914907709,-0.38656842419,-0.135550708492,-2.53195310397,-0.0495633988185,2.13962950855,-0.325161650409,-0.906802950749,-0.633070574282,-0.00778055985177,-0.540763976937,-0.102081707382,-0.077329545142,-0.834560506263,0.573601448489,0.819108484688,0.00483895686846,0.0,0.819095900059,-0.573524762772,-0.011489120736,0.0,-0.00663570244423,0.0105539492238,-0.999922287785,0.0,0.403871876084,-0.077645475753,0.304957306976,1.0,-0.25998,-0.341688,2.295
-0.0668317915161,-0.39635632501,-0.135832405788,-2.54052950168,-0.0512413601999,2.13818146252,-0.338875155464,-0.936100519401,-0.614962179093,-0.0277533589885,-0.538007018371,-0.10825507517,-0.0934158140081,-0.862268122966,0.573534590121,0.819155627202,0.00478322685291,0.0,0.819141569814,-0.573456896305,-0.0116199648984,0.0,-0.00677571566256,0.0105827955099,-0.999921043941,0.0,0.399678456441,-0.0831005380369,0.304917046341,1.0,-0.25998,-0.341688,2.311
-0.0836352815076,-0.407056134687,-0.136132992726,-2.5497992816,-0.052923120424,2.13647366902,-0.354535713287,-0.933872838755,-0.586612427931,-0.0169953863493,-0.494039115846,-0.0864460630524,-0.0876121420219,-0.886844404381,0.573534340885,0.819155487511,0.00483673528615,0.0,0.819140559889,-0.573454036195,-0.0118304022769,0.0,-0.00691742675463,0.0107473149417,-0.999918318878,0.0,0.394969905696,-0.0891928454412,0.3048758477,1.0,-0.25998,-0.341688,2.329
-0.0979811226291,-0.415745584509,-0.136465157135,-2.55699301785,-0.0544072551797,2.13522664457,-0.367843528492,-0.964033755139,-0.571002690038,-0.031054283828,-0.48153945329,-0.103888873449,-0.0874881721883,-0.89286583324,0.573643745514,0.819077803483,0.00501517440915,0.0,0.819066782809,-0.573565387766,-0.0115368174399,0.0,-0.00657314718661,0.0107259924447,-0.99992087028,0.0,0.391148603777,-0.0943971810795,0.304977158831,1.0,-0.25998,-0.341688,2.344
-0.115286358275,-0.425802985935,-0.136697062839,-2.56556148415,-0.056127913819,2.13341267067,-0.384106245904,-0.964396647123,-0.552778112346,-0.0148270630983,-0.471948077267,-0.091491845474,-0.100787840295,-0.908706432919,0.57350597882,0.819174777398,0.00493185895465,0.0,0.819161605408,-0.573426178444,-0.0117230116322,0.0,-0.00677526885618,0.0107634139889,-0.999919119055,0.0,0.38643283138,-0.10047946543,0.304926697258,1.0,-0.25998,-0.341688,2.362
-0.130942695158,-0.434429999636,-0.13701612609,-2.57285387149,-0.0576607152217,2.13184921147,-0.398740813901,-0.967800402867,-0.5300588178,-0.0115475703856,-0.454002491144,-0.0937255605672,-0.0952646686088,-0.913515820827,0.573552249916,0.819142633076,0.00488980508603,0.0,0.819128215351,-0.573471479295,-0.011839601018,0.0,-0.00689429093278,0.0107962149761,-0.999917951881,0.0,0.382237320242,-0.105951280159,0.304880747905,1.0,-0.25998,-0.341688,2.378
-0.147837575279,-0.443270086891,-0.137353528821,-2.57998500236,-0.0590859277935,2.13025234188,-0.414653214631,-1.00715871977,-0.516661062552,-0.0243268152415,-0.402674172119,-0.0845189876865,-0.0915009862487,-0.948309785056,0.57362654521,0.819089358969,0.00509465944442,0.0,0.819078264795,-0.573546142303,-0.0116775721115,0.0,-0.00664308068434,0.0108716994781,-0.999918834521,0.0,0.37788615965,-0.111792360755,0.304964534771,1.0,-0.25998,-0.341688,2.395
-0.164918297089,-0.451755367814,-0.137575687489,-2.58692418565,-0.0605105053977,2.12860929554,-0.430763983702,-1.00336749433,-0.484770925791,-0.0142203632383,-0.407287422725,-0.091726829671,-0.105923582521,-0.959030223582,0.573609497844,0.819100992459,0.00514344596366,0.0,0.819090482222,-0.573528861212,-0.0116693697912,0.0,-0.00660860490724,0.0109068189708,-0.999918680514,0.0,0.373485843792,-0.117565881006,0.304972243875,1.0,-0.25998,-0.341688,2.412
-0.18220242566,-0.459867779771,-0.13789806837,-2.59361402056,-0.0620110829281,2.12683456207,-0.447208087828,-1.0097548467,-0.467214462213,-0.00987303630837,-0.378479258623,-0.0861137749409,-0.100742530075,-0.965213570353,0.573533576394,0.819154730697,0.00505082438578,0.0,0.81914177445,-0.57345124496,-0.0118814942918,0.0,-0.00683651234884,0.0109519880236,-0.999916654555,0.0,0.369008814482,-0.123360044251,0.304913202661,1.0,-0.25998,-0.341688,2.429
-0.199783836278,-0.467538812157,-0.138212325175,-2.59988002253,-0.0632995801192,2.1252577518,-0.46390614272,-1.04592997654,-0.439575813704,-0.0249124183624,-0.358618488845,-0.076923905744,-0.0893267456925,-0.986874062605,0.573596514042,0.819110099047,0.00514116901139,0.0,0.819097577634,-0.573512651632,-0.0119642648494,0.0,-0.0068516566092,0.0110739929028,-0.999915207147,0.0,0.364582666497,-0.129179228573,0.304874370065,1.0,-0.25998,-0.341688,2.446
-0.215405086923,-0.474109789185,-0.13839712541,-2.60491669931,-0.0644822415816,2.12384679878,-0.478765781385,-1.04142839434,-0.427867644988,-0.0182488933966,-0.332278860632,-0.0702411320883,-0.0935239660499,-0.994459553065,0.573567349254,0.819130110498,0.00520623155939,0.0,0.81911987145,-0.573485615576,-0.0117316590597,0.0,-0.00662418380727,0.0109936359764,-0.999917626686,0.0,0.360491025274,-0.134633697477,0.304975750404,1.0,-0.259102285714,-0.340534432653,2.462
-0.235298021372,-0.48180315458,-0.138647757016,-2.61100059368,-0.0657586064587,2.12213918837,-0.497800265015,-1.03674176473,-0.389167552413,-0.0060687504671,-0.317509223525,-0.0685560165234,-0.0895020371093,-0.998859958152,0.57357086209,0.819126940316,0.00531683289672,0.0,0.819117965699,-0.573488472068,-0.0117250832103,0.0,-0.00655531537095,0.0110804927651,-0.999917121826,0.0,0.355876525767,-0.140715783344,0.30498233866,1.0,-0.253177714286,-0.332747853061,2.48
-0.25099533029,-0.487368330626,-0.13878013642,-2.61550927042,-0.0666431391894,2.12073230164,-0.512741860188,-1.05976830343,-0.359832270301,-0.01509471193,-0.290056088006,-0.0600481678969,-0.0816630283786,-0.995352580747,0.573655109343,0.819067700989,0.0053538418341,0.0,0.81905744875,-0.573569617056,-0.0119806902476,0.0,-0.00674232521743,0.011258104961,-0.999913894355,0.0,0.35203581133,-0.14568187885,0.304915079498,1.0,-0.248240571429,-0.326259036735,2.495
-0.268608261721,-0.493198470903,-0.138810569564,-2.62012012708,-0.0675930496681,2.11933777691,-0.529543895384,-1.02808543531,-0.334670279133,0.00122264389848,-0.266647570109,-0.0483725618417,-0.0747504957175,-0.984175597636,0.573674159857,0.819054108514,0.00539189570929,0.0,0.819043926531,-0.573587806276,-0.0120341931983,0.0,-0.00676405997929,0.0113201230532,-0.999913047373,0.0,0.347828840164,-0.151193429556,0.30489503697,1.0,-0.242645142857,-0.318905044898,2.512
-0.287101541242,-0.498825349945,-0.138811134584,-2.62444275836,-0.0685052786217,2.11797249262,-0.547151796254,-1.00723296149,-0.300990049987,0.00280661044237,-0.234917300759,-0.0506163954851,-0.0790048655396,-0.96365782515,0.573762477122,0.818991807944,0.00545758820434,0.0,0.81898281252,-0.573676411341,-0.0119697438735,0.0,-0.00667236102354,0.011337679118,-0.999913464571,0.0,0.343495493749,-0.15693971109,0.304922844487,1.0,-0.236720571429,-0.311118465306,2.53
-0.304240329636,-0.503627222056,-0.138776507829,-2.62808420439,-0.0691479399401,2.11679456117,-0.563575533861,-1.0103381652,-0.265472871864,-0.00159323342066,-0.205869992597,-0.0323909266753,-0.0627867331752,-0.956373889572,0.573839204181,0.818936885584,0.00562957154276,0.0,0.818930356073,-0.573752866787,-0.0118939756318,0.0,-0.00651055789811,0.0114356767114,-0.999913415219,0.0,0.339529046469,-0.162199278651,0.304960480093,1.0,-0.231125142857,-0.303764473469,2.547
-0.321091294686,-0.507929911928,-0.138699098596,-2.63132646435,-0.0698103682572,2.11572600811,-0.57980654686,-0.985762965743,-0.246995113395,0.00901604484075,-0.18104252753,-0.0369023498896,-0.0702531121781,-0.945541842533,0.573820659523,0.81894935133,0.00570592337136,0.0,0.818944394417,-0.573735074849,-0.0117851450143,0.0,-0.00637787128605,0.0114356138156,-0.999914271073,0.0,0.335664877652,-0.167338139594,0.304997656946,1.0,-0.225529714286,-0.296410481633,2.564
-0.33586278132,-0.511414273237,-0.138655971866,-2.63397738766,-0.0703614588772,2.11478630556,-0.593896080798,-0.973399798431,-0.22661454843,0.00274802436012,-0.17407763556,-0.0409777420165,-0.0666598336152,-0.941713939451,0.573958863129,0.818852157363,0.00575453890648,0.0,0.818847743666,-0.573872917308,-0.0117895875299,0.0,-0.00635167744273,0.0114790504621,-0.999913940094,0.0,0.332261650653,-0.171808860389,0.305005293588,1.0,-0.220592571429,-0.289921665306,2.579
-0.352120849818,-0.514834004585,-0.138485648588,-2.63669518783,-0.0707920927683,2.11378514512,-0.609655910783,-0.953057866675,-0.196812731128,0.00981682740498,-0.158599419917,-0.018676694863,-0.0492064324317,-0.923615749698,0.57390421981,0.818889947665,0.00582640529081,0.0,0.81888516324,-0.573815656081,-0.0119761915349,0.0,-0.00646402473721,0.0116445679008,-0.999911306278,0.0,0.328530981922,-0.17663675385,0.304953176827,1.0,-0.214997142857,-0.282567673469,2.596
-0.369151620902,-0.517953386604,-0.138318299812,-2.6392081158,-0.071243531492,2.1129206146,-0.626051514372,-0.933105081845,-0.16941234976,0.00792743297656,-0.135823777929,-0.0159224779762,-0.0403738997676,-0.904794506197,0.573966894454,0.818845710071,0.00586975899842,0.0,0.818840566804,-0.5738764782,-0.0121103603208,0.0,-0.00654812604591,0.0117575690589,-0.999909436707,0.0,0.324667098916,-0.181692161775,0.304891639978,1.0,-0.209072571429,-0.274781093878,2.614
-0.38580089305,-0.520662686415,-0.13816796499,-2.64129312871,-0.07161205509,2.11213434422,-0.642085898369,-0.922660152127,-0.144993780835,0.00977541383697,-0.109197280637,-0.020660546311,-0.0402324751955,-0.892330714177,0.574084497514,0.818762645653,0.00595539233942,0.0,0.818758215017,-0.573992958094,-0.0121579727881,0.0,-0.00653626654367,0.0118559583644,-0.999908352536,0.0,0.320926532438,-0.186626151627,0.304877285928,1.0,-0.203148,-0.266994514286,2.632
-0.40278829642,-0.523126370442,-0.137864186531,-2.64314594419,-0.0718848708564,2.11139989541,-0.658671673068,-0.880868535143,-0.127370482548,0.017856667693,-0.0924610788304,-0.00644671901056,-0.0391094798866,-0.854596777657,0.573972919536,0.818840311677,0.00603146031417,0.0,0.818836790585,-0.573880917739,-0.0121552269378,0.0,-0.00649197482451,0.0119157821151,-0.999907929961,0.0,0.317146685345,-0.191590643192,0.304884693522,1.0,-0.196894285714,-0.258775346939,2.651
-0.415243527442,-0.524717744915,-0.137726877329,-2.64427547385,-0.0721065264923,2.11093480712,-0.670628669005,-0.87418146033,-0.111635569906,0.0141501146366,-0.0742613208334,-0.01653980004,-0.0303689038003,-0.84684944687,0.574122272674,0.818735150527,0.00609230767424,0.0,0.818732912803,-0.574030880703,-0.0120711388425,0.0,-0.00638601588809,0.0119185119421,-0.999908579758,0.0,0.314383585328,-0.195259708962,0.304918319623,1.0,-0.192286285714,-0.252719118367,2.665
-0.42981297972,-0.52628567989,-0.13745863206,-2.64543098367,-0.0722853240212,2.11046351967,-0.684844827768,-0.857563297618,-0.0923040482922,0.00571927600269,-0.0652619612808,-0.0105243393537,-0.0293628183942,-0.830196312919,0.574077558909,0.818766120199,0.00614358790582,0.0,0.8187648117,-0.57398644723,-0.0120203335435,0.0,-0.00631562725899,0.0119309870413,-0.999908878049,0.0,0.311172929579,-0.199503368403,0.304933726453,1.0,-0.186690857143,-0.245365126531,2.682
-0.441659976016,-0.527357237298,-0.137285486403,-2.64623581291,-0.0724156387956,2.11011501031,-0.696296171764,-0.830267399439,-0.0720740126831,0.0226302639776,-0.0570571002514,-0.0111803102013,-0.0238791442622,-0.810637194501,0.574166141017,0.818703611769,0.00619560224294,0.0,0.818702892954,-0.574074621657,-0.012027000459,0.0,-0.00628993180168,0.0119780845367,-0.999908476936,0.0,0.308369145501,-0.203193965618,0.304930082061,1.0,-0.181753714286,-0.238876310204,2.697
-0.455517502518,-0.528386180595,-0.136948918984,-2.64703310248,-0.0724935044635,2.10977641081,-0.709856677922,-0.820354490102,-0.0535355136404,0.0129959964622,-0.0494729105055,-0.00656779263298,-0.0202656471603,-0.786650064478,0.574102060391,0.818748308577,0.00622722723569,0.0,0.818748029139,-0.574010471303,-0.0120162604974,0.0,-0.00626391991708,0.0119973209216,-0.999908409605,0.0,0.305511285522,-0.206942324261,0.304927783881,1.0,-0.176487428571,-0.231954906123,2.713
-0.469182141354,-0.529149064811,-0.136654746335,-2.6476328686,-0.0725661700931,2.10946402881,-0.723057610697,-0.792621432863,-0.0368475724501,0.0310948023939,-0.0307177346011,-0.00403560402606,-0.0197314894757,-0.770672530593,0.574208194859,0.818673695824,0.00625104989494,0.0,0.818673423943,-0.574115899297,-0.012062587003,0.0,-0.00628661658781,0.0120442366179,-0.999907703149,0.0,0.30250406187,-0.210878427945,0.304914621547,1.0,-0.170892,-0.224600914286,2.73
-0.482229356816,-0.529644116275,-0.136307382824,-2.6480152065,-0.0725848367264,2.10925667093,-0.73590749894,-0.76360786353,-0.0195750743119,0.0180743662753,-0.01697186179,-0.00136634599781,-0.0160613173166,-0.744982594278,0.574094497326,0.818753323782,0.00626496905431,0.0,0.818753252104,-0.574002201302,-0.012055371026,0.0,-0.00627438987011,0.0120506179685,-0.99990770306,0.0,0.299661832201,-0.214623045519,0.304912783375,1.0,-0.165296571429,-0.217246922449,2.747
-0.495029875134,-0.529916556555,-0.136000382083,-2.64824977138,-0.0725865680382,2.10907796905,-0.748391233049,-0.738506009489,-0.00498481861227,0.0316100819924,-0.0122408907004,-0.000382630096525,-0.00400145115759,-0.726570046013,0.574123161267,0.818733072786,0.00628475325933,0.0,0.818732961937,-0.574030200804,-0.0121001034845,0.0,-0.00629923801127,0.0120927171375,-0.999907038575,0.0,0.296859348337,-0.218297421083,0.304898231589,1.0,-0.159701142857,-0.209892930612,2.764
-0.50726986127,-0.53005752334,-0.135635668221,-2.64837870045,-0.0725910354298,2.10895221154,-0.760446489165,-0.714513777013,-0.0065947442465,0.0153417465312,-0.00384927849185,-0.00365903776722,-0.00233367521572,-0.697487768438,0.574008053631,0.818813996628,0.00625621249831,0.0,0.818813412877,-0.573915053653,-0.0121182912948,0.0,-0.00633221391052,0.0120789000632,-0.999906997295,0.0,0.29418010081,-0.221785078874,0.304889710015,1.0,-0.154105714286,-0.202538938776,2.781
-0.517985282802,-0.530051534192,-0.135398838278,-2.64840056477,-0.0725861492613,2.10888291122,-0.770761983035,-0.696066202133,0.00242266447361,0.0269484133362,0.00094661779796,-0.000603786015477,-0.00721127086313,-0.685486025779,0.57416956128,0.818700686689,0.00626477575966,0.0,0.818700093298,-0.574076255982,-0.0121390466455,0.0,-0.00634190891315,0.0120990765304,-0.999906691916,0.0,0.291813532523,-0.224853962693,0.30487776277,1.0,-0.149168571429,-0.196050122449,2.796
-0.53139193254,-0.529877655197,-0.134934668522,-2.64830613917,-0.0725523091484,2.10887456226,-0.783988282883,-0.666105585424,0.00971155028114,0.0181111664921,0.0097284063815,0.00210256714386,5.88997202539e-05,-0.638688894537,0.574010176777,0.818812917976,0.0062023555119,0.0,0.818811648651,-0.573917449777,-0.0121240164969,0.0,-0.00636778386697,0.0120381015656,-0.99990726342,0.0,0.288882068301,-0.228650488432,0.304868474942,1.0,-0.142585714286,-0.187398367347,2.816
-0.543224600585,-0.529614841538,-0.13462342685,-2.64810085511,-0.0725183709859,2.10887564927,-0.795471483669,-0.643856294534,0.0172565484215,0.0200996301711,0.00810868625142,0.0019381070239,0.000302977063455,-0.630337358173,0.57410314832,0.818747862987,0.00618537337376,0.0,0.818746567981,-0.57401084679,-0.0120976066947,0.0,-0.00635454056517,0.0120097585371,-0.999907688496,0.0,0.286264558466,-0.232020215484,0.304873968241,1.0,-0.136661142857,-0.179611787755,2.834
-0.553050355983,-0.529188498295,-0.134184064754,-2.64778834543,-0.072426066671,2.10890175195,-0.80525068925,-0.605626297317,0.0284865804959,0.0267580030962,0.0238256658318,0.00287403996664,-0.000253351014257,-0.601341455744,0.573888763767,0.818898659363,0.00611714125245,0.0,0.818896439676,-0.573796742644,-0.0121105787708,0.0,-0.00640746435812,0.0119596605324,-0.999907951224,0.0,0.284136309277,-0.234780111605,0.304873912358,1.0,-0.131394857143,-0.172690383674,2.85
-0.562702297353,-0.528675888935,-0.133848219569,-2.64742993676,-0.0723152746017,2.10896941444,-0.814688951635,-0.60099239934,0.0351617289354,0.0232891685883,0.0229804070099,0.0131372534761,0.00530805384173,-0.585557549621,0.573894715178,0.81889457643,0.00610536531915,0.0,0.818892096922,-0.573802546683,-0.0121292175998,0.0,-0.00642940012615,0.0119607595702,-0.999907797272,0.0,0.282020180606,-0.237508312417,0.304864048171,1.0,-0.126128571429,-0.165768979592,2.866
-0.573103873328,-0.527961106458,-0.133469005594,-2.64690344184,-0.0721550301807,2.10911277768,-0.82486808287,-0.557637619693,0.0451077099033,0.0329314384407,0.0263129156031,0.00666928848234,0.0126705591296,-0.551537058839,0.573907602968,0.818885581433,0.00610038347593,0.0,0.818883221826,-0.573815797781,-0.0121014928714,0.0,-0.00640936501536,0.0119408703401,-0.999908163611,0.0,0.279759613348,-0.240459040382,0.30486419874,1.0,-0.120204,-0.1579824,2.884
-0.580713796838,-0.527317207614,-0.13313982756,-2.64645206329,-0.0719884702787,2.10919677485,-0.832443060474,-0.544583975383,0.0468975696283,0.0253001127414,0.0327852986857,0.0127007586089,0.00375070059411,-0.539452888303,0.573800627632,0.81896049982,0.00610625620252,0.0,0.818957856664,-0.573708149478,-0.012154634195,0.0,-0.00645108055256,0.0119753337839,-0.999907483191,0.0,0.278110570745,-0.242598609114,0.304849609085,1.0,-0.115596,-0.151926171429,2.898
-0.590357791648,-0.526466678746,-0.132789153902,-2.64580642011,-0.0717876341184,2.10934507997,-0.841736433849,-0.525816200947,0.0498151697401,0.0146038397414,0.0354253466097,0.00843006880493,0.00881611736358,-0.50985513766,0.573962123333,0.818847171619,0.00612677825144,0.0,0.818844851428,-0.573869621957,-0.0121455006506,0.0,-0.00642946072375,0.0119881689788,-0.999907468639,0.0,0.276006843048,-0.245332977186,0.304853615598,1.0,-0.109671428571,-0.144139591837,2.916
-0.599329662782,-0.525477807479,-0.132369464968,-2.64507999603,-0.0715464030358,2.10950822319,-0.850591355693,-0.479818407007,0.0619048265418,0.0324042824361,0.0453760389773,0.0157911059906,0.00342387868244,-0.484294139797,0.573905140364,0.818887074125,0.00613160630553,0.0,0.818884579697,-0.573812187629,-0.0121805321994,0.0,-0.00645621424835,0.012011779158,-0.999907012906,0.0,0.274079289176,-0.247864915809,0.304846456739,1.0,-0.103746857143,-0.136353012245,2.934
-0.607309344255,-0.524523988664,-0.131965900219,-2.64438905079,-0.0712884775548,2.10968133076,-0.858534084203,-0.464358693332,0.0601325524614,0.0204392674698,0.0393502119713,0.012930541575,0.00908377179829,-0.45870247585,0.573798884022,0.818961374925,0.00615255854791,0.0,0.81895892184,-0.573705426573,-0.0122112554633,0.0,-0.00647091492268,0.0120457293899,-0.999906509462,0.0,0.272369123389,-0.250106550071,0.304836136685,1.0,-0.0981514285715,-0.128999020408,2.951
-0.614615103874,-0.523669878086,-0.131598058366,-2.64371785755,-0.0710608845379,2.10983897078,-0.86554736644,-0.445988102176,0.0583944091049,0.020847241955,0.0411699668401,0.0188725709755,0.0135725363491,-0.434435486362,0.573912469306,0.818881733083,0.00615887158836,0.0,0.818879536207,-0.573819282617,-0.0121853592383,0.0,-0.00644441288968,0.012036935268,-0.999906786522,0.0,0.270795829062,-0.252159691178,0.304850849825,1.0,-0.0928851428572,-0.122077616327,2.967
-0.62107158871,-0.522805134734,-0.131294400417,-2.64304822396,-0.0708294673965,2.11000261143,-0.871839228264,-0.41320571244,0.0602643955846,0.0238053030129,0.0456583370981,0.0162694237198,0.00816037102303,-0.397037747011,0.573966669927,0.818843500249,0.00619118848444,0.0,0.818841758933,-0.573873387727,-0.0121760250705,0.0,-0.00641742423348,0.012058468394,-0.999906700651,0.0,0.26932245231,-0.2541045352,0.304857916692,1.0,-0.0876188571429,-0.115156212245,2.983
-0.627776008096,-0.521844136826,-0.130850548664,-2.64231014435,-0.0705427180003,2.11018764127,-0.878555889065,-0.38887653914,0.0507022556332,0.0264922270347,0.0402634684337,0.0138036963189,0.0123468219699,-0.380878607496,0.573806807247,0.818955479082,0.00619823684894,0.0,0.818953931309,-0.573713718647,-0.012156246606,0.0,-0.00639953446229,0.0120516395191,-0.999906897638,0.0,0.268000875178,-0.255857941869,0.304869211727,1.0,-0.0823525714286,-0.108234808163,2.999
-0.634285346758,-0.520961357442,-0.130461891703,-2.64161168622,-0.0702977929463,2.11036020771,-0.884831265112,-0.375581013977,0.0446543424816,0.0277673176854,0.0392105895286,0.0136308602441,0.00581814105594,-0.351703547011,0.573865756333,0.818914183861,0.00619677985877,0.0,0.818912845035,-0.573773091437,-0.0121218266552,0.0,-0.00637131291327,0.0120311554829,-0.99990732454,0.0,0.266604198749,-0.257673663592,0.304886764587,1.0,-0.0767571428572,-0.100880816327,3.016
-0.639981610379,-0.520091554465,-0.130105619332,-2.64091887118,-0.0700335056708,2.11055392135,-0.890359856044,-0.346892417342,0.0510032180437,0.0235087924451,0.0451096704562,0.0133823759641,0.0121686179184,-0.341612464984,0.5738964536,0.818892484701,0.00622141038392,0.0,0.818891837418,-0.573804375949,-0.012060002214,0.0,-0.00630609408749,0.0120160860285,-0.999907919188,0.0,0.265332234114,-0.25936847745,0.304908086827,1.0,-0.0711617142858,-0.0935268244899,3.033
-0.646554332866,-0.51901327227,-0.129731545885,-2.64010836126,-0.0697046116466,2.11076882657,-0.896726598624,-0.321658252141,0.0461423339024,0.0258557347154,0.0393260014264,0.0208077484822,0.0079988206031,-0.301847911815,0.573988915932,0.818827219837,0.00628134884755,0.0,0.818827289424,-0.573896431888,-0.01206244015,0.0,-0.00627233140321,0.0120672791285,-0.99990751504,0.0,0.263999794763,-0.261117459009,0.304906535222,1.0,-0.0649080000001,-0.085307657143,3.052
-0.65101803265,-0.5182602931,-0.129358957903,-2.63957592138,-0.0694616345703,2.11092465655,-0.901154079287,-0.289299735449,0.0497905422811,0.0273843933028,0.0322244253589,0.0167238959697,0.00983156775301,-0.29331023859,0.573887065306,0.818898564217,0.00628686711897,0.0,0.818898509597,-0.573794201887,-0.0120909784965,0.0,-0.0062940382096,0.0120873949996,-0.999907135671,0.0,0.263064196192,-0.26233448518,0.304893768552,1.0,-0.0599708571429,-0.0788188408164,3.067
-0.656009155884,-0.517423050801,-0.128884919033,-2.63894745142,-0.0691761484944,2.11109783357,-0.905934942529,-0.270956194834,0.0415084631032,0.0226045640626,0.0362516939002,0.0177019870587,0.00279202542848,-0.249319373766,0.573878630165,0.818904605351,0.00626993429201,0.0,0.818904365404,-0.573785912093,-0.0120877750989,0.0,-0.0063012560491,0.0120716247942,-0.999907280725,0.0,0.262032958635,-0.263686060482,0.304897337533,1.0,-0.0540462857144,-0.0710322612246,3.085
-0.660087038708,-0.516675282787,-0.12852303537,-2.63840407986,-0.0689441574642,2.11125734444,-0.909889872375,-0.245151792801,0.0488041375971,0.0175991314426,0.0346467134966,0.0103461019003,0.00979277167372,-0.242908024695,0.573850752176,0.818924180583,0.00626478935731,0.0,0.818923791945,-0.573757906933,-0.0121009966284,0.0,-0.00631544791105,0.0120747835505,-0.99990715305,0.0,0.261187833782,-0.264802208363,0.304891058656,1.0,-0.0487800000001,-0.064110857143,3.101
-0.664383653203,-0.515843062323,-0.128097456489,-2.63782015009,-0.068648784362,2.1114440471,-0.913995076691,-0.212604057023,0.0452970755977,0.0235927530966,0.0330315481252,0.0176450494819,0.0105005013548,-0.210776398593,0.573862843676,0.818915602219,0.00627853424068,0.0,0.818915224063,-0.573769611249,-0.0121258363206,0.0,-0.00632772623075,0.0121003871573,-0.999906765909,0.0,0.260311410285,-0.265965572991,0.304875735087,1.0,-0.0425262857144,-0.055891689796,3.12
-0.667270177981,-0.515339962837,-0.127798916292,-2.63746679884,-0.068455558389,2.1115459492,-0.916722140071,-0.199203598827,0.0362872605646,0.0213486558396,0.0250734381715,0.0140596279341,0.00445585198599,-0.190292545988,0.573882821399,0.81890156297,0.00628365892721,0.0,0.818901099766,-0.573789270979,-0.0121494120001,0.0,-0.00634379853888,0.0121182673572,-0.999906447532,0.0,0.259710999172,-0.266730747533,0.304866572239,1.0,-0.0379182857144,-0.0498354612246,3.134
-0.670416676126,-0.514813493745,-0.127431078611,-2.6370559621,-0.0682148476989,2.1116706512,-0.919609927446,-0.176779134011,0.0346707110855,0.0246793672564,0.0225047859157,0.0159243215137,0.00291578636734,-0.165829024804,0.573957772821,0.818849016339,0.00628572668215,0.0,0.818848817435,-0.573864650791,-0.0121129542046,0.0,-0.00631164580676,0.0120996170331,-0.999906876861,0.0,0.259074644963,-0.267560284076,0.304878423449,1.0,-0.0323228571429,-0.0424814693879,3.151
-0.673057876773,-0.514312913745,-0.127050164593,-2.63668390022,-0.0679725191623,2.11177165483,-0.922130638717,-0.148253323932,0.0238565425645,0.0195700605798,0.0181606685025,0.0129198675384,0.00364763014,-0.143323331905,0.573908873138,0.818883281948,0.00628671465065,0.0,0.818883077384,-0.57381572178,-0.0121148633487,0.0,-0.00631336490629,0.012101144797,-0.99990684752,0.0,0.258562661818,-0.268241582923,0.304880402328,1.0,-0.0267274285715,-0.0351274775511,3.168
-0.67541433612,-0.513905314798,-0.126616348154,-2.63637072711,-0.0677211079489,2.11186587749,-0.924244141047,-0.12155721904,0.0239158194347,0.0229844537379,0.0206880752382,0.0111716457301,0.00169325188362,-0.108929937969,0.5739231973,0.818873370948,0.00626999636364,0.0,0.818873111209,-0.573830429805,-0.012091834841,0.0,-0.00630388821836,0.0120743484113,-0.999907231249,0.0,0.258126173469,-0.268821361459,0.304890571796,1.0,-0.0208028571429,-0.0273408979593,3.186
-0.677284005213,-0.513596997614,-0.126279579525,-2.636125894,-0.0674996687246,2.11192341592,-0.925939001228,-0.107332509971,0.0169026491174,0.0128471180397,0.0139346521909,0.00687641262423,0.00996844161105,-0.0813528954269,0.573934206684,0.818865568103,0.00628129556995,0.0,0.81886554366,-0.573841555318,-0.0120763280036,0.0,-0.00628454176886,0.0120747867212,-0.999907347738,0.0,0.257776193518,-0.269277096762,0.304900860804,1.0,-0.01969,-0.0258782857143,3.203
-0.678924276552,-0.513283684692,-0.126052495707,-2.63588421033,-0.0673502478613,2.11201051852,-0.927496290477,-0.0980868980811,0.0250693103485,0.0135883568088,0.012805172051,0.00318811611667,0.0104468865513,-0.0925595636664,0.573917066953,0.818877584277,0.00628085429188,0.0,0.818877746766,-0.573824791919,-0.0120453696977,0.0,-0.00625969385119,0.0120565271831,-0.999907723935,0.0,0.257459598488,-0.269707196411,0.304907698766,1.0,-0.01935,-0.0254314285714,3.22
-0.680383526873,-0.512994033865,-0.12591034603,-2.63564284626,-0.067248448692,2.11206880976,-0.92894694752,-0.0904138248987,0.0172792461509,0.0110588978613,0.0185368386676,0.00101910391435,-0.00057710329658,-0.0931878730214,0.57387894369,0.818904284044,0.00628318902489,0.0,0.818904609369,-0.573786922035,-0.0120231342034,0.0,-0.00624070456852,0.0120453879215,-0.999907976884,0.0,0.257163579355,-0.270109330842,0.304918605481,1.0,-0.01903,-0.0250108571429,3.236
-0.681853230301,-0.512673105879,-0.125791948225,-2.63540963065,-0.0672092711977,2.1121373633,-0.930384163973,-0.0848956057978,0.0192202866283,0.00527731565458,0.0105508511108,0.00180826763946,0.0030493588259,-0.0787069614558,0.573850267575,0.81892466013,0.00624646593407,0.0,0.818924454966,-0.573758311618,-0.0120367690431,0.0,-0.00627336603147,0.0120229183251,-0.999908042929,0.0,0.256852031684,-0.270523829324,0.304914487115,1.0,-0.01869,-0.024564,3.253
-0.683123525052,-0.512402060558,-0.125721479678,-2.63520594966,-0.0671450245456,2.11217267424,-0.931648290414,-0.0831243693884,0.0209303400444,0.00306500525783,0.0182459440426,0.00118897525282,0.00592106638684,-0.083144023869,0.573843265768,0.818929471708,0.00625888187004,0.0,0.818929275632,-0.573750964388,-0.0120589915614,0.0,-0.00628454507677,0.0120457846143,-0.999907697523,0.0,0.256574744089,-0.270882793424,0.304911426245,1.0,-0.01839,-0.0241697142857,3.268
-0.684483735611,-0.512096966951,-0.125691890275,-2.63497007469,-0.0671123552643,2.11223321946,-0.933047359722,-0.0835603350509,0.0215068534796,0.00316825760274,0.0168376260417,0.00613831543722,0.00233732308363,-0.0776214833168,0.57381660197,0.818948151339,0.00625936284703,0.0,0.818947950672,-0.573724283428,-0.0120601656948,0.0,-0.00628562295423,0.0120466476096,-0.999907680351,0.0,0.256270580396,-0.271287911457,0.304911530284,1.0,-0.01805,-0.0237228571429,3.285
-0.685986311046,-0.511767192535,-0.125668261614,-2.63469968434,-0.0670615632456,2.1123205389,-0.934554820605,-0.0748799237567,0.017488126458,0.000332657628715,0.0157579164251,0.000929957360408,0.00981360558615,-0.0777953322061,0.573831417252,0.818937682369,0.00627087483512,0.0,0.818937858129,-0.573739480274,-0.0120224872192,0.0,-0.00624793964304,0.0120345693887,-0.999908061969,0.0,0.255938618213,-0.271741254708,0.304920297311,1.0,-0.01767,-0.0232234285714,3.304
-0.68723888795,-0.511509359072,-0.12566496026,-2.63450242737,-0.0670222158577,2.11234680848,-0.935816746354,-0.0767779577114,0.0132220359573,-0.00102007263308,0.0122863207085,0.00483005631589,0.000671291923913,-0.0769695888076,0.573848503994,0.818925510395,0.00629680792635,0.0,0.818925845046,-0.573756104883,-0.012047378429,0.0,-0.00625319393321,0.0120702212299,-0.999907599394,0.0,0.255644331959,-0.272108680444,0.304916763833,1.0,-0.01735,-0.0228028571429,3.32
-0.68852985104,-0.511236911895,-0.125663744341,-2.63430337473,-0.066997904028,2.11238297124,-0.937068718446,-0.0730888411662,0.0169096285762,-0.00129736985238,0.00973869549484,0.000119918003661,0.00350556654677,-0.0760118578595,0.573900375448,0.818889055525,0.00631036477528,0.0,0.818889373556,-0.573807531854,-0.0120771340426,0.0,-0.00626901875084,0.0120987953584,-0.999907154967,0.0,0.255338780221,-0.272489172301,0.304909399855,1.0,-0.01701,-0.022356,3.337
-0.689649894292,-0.511008834169,-0.125647488697,-2.63411773639,-0.0669650879498,2.11245743822,-0.938222252784,-0.0764151598274,0.0212806067784,-0.000967988443393,0.014530605487,0.00342462289976,0.0105316062105,-0.070613233765,0.573884942336,0.818899829177,0.00631582409869,0.0,0.818900455762,-0.573792537038,-0.0120380601483,0.0,-0.006234112692,0.0120807252784,-0.999907591688,0.0,0.255087406459,-0.272824562494,0.304915982097,1.0,-0.01671,-0.0219617142857,3.352
-0.690890844753,-0.510750253402,-0.125617280031,-2.63390702364,-0.066935351713,2.11250543949,-0.939496871571,-0.0770782996423,0.01639262745,0.000638062481307,0.014810716913,0.00083687104148,0.00282560809341,-0.0661631117757,0.573859421917,0.818917719289,0.00631504656096,0.0,0.81891837675,-0.573767105072,-0.0120311370824,0.0,-0.00622926528896,0.0120759215488,-0.999907679925,0.0,0.254806305232,-0.273190130446,0.304920703991,1.0,-0.01637,-0.0215148571429,3.369
-0.692247519494,-0.510454283425,-0.12557080036,-2.63368487391,-0.0668891436267,2.11255163139,-0.940861305304,-0.0691015671371,0.0133224834668,0.000481296248826,0.0109935197699,0.000565310341217,0.00218073815114,-0.0780110071406,0.573851263759,0.81892337929,0.00632240743681,0.0,0.818924007025,-0.57375867277,-0.0120500224345,0.0,-0.00624062914441,0.012092724657,-0.999907405992,0.0,0.254499745431,-0.273581941536,0.30491698266,1.0,-0.01599,-0.0210154285714,3.388
-0.693283008609,-0.51022732095,-0.125545287223,-2.63349858829,-0.0668702169813,2.1126150859,-0.941948515775,-0.0663459653968,0.0195139877265,0.00360010374462,0.0155428030159,0.00405949343903,0.00516258884036,-0.0740343669101,0.573808375487,0.818953509354,0.00631226092254,0.0,0.81895418001,-0.573716177875,-0.0120226947582,0.0,-0.00622470169868,0.0120684077703,-0.999907799061,0.0,0.254269468326,-0.273893052536,0.304923487195,1.0,-0.01569,-0.0206211428571,3.403
-0.694558436925,-0.509924566063,-0.125519356297,-2.63326483957,-0.0668245530066,2.1126787027,-0.943204719842,-0.0696387329246,0.0205018649247,0.000235468046181,0.00864994512286,0.00644040036182,0.000228134841323,-0.0681375541554,0.573837250098,0.818933190254,0.0063235435123,0.0,0.818934018915,-0.573745018316,-0.0120197139388,0.0,-0.00621536075854,0.0120761569994,-0.999907763608,0.0,0.25398439347,-0.274273579353,0.304923471548,1.0,-0.01531,-0.0201217142857,3.422
-0.695629592299,-0.509669140948,-0.125497029731,-2.63307061954,-0.0667906414247,2.11271987655,-0.94429117463,-0.0657724087509,0.0215948308775,0.00134935959403,0.010141785043,-0.000795940226354,0.0055318932383,-0.0728748185313,0.573833373666,0.81893584234,0.00633184801434,0.0,0.81893668882,-0.573740930715,-0.0120329143957,0.0,-0.00622146429606,0.0120905032894,-0.999907552283,0.0,0.253741924508,-0.274590868581,0.304921022259,1.0,-0.01499,-0.0197011428571,3.438
-0.69683305583,-0.50939418645,-0.125474545338,-2.63286423613,-0.066758329755,2.11278422917,-0.945532850373,-0.0677335888374,0.012417287718,0.0020907122257,0.0128169969668,0.000964545009575,0.00424434870368,-0.0663507134191,0.573810555339,0.818951796673,0.00633626141564,0.0,0.818952711991,-0.57371812,-0.0120300128312,0.0,-0.00621689232935,0.0120922796275,-0.999907559239,0.0,0.253468325798,-0.274947936385,0.304918812949,1.0,-0.01463,-0.019228,3.456
-0.697814617636,-0.50916949389,-0.125458644419,-2.63269447171,-0.06672761063,2.11281712541,-0.946496840298,-0.0690768386714,0.0173066042286,0.00284155952491,0.012339469797,0.00524875686555,0.00513658256225,-0.0633904955909,0.573835544538,0.818934203687,0.00634702747914,0.0,0.818935154932,-0.573742853181,-0.0120456357456,0.0,-0.00622314127687,0.0121102510392,-0.99990730287,0.0,0.253242002571,-0.275236543492,0.30491575848,1.0,-0.01433,-0.0188337142857,3.471
-0.698896736297,-0.508915926351,-0.125430900953,-2.63249645623,-0.0667055901465,2.11288077867,-0.947564536996,-0.066555907677,0.015597495862,0.00038608896434,0.013218608041,0.000496410875853,0.00607852205002,-0.0650462995776,0.573847178566,0.818926120865,0.00633806898627,0.0,0.818927043408,-0.573754695515,-0.0120330316406,0.0,-0.00621778679394,0.0120957702334,-0.999907511458,0.0,0.252999751606,-0.275560360142,0.304917699587,1.0,-0.01399,-0.0183868571429,3.488
-0.699821608344,-0.508701785058,-0.125402218185,-2.63233326383,-0.0666738110423,2.11292233392,-0.948512672921,-0.0638350849086,0.0127490248299,0.00249533689274,0.00749272977842,-0.000441382529692,0.0019677795371,-0.0637921009563,0.573829691697,0.818938341136,0.00634233753762,0.0,0.818939291537,-0.573737139643,-0.0120365390551,0.0,-0.00621846845409,0.0121011458894,-0.999907442176,0.0,0.252791566032,-0.275831186389,0.304916582092,1.0,-0.01369,-0.0179925714286,3.503
-0.701011461401,-0.508405351823,-0.125350346135,-2.632104212,-0.0666496620351,2.11296707983,-0.949680201631,-0.0627443974309,0.0116247865917,0.00122377934651,0.0115810093907,-0.000562763053915,0.00423552764904,-0.0485097552676,0.573833116411,0.818936071985,0.00632545750252,0.0,0.818936702926,-0.57374044507,-0.0120550899541,0.0,-0.0062432974145,0.0120979920724,-0.999907325618,0.0,0.252527607101,-0.276181303738,0.304915624367,1.0,-0.01329,-0.0174668571429,3.523
-0.701859598266,-0.508183012594,-0.125332174857,-2.63193531333,-0.0666224452093,2.11299992634,-0.950534677764,-0.0559731954493,0.0156677908141,0.000659647533683,0.0139897353266,-3.54537424514e-05,0.0093072634019,-0.0588559858342,0.573835327721,0.818934479955,0.00633096371073,0.0,0.818935081199,-0.573742434825,-0.0120705494929,0.0,-0.00625276702273,0.0121113891863,-0.999907104263,0.0,0.252336870332,-0.276435160753,0.304913028889,1.0,-0.01299,-0.0170725714286,3.538
-0.702825655213,-0.507931206967,-0.125317993075,-2.63174698753,-0.0665900586407,2.11307068963,-0.951549667369,-0.0559364150002,0.0191664018843,-0.00141544033287,0.0126451747788,0.00678368595704,0.00269050060128,-0.0640311829836,0.573808696935,0.818953091061,0.00633725999475,0.0,0.818953849866,-0.5737159282,-0.0120570485857,0.0,-0.00623849031849,0.0121085959361,-0.999907227268,0.0,0.252122103169,-0.276729286073,0.304911441598,1.0,-0.01265,-0.0166257142857,3.555
-0.703726033173,-0.507727125045,-0.125305580404,-2.63156846444,-0.066574494199,2.11310739874,-0.952418441941,-0.0536850933532,0.0112913168703,0.00191200109256,0.00734588590927,0.00014875655241,-0.000515850187379,-0.0450573518365,0.573841438117,0.81893019226,0.00633174588754,0.0,0.818930979482,-0.573748881325,-0.0120423803519,0.0,-0.00622915666758,0.0120959126048,-0.999907438969,0.0,0.251916978197,-0.277001859425,0.304920150085,1.0,-0.01233,-0.0162051428572,3.571
-0.70462533328,-0.507514335795,-0.125304798659,-2.6314022949,-0.0665479230571,2.11313782552,-0.953289221235,-0.0601081832591,0.0146482583691,-0.000232706130737,0.00883284988889,0.00151057598882,-9.07372614682e-05,-0.0468236213574,0.573891114975,0.81889525121,0.00634843290855,0.0,0.818896170241,-0.573798306881,-0.0120545545631,0.0,-0.00622881735691,0.0121169424433,-0.999907186463,0.0,0.251693836456,-0.277285685246,0.304917684879,1.0,-0.01199,-0.0157582857143,3.588
-0.705627227796,-0.507268557712,-0.12530694375,-2.63121055882,-0.066525622839,2.11318604387,-0.954335337462,-0.0480881518622,0.00976815618201,-0.00110786855843,0.0065753177478,4.13601355018e-05,0.0044878291742,-0.0569835716567,0.573868846874,0.81891081296,0.00635404643224,0.0,0.818911810604,-0.573776029308,-0.0120524498444,0.0,-0.00622420180345,0.0121201625134,-0.999907176178,0.0,0.25147345826,-0.277575707491,0.304919039529,1.0,-0.01163,-0.0152851428572,3.606
